Andreas691667/Digital_Twin_UR/src/robot_connection_manager/rcm_simulator/simulation_data/square.csv
timestamp actual_q_0 actual_q_1 actual_q_2 actual_q_3 actual_q_4 actual_q_5 actual_qd_0 actual_qd_1 actual_qd_2 actual_qd_3 actual_qd_4 actual_qd_5 safety_status output_bit_register_65 output_bit_register_66

4288.092 3.7120490074157715 -0.8255320352366944 0.8429973761187952 -1.5883094273009242 -1.5707686583148401 2.141251564025879 0.0 0.0 0.0 -0.0 -0.0 -1.4596334997316048e-18 1 True False

4288.142 3.71209979057312 -0.8254950207522889 0.8429845015155237 -1.588297029534811 -1.570772949849264 2.141287088394165 0.0 0.0 0.0 -0.0 -0.0 -2.2171866706614756e-37 1 True False

4288.192 3.71343994140625 -0.8259710830501099 0.8437765280352991 -1.588628431359762 -1.570813004170553 2.14247465133667 0.06043922156095505 -0.024626299738883972 0.039690982550382614 -0.012750962749123573 -8.050087679789542e-11 0.05677330493927002 1 True False

4288.242 3.717996597290039 -0.8280915182879944 0.8472612539874476 -1.5898038349547328 -1.5707886854754847 2.1471312046051025 0.12791825830936432 -0.06485869735479355 0.10113196820020676 -0.030458945780992508 -1.222810311815767e-29 0.12684813141822815 1 True False

4288.2919999999995 3.726283550262451 -0.8324063581279297 0.853830639516012 -1.5920731029906214 -1.5707967917071741 2.155313014984131 0.19400247931480408 -0.10325397551059723 0.15260367095470428 -0.05394059792160988 0.0001198726604343392 0.1902076005935669 1 True False

4288.342 3.737738847732544 -0.8386544150165101 0.8629010359393519 -1.5951162777342738 -1.5707886854754847 2.1668503284454346 0.26267075538635254 -0.1380869299173355 0.21169200539588928 -0.06833845376968384 7.218709652079269e-05 0.2660456597805023 1 True False

4288.392 3.7528538703918457 -0.8464182776263733 0.87469989458193 -1.5990673504271449 -1.5707925001727503 2.182034969329834 0.33361801505088806 -0.17126907408237457 0.2614430785179138 -0.08941665291786194 4.615942089003511e-05 0.3364262282848358 1 True False

4288.442 3.7714929580688477 -0.8559407156756897 0.8891289869891565 -1.6038557491698207 -1.5708211104022425 2.200563430786133 0.40651631355285645 -0.20689690113067627 0.31606224179267883 -0.10257313400506973 2.812577622535173e-05 0.4064997732639313 1 True False

4288.492 3.7934470176696777 -0.8672647637179871 0.9063523451434534 -1.6097141704955042 -1.5707724730121058 2.2228174209594727 0.4742398262023926 -0.24339154362678528 0.37246954441070557 -0.12350206822156906 3.7371657526819035e-05 0.47086477279663086 1 True False

4288.5419999999995 3.8192248344421387 -0.8804567021182557 0.9261959234820765 -1.6165358028807582 -1.570756737385885 2.2483155727386475 0.5485669374465942 -0.2819996774196625 0.4230678379535675 -0.13821600377559662 0.00018990375974681228 0.5448057651519775 1 True False

4288.592 3.8481976985931396 -0.8953374189189454 0.9488914648639124 -1.6241513691344203 -1.570801083241598 2.277359962463379 0.6233114004135132 -0.31116265058517456 0.47952890396118164 -0.1526915282011032 -2.0725761373796558e-07 0.6161547899246216 1 True False

4288.642 3.880746841430664 -0.9120931786349793 0.9740012327777308 -1.6328126392760218 -1.570801083241598 2.309906482696533 0.6887525320053101 -0.35397234559059143 0.5300939083099365 -0.18064993619918823 3.8417535754182996e-13 0.6842580437660217 1 True False

4288.692 3.916849136352539 -0.9303184908679505 1.0020864645587366 -1.6423150501646937 -1.570784870778219 2.3459837436676025 0.7563357353210449 -0.387991726398468 0.5874819755554199 -0.20270687341690063 5.835629444946743e-32 0.7533087134361267 1 True False

4288.742 3.9563181400299072 -0.9508505624583741 1.0326789061175745 -1.6527954540648402 -1.5707529226886194 2.3856332302093506 0.8259168863296509 -0.42583805322647095 0.6369466781616211 -0.20517559349536896 -6.126223161118105e-05 0.8127621412277222 1 True False

4288.7919999999995 3.9994125366210938 -0.972760872249939 1.0662387053119105 -1.6640902958311976 -1.5707843939410608 2.428584098815918 0.8883963823318481 -0.45775914192199707 0.6938117146492004 -0.24272499978542328 5.984578024254006e-07 0.8969096541404724 1 True False

4288.842 4.045924186706543 -0.9966865342906495 1.1023829619037073 -1.6764003239073695 -1.5707605520831507 2.4751675128936768 0.965113639831543 -0.4934685528278351 0.7523240447044373 -0.26382189989089966 9.090584703841312e-26 0.9618188738822937 1 True False

4288.892 4.0958991050720215 -1.0222774905017395 1.1411932150470179 -1.689676424066061 -1.5708335081683558 2.5250720977783203 1.030374526977539 -0.5321365594863892 0.8076691627502441 -0.26884371042251587 1.401298464324817e-44 1.039556860923767 1 True False

4288.942 4.148173809051514 -1.0489374560168763 1.1817005316363733 -1.7034617863097132 -1.5707805792437952 2.577498197555542 1.043472409248352 -0.5380032062530518 0.8102657198905945 -0.28692811727523804 -0.00011904531856998801 1.0370286703109741 1 True False

4288.992 4.200559139251709 -1.0759205383113404 1.2223437468158167 -1.7172242603697718 -1.5707810560809534 2.6298344135284424 1.0492137670516968 -0.5401482582092285 0.8073923587799072 -0.2886683940887451 1.1229498234066604e-11 1.0471423864364624 1 True False

4289.0419999999995 4.252965450286865 -1.1027290386012574 1.263146702443258 -1.7310177288451136 -1.5708211104022425 2.682121992111206 1.0455824136734009 -0.540666937828064 0.8085434436798096 -0.2883828282356262 -0.00021270591241773218 1.045513391494751 1 True False

4289.092 4.3052568435668945 -1.1296833616546174 1.3037479559527796 -1.744791646996969 -1.5708168188678187 2.734562873840332 1.0448445081710815 -0.5303785800933838 0.8142085075378418 -0.2813040614128113 -9.408839310968359e-23 1.0401192903518677 1 True False

4289.142 4.357693195343018 -1.1563733977130433 1.3443525473224085 -1.7586304150023402 -1.5707719961749476 2.786900281906128 1.048740029335022 -0.5306396484375 0.8187057971954346 -0.28868475556373596 -1.9549804619600764e-07 1.0473265647888184 1 True False

4289.192 4.409981727600098 -1.1832779210856934 1.3850305716144007 -1.7726088962950648 -1.570829216633932 2.8390848636627197 1.0458557605743408 -0.536149799823761 0.8128000497817993 -0.2843766212463379 6.600048285676507e-11 1.0567259788513184 1 True False

4289.242 4.460566520690918 -1.2091497045806427 1.4242208639727991 -1.7858931026854457 -1.5708377997027796 2.8898086547851562 0.9778587222099304 -0.5031045079231262 0.7605239748954773 -0.25606903433799744 -1.1383789466634653e-09 0.9676886796951294 1 True False

4289.2919999999995 4.507686614990234 -1.2332860392383118 1.4607189337359827 -1.798232217828268 -1.570813004170553 2.9369611740112305 0.9103472232818604 -0.46709826588630676 0.7048604488372803 -0.23711581528186798 -4.565562790048716e-07 0.9134831428527832 1 True False

4289.342 4.551346778869629 -1.2557074588588257 1.4947002569781702 -1.8097416363158167 -1.5707719961749476 2.9806015491485596 0.8417706489562988 -0.42554646730422974 0.6504414081573486 -0.23187462985515594 6.437247793655843e-05 0.8353545069694519 1 True False

4289.392 4.591421127319336 -1.2761621934226532 1.5258138815509241 -1.8202864132323207 -1.5708368460284632 3.0204081535339355 0.7677451968193054 -0.3867960274219513 0.6013535857200623 -0.21712011098861694 8.342106525560666e-07 0.7719460725784302 1 True False

4289.442 4.628024101257324 -1.295061157350876 1.5541251341449183 -1.8301059208311976 -1.570801083241598 3.057227611541748 0.697378396987915 -0.3564949333667755 0.5424945950508118 -0.18342243134975433 -1.1412142157496419e-05 0.7038210034370422 1 True False

4289.492 4.661266803741455 -1.31209950268779 1.5800593535052698 -1.8386765919127406 -1.570829216633932 3.090334177017212 0.6310336589813232 -0.32209739089012146 0.48550769686698914 -0.1555999368429184 -1.995492084461148e-06 0.6388611793518066 1 True False

4289.5419999999995 4.690881252288818 -1.3272602421096344 1.602940861378805 -1.8465835056700648 -1.570801083241598 3.1200122833251953 0.5601677298545837 -0.2881201207637787 0.4386034607887268 -0.13981947302818298 7.649499457329512e-05 0.5628648996353149 1 True False

4289.592 4.71694278717041 -1.3405871552279969 1.6231039206134241 -1.8534370861449183 -1.5707925001727503 3.146066427230835 0.4929555058479309 -0.25554248690605164 0.37904706597328186 -0.1253732144832611 1.7991838574538122e-10 0.49838098883628845 1 True False

4289.642 4.739674091339111 -1.352138177757599 1.641015354787008 -1.8593412838377894 -1.5708492437945765 3.168949842453003 0.4185566008090973 -0.20948149263858795 0.32445698976516724 -0.10975831747055054 -0.0001714092359179631 0.4131231904029846 1 True False

4289.692 4.7587809562683105 -1.3620487761548539 1.6555874983416956 -1.864648004571432 -1.5707967917071741 3.188062906265259 0.3479180634021759 -0.17868098616600037 0.27115076780319214 -0.08761727809906006 0.00014195492258295417 0.3469623625278473 1 True False

4289.742 4.774552345275879 -1.370060757999756 1.6680997053729456 -1.8688308201231898 -1.5707767645465296 3.2036490440368652 0.2773274779319763 -0.143313929438591 0.21246594190597534 -0.07775501161813736 -5.138560757456112e-11 0.2847656011581421 1 True False

4289.7919999999995 4.7866411209106445 -1.3763627868941803 1.6773260275470179 -1.8718840084471644 -1.5707724730121058 3.215970516204834 0.20941044390201569 -0.10477104783058167 0.1665850728750229 -0.05241585895419121 -2.949079999300941e-12 0.20674386620521545 1 True False

4289.842 4.795461654663086 -1.380759136085846 1.6841266790973108 -1.8743063412108363 -1.570829216633932 3.2246806621551514 0.13922442495822906 -0.07202634960412979 0.1056191548705101 -0.04652862250804901 -4.479659918300053e-31 0.1412971019744873 1 True False

4289.892 4.800652027130127 -1.3834500473788758 1.6882651487933558 -1.8756410084166468 -1.5707691351519983 3.2298083305358887 0.07061870396137238 -0.03396668657660484 0.054350126534700394 -0.015374717302620411 -0.0 0.07210370898246765 1 True False

4289.942 4.802350997924805 -1.3843817722848435 1.6895440260516565 -1.8760181866087855 -1.5708168188678187 3.231581926345825 -0.0014947259332984686 -9.728853456181241e-07 -0.003271175781264901 0.00017541565466672182 -0.0 -0.0002930343907792121 1 True False

4289.992 4.802323341369629 -1.3837654304555436 1.690789047871725 -1.8778144321837367 -1.5708006064044397 3.2315404415130615 0.0014098334359005094 0.023687317967414856 0.04595903679728508 -0.06510156393051147 -1.3415927924143034e-07 0.00013267698523122817 1 True False

4290.0419999999995 4.802290916442871 -1.3819192361882706 1.694207016621725 -1.8831325970091761 -1.570829216633932 3.231489658355713 0.00027182503254152834 0.05158194899559021 0.08754284679889679 -0.1447027176618576 -2.0378825572361148e-26 0.00039799141814000905 1 True False

4290.092 4.802302837371826 -1.3786775481751938 1.6997945944415491 -1.8919717274107875 -1.5708168188678187 3.2315149307250977 0.0006758010713383555 0.08006463944911957 0.13385072350502014 -0.2056507021188736 -2.802596928649634e-45 0.00019883972709067166 1 True False

4290.142 4.8022942543029785 -1.374093310242035 1.7073715368853968 -1.904142519036764 -1.5707529226886194 3.2315523624420166 0.00040208976133726537 0.0983961820602417 0.1771024614572525 -0.28634604811668396 -0.0 0.00015107942454051226 1 True False

4290.192 4.802347183227539 -1.3682959836772461 1.7173612753497522 -1.91978182415151 -1.5707925001727503 3.2315151691436768 0.00030631685513071716 0.12746351957321167 0.2232363224029541 -0.3509291708469391 -0.0 0.00013378661242313683 1 True False

4290.242 4.802366733551025 -1.3612331759980698 1.729706112538473 -1.9390775165953578 -1.5708048979388636 3.2315642833709717 0.00011462606926215813 0.15694686770439148 0.2676483392715454 -0.4196709990501404 3.536632653400318e-10 0.00011334508599247783 1 True False

4290.2919999999995 4.8023552894592285 -1.3529417526772995 1.7439139525042933 -1.9619246921935023 -1.5707367102252405 3.2315688133239746 8.384190732613206e-05 0.17841944098472595 0.3066239356994629 -0.4900839924812317 5.372151070127976e-29 7.860008190618828e-05 1 True False

4290.342 4.80239200592041 -1.3432133805802842 1.7606261412249964 -1.987857004205221 -1.570784870778219 3.2315433025360107 7.046472455840558e-05 0.2018260806798935 0.3534511625766754 -0.5579659342765808 0.0 5.1957213145215064e-05 1 True False

4290.392 4.802371025085449 -1.3333549064448853 1.7776144186602991 -2.015334268609518 -1.5707805792437952 3.2315900325775146 5.927486563450657e-05 0.18391041457653046 0.32044222950935364 -0.5230802297592163 0.0 1.8298695236545228e-23 1 True False

4290.442 4.802374839782715 -1.324471266274788 1.7929452101336878 -2.039084573785299 -1.570801083241598 3.231581211090088 1.2191931571852246e-25 0.16467657685279846 0.27883589267730713 -0.45397526025772095 0.0 2.780176153220437e-42 1 True False

4290.492 4.802342414855957 -1.3170115810683747 1.805502716694967 -2.059568544427389 -1.5708125273333948 3.2315478324890137 0.0 0.13706696033477783 0.23683172464370728 -0.37635424733161926 0.0 0.0 1 True False

4290.5419999999995 4.802338123321533 -1.3106768292239686 1.8162792364703577 -2.0764194927611292 -1.5707810560809534 3.2315447330474854 0.0 0.10800067335367203 0.19141557812690735 -0.3202652931213379 0.0 0.0 1 True False

4290.592 4.802318096160889 -1.305792973642685 1.8249576727496546 -2.0897494755186976 -1.5707529226886194 3.2315478324890137 0.0 0.08389544486999512 0.14641472697257996 -0.24374544620513916 0.0 1.5843043158847783e-14 1 True False

4290.642 4.802309513092041 -1.3022151750377198 1.8310087362872522 -2.0997821293272914 -1.5707691351519983 3.231506109237671 0.0 0.06123755872249603 0.10492885857820511 -0.15999573469161987 0.0 2.4065607480926756e-33 1 True False

4290.692 4.802338600158691 -1.2998843354037781 1.8351462523089808 -2.1061226330199183 -1.570784870778219 3.231527090072632 0.0 0.03307921439409256 0.05908526852726936 -0.092074453830719 0.0 0.0 1 True False

4290.742 4.802346706390381 -1.2987205249122162 1.8370640913592737 -2.109018941918844 -1.5707967917071741 3.231593132019043 0.0 0.010466986335814 0.01856328174471855 -0.030178876593708992 0.0 0.0 1 True False

4290.7919999999995 4.802379131317139 -1.29872481644664 1.8371437231646937 -2.1092130146422328 -1.5707805792437952 3.231538772583008 0.0 -0.00018349166202824563 -4.2109493469564386e-20 -0.0001270458014914766 5.2747152857010874e-18 0.0 1 True False

4290.842 4.802399635314941 -1.2987530690482636 1.8371065298663538 -2.109244485894674 -1.5707891623126429 3.2315120697021484 0.0 0.0 -0.0 -0.00010867485252674669 8.012308037660244e-37 -4.3100009672336625e-11 1 True False

4290.892 4.802318096160889 -1.298791067009308 1.8371971289264124 -2.109248777429098 -1.5707886854754847 3.2315239906311035 0.0 0.00010421378101455048 -0.0 -0.00017378180928062648 0.0 3.7950463593006134e-05 1 True False

4290.942 4.802326679229736 -1.2987573903850098 1.8371265570269983 -2.109236856500143 -1.5707648436175745 3.2315642833709717 0.0 0.00025333184748888016 9.937438881024718e-05 -0.00034582929220050573 0.0 1.84721084224293e-05 1 True False

4290.992 4.802363872528076 -1.2987145644477387 1.8372047583209437 -2.109260698358053 -1.570813004170553 3.2315731048583984 0.0 0.00042651695548556745 0.00017879731603898108 -0.0006215099710971117 0.0 2.4415465304628015e-05 1 True False

4291.0419999999995 4.802297592163086 -1.2987466615489502 1.837208096181051 -2.109300275842184 -1.570853058491842 3.2315478324890137 0.0 0.0001673077349551022 0.0001644506846787408 -0.00019945341045968235 0.0 7.974062382620772e-12 1 True False

4291.092 4.802306175231934 -1.2986886662295838 1.8371709028827112 -2.1093322239317835 -1.5707967917071741 3.2314987182617188 0.0 0.00011491490295156837 0.00010250185732729733 -0.00012099630112061277 0.0 1.2112618227313677e-30 1 True False

4291.142 4.802313804626465 -1.2987553638270875 1.8371995131122034 -2.109328409234518 -1.5708211104022425 3.2315151691436768 0.0 5.727706229663454e-05 7.837178418412805e-05 -9.342137491330504e-05 0.0 0.0 1 True False

4291.192 4.80239200592041 -1.29867239416156 1.837236229573385 -2.1092564068236292 -1.570813004170553 3.231527090072632 0.0 4.328288219360485e-31 4.956555166302223e-09 -1.1399378890917383e-13 0.0 0.0 1 True False

4291.242 4.80230188369751 -1.2987211507609864 1.837208096181051 -2.10929598430776 -1.570796314870016 3.231538772583008 0.0 0.0 1.1663302792551425e-38 -1.7315682717609063e-32 0.0 0.0 1 True False

4291.2919999999995 4.8023223876953125 -1.298738495712616 1.8371828238116663 -2.1093083820738734 -1.5708168188678187 3.2315642833709717 0.0 5.007138315704651e-05 0.0 -0.0 0.0 0.0 1 True False

4291.342 4.80230188369751 -1.2987178725055237 1.8372166792498987 -2.109328409234518 -1.5707805792437952 3.2315433025360107 0.0 0.0 0.0 -9.265686458093114e-06 0.0 0.0 1 True False

4291.392 4.802359580993652 -1.298761711721756 1.8371236960040491 -2.1094232998290003 -1.5707891623126429 3.231550693511963 0.0 -3.369439859980735e-27 0.00011571609502425417 -0.00043662983807735145 0.0 -0.00027350641903467476 1 True False

4291.442 4.8023552894592285 -1.298749790792801 1.8371194044696253 -2.10943140606069 -1.5707648436175745 3.231593132019043 0.0 0.00018817807722371072 8.875684579834342e-05 0.00011961469863308594 0.0 -7.451630517607555e-05 1 True False

4291.492 4.802334308624268 -1.2988120776465912 1.8369033972369593 -2.1085602245726527 -1.5707529226886194 3.231572151184082 0.0 -0.009577642194926739 -0.02036425657570362 0.04232458397746086 0.0 -5.878801312064752e-05 1 True True

4291.5419999999995 4.802359580993652 -1.3000596922687073 1.834719483052389 -2.1050144634642542 -1.5707967917071741 3.2315642833709717 0.0 -0.04433692246675491 -0.07799950987100601 0.10452048480510712 0.0 -3.41517552442383e-05 1 True True

4291.592 4.8023223876953125 -1.3027872306159516 1.8301456610309046 -2.0976530514159144 -1.5708168188678187 3.231534242630005 0.0 -0.06698358803987503 -0.11588340252637863 0.1786787509918213 0.0 -4.9034046984699434e-15 1 True True

4291.642 4.802358150482178 -1.3069183391383667 1.8230755964862269 -2.086907526055807 -1.5708048979388636 3.2316019535064697 0.0 -0.09091268479824066 -0.159125417470932 0.26133015751838684 0.0 -8.603698370279744e-05 1 True True

4291.692 4.8023600578308105 -1.312170372610428 1.8138311545001429 -2.072759290734762 -1.5707891623126429 3.2315900325775146 0.0 -0.11637981981039047 -0.20547281205654144 0.32878947257995605 0.0 -7.606011058669537e-05 1 True True

4291.742 4.80233097076416 -1.31862364829097 1.802741829548971 -2.054842611352438 -1.57074481645693 3.231527090072632 0.0 -0.14167724549770355 -0.24246616661548615 0.3731985092163086 0.0 -4.462692595552653e-05 1 True True

4291.7919999999995 4.8023176193237305 -1.3263947826674958 1.7894066015826624 -2.033739229241842 -1.5708254019366663 3.2315478324890137 0.0 -0.16876931488513947 -0.28424257040023804 0.45812752842903137 0.0 -3.157793980790302e-05 1 True True

4291.842 4.802404403686523 -1.3355568957379838 1.7736495176898401 -2.009019990960592 -1.5707929770099085 3.2315313816070557 0.0 -0.19634251296520233 -0.33077096939086914 0.5249488949775696 0.0 -1.7098572893901208e-20 1 True True

4291.892 4.8023223876953125 -1.345724419956543 1.7562416235553187 -1.9813858471312464 -1.5708087126361292 3.2315685749053955 0.0 -0.1996433585882187 -0.34511688351631165 0.5467145442962646 0.0 -2.5972772763582976e-39 1 True True

4291.942 4.8022894859313965 -1.3549682360938569 1.7403071562396448 -1.9560371838011683 -1.5707767645465296 3.2315566539764404 0.0 -0.17156259715557098 -0.29857027530670166 0.4731047749519348 0.0 -0.0 1 True True

4291.992 4.802346706390381 -1.3629421454719086 1.7264159361468714 -1.9341727695860804 -1.5707805792437952 3.231506109237671 0.0 -0.15189939737319946 -0.2497541606426239 0.4075687527656555 0.0 -0.0 1 True True

4292.0419999999995 4.8023552894592285 -1.3698191356709977 1.7148726622210901 -1.9157844982542933 -1.5708487669574183 3.231576681137085 0.0 -0.12235556542873383 -0.20653031766414642 0.32539066672325134 0.0 -0.0 1 True True

4292.092 4.802366733551025 -1.3753168147853394 1.7055423895465296 -1.900888582269186 -1.5708091894732874 3.231510639190674 0.0 -0.09542058408260345 -0.16828548908233643 0.2731017768383026 0.0 -0.0 1 True True

4292.142 4.8023881912231445 -1.3795102846673508 1.6983755270587366 -1.8894263706602992 -1.5707724730121058 3.2316107749938965 0.0 -0.07053977996110916 -0.1251973956823349 0.18738320469856262 0.0 -0.0 1 True True

4292.192 4.8023552894592285 -1.3824150574258347 1.6931732336627405 -1.8817278347411097 -1.5708048979388636 3.231527090072632 0.0 -0.04839625209569931 -0.0773649588227272 0.12975110113620758 0.0 -0.0 1 True True

4292.242 4.802326679229736 -1.3838878136924286 1.690300766621725 -1.877185960809225 -1.570801083241598 3.2315642833709717 0.0 -0.0215532798320055 -0.03694592043757439 0.058266811072826385 0.0 -0.0 1 True True

4292.2919999999995 4.802221775054932 -1.3843412858298798 1.6896994749652308 -1.8761970005431117 -1.5707767645465296 3.2314891815185547 -0.02870181016623974 0.00024966002092696726 -0.00030233029974624515 -0.0005290858098305762 0.0 -0.021823368966579437 1 True True

4292.342 4.799839019775391 -1.3843697321465989 1.6896517912494105 -1.876181264916891 -1.5707324186908167 3.2289304733276367 -0.08393820375204086 1.0726492381380089e-19 -8.517724927514791e-05 0.0010113519383594394 0.0 -0.08378929644823074 1 True True

4292.392 4.793581962585449 -1.3843046140721817 1.6897457281695765 -1.8760925732054652 -1.5707648436175745 3.2228453159332275 -0.15625105798244476 0.0 -0.00010723455488914624 0.0007718222914263606 -0.00011421891395002604 -0.1548953801393509 1 True True

4292.442 4.784148693084717 -1.3843370091966172 1.6896098295794886 -1.8760739765562953 -1.5708087126361292 3.2132389545440674 -0.228928804397583 0.0 -0.0004766166675835848 0.00028508342802524567 -6.988514360273257e-05 -0.22308121621608734 1 True True

4292.492 4.771003246307373 -1.3843003076365967 1.689648453389303 -1.876061578790182 -1.57074481645693 3.20034122467041 -0.2955864369869232 0.0 -0.0008011278696358204 0.00016787604545243084 -5.03399278386496e-05 -0.29618462920188904 1 True True

4292.5419999999995 4.754563331604004 -1.384296016102173 1.689582649861471 -1.876077791253561 -1.5708087126361292 3.1837098598480225 -0.363351434469223 0.0 -0.0010557187488302588 0.00014152572839520872 -4.2793438499720096e-23 -0.3627628982067108 1 True True

4292.592 4.734441757202148 -1.3843294245055695 1.689535919819967 -1.8760529957213343 -1.5708325544940394 3.1637139320373535 -0.4346649944782257 0.00013633156777359545 -0.002388708759099245 0.00011399854702176526 -6.500623576002826e-42 -0.4366360008716583 1 True True

4292.642 4.711086273193359 -1.3843010079911728 1.6894868055926722 -1.8760415516295375 -1.5708006064044397 3.140314817428589 -0.5070560574531555 0.0008193645626306534 -0.0015840926207602024 8.297852764371783e-05 -0.0 -0.5108620524406433 1 True True

4292.692 4.6841511726379395 -1.3842485857060929 1.6894453207599085 -1.876049657861227 -1.570836369191305 3.113243818283081 -0.5729885101318359 0.0007395192515105009 -0.0008986002067103982 0.00017866428242996335 -6.294222202996025e-06 -0.5652771592140198 1 True True

4292.742 4.653581619262695 -1.3841692370227356 1.689343277608053 -1.8760301075377406 -1.5707686583148401 3.082878828048706 -0.6437570452690125 0.0010293014347553253 -0.0013668433530256152 0.00022531088325195014 -0.00031956189195625484 -0.6380188465118408 1 True True

4292.7919999999995 4.619602680206299 -1.384039507513382 1.6892474333392542 -1.875981946984762 -1.5708335081683558 3.0488555431365967 -0.7084575891494751 0.0008012187900021672 -0.0014034447958692908 0.00031932335696183145 -0.00018636784807313234 -0.7072205543518066 1 True True

4292.842 4.58209228515625 -1.384041429763176 1.6892254988299769 -1.875970026055807 -1.570772949849264 3.0115280151367188 -0.7776842713356018 0.000999059178866446 -0.0010495054302737117 0.0003068972728215158 0.0004138971562497318 -0.7886452078819275 1 True True

4292.892 4.541108131408691 -1.384002224808075 1.68915301958193 -1.8759900532164515 -1.5708091894732874 2.970301389694214 -0.8507317900657654 0.0021849789191037416 -0.002193646738305688 0.0006164514343254268 -8.643040416700387e-08 -0.8556855916976929 1 True True

4292.942 4.496740818023682 -1.3837866646102448 1.6890571753131312 -1.875998159448141 -1.570796314870016 2.9259166717529297 -0.9304606318473816 0.0024544268380850554 -0.002798838773742318 0.0003590236301533878 -0.0021265617106109858 -0.9154648184776306 1 True True

4292.992 4.448824882507324 -1.383764625792839 1.6889494101153772 -1.875970026055807 -1.5707605520831507 2.878098726272583 -0.9910410046577454 0.0016404800117015839 -0.002688996959477663 0.0004823532362934202 -1.0077021528331898e-07 -1.000548005104065 1 True True

4293.0419999999995 4.397444725036621 -1.383636788730957 1.6888178030597132 -1.8759309254088343 -1.5708087126361292 2.826871156692505 -1.0423426628112793 0.0014513913774862885 -0.0012309122830629349 0.0005769555573351681 -3.617886765454499e-14 -1.0431243181228638 1 True True

4293.092 4.345217227935791 -1.3835483503392716 1.6887057463275355 -1.8759461841978968 -1.570784870778219 2.774207353591919 -1.0502606630325317 0.003078772919252515 -0.002809286117553711 0.0008520951378159225 0.0004971283487975597 -1.0455820560455322 1 True True

4293.142 4.292839527130127 -1.3835208874991913 1.6886070410357874 -1.8758303127684535 -1.570824925099508 2.7219455242156982 -1.041489839553833 0.0009725347044877708 -0.0027654666919261217 0.0006361245177686214 1.6853426987317732e-10 -1.055283784866333 1 True True

4293.192 4.240438461303711 -1.3834379029325028 1.6884210745440882 -1.8758827648558558 -1.5708697477923792 2.669785737991333 -1.050187110900879 0.0024541968014091253 -0.0022464406210929155 0.00034281943226233125 -1.7936754444464013e-14 -1.0420345067977905 1 True True

4293.242 4.188111305236816 -1.383243353371956 1.6882641951190394 -1.8757912121214808 -1.5707724730121058 2.617142915725708 -1.0475858449935913 0.002248304896056652 -0.003624918404966593 0.0003345026052556932 -2.724596805850392e-33 -1.0464340448379517 1 True True

4293.2919999999995 4.135654449462891 -1.3832169336131592 1.6882599035846155 -1.8758508167662562 -1.5708254019366663 2.564870595932007 -1.042977213859558 0.0015718229115009308 -0.0015493400860577822 0.0008892580517567694 0.000644875573925674 -1.0525460243225098 1 True True

4293.342 4.083293437957764 -1.3830884409001847 1.6881235281573694 -1.87577547649526 -1.5707767645465296 2.5126771926879883 -1.0511566400527954 0.0025629873853176832 -0.0016372818499803543 0.00035816343734040856 1.6310036698996555e-07 -1.0452128648757935 1 True True

4293.392 4.0310258865356445 -1.3828975868276139 1.6879900137530726 -1.8757549724974574 -1.5708091894732874 2.460111379623413 -1.0523301362991333 0.0025866066571325064 -0.0030149463564157486 0.0005234432173892856 0.0002312429278390482 -1.0378851890563965 1 True True

4293.442 3.9784862995147705 -1.382924647336342 1.6879318396197718 -1.8757430515685023 -1.5707605520831507 2.4077975749969482 -1.0413626432418823 0.0009782707784324884 -0.00301428628154099 0.0008871881291270256 -1.7722054224122985e-07 -1.0517451763153076 1 True True

4293.492 3.926269769668579 -1.3828136187842865 1.6877997557269495 -1.8756996593871058 -1.5707805792437952 2.355597972869873 -1.05010187625885 0.002064794534817338 -0.001826298888772726 0.0004771836393047124 -0.00047530035953968763 -1.0433319807052612 1 True True

4293.5419999999995 3.8739662170410156 -1.382737250333168 1.6876309553729456 -1.875763555566305 -1.5707967917071741 2.3030591011047363 -1.0501984357833862 0.002264247043058276 -0.0029118736274540424 0.0004959700163453817 -4.027614353141473e-11 -1.0418827533721924 1 True True

4293.592 3.8215959072113037 -1.3826606285623093 1.6875470320331019 -1.875711580316061 -1.5707648436175745 2.250777006149292 -1.0443403720855713 0.001109682722017169 -0.0031102471984922886 0.0006687868153676391 0.00010120021033799276 -1.0518430471420288 1 True True

4293.642 3.7691843509674072 -1.382574440245964 1.6874883810626429 -1.8757077656187953 -1.5707967917071741 2.1985113620758057 -1.048241376876831 0.001968597760424018 -0.0017213207902386785 0.000445014622528106 8.201039531656658e-20 -1.0466636419296265 1 True True

4293.692 3.7168216705322266 -1.3824613851359864 1.6873539129840296 -1.87567200283193 -1.5707972685443323 2.1459741592407227 -1.046916127204895 0.002845538081601262 -0.0027543518226593733 0.0002935898082796484 1.245739621150887e-38 -1.0397015810012817 1 True True

4293.742 3.6644468307495117 -1.3824062806418915 1.6871793905841272 -1.8756119213499964 -1.5708211104022425 2.0936484336853027 -1.0418107509613037 0.0010985005646944046 -0.002652191324159503 0.0007183722918853164 0.0 -1.0532886981964111 1 True True

4293.7919999999995 3.612064838409424 -1.382290081386902 1.6870892683612269 -1.8756452999510707 -1.5707805792437952 2.04142689704895 -1.048496961593628 0.0019091713475063443 -0.0016237060772255063 0.0003480779123492539 0.0 -1.0483589172363281 1 True True

4293.842 3.55975079536438 -1.3822484028390427 1.6869905630694788 -1.8756042919554652 -1.5707767645465296 1.988891839981079 -1.0494740009307861 0.003315295558422804 -0.0026163896545767784 0.00047506767441518605 0.0 -1.0421980619430542 1 True True

4293.892 3.507340908050537 -1.382063866858818 1.6869109312640589 -1.8755480251707972 -1.5707772413836878 1.9365715980529785 -1.0432101488113403 0.0013966158730909228 -0.002632422838360071 0.0009984298376366496 0.0 -1.0537525415420532 1 True True

4293.942 3.455056667327881 -1.381976918583252 1.6867206732379358 -1.8755370579161585 -1.5707486311541956 1.8843063116073608 -1.046942949295044 0.0014794699382036924 -0.001650304882787168 0.0004112873284611851 0.0 -1.0465538501739502 1 True True

4293.992 3.402656078338623 -1.3819722396186371 1.6866520086871546 -1.8755532703795375 -1.5707925001727503 1.8318147659301758 -1.049808144569397 0.002120784018188715 -0.002551957266405225 0.000664842315018177 0.0 -1.0433961153030396 1 True True

4294.0419999999995 3.350292444229126 -1.3818389785340806 1.686457935963766 -1.8754564724364222 -1.5707443396197718 1.779508113861084 -1.0426950454711914 0.0013260432751849294 -0.0032285063061863184 0.00035764608765020967 0.0 -1.047141671180725 1 True True

4294.092 3.297956705093384 -1.3816532057574769 1.686411205922262 -1.8754612408080042 -1.5708087126361292 1.7271569967269897 -1.0461517572402954 0.0016261356649920344 -0.0017361935460940003 0.0003182372893206775 0.0 -1.0493175983428955 1 True True

4294.142 3.2455694675445557 -1.3816171449473877 1.6862300078021448 -1.8754164181151332 -1.570853058491842 1.6747617721557617 -1.049233317375183 0.002600079635158181 -0.002017551800236106 0.0004962724633514881 0.0 -1.0401779413223267 1 True True

4294.192 3.193129539489746 -1.3815375131419678 1.686150852833883 -1.8754569492735804 -1.5707843939410608 1.6223866939544678 -1.0440375804901123 0.0019157174974679947 -0.003736965823918581 0.00038300789310596883 0.0 -1.0537104606628418 1 True True

4294.242 3.141159772872925 -1.3814341884902497 1.6860550085650843 -1.875425478021139 -1.5708006064044397 1.5704799890518188 -1.0222164392471313 0.0024966455530375242 -0.002744315192103386 0.0004776263376697898 0.0 -1.0183566808700562 1 True True

4294.2919999999995 3.0921804904937744 -1.3813458246043702 1.6859472433673304 -1.8753978214659632 -1.570784870778219 1.521188735961914 -0.9529436826705933 0.0024383908603340387 -0.0024560093879699707 0.00048105057794600725 0.00020061631221324205 -0.9467939734458923 1 True True

4294.342 3.0464632511138916 -1.3812497717193146 1.6858680883990687 -1.8753897152342738 -1.5707805792437952 1.4756211042404175 -0.8771293759346008 0.001567554078064859 -0.002278250642120838 0.0006786106969229877 7.887922402005643e-05 -0.8789018392562866 1 True True

4294.392 3.0042190551757812 -1.381156862979271 1.6857722441302698 -1.875341077844137 -1.5708087126361292 1.4334088563919067 -0.8064770102500916 0.0015613813884556293 -0.002563115442171693 0.0002912647323682904 3.338615103188552e-17 -0.8069704174995422 1 True True

4294.442 2.9655802249908447 -1.381117896442749 1.6856144110309046 -1.8753701649107875 -1.5708044211017054 1.394777774810791 -0.7422013282775879 0.0018115718849003315 -0.0024181401822715998 0.00027524164761416614 1.7419022668718753e-08 -0.7343241572380066 1 True True

4294.492 2.9305052757263184 -1.3810250175050278 1.6856291929828089 -1.875378271142477 -1.5708168188678187 1.3596282005310059 -0.6723424792289734 0.0015378603711724281 -0.002184265060350299 0.00023945180873852223 2.6459527207920036e-27 -0.6726639270782471 1 True True

4294.5419999999995 2.8987903594970703 -1.380970911388733 1.685483757649557 -1.8753344021239222 -1.5708449522601526 1.3280248641967773 -0.5985129475593567 0.0013497913023456931 -0.0018933577230200171 0.00021608300448860973 6.982282590647926e-13 -0.6010305285453796 1 True True

4294.592 2.8705997467041016 -1.3809407961419602 1.6854694525348108 -1.8753181896605433 -1.5707686583148401 1.299813985824585 -0.5292705297470093 0.0010632530320435762 -0.0013558295322582126 0.00018646236276254058 1.0606101140816781e-31 -0.5333751440048218 1 True True

4294.642 2.8458003997802734 -1.3809330624393006 1.6853812376605433 -1.8753015003600062 -1.5707886854754847 1.2751215696334839 -0.4600214958190918 0.0015297166537493467 -0.001319515286013484 0.00015608717512805015 3.272335646897773e-08 -0.45875874161720276 1 True True

4294.692 2.8246917724609375 -1.380878047352173 1.6853693167315882 -1.8753262958922328 -1.5708006064044397 1.2538961172103882 -0.3933112919330597 0.00040018762229010463 -0.0012948188232257962 0.0001512632006779313 0.0001000651391223073 -0.3950245976448059 1 True True

4294.742 2.807041645050049 -1.3808376056006928 1.6853292624102991 -1.8752342663206996 -1.5708048979388636 1.2361704111099243 -0.32043707370758057 0.0003322222619317472 -0.0013340767472982407 0.00016868948296178132 2.7487999644670566e-18 -0.322595477104187 1 True True

4294.7919999999995 2.7927346229553223 -1.3808554422906418 1.685284439717428 -1.875214239160055 -1.570756737385885 1.2219836711883545 -0.24968181550502777 0.00046568200923502445 -0.0006773789064027369 0.00012342051195446402 4.672622890211642e-05 -0.2502197027206421 1 True True

4294.842 2.7820143699645996 -1.3808687639287491 1.68522817293276 -1.8752943478026332 -1.5708087126361292 1.2112114429473877 -0.17879697680473328 0.00040269707096740603 -0.0002869836171157658 0.00011679485032800585 6.623061787655701e-17 -0.18024803698062897 1 True True

4294.892 2.774744987487793 -1.3807581228068848 1.6852853933917444 -1.8752457104124964 -1.5708125273333948 1.2040139436721802 -0.10916225612163544 0.0004709587956313044 -0.0003584611404221505 8.867540600476786e-05 1.0060441568328514e-35 -0.11175233125686646 1 True True

4294.942 2.7709503173828125 -1.380753682260849 1.6852291266070765 -1.875253816644186 -1.5708125273333948 1.2002382278442383 -0.04368169233202934 0.00020024855621159077 -0.0002901861444115639 8.330590935656801e-05 0.0 -0.04058266058564186 1 True True

4294.992 2.770524024963379 -1.3805736762336274 1.685300652180807 -1.875437398950094 -1.5707491079913538 1.1996480226516724 0.0030486476607620716 0.017326993867754936 0.009117505513131618 -0.019368289038538933 0.0 1.4981232254740462e-08 1 True True

4295.0419999999995 2.770474910736084 -1.3793413204005738 1.6871402899371546 -1.8786846599974574 -1.5707810560809534 1.1996643543243408 -0.00039987819036468863 0.0294011440128088 0.06328678876161575 -0.10058373957872391 0.0 2.275653400012692e-27 1 True True

4295.092 2.7703943252563477 -1.3769318920424958 1.6913984457599085 -1.8855701885619105 -1.5707648436175745 1.1996777057647705 -0.0005076018278487027 0.06312021613121033 0.11057500541210175 -0.16191565990447998 0.0 -0.00020672200480476022 1 True True

4295.142 2.770378828048706 -1.373189629321434 1.6981995741473597 -1.8957373104491175 -1.5708168188678187 1.1996687650680542 -0.0014337373431771994 0.0861937627196312 0.14963339269161224 -0.2406168431043625 0.0 -0.0002507346507627517 1 True True

4295.192 2.7703709602355957 -1.3682240855744858 1.7068246046649378 -1.9094602070250453 -1.5707491079913538 1.199644923210144 -0.00016478144971188158 0.11221231520175934 0.19684509932994843 -0.302161306142807 0.0 -0.0001540722296340391 1 True True

4295.242 2.7703709602355957 -1.3618640017560502 1.7177489439593714 -1.9265691242613734 -1.5708168188678187 1.1996029615402222 -0.0001198669197037816 0.13913868367671967 0.2432127594947815 -0.37733277678489685 0.0 -0.00013526558177545667 1 True True

4295.2919999999995 2.7705140113830566 -1.3543346536210557 1.7309907118426722 -1.947416444818014 -1.5708006064044397 1.199644923210144 -9.311758913099766e-05 0.16323140263557434 0.28201189637184143 -0.4480794072151184 0.0 -0.00014426371490117162 1 True True

4295.342 2.7704365253448486 -1.3454766434482117 1.7461403051959437 -1.9715897045531214 -1.570772949849264 1.199591040611267 -1.8818448061071044e-28 0.1886521875858307 0.32849985361099243 -0.507321298122406 0.0 -9.609035623725504e-05 1 True True

4295.392 2.7704527378082275 -1.3353521686843415 1.763724152241842 -1.9989425144591273 -1.5707691351519983 1.1995880603790283 0.0 0.19835780560970306 0.3468485176563263 -0.5440384149551392 0.0 -6.650381692452356e-05 1 True True

4295.442 2.7704081535339355 -1.3260277521661301 1.7797077337848108 -2.0248223743834437 -1.5707724730121058 1.199644923210144 -8.607081871010522e-25 0.18003123998641968 0.30608847737312317 -0.46937987208366394 -0.00011236648424528539 -5.380290746105007e-17 1 True True

4295.492 2.7704074382781982 -1.3176272076419373 1.7940905729876917 -2.047030111352438 -1.5707810560809534 1.1996164321899414 -2.6491627901775727e-12 0.15330387651920319 0.2579224407672882 -0.4054333567619324 -1.7068488742958406e-23 -8.172672544234474e-36 1 True True

4295.5419999999995 2.7704691886901855 -1.3107619744590302 1.8058388868915003 -2.0661632023253382 -1.570784870778219 1.1995627880096436 0.0 0.12431924790143967 0.21844694018363953 -0.33793118596076965 -2.5924021590009116e-42 -0.0 1 True True

4295.592 2.7704408168792725 -1.3051766914180298 1.8156116644488733 -2.0814110241331996 -1.5707767645465296 1.1996361017227173 0.0 0.09588011354207993 0.17267483472824097 -0.27221569418907166 -0.0 -0.0 1 True True

4295.642 2.770432233810425 -1.3007677358439942 1.8233330885516565 -2.0932370624937953 -1.5707805792437952 1.1996361017227173 0.0 0.07609295845031738 0.13065697252750397 -0.20077387988567352 -0.0 -0.0 1 True True

4295.692 2.770432233810425 -1.2977682513049622 1.8285225073443812 -2.101687093774313 -1.5708654562579554 1.1996241807937622 0.0 0.04817555844783783 0.08436905592679977 -0.12805809080600739 -0.0 -0.0 1 True True

4295.742 2.7704203128814697 -1.295941100721695 1.831660572682516 -2.106716295281881 -1.5708492437945765 1.1996253728866577 0.0 0.02343113347887993 0.042340826243162155 -0.07078569382429123 -0.0 -0.0 1 True True

4295.7919999999995 2.7705225944519043 -1.2956915956786652 1.8321002165423792 -2.108150621453756 -1.570813004170553 1.199661374092102 0.0 1.5239347561646355e-08 -0.0006786081939935684 0.008270728401839733 -0.0005253901472315192 -1.1657923277391514e-21 1 True True

4295.842 2.770399570465088 -1.295577661400177 1.8321359793292444 -2.1081630192198695 -1.5708168188678187 1.199644923210144 0.0 0.004198282491415739 0.0035602215211838484 0.00026725122006610036 -0.0001145875285146758 -1.7708348823519146e-40 1 True True

4295.892 2.7704648971557617 -1.2950661939433594 1.8330705801593226 -2.10766138652944 -1.5707886854754847 1.1996119022369385 0.0 0.0001725556794553995 0.0002548123011365533 -0.0022122736554592848 0.00041935796616598964 -0.0 1 True True

4295.942 2.770470142364502 -1.2950793665698548 1.832961384450094 -2.107840200463766 -1.570853058491842 1.1996060609817505 0.0 -0.00033265395904891193 -5.76228439963522e-11 -0.00021112433751113713 1.0341456800233573e-05 1.8794653442455456e-06 1 True False

4295.992 2.7704367637634277 -1.295170472269394 1.832878891621725 -2.108011861840719 -1.570813004170553 1.1995673179626465 0.0 -0.0006879137363284826 -0.0008726456435397267 -0.0013039183104410768 1.570869172973595e-24 7.583231490571052e-05 1 True False

4296.0419999999995 2.7704036235809326 -1.295275555258133 1.832752529774801 -2.1080833874144496 -1.5707443396197718 1.1996208429336548 0.0 -0.0015954269329085946 -0.002172209322452545 -0.001280772383324802 2.382207389352189e-43 4.881853601546027e-05 1 True False

4296.092 2.770448684692383 -1.2953569752028962 1.8327015081988733 -2.108079572717184 -1.570784870778219 1.1996285915374756 0.0 -0.0009909742511808872 -0.0027890847995877266 -0.0002131289802491665 0.0 4.3636820919346064e-05 1 True False

4296.142 2.7704410552978516 -1.2955857378295441 1.832329575215475 -2.1076609096922816 -1.5707767645465296 1.1996331214904785 0.0 -0.019168008118867874 -0.024250227957963943 0.021475883200764656 0.0 5.628073631669395e-05 1 True False

4296.192 2.770423173904419 -1.296784059410431 1.830177132283346 -2.104079862634176 -1.5708044211017054 1.1995776891708374 0.0 -0.034335907548666 -0.06460636109113693 0.10638400167226791 0.0 0.00020653466344811022 1 True False

4296.242 2.770432233810425 -1.2993334096721192 1.8254511992083948 -2.097017904321188 -1.5707929770099085 1.199644923210144 0.0 -0.06627758592367172 -0.11047123372554779 0.17562335729599 0.0 0.00014102429850026965 1 True False

4296.2919999999995 2.770519256591797 -1.3032515507987519 1.8186972776996058 -2.0862752399840296 -1.5707610289203089 1.199600100517273 0.0 -0.09282650053501129 -0.15949532389640808 0.24960771203041077 0.0 7.846560765756294e-05 1 True False

4296.342 2.770432233810425 -1.3084814113429566 1.8097217718707483 -2.0723101101317347 -1.570853058491842 1.1996376514434814 0.0 -0.11546531319618225 -0.20061837136745453 0.3251328766345978 0.0 6.557285814778879e-05 1 True False

4296.392 2.770382881164551 -1.3149233919433136 1.7986920515643519 -2.0546566448607386 -1.570772949849264 1.1996241807937622 0.0 -0.1383751630783081 -0.2458311766386032 0.3733784258365631 -4.9822676373878494e-05 9.548142501977148e-18 1 True False

4296.442 2.770432233810425 -1.3226446372321625 1.7853682676898401 -2.0336557827391566 -1.5707967917071741 1.1996569633483887 0.0 -0.1706492006778717 -0.29301491379737854 0.45783376693725586 -7.568075933757096e-24 1.450365344837496e-36 1 True False

4296.492 2.770448684692383 -1.3316670221141358 1.7698786894427698 -2.009066244164938 -1.5708091894732874 1.1996480226516724 0.0 -0.1916220635175705 -0.3244740068912506 0.5267870426177979 -1.14906474074635e-42 0.0 1 True False

4296.5419999999995 2.7704126834869385 -1.3418530833772202 1.7523682753192347 -1.9815837345519007 -1.5708087126361292 1.1996331214904785 0.0 -0.20072263479232788 -0.35563182830810547 0.5410324931144714 -2.1883238070333514e-15 0.0 1 True False

4296.592 2.770411491394043 -1.3510496777347107 1.736504379902975 -1.9559360943236292 -1.570801083241598 1.1996361017227173 -5.064125121578626e-25 -0.1713474690914154 -0.3014078140258789 0.4769848883152008 -6.092603433970756e-17 0.0 1 True False

4296.642 2.770465135574341 -1.3591577869704743 1.722351376210348 -1.9340039692320765 -1.5707967917071741 1.199665904045105 0.0 -0.15025454759597778 -0.25565385818481445 0.41359326243400574 -9.254681229827181e-36 0.0 1 True False

4296.692 2.7703919410705566 -1.366003469829895 1.7109282652484339 -1.9155413113036097 -1.5708168188678187 1.1995627880096436 0.0 -0.12555623054504395 -0.2126026749610901 0.33351626992225647 -0.0 0.0 1 True False

4296.742 2.770423173904419 -1.3715210419944306 1.7013853232013147 -1.9004174671568812 -1.570801083241598 1.1996208429336548 0.0 -0.09610437601804733 -0.1687675565481186 0.2745106816291809 -0.0 0.0 1 True False

4296.7919999999995 2.770448684692383 -1.3756573063186188 1.6939151922809046 -1.8889948330321253 -1.5707805792437952 1.1996164321899414 0.0 -0.07077115029096603 -0.12219955027103424 0.18870967626571655 -0.0 1.418966140730064e-20 1 True False

4296.842 2.7703990936279297 -1.378584162597992 1.688835922871725 -1.8810364208617152 -1.5708335081683558 1.1996405124664307 0.0 -0.04827827215194702 -0.07971861213445663 0.13417181372642517 -0.0 2.1554128380950747e-39 1 True False

4296.892 2.7704126834869385 -1.3802453142455597 1.6860430876361292 -1.8764111004271449 -1.5707805792437952 1.1995657682418823 0.0 -0.01952783577144146 -0.03500333055853844 0.055934447795152664 3.666528192169949e-10 0.0 1 True False

4296.942 2.770474433898926 -1.3807099622539063 1.6853306929217737 -1.875437398950094 -1.5707724730121058 1.199665904045105 0.0 4.117970320294262e-08 4.87595571030397e-07 -0.0016129051800817251 5.569463194783555e-29 0.0 1 False False

4296.992 2.7703990936279297 -1.3807520878366013 1.68532640138735 -1.875425478021139 -1.570829216633932 1.199665904045105 0.0 -0.00013458564353641123 4.378595372946359e-18 0.0001519670768175274 0.0 0.0 1 False False

4297.0419999999995 2.7704203128814697 -1.3807055217078705 1.6852887312518519 -1.8753296337523402 -1.570829216633932 1.1996164321899414 0.0 -0.00016825734928715974 -0.0008940396946854889 0.0003188782720826566 0.0 0.0 1 False False

4297.092 2.770432233810425 -1.3807144177011033 1.6852601210223597 -1.8753301105894984 -1.570813004170553 1.1996331214904785 0.0 -0.0007274184026755393 -0.00045394705375656486 0.0012241208460181952 0.0 0.0 1 False False

4297.142 2.7704203128814697 -1.380767123108246 1.6852691809283655 -1.8752581081786097 -1.570784870778219 1.1996029615402222 0.0 -0.00027989872614853084 -0.0003977961605414748 0.0005981950089335442 0.0 0.0 1 False False

4297.192 2.770415782928467 -1.3807475429824372 1.6852453390704554 -1.8752623997130335 -1.5707319418536585 1.1996524333953857 0.0 -0.00022235135838855058 -0.00039621052565053105 0.0001519013603683561 0.0 0.0 1 False False

4297.242 2.7704367637634277 -1.380767123108246 1.6852496306048792 -1.875214239160055 -1.570801083241598 1.1996285915374756 0.0 -0.00013926108658779413 -0.0003166130627505481 9.884744213195518e-05 0.0 0.0 1 False False

4297.2919999999995 2.7704203128814697 -1.3807340425303956 1.6852243582354944 -1.8752786121764125 -1.5707929770099085 1.1996777057647705 0.0 -0.00010250781633658335 -0.00011578328849282116 6.781268893973902e-05 0.0 0.0 1 False False

4297.342 2.7704532146453857 -1.3807039123824616 1.6852343718158167 -1.8753138981261195 -1.570801083241598 1.1996406316757202 -1.2395386366631511e-12 -7.834141797502525e-06 -8.455153147224337e-05 1.1214918450763093e-15 0.0 0.0 1 False False

4297.392 2.77040696144104 -1.3807414186051865 1.68518573442568 -1.8752500019469203 -1.5707805792437952 1.199615240097046 0.0 -0.00010828691301867366 -7.089307473506778e-05 1.7035482241419966e-34 0.0 0.0 1 False False

4297.442 2.770427703857422 -1.380786733036377 1.6851637999164026 -1.875253816644186 -1.5707967917071741 1.199661374092102 0.0 -4.303093010094017e-05 -1.939812532670447e-32 0.0 0.0 0.0 1 False False

4297.492 2.7704532146453857 -1.380754993563034 1.685221020375387 -1.8752218685545863 -1.5708006064044397 1.199644923210144 0.0 -4.016130696982145e-05 -0.0 0.0 0.0 0.0 1 False False

4297.5419999999995 2.770397901535034 -1.3807504040053864 1.6852052847491663 -1.8752385578551234 -1.5707686583148401 1.1996164321899414 0.0 -2.8680201324959853e-08 -0.0 0.0 0.0 0.0 1 False False

4297.592 2.770460844039917 -1.3807083678296586 1.6851971785174769 -1.8752500019469203 -1.5708168188678187 1.199665904045105 0.0 0.0 -0.0 0.0 0.0 0.0 1 False False

4297.642 2.7704458236694336 -1.3807370227626343 1.6851637999164026 -1.8752781353392542 -1.5708091894732874 1.1996405124664307 0.0 0.0 -0.0 0.0 0.0 0.0 1 False False

4297.692 2.7704203128814697 -1.3807504338077088 1.685192886983053 -1.8752228222289027 -1.5707767645465296 1.199661374092102 0.0 0.0 -0.0 0.0 0.0 0.0 1 False False

4297.742 2.7704367637634277 -1.3807250422290345 1.685221020375387 -1.875242372552389 -1.570813004170553 1.1996029615402222 0.0 0.0 -0.0 0.0 0.0 0.0 1 False False

4297.7919999999995 2.7704126834869385 -1.3807581228068848 1.6851971785174769 -1.8753425083556117 -1.570801083241598 1.1997151374816895 0.0 0.0 -2.7588612283580005e-06 0.0 0.0 0.0 1 False False

4297.842 2.770415782928467 -1.3807716381600876 1.685213867818014 -1.8752747974791468 -1.5707843939410608 1.1996777057647705 0.0 0.0 3.555848525138572e-05 0.0 0.0 0.0 1 True False

4297.892 2.770373821258545 -1.3807610732368012 1.685213867818014 -1.8752581081786097 -1.570784870778219 1.1996687650680542 0.0 0.0 1.7888251022668555e-05 0.0 0.0 0.0 1 True False

4297.942 2.770399332046509 -1.3807038527778168 1.6852009932147425 -1.875253816644186 -1.5707967917071741 1.1996732950210571 0.0 0.0 1.1950203770538792e-05 0.0 0.0 0.0 1 True False

4297.992 2.7703795433044434 -1.3807594341090699 1.6852496306048792 -1.8752786121764125 -1.5707767645465296 1.1996285915374756 0.0 0.0 2.768429415352277e-17 0.0 0.0 0.0 1 True False

4298.0419999999995 2.7704739570617676 -1.3807205718806763 1.6852296034442347 -1.8752266369261683 -1.5708487669574183 1.1996405124664307 0.0 0.0 0.0 0.0 0.0 0.0 1 True False

4298.092 2.7704367637634277 -1.3807296019843598 1.6852386633502405 -1.875270505944723 -1.5708048979388636 1.1995627880096436 0.0 0.0 0.0 0.0 0.0 0.0 1 True False

4298.142 2.770432233810425 -1.38067118943248 1.6852334181415003 -1.875286718408102 -1.570772949849264 1.1996119022369385 0.0 -1.0668096419292547e-36 0.0 0.0 0.0 0.0 1 True False

4298.192 2.77044415473938 -1.3807459783605118 1.6852014700519007 -1.875230451623434 -1.5707767645465296 1.19965398311615 2.109591257237753e-08 0.0 0.0 0.0 0.0 0.0 1 True False

4298.242 2.7704696655273438 -1.3807159972241898 1.6852009932147425 -1.8752414188780726 -1.570756737385885 1.1995415687561035 0.0 0.0 0.0 0.0 0.0 0.0 1 True False

4298.2919999999995 2.770432233810425 -1.380795807843544 1.6852863470660608 -1.8752981624998988 -1.5708048979388636 1.199631690979004 0.0 0.0 0.0 0.0 2.1857422121688337e-20 0.00021064266911707819 1 True False

4298.342 2.770465135574341 -1.3807250422290345 1.6852052847491663 -1.8752943478026332 -1.5708335081683558 1.1996941566467285 0.0 0.0 0.0 0.0 4.0462219078746253e-13 0.0020046248100697994 1 True False

4298.392 2.7704696655273438 -1.3807790738395234 1.6852052847491663 -1.8752747974791468 -1.570801083241598 1.1996420621871948 0.0 0.0 0.0 0.0 -0.0001646309974603355 -0.0001367238292004913 1 True False

4298.442 2.7704365253448486 -1.3807414335063477 1.6852296034442347 -1.8753024540343226 -1.5707810560809534 1.1996331214904785 0.0 0.0 0.0 0.0 -2.6044856440421427e-06 -2.847884298204907e-20 1 True False

4298.492 2.7704529762268066 -1.3807385873845597 1.685213867818014 -1.875286718408102 -1.5708048979388636 1.1996450424194336 0.0 0.0 0.0 0.0 -2.3539672607101322e-17 -4.3259428840232855e-39 1 True False

4298.5419999999995 2.771960735321045 -1.3807159674218674 1.6851332823382776 -1.8752428493895472 -1.5708449522601526 1.2011512517929077 0.06289702653884888 0.004324867390096188 -0.008014046587049961 9.95071758325139e-09 -1.495265933640355e-12 0.06712491810321808 1 True False

4298.592 2.776973247528076 -1.3802887809327622 1.6845062414752405 -1.8751112423338832 -1.570813004170553 1.2062455415725708 0.13976509869098663 0.01242140494287014 -0.013796844519674778 0.005805379711091518 2.734272857196629e-05 0.13268177211284637 1 True False

4298.642 2.7855911254882812 -1.3796862971833725 1.6837485472308558 -1.8748446903624476 -1.5708087126361292 1.2148231267929077 0.20526213943958282 0.014945382252335548 -0.02013123780488968 0.0042090266942977905 2.220210994648906e-23 0.2016383409500122 1 True False

4298.692 2.7976763248443604 -1.3788748693517228 1.6825454870807093 -1.8745786152281703 -1.5707967917071741 1.2269220352172852 0.27279362082481384 0.01975741796195507 -0.026692427694797516 0.007978633046150208 3.372925403629835e-42 0.27699482440948486 1 True False

4298.742 2.8131346702575684 -1.377612681393959 1.6810696760760706 -1.8742124042906703 -1.5708044211017054 1.2424471378326416 0.3423593044281006 0.028631407767534256 -0.03164517506957054 0.009299970231950283 5.3097246563993394e-05 0.3476075530052185 1 True False

4298.7919999999995 2.8323028087615967 -1.376227245931961 1.6793783346759241 -1.8737594089903773 -1.570784870778219 1.2613765001296997 0.41427573561668396 0.029188966378569603 -0.04244654253125191 0.00705850962549448 9.529895805826527e-07 0.4145364761352539 1 True False

4298.842 2.854795455932617 -1.374525786643364 1.677030388508932 -1.8733064136900843 -1.5707724730121058 1.2839903831481934 0.4856739640235901 0.03538062423467636 -0.049680352210998535 0.008504802361130714 -1.840683944465127e-05 0.4797613322734833 1 True False

4298.892 2.880679130554199 -1.3726232212832947 1.674527947102682 -1.8727661571898402 -1.5708211104022425 1.3099453449249268 0.5524042844772339 0.04131940379738808 -0.055141519755125046 0.012370225042104721 -1.9829369520490232e-15 0.5504871606826782 1 True False

4298.942 2.910315990447998 -1.370501310830452 1.671849552785055 -1.8720342121519984 -1.570801083241598 1.3394315242767334 0.6261163353919983 0.04445157200098038 -0.061094656586647034 0.013433407992124557 -3.0120855766033275e-34 0.6240252256393433 1 True False

4298.992 2.9432501792907715 -1.3681025815061112 1.6685360113727015 -1.871310373345846 -1.5708172957049769 1.3724093437194824 0.6958569884300232 0.05074317008256912 -0.06436315923929214 0.018624361604452133 0.00025844507035799325 0.6900985836982727 1 True False

4299.0419999999995 2.9797446727752686 -1.3653887969306489 1.6651843229876917 -1.8704081974425257 -1.5707643667804163 1.4089761972427368 0.7676110863685608 0.055197980254888535 -0.07085031270980835 0.020836103707551956 0.00031053798738867044 0.7616734504699707 1 True False

4299.092 3.0196590423583984 -1.3623861831477662 1.661055866871969 -1.8695727787413539 -1.5708325544940394 1.4488980770111084 0.8308939337730408 0.060643792152404785 -0.0786631777882576 0.017543936148285866 6.4473347265447956e-06 0.8284333348274231 1 True False

4299.142 3.06308913230896 -1.3591683816960831 1.6570003668414515 -1.8685952625670375 -1.5708172957049769 1.4923553466796875 0.9009721875190735 0.06822438538074493 -0.08931862562894821 0.021796580404043198 0.0017617312259972095 0.9066072702407837 1 True False

4299.192 3.110053539276123 -1.3557725560716172 1.652369801198141 -1.8674737415709437 -1.570784870778219 1.5393315553665161 0.9720181226730347 0.07206852734088898 -0.08918584883213043 0.02534167841076851 2.281064690039506e-18 0.9694473147392273 1 True False

4299.242 3.160486936569214 -1.3520812553218384 1.6477058569537562 -1.866340776483053 -1.5708335081683558 1.5897613763809204 1.0448997020721436 0.0732332319021225 -0.10644681751728058 0.01914083957672119 3.4649434048998196e-37 1.0474114418029785 1 True False

4299.2919999999995 3.2128639221191406 -1.34820872664962 1.642590347920553 -1.8651205501952113 -1.5707486311541956 1.6419950723648071 1.0438719987869263 0.079469233751297 -0.10402989387512207 0.021221240982413292 0.0 1.0456122159957886 1 True False

4299.342 3.2652413845062256 -1.344344974761345 1.6374781767474573 -1.864042421380514 -1.570772949849264 1.6944869756698608 1.051141619682312 0.07574085891246796 -0.10016965121030807 0.025611456483602524 -4.6001662594961946e-21 1.0446404218673706 1 True False

4299.392 3.3175556659698486 -1.3404422414353867 1.6324299017535608 -1.8628069363036097 -1.5708006064044397 1.74679434299469 1.0483120679855347 0.07211456447839737 -0.10064835101366043 0.02028725855052471 -6.98765887026356e-40 1.0417665243148804 1 True False

4299.442 3.3699464797973633 -1.3365923327258606 1.6273348967181605 -1.8615743122496546 -1.5707767645465296 1.7992115020751953 1.044534683227539 0.07773413509130478 -0.10454821586608887 0.02163289487361908 3.4731186815406545e-08 1.0464272499084473 1 True False

4299.492 3.422315835952759 -1.3328110885671158 1.6223819891559046 -1.860321661035055 -1.5707648436175745 1.8515760898590088 1.0494816303253174 0.07800466567277908 -0.10189145058393478 0.024643247947096825 5.275675244756667e-27 1.0441991090774536 1 True False

4299.5419999999995 3.4746296405792236 -1.3290280562690278 1.6173375288592737 -1.8591968021788539 -1.5707810560809534 1.903843879699707 1.050417184829712 0.07471223175525665 -0.09686200320720673 0.02402924746274948 1.401298464324817e-45 1.0525861978530884 1 True False

4299.592 3.5270135402679443 -1.3251354706338425 1.6122334639178675 -1.858084341088766 -1.570829216633932 1.9560991525650024 1.0432794094085693 0.07920677959918976 -0.10624083131551743 0.020546039566397667 0.0 1.046035885810852 1 True False

4299.642 3.5793838500976562 -1.3211988818696518 1.6073434988604944 -1.8567482433714808 -1.5707967917071741 2.008633613586426 1.050433874130249 0.0784631296992302 -0.10092402994632721 0.021765321493148804 0.0 1.041645884513855 1 True False

4299.692 3.6317148208618164 -1.3174476486495514 1.6021936575519007 -1.8555909595885218 -1.5708168188678187 2.06095290184021 1.0511283874511719 0.07967852801084518 -0.09968119114637375 0.02875310368835926 0.0 1.0473747253417969 1 True False

4299.742 3.6841368675231934 -1.313524679546692 1.5970729033099573 -1.8544937572874964 -1.570772949849264 2.1132869720458984 1.042421579360962 0.07368959486484528 -0.09698695689439774 0.02424069494009018 0.0 1.048653483390808 1 True False

4299.7919999999995 3.7364723682403564 -1.3096641463092347 1.5920379797564905 -1.8531223736205042 -1.570728603993551 2.165717840194702 1.0507655143737793 0.07480861991643906 -0.10204321891069412 0.02179236151278019 0.0 1.0470647811889648 1 True False

4299.842 3.7887017726898193 -1.3058087092689057 1.5871294180499476 -1.8519774876036585 -1.5707886854754847 2.2180492877960205 1.0518720149993896 0.07650715112686157 -0.10125289857387543 0.025116106495261192 0.0 1.0533210039138794 1 True False

4299.892 3.8411617279052734 -1.3020188075355072 1.581982437764303 -1.8508678875365199 -1.5708773771869105 2.2702910900115967 1.0426080226898193 0.07904655486345291 -0.0988268256187439 0.024862274527549744 0.0 1.047104001045227 1 True False

4299.942 3.893512725830078 -1.2982188028148194 1.5769193808185022 -1.849647661248678 -1.5707810560809534 2.3227715492248535 1.0500640869140625 0.07602716237306595 -0.09976322203874588 0.02073497325181961 1.6289690393023193e-05 1.0408416986465454 1 True False

4299.992 3.9458372592926025 -1.294287697677948 1.571914021168844 -1.8484074078001917 -1.57082444826235 2.375166177749634 1.0480046272277832 0.07731226086616516 -0.10520654916763306 0.024551693350076675 -4.0214996827098694e-17 1.0495262145996094 1 True False

4300.0419999999995 3.998319387435913 -1.2903787952712555 1.566922966633932 -1.8471461735167445 -1.570768181477682 2.4275057315826416 1.0411977767944336 0.08023887872695923 -0.10216592252254486 0.026152605190873146 8.534669905202463e-05 1.0486570596694946 1 True False

4300.092 4.050609588623047 -1.2865768832019349 1.5617197195636194 -1.8459979496397914 -1.5707648436175745 2.479883909225464 1.0487263202667236 0.0780082494020462 -0.09977111220359802 0.022346479818224907 -0.00016628637968096882 1.0433235168457031 1 True False

4300.142 4.102938175201416 -1.2827138167670746 1.5567296187030237 -1.8448206386961878 -1.5707486311541956 2.532191038131714 1.0516886711120605 0.07426084578037262 -0.10169076174497604 0.023692360147833824 0.00028958782786503434 1.0512906312942505 1 True False

4300.192 4.155280113220215 -1.278790996675827 1.5517352263080042 -1.8436204395689906 -1.5708006064044397 2.584418535232544 1.0441423654556274 0.08045867085456848 -0.10152173042297363 0.02362624555826187 3.9261446178004715e-17 1.0477163791656494 1 True False

4300.242 4.20770263671875 -1.275045560007431 1.5467374960528772 -1.842339654962057 -1.5707767645465296 2.6369175910949707 1.046851396560669 0.07725382596254349 -0.10017784684896469 0.025254813954234123 5.9638236666980574e-36 1.0403764247894287 1 True False

4300.2919999999995 4.260042190551758 -1.271176890735962 1.5415952841388147 -1.8412510357298792 -1.570784870778219 2.6892712116241455 1.049491047859192 0.07576995342969894 -0.09527292102575302 0.027375400066375732 0.0 1.05113685131073 1 True False

4300.342 4.312430381774902 -1.2673144799521943 1.5366085211383265 -1.840022703210348 -1.5707724730121058 2.7416014671325684 1.0451915264129639 0.0739460289478302 -0.09941066801548004 0.023750506341457367 0.0 1.0447138547897339 1 True False

4300.392 4.364842891693115 -1.263551042681076 1.5315125624286097 -1.8387018642821253 -1.5707648436175745 2.79411244392395 1.048520565032959 0.07802866399288177 -0.10117022693157196 0.022242650389671326 0.0 1.0438278913497925 1 True False

4300.442 4.416878700256348 -1.2596503061107178 1.5265396277057093 -1.8376580677428187 -1.570732895527975 2.8461430072784424 1.03103768825531 0.0754527673125267 -0.09485039114952087 0.027932658791542053 0.0023620855063199997 1.028485894203186 1 True False

4300.492 4.466335296630859 -1.256047324543335 1.5217164198504847 -1.8366161785521449 -1.5708006064044397 2.895380973815918 0.9531154036521912 0.069002665579319 -0.09228687733411789 0.024791555479168892 -4.988769813918381e-13 0.9595411419868469 1 True False

4300.5419999999995 4.5123209953308105 -1.2525093120387574 1.517355744038717 -1.8354107342162074 -1.5708087126361292 2.9417002201080322 0.8900870084762573 0.063169926404953 -0.09058423340320587 0.01707957126200199 -7.577953049207291e-32 0.8841968774795532 1 True False

4300.592 4.554929256439209 -1.2494567793658753 1.5133102575885218 -1.834560056725973 -1.570801083241598 2.984131336212158 0.8130391836166382 0.05947919562458992 -0.07814151793718338 0.022015869617462158 -0.0 0.8110067248344421 1 True False

4300.642 4.593924522399902 -1.2466198962977906 1.509393040333883 -1.833597799340719 -1.5708044211017054 3.022916555404663 0.7453047037124634 0.052630480378866196 -0.07249509543180466 0.015451306477189064 -0.00011193702812306583 0.7555562257766724 1 True False

4300.692 4.629386901855469 -1.2440542441657563 1.5060713926898401 -1.8327590427794398 -1.5707891623126429 3.0585949420928955 0.6777476668357849 0.04826674982905388 -0.06178974732756615 0.019556395709514618 -6.262727881776462e-20 0.6834361553192139 1 True False

4300.742 4.661503314971924 -1.2416482430747529 1.502878491078512 -1.8320723972716273 -1.5707891623126429 3.090620756149292 0.6097162365913391 0.04272347688674927 -0.058377690613269806 0.015872051939368248 3.313147681183182e-05 0.6171833276748657 1 True False

4300.7919999999995 4.689995765686035 -1.2395751935294648 1.5001686255084437 -1.8314157925047816 -1.5707486311541956 3.1191134452819824 0.5391350388526917 0.0379519946873188 -0.0479198694229126 0.011949014849960804 3.227237880686247e-16 0.5418773889541626 1 True False

4300.842 4.715001106262207 -1.237665281896927 1.4977625052081507 -1.8309151134886683 -1.5708335081683558 3.1439740657806396 0.4690628945827484 0.03436793014407158 -0.0479469895362854 0.011773956939578056 2.1786485376179554e-12 0.4711889922618866 1 True False

4300.892 4.736423492431641 -1.2360900801471253 1.4956772963153284 -1.8304382763304652 -1.570801083241598 3.1658308506011963 0.39321959018707275 0.029587896540760994 -0.039469245821237564 0.007901422679424286 3.3093727723530385e-31 0.3938387632369995 1 True False

4300.942 4.754522800445557 -1.2348452669433136 1.4939916769610804 -1.8299604854979457 -1.570813004170553 3.183835029602051 0.32210612297058105 0.026134684681892395 -0.029535265639424324 0.00611835764721036 0.0 0.32663050293922424 1 True False

4300.992 4.769195556640625 -1.2336792808822175 1.4926536718951624 -1.8296505413451136 -1.570784870778219 3.198361396789551 0.25877708196640015 0.018039578571915627 -0.02512720786035061 0.003177205566316843 0.0 0.2531483471393585 1 True False

4301.0419999999995 4.780148506164551 -1.2329538625529786 1.4915602842914026 -1.8293520412840785 -1.5708487669574183 3.2094056606292725 0.18689456582069397 0.013992199674248695 -0.018712369725108147 0.0062146796844899654 0.0 0.19569207727909088 1 True False

4301.092 4.787718296051025 -1.2323749226382752 1.490720574055807 -1.8292647800841273 -1.570853058491842 3.217024803161621 0.12061301618814468 0.008386144414544106 -0.012093725614249706 0.00359017844311893 0.0 0.11995696276426315 1 True False

4301.142 4.791900634765625 -1.232130990629532 1.490427319203512 -1.8291379414000453 -1.570784870778219 3.2211246490478516 0.050260160118341446 0.002313201082870364 -0.0026050456799566746 0.0010475085582584143 0.0 0.04852854833006859 1 True False

4301.192 4.79263162612915 -1.232085959320404 1.490471665059225 -1.8292728863158167 -1.5707724730121058 3.2219252586364746 -0.006357070989906788 0.012630260549485683 0.013468953780829906 -0.01712646894156933 0.0003545438521541655 0.00016449237591587007 1 True False

4301.242 4.792579174041748 -1.2308011215976258 1.4921892325030726 -1.832006116906637 -1.570813004170553 3.22186279296875 0.0002766578400041908 0.03093024529516697 0.06086805462837219 -0.09399978071451187 1.241107090200362e-19 0.00035533023765310645 1 True False

4301.2919999999995 4.792627334594727 -1.2287578147700806 1.496129337941305 -1.8384911022581996 -1.5708048979388636 3.2219316959381104 0.0005260603502392769 0.05257269740104675 0.10888075083494186 -0.15383462607860565 1.8852448763806393e-38 0.0004282095469534397 1 True False

4301.342 4.792618274688721 -1.2254523199847718 1.5029805342303675 -1.8484002552428187 -1.5708335081683558 3.2218945026397705 0.0006972270784899592 0.07878779619932175 0.15568414330482483 -0.23898406326770782 0.0 0.0002027385198744014 1 True False

4301.392 4.7927165031433105 -1.2208291453174134 1.51198655763735 -1.8616000614561976 -1.570813004170553 3.2219479084014893 0.0006044583860784769 0.10155586898326874 0.19859446585178375 -0.3095528185367584 0.0 0.00015903192979749292 1 True False

4301.442 4.7927422523498535 -1.2152373951724549 1.5230744520770472 -1.878674169579977 -1.570829216633932 3.2218689918518066 0.00017031645984388888 0.12145595997571945 0.24881158769130707 -0.36446645855903625 0.0 0.00010685376764740795 1 True False

4301.492 4.79276180267334 -1.208403305416443 1.5366581122027796 -1.8990799389281214 -1.5707362333880823 3.221952199935913 0.00012697119382210076 0.14814601838588715 0.29335421323776245 -0.4385531544685364 0.0 7.503566303057596e-05 1 True False

4301.5419999999995 4.792719841003418 -1.2003248494914551 1.5523822943316858 -1.9226705036559046 -1.5707967917071741 3.221952199935913 8.982345025287941e-05 0.17194883525371552 0.33727502822875977 -0.5071706771850586 3.086226570303552e-05 5.373446943229957e-19 1 True False

4301.592 4.7927374839782715 -1.1913345021060486 1.5701435248004358 -1.9495188198485316 -1.570813004170553 3.2218902111053467 7.401521725114435e-05 0.18590058386325836 0.35605788230895996 -0.5081567764282227 5.340319232114261e-22 8.162275447727794e-38 1 True False

4301.642 4.792695999145508 -1.1830982726863404 1.5861628691302698 -1.974065443078512 -1.5708373228656214 3.22194766998291 4.90454462513686e-44 0.146664559841156 0.295704185962677 -0.4605594277381897 8.111976680129934e-41 5.86848409511731e-06 1 True False

4301.692 4.792740345001221 -1.1760619443706055 1.6000917593585413 -1.9948350391783656 -1.5707891623126429 3.2218902111053467 0.0 0.12856052815914154 0.2553936541080475 -0.3850621283054352 0.0 8.914237683448033e-25 1 True False

4301.742 4.792728424072266 -1.1701678794673462 1.6115883032428187 -2.0123516521849574 -1.5707524458514612 3.221885919570923 0.0 0.10482269525527954 0.2058373987674713 -0.3112879693508148 0.0 1.3592595103950726e-43 1 True False

4301.7919999999995 4.792691230773926 -1.165527121429779 1.6207831541644495 -2.026188989678854 -1.570784870778219 3.2218778133392334 0.0 0.08637699484825134 0.16240376234054565 -0.23561730980873108 0.0 0.0 1 True False

4301.842 4.792733192443848 -1.1618799728206177 1.627617661152975 -2.036826273004049 -1.570784870778219 3.2218902111053467 0.0 0.059929993003606796 0.11650631576776505 -0.17716985940933228 0.0 0.0 1 True False

4301.892 4.792728424072266 -1.1593968135169526 1.6325181166278284 -2.04375757793569 -1.5707686583148401 3.2218775749206543 0.0 0.036190055310726166 0.06696639209985733 -0.10063717514276505 0.0 0.0 1 True False

4301.942 4.792728424072266 -1.1583692890456696 1.6347721258746546 -2.0472222767271937 -1.5707886854754847 3.2219433784484863 0.0 0.012593381106853485 0.024349072948098183 -0.04526089131832123 0.0 0.0 1 True False

4301.992 4.792715072631836 -1.1582935911468049 1.6349447409259241 -2.047652383843893 -1.570813004170553 3.221870183944702 0.0 0.0004951688461005688 1.3709430726066563e-12 0.00031611614394932985 0.0 0.0 1 True False

4302.0419999999995 4.792745113372803 -1.1582730275443573 1.6349685827838343 -2.0476485691466273 -1.570796314870016 3.2219033241271973 0.0 6.0387093981262296e-05 6.370821211021394e-05 8.058817184064537e-05 0.0 0.0 1 True False

4302.092 4.792710781097412 -1.1582697492888947 1.6350329558001917 -2.047676225701803 -1.5707686583148401 3.2218990325927734 9.123721458124466e-38 0.0003226074040867388 0.00022198499937076122 -3.0483332011499442e-05 0.0 0.0 1 True False

4302.142 4.792653560638428 -1.158274070625641 1.6350415388690394 -2.047668596307272 -1.5708168188678187 3.2219109535217285 0.0 0.0006304413545876741 0.00037268298910930753 -2.141591721738223e-05 0.0 -4.6836350520607084e-05 1 True False

4302.192 4.792688369750977 -1.1581566494754334 1.6350372473346155 -2.0477000675597132 -1.5708048979388636 3.2218990325927734 0.0 0.0008294405997730792 0.0002218333975179121 -2.300531713671694e-19 0.0 3.1527775718132034e-05 1 True False

4302.242 4.792741775512695 -1.1581934255412598 1.6350329558001917 -2.0476561985411585 -1.570801083241598 3.2219033241271973 0.0 0.00021398694661911577 0.00030847411835566163 -3.494513829301756e-38 0.0 1.68063270393759e-05 1 True False

4302.2919999999995 4.7926836013793945 -1.1582265955260773 1.6350892225848597 -2.047636648217672 -1.5707529226886194 3.221890926361084 0.0 8.023124246392399e-05 0.000202330804313533 -0.0 0.0 1.145729129348183e-05 1 True False

4302.342 4.792749404907227 -1.1582428079894562 1.635040585194723 -2.047652383843893 -1.5708254019366663 3.221885919570923 0.0 6.659469363512471e-05 9.56960502662696e-05 -0.0 0.0 1.0586841402791662e-15 1 True False

4302.392 4.7927165031433105 -1.1581566494754334 1.6351054350482386 -2.0476724110045375 -1.570784870778219 3.2218947410583496 -3.716863284353167e-05 4.746838684429922e-36 7.497454498661682e-05 -9.795720680260261e-23 0.0 1.6081428526596039e-34 1 True False

4302.442 4.792703628540039 -1.158213422899582 1.635064427052633 -2.0477000675597132 -1.5708168188678187 3.2219033241271973 -5.784968679365042e-38 5.76671191083733e-05 1.377848139402782e-12 -1.4880388392665232e-41 0.0 0.0 1 True False

4302.492 4.792679309844971 -1.158144788151123 1.6350849310504358 -2.047692438165182 -1.5708087126361292 3.2219033241271973 0.0 1.1590758732780248e-29 3.242604646447627e-42 -0.0 0.0 0.0 1 True False

4302.5419999999995 4.792741775512695 -1.1581815046123047 1.6350773016559046 -2.0476800403990687 -1.570772949849264 3.221886396408081 0.0 0.0 0.0 -0.0 0.0 0.0 1 True False

4302.592 4.792679309844971 -1.1582535070231934 1.6349437872516077 -2.0477878055968226 -1.5708487669574183 3.2219271659851074 0.0 -6.36218276435791e-23 4.299800748738382e-24 -0.00010798175208037719 6.948239597263006e-20 -0.00024602049961686134 1 True False

4302.642 4.792700290679932 -1.1582492154887696 1.6350057760821741 -2.047795911828512 -1.5708087126361292 3.221968412399292 0.0 0.00010899638436967507 0.0 -8.667116402013859e-16 1.0554390858001838e-38 -5.5476983106927946e-05 1 True False

4302.692 4.792642593383789 -1.1583692890456696 1.6347773710833948 -2.046961923638815 -1.5708335081683558 3.221951961517334 0.0 -0.01074132788926363 -0.019590964540839195 0.041072551161050797 0.0 -4.699744749814272e-05 1 True True

4302.742 4.792707920074463 -1.1594121021083375 1.632470432912008 -2.043455263177389 -1.5707967917071741 3.2219653129577637 0.0 -0.04001018777489662 -0.07461664080619812 0.10693267732858658 0.0 -3.2746713259257376e-05 1 True True

4302.7919999999995 4.7927327156066895 -1.161883221273758 1.627497975026266 -2.036043783227438 -1.5707767645465296 3.2219109535217285 0.0 -0.061246804893016815 -0.12049265205860138 0.1721668839454651 0.0 -3.1004594650768784e-18 1 True True

4302.842 4.792728424072266 -1.1656500560096283 1.6202743689166468 -2.0253263912596644 -1.5707805792437952 3.2219314575195312 0.0 -0.08135122060775757 -0.1677774041891098 0.25783491134643555 0.0 -4.709604054259146e-37 1 True True

4302.892 4.792684078216553 -1.1704969269088288 1.61082631746401 -2.011153837243551 -1.5707967917071741 3.221940279006958 0.0 -0.10860036313533783 -0.2114923894405365 0.31851130723953247 0.0 -6.953635584006079e-11 1 True True

4302.942 4.792712211608887 -1.1764682990363617 1.599086109791891 -1.9932342968382777 -1.5707886854754847 3.221963882446289 0.0 -0.13201911747455597 -0.25798049569129944 0.39141181111335754 0.0 -1.0562582224059509e-29 1 True True

4302.992 4.792707920074463 -1.1837560099414368 1.5849388281451624 -1.9721933803954066 -1.5708335081683558 3.2219033241271973 0.0 -0.15411001443862915 -0.3025240898132324 0.4628501236438751 0.0 -0.0 1 True True

4303.0419999999995 4.79265832901001 -1.1920639139464875 1.5686324278460901 -1.9474088154234828 -1.5707648436175745 3.2218990325927734 0.0 -0.1745671182870865 -0.33980676531791687 0.529029130935669 0.0 -0.0 1 True True

4303.092 4.792710781097412 -1.200986610060074 1.550880257283346 -1.9207636318602503 -1.5707891623126429 3.22194766998291 0.0 -0.1693333089351654 -0.33465516567230225 0.517189621925354 0.0 -2.7710145850535876e-14 1 True True

4303.142 4.792707920074463 -1.2088670295527955 1.535445515309469 -1.897146841088766 -1.5708373228656214 3.2219314575195312 0.0 -0.15004387497901917 -0.2904740273952484 0.4374106526374817 0.0 -4.209178212671784e-33 1 True True

4303.192 4.792654037475586 -1.215792105799057 1.522147003804342 -1.8771501980223597 -1.5708254019366663 3.221919536590576 0.0 -0.12324397265911102 -0.24351277947425842 0.3801928162574768 0.0 -0.0 1 True True

4303.242 4.792700290679932 -1.2213249963572999 1.5112436453448694 -1.8605419598021449 -1.570784870778219 3.2219228744506836 0.0 -0.10188240557909012 -0.19895575940608978 0.2956089675426483 0.0 -0.0 1 True True

4303.2919999999995 4.7927327156066895 -1.225709782247879 1.5025118033038538 -1.8475262127318324 -1.5707767645465296 3.2219595909118652 0.0 -0.07633170485496521 -0.1539977639913559 0.22405965626239777 0.0 -0.0 1 True True

4303.342 4.79268741607666 -1.22892381370578 1.4962480703936976 -1.8378669224181117 -1.5707805792437952 3.221886396408081 0.0 -0.05256465822458267 -0.10878518223762512 0.16573604941368103 0.0 -0.0 1 True True

4303.392 4.792745590209961 -1.231075720196106 1.4922402540790003 -1.8317448101439417 -1.5707529226886194 3.221919536590576 0.0 -0.03243413195014 -0.06002165377140045 0.10200313478708267 0.0 -0.0 1 True True

4303.442 4.792663097381592 -1.2319617134383698 1.4904091993915003 -1.8292767010130824 -1.570756737385885 3.2219033241271973 0.0 -0.005307029001414776 -0.015190985053777695 0.018814723938703537 0.0 -0.0 1 True True

4303.492 4.791743278503418 -1.2319079798511048 1.4904425779925745 -1.8291899166502894 -1.570784870778219 3.2210230827331543 -0.050858039408922195 -0.004628792405128479 0.0034124262165278196 0.0004097467754036188 0.0 -0.0507972352206707 1 True True

4303.5419999999995 4.787530899047852 -1.2323277753642579 1.4907658735858362 -1.829148908654684 -1.5707648436175745 3.2165887355804443 -0.12484635412693024 -0.010763198137283325 0.01171044446527958 -2.345502798561938e-05 0.0 -0.12081265449523926 1 True True

4303.592 4.779569625854492 -1.232990102177002 1.4913886229144495 -1.8293329677977503 -1.5708211104022425 3.208801746368408 -0.19381356239318848 -0.014217466115951538 0.019854849204421043 -0.005243173334747553 -7.814638229319826e-05 -0.19323532283306122 1 True True

4303.642 4.768065929412842 -1.2337236565402527 1.4924958387957972 -1.8296309910216273 -1.5707925001727503 3.1973702907562256 -0.2611503601074219 -0.017613772302865982 0.023032844066619873 -0.007599572651088238 -5.7281060435343534e-05 -0.26402920484542847 1 True True

4303.692 4.753314018249512 -1.234839991932251 1.493918244038717 -1.829944749871725 -1.5708168188678187 3.1824285984039307 -0.33329182863235474 -0.025077838450670242 0.031824998557567596 -0.00781642459332943 3.895440827544894e-12 -0.32855042815208435 1 True True

4303.742 4.7348313331604 -1.236188755636551 1.4955933729754847 -1.830409666100973 -1.570833985005514 3.164123058319092 -0.4025443494319916 -0.028982941061258316 0.0387493297457695 -0.009626479819417 5.917183714864137e-31 -0.4026435613632202 1 True True

4303.7919999999995 4.713188648223877 -1.2377422016910096 1.4978178183185022 -1.8308993778624476 -1.5707891623126429 3.1424429416656494 -0.4698806703090668 -0.0368913859128952 0.046788573265075684 -0.0108676478266716 0.0 -0.47579699754714966 1 True True

4303.842 4.687829494476318 -1.2397073370269318 1.500261131917135 -1.8314911327757777 -1.5708487669574183 3.1169211864471436 -0.5370597243309021 -0.038325268775224686 0.054535090923309326 -0.01173927541822195 0.0 -0.5343083143234253 1 True True

4303.892 4.658928394317627 -1.2416967314532776 1.5030353705035608 -1.8321954212584437 -1.5708649794207972 3.0881283283233643 -0.6133729219436646 -0.044685401022434235 0.05557143688201904 -0.015638738870620728 -8.003139930524585e-19 -0.6046988368034363 1 True True

4303.942 4.626654624938965 -1.244125024681427 1.5062702337848108 -1.8329626522459925 -1.5708578268634241 3.055821418762207 -0.6846446394920349 -0.04829628765583038 0.06644492596387863 -0.018101699650287628 -0.0013756337575614452 -0.6756297945976257 1 True True

4303.992 4.590909957885742 -1.2466491025737305 1.509646240864889 -1.8337699375548304 -1.5708211104022425 3.020256996154785 -0.7558294534683228 -0.05431319400668144 0.0690450593829155 -0.02063838578760624 -0.0009510043310001493 -0.7430006265640259 1 True True

4304.0419999999995 4.551725387573242 -1.249539778833725 1.51345140138735 -1.8346363506712855 -1.5707772413836878 2.980992555618286 -0.8211917877197266 -0.058992840349674225 0.07865479588508606 -0.018282856792211533 9.82626952463761e-05 -0.8187157511711121 1 True True

4304.092 4.508957386016846 -1.2526978117278595 1.5174201170550745 -1.8355628452696742 -1.5707925001727503 2.93803071975708 -0.8858213424682617 -0.06697085499763489 0.08610735088586807 -0.01871848665177822 0.000939383520744741 -0.8929545879364014 1 True True

4304.142 4.4626359939575195 -1.2560027998736878 1.5218499342547815 -1.8366314373412074 -1.570813004170553 2.8919262886047363 -0.9624622464179993 -0.06887202709913254 0.09260732680559158 -0.02277681790292263 5.220994694354886e-07 -0.9561652541160583 1 True True

4304.192 4.412835597991943 -1.259607658987381 1.5265801588641565 -1.8378130398192347 -1.5708568731891077 2.841949224472046 -1.0251041650772095 -0.0773363783955574 0.10091312974691391 -0.025609031319618225 7.930704025967392e-26 -1.0285722017288208 1 True True

4304.242 4.360733509063721 -1.2634769541076203 1.5316217581378382 -1.8389607868590296 -1.570813004170553 2.789982557296753 -1.0444735288619995 -0.07623346894979477 0.10220739990472794 -0.02308168075978756 -2.7908512493013404e-05 -1.0546096563339233 1 True True

4304.2919999999995 4.30833101272583 -1.2672626835158844 1.5367777983294886 -1.8402453861632289 -1.570841137562887 2.7374107837677 -1.049420714378357 -0.07608096301555634 0.10075127333402634 -0.026822740212082863 -8.315213199239224e-05 -1.0429452657699585 1 True True

4304.342 4.255943775177002 -1.271063671713211 1.5418475309955042 -1.841386457482809 -1.5708087126361292 2.6850671768188477 -1.0446611642837524 -0.07545293867588043 0.10458355396986008 -0.021766342222690582 0.00015021713625174016 -1.0547913312911987 1 True True

4304.392 4.203606605529785 -1.2750226718238373 1.5467374960528772 -1.8425952396788539 -1.5707562605487269 2.6328375339508057 -1.0467222929000854 -0.07664009928703308 0.09977599233388901 -0.01957755722105503 6.62992854220781e-21 -1.0506054162979126 1 True True

4304.442 4.151171684265137 -1.2787137490561982 1.5516589323626917 -1.8438998661436976 -1.5708044211017054 2.5804965496063232 -1.0510077476501465 -0.07350130379199982 0.10112108290195465 -0.025366272777318954 7.80206173658371e-05 -1.042445421218872 1 True True

4304.492 4.098812580108643 -1.2825746995261689 1.5567072073565882 -1.8450166187682093 -1.5707610289203089 2.5279695987701416 -1.0440393686294556 -0.0740046575665474 0.09802550077438354 -0.024105312302708626 1.6861308356486138e-12 -1.053756594657898 1 True True

4304.5419999999995 4.046480178833008 -1.2863408488086243 1.5617206732379358 -1.8462654552855433 -1.5707810560809534 2.4757728576660156 -1.0470110177993774 -0.07615108042955399 0.10172039270401001 -0.02280215546488762 2.5612364457382985e-31 -1.0519020557403564 1 True True

4304.592 3.9941298961639404 -1.2901541751674195 1.5668514410602015 -1.847609659234518 -1.5708048979388636 2.4233052730560303 -1.0510510206222534 -0.0755670964717865 0.10122941434383392 -0.028262784704566002 0.0 -1.0408289432525635 1 True True

4304.642 3.941753387451172 -1.2939689320376893 1.5719965139972132 -1.8486019573607386 -1.5707886854754847 2.370882987976074 -1.045758605003357 -0.0751950666308403 0.09727227687835693 -0.026705302298069 0.00016269340994767845 -1.052003264427185 1 True True

4304.692 3.889400005340576 -1.297792301779129 1.5769136587726038 -1.8497826061644496 -1.5708006064044397 2.3187406063079834 -1.0452306270599365 -0.07902780175209045 0.0972132757306099 -0.021519528701901436 5.207446883874395e-21 -1.0511192083358765 1 True True

4304.742 3.837052822113037 -1.3015271884253998 1.5817902723895472 -1.8510872326292933 -1.570772949849264 2.266279458999634 -1.0517441034317017 -0.07720700651407242 0.10315795242786407 -0.024748623371124268 7.910119636343944e-40 -1.0442150831222534 1 True True

4304.7919999999995 3.784653902053833 -1.3053783637336274 1.5868776480304163 -1.8522640667357386 -1.5708048979388636 2.2138261795043945 -1.0459131002426147 -0.07781149446964264 0.09927672892808914 -0.02593492716550827 0.0 -1.0461291074752808 1 True True

4304.842 3.732245445251465 -1.3092733484557648 1.5918505827533167 -1.8535243473448695 -1.5707929770099085 2.1615588665008545 -1.0444056987762451 -0.07362954318523407 0.09853002429008484 -0.023474151268601418 0.0 -1.051849126815796 1 True True

4304.892 3.6799476146698 -1.3130245369723816 1.5968859831439417 -1.854696889916891 -1.5708211104022425 2.1091880798339844 -1.0506508350372314 -0.07190179079771042 0.10429937392473221 -0.021655507385730743 0.0 -1.0385197401046753 1 True True

4304.942 3.6276612281799316 -1.3168259125998993 1.6019704977618616 -1.8558856449522914 -1.5708048979388636 2.0567567348480225 -1.0441069602966309 -0.0781383141875267 0.09970183670520782 -0.02420259453356266 0.0 -1.048581600189209 1 True True

4304.992 3.575204610824585 -1.3206731241992493 1.6070707480060022 -1.8570591411986292 -1.5708287397967737 2.004565477371216 -1.0433502197265625 -0.07541417330503464 0.09859872609376907 -0.02449651248753071 0.0 -1.051875352859497 1 True True

4305.0419999999995 3.5229570865631104 -1.3245040637305756 1.6119678656207483 -1.8582831821837367 -1.5707886854754847 1.9521666765213013 -1.052547574043274 -0.07521197944879532 0.10000340640544891 -0.021196922287344933 0.0 -1.0455995798110962 1 True True

4305.092 3.470590114593506 -1.3283165109208603 1.616993252431051 -1.8594476185240687 -1.5707648436175745 1.8996299505233765 -1.0448209047317505 -0.0742558091878891 0.10456900298595428 -0.025755688548088074 0.0 -1.042906403541565 1 True True

4305.142 3.4181463718414307 -1.3320024472526093 1.6218393484698694 -1.8607880077757777 -1.5708048979388636 1.8474334478378296 -1.044455647468567 -0.07867066562175751 0.09993549436330795 -0.026510771363973618 0.0 -1.0494208335876465 1 True True

4305.192 3.3657443523406982 -1.3359023493579407 1.6269477049456995 -1.86195768932485 -1.5708211104022425 1.7949782609939575 -1.0478646755218506 -0.07492261379957199 0.10048231482505798 -0.024692237377166748 0.0 -1.0464091300964355 1 True True

4305.242 3.3134288787841797 -1.3397191774896164 1.632136646901266 -1.863044878045553 -1.5708087126361292 1.7425460815429688 -1.0458695888519287 -0.07265304028987885 0.09874731302261353 -0.024028802290558815 0.0 -1.0487791299819946 1 True True

4305.2919999999995 3.2612619400024414 -1.3435995739749451 1.6371319929706019 -1.8643213711180628 -1.570813004170553 1.6905688047409058 -1.0225529670715332 -0.07517426460981369 0.10046236217021942 -0.024719705805182457 0.0 -1.031801700592041 1 True True

4305.342 3.2117257118225098 -1.3471576434424897 1.6418135801898401 -1.8654433689513148 -1.5707805792437952 1.6408960819244385 -0.9654386043548584 -0.06929375231266022 0.0898735374212265 -0.02313476987183094 0.0 -0.9584127068519592 1 True True

4305.392 3.1655566692352295 -1.3505489838174363 1.6462519804583948 -1.8665129146971644 -1.5707405249225062 1.5947506427764893 -0.8821775317192078 -0.0644979178905487 0.08597546815872192 -0.0183835681527853 0.0 -0.8924428820610046 1 True True

4305.442 3.1229870319366455 -1.3536046010306855 1.6502569357501429 -1.8675900898375453 -1.5708254019366663 1.552155613899231 -0.820804238319397 -0.05831882730126381 0.07797810435295105 -0.016883010044693947 -4.220650589559227e-05 -0.8172725439071655 1 True True

4305.492 3.083815336227417 -1.3564243477633973 1.6539648214923304 -1.8684007130064906 -1.5708168188678187 1.5130397081375122 -0.7524917125701904 -0.05460327863693237 0.06871520727872849 -0.019003011286258698 -7.11436589859721e-20 -0.7505505084991455 1 True True

4305.5419999999995 3.048287868499756 -1.3590560120395203 1.6574886480914515 -1.8692523441710414 -1.5708373228656214 1.4773509502410889 -0.6783037781715393 -0.05002502351999283 0.07151542603969574 -0.014425166882574558 -1.0806736685457451e-38 -0.6801260113716125 1 True True

4305.592 3.015986204147339 -1.3614530277303238 1.660574738179342 -1.8699184856810511 -1.5707324186908167 1.4452800750732422 -0.607020914554596 -0.04400387778878212 0.05793182551860809 -0.011342004872858524 -0.00010850082617253065 -0.6138628721237183 1 True True

4305.642 2.9874465465545654 -1.3634726864150544 1.6633394400226038 -1.8706232510008753 -1.5707891623126429 1.416622519493103 -0.5369821786880493 -0.03999321162700653 0.051660340279340744 -0.010561552830040455 -2.224233867309522e-05 -0.5436290502548218 1 True True

4305.692 2.962254047393799 -1.36533638954673 1.6657879988299769 -1.8711749515929164 -1.5707925001727503 1.3914707899093628 -0.4666326940059662 -0.03248685970902443 0.046719927340745926 -0.008518719114363194 -6.425009632948786e-05 -0.46983271837234497 1 True True

4305.742 2.9405341148376465 -1.3668190401843567 1.667797867451803 -1.8717123470702113 -1.5707886854754847 1.3697373867034912 -0.39875781536102295 -0.029528990387916565 0.03588508442044258 -0.0062189772725105286 -2.2008822427076467e-21 -0.3994460999965668 1 True True

4305.7919999999995 2.9223124980926514 -1.3682252329638978 1.6695693174945276 -1.8720933399596156 -1.5708048979388636 1.3516215085983276 -0.3332803547382355 -0.023747600615024567 0.03102216124534607 -0.008276727050542831 -1.791336679989868e-20 -0.32853835821151733 1 True True

4305.842 2.9077255725860596 -1.3693064463189621 1.6709378401385706 -1.8724123440184535 -1.570716683064596 1.3369210958480835 -0.25867700576782227 -0.019843673333525658 0.025762071833014488 -0.00557924248278141 -2.7210441606228584e-39 -0.2583374083042145 1 True True

4305.892 2.8965392112731934 -1.37011310577903 1.672006909047262 -1.8726865253844203 -1.5708168188678187 1.3256912231445312 -0.1895311027765274 -0.015318935737013817 0.018625915050506592 -0.004749997518956661 4.923795859212987e-05 -0.19294913113117218 1 True True

4305.942 2.888749122619629 -1.3707427990487595 1.6726840178119105 -1.872857233087057 -1.570772949849264 1.317989706993103 -0.12167820334434509 -0.007565172389149666 0.012059459462761879 -0.0020787538960576057 8.899646004276477e-16 -0.12656426429748535 1 True True

4305.992 2.88456392288208 -1.3708464068225403 1.6730793158160608 -1.872948785821432 -1.5707767645465296 1.3137775659561157 -0.04872232303023338 -0.002396075055003166 0.0020283861085772514 -0.0019505133386701345 1.351858222297719e-34 -0.05099404230713844 1 True True

4306.0419999999995 2.883793354034424 -1.3709151905826111 1.6732757727252405 -1.873331209222311 -1.570732895527975 1.3129541873931885 -3.571349225239828e-05 0.003662658855319023 0.02317185141146183 -0.03820279985666275 0.0 1.3414983186521567e-05 1 True True

4306.092 2.8837978839874268 -1.3700606983951111 1.6750205198871058 -1.8761221371092738 -1.5708254019366663 1.3128979206085205 -0.00048368898569606245 0.02955719828605652 0.056987959891557693 -0.08391102403402328 0.0 -0.0004496031906455755 1 True True

4306.142 2.8837649822235107 -1.3678745341352005 1.6791418234454554 -1.8821779690184535 -1.5708211104022425 1.3129433393478394 -0.001132145058363676 0.06014024466276169 0.10579802840948105 -0.16967426240444183 0.0 -0.0006610295968130231 1 True True

4306.192 2.8837218284606934 -1.3642341059497376 1.6853345076190394 -1.8920651874937953 -1.5707648436175745 1.312927007675171 -0.000690042448695749 0.08829350769519806 0.14677859842777252 -0.22850297391414642 0.0 -0.0002490421466063708 1 True True

4306.242 2.883676767349243 -1.3592579823783417 1.6938918272601526 -1.9052454433836878 -1.570784870778219 1.3129303455352783 -0.00015786648145876825 0.107435442507267 0.19245710968971252 -0.2996213138103485 0.0 -0.00015145396173465997 1 True True

4306.2919999999995 2.8836395740509033 -1.3531437528184433 1.7044618765460413 -1.9219070873656214 -1.570784870778219 1.312882661819458 -0.00011721471673808992 0.13601458072662354 0.23003247380256653 -0.36277031898498535 -5.10974095959682e-05 -9.282112296205014e-05 1 True True

4306.342 2.883685827255249 -1.3457224679044266 1.7170918623553675 -1.942240377465719 -1.570801083241598 1.3129150867462158 -8.024449925869703e-05 0.1621638387441635 0.28041237592697144 -0.42534133791923523 -3.7381283447874747e-22 -6.123943603597581e-05 1 True True

4306.392 2.883709669113159 -1.337040202026703 1.732401196156637 -1.9658285580077113 -1.5707967917071741 1.3129065036773682 -1.603258249719287e-30 0.18443433940410614 0.3203924894332886 -0.5089730620384216 -5.678201507290591e-41 -3.074377211143009e-11 1 True True

4306.442 2.883685827255249 -1.327218921189644 1.7493656317340296 -1.9930492840208949 -1.5707486311541956 1.3129150867462158 0.0 0.19500212371349335 0.3476678729057312 -0.5667993426322937 -5.715324277844047e-06 -4.66998665366994e-30 1 True True

4306.492 2.883735179901123 -1.3176736694625397 1.7660263220416468 -2.0192066631712855 -1.5707972685443323 1.312894582748413 -2.6920973783539637e-10 0.18408170342445374 0.3078584671020508 -0.4801238477230072 3.021926623392461e-16 -2.709348045394633e-13 1 True True

4306.5419999999995 2.883648633956909 -1.30927066624675 1.780283276234762 -2.0418220959105433 -1.5708211104022425 1.3128739595413208 3.258061406086199e-05 0.1503700166940689 0.26533451676368713 -0.42143571376800537 4.5903117536513936e-35 -4.1155047576278853e-32 1 True True

4306.592 2.883669376373291 -1.3022986215404053 1.7926271597491663 -2.061026235620016 -1.5708211104022425 1.3129194974899292 1.710252217890229e-05 0.1272636353969574 0.21849192678928375 -0.344280481338501 0.0 -0.0 1 True True

4306.642 2.883685827255249 -1.2966939371875306 1.802392307912008 -2.076827665368551 -1.570784870778219 1.312894582748413 1.15944494609721e-05 0.10263929516077042 0.17756089568138123 -0.2932829260826111 0.0 -0.0 1 True True

4306.692 2.883709669113159 -1.2921273869327088 1.8101709524737757 -2.088980814019674 -1.5707767645465296 1.3128740787506104 1.4778096806786286e-29 0.07856716215610504 0.13353927433490753 -0.21241801977157593 0.0 -0.0 1 True True

4306.742 2.883681297302246 -1.2889133554748078 1.8157828489886683 -2.0978318653502406 -1.5708416144000452 1.312869668006897 0.0 0.05219308286905289 0.08987215906381607 -0.1435718685388565 0.0 -0.0 1 True True

4306.7919999999995 2.8836398124694824 -1.2870678466609498 1.8190649191485804 -2.1030475101866664 -1.570820156727926 1.3129314184188843 0.0 0.023928429931402206 0.039338354021310806 -0.08847053349018097 -0.0012820009142160416 -0.0 1 True True

4306.842 2.8836963176727295 -1.2867242258838196 1.8196728865252894 -2.1049872837462367 -1.5707886854754847 1.312922716140747 3.831191373968197e-20 -0.00041912769665941596 2.045767178060487e-05 0.004270927514880896 -0.0003622482472565025 2.8214859412400983e-05 1 True True

4306.892 2.883665084838867 -1.2866878074458619 1.819671932850973 -2.1049281559386195 -1.5708087126361292 1.312950849533081 2.8372073579419066e-09 0.003892764914780855 0.0036843232810497284 0.0009348271996714175 -0.0001028332335408777 0.00015709080616943538 1 True True

4306.942 2.883718490600586 -1.2858239871314545 1.8209493795977991 -2.1041728458800257 -1.5707529226886194 1.3129065036773682 0.0004901220090687275 -0.0009866043692454696 0.0004261907306499779 -0.0007191359181888402 0.0011504455469548702 8.39793372620079e-08 1 True True

4306.992 2.883693218231201 -1.2860528987697144 1.8207090536700647 -2.1044942341246546 -1.5707805792437952 1.3128739595413208 0.0001933732710313052 -0.0006096584838815033 -0.0002860684471670538 -0.00012009112106170505 -0.0004474887973628938 0.00038166652666404843 1 True False

4307.0419999999995 2.883693218231201 -1.286183939581253 1.8206098715411585 -2.1046654186644496 -1.5707929770099085 1.312910795211792 0.00016186651191674173 -0.0019505333621054888 -0.0018218219047412276 -0.0015727694844827056 3.732055120053701e-05 -3.891638698405586e-06 1 True False

4307.092 2.883718490600586 -1.286327139740326 1.8204649130450647 -2.10479273418569 -1.5707686583148401 1.3129390478134155 0.0 -0.0008700296166352928 -0.003722126828506589 -0.0015173731371760368 2.5607495309950247e-22 -5.911405614173845e-25 1 True False

4307.142 2.883718490600586 -1.2863319975188752 1.8203981558429163 -2.1047970257201136 -1.5707891623126429 1.3129152059555054 0.0 -0.00011081654520239681 -0.002645879751071334 -0.0002865342830773443 3.889724277272827e-41 -8.96831017167883e-44 1 True False

4307.192 2.8836934566497803 -1.2863850754550477 1.8202279249774378 -2.1045853100218714 -1.5707686583148401 1.3128902912139893 0.0 -0.012930273078382015 -0.021176215261220932 0.019376663491129875 0.0 -0.0 1 True False

4307.242 2.88373064994812 -1.2875437301448365 1.8184106985675257 -2.101950784722799 -1.5707405249225062 1.3128660917282104 0.0 -0.02855176292359829 -0.04965881258249283 0.10329969972372055 0.0 -0.0 1 True False

4307.2919999999995 2.883702039718628 -1.2895811361125489 1.8145406881915491 -2.095764299432272 -1.5708211104022425 1.3129358291625977 0.0 -0.059814199805259705 -0.10467253625392914 0.15469026565551758 0.0 -0.0 1 True False

4307.342 2.8836934566497803 -1.2930440467647095 1.8084066549884241 -2.085917135278219 -1.5708211104022425 1.3129065036773682 0.0 -0.08429961651563644 -0.14700981974601746 0.23813991248607635 0.0 -0.0 1 True False

4307.392 2.883755683898926 -1.298035429125168 1.799938980733053 -2.072970529595846 -1.5707686583148401 1.3129065036773682 0.0 -0.10963156074285507 -0.19269195199012756 0.3061380386352539 0.0 -0.0 1 True False

4307.442 2.8837392330169678 -1.3040652436069031 1.789492432271139 -2.0561968288817347 -1.570829216633932 1.312869668006897 0.0 -0.13557732105255127 -0.23049858212471008 0.3561779856681824 -1.5142846072917535e-16 -0.0 1 True False

4307.492 2.883734941482544 -1.311570094232895 1.7765286604510706 -2.036013742486471 -1.570813004170553 1.3129303455352783 0.0 -0.15627656877040863 -0.2736077606678009 0.4383731484413147 -2.3002023808325412e-35 -0.0 1 True False

4307.5419999999995 2.883734941482544 -1.3201568883708497 1.7616708914386194 -2.0123893223204554 -1.5707967917071741 1.3129022121429443 0.0 -0.18585503101348877 -0.3140566945075989 0.4973464906215668 -0.0 -0.0 1 True False

4307.592 2.8836727142333984 -1.33002424359832 1.7444327513324183 -1.9852572880186976 -1.570801083241598 1.3129390478134155 0.0 -0.19727930426597595 -0.3490521311759949 0.5583437085151672 -1.2370560398267116e-05 -0.0 1 True False

4307.642 2.8837218284606934 -1.3396265667727967 1.7278931776629847 -1.958963533441061 -1.5707925001727503 1.312923789024353 0.0 -0.17964129149913788 -0.30420204997062683 0.48900189995765686 -2.5247720463539186e-23 -0.0 1 True False

4307.692 2.883690118789673 -1.3479885321906586 1.7134245077716272 -1.9363357029356898 -1.5708211104022425 1.3128902912139893 0.0 -0.15048223733901978 -0.26304498314857483 0.41635555028915405 6.643021324964361e-18 -0.0 1 True False

4307.742 2.8837130069732666 -1.3549570751241227 1.7013848463641565 -1.9170295200743617 -1.5708044211017054 1.312927007675171 0.0 -0.12870821356773376 -0.2252761572599411 0.34700295329093933 1.0090765936145808e-36 -0.0 1 True False

4307.7919999999995 2.88366961479187 -1.3606826824000855 1.6912468115436 -1.9013248882689417 -1.5708254019366663 1.3128935098648071 0.0 -0.10486959666013718 -0.18139205873012543 0.28596216440200806 0.0 -0.0 1 True False

4307.842 2.883694648742676 -1.365175948744156 1.6833785215960901 -1.8889433346190394 -1.5708211104022425 1.3129551410675049 0.0 -0.0773329958319664 -0.1344972401857376 0.20550134778022766 0.0 -0.0 1 True False

4307.892 2.883709669113159 -1.368471459751465 1.6778362433062952 -1.8801657162108363 -1.570813004170553 1.3129022121429443 0.0 -0.05215534195303917 -0.09250273555517197 0.15903861820697784 0.0 -0.0 1 True False

4307.942 2.883730411529541 -1.3704293829253693 1.674410645161764 -1.8749762974181117 -1.5707724730121058 1.3129032850265503 0.0 -0.027595682069659233 -0.04624875634908676 0.07784698158502579 0.0 -0.0 1 True False

4307.992 2.8836607933044434 -1.3709586572698136 1.6733792463885706 -1.8729692898192347 -1.5707805792437952 1.312898874282837 0.0 0.0007568994769826531 -5.765633613918908e-05 0.0009468402713537216 0.0 -0.0 1 True False

4308.0419999999995 2.8837225437164307 -1.3709541124156495 1.6734245459186 -1.873000284234518 -1.5707886854754847 1.3128660917282104 0.0 -0.00021103725885041058 1.6543905072997397e-17 -0.0003226103726774454 0.0 -0.0 1 False False

4308.092 2.883713960647583 -1.3710006934455414 1.6733506361590784 -1.873028417626852 -1.570756737385885 1.3128705024719238 0.0 -0.0004171449108980596 -0.0011138755362480879 -0.00029013201128691435 0.0 -0.0 1 False False

4308.142 2.883702039718628 -1.3709496271661301 1.6733525435077112 -1.8729807339110316 -1.5707724730121058 1.3129020929336548 0.0 -0.00034976802999153733 -0.0008504493744112551 -0.00023282182519324124 0.0 -0.0 1 False False

4308.192 2.8836686611175537 -1.3710604918054123 1.673323933278219 -1.8730160198607386 -1.5708373228656214 1.3129304647445679 0.0 -0.00045700775808654726 -0.0006973259733058512 -0.00017787514661904424 0.0 -0.0 1 False False

4308.242 2.8836772441864014 -1.3709901732257386 1.6732929388629358 -1.8730408153929652 -1.570813004170553 1.3128705024719238 0.0 -0.00021902921434957534 -0.000348366069374606 -0.00012927637726534158 0.0 -0.0 1 False False

4308.2919999999995 2.883726119995117 -1.371035100226738 1.6732266584979456 -1.8730365238585414 -1.5707967917071741 1.3129312992095947 0.0 -0.00023182497534435242 -0.00015566851652693003 -9.001739090308547e-05 0.0 -0.0 1 False False

4308.342 2.883718252182007 -1.3709856283715744 1.6732972303973597 -1.8730603657164515 -1.5707605520831507 1.3128782510757446 0.0 -0.00016211916226893663 -0.00011686304787872359 -7.412670674966648e-05 0.0 -0.0 1 False False

4308.392 2.883718252182007 -1.3710589718869706 1.673288647328512 -1.873024126092428 -1.5707486311541956 1.3128747940063477 0.0 -8.05953168310225e-05 -9.124375355895609e-05 -9.492205783071139e-20 0.0 -0.0 1 False False

