Andreas691667/Digital_Twin_UR/src/controller_monitor/test_results/E1_robot_output.csv
timestamp actual_q_0 actual_q_1 actual_q_2 actual_q_3 actual_q_4 actual_q_5 actual_qd_0 actual_qd_1 actual_qd_2 actual_qd_3 actual_qd_4 actual_qd_5 safety_status output_bit_register_65 output_bit_register_66
1576.0259999999998 3.7120742797851562 -0.8254998487285157 0.8429721037494105 -1.5882774792113246 -1.5708168188678187 2.141267776489258 0.0 0.0 -0.0 -0.0 0.0 -0.0 1 False False
1576.0459999999998 3.7120862007141113 -0.8254697483829041 0.8429845015155237 -1.5882607899107875 -1.5707967917071741 2.1413004398345947 0.0 0.0 -0.0 -0.0 0.0 -0.0 1 False False
1576.066 3.712066888809204 -0.8254707616618653 0.8429763952838343 -1.5883246860899867 -1.570784870778219 2.14132022857666 0.0 0.0 -0.0 -0.0 0.0 -0.0 1 False False
1576.086 3.7120652198791504 -0.8255566519549866 0.8429673353778284 -1.5882374248900355 -1.5707767645465296 2.1412558555603027 0.0 0.0 -0.0 -0.0 0.0 -0.0 1 False False
1576.106 3.712078809738159 -0.8255199950984498 0.8429673353778284 -1.5882374248900355 -1.5707929770099085 2.141279697418213 0.0 0.0 -0.0 -0.0 0.0 -0.0 1 False False
1576.126 3.7121188640594482 -0.8254620593837281 0.8429678122149866 -1.5883084736266078 -1.5707691351519983 2.141295909881592 0.0 0.0 -0.0 -0.0 0.0 -0.0 1 False False
1576.146 3.7120532989501953 -0.8255155843547364 0.8429845015155237 -1.5882774792113246 -1.5707886854754847 2.141317367553711 0.0 0.0 -0.0 -0.0 0.0 -0.0 1 False False
1576.166 3.7120532989501953 -0.8254535359195252 0.8429258505450647 -1.5882569752135218 -1.570784870778219 2.141254425048828 0.0 0.0 -0.0 -0.0 0.0 -0.0 1 False False
1576.186 3.7120771408081055 -0.825519935493805 0.8429887930499476 -1.588297029534811 -1.570784870778219 2.141287088394165 0.0 0.0 -0.0 -0.0 0.0 -0.0 1 False False
1576.206 3.712095260620117 -0.8255242270282288 0.8429515997516077 -1.5882727108397425 -1.5708125273333948 2.1413216590881348 0.0 0.0 -0.0 -0.0 0.0 -0.0 1 False False
1576.2259999999999 3.712095260620117 -0.8255242866328736 0.8429563681231897 -1.588297029534811 -1.5707767645465296 2.141329288482666 0.0 0.0 -0.0 -0.0 0.0 -0.0 1 False False
1576.2459999999999 3.7120697498321533 -0.8254663509181519 0.8429721037494105 -1.588273664514059 -1.5708168188678187 2.141263484954834 0.0 0.0 -0.0 -0.0 0.0 -0.0 1 False False
1576.2659999999998 3.7120862007141113 -0.8254825633815308 0.8429606596576136 -1.5882336101927699 -1.5708006064044397 2.141317367553711 0.0 0.0 -0.0 -0.0 0.0 -0.0 1 False False
1576.2859999999998 3.7120742797851562 -0.8254416149905701 0.8429678122149866 -1.5883094273009242 -1.5707967917071741 2.141329288482666 0.0 0.0 -0.0 -0.0 0.0 -0.0 1 False False
1576.306 3.7120816707611084 -0.8255275052836915 0.8429964224444788 -1.588273664514059 -1.5707805792437952 2.1413259506225586 0.0 0.0 -0.0 -0.0 0.0 -0.0 1 False False
1576.326 3.712078809738159 -0.8254663509181519 0.8430097738849085 -1.5883051357665003 -1.5707767645465296 2.141361713409424 0.0 0.0 -0.0 -0.0 0.0 -0.0 1 False False
1576.346 3.7120816707611084 -0.8254739803126832 0.8430054823504847 -1.5882297954955042 -1.5707767645465296 2.1412277221679688 0.0 0.0 -0.0 -0.0 0.0 -0.0 1 False False
1576.366 3.712111473083496 -0.8255189818194886 0.8429964224444788 -1.5882569752135218 -1.5707486311541956 2.141291618347168 0.0 0.0 -0.0 -0.0 0.0 -0.0 1 False False
1576.386 3.712078809738159 -0.8255199950984498 0.8429887930499476 -1.5883165798582972 -1.5707805792437952 2.141308546066284 0.0 0.0 -0.0 -0.0 0.0 -0.0 1 False False
1576.406 3.7121071815490723 -0.8255027693561097 0.8429978529559534 -1.5882650814452113 -1.5708254019366663 2.141340970993042 0.0 0.0 -0.0 -0.0 0.0 -0.0 1 False False
1576.426 3.7120935916900635 -0.8254950803569336 0.8429396788226526 -1.588320871392721 -1.5707886854754847 2.141275405883789 0.0 0.0 -0.0 -0.0 0.0 -0.0 1 False False
1576.446 3.7121236324310303 -0.8254869741252442 0.8429887930499476 -1.5882774792113246 -1.5707724730121058 2.141242742538452 0.0 0.0 -0.0 -0.0 0.0 -0.0 1 False False
1576.466 3.7120578289031982 -0.8254954975894471 0.8430054823504847 -1.5882531605162562 -1.5707805792437952 2.141275405883789 0.0 0.0 -0.0 -0.0 0.0 -0.0 1 False False
1576.4859999999999 3.7120697498321533 -0.8254908484271546 0.8429759184466761 -1.588292738000387 -1.570784870778219 2.141317129135132 0.0 0.0 -0.0 -0.0 0.0 -0.0 1 False False
1576.5059999999999 3.7120816707611084 -0.8255436581424256 0.8430007139789026 -1.588285585443014 -1.5707805792437952 2.1412220001220703 0.0 0.0 -0.0 -0.0 0.0 -0.0 1 False False
1576.5259999999998 3.7120606899261475 -0.8255208891681214 0.8430259863482874 -1.5882889233031214 -1.570813004170553 2.141324758529663 0.0 0.0 -0.0 -0.0 0.0 -0.0 1 False False
1576.5459999999998 3.7120606899261475 -0.8255189222148438 0.8430259863482874 -1.5882536373534144 -1.5707767645465296 2.141291618347168 0.0 0.0 -0.0 -0.0 0.0 -0.0 1 False False
1576.566 3.7120490074157715 -0.8255199950984498 0.8429763952838343 -1.5882851086058558 -1.5708654562579554 2.141282796859741 0.0 0.0 -0.0 -0.0 0.0 -0.0 1 False False
1576.586 3.7120652198791504 -0.8255523604205628 0.8429630438434046 -1.5882731876769007 -1.5707886854754847 2.1412546634674072 0.0 0.0 -0.0 -0.0 0.0 -0.0 1 False False
1576.606 3.7121026515960693 -0.8255080741694947 0.8430216948138636 -1.5882569752135218 -1.5707405249225062 2.1413333415985107 0.0 0.0 -0.0 -0.0 0.0 -0.0 1 False False
1576.626 3.7120862007141113 -0.8255351942828675 0.8430216948138636 -1.5882889233031214 -1.5708044211017054 2.141295909881592 0.0 0.0 -0.0 -0.0 0.0 -0.0 1 False False
1576.646 3.7121191024780273 -0.8255275052836915 0.8429678122149866 -1.5882846317686976 -1.5707605520831507 2.1413040161132812 0.0 0.0 -0.0 -0.0 0.0 -0.0 1 False False
1576.666 3.7121191024780273 -0.8254546088031312 0.8429845015155237 -1.5883127651610316 -1.5707843939410608 2.1412429809570312 0.0 0.0 -0.0 -0.0 0.0 -0.0 1 False False
1576.686 3.712078809738159 -0.8254697483829041 0.8429845015155237 -1.588245531121725 -1.5707605520831507 2.1413040161132812 0.0 0.0 -0.0 -0.0 0.0 -0.0 1 False False
1576.706 3.7120532989501953 -0.8255039614490052 0.8429930845843714 -1.5883413753905238 -1.5707805792437952 2.141282796859741 0.0 0.0 -0.0 -0.0 0.0 -0.0 1 False False
1576.7259999999999 3.712083339691162 -0.8254340452006836 0.8429763952838343 -1.588280817071432 -1.5708406607257288 2.141275405883789 0.0 0.0 -0.0 -0.0 0.0 -0.0 1 False False
1576.7459999999999 3.7120652198791504 -0.8255112928203125 0.8429520765887659 -1.588313718835348 -1.570813004170553 2.1412546634674072 0.0 0.0 -0.0 -0.0 0.0 -0.0 1 False False
1576.7659999999998 3.7120907306671143 -0.825458900337555 0.8429845015155237 -1.5883165798582972 -1.5708325544940394 2.1413040161132812 0.0 0.0 -0.0 -0.0 0.0 -0.0 1 False False
1576.7859999999998 3.712106943130493 -0.825461284523346 0.8429759184466761 -1.5882650814452113 -1.5707886854754847 2.141270875930786 0.0 0.0 -0.0 -0.0 0.0 -0.0 1 False False
1576.806 3.712095260620117 -0.8255403798869629 0.8430007139789026 -1.5882331333556117 -1.570801083241598 2.1413087844848633 0.0 0.0 -0.0 -0.0 0.0 -0.0 1 False False
1576.826 3.7120907306671143 -0.8255080741694947 0.8430007139789026 -1.588269372979635 -1.570784870778219 2.1412546634674072 0.0 0.0 -0.0 -0.0 0.0 -0.0 1 False False
1576.846 3.7120578289031982 -0.8254621189883729 0.8430007139789026 -1.5883251629271449 -1.5707925001727503 2.1413002014160156 0.0 0.0 -0.0 -0.0 0.0 -0.0 1 False False
1576.866 3.7120444774627686 -0.8254783314517518 0.8430379072772425 -1.5882488689818324 -1.570824925099508 2.1412925720214844 0.0 0.0 -0.0 -0.0 0.0 -0.0 1 False False
1576.886 3.7121024131774902 -0.8255080741694947 0.8429930845843714 -1.5883251629271449 -1.5707767645465296 2.1413002014160156 0.0 0.0 -0.0 -0.0 0.0 -0.0 1 False False
1576.906 3.7120561599731445 -0.8254954975894471 0.8430007139789026 -1.5882498226561488 -1.5708335081683558 2.141270875930786 0.0 0.0 -0.0 -0.0 0.0 -0.0 1 False False
1576.926 3.712095260620117 -0.8254825633815308 0.8430092970477503 -1.5882889233031214 -1.570784870778219 2.1412384510040283 0.0 0.0 -0.0 -0.0 0.0 -0.0 1 False False
1576.946 3.712132453918457 -0.8254630726626893 0.8429802099810999 -1.5883094273009242 -1.5707805792437952 2.1412222385406494 0.0 0.0 -0.0 -0.0 0.0 -0.0 1 False False
1576.966 3.7120742797851562 -0.8254740399173279 0.8429802099810999 -1.5882774792113246 -1.5707529226886194 2.141267776489258 0.0 0.0 -0.0 -0.0 0.0 -0.0 1 False False
1576.9859999999999 3.712095260620117 -0.8254994314960022 0.8429678122149866 -1.5883056126036585 -1.5708168188678187 2.141270875930786 0.0 0.0 -0.0 -0.0 0.0 -0.0 1 False False
1577.0059999999999 3.7120742797851562 -0.8255037826350708 0.8429887930499476 -1.5882774792113246 -1.570813004170553 2.1412148475646973 0.0 0.0 -0.0 -0.0 0.0 -0.0 1 False False
1577.0259999999998 3.7120862007141113 -0.8255028289607544 0.8429549376117151 -1.588252683679098 -1.5708087126361292 2.141270875930786 0.0 0.0 -0.0 -0.0 0.0 -0.0 1 False False
1577.0459999999998 3.712095260620117 -0.8254792255214234 0.8429649511920374 -1.5882207355894984 -1.570813004170553 2.141267776489258 0.0 0.0 -0.0 -0.0 0.0 -0.0 1 False False
1577.066 3.7120578289031982 -0.8254383963397522 0.8430212179767054 -1.588313718835348 -1.5708406607257288 2.141263484954834 0.0 0.0 -0.0 -0.0 0.0 -0.0 1 False False
1577.086 3.712078809738159 -0.8255070012858887 0.8429887930499476 -1.5883251629271449 -1.5708168188678187 2.141239643096924 0.0 0.0 -0.0 -0.0 0.0 -0.0 1 False False
1577.106 3.712062358856201 -0.8255361479571839 0.8430331389056605 -1.5882569752135218 -1.5707925001727503 2.141275405883789 0.0 0.0 -0.0 -0.0 0.0 -0.0 1 False False
1577.126 3.712062358856201 -0.825519935493805 0.8429396788226526 -1.5882569752135218 -1.5707805792437952 2.141275405883789 0.0 0.0 -0.0 -0.0 0.0 -0.0 1 False False
1577.146 3.7120697498321533 -0.8255232137492676 0.8429845015155237 -1.5883094273009242 -1.570829216633932 2.1412839889526367 0.0 0.0 -0.0 -0.0 0.0 -0.0 1 False False
1577.166 3.7120203971862793 -0.8254993718913575 0.8429845015155237 -1.5883013210692347 -1.570813004170553 2.141308546066284 0.0 0.0 -0.0 -0.0 0.0 -0.0 1 False False
1577.186 3.712045669555664 -0.8254332703403016 0.8429763952838343 -1.5882731876769007 -1.5707767645465296 2.141270875930786 0.0 0.0 -0.0 -0.0 0.0 -0.0 1 False False
1577.206 3.712066888809204 -0.8254823845675965 0.8429477850543421 -1.5883332691588343 -1.5708487669574183 2.1412546634674072 0.0 0.0 -0.0 -0.0 0.0 -0.0 1 False False
1577.2259999999999 3.712045669555664 -0.8255069416812439 0.8429520765887659 -1.5883013210692347 -1.570801083241598 2.1412882804870605 0.0 0.0 -0.0 -0.0 0.0 -0.0 1 False False
1577.2459999999999 3.712116003036499 -0.8255070012858887 0.8429353872882288 -1.5883175335326136 -1.5707925001727503 2.1412384510040283 0.0 0.0 -0.0 -0.0 0.0 -0.0 1 False False
1577.2659999999998 3.712062358856201 -0.8255038422397156 0.8429802099810999 -1.5883251629271449 -1.5707967917071741 2.1412503719329834 0.0 0.0 -0.0 -0.0 0.0 -0.0 1 False False
1577.2859999999998 3.7120203971862793 -0.8255037826350708 0.8430135885821741 -1.5882774792113246 -1.5708335081683558 2.1412546634674072 0.0 0.0 -0.0 -0.0 0.0 -0.0 1 False False
1577.306 3.712095260620117 -0.8254955571940918 0.8429845015155237 -1.5883332691588343 -1.5707767645465296 2.1412394046783447 0.0 0.0 -0.0 -0.0 0.0 -0.0 1 False False
1577.326 3.712050199508667 -0.8254621189883729 0.8430169264422815 -1.5882846317686976 -1.5708087126361292 2.141267776489258 0.0 0.0 -0.0 -0.0 0.0 -0.0 1 False False
1577.346 3.7120323181152344 -0.8254621189883729 0.8429763952838343 -1.5883094273009242 -1.5708168188678187 2.141263484954834 0.0 0.0 -0.0 -0.0 0.0 -0.0 1 False False
1577.366 3.7120368480682373 -0.8254579466632386 0.8429477850543421 -1.588269372979635 -1.5708211104022425 2.1412341594696045 0.0 0.0 -0.0 -0.0 0.0 -0.0 1 False False
1577.386 3.712066888809204 -0.8254385155490418 0.8429802099810999 -1.5883094273009242 -1.5708254019366663 2.141263484954834 0.0 0.0 -0.0 -0.0 0.0 -0.0 1 False False
1577.406 3.712062358856201 -0.8254740399173279 0.8429973761187952 -1.5882932148375453 -1.5707805792437952 2.141317129135132 0.0 0.0 -0.0 -0.0 0.0 -0.0 1 False False
1577.426 3.7120413780212402 -0.8255284589580079 0.8429439703570765 -1.5882846317686976 -1.5708373228656214 2.141270875930786 -3.1357313673691583e-24 0.0 -0.0 -0.0 0.0 -0.0 1 False False
1577.446 3.7120816707611084 -0.8254740399173279 0.8429930845843714 -1.5882774792113246 -1.570824925099508 2.141251564025879 -2.382207389352189e-44 0.0 -0.0 -0.0 0.0 -0.0 1 False False
1577.466 3.712095022201538 -0.8254375022700806 0.8429678122149866 -1.5883499584593714 -1.570801083241598 2.14125919342041 0.0 0.0 -0.0 -0.0 0.0 -0.0 1 False False
1577.4859999999999 3.712071180343628 -0.8255038422397156 0.8429845015155237 -1.5882650814452113 -1.5707805792437952 2.141282796859741 0.0 0.0 -0.0 -0.0 0.0 -0.0 1 False False
1577.5059999999999 3.7120368480682373 -0.8255274456790467 0.8429763952838343 -1.5882889233031214 -1.5708044211017054 2.141275405883789 0.0 0.0 -0.0 -0.0 0.0 -0.0 1 False False
1577.5259999999998 3.712095022201538 -0.8254621189883729 0.8429721037494105 -1.588297029534811 -1.5708048979388636 2.1412720680236816 0.0 0.0 -0.0 -0.0 0.0 -0.0 1 False False
1577.5459999999998 3.7120249271392822 -0.8254951399615784 0.8429964224444788 -1.5882774792113246 -1.570784870778219 2.141295909881592 0.0 0.0 -0.0 -0.0 0.0 -0.0 1 False False
1577.566 3.7120981216430664 -0.825548843746521 0.8429635206805628 -1.588320871392721 -1.5707605520831507 2.1412806510925293 0.0 0.0 -0.0 -0.0 0.0 -0.0 1 False False
1577.586 3.712029457092285 -0.8255199950984498 0.8429930845843714 -1.5882731876769007 -1.570813004170553 2.141239643096924 0.0 0.0 -0.0 -0.0 0.0 -0.0 1 False False
1577.606 3.712054491043091 -0.8255027097514649 0.8429973761187952 -1.5883218250670375 -1.570813004170553 2.14132022857666 0.0 0.0 -0.0 -0.0 0.0 -0.0 1 False False
1577.626 3.7121083736419678 -0.8255155843547364 0.8429802099810999 -1.5883127651610316 -1.5708087126361292 2.141251564025879 0.0 0.0 -0.0 -0.0 0.0 -0.0 1 False False
1577.646 3.712095022201538 -0.8255189818194886 0.8429678122149866 -1.5882650814452113 -1.5707967917071741 2.141279697418213 0.0 0.0 -0.0 -0.0 0.0 -0.0 1 False False
1577.666 3.7120206356048584 -0.8254740399173279 0.8430169264422815 -1.588320871392721 -1.5707648436175745 2.141317129135132 0.0 0.0 -0.0 -0.0 0.0 -0.0 1 False False
1577.686 3.712054491043091 -0.8255394262126465 0.8429964224444788 -1.5882607899107875 -1.5707925001727503 2.141263484954834 0.0 0.0 -0.0 -0.0 0.0 -0.0 1 False False
1577.706 3.712045669555664 -0.8254951399615784 0.8429520765887659 -1.5883413753905238 -1.5708368460284632 2.1412429809570312 0.0 0.0 -0.0 -0.0 0.0 -0.0 1 False False
1577.7259999999999 3.7120742797851562 -0.8255155247500916 0.8429678122149866 -1.588285585443014 -1.5708492437945765 2.14125919342041 0.0 0.0 -0.0 -0.0 0.0 -0.0 1 False False
1577.7459999999999 3.712083101272583 -0.8254869741252442 0.8429678122149866 -1.588297029534811 -1.5708406607257288 2.141317129135132 0.0 0.0 -0.0 -0.0 0.0 -0.0 1 False False
1577.7659999999998 3.712095022201538 -0.825519935493805 0.8429515997516077 -1.5882650814452113 -1.5707529226886194 2.1412546634674072 0.0 0.0 -0.0 -0.0 0.0 -0.0 1 False False
1577.7859999999998 3.7120907306671143 -0.8254826229861756 0.8430097738849085 -1.588269372979635 -1.5708168188678187 2.141270875930786 0.0 0.0 -0.0 -0.0 0.0 -0.0 1 False False
1577.806 3.7120492458343506 -0.8254984778216858 0.8429845015155237 -1.5882288418211878 -1.5707891623126429 2.1413211822509766 0.0 0.0 -0.0 -0.0 0.0 -0.0 1 False False
1577.826 3.7121024131774902 -0.8254783910563965 0.8429515997516077 -1.588320871392721 -1.5707805792437952 2.141279697418213 0.0 0.0 -0.0 -0.0 0.0 -0.0 1 False False
1577.846 3.712095022201538 -0.825552300815918 0.8429563681231897 -1.5882774792113246 -1.5707724730121058 2.14123797416687 0.0 0.0 -0.0 -0.0 0.0 -0.0 1 False False
1577.866 3.712083101272583 -0.8254993718913575 0.8429892698871058 -1.5883618793883265 -1.5707686583148401 2.141287088394165 0.0 0.0 -0.0 -0.0 0.0 -0.0 1 False False
1577.886 3.7120819091796875 -0.8254740995219727 0.8429515997516077 -1.5882932148375453 -1.5707767645465296 2.1412720680236816 0.0 0.0 -0.0 -0.0 0.0 -0.0 1 False False
1577.906 3.712062358856201 -0.8255393666080018 0.8430140654193323 -1.5882932148375453 -1.5707891623126429 2.1412439346313477 0.0 0.0 -0.0 -0.0 0.0 -0.0 1 False False
1577.926 3.7120325565338135 -0.825552300815918 0.842989746724264 -1.5882889233031214 -1.5707805792437952 2.141284227371216 0.0 0.0 -0.0 -0.0 0.0 -0.0 1 False False
1577.946 3.7120819091796875 -0.8255522412112732 0.8429935614215296 -1.5882731876769007 -1.5707529226886194 2.141249895095825 0.0 0.0 -0.0 -0.0 0.0 -0.0 1 False False
1577.966 3.7121188640594482 -0.8254739803126832 0.8429978529559534 -1.5883013210692347 -1.5708048979388636 2.141296148300171 0.0 0.0 -0.0 -0.0 0.0 -0.0 1 False False
1577.9859999999999 3.7120535373687744 -0.8254866164973755 0.8429630438434046 -1.588252683679098 -1.5707967917071741 2.141234874725342 0.0 0.0 -0.0 -0.0 0.0 -0.0 1 False False
1578.0059999999999 3.712111234664917 -0.8254501980594178 0.8429563681231897 -1.5883251629271449 -1.5707805792437952 2.141267776489258 0.0 0.0 -0.0 -0.0 0.0 -0.0 1 False False
1578.0259999999998 3.7120862007141113 -0.8255478304675599 0.8429935614215296 -1.588297029534811 -1.5707686583148401 2.1412558555603027 0.0 0.0 -0.0 -0.0 0.0 -0.0 1 False False
1578.0459999999998 3.712106943130493 -0.8254869741252442 0.8429515997516077 -1.5882731876769007 -1.5708087126361292 2.141313076019287 0.0 0.0 -0.0 -0.0 0.0 -0.0 1 False False
1578.066 3.7120611667633057 -0.8255360883525391 0.8429763952838343 -1.588252683679098 -1.5708211104022425 2.141263246536255 0.0 0.0 -0.0 -0.0 0.0 -0.0 1 False False
1578.086 3.7120208740234375 -0.8254546684077759 0.8429721037494105 -1.5883170566954554 -1.5707925001727503 2.141287088394165 0.0 0.0 -0.0 -0.0 0.0 -0.0 1 False False
1578.106 3.7121100425720215 -0.8254825633815308 0.8430097738849085 -1.5882846317686976 -1.5708044211017054 2.141267776489258 0.0 0.0 -0.0 -0.0 0.0 -0.0 1 False False
1578.126 3.7120862007141113 -0.8254578870585938 0.8429392019854944 -1.5882774792113246 -1.5707767645465296 2.1412513256073 0.0 0.0 -0.0 -0.0 0.0 -0.0 1 False False
1578.146 3.7121024131774902 -0.8254866164973755 0.8429978529559534 -1.588297506371969 -1.570784870778219 2.141263246536255 0.0 0.0 -0.0 -0.0 0.0 -0.0 1 False False
1578.166 3.7120699882507324 -0.8254869741252442 0.8429673353778284 -1.5883532963194789 -1.570784870778219 2.14131760597229 0.0 0.0 -0.0 -0.0 0.0 -0.0 1 False False
1578.186 3.7120413780212402 -0.8254950803569336 0.8429721037494105 -1.5882607899107875 -1.5707805792437952 2.14127516746521 0.0 0.0 -0.0 -0.0 0.0 -0.0 1 False False
1578.206 3.7121317386627197 -0.8255155843547364 0.8429673353778284 -1.5882655582823695 -1.570801083241598 2.141338348388672 0.0 0.0 -0.0 -0.0 0.0 -0.0 1 False False
1578.2259999999999 3.7120656967163086 -0.8254740995219727 0.8429892698871058 -1.5883127651610316 -1.5707929770099085 2.14123797416687 0.0 0.0 -0.0 -0.0 0.0 -0.0 1 False False
1578.2459999999999 3.7120370864868164 -0.8254950803569336 0.8429802099810999 -1.5883332691588343 -1.5707967917071741 2.141329526901245 0.0 0.0 -0.0 -0.0 0.0 -0.0 1 False False
1578.2659999999998 3.712045907974243 -0.8255157035640259 0.8429845015155237 -1.5883413753905238 -1.5707925001727503 2.141258955001831 0.0 0.0 -0.0 -0.0 0.0 -0.0 1 False False
1578.2859999999998 3.712090492248535 -0.825495795612671 0.8429802099810999 -1.5883375606932582 -1.5708044211017054 2.141258955001831 0.0 0.0 -0.0 -0.0 0.0 -0.0 1 False False
1578.306 3.7121024131774902 -0.8254823845675965 0.8429606596576136 -1.5883165798582972 -1.570813004170553 2.14131760597229 0.0 0.0 -0.0 -0.0 0.0 -0.0 1 False False
1578.326 3.712090492248535 -0.8254779738238831 0.8429845015155237 -1.588285585443014 -1.5708048979388636 2.1413004398345947 0.0 0.0 -0.0 -0.0 0.0 -0.0 1 False False
1578.346 3.712106704711914 -0.8255291146091004 0.8429887930499476 -1.588269372979635 -1.5708087126361292 2.141267776489258 0.0 0.0 -0.0 -0.0 0.0 -0.0 1 False False
1578.366 3.712090492248535 -0.8255616587451478 0.8430383841144007 -1.5882774792113246 -1.5707967917071741 2.141263246536255 0.0 0.0 -0.0 -0.0 0.0 -0.0 1 False False
1578.386 3.712090492248535 -0.8254453104785462 0.8429892698871058 -1.5883246860899867 -1.5708335081683558 2.1413004398345947 0.0 0.0 -0.0 -0.0 0.0 -0.0 1 False False
1578.406 3.7121100425720215 -0.8254779738238831 0.8429392019854944 -1.5882650814452113 -1.570784870778219 2.141258955001831 0.0 0.0 -0.0 -0.0 0.0 -0.0 1 False False
1578.426 3.712090492248535 -0.8255231541446229 0.8430145422564905 -1.5883013210692347 -1.570801083241598 2.141254186630249 9.851990784370304e-26 0.0 -0.0 -0.0 0.0 -0.0 1 False False
1578.446 3.7120537757873535 -0.8254993718913575 0.8429721037494105 -1.5883571110167445 -1.5707805792437952 2.1413004398345947 1.401298464324817e-45 0.0 -0.0 -0.0 0.0 -0.0 1 False False
1578.466 3.712143898010254 -0.8254706424525757 0.8429721037494105 -1.5882774792113246 -1.5708168188678187 2.1412723064422607 0.0 0.0 -0.0 -0.0 0.0 -0.0 1 False False
1578.4859999999999 3.7120580673217773 -0.8255601686290284 0.8429964224444788 -1.5883051357665003 -1.5707686583148401 2.141296148300171 0.0 0.0 -0.0 -0.0 0.0 -0.0 1 False False
1578.5059999999999 3.712127447128296 -0.8255202931216736 0.8429392019854944 -1.588292738000387 -1.570801083241598 2.141291618347168 0.0 0.0 -0.0 -0.0 0.0 -0.0 1 False False
1578.5259999999998 3.7120776176452637 -0.8254497212222596 0.8429721037494105 -1.5883451900877894 -1.570801083241598 2.141334056854248 0.0 0.0 -0.0 -0.0 0.0 -0.0 1 False False
1578.5459999999998 3.712118625640869 -0.8255127233317872 0.8429630438434046 -1.588273664514059 -1.5708168188678187 2.141279697418213 0.0 0.0 -0.0 -0.0 0.0 -0.0 1 False False
1578.566 3.7120580673217773 -0.8254779738238831 0.8429563681231897 -1.5882774792113246 -1.5708449522601526 2.141247034072876 0.0 0.0 -0.0 -0.0 0.0 -0.0 1 False False
1578.586 3.7120819091796875 -0.825527624492981 0.8430054823504847 -1.5882851086058558 -1.5707648436175745 2.141284227371216 0.0 0.0 -0.0 -0.0 0.0 -0.0 1 False False
1578.606 3.712143898010254 -0.8254735630801697 0.8429892698871058 -1.5883094273009242 -1.5708048979388636 2.141270637512207 0.0 0.0 -0.0 -0.0 0.0 -0.0 1 False False
1578.626 3.7120449542999268 -0.8255083721927186 0.8429606596576136 -1.5883094273009242 -1.5707967917071741 2.141266107559204 0.0 0.0 -0.0 -0.0 0.0 -0.0 1 False False
1578.646 3.7120819091796875 -0.8254750531962891 0.8429845015155237 -1.5883094273009242 -1.5707648436175745 2.1412513256073 0.0 0.0 -0.0 -0.0 0.0 -0.0 1 False False
1578.666 3.7120819091796875 -0.8254869741252442 0.8429673353778284 -1.5882450542845667 -1.570772949849264 2.141266107559204 0.0 0.0 -0.0 -0.0 0.0 -0.0 1 False False
1578.686 3.7120449542999268 -0.8254913252643128 0.8430007139789026 -1.5882655582823695 -1.5708168188678187 2.1413004398345947 0.0 0.0 -0.0 -0.0 0.0 -0.0 1 False False
1578.706 3.712066650390625 -0.8254706424525757 0.8430054823504847 -1.5883084736266078 -1.5707524458514612 2.141313076019287 0.0 0.0 -0.0 -0.0 0.0 -0.0 1 False False
1578.7259999999999 3.712106704711914 -0.8254914444736023 0.8429630438434046 -1.5883056126036585 -1.5708006064044397 2.141279697418213 0.0 0.0 -0.0 -0.0 0.0 -0.0 1 False False
1578.7459999999999 3.712062358856201 -0.8254823845675965 0.8430188337909144 -1.5882774792113246 -1.5707767645465296 2.1412558555603027 0.0 0.0 -0.0 -0.0 0.0 -0.0 1 False False
1578.7659999999998 3.712118625640869 -0.8255202931216736 0.8429845015155237 -1.5882932148375453 -1.570784870778219 2.14127516746521 0.0 0.0 -0.0 -0.0 0.0 -0.0 1 False False
1578.7859999999998 3.7120327949523926 -0.8255528968623658 0.8429721037494105 -1.5883013210692347 -1.5707805792437952 2.141237735748291 0.0 0.0 -0.0 -0.0 0.0 -0.0 1 False False
1578.806 3.712099075317383 -0.825466052894928 0.8430054823504847 -1.5883046589293421 -1.570784870778219 2.141279697418213 0.0 0.0 -0.0 -0.0 0.0 -0.0 1 False False
1578.826 3.7120327949523926 -0.8254913848689576 0.8430007139789026 -1.5882374248900355 -1.5708335081683558 2.141254186630249 0.0 0.0 -0.0 -0.0 0.0 -0.0 1 False False
1578.846 3.7120699882507324 -0.8255366843989869 0.8429349104510706 -1.5882331333556117 -1.5708087126361292 2.141242504119873 0.0 0.0 -0.0 -0.0 0.0 -0.0 1 False False
1578.866 3.7120580673217773 -0.8255453866771241 0.8430336157428187 -1.5883127651610316 -1.570784870778219 2.141200542449951 0.0 0.0 -0.0 -0.0 0.0 -0.0 1 False False
1578.886 3.712094783782959 -0.8254779738238831 0.8429763952838343 -1.5882932148375453 -1.570784870778219 2.1413021087646484 0.0 0.0 -0.0 -0.0 0.0 -0.0 1 False False
1578.906 3.7120537757873535 -0.825445370083191 0.8429721037494105 -1.5882817707457484 -1.5707891623126429 2.141291618347168 0.0 0.0 -0.0 -0.0 0.0 -0.0 1 False False
1578.926 3.712090492248535 -0.8254823845675965 0.8429845015155237 -1.5882650814452113 -1.5708335081683558 2.141254186630249 0.0 0.0 -0.0 -0.0 0.0 -0.0 1 False False
1578.946 3.712066650390625 -0.8254869741252442 0.8429721037494105 -1.5882650814452113 -1.5707805792437952 2.1412513256073 0.0 0.0 -0.0 -0.0 0.0 -0.0 1 False False
1578.966 3.712099075317383 -0.8254661124995728 0.8429802099810999 -1.5882889233031214 -1.570784870778219 2.141242504119873 0.0 0.0 -0.0 -0.0 0.0 -0.0 1 False False
1578.9859999999999 3.7120416164398193 -0.8254736226848145 0.8429902235614222 -1.5882765255370082 -1.5707724730121058 2.141282558441162 0.0 0.0 -0.0 -0.0 0.0 -0.0 1 False False
1579.0059999999999 3.712070941925049 -0.825527624492981 0.8429630438434046 -1.5883175335326136 -1.5708048979388636 2.141216993331909 0.0 0.0 -0.0 -0.0 0.0 -0.0 1 False False
1579.0259999999998 3.712062358856201 -0.825524703865387 0.8430054823504847 -1.5882889233031214 -1.5707529226886194 2.14131760597229 0.0 0.0 -0.0 -0.0 0.0 -0.0 1 False False
1579.0459999999998 3.712090492248535 -0.8255602878383179 0.8429392019854944 -1.5882607899107875 -1.5708416144000452 2.14127516746521 0.0 0.0 -0.0 -0.0 0.0 -0.0 1 False False
1579.066 3.712062358856201 -0.8254794639400025 0.8429349104510706 -1.5883013210692347 -1.5708168188678187 2.1413049697875977 0.0 0.0 -0.0 -0.0 0.0 -0.0 1 False False
1579.086 3.712078809738159 -0.8254869741252442 0.8430336157428187 -1.5883170566954554 -1.5708006064044397 2.141270637512207 0.0 0.0 -0.0 -0.0 0.0 -0.0 1 False False
1579.106 3.712078809738159 -0.8255157035640259 0.8429845015155237 -1.5882774792113246 -1.5707810560809534 2.1413204669952393 0.0 0.0 -0.0 -0.0 0.0 -0.0 1 False False
1579.126 3.712078809738159 -0.8254631918719788 0.8429845015155237 -1.5882607899107875 -1.570784870778219 2.141284227371216 0.0 0.0 -0.0 -0.0 0.0 -0.0 1 False False
1579.146 3.7120532989501953 -0.8254994314960022 0.8430307547198694 -1.5883165798582972 -1.5708206335650843 2.141246795654297 0.0 0.0 -0.0 -0.0 0.0 -0.0 1 False False
1579.166 3.712095260620117 -0.8254217666438599 0.8430140654193323 -1.5883094273009242 -1.5708125273333948 2.141267776489258 0.0 0.0 -0.0 -0.0 0.0 -0.0 1 False False
1579.186 3.712062358856201 -0.8254735630801697 0.8430379072772425 -1.588297029534811 -1.570784870778219 2.141270637512207 0.0 0.0 -0.0 -0.0 0.0 -0.0 1 False False
1579.206 3.712050199508667 -0.8254914444736023 0.8430007139789026 -1.588313718835348 -1.570784870778219 2.141267776489258 0.0 0.0 -0.0 -0.0 0.0 -0.0 1 False False
1579.2259999999999 3.712062358856201 -0.8254675430110474 0.8429763952838343 -1.5882731876769007 -1.5707767645465296 2.141247034072876 0.0 0.0 -0.0 -0.0 0.0 -0.0 1 False False
1579.2459999999999 3.7120203971862793 -0.825533465748169 0.8429515997516077 -1.5883170566954554 -1.5707967917071741 2.141245126724243 0.0 0.0 -0.0 -0.0 0.0 -0.0 1 False False
1579.2659999999998 3.7120535373687744 -0.8254817885211487 0.8429935614215296 -1.588320871392721 -1.5708006064044397 2.141296148300171 0.0 0.0 -0.0 -0.0 0.0 -0.0 1 False False
1579.2859999999998 3.7120249271392822 -0.8254823845675965 0.8429887930499476 -1.5883094273009242 -1.5707610289203089 2.141296148300171 0.0 0.0 -0.0 -0.0 0.0 -0.0 1 False False
1579.306 3.7120413780212402 -0.825466052894928 0.8429630438434046 -1.5882932148375453 -1.5707929770099085 2.141284227371216 0.0 0.0 -0.0 -0.0 0.0 -0.0 1 False False
1579.326 3.7120742797851562 -0.8255319756320496 0.8429606596576136 -1.5882774792113246 -1.570824925099508 2.141226053237915 0.0 0.0 -0.0 -0.0 0.0 -0.0 1 False False
1579.346 3.7120535373687744 -0.8254794639400025 0.8429191748248499 -1.5883056126036585 -1.5707691351519983 2.141254186630249 0.0 0.0 -0.0 -0.0 0.0 -0.0 1 False False
1579.366 3.712095022201538 -0.8254957360080262 0.8430007139789026 -1.5882774792113246 -1.5708125273333948 2.1412765979766846 0.0 0.0 -0.0 -0.0 0.0 -0.0 1 False False
1579.386 3.7120697498321533 -0.8254914444736023 0.8429887930499476 -1.588280817071432 -1.5708125273333948 2.141270637512207 0.0 0.0 -0.0 -0.0 0.0 -0.0 1 False False
1579.406 3.7120816707611084 -0.8255409759334107 0.8429978529559534 -1.5882774792113246 -1.5707810560809534 2.141266107559204 0.0 0.0 -0.0 -0.0 0.0 -0.0 1 False False
1579.426 3.712116003036499 -0.8254735630801697 0.8429678122149866 -1.5883294544615687 -1.570784870778219 2.14131760597229 0.0 0.0 -0.0 -0.0 0.0 -0.0 1 False False
1579.446 3.7120816707611084 -0.8255112928203125 0.8430054823504847 -1.5882731876769007 -1.570824925099508 2.141350269317627 0.0 0.0 -0.0 -0.0 0.0 -0.0 1 False False
1579.466 3.7120862007141113 -0.8254706424525757 0.8429392019854944 -1.5883127651610316 -1.5707929770099085 2.141296148300171 0.0 0.0 -0.0 -0.0 0.0 -0.0 1 False False
1579.4859999999999 3.712083339691162 -0.8255202931216736 0.8429563681231897 -1.5882569752135218 -1.5707929770099085 2.1412765979766846 0.0 0.0 -0.0 -0.0 0.0 -0.0 1 False False
1579.5059999999999 3.71207857131958 -0.825464741592743 0.8429630438434046 -1.5882846317686976 -1.5707886854754847 2.141263484954834 0.0 0.0 -0.0 -0.0 0.0 -0.0 1 False False
1579.5259999999998 3.7120413780212402 -0.8254957360080262 0.8429935614215296 -1.588292738000387 -1.5708211104022425 2.1412765979766846 0.0 0.0 -0.0 -0.0 0.0 -0.0 1 False False
1579.5459999999998 3.7120697498321533 -0.825463132267334 0.8429802099810999 -1.5882889233031214 -1.5707171599017542 2.14127516746521 0.0 0.0 -0.0 -0.0 0.0 -0.0 1 False False
1579.566 3.712095260620117 -0.8254869741252442 0.8429635206805628 -1.5882569752135218 -1.570824925099508 2.141235113143921 0.0 0.0 -0.0 -0.0 0.0 -0.0 1 False False
1579.586 3.712029457092285 -0.8254707020572205 0.8429635206805628 -1.5883094273009242 -1.5708006064044397 2.141279697418213 0.0 0.0 -0.0 -0.0 0.0 -0.0 1 False False
1579.606 3.712045669555664 -0.825502411728241 0.8429802099810999 -1.5882731876769007 -1.570784870778219 2.141284227371216 0.0 0.0 -0.0 -0.0 0.0 -0.0 1 False False
1579.626 3.7120697498321533 -0.825457291012146 0.8429520765887659 -1.5882731876769007 -1.5707691351519983 2.141258955001831 0.0 0.0 -0.0 -0.0 0.0 -0.0 1 True False
1579.646 3.712095022201538 -0.825495795612671 0.8429930845843714 -1.5882445774474085 -1.5707529226886194 2.141338348388672 0.0 0.0 -0.0 -0.0 0.0 -0.0 1 True False
1579.666 3.712111473083496 -0.8254468005946656 0.8429678122149866 -1.5882774792113246 -1.570829216633932 2.141295909881592 0.0 0.0 -0.0 -0.0 0.0 -0.0 1 True False
1579.686 3.712078809738159 -0.825495795612671 0.8429930845843714 -1.588297029534811 -1.5707929770099085 2.1412997245788574 0.0 0.0 -0.0 -0.0 0.0 -0.0 1 True False
1579.706 3.7120697498321533 -0.8254587215236207 0.8429878393756312 -1.5883056126036585 -1.570784870778219 2.141279697418213 0.0 0.0 -0.0 -0.0 0.0 -0.0 1 True False
1579.7259999999999 3.712041139602661 -0.8255024713328858 0.8429563681231897 -1.588268896142477 -1.5707572142230433 2.141308546066284 0.0 0.0 -0.0 -0.0 0.0 -0.0 1 True False
1579.7459999999999 3.7120532989501953 -0.8255083721927186 0.8429520765887659 -1.588269372979635 -1.5708325544940394 2.141249895095825 0.0 0.0 -0.0 -0.0 0.0 -0.0 1 True False
1579.7659999999998 3.7120697498321533 -0.8255335849574585 0.8429964224444788 -1.5882932148375453 -1.570784870778219 2.141279697418213 0.0 0.0 -0.0 -0.0 0.0 -0.0 1 True False
1579.7859999999998 3.7120697498321533 -0.8255365651896973 0.8429635206805628 -1.5882846317686976 -1.5707529226886194 2.141296148300171 0.0 0.0 -0.0 -0.0 0.0 -0.0 1 True False
1579.806 3.7120771408081055 -0.8254993718913575 0.8429887930499476 -1.5882569752135218 -1.5707691351519983 2.141242742538452 0.0 0.0 -0.0 -0.0 0.0 -0.0 1 True False
1579.826 3.712149143218994 -0.8254905504039307 0.8429802099810999 -1.5882846317686976 -1.570784870778219 2.1413040161132812 0.0 0.0 -0.0 -0.0 0.0 -0.0 1 True False
1579.846 3.7120862007141113 -0.8254824441722413 0.8429845015155237 -1.588245531121725 -1.5707767645465296 2.1412885189056396 0.0 0.0 -0.0 -0.0 0.0 -0.0 1 True False
1579.866 3.712123394012451 -0.8254993718913575 0.8430092970477503 -1.5882774792113246 -1.5707486311541956 2.141329288482666 0.0 0.0 -0.0 -0.0 0.0 -0.0 1 True False
1579.886 3.712036609649658 -0.8254913848689576 0.8429930845843714 -1.5882498226561488 -1.5707891623126429 2.1413047313690186 0.0 0.0 -0.0 -0.0 0.0 -0.0 1 True False
1579.906 3.7120652198791504 -0.8255112928203125 0.8430007139789026 -1.5883294544615687 -1.5707767645465296 2.1413090229034424 0.0 0.0 -0.0 -0.0 0.0 -0.0 1 True False
1579.926 3.7120862007141113 -0.8254993718913575 0.8429845015155237 -1.588320871392721 -1.570784870778219 2.1413004398345947 0.0 0.0 -0.0 -0.0 0.0 -0.0 1 True False
1579.946 3.7120578289031982 -0.8255395454219361 0.8429477850543421 -1.588297029534811 -1.570801083241598 2.1412220001220703 0.0 0.0 -0.0 -0.0 0.0 -0.0 1 True False
1579.966 3.7120323181152344 -0.8254587215236207 0.8429930845843714 -1.5882817707457484 -1.5707648436175745 2.1412839889526367 0.0 0.0 -0.0 -0.0 0.0 -0.0 1 True False
1579.9859999999999 3.712095260620117 -0.8254993122867127 0.8429716269122522 -1.5882731876769007 -1.5707805792437952 2.141329288482666 0.0 0.0 -0.0 -0.0 0.0 -0.0 1 True False
1580.0059999999999 3.7120697498321533 -0.8254779738238831 0.8430169264422815 -1.5882727108397425 -1.5707605520831507 2.141270637512207 0.0 0.0 -0.0 -0.0 0.0 -0.0 1 True False
1580.0259999999998 3.712095260620117 -0.8255203527263184 0.8429606596576136 -1.588320871392721 -1.5708335081683558 2.141279697418213 0.0 0.0 -0.0 -0.0 0.0 -0.0 1 True False
1580.0459999999998 3.712062358856201 -0.8254958552173157 0.8429721037494105 -1.5883170566954554 -1.5707686583148401 2.1412220001220703 0.0 0.0 -0.0 -0.0 0.0 -0.0 1 True False
1580.066 3.7120742797851562 -0.8254949611476441 0.8429806868182581 -1.588285585443014 -1.5707891623126429 2.141193151473999 0.0 0.0 -0.0 -0.0 0.0 -0.0 1 True False
1580.086 3.7120907306671143 -0.8254794639400025 0.8429887930499476 -1.5882889233031214 -1.570813004170553 2.1412482261657715 0.0 0.0 -0.0 -0.0 0.0 0.00022236353834159672 1 True False
1580.106 3.7121026515960693 -0.8254838746837159 0.8429678122149866 -1.5882932148375453 -1.5707605520831507 2.141275405883789 0.0 0.0 -0.0 -0.0 0.0 6.602173668879274e-12 1 True False
1580.126 3.712116003036499 -0.8255247634700318 0.8429635206805628 -1.5882569752135218 -1.570784870778219 2.141190767288208 0.0 0.0 -0.0 -0.0 0.0 0.0002613672404550016 1 True False
1580.146 3.7120697498321533 -0.8254823845675965 0.8430050055133265 -1.588269372979635 -1.5707891623126429 2.14125919342041 0.0 0.0 -0.0 -0.0 0.0 0.00037344160955399275 1 True False
1580.166 3.7120652198791504 -0.8255039614490052 0.8429887930499476 -1.588269372979635 -1.5707843939410608 2.141317129135132 0.0 0.0 -0.0 -0.0 0.0 0.00035863512312062085 1 True False
1580.186 3.712083339691162 -0.8254706424525757 0.8429763952838343 -1.588280817071432 -1.5708211104022425 2.141282796859741 0.0 0.0 -0.0 -0.0 -3.753296695663266e-08 0.0002480007242411375 1 True False
1580.206 3.712095260620117 -0.8255320352366944 0.8429930845843714 -1.588269372979635 -1.570813004170553 2.1413040161132812 0.0 0.0 -0.0 -0.0 -1.114387885626806e-15 7.440356664112358e-11 1 True False
1580.2259999999999 3.7120203971862793 -0.8254823845675965 0.8430050055133265 -1.5882817707457484 -1.5707767645465296 2.141308546066284 0.0 0.0 -0.0 -0.0 3.598229886847548e-05 2.209109282529284e-18 1 True False
1580.2459999999999 3.712083339691162 -0.8255320352366944 0.8429930845843714 -1.588313718835348 -1.5708087126361292 2.1412739753723145 0.0 0.0 -0.0 -0.0 1.0683467999150764e-12 6.559045009920741e-26 1 True False
1580.2659999999998 3.7120742797851562 -0.8255319756320496 0.8429678122149866 -1.5883013210692347 -1.5707925001727503 2.141291618347168 0.0 0.0 -0.0 -0.0 3.1720182524080785e-20 1.9474396542973606e-33 1 True False
1580.2859999999998 3.7122511863708496 -0.8256042164615174 0.8430965582477015 -1.5883575878539027 -1.570857350026266 2.1414475440979004 0.030577579513192177 -0.014736325480043888 0.024281227961182594 -0.007196431048214436 0.00011136224929941818 0.02652355283498764 1 True False
1580.306 3.7129504680633545 -0.8259392541697999 0.8435400168048304 -1.5886131725706996 -1.5708044211017054 2.1421332359313965 0.0502622090280056 -0.022818194702267647 0.032996878027915955 -0.01748119294643402 -6.733966438332573e-05 0.04702647775411606 1 True False
1580.326 3.7142651081085205 -0.8264648479274292 0.8443864027606409 -1.5887905559935511 -1.5707605520831507 2.1434085369110107 0.07687237858772278 -0.036906514316797256 0.05681518465280533 -0.015043241903185844 -1.574921082436731e-09 0.07580424845218658 1 True False
1580.346 3.7160065174102783 -0.8273542684367676 0.8457887808429163 -1.5893141231932582 -1.5708211104022425 2.1452813148498535 0.10192400962114334 -0.051120031625032425 0.08169897645711899 -0.02684892527759075 -4.6760831047532974e-17 0.1028498187661171 1 True False
1580.366 3.718493700027466 -0.8285136383822937 0.8477471510516565 -1.5899039707579554 -1.5708368460284632 2.1476528644561768 0.13665275275707245 -0.06648088246583939 0.10734949260950089 -0.03352339565753937 -1.3883712315389847e-24 0.12761270999908447 1 True False
1580.386 3.7215380668640137 -0.8300315898707886 0.8502696196185511 -1.590706010858053 -1.5707925001727503 2.150623083114624 0.16408491134643555 -0.08192197978496552 0.127921000123024 -0.04270852729678154 0.00015757740766275674 0.15860319137573242 1 True False
1580.406 3.724970579147339 -0.8318134111217041 0.8529832998858851 -1.5917431316771449 -1.5707805792437952 2.1540610790252686 0.1899469941854477 -0.09793271869421005 0.1463036835193634 -0.056230612099170685 0.00016437339945696294 0.1883126199245453 1 True False
1580.426 3.728996753692627 -0.8340692681125184 0.8560722509967249 -1.5928155384459437 -1.5707891623126429 2.1582207679748535 0.2165599912405014 -0.1163414940237999 0.16790439188480377 -0.051233187317848206 0.00013381899043451995 0.20999404788017273 1 True False
1580.446 3.7336552143096924 -0.8364836734584351 0.8596661726581019 -1.5939833126463832 -1.5707324186908167 2.162834405899048 0.24426820874214172 -0.1270529329776764 0.18957434594631195 -0.05875502526760101 0.00011284412175882608 0.23940560221672058 1 True False
1580.466 3.738863945007324 -0.839167670612671 0.8637068907367151 -1.5953432522215785 -1.5707886854754847 2.167961597442627 0.27113860845565796 -0.13777151703834534 0.21817855536937714 -0.06728430837392807 9.75537986960262e-05 0.2730177044868469 1 True False
1580.4859999999999 3.7446720600128174 -0.8420964640429993 0.8682830969439905 -1.5967642269530238 -1.570801083241598 2.173617362976074 0.29811593890190125 -0.15069274604320526 0.23599722981452942 -0.07110431045293808 8.383363456232473e-05 0.3015453517436981 1 True False
1580.5059999999999 3.7509100437164307 -0.8453875345042725 0.8732250372516077 -1.5985223255553187 -1.5707767645465296 2.179999589920044 0.32574591040611267 -0.16622011363506317 0.2522878646850586 -0.09266713261604309 8.479998359689489e-05 0.32511863112449646 1 True False
1580.5259999999998 3.757680892944336 -0.8488665384105225 0.8784430662738245 -1.6003910503783167 -1.5707805792437952 2.186872720718384 0.3542924225330353 -0.18239864706993103 0.2792462408542633 -0.09215421229600906 7.32910557417199e-05 0.35480064153671265 1 True False
1580.5459999999998 3.7651116847991943 -0.8526960772326966 0.8842104117022913 -1.6022054157652796 -1.5707686583148401 2.194342851638794 0.3868187367916107 -0.19842343032360077 0.29997462034225464 -0.10126358270645142 6.453222886193544e-05 0.37845465540885925 1 True False
1580.566 3.773165464401245 -0.8567848366549988 0.89032489458193 -1.60429110149526 -1.5707772413836878 2.202219009399414 0.41164129972457886 -0.21090352535247803 0.32097169756889343 -0.10624048858880997 2.1363929647577606e-07 0.4135490953922272 1 True False
1580.586 3.7817161083221436 -0.8612060111812134 0.8970306555377405 -1.606675764123434 -1.5707805792437952 2.210749387741089 0.4398151934146881 -0.22779512405395508 0.33949869871139526 -0.12332884222269058 6.343142597818336e-15 0.443976491689682 1 True False
1580.606 3.790666341781616 -0.8658278745463868 0.9041002432452601 -1.6089526615538539 -1.5708168188678187 2.2199339866638184 0.46344372630119324 -0.24064016342163086 0.36431458592414856 -0.11968202143907547 5.196895290282555e-05 0.4639614522457123 1 True False
1580.626 3.80023455619812 -0.8707451981357117 0.91168719926943 -1.6114241085448207 -1.5707886854754847 2.2295305728912354 0.49258580803871155 -0.25276365876197815 0.3845495879650116 -0.12976644933223724 3.405964162084274e-05 0.49082109332084656 1 True False
1580.646 3.810631275177002 -0.8759420675090333 0.9196017424212855 -1.6142307720580042 -1.570784870778219 2.2396955490112305 0.5256811380386353 -0.26705577969551086 0.40798527002334595 -0.1398516148328781 3.85417697543744e-05 0.5269972681999207 1 True False
1580.666 3.821394443511963 -0.8814761799624939 0.9278729597674769 -1.617082258264059 -1.5707772413836878 2.2504703998565674 0.5511602759361267 -0.2867022156715393 0.42934343218803406 -0.140842467546463 4.871096462011337e-05 0.5492522120475769 1 True False
1580.686 3.8325984477996826 -0.8874358099750062 0.9366658369647425 -1.620096822778219 -1.5707724730121058 2.2618229389190674 0.5732325911521912 -0.29940345883369446 0.4459761679172516 -0.16598686575889587 6.708504862729114e-10 0.5757220983505249 1 True False
1580.706 3.8444437980651855 -0.8934497994235535 0.945953671132223 -1.6232739887633265 -1.5707767645465296 2.2735884189605713 0.6094584465026855 -0.3096657991409302 0.4692904055118561 -0.1488228440284729 1.9918151808252284e-17 0.6109966039657593 1 True False
1580.7259999999999 3.856996536254883 -0.8998400133899231 0.9556143919574183 -1.626568456689352 -1.570824925099508 2.286243200302124 0.6367738246917725 -0.3190914988517761 0.49388372898101807 -0.1817883998155594 5.91388017222591e-25 0.629913330078125 1 True False
1580.7459999999999 3.8699264526367188 -0.9064657253078003 0.9655821959124964 -1.6300212345519007 -1.5707767645465296 2.2991321086883545 0.6575660109519958 -0.33676639199256897 0.5145910382270813 -0.17153824865818024 1.7558841070916346e-32 0.6645501852035522 1 True False
1580.7659999999998 3.883539915084839 -0.9134596747210999 0.9762008825885218 -1.6335507831969203 -1.5707805792437952 2.3127291202545166 0.6964840292930603 -0.3571411371231079 0.5359104871749878 -0.1895270198583603 5.213376793689406e-40 0.6904609799385071 1 True False
1580.7859999999998 3.897660732269287 -0.9205188316157837 0.9870312849627894 -1.637339254418844 -1.570801083241598 2.3268160820007324 0.717112123966217 -0.36870941519737244 0.5585392117500305 -0.19223198294639587 0.0 0.7142495512962341 1 True False
1580.806 3.9122748374938965 -0.928069071178772 0.9985221068011683 -1.6410838566222132 -1.5707891623126429 2.3415324687957764 0.7507168650627136 -0.3873947560787201 0.5834013223648071 -0.2022407501935959 0.0 0.7485970854759216 1 True False
1580.826 3.9275400638580322 -0.9359216851047059 1.0104687849627894 -1.6451784572997035 -1.570813004170553 2.356705665588379 0.7727499008178711 -0.39721623063087463 0.5985048413276672 -0.1962604969739914 0.0 0.7703381776809692 1 True False
1580.846 3.9432926177978516 -0.9440808457187195 1.0225885550128382 -1.649409910241598 -1.5707529226886194 2.3725075721740723 0.8069303631782532 -0.4141562581062317 0.6232559084892273 -0.22109092772006989 0.0 0.8032331466674805 1 True False
1580.866 3.959653377532959 -0.9525808256915589 1.0352538267718714 -1.6536370716490687 -1.5708048979388636 2.3888909816741943 0.8300483822822571 -0.4306032061576843 0.6443616151809692 -0.21321819722652435 0.0 0.8224568367004395 1 True False
1580.886 3.9765188694000244 -0.9610772889903565 1.048504654561178 -1.6580993137755335 -1.5707529226886194 2.4057438373565674 0.8645417094230652 -0.4352463185787201 0.6655051112174988 -0.21864289045333862 -3.170615673298016e-05 0.8619112968444824 1 True False
1580.906 3.994119167327881 -0.970068172817566 1.0620468298541468 -1.6626221142210902 -1.5708211104022425 2.423171043395996 0.8811795115470886 -0.4502176344394684 0.6907480359077454 -0.23554542660713196 -2.767812111414969e-05 0.8843638896942139 1 True False
1580.926 4.012139797210693 -0.9793399137309571 1.076071564351217 -1.6674114666380824 -1.570772949849264 2.4413344860076904 0.9162504076957703 -0.47190895676612854 0.7029122710227966 -0.24117404222488403 4.184126009931788e-05 0.911176860332489 1 True False
1580.946 4.030625820159912 -0.9887368840030213 1.0903056303607386 -1.6723605595030726 -1.5707967917071741 2.459688186645508 0.9387778639793396 -0.4825877547264099 0.7320249676704407 -0.24913428723812103 7.041080496428265e-10 0.9467375874519348 1 True False
1580.966 4.049817085266113 -0.9986775082400818 1.1054204146014612 -1.6773768864073695 -1.5708048979388636 2.4791324138641357 0.9718325734138489 -0.4952438771724701 0.7534744739532471 -0.26144224405288696 2.090560197320991e-17 0.966134250164032 1 True False
1580.9859999999999 4.069522857666016 -1.008750931625702 1.1206119696246546 -1.6825934849181117 -1.5708211104022425 2.4987049102783203 1.0015735626220703 -0.5119271278381348 0.7761156558990479 -0.279360830783844 6.2070622998035625e-25 0.9989867210388184 1 True False
1581.0059999999999 4.089730262756348 -1.0191273850253602 1.136280361806051 -1.6880847416319789 -1.5708406607257288 2.518806219100952 1.0209152698516846 -0.5290600061416626 0.7917200922966003 -0.26939594745635986 1.8429328433162836e-32 1.0263586044311523 1 True False
1581.0259999999998 4.110525608062744 -1.0297143024257203 1.1525419394122522 -1.6934691868224085 -1.570801083241598 2.539827585220337 1.035535454750061 -0.5264993906021118 0.8101549744606018 -0.2754516899585724 5.4718322824494754e-40 1.0466434955596924 1 True False
1581.0459999999998 4.131448745727539 -1.040485219364502 1.1688125769244593 -1.699045320550436 -1.5707362333880823 2.56064510345459 1.0513265132904053 -0.5400210618972778 0.8100693821907043 -0.27688515186309814 -0.0004250473575666547 1.0517947673797607 1 True False
1581.066 4.1523308753967285 -1.0510826867869874 1.1849525610553187 -1.7045985660948695 -1.5708335081683558 2.581449031829834 1.0426833629608154 -0.5376168489456177 0.8138074278831482 -0.2789708375930786 -0.0003270922170486301 1.0429977178573608 1 True False
1581.086 4.173326015472412 -1.0619602364352723 1.2014244238482874 -1.7098833523192347 -1.5707967917071741 2.6026830673217773 1.050079345703125 -0.536656379699707 0.8116214871406555 -0.2849057912826538 0.00010070377902593464 1.0471271276474 1 True False
1581.106 4.194244384765625 -1.0727056723884125 1.2174842993365687 -1.7154885731139125 -1.5708211104022425 2.6235294342041016 1.0485893487930298 -0.5365816354751587 0.8117592930793762 -0.2855616509914398 2.9899858630666465e-12 1.0504945516586304 1 True False
1581.126 4.215301513671875 -1.0834176403335114 1.2336481253253382 -1.7212087116637171 -1.5707967917071741 2.644308090209961 1.0421119928359985 -0.5382851362228394 0.8122727870941162 -0.26423346996307373 8.877536270936081e-20 1.046776294708252 1 True False
1581.146 4.236074924468994 -1.094163106088974 1.250061337147848 -1.7266694507994593 -1.5708006064044397 2.6655421257019043 1.052114725112915 -0.5315342545509338 0.8174073100090027 -0.2765049338340759 -0.00027365784626454115 1.045179009437561 1 True False
1581.166 4.257137775421143 -1.1048781138709565 1.2664201895343226 -1.7321068249144496 -1.5707281271563929 2.6863608360290527 1.0506671667099 -0.5397264361381531 0.8128095865249634 -0.27033349871635437 -3.24481379265773e-11 1.0499498844146729 1 True False
1581.186 4.278039932250977 -1.115558461552002 1.2824142614947718 -1.7376514873900355 -1.570829216633932 2.7071011066436768 1.0424522161483765 -0.5377645492553711 0.8152081966400146 -0.2860371768474579 -9.634143643083674e-19 1.0497443675994873 1 True False
1581.206 4.298996448516846 -1.1263969105533143 1.2988746801959437 -1.7431169948973597 -1.5707925001727503 2.7283782958984375 1.0475894212722778 -0.5295433402061462 0.8159459233283997 -0.2617356777191162 -2.860463876518623e-26 1.0468274354934692 1 True False
1581.2259999999999 4.32000732421875 -1.1371600490859528 1.3149727026568812 -1.7487136326231898 -1.5707529226886194 2.7492432594299316 1.0502567291259766 -0.5349783301353455 0.8137151002883911 -0.26901909708976746 -8.492974235339875e-34 1.0500212907791138 1 True False
1581.2459999999999 4.340888500213623 -1.147849754696228 1.3313286940204065 -1.7543093166747035 -1.5708487669574183 2.770031452178955 1.0435281991958618 -0.537243127822876 0.8122191429138184 -0.2623477578163147 -2.5216365865525083e-41 1.046633005142212 1 True False
1581.2659999999998 4.361772060394287 -1.1585552853396912 1.3476303259478968 -1.7598473034300746 -1.5708168188678187 2.7911698818206787 1.0465487241744995 -0.5314596891403198 0.8183404207229614 -0.28204405307769775 -0.0 1.0467792749404907 1 True False
1581.2859999999998 4.382696628570557 -1.1693735879710694 1.3637684027301233 -1.7653728924193324 -1.5708211104022425 2.811955690383911 1.0528849363327026 -0.5382405519485474 0.8134621977806091 -0.2742359936237335 -0.0 1.054122805595398 1 True False
1581.306 4.403737545013428 -1.17997561514888 1.3800748030291956 -1.7709576092162074 -1.570829216633932 2.8327219486236572 1.0445383787155151 -0.5376296043395996 0.8128176927566528 -0.26606032252311707 -0.0 1.046668291091919 1 True False
1581.326 4.424540996551514 -1.1907010239413758 1.3963802496539515 -1.776144643823141 -1.5707925001727503 2.8538875579833984 1.0249333381652832 -0.5215842723846436 0.7982072234153748 -0.2501000463962555 -0.00023596346727572381 1.0267518758773804 1 True False
1581.346 4.444802284240723 -1.2011099022677918 1.4118641058551233 -1.781830450097555 -1.5707247892962855 2.8740434646606445 1.0003185272216797 -0.5178505778312683 0.7741444110870361 -0.2664038836956024 7.322466262849048e-05 1.0071154832839966 1 True False
1581.366 4.4644856452941895 -1.2111759942821045 1.4272406736956995 -1.7868453464903773 -1.5708368460284632 2.893606662750244 0.9669014811515808 -0.49842944741249084 0.7572053074836731 -0.2534339725971222 -0.0011561596766114235 0.967410683631897 1 True False
1581.386 4.483628749847412 -1.2209234100631257 1.4422085920916956 -1.7918530903258265 -1.5707891623126429 2.912851333618164 0.9472932815551758 -0.47795745730400085 0.7346327304840088 -0.2506173551082611 -0.00027502953889779747 0.9507272839546204 1 True False
1581.406 4.502214431762695 -1.2305026215365906 1.456601921712057 -1.796760698358053 -1.5707686583148401 2.931420087814331 0.9162750244140625 -0.47183647751808167 0.7049611806869507 -0.23144641518592834 -2.146200858987868e-05 0.916620671749115 1 True False
1581.426 4.520142078399658 -1.2397043269923707 1.4704373518573206 -1.801732679406637 -1.5708254019366663 2.9495787620544434 0.8898276090621948 -0.4573290944099426 0.6918908953666687 -0.23557987809181213 -6.372263285613078e-13 0.8838644623756409 1 True False
1581.446 4.537667274475098 -1.2488120061210175 1.4841964880572718 -1.806145807305807 -1.570801083241598 2.966876983642578 0.8650975227355957 -0.4425137937068939 0.6706706285476685 -0.2220606654882431 -1.8919824269938372e-20 0.8712347149848938 1 True False
1581.466 4.554739952087402 -1.2574242514422913 1.4972112814532679 -1.8106867275633753 -1.5708048979388636 2.983928680419922 0.8312314748764038 -0.425232470035553 0.6394332051277161 -0.22606466710567474 -5.617465794941192e-28 0.8273355960845947 1 True False
1581.4859999999999 4.570981979370117 -1.265858457689621 1.5098512808429163 -1.8151689968504847 -1.5708048979388636 3.000225782394409 0.8072384595870972 -0.4184744954109192 0.618359386920929 -0.21978400647640228 -1.6678763901777928e-35 0.8097352981567383 1 True False
1581.5059999999999 4.586753845214844 -1.2738070052913208 1.5221746603595179 -1.8190576038756312 -1.5707925001727503 3.0159754753112793 0.7748236060142517 -0.39692702889442444 0.6091005802154541 -0.19926849007606506 -4.946583579066604e-43 0.7721108198165894 1 True False
1581.5259999999998 4.60207462310791 -1.2816387873939057 1.533992115651266 -1.8232327900328578 -1.5707891623126429 3.0311689376831055 0.753861129283905 -0.3812725245952606 0.5848665833473206 -0.19542670249938965 -0.0 0.7582185864448547 1 True False
1581.5459999999998 4.616705417633057 -1.289275662308075 1.5454238096820276 -1.8270842037596644 -1.5708168188678187 3.0459563732147217 0.7175782322883606 -0.37407186627388 0.5543487071990967 -0.19480431079864502 -0.0 0.7146139740943909 1 True False
1581.566 4.630817413330078 -1.2963910561851044 1.5562508741961878 -1.8308493099608363 -1.570801083241598 3.0600357055664062 0.6984956860542297 -0.3540211319923401 0.5421983599662781 -0.18347696959972382 -0.0 0.7022419571876526 1 True False
1581.586 4.644313335418701 -1.3032609683326264 1.5669110457049769 -1.8343078098692835 -1.570784870778219 3.0736985206604004 0.6656381487846375 -0.3424754738807678 0.5198339819908142 -0.1917800009250641 -0.0 0.6614738702774048 1 True False
1581.606 4.657419681549072 -1.3100459438613434 1.57717210451235 -1.8378225765623988 -1.5708048979388636 3.08648419380188 0.6365611553192139 -0.3289661109447479 0.49574747681617737 -0.15703646838665009 -0.0 0.6484105587005615 1 True False
1581.626 4.669862747192383 -1.3164223295501252 1.5866320768939417 -1.8411900005736292 -1.5707925001727503 3.0990941524505615 0.6087747812271118 -0.3103446662425995 0.47167855501174927 -0.18197587132453918 -0.0 0.6089541912078857 1 True False
1581.646 4.681671619415283 -1.3225282442620774 1.5956857840167444 -1.8443495235838832 -1.5708449522601526 3.1109063625335693 0.5788341164588928 -0.2951541841030121 0.45268529653549194 -0.14760065078735352 -0.0 0.5811189413070679 1 True False
1581.666 4.693105697631836 -1.3283479374698182 1.6047704855548304 -1.8472281895079554 -1.5708006064044397 3.1223156452178955 0.5570545792579651 -0.285652756690979 0.43668699264526367 -0.14300017058849335 -0.0 0.5569871068000793 1 True False
1581.686 4.703766345977783 -1.333720864062645 1.6131556669818323 -1.849983354608053 -1.5707724730121058 3.133085250854492 0.5241419076919556 -0.2673335671424866 0.4046245515346527 -0.13657300174236298 -0.0 0.5240739583969116 1 True False
1581.706 4.713982105255127 -1.339104489689209 1.6209328810321253 -1.852729936639303 -1.5707925001727503 3.143171548843384 0.4998352825641632 -0.26225847005844116 0.3777511417865753 -0.1344393491744995 -0.0 0.50016850233078 1 True False
1581.7259999999999 4.723723888397217 -1.3441692751697083 1.6281688849078577 -1.8553973637022914 -1.5707967917071741 3.152872085571289 0.4721297323703766 -0.23882679641246796 0.36370357871055603 -0.13643889129161835 0.00016739559941925108 0.4798247516155243 1 True False
1581.7459999999999 4.732726097106934 -1.3488512647202988 1.635528866444723 -1.8576227627196253 -1.5708006064044397 3.162135362625122 0.4375534951686859 -0.22043940424919128 0.3458702862262726 -0.11182864010334015 -0.0002699366887100041 0.4415494203567505 1 True False
1581.7659999999998 4.7413411140441895 -1.3529399794391175 1.642306152974264 -1.8597785435118617 -1.5707648436175745 3.1705188751220703 0.41599878668785095 -0.20509904623031616 0.320600688457489 -0.10791587084531784 -0.00018755454220809042 0.41358956694602966 1 True False
1581.7859999999998 4.7493577003479 -1.3571339410594483 1.6483724753009241 -1.862192770043844 -1.570813004170553 3.1784751415252686 0.38555559515953064 -0.19955332577228546 0.2970874011516571 -0.11576716601848602 0.00011411343439249322 0.39535632729530334 1 True False
1581.806 4.756646633148193 -1.3609703344157715 1.653975788746969 -1.8641554317870082 -1.5707724730121058 3.1859538555145264 0.35703083872795105 -0.18820323050022125 0.27485722303390503 -0.08832088112831116 3.303711491753347e-05 0.35451269149780273 1 True False
1581.826 4.763514995574951 -1.364451841717102 1.6593440214740198 -1.8657971821227015 -1.5707362333880823 3.1927993297576904 0.3343906104564667 -0.1689048856496811 0.26285162568092346 -0.08045104891061783 2.3781065465300344e-05 0.3292512893676758 1 True False
1581.846 4.769952297210693 -1.3677064341357728 1.664457146321432 -1.8674360714354457 -1.5707610289203089 3.1990585327148438 0.3034444749355316 -0.15347672998905182 0.23695909976959229 -0.08435390144586563 1.880995841929689e-05 0.2997121214866638 1 True False
1581.866 4.7756547927856445 -1.3706288796714325 1.6688678900348108 -1.8691173992552699 -1.5708487669574183 3.2047314643859863 0.2688283920288086 -0.14085741341114044 0.20923703908920288 -0.07408832013607025 7.980127520568203e-06 0.27943283319473267 1 True False
1581.886 4.780786514282227 -1.3733559113791962 1.6727455298053187 -1.8704244099059046 -1.570784870778219 3.209909677505493 0.24715736508369446 -0.1278354972600937 0.19187723100185394 -0.060874052345752716 2.369371788612379e-13 0.25990673899650574 1 True False
1581.906 4.785322666168213 -1.375717745428421 1.6763446966754358 -1.8715735874571742 -1.570801083241598 3.2146475315093994 0.218891903758049 -0.10954374074935913 0.17049801349639893 -0.05655917152762413 7.034878688492266e-21 0.21976293623447418 1 True False
1581.926 4.789381504058838 -1.3777475518039246 1.6794622580157679 -1.872678895989889 -1.5708254019366663 3.21870756149292 0.19249555468559265 -0.09595648944377899 0.15047262609004974 -0.05026146024465561 2.088719654419053e-28 0.1899774968624115 1 True False
1581.946 4.7930097579956055 -1.3795209687999268 1.6823461691485804 -1.8735653362669886 -1.5707648436175745 3.2222371101379395 0.1659560650587082 -0.08069580048322678 0.126078799366951 -0.041313838213682175 6.201595810758489e-36 0.160686194896698 1 True False
1581.966 4.79596471786499 -1.381051943903305 1.6845911184894007 -1.8744641743102015 -1.570853058491842 3.22518253326416 0.13482369482517242 -0.06944599002599716 0.10247732698917389 -0.04422489181160927 1.8357009882655104e-43 0.131200909614563 1 True False
1581.9859999999999 4.7983880043029785 -1.382336438899376 1.6863768736468714 -1.8751398525633753 -1.5708211104022425 3.2275445461273193 0.10367344319820404 -0.05495629832148552 0.08361639082431793 -0.0258300993591547 0.0 0.10670792311429977 1 True False
1582.0059999999999 4.800143241882324 -1.383225829606392 1.6878827253924769 -1.8755651913084925 -1.570801083241598 3.229393482208252 0.07985863089561462 -0.04189996048808098 0.0621483288705349 -0.015291575342416763 0.0 0.07875365763902664 1 True False
1582.0259999999998 4.801418781280518 -1.3838243049434205 1.6888983885394495 -1.8758799038329066 -1.5708006064044397 3.2306511402130127 0.050003137439489365 -0.025352519005537033 0.04062757268548012 -0.01358441635966301 0.0 0.05223981291055679 1 True False
1582.0459999999998 4.802139759063721 -1.384277032022812 1.6894195715533655 -1.8760220013060511 -1.5707886854754847 3.231351613998413 0.023428138345479965 -0.013554824516177177 0.0160528477281332 -0.0029967648442834616 0.0 0.02526887133717537 1 True False
1582.066 4.80232572555542 -1.384347991352417 1.6895034948932093 -1.8760014973082484 -1.5707686583148401 3.231466770172119 -0.0076897237449884415 0.006423058453947306 -0.0017656555864959955 -0.000123194171465002 0.0 1.8916027329396456e-05 1 True False
1582.086 4.802190780639648 -1.3841274839690705 1.689880673085348 -1.8765722713866175 -1.5708044211017054 3.2315328121185303 -0.0016481755301356316 0.014487961307168007 0.02674735151231289 -0.03155394271016121 -0.0002762698568403721 5.616338557418166e-13 1 True False
1582.106 4.8022379875183105 -1.3838450473598023 1.6905720869647425 -1.8773781261839808 -1.5707925001727503 3.2315001487731934 0.0018993825651705265 0.019589196890592575 0.041084349155426025 -0.056391648948192596 -2.414822120044846e-05 1.6675415080617782e-20 1 True False
1582.126 4.802272319793701 -1.3833027195981522 1.6915672461139124 -1.878939767877096 -1.5707724730121058 3.2315285205841064 0.000512669503223151 0.029212353751063347 0.053835395723581314 -0.09239090979099274 -7.169823003534692e-13 4.951081034156084e-28 1 True False
1582.146 4.802268028259277 -1.3826785546592255 1.692864720021383 -1.8810116253294886 -1.5707805792437952 3.2315285205841064 0.00017622146697249264 0.04088135436177254 0.0748973861336708 -0.11789599806070328 -2.128784687763449e-20 1.4700208315083576e-35 1 True False
1582.166 4.802323341369629 -1.3817642045072098 1.6946371237384241 -1.8837610683836878 -1.5707648436175745 3.2315330505371094 0.0007209926843643188 0.0536559633910656 0.0883561298251152 -0.14630401134490967 -6.320552521194002e-28 4.358038224050181e-43 1 True False
1582.186 4.802286624908447 -1.3805766117623826 1.6965959707843226 -1.8869039020934046 -1.5708449522601526 3.2315404415130615 0.00033239275217056274 0.06590624153614044 0.1052568256855011 -0.16620118916034698 -1.8766286609452618e-35 -2.9533275665016845e-05 1 True False
1582.206 4.802245616912842 -1.379120872621872 1.6990450064288538 -1.8907200298705042 -1.5708168188678187 3.2315285205841064 0.0017872287426143885 0.07417045533657074 0.12834671139717102 -0.20019610226154327 -5.577167888012772e-43 -1.7269412921905314e-07 1 True False
1582.2259999999999 4.802257537841797 -1.3774732512286683 1.7018078009234827 -1.8948780498900355 -1.5707767645465296 3.2315478324890137 0.0009492606041021645 0.08632367849349976 0.14076295495033264 -0.21956562995910645 -0.0 0.0009112604311667383 1 True False
1582.2459999999999 4.802298545837402 -1.3756202024272461 1.7047126928912562 -1.8998924694456996 -1.570784870778219 3.2315032482147217 0.0006406292668543756 0.09228018671274185 0.15841032564640045 -0.2533203661441803 -0.0 0.0005107590695843101 1 True False
1582.2659999999998 4.802310466766357 -1.3736625474742432 1.7080772558795374 -1.9053288898863734 -1.5707529226886194 3.2315478324890137 0.00040452126995660365 0.10077392309904099 0.18507589399814606 -0.28167253732681274 -0.0 0.0003862792218569666 1 True False
1582.2859999999998 4.802306175231934 -1.3714746546796341 1.71183950105776 -1.91129793743276 -1.5707967917071741 3.2315313816070557 0.00030834623612463474 0.11724820733070374 0.19943180680274963 -0.31714290380477905 -0.0 0.000323327723890543 1 True False
1582.306 4.802342891693115 -1.3690459591201325 1.716064755116598 -1.9176999531187953 -1.570801083241598 3.231555223464966 0.00018589943647384644 0.12440027296543121 0.21173284947872162 -0.3514224588871002 -0.0 0.00023594399681314826 1 True False
1582.326 4.8022942543029785 -1.3664024633220215 1.7204554716693323 -1.924784322778219 -1.5707972685443323 3.2315568923950195 0.0001843884092522785 0.13465918600559235 0.23638632893562317 -0.3852076530456543 -0.0 0.00018694742175284773 1 True False
1582.346 4.802371025085449 -1.3636513662389298 1.7253559271441858 -1.9325648746886195 -1.5708254019366663 3.2315447330474854 0.00014679502055514604 0.14783866703510284 0.2505154311656952 -0.39720138907432556 -0.0 0.00012343500566203147 1 True False
1582.366 4.802347183227539 -1.3605704021504899 1.7307770887957972 -1.940871377984518 -1.5707724730121058 3.23158860206604 0.00011615403491305187 0.15628860890865326 0.26816466450691223 -0.4212345778942108 -0.0 0.00011623332102317363 1 True False
1582.386 4.802342891693115 -1.3573375207236786 1.7363837401019495 -1.9495517216124476 -1.5707686583148401 3.231527090072632 0.00011078823445132002 0.16540446877479553 0.2868909537792206 -0.45187726616859436 -0.0 9.56439325818792e-05 1 True False
1582.406 4.802318096160889 -1.3539914351752778 1.742080036793844 -1.9589225254454554 -1.5707925001727503 3.231572151184082 0.00010724954336183146 0.17450807988643646 0.3000550866127014 -0.48491767048835754 -0.0 8.125171734718606e-05 1 True False
1582.426 4.80230188369751 -1.3503946375897904 1.7483089605914515 -1.9689246616759242 -1.5707886854754847 3.2315657138824463 9.16479475563392e-05 0.18595193326473236 0.32292547821998596 -0.5086886286735535 -0.0 7.062462100293487e-05 1 True False
1582.446 4.802269458770752 -1.3463900101235886 1.754871670399801 -1.9791962109007777 -1.5707605520831507 3.2315523624420166 9.464637696510181e-05 0.19444291293621063 0.3416607081890106 -0.5334258675575256 -0.0 6.245596159715205e-05 1 True False
1582.466 4.80233097076416 -1.3424169284156342 1.762052361165182 -1.9901467762389125 -1.57074481645693 3.23152232170105 7.81990893301554e-05 0.20383067429065704 0.35791945457458496 -0.5626353621482849 -0.0 1.1817238299016708e-09 1 True False
1582.4859999999999 4.80232572555542 -1.3381858480027695 1.7690704504596155 -2.001387735406393 -1.570829216633932 3.2315433025360107 0.0001882764627225697 0.19983091950416565 0.3460177779197693 -0.5524823665618896 -0.0 3.508644725076787e-17 1 True False
1582.5059999999999 4.802330017089844 -1.3344331693700333 1.7757375876056116 -2.012195726434225 -1.5707967917071741 3.2315523624420166 0.00013274259981699288 0.18608121573925018 0.33116045594215393 -0.5269153714179993 -0.0 1.041748313582814e-24 1 True False
1582.5259999999998 4.802285671234131 -1.3307586026242753 1.7819512526141565 -2.022410055200094 -1.5707805792437952 3.231605052947998 0.0001025049205054529 0.18379375338554382 0.31346580386161804 -0.495541512966156 -0.0 3.093044489856099e-32 1 True False
1582.5459999999998 4.8023600578308105 -1.32717681050811 1.7882755438434046 -2.031889577905172 -1.5708091894732874 3.23152232170105 8.348737173946574e-05 0.17255693674087524 0.3005828559398651 -0.4630936086177826 -0.0 9.183535602814478e-40 1 True False
1582.566 4.802364349365234 -1.3238385033658524 1.7940085569964808 -2.0407468281187953 -1.570801083241598 3.2315194606781006 7.042220386210829e-05 0.16323134303092957 0.2733137607574463 -0.43020883202552795 -0.0 0.0 1 True False
1582.586 4.802321910858154 -1.320761339073517 1.799211327229635 -2.049251218835348 -1.5708006064044397 3.231597661972046 6.089294038247317e-05 0.15096747875213623 0.25359123945236206 -0.41881316900253296 -0.0 0.0 1 True False
1582.606 4.802346706390381 -1.317893461590149 1.804042164479391 -2.0573278866209925 -1.570772949849264 3.2315151691436768 5.363519812817685e-05 0.14311394095420837 0.24366365373134613 -0.3849191963672638 -0.0 0.0 1 True False
1582.626 4.802338600158691 -1.3151066464236756 1.8087499777423304 -2.0646521053709925 -1.5708168188678187 3.2315523624420166 1.4489363701908342e-11 0.13019365072250366 0.22820945084095 -0.35242989659309387 -0.0 0.0 1 True False
1582.646 4.802313327789307 -1.3125582796386261 1.8131187597857874 -2.071383138696188 -1.5708335081683558 3.231510639190674 1.1324975886556502e-31 0.11928913742303848 0.20956386625766754 -0.3290572464466095 -0.0 0.0 1 True False
1582.666 4.802358150482178 -1.3103206616691132 1.817099396382467 -2.077608724633688 -1.570784870778219 3.231534242630005 0.0 0.10633409768342972 0.18983705341815948 -0.31051334738731384 -0.0 0.0 1 True False
1582.686 4.802379131317139 -1.3082369726947327 1.82070237794985 -2.0832745037474574 -1.570813004170553 3.231538772583008 0.0 0.0966016948223114 0.17082233726978302 -0.28397485613822937 -0.0 0.0 1 True False
1582.706 4.802364349365234 -1.3063486975482483 1.824031178151266 -2.088341375390524 -1.5708406607257288 3.231517791748047 0.0 0.08742993324995041 0.15415742993354797 -0.23526857793331146 -0.0 0.0 1 True False
1582.7259999999999 4.802358150482178 -1.3046758335879822 1.8269146124469202 -2.0929881534972132 -1.5708211104022425 3.2315597534179688 0.0 0.07725828886032104 0.1298881620168686 -0.21253760159015656 -0.0 0.0 1 True False
1582.7459999999999 4.8023295402526855 -1.3032398980906983 1.8293340841876429 -2.096969266931051 -1.5707524458514612 3.231550693511963 0.0 0.06950435787439346 0.11785365641117096 -0.19441315531730652 -0.0 0.0 1 True False
1582.7659999999998 4.802304267883301 -1.3020317417434235 1.8314421812640589 -2.1004349193968714 -1.5708254019366663 3.231555223464966 0.0 0.05971667915582657 0.10013654828071594 -0.1555529236793518 -0.0 0.0 1 True False
1582.7859999999998 4.802366733551025 -1.3009408873370667 1.8333547751056116 -2.103171487847799 -1.5708044211017054 3.2315478324890137 0.0 0.05120273306965828 0.08404019474983215 -0.14215372502803802 -0.0 0.0 1 True False
1582.806 4.8023881912231445 -1.3000731331161042 1.834794823323385 -2.1055900059142054 -1.5708335081683558 3.231597661972046 0.0 0.03764265030622482 0.0612470805644989 -0.10026878863573074 -0.0 0.0 1 True False
1582.826 4.8023881912231445 -1.299480990772583 1.8358095327960413 -2.107299943963522 -1.57074481645693 3.231597661972046 0.0 0.02601267769932747 0.04639744386076927 -0.07370124757289886 -0.0 0.0 1 True False
1582.846 4.802380084991455 -1.2989881795695801 1.8366120497332972 -2.1083976231017054 -1.570813004170553 3.2315433025360107 0.0 0.018568674102425575 0.03358888998627663 -0.04602525383234024 -0.0 0.0 1 True False
1582.866 4.802371501922607 -1.2987589103034516 1.8370912710772913 -2.109129568139547 -1.570784870778219 3.2315359115600586 0.0 0.0055730026215314865 0.0146230049431324 -0.02533653751015663 -0.0 0.0 1 True False
1582.886 4.8024001121521 -1.2988020044616242 1.837090317402975 -2.109208723107809 -1.5707891623126429 3.23152232170105 0.0 -0.0009914938127622008 -0.0007020070333965123 0.00476241996511817 -0.0 0.0 1 True False
1582.906 4.802334308624268 -1.2988139253905793 1.8371437231646937 -2.109184881249899 -1.5708006064044397 3.2315633296966553 2.0542156141299248e-25 -0.0004223498108331114 -1.0632639657615073e-07 0.00024139431479852647 -0.0 0.0 1 True False
1582.926 4.802313327789307 -1.2987076801112671 1.837175194417135 -2.1091929874815882 -1.5707410017596644 3.2315433025360107 1.401298464324817e-45 0.00024721838417463005 -1.4972612737123944e-19 0.00016833495465107262 -0.0 0.0 1 True False
1582.946 4.802334308624268 -1.2988108557513733 1.8371065298663538 -2.109232564965719 -1.5708048979388636 3.2315404415130615 0.0 0.00010820168245118111 -2.108405458948432e-31 -7.791409007040784e-05 -0.0 0.0 1 True False
1582.966 4.802368640899658 -1.2987737220576783 1.8371270338641565 -2.109220644036764 -1.5707772413836878 3.2315566539764404 0.0 0.00012443331070244312 -2.970752744368612e-43 -0.0004483225638978183 -0.0 0.0 1 True False
1582.9859999999999 4.802346706390381 -1.2988152664950867 1.8371556440936487 -2.1092568836607875 -1.5708006064044397 3.2315478324890137 0.0 0.0005323005025275052 -0.0 -0.0002447942388243973 2.513216143442548e-13 0.0 1 True False
1583.0059999999999 4.8023600578308105 -1.2987737220576783 1.8371270338641565 -2.109232564965719 -1.570824925099508 3.231550693511963 0.0 0.00019505422096699476 7.943102536955848e-05 -0.0001972506142919883 7.461964801891752e-21 0.0 1 True False
1583.0259999999998 4.802391529083252 -1.2987211507609864 1.8371222654925745 -2.1092125378050746 -1.5707767645465296 3.2315945625305176 0.0 0.0006389716290868819 0.00011015321797458455 -0.00016996652993839234 2.215524807887453e-28 0.0 1 True False
1583.0459999999998 4.8024001121521 -1.298766241674759 1.8371184507953089 -2.109312673608297 -1.5707691351519983 3.231593132019043 0.0 0.0002950885100290179 6.870608194731176e-05 -0.0001527977001387626 6.57809192894889e-36 0.0 1 True False
1583.066 4.802350997924805 -1.298766241674759 1.8371055761920374 -2.1092683277525843 -1.5707529226886194 3.2315194606781006 0.0 0.00020962061535101384 4.972388342139311e-05 -0.0005549725610762835 1.9478048654114957e-43 0.0 1 True False
1583.086 4.802366733551025 -1.2987545293620606 1.8371265570269983 -2.1092807255186976 -1.570772949849264 3.231597661972046 0.0 0.0005827127606607974 9.739860979607329e-05 -0.00027799292001873255 0.0 0.0 1 True False
1583.106 4.802383899688721 -1.2987498801997681 1.8371270338641565 -2.109232088128561 -1.5708330313311976 3.2315731048583984 -9.372849024691376e-11 0.00016452700947411358 0.00011967161117354408 -0.00021166443184483796 0.0 0.0 1 True False
1583.126 4.8023176193237305 -1.298688457613327 1.837208096181051 -2.10927214244985 -1.5707810560809534 3.231584072113037 -7.325876396584473e-31 0.00013630471948999912 0.0001510837464593351 -0.0001825822255341336 0.0 0.0 1 True False
1583.146 4.802313327789307 -1.2987426084331055 1.8371999899493616 -2.1092521152892054 -1.5707967917071741 3.2315597534179688 0.0 0.00014400291547644883 0.0002258218446513638 -0.00010329160431865603 0.0 0.0 1 True False
1583.166 4.8023223876953125 -1.2987708312324067 1.8372166792498987 -2.109260221520895 -1.570829216633932 3.231527090072632 0.0 0.00012857746332883835 0.00018996415019501 -0.00013217490050010383 0.0 0.0 1 True False
1583.186 4.802362442016602 -1.2986972791007538 1.8371709028827112 -2.1093045673766078 -1.5707367102252405 3.231538772583008 0.0 0.00018654466839507222 0.00018402798741590232 -0.0002058642276097089 0.0 0.0 1 True False
1583.206 4.802338600158691 -1.2987513405135651 1.8371666113482874 -2.1092807255186976 -1.5708168188678187 3.231581211090088 0.0 0.0001386477961204946 0.0001372893893858418 -0.0001975785562535748 0.0 0.0 1 True False
1583.2259999999999 4.8023600578308105 -1.2987002295306702 1.8371709028827112 -2.1092683277525843 -1.5708006064044397 3.2315478324890137 0.0 0.0001287090708501637 0.00012770235480275005 -0.00017205924086738378 0.0 0.0 1 True False
1583.2459999999999 4.802338600158691 -1.2986765664866944 1.8372209707843226 -2.109300275842184 -1.5708168188678187 3.2315194606781006 0.0 0.00012214273738209158 0.00012134742428315803 -0.00013886865053791553 0.0 0.0 1 True False
1583.2659999999998 4.8023295402526855 -1.2987136405757447 1.8371709028827112 -2.109244009057516 -1.5707767645465296 3.2315685749053955 0.0 0.00010442762140883133 9.5966192020569e-05 -0.00010392240073997527 0.0 0.0 1 True False
1583.2859999999998 4.802338600158691 -1.2987343531898041 1.8371871153460901 -2.1092564068236292 -1.5708330313311976 3.2315773963928223 0.0 7.673881918890402e-05 7.83283612690866e-05 -8.442043326795101e-05 0.0 0.0 1 True False
1583.306 4.8024139404296875 -1.2987165612033387 1.837191406880514 -2.10924830059194 -1.5707767645465296 3.2315313816070557 0.0 6.555918662343174e-05 7.999780791578814e-05 -8.484213321935385e-05 0.0 0.0 1 True False
1583.326 4.802371501922607 -1.2986973089030762 1.8371828238116663 -2.109293123284811 -1.570784870778219 3.231538772583008 0.0 5.722273635910824e-05 6.971989932935685e-05 -7.366363570326939e-05 0.0 0.0 1 True False
1583.346 4.8023176193237305 -1.2986765664866944 1.8372319380389612 -2.1092683277525843 -1.5707686583148401 3.231576681137085 0.0 5.076722300145775e-05 6.174743612064049e-05 -6.482041499111801e-05 0.0 0.0 1 True False
1583.366 4.802319049835205 -1.2987632912448426 1.8371294180499476 -2.1092807255186976 -1.5708168188678187 3.2315478324890137 0.0 4.076465208212445e-21 3.020164955798432e-13 -3.2995708920680045e-07 0.0 0.0 1 True False
1583.386 4.802341938018799 -1.298688457613327 1.8371995131122034 -2.1092683277525843 -1.570784870778219 3.231581211090088 0.0 3.1861323183353366e-41 4.252920224255294e-25 -9.796722928603983e-15 0.0 0.0 1 True False
1583.406 4.802313327789307 -1.2986973387053986 1.8372238318072718 -2.1093045673766078 -1.5707886854754847 3.2315151691436768 0.0 0.0 5.988853682288603e-37 -2.908735135167483e-22 0.0 0.0 1 True False
1583.426 4.802383899688721 -1.2987224620631714 1.8372038046466272 -2.1092401943602503 -1.570784870778219 3.231550693511963 0.0 0.0 0.0 -8.636297186338776e-30 0.0 0.0 1 True False
1583.446 4.8023600578308105 -1.2987469595721741 1.8371828238116663 -2.1092640362181605 -1.570772949849264 3.2315609455108643 0.0 0.0 0.0 -2.56419413301793e-37 0.0 0.0 1 True False
1583.466 4.802347660064697 -1.2987335187247773 1.8371427694903772 -2.109324117700094 -1.5708406607257288 3.2315855026245117 0.0 0.0 0.0 -0.0007331103552132845 9.005319157040503e-08 0.0 1 True False
1583.4859999999999 4.802338600158691 -1.2987781328013916 1.8370755354510706 -2.10943140606069 -1.5707929770099085 3.2316019535064697 0.0 -2.511642283042903e-10 2.2886531126301696e-16 -0.002331869676709175 0.0003040544397663325 0.0 1 True False
1583.5059999999999 4.802326679229736 -1.2987165612033387 1.837111775075094 -2.1094752750792445 -1.5707810560809534 3.231576681137085 0.0 0.00021825933072250336 3.222823002212164e-28 -0.000509435951244086 8.72630625963211e-05 0.0 1 True False
1583.5259999999998 4.8022894859313965 -1.298688457613327 1.8371356169330042 -2.1094638309874476 -1.5707929770099085 3.23154354095459 0.0 0.00019742280710488558 4.5383012585009256e-40 -1.3470343219523784e-05 -1.3627474118038663e-06 0.0 1 True False
1583.5459999999998 4.8023176193237305 -1.2987033885768433 1.8371437231646937 -2.109455724755758 -1.5707648436175745 3.231584072113037 0.0 0.00018505216576159 0.0 -3.9994667733883604e-13 -4.046120196158319e-14 0.0 1 True False
1583.566 4.802264213562012 -1.29871221006427 1.837111775075094 -2.109448095361227 -1.5708168188678187 3.231588363647461 0.0 0.00018357894441578537 0.0 0.000648726534564048 -1.2013294891556248e-21 0.0 1 True False
1583.586 4.802321910858154 -1.2987077993205567 1.8371565977679651 -2.10939945797109 -1.5708087126361292 3.231527090072632 0.0 0.00014633555838372558 0.0 0.000968380190897733 -3.56685535892608e-29 0.0 1 True True
1583.606 4.802347660064697 -1.2988169950297852 1.8369463125811976 -2.1088105640807093 -1.5707529226886194 3.231538772583008 0.0 -0.01121610589325428 -0.014424408785998821 0.037736695259809494 -1.0590315162004594e-36 0.0 1 True True
1583.626 4.8023600578308105 -1.2990378898433228 1.8366625944720667 -2.1077238521971644 -1.570829216633932 3.231522560119629 0.0 -0.015669498592615128 -0.03135860338807106 0.052925955504179 -3.0828566215145976e-44 0.0 1 True True
1583.646 4.802384853363037 -1.2994305354407807 1.8357918898211878 -2.1064511738219203 -1.570772949849264 3.231593132019043 0.0 -0.031863704323768616 -0.057238951325416565 0.07782430946826935 -0.0 0.0 1 True True
1583.666 4.802347660064697 -1.3002395194819947 1.8343475500689905 -2.104565282861227 -1.5708087126361292 3.2315196990966797 0.0 -0.04714398831129074 -0.08014839142560959 0.1115410327911377 -0.0 0.0 1 True True
1583.686 4.802273273468018 -1.3012598615935822 1.8326180616961878 -2.102006574670309 -1.5707648436175745 3.2315773963928223 0.0 -0.0573330782353878 -0.08948280662298203 0.15363575518131256 -0.0 0.0 1 True True
1583.706 4.8023176193237305 -1.3023915749839325 1.8307574431048792 -2.098724504510397 -1.5708206335650843 3.231510877609253 0.0 -0.06362727284431458 -0.10364538431167603 0.16917064785957336 -0.0 0.0 1 True True
1583.7259999999999 4.802366733551025 -1.303858683710434 1.8283575216876429 -2.0950242481627406 -1.570784870778219 3.2315640449523926 0.0 -0.07440374046564102 -0.13358153402805328 0.20043908059597015 -0.0 0.0 1 True True
1583.7459999999999 4.802326679229736 -1.305466191177704 1.8254841009723108 -2.0907908878722132 -1.5707767645465296 3.23153018951416 0.0 -0.088425412774086 -0.14163976907730103 0.21772590279579163 -4.530137116126598e-12 0.0 1 True True
1583.7659999999998 4.802346706390381 -1.3072591882995148 1.8223531881915491 -2.0858494244017542 -1.5707686583148401 3.2315728664398193 0.0 -0.09173540771007538 -0.16470065712928772 0.2663753926753998 -1.3450383275115578e-19 0.0 1 True True
1583.7859999999998 4.802374839782715 -1.3091963094523926 1.818918530141012 -2.080449720422262 -1.5708211104022425 3.231580972671509 0.0 -0.0992950052022934 -0.17920032143592834 0.28279387950897217 -3.993540154761341e-27 2.1334474985257312e-13 1 True True
1583.806 4.8023552894592285 -1.3115522426417847 1.8151076475726526 -2.0746571026244105 -1.5707891623126429 3.2315685749053955 0.0 -0.11406022310256958 -0.19832824170589447 0.3043917715549469 -1.1857181670208163e-34 6.334395650153366e-21 1 True True
1583.826 4.8023600578308105 -1.31386290610347 1.8108623663531702 -2.068236013452047 -1.5707648436175745 3.2315478324890137 0.0 -0.12190406024456024 -0.20971331000328064 0.3337162435054779 -3.5200617423839405e-42 1.880738600095297e-28 1 True True
1583.846 4.8023552894592285 -1.316497103576996 1.8065226713763636 -2.0609661541380824 -1.5708006064044397 3.23150634765625 0.0 -0.13297216594219208 -0.22946040332317352 0.36335641145706177 -0.0 5.58408317261995e-36 1 True True
1583.866 4.80229377746582 -1.319254146223404 1.8017528692828577 -2.053392549554342 -1.570772949849264 3.231567859649658 -4.450623779145639e-17 -0.14455369114875793 -0.249874547123909 0.38268953561782837 -0.0 1.6535321879032841e-43 1 True True
1583.886 4.802301406860352 -1.322270245557167 1.7965920607196253 -2.0452152691283167 -1.5707925001727503 3.231527328491211 -3.478634875623413e-37 -0.15563496947288513 -0.26316913962364197 0.4271681308746338 -0.0 0.0 1 True True
1583.906 4.802301406860352 -1.3254855138114472 1.7911303679095667 -2.036431928674215 -1.5708335081683558 3.2315402030944824 0.0 -0.164099782705307 -0.2791798412799835 0.4567372500896454 -0.0 0.0 1 True True
1583.926 4.802340030670166 -1.328812689786293 1.7851617972003382 -2.027125974694723 -1.5707972685443323 3.2315521240234375 0.0 -0.17643873393535614 -0.306220144033432 0.47197747230529785 -0.0 0.0 1 True True
1583.946 4.8023552894592285 -1.3325186681798478 1.7788446585284632 -2.0172063312926234 -1.570813004170553 3.231576681137085 0.0 -0.18868164718151093 -0.3230948746204376 0.5053300261497498 -0.0 0.0 1 True True
1583.966 4.802343368530273 -1.3363045316985627 1.7722986380206507 -2.006895681420797 -1.5708325544940394 3.2315196990966797 0.0 -0.19636456668376923 -0.34197309613227844 0.5268020629882812 -0.0 0.0 1 True True
1583.9859999999999 4.802379131317139 -1.3403509569219132 1.7654345671283167 -1.995932241479391 -1.570784870778219 3.2315852642059326 0.0 -0.20593737065792084 -0.35787084698677063 0.568349301815033 -0.0 0.0 1 True True
1584.0059999999999 4.8022966384887695 -1.344497711663582 1.7582958380328577 -1.9846555195250453 -1.5707529226886194 3.2315897941589355 0.0 -0.1969718486070633 -0.3501327335834503 0.5380209684371948 -0.0 0.0 1 True True
1584.0259999999998 4.802375793457031 -1.3484603029540558 1.7514351050006312 -1.974055906335348 -1.5708168188678187 3.2315728664398193 0.0 -0.18845558166503906 -0.3344947099685669 0.5301156044006348 -0.0 0.0 1 True True
1584.0459999999998 4.8022966384887695 -1.3521935504725953 1.7451170126544397 -1.9637609920897425 -1.5708168188678187 3.231597423553467 0.0 -0.1810540109872818 -0.31609487533569336 0.49148067831993103 -0.0 -5.7569984335259505e-08 1 True True
1584.066 4.802371501922607 -1.3556483101895829 1.7391765753375452 -1.9541665516295375 -1.5708048979388636 3.2315478324890137 0.0 -0.16932640969753265 -0.2949225902557373 0.46499836444854736 -0.0 -1.7093049701417712e-15 1 True True
1584.086 4.802338600158691 -1.3589288306287308 1.7334054152118128 -1.9451147518553675 -1.5707891623126429 3.231576681137085 0.0 -0.1648508757352829 -0.2800936996936798 0.4375065863132477 -0.0 -5.07508078238729e-23 1 True True
1584.106 4.802375793457031 -1.3621072483113785 1.7279933134662073 -1.936587472955221 -1.570824925099508 3.2315683364868164 0.0 -0.15303242206573486 -0.25614988803863525 0.4021659195423126 -0.0 -1.5068373381778342e-30 1 True True
1584.126 4.802384853363037 -1.3650580954602738 1.7228410879718226 -1.9286524258055628 -1.5707805792437952 3.2315521240234375 0.0 -0.14270184934139252 -0.24285392463207245 0.3818911910057068 -0.0 -4.4739342951003223e-38 1 True True
1584.146 4.802362442016602 -1.3678046774915238 1.7182567755328577 -1.9212924442686976 -1.570801083241598 3.231539011001587 0.0 -0.1345268189907074 -0.22863686084747314 0.36384817957878113 -0.0 -1.401298464324817e-45 1 True True
1584.166 4.802343368530273 -1.370303900246956 1.7140181700335901 -1.9144588909544886 -1.570813004170553 3.2315597534179688 0.0 -0.12046058475971222 -0.20151002705097198 0.33567267656326294 -0.0 -0.0 1 True True
1584.186 4.802413463592529 -1.372569517498352 1.7101815382586878 -1.9082008800902308 -1.5708373228656214 3.2315640449523926 0.0 -0.10872665047645569 -0.19090160727500916 0.30754590034484863 -0.0 -0.0 1 True True
1584.206 4.8023295402526855 -1.3746687334826966 1.7064979712115687 -1.9024812183775843 -1.5708211104022425 3.2315359115600586 0.0 -0.09948981553316116 -0.17301200330257416 0.2660641074180603 -0.0 -0.0 1 True True
1584.2259999999999 4.802350997924805 -1.3765635651401062 1.7032368818866175 -1.8972493610777796 -1.570829216633932 3.2315521240234375 0.0 -0.09011354297399521 -0.1582070142030716 0.2400577962398529 -0.0 -0.0 1 True True
1584.2459999999999 4.802350997924805 -1.3781936478665848 1.7003663221942347 -1.8926707706847132 -1.5707886854754847 3.2315640449523926 0.0 -0.08174677193164825 -0.13454996049404144 0.22174108028411865 -0.0 -5.962557114713718e-09 1 True True
1584.2659999999998 4.802404403686523 -1.3797571969083329 1.6978758017169397 -1.8887039623656214 -1.5707886854754847 3.2315359115600586 0.0 -0.06807871162891388 -0.12393705546855927 0.18069450557231903 -0.0 9.209041862412448e-11 1 True True
1584.2859999999998 4.8023552894592285 -1.3810208302787323 1.6955469290362757 -1.8852230511107386 -1.5707686583148401 3.2316014766693115 0.0 -0.05916827917098999 -0.1030120924115181 0.15768064558506012 -0.0 2.7342477895407175e-18 1 True True
1584.306 4.8023552894592285 -1.382126436834671 1.6936233679400843 -1.882397790948385 -1.5708735624896448 3.2315077781677246 0.0 -0.04949399083852768 -0.08069968223571777 0.13194264471530914 -0.0 8.118226123899742e-26 1 True True
1584.326 4.8023176193237305 -1.3829038602164765 1.6921537558185022 -1.8798991642394007 -1.5708254019366663 3.2315564155578613 0.0 -0.03640957921743393 -0.06596934795379639 0.12269314378499985 -0.0 2.4103748599191093e-33 1 True True
1584.346 4.802366733551025 -1.38351662576709 1.6910675207721155 -1.878059526483053 -1.5707967917071741 3.23154354095459 0.0 -0.026841767132282257 -0.05047395080327988 0.0716630071401596 -0.0 7.156571387153273e-41 1 True True
1584.366 4.8023552894592285 -1.3840902906707306 1.690152947102682 -1.8769461117186488 -1.5707724730121058 3.2315316200256348 0.0 -0.020771574229002 -0.033365268260240555 0.04938877373933792 -0.0 0.0 1 True True
1584.386 4.802334308624268 -1.3843818318894883 1.689756218587057 -1.8762642345824183 -1.5707886854754847 3.231539011001587 0.0 -0.007778331637382507 -0.014564919285476208 0.01984797604382038 -0.0 0.0 1 True True
1584.406 4.802364349365234 -1.3842879843762894 1.689676586781637 -1.8761879406371058 -1.570784870778219 3.231511116027832 -0.016574876382946968 0.003957767505198717 0.002164328470826149 -0.005647266283631325 -0.0 -2.034728640865069e-05 1 True True
1584.426 4.801854610443115 -1.3842923206141968 1.6897113958941858 -1.8762084446349085 -1.5707324186908167 3.2310714721679688 -0.0359385721385479 2.9674203280641743e-22 0.00018655309395398945 0.00014046984142623842 -2.6666429481236875e-13 -0.029592519626021385 1 True True
1584.446 4.800856113433838 -1.3843370240977784 1.6896517912494105 -1.876200338403219 -1.5707724730121058 3.2300820350646973 -0.061126209795475006 2.3191489584575723e-42 1.110595339651188e-12 0.0001783879561116919 -9.292394679505378e-05 -0.062118738889694214 1 True True
1584.466 4.79954195022583 -1.3843425822309037 1.689695183430807 -1.8761688671507777 -1.570857350026266 3.2284698486328125 -0.08940216898918152 0.0 -0.00013977408525533974 0.0024740665685385466 -6.12735457252711e-05 -0.09078451991081238 1 True True
1584.4859999999999 4.797351360321045 -1.3843667072108765 1.6896784941302698 -1.8761049709715785 -1.57074481645693 3.2264597415924072 -0.12081493437290192 0.0 -7.856864249333739e-05 0.0010649975156411529 -4.570922828861512e-05 -0.11414604634046555 1 True True
1584.5059999999999 4.794536590576172 -1.3842915010503312 1.6896632353412073 -1.8761569462218226 -1.5707767645465296 3.2237133979797363 -0.14901943504810333 -3.9706526877125725e-05 -0.00010947503324132413 0.0005434987833723426 -0.00011308343528071418 -0.14308349788188934 1 True True
1584.5259999999998 4.791346549987793 -1.3843176376870652 1.6896966139422815 -1.876068731347555 -1.5708048979388636 3.220498561859131 -0.17145133018493652 -1.6265297745121643e-05 -8.394547330681235e-05 0.0016923850635066628 -9.254941687686369e-05 -0.17308872938156128 1 True True
1584.5459999999998 4.787557601928711 -1.3843655300191422 1.6896589438067835 -1.8761135540404261 -1.570801083241598 3.216697931289673 -0.20296747982501984 -3.234269024687819e-05 -5.068209793535061e-05 0.000761966104619205 -7.676090899622068e-05 -0.19897913932800293 1 True True
1584.566 4.783261775970459 -1.3842346680215378 1.6896756331073206 -1.8760568104186 -1.5707886854754847 3.2123866081237793 -0.2328244149684906 -2.379243596806191e-05 -8.291317499242723e-05 0.00036784831900149584 -6.557456799782813e-05 -0.22210702300071716 1 True True
1584.586 4.778286457061768 -1.3842836928418656 1.6896665732013147 -1.876106401483053 -1.570784870778219 3.207672119140625 -0.25921347737312317 -5.8668363971752275e-19 -0.00024100730661302805 0.0002653916017152369 -5.723407957702875e-05 -0.26572656631469727 1 True True
1584.606 4.772774696350098 -1.3843536090901871 1.6897175947772425 -1.8760816059508265 -1.5707925001727503 3.2021145820617676 -0.2861686646938324 -4.585554444016423e-39 -0.0010560961673036218 0.00019389833323657513 -5.077591413282789e-05 -0.28831538558006287 1 True True
1584.626 4.766670227050781 -1.3843413603356858 1.6896351019488733 -1.8760739765562953 -1.5708168188678187 3.196002721786499 -0.31409159302711487 0.0 -0.00047885096864774823 9.971210965886712e-05 -3.069541149036681e-11 -0.31724798679351807 1 True True
1584.646 4.760181427001953 -1.3843132865479966 1.6896517912494105 -1.8760816059508265 -1.5707686583148401 3.1893773078918457 -0.33628153800964355 0.0 -0.000798175111413002 8.162356243701652e-05 -9.113744674187016e-19 -0.3393094539642334 1 True True
1584.666 4.753169059753418 -1.3842595380595704 1.6895783583270472 -1.8760978184142054 -1.5707648436175745 3.1822402477264404 -0.370769739151001 0.0 -0.00140172999817878 8.287491073133424e-05 -2.7059531422794435e-26 -0.36850103735923767 1 True True
1584.686 4.7454752922058105 -1.3843283367208024 1.6896517912494105 -1.876050134698385 -1.570784870778219 3.174626588821411 -0.3998775780200958 0.0 -0.0009592032874934375 8.38499836390838e-05 -8.034217361122322e-34 -0.39687982201576233 1 True True
1584.706 4.737106800079346 -1.3842967313579102 1.689549748097555 -1.8760935268797816 -1.5707686583148401 3.166386604309082 -0.4270833134651184 0.00025500086485408247 -0.002280972432345152 8.453473128611222e-05 -2.385430375820136e-41 -0.42646947503089905 1 True True
1584.7259999999999 4.728222846984863 -1.384250895386078 1.6895888487445276 -1.876124998132223 -1.5707724730121058 3.1574654579162598 -0.4497279226779938 0.0005771286669187248 -0.0013908384134992957 2.117108266475043e-08 -0.0 -0.44958004355430603 1 True True
1584.7459999999999 4.718972206115723 -1.3843045693686982 1.6895197073565882 -1.8760329685606898 -1.5708087126361292 3.1481573581695557 -0.4775981605052948 0.0006683834944851696 -0.0014189440989866853 6.754057540092617e-05 -0.0 -0.48124945163726807 1 True True
1584.7659999999998 4.709017753601074 -1.3843176078847428 1.689512077962057 -1.8760415516295375 -1.5707767645465296 3.138319730758667 -0.513003945350647 0.0007817118312232196 -0.0013767193304374814 8.205706399166957e-05 -0.0 -0.5148077011108398 1 True True
1584.7859999999998 4.6984124183654785 -1.384273813371994 1.6894272009478968 -1.8760696850218714 -1.5708368460284632 3.1276724338531494 -0.5382605791091919 0.0017476312350481749 -0.0018137975130230188 0.0001668755430728197 -9.157844260698766e-09 -0.5342473387718201 1 True True
1584.806 4.687564373016357 -1.38423344612632 1.6894524733172815 -1.8760258160033167 -1.5707767645465296 3.11655592918396 -0.5625479817390442 0.0009482691530138254 -0.0016118190251290798 0.00018526805797591805 -0.0001294523972319439 -0.559099018573761 1 True True
1584.826 4.675870895385742 -1.3841844511083146 1.689437214528219 -1.876061578790182 -1.5707724730121058 3.105102300643921 -0.5934017300605774 0.001104070688597858 -0.0012078970903530717 0.0006167536485008895 -6.427600118819043e-11 -0.5947548747062683 1 True True
1584.846 4.66360330581665 -1.3841973108104249 1.689383331929342 -1.8760653934874476 -1.570796314870016 3.092883348464966 -0.6237149238586426 0.001760949264280498 -0.0013521481305360794 0.0003889982181135565 -1.9084125862540073e-18 -0.6155295968055725 1 True True
1584.866 4.651027202606201 -1.3841364693692704 1.689343277608053 -1.8760343990721644 -1.5708211104022425 3.0802903175354004 -0.645079493522644 0.000743669574148953 -0.000940599013119936 0.00026640683063305914 -5.666249215246532e-26 -0.6495119333267212 1 True True
1584.886 4.637696266174316 -1.3841788333705445 1.6893118063556116 -1.8760301075377406 -1.5707972685443323 3.066931962966919 -0.6758509874343872 0.0024664041120558977 -0.0019928726833313704 0.00036287427064962685 -1.682359984386173e-33 -0.6794006824493408 1 True True
1584.906 4.623798847198486 -1.3841300469687958 1.6893084684955042 -1.8760301075377406 -1.5708611647235315 3.052973508834839 -0.7056839466094971 0.0016143196262419224 -0.0018327601719647646 0.0002631225506775081 -0.0008786389953456819 -0.6996222138404846 1 True True
1584.926 4.609541893005371 -1.3840510857156296 1.689284626637594 -1.8759814701476039 -1.5707405249225062 3.038640260696411 -0.7280448079109192 0.0005090086488053203 -0.0012486481573432684 0.0005063048447482288 0.0012551856925711036 -0.7399545907974243 1 True True
1584.946 4.594456672668457 -1.3840577167323609 1.6892254988299769 -1.8759690723814906 -1.5708168188678187 3.0236356258392334 -0.7657990455627441 0.0026484436821192503 -0.0023387514520436525 0.0003427337796892971 -0.0020046166609972715 -0.7525482177734375 1 True True
1584.966 4.578961372375488 -1.3840162468007584 1.6892297903644007 -1.8759814701476039 -1.570784870778219 3.008369207382202 -0.7826662659645081 0.001080557587556541 -0.0011837014462798834 0.00026890874141827226 0.0002850851451512426 -0.7977849245071411 1 True True
1584.9859999999999 4.563011646270752 -1.3839762669852753 1.6891887823687952 -1.8759619198241175 -1.5707605520831507 2.992036819458008 -0.8210014700889587 0.003088529221713543 -0.002313785022124648 0.0005863483529537916 0.0001534681796329096 -0.8150385618209839 1 True True
1585.0059999999999 4.546262264251709 -1.3839403104833146 1.689112965260641 -1.8759662113585414 -1.5707772413836878 2.975560426712036 -0.843151330947876 0.0013563097454607487 -0.0010814714478328824 0.0004072570300195366 0.00011581627040868625 -0.8514382243156433 1 True True
1585.0259999999998 4.529046535491943 -1.3838756394437333 1.6890957991229456 -1.8759814701476039 -1.570813004170553 2.958331823348999 -0.8760782480239868 0.002505723387002945 -0.002766011981293559 0.0004004288057330996 -8.313802391057834e-05 -0.8652442693710327 1 True True
1585.0459999999998 4.511369705200195 -1.3839137268117447 1.6890767256366175 -1.8759619198241175 -1.5707443396197718 2.9405906200408936 -0.8965673446655273 0.0014762596692889929 -0.0019051028648391366 0.0015799393877387047 -4.888611115916319e-08 -0.9032261967658997 1 True True
1585.066 4.493089199066162 -1.3837832373431702 1.688958470021383 -1.875970026055807 -1.5707886854754847 2.922346591949463 -0.9328896403312683 0.0020396120380610228 -0.0022358400747179985 0.0005581105360761285 -1.4514725879205353e-15 -0.9218769669532776 1 True True
1585.086 4.474153995513916 -1.3838330668262024 1.6889899412738245 -1.875918527642721 -1.5707805792437952 2.903261423110962 -0.952280580997467 0.0018021120922639966 -0.0021560671739280224 0.00030597427394241095 -6.632165604969487e-05 -0.9518479704856873 1 True True
1585.106 4.454772472381592 -1.3837437641671677 1.6889289061175745 -1.875918527642721 -1.570756737385885 2.8841164112091064 -0.9812682271003723 0.001123699708841741 -0.0021650821436196566 0.0003981024492532015 -3.872289744322188e-05 -0.9926908016204834 1 True True
1585.126 4.434755802154541 -1.3837412905744095 1.6888731161700647 -1.8759380779662074 -1.5708168188678187 2.8638923168182373 -1.0157548189163208 0.002051436109468341 -0.0024029568303376436 0.0003910110390279442 -6.167733424683464e-12 -1.0044147968292236 1 True True
1585.146 4.414218902587891 -1.3837293845466156 1.6888373533831995 -1.875962873498434 -1.5708044211017054 2.8434040546417236 -1.034613013267517 0.0026998829562216997 -0.0033537556882947683 0.0003912475367542356 -1.8312559962990224e-19 -1.0415151119232178 1 True True
1585.166 4.393340587615967 -1.3836195033839722 1.6888387838946741 -1.8759662113585414 -1.5708211104022425 2.822636842727661 -1.0450890064239502 0.0014004174154251814 -0.0017132661305367947 0.0006410761270672083 -5.437164085407548e-27 -1.0502610206604004 1 True True
1585.186 4.372436046600342 -1.3836540442756196 1.6887205282794397 -1.875850339929098 -1.5707967917071741 2.8015379905700684 -1.0494295358657837 0.0027827611193060875 -0.0035649065393954515 0.0006227282574400306 -1.6143430113883404e-34 -1.0433647632598877 1 True True
1585.206 4.351484298706055 -1.3835726243308564 1.6886890570269983 -1.8759099445738734 -1.5707805792437952 2.78057861328125 -1.0461056232452393 0.002195623004809022 -0.003085435600951314 0.0007383398478850722 6.528010271722451e-05 -1.0505657196044922 1 True True
1585.2259999999999 4.330477714538574 -1.3835407060435791 1.6886757055865687 -1.8758789501585902 -1.5708168188678187 2.759793519973755 -1.0469110012054443 0.0017913546180352569 -0.002002099994570017 0.0003747051232494414 1.862985987699517e-09 -1.0497229099273682 1 True True
1585.2459999999999 4.309598922729492 -1.3835219603827973 1.6885979811297815 -1.8759304485716761 -1.5708211104022425 2.738715648651123 -1.0512914657592773 0.0019319684943184257 -0.002999902470037341 0.00037582608638331294 5.531371976265367e-17 -1.0423554182052612 1 True True
1585.2659999999998 4.2886223793029785 -1.3835090112737198 1.688528839741842 -1.8758751354613246 -1.57074481645693 2.7177064418792725 -1.0423732995986938 0.001794429961591959 -0.0028417306020855904 0.00044485682155936956 1.6423139385767464e-24 -1.0465364456176758 1 True True
1585.2859999999998 4.267643451690674 -1.3834283661893387 1.688500706349508 -1.8758985004820765 -1.5708449522601526 2.6970157623291016 -1.0452642440795898 0.0015846373280510306 -0.0017416185000911355 0.00040169834392145276 4.876176555999794e-32 -1.0539761781692505 1 True True
1585.306 4.246724605560303 -1.3834337455085297 1.688458267842428 -1.8758746586241664 -1.570820156727926 2.6758484840393066 -1.0496872663497925 0.002122648758813739 -0.0024257313925772905 0.0005101656424812973 1.4477809356849356e-39 -1.0443190336227417 1 True True
1585.326 4.225696086883545 -1.3834508669427414 1.6883943716632288 -1.8758870563902796 -1.570813004170553 2.6548142433166504 -1.0431983470916748 0.0019367981003597379 -0.003235819051042199 0.0007137394859455526 0.0 -1.0492509603500366 1 True True
1585.346 4.204864501953125 -1.3833651852658768 1.688369099293844 -1.875838419000143 -1.5707686583148401 2.6341912746429443 -1.0474827289581299 0.0014911850448697805 -0.0017577740363776684 0.00042480253614485264 9.162226342596114e-05 -1.0504399538040161 1 True True
