Andreas691667/Digital_Twin_UR/src/controller_monitor/test_results/E3_robot_output.csv
timestamp actual_q_0 actual_q_1 actual_q_2 actual_q_3 actual_q_4 actual_q_5 actual_qd_0 actual_qd_1 actual_qd_2 actual_qd_3 actual_qd_4 actual_qd_5 safety_status output_bit_register_65 output_bit_register_66
1827.376 3.7120413780212402 -0.8254496616176148 0.8429811636554163 -1.5882889233031214 -1.5708087126361292 2.141270875930786 0.0 0.0 0.0 -0.0 0.0 0.0 1 False False
1827.396 3.712083339691162 -0.8255366843989869 0.8429649511920374 -1.5883370838561 -1.5707648436175745 2.141291618347168 0.0 0.0 0.0 -0.0 0.0 0.0 1 False False
1827.416 3.712066888809204 -0.8254949611476441 0.8429649511920374 -1.5883294544615687 -1.5708168188678187 2.141312837600708 0.0 0.0 0.0 -0.0 0.0 0.0 1 False False
1827.436 3.712087631225586 -0.8254542511752625 0.8429721037494105 -1.588280817071432 -1.5707686583148401 2.1413002014160156 0.0 0.0 0.0 -0.0 0.0 0.0 1 False False
1827.456 3.7120413780212402 -0.8254615825465699 0.8429630438434046 -1.588252683679098 -1.5707967917071741 2.1413214206695557 0.0 0.0 0.0 -0.0 0.0 0.0 1 False False
1827.4759999999999 3.712090492248535 -0.8255083721927186 0.8429563681231897 -1.5883094273009242 -1.5707767645465296 2.1412384510040283 0.0 0.0 0.0 -0.0 0.0 0.0 1 False False
1827.4959999999999 3.7120203971862793 -0.8254587215236207 0.8429349104510706 -1.5883218250670375 -1.570801083241598 2.1412136554718018 0.0 0.0 0.0 -0.0 0.0 0.0 1 False False
1827.5159999999998 3.7120413780212402 -0.825527624492981 0.8430007139789026 -1.5882207355894984 -1.5707843939410608 2.141263484954834 0.0 0.0 0.0 -0.0 0.0 0.0 1 False False
1827.5359999999998 3.712087631225586 -0.8254949611476441 0.8429525534259241 -1.588269372979635 -1.570772949849264 2.1413257122039795 0.0 0.0 0.0 -0.0 0.0 0.0 1 False False
1827.5559999999998 3.7120413780212402 -0.8254452508739014 0.8430097738849085 -1.5883051357665003 -1.570784870778219 2.141279697418213 0.0 0.0 0.0 -0.0 0.0 0.0 1 False False
1827.576 3.7120413780212402 -0.825466052894928 0.8429563681231897 -1.5882817707457484 -1.5707686583148401 2.141291618347168 0.0 0.0 0.0 -0.0 0.0 0.0 1 False False
1827.596 3.712041139602661 -0.8254543107799073 0.8429978529559534 -1.5882889233031214 -1.5707724730121058 2.1412384510040283 0.0 0.0 0.0 -0.0 0.0 0.0 1 False False
1827.616 3.712149143218994 -0.8255112928203125 0.8429845015155237 -1.5883094273009242 -1.5707886854754847 2.1412546634674072 0.0 0.0 0.0 -0.0 0.0 0.0 1 False False
1827.636 3.712062358856201 -0.8254949611476441 0.8429301420794886 -1.5882846317686976 -1.570784870778219 2.14132022857666 0.0 0.0 0.0 -0.0 0.0 0.0 1 False False
1827.656 3.712045669555664 -0.825466052894928 0.8429763952838343 -1.5882932148375453 -1.570784870778219 2.141279697418213 0.0 0.0 0.0 -0.0 0.0 0.0 1 False False
1827.676 3.712045669555664 -0.8255320352366944 0.8429845015155237 -1.5883251629271449 -1.570784870778219 2.1412925720214844 0.0 0.0 0.0 -0.0 0.0 0.0 1 False False
1827.696 3.712066888809204 -0.825470582847931 0.8429515997516077 -1.5882607899107875 -1.570784870778219 2.1412429809570312 0.0 0.0 0.0 -0.0 0.0 0.0 1 False False
1827.716 3.7120323181152344 -0.8254869741252442 0.8429563681231897 -1.5882731876769007 -1.5708211104022425 2.141270875930786 0.0 0.0 0.0 -0.0 0.0 0.0 1 False False
1827.7359999999999 3.712095022201538 -0.8254869741252442 0.8430007139789026 -1.5883094273009242 -1.5707967917071741 2.141317129135132 0.0 0.0 0.0 -0.0 0.0 0.0 1 False False
1827.7559999999999 3.7120862007141113 -0.825487033729889 0.8429935614215296 -1.588252683679098 -1.570772949849264 2.141275405883789 0.0 0.0 0.0 -0.0 0.0 0.0 1 False False
1827.7759999999998 3.712050199508667 -0.8255039614490052 0.8429763952838343 -1.5883170566954554 -1.570801083241598 2.1412546634674072 0.0 0.0 0.0 -0.0 0.0 0.0 1 False False
1827.7959999999998 3.7120490074157715 -0.8255039614490052 0.8429811636554163 -1.5882774792113246 -1.570853058491842 2.14125919342041 0.0 0.0 0.0 -0.0 0.0 0.0 1 False False
1827.816 3.712116003036499 -0.825473503475525 0.8429563681231897 -1.588320871392721 -1.5707967917071741 2.141270875930786 0.0 0.0 0.0 -0.0 0.0 0.0 1 False False
1827.836 3.712062358856201 -0.8255039614490052 0.8429673353778284 -1.5883170566954554 -1.5707967917071741 2.1413002014160156 0.0 0.0 0.0 -0.0 0.0 0.0 1 False False
1827.856 3.7120907306671143 -0.8254423898509522 0.8429430166827601 -1.5883127651610316 -1.5707805792437952 2.141317129135132 0.0 0.0 0.0 -0.0 0.0 0.0 1 False False
1827.876 3.712078809738159 -0.8254869741252442 0.8429892698871058 -1.5882774792113246 -1.5707805792437952 2.141267776489258 0.0 0.0 0.0 -0.0 0.0 0.0 1 False False
1827.896 3.712111473083496 -0.8254587811282654 0.8430174032794397 -1.5883094273009242 -1.5707724730121058 2.141317129135132 0.0 0.0 0.0 -0.0 0.0 0.0 1 False False
1827.916 3.712036609649658 -0.8254795235446473 0.8430383841144007 -1.5882889233031214 -1.5707891623126429 2.141270875930786 0.0 0.0 0.0 -0.0 0.0 0.0 1 False False
1827.936 3.7120323181152344 -0.8255202931216736 0.8429935614215296 -1.5883332691588343 -1.5707648436175745 2.141317129135132 0.0 0.0 0.0 -0.0 0.0 0.0 1 False False
1827.956 3.712062358856201 -0.8254993718913575 0.8429887930499476 -1.5882932148375453 -1.5708168188678187 2.1412546634674072 0.0 0.0 0.0 -0.0 0.0 0.0 1 False False
1827.9759999999999 3.712045669555664 -0.8254333299449463 0.8429673353778284 -1.588297029534811 -1.570829216633932 2.141291618347168 0.0 0.0 0.0 -0.0 0.0 0.0 1 False False
1827.9959999999999 3.712036609649658 -0.8254779738238831 0.8429392019854944 -1.588320871392721 -1.570801083241598 2.141317129135132 0.0 0.0 0.0 -0.0 0.0 0.0 1 False False
1828.0159999999998 3.7121071815490723 -0.8254543107799073 0.8429763952838343 -1.5882731876769007 -1.5708368460284632 2.141239643096924 0.0 0.0 0.0 -0.0 0.0 0.0 1 False False
1828.0359999999998 3.7120490074157715 -0.8254905504039307 0.8429392019854944 -1.5882607899107875 -1.5707925001727503 2.1412546634674072 0.0 0.0 0.0 -0.0 0.0 0.0 1 False False
1828.0559999999998 3.712062358856201 -0.8254949611476441 0.8429845015155237 -1.5882932148375453 -1.570801083241598 2.141279697418213 0.0 0.0 0.0 -0.0 0.0 0.0 1 False False
1828.076 3.7120606899261475 -0.8255039614490052 0.8429473082171839 -1.5882650814452113 -1.5708211104022425 2.1412601470947266 0.0 0.0 0.0 -0.0 0.0 0.0 1 False False
1828.096 3.7120862007141113 -0.8255573672107239 0.8429425398456019 -1.5883046589293421 -1.570784870778219 2.1412720680236816 0.0 0.0 0.0 -0.0 0.0 0.0 1 False False
1828.116 3.7120652198791504 -0.825495795612671 0.8429845015155237 -1.5882650814452113 -1.5708087126361292 2.141312837600708 0.0 0.0 0.0 -0.0 0.0 0.0 1 False False
1828.136 3.7121026515960693 -0.8255143922618409 0.8429802099810999 -1.5883170566954554 -1.5708168188678187 2.1412839889526367 0.0 0.0 0.0 -0.0 0.0 0.0 1 False False
1828.156 3.7120862007141113 -0.825466052894928 0.8430007139789026 -1.5883375606932582 -1.5707967917071741 2.1412503719329834 0.0 0.0 0.0 -0.0 0.0 0.0 1 False False
1828.176 3.7120158672332764 -0.8255157035640259 0.8429606596576136 -1.5882932148375453 -1.5707767645465296 2.141267776489258 0.0 0.0 0.0 -0.0 0.0 0.0 1 False False
1828.196 3.7120816707611084 -0.8254780334285279 0.8430264631854456 -1.5882607899107875 -1.5707805792437952 2.141267776489258 0.0 0.0 0.0 -0.0 0.0 0.0 1 False False
1828.216 3.7120532989501953 -0.8254949611476441 0.8429563681231897 -1.588252683679098 -1.5707243124591272 2.14127516746521 0.0 0.0 0.0 -0.0 0.0 0.0 1 False False
1828.2359999999999 3.7120277881622314 -0.8254691523364563 0.8429439703570765 -1.588285585443014 -1.5707772413836878 2.141291618347168 0.0 0.0 0.0 -0.0 0.0 0.0 1 False False
1828.2559999999999 3.7121310234069824 -0.8254993718913575 0.8429845015155237 -1.5882488689818324 -1.570813004170553 2.1413004398345947 0.0 0.0 0.0 -0.0 0.0 0.0 1 False False
1828.2759999999998 3.7120907306671143 -0.8254528802684327 0.8429935614215296 -1.5882650814452113 -1.5708087126361292 2.141267776489258 0.0 0.0 0.0 -0.0 0.0 0.0 1 False False
1828.2959999999998 3.7120907306671143 -0.8254869145205994 0.8429306189166468 -1.5882607899107875 -1.5707572142230433 2.141284227371216 0.0 0.0 0.0 -0.0 0.0 0.0 1 False False
1828.316 3.7120742797851562 -0.8254706424525757 0.8429721037494105 -1.5883013210692347 -1.5707967917071741 2.1413004398345947 0.0 0.0 0.0 -0.0 0.0 0.0 1 False False
1828.336 3.712062358856201 -0.8255156439593812 0.8429563681231897 -1.5882898769774378 -1.5708206335650843 2.141263246536255 0.0 0.0 0.0 -0.0 0.0 0.0 1 False False
1828.356 3.7120697498321533 -0.8255045574954529 0.8430126349078577 -1.5883170566954554 -1.5708006064044397 2.141235113143921 0.0 0.0 0.0 -0.0 0.0 0.0 1 False False
1828.376 3.7120158672332764 -0.8255039614490052 0.8429802099810999 -1.5882817707457484 -1.5707767645465296 2.141266107559204 0.0 0.0 0.0 -0.0 0.0 0.0 1 False False
1828.396 3.7121071815490723 -0.8255246442607422 0.8429234663592737 -1.5883013210692347 -1.5707810560809534 2.141226291656494 0.0 0.0 0.0 -0.0 0.0 0.0 1 False False
1828.416 3.7120697498321533 -0.825454370384552 0.8429806868182581 -1.5882889233031214 -1.5707691351519983 2.1413204669952393 0.0 0.0 0.0 -0.0 0.0 0.0 1 False False
1828.436 3.7120862007141113 -0.8254913252643128 0.8429515997516077 -1.5882655582823695 -1.5707810560809534 2.1412572860717773 0.0 0.0 0.0 -0.0 0.0 0.0 1 False False
1828.456 3.712116003036499 -0.8255069416812439 0.8429515997516077 -1.588273664514059 -1.5707691351519983 2.141267776489258 0.0 0.0 0.0 -0.0 0.0 0.0 1 False False
1828.4759999999999 3.7120816707611084 -0.825510100727417 0.8430140654193323 -1.5883251629271449 -1.5707929770099085 2.141270637512207 0.0 0.0 0.0 -0.0 0.0 0.0 1 False False
1828.4959999999999 3.7120697498321533 -0.8255275648883362 0.8429473082171839 -1.5882331333556117 -1.5708006064044397 2.141254186630249 0.0 0.0 0.0 -0.0 0.0 0.0 1 False False
1828.5159999999998 3.712078809738159 -0.8254957360080262 0.8430021444903772 -1.5883013210692347 -1.5707967917071741 2.141270637512207 0.0 0.0 0.0 -0.0 0.0 0.0 1 False False
1828.5359999999998 3.7120816707611084 -0.8255558174899598 0.8429606596576136 -1.5882488689818324 -1.5708006064044397 2.14127516746521 0.0 0.0 0.0 -0.0 0.0 0.0 1 False False
1828.5559999999998 3.712062358856201 -0.8255039018443604 0.8429606596576136 -1.5882731876769007 -1.5707886854754847 2.141254186630249 0.0 0.0 0.0 -0.0 0.0 0.0 1 False False
1828.576 3.712045669555664 -0.8254950207522889 0.8429587523089808 -1.5883051357665003 -1.5707929770099085 2.14127516746521 0.0 0.0 0.0 -0.0 0.0 0.0 1 False False
1828.596 3.7119946479797363 -0.825527624492981 0.8429721037494105 -1.5882774792113246 -1.5708444754229944 2.1412994861602783 0.0 0.0 0.0 -0.0 0.0 0.0 1 False False
1828.616 3.712036609649658 -0.8254913252643128 0.8429930845843714 -1.5882727108397425 -1.5708168188678187 2.141308546066284 0.0 0.0 0.0 -0.0 0.0 0.0 1 False False
1828.636 3.712041139602661 -0.8255069416812439 0.8429721037494105 -1.5882612667479457 -1.5707810560809534 2.141338348388672 0.0 0.0 0.0 -0.0 0.0 0.0 1 False False
1828.656 3.7120862007141113 -0.8254906696132203 0.842992130910055 -1.5882417164244593 -1.5707648436175745 2.1412930488586426 0.0 0.0 0.0 -0.0 0.0 0.0 1 False False
1828.676 3.7120578289031982 -0.8254454892924805 0.8430169264422815 -1.5882770023741664 -1.5707810560809534 2.14127516746521 0.0 0.0 0.0 -0.0 0.0 0.0 1 False False
1828.696 3.712045669555664 -0.8255245846560975 0.8429515997516077 -1.588229318658346 -1.5707886854754847 2.141247034072876 0.0 0.0 0.0 -0.0 0.0 0.0 1 False False
1828.716 3.7120907306671143 -0.8254780930331727 0.8429887930499476 -1.5883246860899867 -1.5708125273333948 2.141284227371216 0.0 0.0 0.0 -0.0 0.0 0.0 1 False False
1828.7359999999999 3.712062358856201 -0.825473741894104 0.8429978529559534 -1.5882655582823695 -1.5707929770099085 2.1413087844848633 0.0 0.0 0.0 -0.0 0.0 0.0 1 False False
1828.7559999999999 3.7120578289031982 -0.8254707020572205 0.8429845015155237 -1.5882889233031214 -1.5707810560809534 2.141267776489258 0.0 0.0 0.0 -0.0 0.0 0.0 1 False False
1828.7759999999998 3.712078809738159 -0.825454370384552 0.8429759184466761 -1.588273664514059 -1.57084829012026 2.141267776489258 0.0 0.0 0.0 -0.0 0.0 0.0 1 False False
1828.7959999999998 3.712095260620117 -0.825508252983429 0.8430007139789026 -1.588320871392721 -1.570772949849264 2.141249656677246 0.0 0.0 0.0 -0.0 0.0 0.0 1 False False
1828.816 3.712045669555664 -0.8254794043353577 0.8430050055133265 -1.5883289776244105 -1.5707810560809534 2.1413040161132812 0.0 0.0 0.0 -0.0 0.0 0.0 1 False False
1828.836 3.712062358856201 -0.8255112928203125 0.8429845015155237 -1.5883094273009242 -1.5707452932940882 2.141279697418213 0.0 0.0 0.0 -0.0 0.0 0.0 1 False False
1828.856 3.7120249271392822 -0.825461820965149 0.8429635206805628 -1.5882612667479457 -1.570784870778219 2.141249656677246 0.0 0.0 0.0 -0.0 0.0 0.0 1 False False
1828.876 3.7120862007141113 -0.8255407375148316 0.8429887930499476 -1.588273664514059 -1.5707967917071741 2.14123797416687 0.0 0.0 0.0 -0.0 0.0 0.0 1 False False
1828.896 3.7120654582977295 -0.8255526584437867 0.8429721037494105 -1.5883165798582972 -1.5707767645465296 2.141308546066284 0.0 0.0 0.0 -0.0 0.0 0.0 1 False False
1828.916 3.7121083736419678 -0.8254820269397278 0.8429835478412073 -1.5883051357665003 -1.5708206335650843 2.141218662261963 0.0 0.0 0.0 -0.0 0.0 0.0 1 False False
1828.936 3.712095022201538 -0.825536386375763 0.8429353872882288 -1.5883008442320765 -1.570784870778219 2.141296148300171 0.0 0.0 0.0 -0.0 0.0 0.0 1 False False
1828.956 3.712071180343628 -0.8254863780787964 0.8429887930499476 -1.588308950463766 -1.5708163420306605 2.141336679458618 0.0 0.0 0.0 -0.0 0.0 0.0 1 False False
1828.9759999999999 3.712038278579712 -0.8255275648883362 0.8429225126849573 -1.5882569752135218 -1.5708211104022425 2.141284227371216 0.0 0.0 0.0 -0.0 0.0 0.0 1 False False
1828.9959999999999 3.7120580673217773 -0.8255039018443604 0.8430126349078577 -1.5882932148375453 -1.5707529226886194 2.14131760597229 0.0 0.0 0.0 -0.0 0.0 0.0 1 False False
1829.0159999999998 3.7120492458343506 -0.8255438965610047 0.8430050055133265 -1.5882851086058558 -1.570801083241598 2.1413004398345947 0.0 0.0 0.0 -0.0 0.0 0.0 1 False False
1829.0359999999998 3.7120535373687744 -0.8254956764033814 0.8430374304400843 -1.5883170566954554 -1.5707891623126429 2.141284227371216 0.0 0.0 0.0 -0.0 0.0 0.0 1 False False
1829.0559999999998 3.712050199508667 -0.8254544895938416 0.8429396788226526 -1.5882412395873011 -1.5707805792437952 2.1412513256073 0.0 0.0 0.0 -0.0 0.0 0.0 1 False False
1829.076 3.7120413780212402 -0.8255026501468201 0.8429434935199183 -1.5882932148375453 -1.5707767645465296 2.141279697418213 0.0 0.0 0.0 -0.0 0.0 0.0 1 False False
1829.096 3.712062358856201 -0.8254207533648987 0.8430092970477503 -1.588269372979635 -1.5707648436175745 2.141279697418213 0.0 0.0 0.0 -0.0 0.0 0.0 1 False False
1829.116 3.7120535373687744 -0.8255525392344971 0.8430007139789026 -1.5882731876769007 -1.5708168188678187 2.141267776489258 0.0 0.0 0.0 -0.0 0.0 0.0 1 False False
1829.136 3.712062358856201 -0.8255319160274048 0.8429802099810999 -1.5883013210692347 -1.5707724730121058 2.141254186630249 0.0 0.0 0.0 -0.0 0.0 0.0 1 False False
1829.156 3.7120535373687744 -0.8254956167987366 0.8429520765887659 -1.5882650814452113 -1.5707805792437952 2.141279697418213 0.0 0.0 0.0 -0.0 0.0 0.0 1 False False
1829.176 3.7120654582977295 -0.825482503776886 0.8429930845843714 -1.5883013210692347 -1.5707724730121058 2.141258955001831 0.0 0.0 0.0 -0.0 0.0 0.0 1 False False
1829.196 3.7120492458343506 -0.825482503776886 0.8429520765887659 -1.588280817071432 -1.5708006064044397 2.141218662261963 0.0 0.0 0.0 -0.0 0.0 0.0 1 False False
1829.216 3.7120370864868164 -0.8255363267711182 0.8429845015155237 -1.5882569752135218 -1.5707891623126429 2.1413004398345947 0.0 0.0 0.0 -0.0 0.0 0.0 1 False False
1829.2359999999999 3.712111234664917 -0.8254956167987366 0.8429930845843714 -1.5883170566954554 -1.5707724730121058 2.141258955001831 0.0 0.0 0.0 -0.0 0.0 0.0 1 False False
1829.2559999999999 3.7120862007141113 -0.8254630726626893 0.842931095753805 -1.5882498226561488 -1.5707405249225062 2.141267776489258 0.0 0.0 0.0 -0.0 0.0 0.0 1 False False
1829.2759999999998 3.712090492248535 -0.8254382771304627 0.8429887930499476 -1.5883013210692347 -1.5708168188678187 2.1413004398345947 0.0 0.0 0.0 -0.0 0.0 0.0 1 False False
1829.2959999999998 3.7120535373687744 -0.8254869741252442 0.8429678122149866 -1.5883251629271449 -1.5708048979388636 2.141249656677246 0.0 0.0 0.0 -0.0 0.0 0.0 1 False False
1829.3159999999998 3.712083101272583 -0.8254328531077881 0.8430083433734339 -1.5883013210692347 -1.570784870778219 2.1412723064422607 0.0 0.0 0.0 -0.0 0.0 0.0 1 False False
1829.336 3.7120819091796875 -0.82551463068042 0.8429520765887659 -1.5883251629271449 -1.5707686583148401 2.141270637512207 0.0 0.0 0.0 -0.0 0.0 0.0 1 False False
1829.356 3.7120773792266846 -0.8254782122424622 0.8429606596576136 -1.5882774792113246 -1.570784870778219 2.14131760597229 0.0 0.0 0.0 -0.0 0.0 0.0 1 False False
1829.376 3.7120819091796875 -0.8254869741252442 0.8430126349078577 -1.5883056126036585 -1.5707648436175745 2.1412994861602783 0.0 0.0 0.0 -0.0 0.0 0.0 1 False False
1829.396 3.7120580673217773 -0.8254619401744385 0.8430092970477503 -1.588252683679098 -1.5708044211017054 2.1413004398345947 0.0 0.0 0.0 -0.0 0.0 0.0 1 False False
1829.416 3.7120742797851562 -0.8254984778216858 0.8430331389056605 -1.588320871392721 -1.5707648436175745 2.141263246536255 0.0 0.0 0.0 -0.0 0.0 0.0 1 False False
1829.436 3.7120654582977295 -0.8254457277110596 0.8429763952838343 -1.5882731876769007 -1.5708091894732874 2.141279697418213 0.0 0.0 0.0 -0.0 0.0 0.0 1 False False
1829.456 3.7120819091796875 -0.8255123657039185 0.8430374304400843 -1.588313718835348 -1.570784870778219 2.141270637512207 0.0 0.0 0.0 -0.0 0.0 0.0 1 False False
1829.4759999999999 3.7121353149414062 -0.8254707616618653 0.8429239431964319 -1.5882402859129847 -1.5707529226886194 2.1413004398345947 0.0 0.0 0.0 -0.0 0.0 0.0 1 False False
1829.4959999999999 3.7120699882507324 -0.8254662913135071 0.8429802099810999 -1.5882607899107875 -1.5707886854754847 2.1412951946258545 0.0 0.0 0.0 -0.0 0.0 0.0 1 False False
1829.5159999999998 3.7120862007141113 -0.8254338663867493 0.8429678122149866 -1.5882607899107875 -1.570784870778219 2.141284227371216 0.0 0.0 0.0 -0.0 0.0 0.0 1 False False
1829.5359999999998 3.712090492248535 -0.8254950803569336 0.8429635206805628 -1.5882817707457484 -1.570829216633932 2.141291618347168 0.0 0.0 0.0 -0.0 0.0 0.0 1 False False
1829.5559999999998 3.712111234664917 -0.8254836362651368 0.8429678122149866 -1.5883056126036585 -1.5708048979388636 2.141284227371216 0.0 0.0 0.0 -0.0 0.0 0.0 1 False False
1829.576 3.7120699882507324 -0.8254793447307129 0.8429930845843714 -1.5882774792113246 -1.5707891623126429 2.141284227371216 0.0 0.0 0.0 -0.0 0.0 0.0 1 False False
1829.596 3.7120416164398193 -0.8255285185626526 0.8430050055133265 -1.5883094273009242 -1.5707891623126429 2.141279697418213 0.0 0.0 0.0 -0.0 0.0 0.0 1 False False
1829.616 3.7120862007141113 -0.825487033729889 0.8429563681231897 -1.5882932148375453 -1.5708006064044397 2.1412887573242188 0.0 0.0 0.0 -0.0 0.0 0.0 1 False False
1829.636 3.712062358856201 -0.825491265659668 0.8430007139789026 -1.5882774792113246 -1.5707686583148401 2.141296148300171 0.0 0.0 0.0 -0.0 0.0 0.0 1 False False
1829.656 3.712094783782959 -0.8255038422397156 0.8429678122149866 -1.5883013210692347 -1.5707529226886194 2.141291618347168 0.0 0.0 0.0 -0.0 0.0 0.0 1 False False
1829.676 3.712095022201538 -0.8255243462375184 0.8429678122149866 -1.5883251629271449 -1.5708449522601526 2.141287088394165 0.0 0.0 0.0 -0.0 0.0 0.0 1 False False
1829.696 3.7120699882507324 -0.8254836362651368 0.8429887930499476 -1.5882932148375453 -1.5708091894732874 2.141313076019287 0.0 0.0 0.0 -0.0 0.0 0.0 1 False False
1829.716 3.7120656967163086 -0.8254869741252442 0.8429845015155237 -1.5882488689818324 -1.5708373228656214 2.141267776489258 0.0 0.0 0.0 -0.0 0.0 0.0 1 False False
1829.7559999999999 3.7121310234069824 -0.8254588407329102 0.8429678122149866 -1.5882607899107875 -1.5707281271563929 2.1413204669952393 0.0 0.0 0.0 -0.0 0.0 0.0 1 False False
1829.7759999999998 3.7120862007141113 -0.8254459065249939 0.8429306189166468 -1.5882731876769007 -1.5708168188678187 2.141254186630249 0.0 0.0 0.0 -0.0 0.0 0.0 1 False False
1829.7959999999998 3.712118625640869 -0.8255123657039185 0.8429563681231897 -1.5882650814452113 -1.5707686583148401 2.141267776489258 0.0 0.0 0.0 -0.0 0.0 0.0 1 False False
1829.8159999999998 3.7120654582977295 -0.825478271847107 0.8429935614215296 -1.5883056126036585 -1.5708168188678187 2.1412439346313477 0.0 0.0 0.0 -0.0 0.0 0.0 1 False False
1829.836 3.712090492248535 -0.8254792851260682 0.8430097738849085 -1.5882650814452113 -1.570829216633932 2.141291618347168 0.0 0.0 0.0 -0.0 0.0 0.0 1 False False
1829.856 3.7120699882507324 -0.8254546088031312 0.8429678122149866 -1.5883056126036585 -1.5708087126361292 2.141230583190918 0.0 0.0 0.0 -0.0 0.0 0.0 1 False False
1829.876 3.7120416164398193 -0.8254620593837281 0.8429673353778284 -1.5882774792113246 -1.5708168188678187 2.141267776489258 0.0 0.0 0.0 -0.0 0.0 0.0 1 False False
1829.896 3.712094783782959 -0.8254783314517518 0.8430007139789026 -1.5883056126036585 -1.570784870778219 2.141267776489258 0.0 0.0 0.0 -0.0 0.0 0.0 1 False False
1829.916 3.712090492248535 -0.8255208295634766 0.8429763952838343 -1.588292738000387 -1.570813004170553 2.141321897506714 0.0 0.0 0.0 -0.0 0.0 0.0 1 False False
1829.936 3.7120819091796875 -0.8254782122424622 0.8430054823504847 -1.5883056126036585 -1.5708044211017054 2.141226291656494 0.0 0.0 0.0 -0.0 0.0 0.0 1 False False
1829.956 3.7120611667633057 -0.8254950803569336 0.8429473082171839 -1.5883056126036585 -1.570784870778219 2.1413040161132812 0.0 0.0 0.0 -0.0 0.0 0.0 1 False False
1829.9759999999999 3.712094783782959 -0.8255436581424256 0.8429606596576136 -1.5882731876769007 -1.5707925001727503 2.141296148300171 0.0 0.0 0.0 -0.0 0.0 0.0 1 False False
1829.9959999999999 3.7120699882507324 -0.8254954975894471 0.8429721037494105 -1.5882846317686976 -1.5708087126361292 2.1412839889526367 0.0 0.0 0.0 -0.0 0.0 0.0 1 False False
1830.0159999999998 3.7121036052703857 -0.8254707616618653 0.8429191748248499 -1.588252683679098 -1.5708048979388636 2.1412558555603027 0.0 0.0 0.0 -0.0 0.0 0.0 1 False False
1830.0359999999998 3.7120819091796875 -0.825482503776886 0.8429606596576136 -1.5883013210692347 -1.5708335081683558 2.1412839889526367 0.0 0.0 0.0 -0.0 0.0 0.0 1 False False
1830.0559999999998 3.7120537757873535 -0.8255361479571839 0.8429473082171839 -1.5883094273009242 -1.570829216633932 2.141275405883789 0.0 0.0 0.0 -0.0 0.0 0.0 1 False False
1830.076 3.7120537757873535 -0.8255166572383423 0.8429892698871058 -1.5883056126036585 -1.5708091894732874 2.141242742538452 0.0 0.0 0.0 -0.0 0.0 0.0 1 False False
1830.096 3.7120580673217773 -0.8255112332156678 0.8429811636554163 -1.588320871392721 -1.5707648436175745 2.141221761703491 0.0 0.0 0.0 -0.0 0.0 0.0 1 False False
1830.116 3.712090492248535 -0.8254534763148804 0.8429892698871058 -1.588297029534811 -1.570829216633932 2.141287088394165 0.0 0.0 0.0 -0.0 0.0 0.0 1 False False
1830.136 3.712094783782959 -0.825450138454773 0.8429887930499476 -1.5882288418211878 -1.5707724730121058 2.1413040161132812 0.0 0.0 0.0 -0.0 0.0 0.0 1 False False
1830.156 3.7120537757873535 -0.8254950803569336 0.8429563681231897 -1.588320871392721 -1.5708335081683558 2.141266345977783 0.0 0.0 0.0 -0.0 0.0 0.0 1 False False
1830.176 3.712070941925049 -0.8254708212665101 0.8429606596576136 -1.5882889233031214 -1.570801083241598 2.141251564025879 0.0 0.0 0.0 -0.0 0.0 0.0 1 False False
1830.196 3.712062358856201 -0.8255317372134705 0.8429845015155237 -1.5883127651610316 -1.5707972685443323 2.141263484954834 0.0 0.0 0.0 -0.0 0.0 0.0 1 False False
1830.216 3.712094783782959 -0.8254997891238709 0.8430188337909144 -1.588245531121725 -1.5707686583148401 2.1413540840148926 0.0 0.0 0.0 -0.0 0.0 0.0 1 False False
1830.2359999999999 3.712099313735962 -0.82541777313266 0.8429482618915003 -1.5882846317686976 -1.5707967917071741 2.141263484954834 0.0 0.0 0.0 -0.0 0.0 0.0 1 False False
1830.2559999999999 3.712127208709717 -0.8254955571940918 0.8429763952838343 -1.5883127651610316 -1.5707886854754847 2.1412265300750732 0.0 0.0 0.0 -0.0 0.0 0.0 1 False False
1830.2759999999998 3.712094783782959 -0.825463132267334 0.8429935614215296 -1.588320871392721 -1.5708168188678187 2.141254425048828 0.0 0.0 0.0 -0.0 0.0 0.0 1 False False
1830.2959999999998 3.7120416164398193 -0.8254998487285157 0.8429630438434046 -1.5883251629271449 -1.570813004170553 2.141282796859741 0.0 0.0 0.0 -0.0 0.0 0.0 1 False False
1830.3159999999998 3.7120580673217773 -0.8254739803126832 0.8429425398456019 -1.5882488689818324 -1.5707605520831507 2.141267776489258 0.0 0.0 0.0 -0.0 0.0 0.0 1 False False
1830.336 3.712090492248535 -0.8254707616618653 0.8429802099810999 -1.5883332691588343 -1.570784870778219 2.141263484954834 0.0 0.0 0.0 -0.0 0.0 0.0 1 False False
1830.356 3.712050199508667 -0.8254339855960389 0.8429935614215296 -1.5882774792113246 -1.5707886854754847 2.1413216590881348 0.0 0.0 0.0 -0.0 0.0 0.0 1 False False
1830.376 3.712078809738159 -0.8254739803126832 0.8430007139789026 -1.5883251629271449 -1.570801083241598 2.141287088394165 0.0 0.0 0.0 -0.0 0.0 0.0 1 False False
1830.396 3.7120368480682373 -0.8254825633815308 0.8430174032794397 -1.5883251629271449 -1.5708449522601526 2.1412265300750732 0.0 0.0 0.0 -0.0 0.0 0.0 1 False False
1830.416 3.7120907306671143 -0.8255199950984498 0.8429935614215296 -1.5882889233031214 -1.5707925001727503 2.141295909881592 0.0 0.0 0.0 -0.0 0.0 0.0 1 False False
1830.436 3.712104082107544 -0.825478271847107 0.8429630438434046 -1.5882846317686976 -1.5707529226886194 2.141275405883789 0.0 0.0 0.0 -0.0 0.0 0.0 1 False False
1830.456 3.7120535373687744 -0.8255404394916077 0.8429473082171839 -1.5883127651610316 -1.5708368460284632 2.1412546634674072 0.0 0.0 0.0 -0.0 0.0 0.0 1 False False
1830.4759999999999 3.7120578289031982 -0.8255361479571839 0.8429673353778284 -1.588273664514059 -1.5707886854754847 2.141279697418213 0.0 0.0 0.0 -0.0 0.0 0.0 1 False False
1830.4959999999999 3.7120203971862793 -0.8254696887782593 0.8429439703570765 -1.5882607899107875 -1.5707925001727503 2.141247272491455 0.0 0.0 0.0 -0.0 0.0 0.0 1 False False
1830.5159999999998 3.7120368480682373 -0.825491265659668 0.8429673353778284 -1.5882932148375453 -1.570784870778219 2.141214609146118 0.0 0.0 0.0 -0.0 0.0 0.0 1 False False
1830.5359999999998 3.712095022201538 -0.8255155843547364 0.8429802099810999 -1.5882650814452113 -1.570784870778219 2.1412925720214844 0.0 0.0 0.0 -0.0 0.0 0.0 1 False False
1830.5559999999998 3.712078809738159 -0.825482503776886 0.8429673353778284 -1.5883413753905238 -1.570756737385885 2.1413087844848633 0.0 0.0 0.0 -0.0 0.0 0.0 1 False False
1830.576 3.712095260620117 -0.825463132267334 0.8429763952838343 -1.5882569752135218 -1.5707967917071741 2.141275405883789 0.0 0.0 0.0 -0.0 0.0 0.0 1 True False
1830.596 3.712050199508667 -0.8255242270282288 0.8429892698871058 -1.5882607899107875 -1.5708168188678187 2.1412971019744873 0.0 0.0 0.0 -0.0 0.0 0.0 1 True False
1830.616 3.712095022201538 -0.8255232137492676 0.8429763952838343 -1.5883127651610316 -1.5708044211017054 2.141270875930786 0.0 0.0 0.0 -0.0 0.0 0.0 1 True False
1830.636 3.7120203971862793 -0.8255080741694947 0.8429425398456019 -1.5883332691588343 -1.5708377997027796 2.141308546066284 0.0 0.0 0.0 -0.0 0.0 0.0 1 True False
1830.656 3.71205472946167 -0.8255404394916077 0.8430007139789026 -1.5882894001402796 -1.5707886854754847 2.141270875930786 0.0 0.0 0.0 -0.0 0.0 0.0 1 True False
1830.676 3.7121026515960693 -0.8254415553859253 0.8430145422564905 -1.588320871392721 -1.5707805792437952 2.141308546066284 0.0 0.0 0.0 -0.0 0.0 0.0 1 True False
1830.696 3.712050199508667 -0.8254825633815308 0.8429854551898401 -1.5882569752135218 -1.570813004170553 2.1412384510040283 0.0 0.0 0.0 -0.0 0.0 0.0 1 True False
1830.716 3.712078809738159 -0.825478271847107 0.8429349104510706 -1.588297029534811 -1.5708449522601526 2.1413044929504395 0.0 0.0 0.0 -0.0 0.0 0.0 1 True False
1830.7359999999999 3.712104082107544 -0.8255037826350708 0.8429978529559534 -1.5882851086058558 -1.5707486311541956 2.141247272491455 0.0 0.0 0.0 -0.0 0.0 0.0 1 True False
1830.7559999999999 3.7120771408081055 -0.8254663509181519 0.8429587523089808 -1.5882889233031214 -1.570784870778219 2.141295909881592 0.0 0.0 0.0 -0.0 0.0 0.0 1 True False
1830.7759999999998 3.7120368480682373 -0.8254457873157044 0.8430145422564905 -1.5882655582823695 -1.5708168188678187 2.1413214206695557 0.0 0.0 0.0 -0.0 0.0 0.0 1 True False
1830.7959999999998 3.712095022201538 -0.8254825633815308 0.8429587523089808 -1.5883451900877894 -1.5708211104022425 2.141267776489258 0.0 0.0 0.0 -0.0 0.0 0.0 1 True False
1830.8159999999998 3.7120368480682373 -0.8255436581424256 0.8430007139789026 -1.5883246860899867 -1.5707972685443323 2.1412353515625 0.0 0.0 0.0 -0.0 0.0 0.0 1 True False
1830.836 3.712045669555664 -0.8254825633815308 0.8429649511920374 -1.5883094273009242 -1.5707724730121058 2.141267776489258 0.0 0.0 0.0 -0.0 0.0 0.0 1 True False
1830.856 3.7120490074157715 -0.8255242866328736 0.8429301420794886 -1.5883165798582972 -1.570813004170553 2.141324758529663 0.0 0.0 0.0 -0.0 0.0 0.0 1 True False
1830.876 3.712066888809204 -0.8254865568927308 0.8430355230914515 -1.588285585443014 -1.5708091894732874 2.141282796859741 0.0 0.0 0.0 -0.0 0.0 0.0 1 True False
1830.896 3.7120578289031982 -0.825425462131836 0.8430007139789026 -1.5882774792113246 -1.570813004170553 2.1412179470062256 0.0 0.0 0.0 -0.0 0.0 0.0 1 True False
1830.916 3.7120697498321533 -0.8255199950984498 0.8429802099810999 -1.5883013210692347 -1.5707572142230433 2.1413538455963135 0.0 0.0 0.0 -0.0 0.0 0.0 1 True False
1830.936 3.7120742797851562 -0.8255685132792969 0.8429721037494105 -1.5882774792113246 -1.5707925001727503 2.1412997245788574 0.0 0.0 0.0 -0.0 0.0 0.0 1 True False
1830.956 3.7120652198791504 -0.8254621189883729 0.8429935614215296 -1.5883127651610316 -1.5708168188678187 2.1413300037384033 0.0 0.0 0.0 -0.0 0.0 0.0 1 True False
1830.9759999999999 3.712036609649658 -0.8255155843547364 0.8429515997516077 -1.5883127651610316 -1.570772949849264 2.141282796859741 0.0 0.0 0.0 -0.0 0.0 0.0 1 True False
1830.9959999999999 3.7120490074157715 -0.825491265659668 0.8429892698871058 -1.588292738000387 -1.5707648436175745 2.141247272491455 0.0 0.0 0.0 -0.0 0.0 0.0 1 True False
1831.0159999999998 3.712132453918457 -0.825478271847107 0.8429439703570765 -1.5883246860899867 -1.5707967917071741 2.1413300037384033 0.0 0.0 0.0 -0.0 0.0 -1.61671465548352e-07 1 True False
1831.0359999999998 3.7120981216430664 -0.8254739803126832 0.8429563681231897 -1.5882493458189906 -1.5707772413836878 2.141267776489258 0.0 0.0 0.0 -0.0 0.0 -0.0001580298994667828 1 True False
1831.0559999999998 3.712062358856201 -0.825491265659668 0.8429763952838343 -1.5883094273009242 -1.5707605520831507 2.1412546634674072 0.0 0.0 0.0 -0.0 0.0 -5.277144373394549e-05 1 True False
1831.076 3.712104082107544 -0.8255404394916077 0.8429563681231897 -1.5883246860899867 -1.570784870778219 2.1411561965942383 0.0 0.0 0.0 -0.0 0.0 -1.2739632265779122e-11 1 True False
1831.096 3.7120816707611084 -0.8254620593837281 0.8429515997516077 -1.5882812939085902 -1.5708087126361292 2.141143321990967 0.0 0.0 0.0 -0.0 0.0 -0.0020707943476736546 1 True False
1831.116 3.712095260620117 -0.8254740995219727 0.8429349104510706 -1.5882731876769007 -1.5707805792437952 2.1412353515625 0.0 0.0 0.0 -0.0 4.0075343576972955e-07 -0.0005021460237912834 1 True False
1831.136 3.7121071815490723 -0.8255070012858887 0.8429845015155237 -1.5882650814452113 -1.5707767645465296 2.1412806510925293 0.0 0.0 0.0 -0.0 1.7757010937202722e-06 -4.174899004283361e-08 1 True False
1831.156 3.7120907306671143 -0.8254912060550232 0.8429935614215296 -1.588320871392721 -1.5708211104022425 2.141275405883789 0.0 0.0 0.0 -0.0 5.846849035151536e-06 -1.2395652733082434e-15 1 True False
1831.176 3.7120490074157715 -0.8255037826350708 0.8429721037494105 -1.5882932148375453 -1.5708006064044397 2.141295909881592 0.0 0.0 0.0 -0.0 1.7359820991737912e-13 -3.680381328388145e-23 1 True False
1831.196 3.7120890617370605 -0.825482503776886 0.8429845015155237 -1.588320871392721 -1.5707805792437952 2.1413321495056152 0.0 0.0 0.0 -0.0 0.00011964269651798531 -1.0927382319707255e-30 1 True False
1831.216 3.71209979057312 -0.8254993718913575 0.8429887930499476 -1.588236471215719 -1.5707724730121058 2.1413159370422363 0.0 0.0 0.0 -0.0 5.156320912647061e-05 -3.2444381053583493e-38 1 True False
1831.2359999999999 3.7120890617370605 -0.8255037826350708 0.8430174032794397 -1.5883051357665003 -1.5708087126361292 2.141275405883789 0.021685391664505005 -0.007616203743964434 0.0 -0.0 5.118724220665172e-05 7.126322452677414e-05 1 True False
1831.2559999999999 3.712538719177246 -0.8258007329753418 0.8433006445514124 -1.5883847675719203 -1.5708254019366663 2.141739845275879 0.03694205358624458 -0.018012594431638718 0.026550956070423126 -0.0077824885956943035 2.391749330854509e-05 0.0383777916431427 1 True False
1831.2759999999998 3.713618040084839 -0.8261736792377015 0.8439043203936976 -1.5886675320067347 -1.5708168188678187 2.142733573913574 0.06359821557998657 -0.030081773176789284 0.04365380108356476 -0.014119806699454784 3.777744132094085e-05 0.06154244393110275 1 True False
1831.2959999999998 3.7151243686676025 -0.8269176644137879 0.8450759092914026 -1.5890590153136195 -1.5707886854754847 2.144298791885376 0.08879002183675766 -0.04302612692117691 0.06885502487421036 -0.0247722826898098 3.1224393751472235e-05 0.08778807520866394 1 True False
1831.3159999999998 3.717132568359375 -0.8278522056392212 0.8467009703265589 -1.589593072930807 -1.5708487669574183 2.146428108215332 0.11736439168453217 -0.058624088764190674 0.09524708241224289 -0.030753180384635925 2.6608340704115108e-05 0.11822842061519623 1 True False
1831.336 3.7199597358703613 -0.8291982573321839 0.8489654699908655 -1.5903355083861292 -1.5707886854754847 2.149052858352661 0.14787174761295319 -0.07528885453939438 0.12140557914972305 -0.035520877689123154 3.477204518276267e-05 0.14443469047546387 1 True False
1831.356 3.7232184410095215 -0.8308891814998169 0.8515666166888636 -1.5911761722960414 -1.570813004170553 2.1522984504699707 0.1754058599472046 -0.08903149515390396 0.1359335482120514 -0.05203469097614288 4.232432911521755e-05 0.17565619945526123 1 True False
1831.376 3.7269649505615234 -0.8328605455211182 0.8544896284686487 -1.592309137383932 -1.570784870778219 2.156090021133423 0.19955241680145264 -0.10601937770843506 0.15584565699100494 -0.05244693160057068 1.7675773733571987e-07 0.1980498880147934 1 True False
1831.396 3.731283664703369 -0.8352205914309998 0.8578303495990198 -1.5934411487975062 -1.5708611647235315 2.160463571548462 0.22798670828342438 -0.12270980328321457 0.18007583916187286 -0.057956695556640625 5.248097980091503e-15 0.22827889025211334 1 True False
1831.416 3.736205577850342 -0.8378238838962098 0.8616097609149378 -1.5946971378722132 -1.570813004170553 2.165316343307495 0.2576279044151306 -0.13200412690639496 0.20484474301338196 -0.06880240142345428 1.558207537348518e-22 0.2579839825630188 1 True False
1831.436 3.741725206375122 -0.8406160038760682 0.8659608999835413 -1.5960403881468714 -1.5708211104022425 2.1707613468170166 0.28380805253982544 -0.14319069683551788 0.22344259917736053 -0.06881845742464066 9.978419984690845e-05 0.2857791781425476 1 True False
1831.456 3.747791290283203 -0.8436944645694275 0.8706644217120569 -1.5975762806334437 -1.570784870778219 2.1768033504486084 0.3110807538032532 -0.1572837382555008 0.24885818362236023 -0.08581355214118958 9.801524720387533e-05 0.31315866112709045 1 True False
1831.4759999999999 3.7542028427124023 -0.8470074695399781 0.8757222334491175 -1.5994659862914027 -1.5707891623126429 2.1833722591400146 0.338079571723938 -0.17463159561157227 0.26538634300231934 -0.09044452011585236 9.678193600848317e-05 0.34057047963142395 1 True False
1831.4959999999999 3.761276960372925 -0.8507616084865113 0.8812997976886194 -1.6012035808958949 -1.570784870778219 2.1905734539031982 0.37007659673690796 -0.18963588774204254 0.28463777899742126 -0.08514591306447983 5.167115159565583e-05 0.3652198612689972 1 True False
1831.5159999999998 3.7690749168395996 -0.8546818059733887 0.8872326056109827 -1.603257795373434 -1.5708006064044397 2.198218822479248 0.3981446623802185 -0.20455121994018555 0.306925892829895 -0.09993132948875427 4.0101924241753295e-05 0.3965727686882019 1 True False
1831.5359999999998 3.7773866653442383 -0.8588966292193909 0.8936269919024866 -1.6053992710509242 -1.5707605520831507 2.2062978744506836 0.4257456958293915 -0.21768493950366974 0.3294522762298584 -0.1213836669921875 4.6240809751907364e-05 0.4316222369670868 1 True False
1831.5559999999998 3.786133289337158 -0.8634230655482789 0.9005120436297815 -1.6078716717162074 -1.570784870778219 2.2152187824249268 0.45170608162879944 -0.23448486626148224 0.34999847412109375 -0.11503623425960541 5.545856402022764e-05 0.4519098997116089 1 True False
1831.576 3.7953531742095947 -0.8682934802821656 0.9079068342791956 -1.6101795635619105 -1.5707686583148401 2.22469162940979 0.48047834634780884 -0.2453705370426178 0.37122300267219543 -0.1255943924188614 3.60553567588795e-05 0.4750232994556427 1 True False
1831.596 3.8053550720214844 -0.873323993091919 0.9156110922442835 -1.6128794155516566 -1.5707967917071741 2.2345023155212402 0.506838858127594 -0.2597723603248596 0.39080339670181274 -0.14568273723125458 -1.693862213869579e-05 0.5102906227111816 1 True False
1831.616 3.816000461578369 -0.8787658971599122 0.9235871473895472 -1.6156865559019984 -1.5708048979388636 2.2450408935546875 0.541399359703064 -0.27454841136932373 0.4148792624473572 -0.1397695690393448 -1.186074892814415e-12 0.5375038385391235 1 True False
1831.636 3.8268048763275146 -0.8844690483859559 0.9321921507464808 -1.618505140344137 -1.5707767645465296 2.256150484085083 0.5616667866706848 -0.29172372817993164 0.44005948305130005 -0.14772476255893707 8.693836571183056e-05 0.5613948702812195 1 True False
1831.656 3.838421106338501 -0.8903041046908875 0.9412291685687464 -1.621742387811178 -1.570801083241598 2.26759672164917 0.5883725881576538 -0.3029710352420807 0.4634287655353546 -0.1515645682811737 5.558407067951521e-09 0.5923447012901306 1 True False
1831.676 3.8507590293884277 -0.8965417307666321 0.9507530371295374 -1.6247054539122523 -1.570801083241598 2.2798876762390137 0.6289976239204407 -0.31712356209754944 0.48196524381637573 -0.15630871057510376 1.6503409949801496e-16 0.6231583952903748 1 True False
1831.696 3.8634114265441895 -0.9030118745616456 0.9605544249164026 -1.6282979450621546 -1.5707925001727503 2.292660713195801 0.6442670226097107 -0.3333205282688141 0.5017536282539368 -0.17274950444698334 4.900011484932578e-24 0.6427515745162964 1 True False
1831.716 3.876577615737915 -0.9099499148181458 0.970794979725973 -1.6317321262755335 -1.570784870778219 2.3058745861053467 0.6760968565940857 -0.34870845079421997 0.5208013653755188 -0.1730356365442276 -8.289008110295981e-05 0.6775397062301636 1 True False
1831.7359999999999 3.890519380569458 -0.9169972103885193 0.981567684804098 -1.6354838810362757 -1.5707691351519983 2.3197546005249023 0.7091030478477478 -0.3600306808948517 0.5488958954811096 -0.18364951014518738 -2.8373226086841896e-05 0.6992258429527283 1 True False
1831.7559999999999 3.9048426151275635 -0.9243090909770508 0.992716137562887 -1.6391498051085414 -1.5707805792437952 2.3339667320251465 0.7286742329597473 -0.3758772909641266 0.5665320158004761 -0.18786810338497162 -2.1571146135102026e-05 0.7385892868041992 1 True False
1831.7759999999998 3.919811964035034 -0.9319392007640381 1.00444204012026 -1.6432014904417933 -1.5708206335650843 2.3491477966308594 0.7624790668487549 -0.3866707682609558 0.5907402634620667 -0.20621025562286377 -1.7400134311174043e-05 0.7589199542999268 1 True False
1831.7959999999998 3.9353954792022705 -0.9399907749942322 1.0164807478534144 -1.6471649609007777 -1.5707767645465296 2.364447593688965 0.7829477190971375 -0.4021495282649994 0.6135681867599487 -0.20966379344463348 -1.9533552404027432e-05 0.7943436503410339 1 True False
1831.8159999999998 3.951455593109131 -0.9482683104327698 1.0288189093219202 -1.651590963403219 -1.5708168188678187 2.3806915283203125 0.816550076007843 -0.41885247826576233 0.6340111494064331 -0.20969749987125397 -4.213196458380253e-11 0.8099848628044128 1 True False
1831.836 3.9680159091949463 -0.9568463128856202 1.0418875853167933 -1.655893941918844 -1.5707691351519983 2.397099494934082 0.844369649887085 -0.4329293966293335 0.6536327600479126 -0.22630316019058228 -1.2509359345820525e-18 0.8504743576049805 1 True False
1831.856 3.9852182865142822 -0.9654645484736939 1.0552642981158655 -1.660320898095602 -1.5707767645465296 2.4145188331604004 0.8769490718841553 -0.44079843163490295 0.6761205196380615 -0.22817638516426086 -3.7141417229063937e-26 0.8701929450035095 1 True False
1831.876 4.003035545349121 -0.9746359151652833 1.0690348784076136 -1.665086408654684 -1.5707691351519983 2.4321751594543457 0.8961970806121826 -0.46316829323768616 0.689896821975708 -0.24447140097618103 -6.0392561863409355e-05 0.8985608816146851 1 True False
1831.896 4.021308898925781 -0.9840065401843567 1.0830524603473108 -1.6698790989317835 -1.5707648436175745 2.4505608081817627 0.9262909293174744 -0.47890347242355347 0.7163228988647461 -0.2524118423461914 -6.051574746379629e-05 0.9190521836280823 1 True False
1831.916 4.040104389190674 -0.993668870334961 1.0977352301227015 -1.6747895679869593 -1.570784870778219 2.469313383102417 0.9605944156646729 -0.49266117811203003 0.7452477216720581 -0.25359922647476196 6.183561995776188e-11 0.9631134867668152 1 True False
1831.936 4.059560298919678 -1.0036602777293702 1.1129139105426233 -1.6799217663206996 -1.5708125273333948 2.4887309074401855 0.9785481691360474 -0.4972887337207794 0.7665060758590698 -0.25229009985923767 1.835955700497425e-18 0.9811455607414246 1 True False
1831.956 4.079464912414551 -1.0138716262630005 1.1284192244159144 -1.6853491268553675 -1.5707886854754847 2.508812189102173 1.016432762145996 -0.5243397355079651 0.7836818695068359 -0.2678340971469879 5.451120067119358e-26 1.0068260431289673 1 True False
1832.176 4.309508800506592 -1.1317888063243409 1.3069222609149378 -1.7459889851012171 -1.5708006064044397 2.738542318344116 1.0413970947265625 -0.5328185558319092 0.8179681897163391 -0.2808881998062134 2.8250910391579755e-18 1.045027732849121 1 True False
1832.196 4.3304667472839355 -1.1425252121737977 1.3232000509845179 -1.7517100773253382 -1.570824925099508 2.7597570419311523 1.0494526624679565 -0.5429226756095886 0.8061723113059998 -0.29280558228492737 8.387949377048868e-26 1.0418620109558105 1 True False
1832.216 4.351351737976074 -1.1532669526389618 1.339454476033346 -1.7569719753661097 -1.5707648436175745 2.7806172370910645 1.0493853092193604 -0.5295125246047974 0.8139079809188843 -0.27526214718818665 -0.00015953343245200813 1.0548673868179321 1 True False
1832.2359999999999 4.3723015785217285 -1.164055035715439 1.3557046095477503 -1.7626415691771449 -1.570829216633932 2.801391363143921 1.0419970750808716 -0.535802960395813 0.811498761177063 -0.2767696976661682 -0.00013411612599156797 1.0478657484054565 1 True False
1832.2559999999999 4.393248081207275 -1.1746834975532074 1.3718670050250452 -1.7681948147215785 -1.570772949849264 2.8225560188293457 1.050467610359192 -0.5364617705345154 0.810401976108551 -0.28041255474090576 1.1941676348214969e-05 1.043879508972168 1 True False
1832.2759999999998 4.414191722869873 -1.185437188749649 1.3884151617633265 -1.773644586602682 -1.570824925099508 2.8433732986450195 1.0396292209625244 -0.5343539714813232 0.813357949256897 -0.26991918683052063 3.545590199476728e-13 1.0528277158737183 1 True False
1832.2959999999998 4.434788703918457 -1.195952759390213 1.4040902296649378 -1.7790442905821742 -1.5707810560809534 2.8637852668762207 1.0098445415496826 -0.5162338018417358 0.7831041812896729 -0.2919009029865265 1.0527178689141462e-20 1.0172494649887085 1 True False
1832.3159999999998 4.454691410064697 -1.2061809462359925 1.4196446577655237 -1.7844459019102992 -1.5708048979388636 2.8840885162353516 0.9842642545700073 -0.5106022357940674 0.761700451374054 -0.25563591718673706 3.1256140956816486e-28 0.9805770516395569 1 True False
1832.336 4.474009990692139 -1.2161123913577576 1.4347127119647425 -1.7893816433348597 -1.5707967917071741 2.9031827449798584 0.9607461094856262 -0.48397815227508545 0.7414811849594116 -0.25686079263687134 -0.0004853725840803236 0.9703962802886963 1 True False
1832.356 4.493058204650879 -1.2257765990546723 1.4495356718646448 -1.7944566212096156 -1.5707929770099085 2.9222309589385986 0.9291409254074097 -0.4786282479763031 0.7188231348991394 -0.2521469295024872 0.00012618073378689587 0.9256255626678467 1 True False
1832.376 4.511282444000244 -1.2351026696017762 1.4635165373431605 -1.799208780328268 -1.570784870778219 2.940631866455078 0.9061708450317383 -0.4642748236656189 0.6929652094841003 -0.2571167051792145 4.749228901346214e-05 0.9016153812408447 1 True False
1832.396 4.528997898101807 -1.2442735892585297 1.4773653189288538 -1.8040734730162562 -1.5708206335650843 2.9580867290496826 0.8726105093955994 -0.4499584138393402 0.6759782433509827 -0.2271277904510498 6.226096721517749e-11 0.8779066205024719 1 True False
1832.416 4.546247482299805 -1.2531217497638245 1.4908416906939905 -1.8083707294859828 -1.5707452932940882 2.9755969047546387 0.8523448705673218 -0.4292684495449066 0.6565309166908264 -0.22197997570037842 1.8485840601141188e-18 0.8452651500701904 1 True False
1832.436 4.562924861907959 -1.2616788011840363 1.5034778753863733 -1.8129121265807093 -1.570853058491842 2.9920077323913574 0.8128238916397095 -0.42200469970703125 0.6317818760871887 -0.22526809573173523 5.488611914235151e-26 0.8185551762580872 1 True False
1832.456 4.57885217666626 -1.2699051660350342 1.5160940329181116 -1.8171335659422816 -1.5708168188678187 3.008251428604126 0.7922451496124268 -0.4047946035861969 0.6128339171409607 -0.19558444619178772 1.6296181242586693e-33 0.7891166806221008 1 True False
1832.4759999999999 4.59455680847168 -1.277717338209488 1.5282252470599573 -1.8212367496886195 -1.5707929770099085 3.0234620571136475 0.7654882073402405 -0.38586992025375366 0.5987703800201416 -0.2149781882762909 4.838543467467161e-41 0.7726625204086304 1 True False
1832.4959999999999 4.609438896179199 -1.285517857675888 1.5397380034076136 -1.825167795220846 -1.570829216633932 3.0387532711029053 0.7356950640678406 -0.3786255419254303 0.5634596943855286 -0.19612117111682892 0.0 0.7358734607696533 1 True False
1832.5159999999998 4.623851776123047 -1.2928731006434937 1.550896469746725 -1.8289767704405726 -1.5707572142230433 3.0529491901397705 0.7017548680305481 -0.3628416061401367 0.5476527214050293 -0.18312261998653412 0.0 0.7085943818092346 1 True False
1832.5359999999998 4.637629985809326 -1.2998677653125306 1.561639134083883 -1.8324905834593714 -1.570813004170553 3.066923141479492 0.6841282844543457 -0.34736233949661255 0.5333544015884399 -0.16735568642616272 0.0001703349844319746 0.6755563616752625 1 True False
1832.5559999999998 4.650968551635742 -1.306702510719635 1.5720785299884241 -1.836167951623434 -1.5708654562579554 3.0800740718841553 0.6477880477905273 -0.33825206756591797 0.49973222613334656 -0.17220841348171234 1.2087138401284392e-08 0.6506203413009644 1 True False
1832.576 4.663801193237305 -1.3132994335940857 1.5818970839129847 -1.8393227062621058 -1.57074481645693 3.0929198265075684 0.6241386532783508 -0.318156361579895 0.4860537648200989 -0.15725672245025635 3.588779865238556e-16 0.6288348436355591 1 True False
1832.596 4.675769805908203 -1.3195938926986237 1.5912378470050257 -1.8428017101683558 -1.5708254019366663 3.1051766872406006 0.5940871834754944 -0.30405277013778687 0.4603363871574402 -0.1576848328113556 1.0655414037249792e-23 0.592625081539154 1 True False
1832.616 4.687459945678711 -1.3255750399878998 1.600212875996725 -1.8457571468748988 -1.5707648436175745 3.1165716648101807 0.5669190287590027 -0.2918083965778351 0.43945759534835815 -0.14452186226844788 3.163689055478229e-31 0.5732592344284058 1 True False
1832.636 4.698495388031006 -1.331073285346367 1.6090715567218226 -1.8486582241454066 -1.570801083241598 3.127770185470581 0.5411158800125122 -0.2722676396369934 0.42197710275650024 -0.14305919408798218 9.393279154357688e-39 0.5356081128120422 1 True False
1832.656 4.708883762359619 -1.336372659807541 1.6171048323260706 -1.8514400921263636 -1.5708048979388636 3.1382579803466797 0.5096065402030945 -0.2640933692455292 0.3987429738044739 -0.13809090852737427 0.0 0.5032338500022888 1 True False
1832.676 4.719017028808594 -1.341621847157814 1.6245768705951136 -1.8540841541686 -1.5707805792437952 3.1479647159576416 0.4869201183319092 -0.25090694427490234 0.37732356786727905 -0.13511618971824646 0.0 0.498340904712677 1 True False
1832.696 4.728315353393555 -1.346482829456665 1.6318662802325647 -1.8566872082152308 -1.5707529226886194 3.1575043201446533 0.4557284414768219 -0.2302345186471939 0.3557722568511963 -0.11155076324939728 0.0 0.45591744780540466 1 True False
1832.716 4.7371320724487305 -1.3509323757937928 1.6390350500689905 -1.858774324456686 -1.5707886854754847 3.166396379470825 0.4254537522792816 -0.2165430635213852 0.3372628688812256 -0.10893239080905914 -0.00017979610129259527 0.4258870780467987 1 True False
1832.7359999999999 4.74544095993042 -1.3551367980292817 1.645470921193258 -1.8609725437560023 -1.5708373228656214 3.1745245456695557 0.4013594686985016 -0.20704370737075806 0.3127465844154358 -0.11890324205160141 -6.344894791254774e-05 0.4013526737689972 1 True False
1832.7559999999999 4.75307559967041 -1.3591532868197937 1.651224438344137 -1.8632265530028285 -1.5708368460284632 3.182251214981079 0.37016013264656067 -0.1942024976015091 0.2860317528247833 -0.09719634056091309 -4.327648916307991e-12 0.37272122502326965 1 True False
1832.7759999999998 4.760119438171387 -1.3628070217422028 1.6567447821246546 -1.8649865589537562 -1.5707805792437952 3.189429521560669 0.34415751695632935 -0.17582286894321442 0.27004528045654297 -0.08173638582229614 -1.2849179358624087e-19 0.34186452627182007 1 True False
1832.7959999999998 4.766835689544678 -1.3661236625960846 1.6619575659381312 -1.8666087589659632 -1.5707967917071741 3.1960506439208984 0.31849247217178345 -0.16331470012664795 0.24791830778121948 -0.0774955004453659 -3.815036108237788e-27 0.31352999806404114 1 True False
1832.8159999999998 4.772913932800293 -1.369221107368805 1.6667755285846155 -1.868310113946432 -1.5707805792437952 3.20198655128479 0.2866777181625366 -0.14750832319259644 0.22367927432060242 -0.08894792199134827 -1.1327187542443376e-34 0.29182344675064087 1 True False
1832.836 4.778290748596191 -1.3720200222781678 1.6708772818194788 -1.8698011837401332 -1.5707925001727503 3.207296848297119 0.25787949562072754 -0.13174432516098022 0.1966945230960846 -0.06494998186826706 -3.363116314379561e-42 0.2681374251842499 1 True False
1832.856 4.78316068649292 -1.3745329541018982 1.6746485869037073 -1.8710457287230433 -1.5707486311541956 3.2123796939849854 0.23369745910167694 -0.11888659000396729 0.1795445680618286 -0.06341049820184708 -5.231872921007685e-11 0.2389390468597412 1 True False
1832.876 4.787416934967041 -1.3767429006150742 1.6779797712909144 -1.872157712975973 -1.5707805792437952 3.216728448867798 0.2072238028049469 -0.10326841473579407 0.15906783938407898 -0.052080120891332626 -1.5533902862614278e-18 0.20484872162342072 1 True False
1832.896 4.791262626647949 -1.3787096750787278 1.680943791066305 -1.8731447658934535 -1.5707767645465296 3.220543146133423 0.17832906544208527 -0.09202563762664795 0.13707265257835388 -0.04381909221410751 -4.612155709209123e-26 0.17722392082214355 1 True False
1832.916 4.794558048248291 -1.3803201925805588 1.6834982077227991 -1.8739186726012171 -1.5707767645465296 3.22385835647583 0.1499289572238922 -0.07299551367759705 0.11822021007537842 -0.04406942054629326 -1.3693903072805007e-33 0.14875918626785278 1 True False
1832.936 4.7972636222839355 -1.3817144942334671 1.685572926198141 -1.8747936687865199 -1.5707724730121058 3.2264795303344727 0.11967620998620987 -0.06305330991744995 0.09579205513000488 -0.03799640014767647 -4.0658674942384567e-41 0.12292838096618652 1 True False
1832.956 4.799343585968018 -1.3828390550664444 1.6872347036944788 -1.8753491840758265 -1.570784870778219 3.2285776138305664 0.09397457540035248 -0.0492946021258831 0.07306130230426788 -0.023523084819316864 -0.0 0.09242494404315948 1 True False
1832.9759999999999 4.800857067108154 -1.3836185944131394 1.6884363333331507 -1.875740190545553 -1.5707767645465296 3.2300920486450195 0.06680463999509811 -0.030964629724621773 0.050805315375328064 -0.013935760594904423 -0.0 0.06757289916276932 1 True False
1832.9959999999999 4.801841735839844 -1.3840762686780472 1.689258877431051 -1.8759786091246546 -1.570813004170553 3.2310681343078613 0.035695772618055344 -0.020149702206254005 0.02762339450418949 -0.011505233123898506 -0.0 0.03846467286348343 1 True False
1833.0159999999998 4.802347183227539 -1.3844193530133744 1.6894777456866663 -1.8760539493956507 -1.570801083241598 3.23157000541687 0.011198850348591805 -0.0026365448720753193 0.007529311813414097 -0.0003957523440476507 -0.0 0.009444162249565125 1 True False
1833.0359999999998 4.802234649658203 -1.3842428189567109 1.6895888487445276 -1.8762170277037562 -1.5708087126361292 3.231454849243164 -0.0044683474116027355 0.010079345665872097 0.02045656368136406 -0.03274097666144371 0.00029694955446757376 -2.6597177566145547e-05 1 True False
1833.0559999999998 4.8022027015686035 -1.3839997959188004 1.6900933424579065 -1.8769237003722132 -1.5707805792437952 3.231475830078125 -0.00037204899126663804 0.015539810992777348 0.03234501928091049 -0.03706069663167 2.3307078489409605e-11 -7.896941022107751e-13 1 True False
1833.076 4.802299499511719 -1.3836337637952347 1.6910555998431605 -1.87811340908193 -1.570772949849264 3.2314882278442383 0.0008495544316247106 0.024313628673553467 0.04715557396411896 -0.07537934929132462 6.920080301260169e-19 0.0005338321207091212 1 True False
1833.096 4.802296161651611 -1.3829908084920426 1.6921151320086878 -1.8798772297301234 -1.5707967917071741 3.2314913272857666 0.00023525395954493433 0.0350651741027832 0.0644582211971283 -0.10357530415058136 2.054634295892395e-26 0.0008493330678902566 1 True False
1833.116 4.802250862121582 -1.382267953162529 1.693740193043844 -1.8823167286314906 -1.5708168188678187 3.2315075397491455 0.0021992549300193787 0.04613468423485756 0.08782569319009781 -0.13822320103645325 6.100395533372749e-34 0.0005644404445774853 1 True False
1833.136 4.802213668823242 -1.381093980079033 1.695517365132467 -1.885226388970846 -1.5707967917071741 3.2315566539764404 0.0005251113907434046 0.06079553812742233 0.09759492427110672 -0.15497325360774994 1.8113183949862585e-41 0.0006400275742635131 1 True False
1833.156 4.802287578582764 -1.379876272087433 1.697808567677633 -1.8886519871153773 -1.5708044211017054 3.231510639190674 0.0011396970367059112 0.07104317098855972 0.1165376678109169 -0.19139713048934937 0.0 0.0005465951981022954 1 True False
1833.176 4.80233097076416 -1.378357545738556 1.7003653685199183 -1.8927761516966761 -1.5707805792437952 3.23148250579834 0.0010186308063566685 0.07898501306772232 0.13426002860069275 -0.21017147600650787 0.0 0.0003030454972758889 1 True False
1833.196 4.802273750305176 -1.3765556675246735 1.7032864729510706 -1.8973175487914027 -1.5707967917071741 3.2315478324890137 0.0005205569323152304 0.09064537286758423 0.15231452882289886 -0.24523566663265228 0.0 0.00031373786623589694 1 True False
1833.216 4.802302837371826 -1.3747035425952454 1.7063267866717737 -1.9024917087950648 -1.5708406607257288 3.2315478324890137 0.0006054596160538495 0.09827441722154617 0.17170193791389465 -0.2649570405483246 0.0 0.00018486719636712223 1 True False
1833.2359999999999 4.802286624908447 -1.3726094675115128 1.7099383513080042 -1.9082189999022425 -1.5707967917071741 3.2315402030944824 0.00028539280174300075 0.10993020236492157 0.18854735791683197 -0.2868266999721527 0.0 0.00015722427633590996 1 True False
1833.2559999999999 4.802326679229736 -1.370276541715004 1.7139623800860804 -1.91441073040151 -1.5707686583148401 3.2315855026245117 0.00021782795374747366 0.11833209544420242 0.20906701683998108 -0.31956639885902405 0.0 0.00012176474410807714 1 True False
1833.2759999999998 4.802273750305176 -1.367772714500763 1.7182219664203089 -1.9211842022337855 -1.570824925099508 3.231527090072632 0.00018498503777664155 0.1329697072505951 0.2267708033323288 -0.3509184718132019 0.0 9.935791604220867e-05 1 True False
1833.2959999999998 4.802289962768555 -1.365106688146927 1.7229130903827112 -1.928692480126852 -1.5708048979388636 3.2315566539764404 0.00011897811782546341 0.13750123977661133 0.24082206189632416 -0.3810320496559143 0.0 8.391657320316881e-05 1 True False
1833.3159999999998 4.802326679229736 -1.3622295421412964 1.727980915700094 -1.9365993938841761 -1.5707767645465296 3.231576681137085 0.00011374621681170538 0.15163986384868622 0.26131337881088257 -0.40340638160705566 0.0 7.262938015628606e-05 1 True False
1833.4959999999999 4.802342414855957 -1.3289476794055481 1.7851036230670374 -2.0271154842772425 -1.5707972685443323 3.231538772583008 8.39670465211384e-05 0.17905420064926147 0.3062930405139923 -0.4729624092578888 0.0 3.242404545744648e-06 1 True False
1833.5359999999998 4.802342414855957 -1.322238878612854 1.7966864744769495 -2.0451957188048304 -1.5708006064044397 3.2315728664398193 5.482281803213264e-35 0.1552322655916214 0.2673685550689697 -0.4242379069328308 0.0 2.8583401761870682e-21 1 True False
1833.5559999999998 4.802342414855957 -1.3192386490157624 1.8016327063189905 -2.0533958874144496 -1.570829216633932 3.2315597534179688 0.0 0.14586061239242554 0.2511354982852936 -0.38888588547706604 0.0 8.486669883400009e-29 1 True False
1833.576 4.80232572555542 -1.3164222699454804 1.8064244429217737 -2.060970445672506 -1.5707405249225062 3.2315685749053955 0.0 0.13452185690402985 0.23426544666290283 -0.36015260219573975 0.0 2.5197685323852985e-36 1 True False
1833.596 4.802375316619873 -1.3138204973987122 1.8110211531268519 -2.0679837665953578 -1.5707886854754847 3.23154354095459 0.0 0.1263093203306198 0.2195153683423996 -0.32823875546455383 0.0 7.42688186092153e-44 1 True False
1833.616 4.802366733551025 -1.3114172679236908 1.8150971571551722 -2.074513097802633 -1.5707967917071741 3.2315640449523926 0.0 0.11031916737556458 0.19817155599594116 -0.3046332001686096 0.0 0.0 1 True False
1833.636 4.802379608154297 -1.309261367922165 1.818953816090719 -2.0804912052550257 -1.5707648436175745 3.2315239906311035 0.0 0.09959493577480316 0.17959681153297424 -0.27931928634643555 0.0 0.0 1 True False
1833.656 4.802359580993652 -1.3072561782649537 1.8225186506854456 -2.0858899555602015 -1.5707805792437952 3.2315478324890137 0.0 0.09319888055324554 0.16281037032604218 -0.25258901715278625 0.0 0.0 1 True False
1833.676 4.802359580993652 -1.3055038017085572 1.8255804220782679 -2.0907441578307093 -1.5707967917071741 3.2315478324890137 0.0 0.08275352418422699 0.14585064351558685 -0.23734982311725616 0.0 0.0 1 True False
1833.696 4.802420139312744 -1.3040091854384919 1.828139607106344 -2.0950633488097132 -1.5708211104022425 3.2315597534179688 0.0 0.07323991507291794 0.11915408819913864 -0.199290469288826 0.0 0.0 1 True False
1833.716 4.8023834228515625 -1.3025781375220795 1.8304351011859339 -2.098783155480856 -1.5707929770099085 3.2315359115600586 0.0 0.06376318633556366 0.11079113930463791 -0.16680468618869781 0.0 0.0 1 True False
1833.7359999999999 4.802318096160889 -1.301427112226822 1.8324349562274378 -2.1017943821349085 -1.5707925001727503 3.2315359115600586 0.0 0.05389682948589325 0.09482557326555252 -0.13867755234241486 0.0 0.0 1 True False
1833.7559999999999 4.802403926849365 -1.3004232806018372 1.8340938727008265 -2.104515691796774 -1.5708168188678187 3.2315640449523926 0.0 0.0450478158891201 0.07440269738435745 -0.12243469059467316 0.0 0.0 1 True False
1833.7759999999998 4.802285194396973 -1.2998016637614747 1.8352893034564417 -2.106528421441549 -1.5707925001727503 3.2315521240234375 0.0 0.03121119737625122 0.055797677487134933 -0.08880452811717987 0.0 0.0 1 True False
1833.7959999999998 4.8023600578308105 -1.2991493505290528 1.836240593587057 -2.1079045734801234 -1.5708168188678187 3.2315640449523926 0.0 0.023481840267777443 0.040819138288497925 -0.059448279440402985 0.0 0.0 1 True False
1833.8159999999998 4.802383899688721 -1.2988504630378266 1.83690053621401 -2.108779092828268 -1.570801083241598 3.231527328491211 0.0 0.013491121120750904 0.0253599900752306 -0.038077790290117264 0.0 0.0 1 True False
1833.836 4.802375793457031 -1.2986836296371003 1.8371871153460901 -2.1092521152892054 -1.5708048979388636 3.2315521240234375 0.0 -0.0006620095809921622 0.0003882401215378195 -0.009640532545745373 0.0 0.0 1 True False
1833.856 4.802380084991455 -1.29878123224292 1.837116543446676 -2.109272619287008 -1.5707891623126429 3.231503486633301 4.705482490739883e-14 -1.583673513508299e-13 -4.388450991488213e-10 0.00016223300190176815 0.0 0.0 1 True False
1833.876 4.802366733551025 -1.2986985606006165 1.837092701588766 -2.109260698358053 -1.570801083241598 3.231487274169922 3.677833230676261e-34 -1.0482744533524269e-10 -6.179706615205806e-22 5.6556000345153734e-05 0.0 0.0 1 True False
1833.896 4.802374839782715 -1.2987484496882935 1.8370898405658167 -2.1091886959471644 -1.5707529226886194 3.2315359115600586 0.0 -8.193374300372669e-31 -8.702104782255737e-34 6.943805055925623e-05 0.0 -3.5131020315049e-09 1 True False
1833.916 4.802297115325928 -1.2987737518600007 1.8371108214007776 -2.109220644036764 -1.5707925001727503 3.231503486633301 0.0 0.0 -1.401298464324817e-45 1.8734336998393886e-11 0.0 -1.0430713113580197e-16 1 True False
1833.936 4.802313327789307 -1.2987738114646454 1.837221924458639 -2.1092449627318324 -1.5707967917071741 3.2315359115600586 0.0 0.0005899312091059983 -0.0 5.562393606700851e-19 0.0 -3.0969730533738395e-24 1 True False
1833.956 4.802326679229736 -1.2987857025912781 1.8371484915362757 -2.109260698358053 -1.570813004170553 3.231499195098877 0.0 0.0002349145506741479 -0.0 1.6515243703573158e-26 0.0 -9.19519229959684e-32 1 True False
1833.9759999999999 4.802341938018799 -1.2987827521613617 1.837121311818258 -2.1092125378050746 -1.5708048979388636 3.2315239906311035 0.0 0.00024384054995607585 0.00017069157911464572 4.903525093287247e-34 0.0 -2.730135785059398e-39 1 True False
1833.9959999999999 4.8023176193237305 -1.298808292751648 1.8372004667865198 -2.109248777429098 -1.5708325544940394 3.2315239906311035 0.0 0.00021199201000854373 0.0002011943724937737 -8.536677341908216e-05 0.0 -0.0 1 True False
1834.0159999999998 4.802366733551025 -1.2987946730903168 1.8371260801898401 -2.109248777429098 -1.570853058491842 3.2315022945404053 0.0 0.00016420215251855552 0.00021140789613127708 -0.0003829736670013517 0.0 -0.0 1 True False
1834.0359999999998 4.80237340927124 -1.2986883384040375 1.837175194417135 -2.10921635250234 -1.5707805792437952 3.2315316200256348 0.0 0.0007167383446358144 0.0004706706677097827 -0.0002178413706133142 0.0 -0.0 1 True False
1834.0559999999998 4.802326679229736 -1.298759089117386 1.8372042814837855 -2.1092564068236292 -1.5707967917071741 3.2315564155578613 0.0 0.00035915678017772734 0.00027213056455366313 -0.00017610465874895453 0.0 -0.0 1 True False
1834.076 4.802366733551025 -1.2986883086017151 1.8370955626117151 -2.1092521152892054 -1.5708168188678187 3.2315444946289062 0.0 0.0001846069935709238 0.00022879010066390038 -0.0001770507951732725 0.0 -0.0 1 True False
1834.096 4.802285194396973 -1.2987471979907532 1.837088410054342 -2.1092645130553187 -1.570756737385885 3.23154354095459 0.0 0.00020944594871252775 0.00013521211803890765 -0.00014954707876313478 0.0 -0.0 1 True False
1834.116 4.8024091720581055 -1.2986883384040375 1.8371170202838343 -2.109276433984274 -1.5707529226886194 3.2315726280212402 0.0 0.00019745680037885904 0.0001141913453466259 -0.0003226421831641346 0.0 -0.0 1 True False
1834.136 4.802364349365234 -1.2987335485270997 1.8371871153460901 -2.1092564068236292 -1.5707925001727503 3.2315521240234375 0.0 0.00019204338605049998 0.00010134753392776474 -0.00023562680871691555 0.0 -0.0 1 True False
1834.156 4.802350997924805 -1.2986883980086823 1.8372200171100062 -2.1092564068236292 -1.5708487669574183 3.2316014766693115 0.0 0.00016826279170345515 9.95541995507665e-05 -0.0001959534565685317 0.0 -0.0 1 True False
1834.176 4.802366733551025 -1.2987546187690278 1.8372038046466272 -2.10927214244985 -1.5707929770099085 3.2315196990966797 0.0 0.00013638906239066273 9.825047163758427e-05 -0.00015403691213577986 0.0 -2.6100553895958e-06 1 True False
1834.196 4.802334308624268 -1.298730121260025 1.8371828238116663 -2.1092521152892054 -1.5707843939410608 3.2315521240234375 0.0 0.00011371372238500044 8.418887591687962e-05 -9.751268225954846e-05 0.0 -7.749488849023364e-14 1 True False
1834.216 4.8023295402526855 -1.298671917324402 1.837121311818258 -2.1092845402159632 -1.570772949849264 3.231494903564453 -6.70833471203816e-16 9.820635023061186e-05 6.927540380274877e-05 -9.616430179448798e-05 0.0 -2.3008931447473527e-21 1 True False
1834.2359999999999 4.802326679229736 -1.2986956101707001 1.8371780554400843 -2.109300275842184 -1.5707925001727503 3.231515407562256 -5.243275189194321e-36 9.6943746029865e-05 7.204013672890142e-05 -8.947442984208465e-05 0.0 -6.83155818926143e-29 1 True False
1834.2559999999999 4.8023552894592285 -1.2986672681621094 1.8371780554400843 -2.1092845402159632 -1.570784870778219 3.2315640449523926 0.0 8.40156790218316e-05 6.356077210512012e-05 -8.27302792458795e-05 0.0 -2.0283510527253776e-36 1 True False
1834.2759999999998 4.8023881912231445 -1.29868836820636 1.8371861616717737 -2.1092683277525843 -1.5707529226886194 3.231534719467163 2.5458282834733836e-05 8.472005720250309e-05 2.772312657217668e-10 -8.34324600873515e-05 0.0 -6.025583396596713e-44 1 True False
1834.2959999999998 4.8023295402526855 -1.2986671787551423 1.8372004667865198 -2.109276433984274 -1.570853058491842 3.2315564155578613 1.9864091489773626e-24 7.67782112234272e-05 3.903899701628363e-22 -3.740307619182204e-09 0.0 -0.0 1 True False
1834.3159999999998 4.8023223876953125 -1.2987226408771058 1.8371952215777796 -2.1093250713744105 -1.5707767645465296 3.2315938472747803 1.5414283107572988e-44 6.558791210409254e-05 5.497371523175724e-34 -5.639728988171555e-05 0.0 -0.0 1 True False
1834.336 4.802366733551025 -1.2986673277667542 1.8371618429767054 -2.10927214244985 -1.570784870778219 3.2315359115600586 0.0 6.869346543680876e-05 1.401298464324817e-45 -5.97106663917657e-05 0.0 -0.0 1 True False
1834.356 4.802305698394775 -1.2986837190440674 1.8371780554400843 -2.1092363796629847 -1.5707648436175745 3.2315938472747803 0.0 6.0941278206883e-05 0.0 -5.271556437946856e-05 0.0 -0.0 1 True False
1834.376 4.802313327789307 -1.2986645263484498 1.8371575514422815 -2.109328409234518 -1.5707605520831507 3.2315564155578613 0.0 4.8933783606328015e-21 0.0 -8.580820498593766e-09 0.0 -0.0 1 True False
1834.396 4.802321910858154 -1.298668996696808 1.8372443358050745 -2.1092521152892054 -1.5707691351519983 3.2315564155578613 0.0 3.8247040285281557e-41 4.2819595091891927e-10 -2.5477223747126336e-16 0.0 -0.0 1 True False
1834.416 4.802341938018799 -1.2987545889667054 1.8372328917132776 -2.1093045673766078 -1.5707767645465296 3.23154354095459 0.0 0.0 6.509083323180676e-05 -4.5245553337736055e-05 -0.00042511787614785135 5.448055730994383e-07 1 True False
1834.436 4.802305698394775 -1.2987275284579773 1.8370431105243128 -2.109547277490133 -1.5707925001727503 3.231546640396118 0.0 -0.0004029167757835239 -0.000687079387716949 -0.006719900295138359 0.0006477521383203566 0.0008310377597808838 1 True False
1834.456 4.802334308624268 -1.298769311313965 1.83708364168276 -2.1095110378661097 -1.5707886854754847 3.231567859649658 0.0 0.000188112971954979 -0.0002068820031126961 -0.0005355767789296806 0.00018904176249634475 -0.00023570400662720203 1 True False
1834.4759999999999 4.802301406860352 -1.2987992030433197 1.8370793501483362 -2.109507223168844 -1.570756737385885 3.231572151184082 0.0 0.00018597104644868523 8.356830949196592e-05 -0.00014711330004502088 0.00010524431854719296 -0.00016763621533755213 1 True False
1834.4959999999999 4.802351951599121 -1.2987364691546937 1.837116543446676 -2.1095196209349574 -1.570801083241598 3.231600284576416 0.0 0.00023347075330093503 8.583933959016576e-05 0.0007772501558065414 7.571879541501403e-05 -0.00011437221837695688 1 True False
1834.5159999999998 4.802338600158691 -1.2987030309489747 1.8370955626117151 -2.1094991169371546 -1.570801083241598 3.2315592765808105 0.0 0.0003116545849479735 8.679518941789865e-05 0.0008858210640028119 5.913236236665398e-05 -8.679074380779639e-05 1 True True
1834.5359999999998 4.802341938018799 -1.2987857025912781 1.8369711081134241 -2.109077592889303 -1.570784870778219 3.231555223464966 0.0 -0.006510986480861902 -0.015671798959374428 0.037675660103559494 6.415297684725374e-05 -6.992929411353543e-05 1 True True
1834.5559999999998 4.802321910858154 -1.298946575527527 1.8367388884173792 -2.108114858666891 -1.5707925001727503 3.2315852642059326 0.0 -0.013598092831671238 -0.026793809607625008 0.0499032661318779 5.482603228301741e-05 -7.31899417587556e-05 1 True True
1834.576 4.8023176193237305 -1.2991853517344971 1.8361004034625452 -2.1068488560118617 -1.570801083241598 3.231588363647461 0.0 -0.024319108575582504 -0.048359617590904236 0.06807362288236618 3.593288056435995e-05 -6.501065217889845e-05 1 True True
1834.596 4.8023600578308105 -1.299923525457718 1.834928337727682 -2.105189462701315 -1.5707686583148401 3.2315521240234375 0.0 -0.04331200197339058 -0.07159166038036346 0.09749187529087067 3.151882629026659e-05 -7.952057057991624e-05 1 True True
1834.616 4.802310466766357 -1.3009546262076874 1.833228890095846 -2.1028901539244593 -1.5707805792437952 3.231576681137085 0.0 -0.05620048940181732 -0.09072519093751907 0.13301338255405426 3.3362015372517817e-09 -8.069902833085507e-05 1 True True
1834.636 4.802326679229736 -1.302094743852951 1.8313177267657679 -2.0996672115721644 -1.570784870778219 3.23154354095459 0.0 -0.061320960521698 -0.10369950532913208 0.16514825820922852 9.905485188344546e-17 -0.00012460847210604697 1 True True
1834.656 4.8023552894592285 -1.303345875149109 1.8291376272784632 -2.096190115014547 -1.5707767645465296 3.231511116027832 0.0 -0.06878077983856201 -0.12608276307582855 0.18764571845531464 2.941027874186129e-24 -0.00011709298996720463 1 True True
1834.676 4.802310466766357 -1.304873601799347 1.826364819203512 -2.0920473537840785 -1.5707805792437952 3.231555223464966 0.0 -0.08565644174814224 -0.14482960104942322 0.21265369653701782 8.732175654257099e-32 -0.00012796618102584034 1 True True
1834.696 4.8022966384887695 -1.3067179781249543 1.8233969847308558 -2.0874606571593226 -1.5707767645465296 3.231572151184082 0.0 -0.09010902047157288 -0.15528708696365356 0.25518399477005005 1.444446923182241e-10 -0.0001088985227397643 1 True True
1834.716 4.802356243133545 -1.3086926502040406 1.8200491110431116 -2.0821410618224085 -1.570813004170553 3.231580972671509 0.0 -0.09757596254348755 -0.17072832584381104 0.2598099708557129 4.288692834480727e-18 -9.114413114730269e-05 1 True True
1834.7359999999999 4.802326679229736 -1.3107576829246064 1.8162782827960413 -2.076468130151266 -1.5707686583148401 3.231572151184082 0.0 -0.11198164522647858 -0.19221614301204681 0.29457584023475647 1.2733519095951074e-25 -9.094886627281085e-05 1 True True
1834.7559999999999 4.802351951599121 -1.3131028276732941 1.8121407667743128 -2.070164819756979 -1.570829216633932 3.231580972671509 0.0 -0.11810595542192459 -0.2104983776807785 0.32772529125213623 3.780695828117675e-33 -9.081229654839262e-05 1 True True
1834.7759999999998 4.802369117736816 -1.315680519943573 1.807852570210592 -2.0631472072997035 -1.5707929770099085 3.23154354095459 0.0 -0.13150940835475922 -0.22972515225410461 0.35999077558517456 1.122524147832038e-40 -7.93709623394534e-05 1 True True
1834.7959999999998 4.8023176193237305 -1.3183788818171998 1.8032029310809534 -2.055697580377096 -1.5707767645465296 3.2315478324890137 0.0 -0.13806027173995972 -0.2397838979959488 0.3776331841945648 0.0 -7.050756539683789e-05 1 True True
1834.8159999999998 4.802350997924805 -1.3213618111661454 1.7981255690204065 -2.0476724110045375 -1.5707805792437952 3.231511116027832 0.0 -0.14938199520111084 -0.2626703679561615 0.4061342775821686 0.0 -1.267912511093705e-11 1 True True
1834.836 4.8023552894592285 -1.3245086085847397 1.7928302923785608 -2.039159437219137 -1.5708044211017054 3.231592893600464 0.0 -0.16387607157230377 -0.2769467830657959 0.4438880383968353 0.0 -3.764546013626168e-19 1 True True
1834.856 4.80233097076416 -1.327776463036873 1.7870457808123987 -2.030013700524801 -1.5707886854754847 3.2315196990966797 0.0 -0.1752704530954361 -0.3015109896659851 0.46887606382369995 0.0 -1.1177278491811163e-26 1 True True
1834.876 4.80233097076416 -1.3314430278590699 1.7807577292071741 -2.020324846307272 -1.5707524458514612 3.2315359115600586 0.0 -0.18495599925518036 -0.32163873314857483 0.4904453456401825 0.0 -3.3186342994886254e-34 1 True True
1834.896 4.802305698394775 -1.3352262538722535 1.7743375937091272 -2.010045190850729 -1.5708091894732874 3.2315852642059326 0.0 -0.1937715858221054 -0.33119437098503113 0.5212324857711792 0.0 -9.853930801132114e-42 1 True True
1834.916 4.802326679229736 -1.3391453486732026 1.7674887816058558 -1.9993044338622035 -1.5708168188678187 3.231527328491211 0.0 -0.20263543725013733 -0.3506476581096649 0.5471445918083191 0.0 -0.0 1 True True
1834.936 4.802334308624268 -1.3432878863862534 1.7604501883136194 -1.9878832302489222 -1.5707767645465296 3.2314987182617188 0.0 -0.19300585985183716 -0.3389272391796112 0.5703374147415161 0.0 -0.0 1 True True
1834.956 4.8023600578308105 -1.3473317933133622 1.753434960042135 -1.9771901569762171 -1.570813004170553 3.2315611839294434 0.0 -0.19419589638710022 -0.33584368228912354 0.5249557495117188 -2.2997860560369787e-10 -0.0 1 True True
1834.9759999999999 4.802321910858154 -1.3511130076697846 1.7469614187823694 -1.966745992700094 -1.5707925001727503 3.231585741043091 0.0 -0.1843404322862625 -0.31981560587882996 0.506174623966217 -6.828271731868062e-18 -0.0 1 True True
1834.9959999999999 4.802375793457031 -1.3546136331609269 1.7408974806415003 -1.9569455585875453 -1.5707886854754847 3.2315359115600586 0.0 -0.17320117354393005 -0.2961578667163849 0.4692576825618744 -2.027375238127362e-25 -0.0 1 True True
1835.0159999999998 4.802371501922607 -1.3579481554082413 1.7351277510272425 -1.9477702579894007 -1.570829216633932 3.2315194606781006 0.0 -0.1649143248796463 -0.2783956527709961 0.45391717553138733 -6.0194597167472616e-33 -0.0 1 True True
1835.0359999999998 4.802326679229736 -1.361120567922928 1.7295625845538538 -1.9389807186522425 -1.5707843939410608 3.2315523624420166 0.0 -0.15534383058547974 -0.26854702830314636 0.42792820930480957 1.530440385977272e-05 -0.0 1 True True
1835.0559999999998 4.8023552894592285 -1.3641926062158127 1.7244427839862269 -1.9308959446349085 -1.570813004170553 3.231581211090088 0.0 -0.14678511023521423 -0.24805869162082672 0.39320245385169983 3.4317713470954914e-07 -0.0 1 True True
1835.076 4.802358150482178 -1.3669738930514832 1.7195656935321253 -1.9234453640379847 -1.5708168188678187 3.2315685749053955 0.0 -0.13603149354457855 -0.23143115639686584 0.3524959683418274 1.018923969042752e-14 -0.0 1 True True
1835.096 4.8024091720581055 -1.3695598107627411 1.7152326742755335 -1.916513582269186 -1.5707767645465296 3.2315523624420166 0.0 -0.12324944138526917 -0.21315893530845642 0.3326456546783447 3.025277027683766e-22 -0.0 1 True True
1835.116 4.802366733551025 -1.3719229412129899 1.7113259474383753 -1.9100433788695277 -1.5708006064044397 3.2315151691436768 0.0 -0.11386757344007492 -0.19630005955696106 0.3130241930484772 8.982322098136094e-30 -0.0 1 True True
1835.136 4.8023295402526855 -1.3740713757327576 1.7075746695147913 -1.904144903222555 -1.5707925001727503 3.2315523624420166 0.0 -0.10428060591220856 -0.17676404118537903 0.2748185992240906 2.6669317312283684e-37 -0.0 1 True True
1835.156 4.802338600158691 -1.3760640633157273 1.7042277495013636 -1.8987208805479945 -1.5707529226886194 3.2315731048583984 0.0 -0.09527643024921417 -0.16518665850162506 0.2563573122024536 8.407790785948902e-45 -0.0 1 True True
1835.176 4.802346706390381 -1.3777506065419693 1.7012017408954065 -1.894083162347311 -1.570801083241598 3.2314987182617188 0.0 -0.08136223256587982 -0.14096543192863464 0.22896386682987213 0.0 -0.0 1 True True
1835.196 4.802334308624268 -1.3792885851911088 1.6986163298236292 -1.8898278675475062 -1.5708254019366663 3.2315642833709717 0.0 -0.07250469923019409 -0.12316957116127014 0.19375857710838318 0.0 -0.0 1 True True
1835.216 4.802350997924805 -1.380687640314438 1.6961782614337366 -1.8861962757506312 -1.5708335081683558 3.2315776348114014 0.0 -0.06080092862248421 -0.11354212462902069 0.1763196885585785 0.0 -0.0 1 True True
1835.2359999999999 4.802313327789307 -1.3817743521979828 1.694145981465475 -1.8831101856627406 -1.5708087126361292 3.2315776348114014 0.0 -0.053102850914001465 -0.08724839985370636 0.14317207038402557 0.0 -0.0 1 True True
1835.2559999999999 4.802380561828613 -1.3827189219048996 1.692611042653219 -1.880613466302389 -1.570829216633932 3.2316019535064697 0.0 -0.04092898592352867 -0.07084538042545319 0.12835811078548431 0.0 -0.0 1 True True
1835.2759999999998 4.802364349365234 -1.3834014695933838 1.6913946310626429 -1.8785349331297816 -1.5707967917071741 3.231489658355713 0.0 -0.030030803754925728 -0.057110320776700974 0.08206070959568024 0.0 -0.0 1 True True
1835.2959999999998 4.802392959594727 -1.383892999296524 1.6903851667987269 -1.8772455654540003 -1.5707886854754847 3.2315032482147217 0.0 -0.022665128111839294 -0.03984953463077545 0.05838688835501671 0.0 -1.15577324777405e-06 1 True True
1835.3159999999998 4.8023176193237305 -1.3843267571977158 1.689786736165182 -1.8764111004271449 -1.5707772413836878 3.2315433025360107 0.0 -0.012728787027299404 -0.020515698939561844 0.027326006442308426 0.0 7.656595357730112e-08 1 True True
1835.336 4.802370071411133 -1.384343461399414 1.6896279493915003 -1.8762084446349085 -1.5707405249225062 3.2315239906311035 0.0 -1.929108250919853e-08 0.0011506355367600918 -0.001823925762437284 0.0 2.273311704829059e-15 1 True True
1835.356 4.802083492279053 -1.3843387526324769 1.6896632353412073 -1.8762408695616664 -1.570801083241598 3.23122239112854 -0.02376285009086132 0.0010329773649573326 0.0008463202393613756 0.0018870113417506218 0.0 -0.0235928725451231 1 True True
1835.376 4.8012495040893555 -1.3843538475087662 1.6896517912494105 -1.8761960468687953 -1.5708048979388636 3.2304368019104004 -0.05349162220954895 -0.00017001735977828503 7.554701733170077e-05 0.0006177634932100773 0.0 -0.053387537598609924 1 True True
1835.396 4.799994945526123 -1.384295554166176 1.689671818410055 -1.876200338403219 -1.5707967917071741 3.229057550430298 -0.07977595180273056 -9.294892515754327e-05 1.0638340741286927e-16 0.0018259158823639154 0.0 -0.08207744359970093 1 True True
1835.416 4.798064231872559 -1.3842788648656388 1.6896832625018519 -1.8761493168272914 -1.5708006064044397 3.227138042449951 -0.11179821938276291 -5.931520718149841e-05 1.4980643849771953e-28 0.0023335192818194628 0.0 -0.10843924432992935 1 True True
1835.436 4.795449733734131 -1.3843341630748291 1.6896479765521448 -1.8760887585081996 -1.5708087126361292 3.2245635986328125 -0.14209885895252228 -6.69204382575117e-05 2.109542734163866e-40 0.0007940506329759955 0.0 -0.1347402036190033 1 True True
1835.456 4.7923431396484375 -1.3842788648656388 1.6896474997149866 -1.876077791253561 -1.570813004170553 3.2215073108673096 -0.16501159965991974 -4.392682603793219e-05 0.0 0.0020850123837590218 0.0 -0.16640128195285797 1 True True
1835.4759999999999 4.788827419281006 -1.3843327325633545 1.6896918455706995 -1.8760739765562953 -1.5708373228656214 3.2178680896759033 -0.19320538640022278 -3.530985486577265e-05 0.0 0.0009098191512748599 0.0 -0.19037513434886932 1 True True
1835.4959999999999 4.784567356109619 -1.3842922163060685 1.6896675268756312 -1.876089712182516 -1.570813004170553 3.213724374771118 -0.22692255675792694 -4.427890235092491e-05 -0.00016421831969637424 0.0003031621454283595 0.0 -0.22004586458206177 1 True True
1835.5159999999998 4.779903411865234 -1.3843044650605698 1.689692799245016 -1.8760177097716273 -1.5708125273333948 3.209150791168213 -0.2526480555534363 2.7479483833303675e-05 -0.00013948619016446173 0.0002164653706131503 0.0 -0.25024333596229553 1 True True
1835.5359999999998 4.774521350860596 -1.3843371582082291 1.689660374318258 -1.8760177097716273 -1.5707648436175745 3.203815460205078 -0.27927836775779724 2.105178646161221e-05 -0.00023636114201508462 0.00015491571684833616 0.0 -0.2809518873691559 1 True True
1835.5559999999998 4.768584251403809 -1.3843415540507813 1.6896322409259241 -1.8760739765562953 -1.5707886854754847 3.197970390319824 -0.3052377700805664 1.706107286736369e-05 -0.0005114595405757427 0.00012037486158078536 0.0 -0.30856189131736755 1 True True
1835.576 4.762259483337402 -1.3842788499644776 1.6896479765521448 -1.8760529957213343 -1.5707810560809534 3.1913981437683105 -0.3265422284603119 2.8684569770121016e-05 -0.0004190558393020183 9.843038424151018e-05 0.0 -0.3295939266681671 1 True True
1835.596 4.7552947998046875 -1.3842922312072297 1.6895907560931605 -1.8760572872557582 -1.570784870778219 3.184406042098999 -0.358652800321579 2.4741802917560562e-05 -0.0009741339017637074 8.325371163664386e-05 -0.00015932634414639324 -0.35475045442581177 1 True True
1835.616 4.747813701629639 -1.3842922312072297 1.689603630696432 -1.8760739765562953 -1.5708087126361292 3.1769282817840576 -0.3901652693748474 3.2627965993015096e-05 -0.0007074120221659541 8.414185140281916e-05 -0.00010017232125392184 -0.3846704065799713 1 True True
1835.636 4.739614486694336 -1.3843074899962922 1.689570728932516 -1.8760177097716273 -1.570784870778219 3.1690022945404053 -0.4183143377304077 3.776147394773943e-09 -0.0014806154649704695 7.423733768519014e-05 -7.305819599423558e-05 -0.4202708303928375 1 True True
1835.656 4.7308878898620605 -1.3842592400363465 1.6895559469806116 -1.8761097393431605 -1.5707886854754847 3.160159111022949 -0.4465872049331665 9.685366239864379e-05 -0.0015378877287730575 2.8577858302014647e-08 -5.749748743255623e-05 -0.4404809772968292 1 True True
1835.676 4.721785068511963 -1.3842351597598572 1.689540211354391 -1.8761173687376917 -1.5708206335650843 3.150994062423706 -0.47033238410949707 0.0004448294930625707 -0.0013564544497057796 8.485023376595497e-16 -6.320275133475661e-05 -0.4685116708278656 1 True True
1835.696 4.712127208709717 -1.3842702221921463 1.6895163694964808 -1.8760940037169398 -1.570801083241598 3.1413769721984863 -0.500679612159729 0.0005247231456451118 -0.0012058429419994354 2.9842717186312484e-10 -4.03227677452378e-05 -0.5083975195884705 1 True True
1835.716 4.70164155960083 -1.3843026173165818 1.6894972960101526 -1.8760220013060511 -1.5708087126361292 3.130919933319092 -0.5302648544311523 0.0017361596692353487 -0.0018984058406203985 8.860572606030208e-18 1.8223333952960274e-10 -0.5326514840126038 1 True True
1835.7359999999999 4.690866470336914 -1.3842159670642395 1.6894195715533655 -1.876077791253561 -1.5707810560809534 3.1199259757995605 -0.5572025775909424 0.0014859511284157634 -0.00135142938233912 0.00023356894962489605 5.4106715183609156e-18 -0.5520276427268982 1 True True
1835.7559999999999 4.67950963973999 -1.3842607301524659 1.6894195715533655 -1.8760138950743617 -1.5707810560809534 3.108712673187256 -0.584691047668457 0.0009022351587191224 -0.0015361986588686705 0.0009199107298627496 1.6064772695515268e-25 -0.5819067358970642 1 True True
1835.7759999999998 4.667283058166504 -1.3841516834548493 1.6893838087665003 -1.8760420284666957 -1.570772949849264 3.0965240001678467 -0.6155849695205688 0.0021418032702058554 -0.0017828110139817 0.0004264327872078866 4.7697769787087025e-33 -0.6123875379562378 1 True True
1835.7959999999998 4.654873847961426 -1.3841482412866135 1.6893733183490198 -1.87603821376943 -1.5708006064044397 3.084106206893921 -0.6371299028396606 0.0011438984656706452 -0.0014200989389792085 0.00029049706063233316 1.4161942670005899e-40 -0.6317259073257446 1 True True
1835.8159999999998 4.641793251037598 -1.3841319245151062 1.6893284956561487 -1.8760339222350062 -1.5707572142230433 3.071065664291382 -0.6656027436256409 0.0010264812735840678 -0.0013393694534897804 0.0006454460672102869 -1.235223034967703e-10 -0.6737608313560486 1 True True
1835.836 4.628026485443115 -1.3841125977090378 1.6893041769610804 -1.876073499719137 -1.5708449522601526 3.05720591545105 -0.7011321187019348 0.002984097460284829 -0.0022751546930521727 0.00038462397060357034 -0.0010455361334607005 -0.695260226726532 1 True True
1835.856 4.613955020904541 -1.384088249211647 1.6892760435687464 -1.8760220013060511 -1.5707572142230433 3.0431456565856934 -0.7195398211479187 0.0006479904404841363 -0.0010816022986546159 0.0002504548174329102 0.0010972499148920178 -0.7252634167671204 1 True True
1835.876 4.599003791809082 -1.3840477627566834 1.6892817656146448 -1.8760653934874476 -1.5708406607257288 3.028132915496826 -0.7567816972732544 0.001775682670995593 -0.002130419947206974 0.0005453209159895778 3.191703581251204e-05 -0.7449056506156921 1 True True
1835.896 4.583662986755371 -1.3840579402497788 1.6892536322223108 -1.8760177097716273 -1.5707886854754847 3.0130786895751953 -0.7775819897651672 0.0012817488750442863 -0.0015895951073616743 0.00027231223066337407 -0.00016266590682789683 -0.7856518030166626 1 True True
1835.916 4.567898273468018 -1.3839848798564454 1.6892150084124964 -1.8759380779662074 -1.5708368460284632 2.9969756603240967 -0.808533787727356 0.0018665993120521307 -0.0019631378818303347 0.0005259828758426011 -4.829696104852177e-12 -0.8085224628448486 1 True True
1835.936 4.5513410568237305 -1.3839804989150544 1.689141098652975 -1.8759619198241175 -1.5707529226886194 2.98071026802063 -0.8379049897193909 0.0014273484703153372 -0.001789708505384624 0.0003286960709374398 5.0019916670862585e-05 -0.8355402946472168 1 True True
1835.956 4.534317970275879 -1.383879692559578 1.6890962759601038 -1.8759619198241175 -1.5708330313311976 2.9633631706237793 -0.8637351393699646 0.002090844791382551 -0.0023931418545544147 0.0004007068637292832 4.59004586446099e-05 -0.860521674156189 1 True True
1835.9759999999999 4.516782760620117 -1.3839051884463807 1.6890648047076624 -1.8759094677367152 -1.570756737385885 2.9461052417755127 -0.888012170791626 0.001345849595963955 -0.001452615950256586 0.00027264008531346917 -3.253266550018452e-05 -0.8967041969299316 1 True True
1835.9959999999999 4.498617649078369 -1.383848415022232 1.6890619436847132 -1.8759938679137171 -1.5708335081683558 2.9277195930480957 -0.9234859347343445 0.002299268264323473 -0.0027497741393744946 0.0005784537643194199 1.8924789401353337e-05 -0.9144338369369507 1 True True
1836.0159999999998 4.479890823364258 -1.3838527363589783 1.688967529927389 -1.8759023151793421 -1.5707810560809534 2.9090263843536377 -0.9446994066238403 0.001746435067616403 -0.001872090739198029 0.0003059256705455482 5.618940100531045e-13 -0.9495267868041992 1 True True
1836.0359999999998 4.460653305053711 -1.3838270616582413 1.6889331976519983 -1.8759814701476039 -1.570784870778219 2.889998435974121 -0.9768933653831482 0.002431072760373354 -0.002557069296017289 0.0003567175008356571 1.668314243387919e-20 -0.9764488935470581 1 True True
1836.0559999999998 4.4408040046691895 -1.3837655794671555 1.688875977193014 -1.8758980236449183 -1.570784870778219 2.869985342025757 -1.0016586780548096 0.002351244678720832 -0.002301330678164959 0.000413890287745744 4.953375779684821e-28 -1.0055574178695679 1 True True
1836.076 4.420439720153809 -1.3836507511189957 1.6888211409198206 -1.8759228191771449 -1.57074481645693 2.8496909141540527 -1.0287214517593384 0.001165212830528617 -0.0020586042664945126 0.0012118065496906638 1.4707018491095542e-35 -1.033847451210022 1 True True
1836.096 4.399589538574219 -1.3836398881724854 1.6887972990619105 -1.8758980236449183 -1.5708006064044397 2.828838348388672 -1.0402612686157227 0.0012689426075667143 -0.0019351844675838947 0.0005172827513888478 4.372051208693429e-43 -1.0399068593978882 1 True True
1836.116 4.378682613372803 -1.38359651089225 1.688728157673971 -1.8759461841978968 -1.5707610289203089 2.807771682739258 -1.045039415359497 0.00191114516928792 -0.002213236875832081 0.0005088432226330042 0.0 -1.0470359325408936 1 True True
1836.136 4.35782527923584 -1.3835682284883042 1.6886799971209925 -1.8759347401061 -1.570784870778219 2.7869648933410645 -1.0466233491897583 0.001212978851981461 -0.0016926961252465844 0.0006019294960424304 0.0 -1.058586835861206 1 True True
1836.156 4.336815357208252 -1.383532927637436 1.688620392476217 -1.8759266338744105 -1.570784870778219 2.7660398483276367 -1.0519235134124756 0.00250137597322464 -0.002571576274931431 0.00044504523975774646 7.769627700326964e-05 -1.0425447225570679 1 True True
1836.176 4.315843105316162 -1.3835210067084809 1.6885846296893519 -1.8758789501585902 -1.5707929770099085 2.744964122772217 -1.0474542379379272 0.0023280074819922447 -0.00253347959369421 0.0003453510580584407 8.279329631477594e-05 -1.0504162311553955 1 True True
1836.196 4.294867038726807 -1.3834554714015503 1.6885741392718714 -1.875866552392477 -1.5707810560809534 2.7240712642669678 -1.0463639497756958 0.0009304117411375046 -0.0020340518094599247 0.0006935828132554889 8.358482591575012e-05 -1.053001880645752 1 True True
1836.216 4.273960590362549 -1.383432687526085 1.688509766255514 -1.8758789501585902 -1.5707452932940882 2.7031326293945312 -1.0488184690475464 0.002716588554903865 -0.0024491017684340477 0.00043927450315095484 -5.420395245891996e-05 -1.043581247329712 1 True True
1836.2359999999999 4.253034591674805 -1.383411930208542 1.6884616057025355 -1.875883241693014 -1.5708211104022425 2.6821582317352295 -1.0473634004592896 0.002309606410562992 -0.0025153690949082375 0.0003523897030390799 -1.3989651104218126e-10 -1.0538616180419922 1 True True
1836.2559999999999 4.231977462768555 -1.3833847504905243 1.68840200105776 -1.8758789501585902 -1.5707767645465296 2.6612191200256348 -1.0422950983047485 0.0011897693620994687 -0.0019095782190561295 0.0008850222802720964 -4.153653531529914e-18 -1.055945873260498 1 True True
1836.2759999999998 4.211146831512451 -1.3833249372294922 1.6884406248675745 -1.8758188686766566 -1.5707805792437952 2.6402950286865234 -1.0529136657714844 0.002343365689739585 -0.0021832601632922888 0.00042200638563372195 -1.233257068011118e-25 -1.0430866479873657 1 True True
1836.2959999999998 4.190104961395264 -1.3833469313434144 1.6883505026446741 -1.8758508167662562 -1.5707686583148401 2.619283437728882 -1.046767234802246 0.0025362870655953884 -0.0020098157692700624 0.0006534208077937365 -3.6616520458419635e-33 -1.0514230728149414 1 True True
1836.3159999999998 4.169239044189453 -1.3832964462092896 1.688286606465475 -1.8758274517455042 -1.5707891623126429 2.5984857082366943 -1.044169545173645 0.0014107387978583574 -0.0018790754256770015 0.0004960636724717915 -1.087183400561766e-40 -1.0538419485092163 1 True True
1836.336 4.148255825042725 -1.3831959676793595 1.6883166472064417 -1.8758231602110804 -1.5708449522601526 2.577526807785034 -1.04734468460083 0.00239776773378253 -0.002351978560909629 0.000429986888775602 -0.0 -1.0419282913208008 1 True True
1836.356 4.127337455749512 -1.3831602793983002 1.688199822102682 -1.8758074245848597 -1.5707686583148401 2.5564193725585938 -1.0453585386276245 0.0023313642013818026 -0.0019935898017138243 0.0006146275554783642 -0.0 -1.0472996234893799 1 True True
1836.376 4.106420040130615 -1.3831316840699692 1.68815786043276 -1.87577547649526 -1.5707362333880823 2.535663604736328 -1.0434062480926514 0.001274941023439169 -0.00224052625708282 0.0004343265318311751 -0.0 -1.0568976402282715 1 True True
1836.396 4.0854573249816895 -1.3830675196698685 1.6881192366229456 -1.8757835827269496 -1.5707843939410608 2.5146563053131104 -1.0524698495864868 0.003029951360076666 -0.0018796061631292105 0.00029546188306994736 -0.0 -1.0415674448013306 1 True True
1836.416 4.064560890197754 -1.3830939543298264 1.688031021748678 -1.8757668934264125 -1.5707805792437952 2.4935896396636963 -1.0460997819900513 0.0028707198798656464 -0.0031399426516145468 0.000495509710162878 -0.0 -1.0516269207000732 1 True True
1836.436 4.043569087982178 -1.383080707197525 1.6880515257464808 -1.8757511578001917 -1.5707362333880823 2.472738265991211 -1.0444790124893188 0.0015719716902822256 -0.0015236283652484417 0.00029273625114001334 -0.0 -1.0562790632247925 1 True True
1836.456 4.022573947906494 -1.3829758030227204 1.6879661718951624 -1.8757673702635707 -1.5707967917071741 2.4518823623657227 -1.0496306419372559 0.0025314907543361187 -0.0023188397753983736 0.00024593184934929013 5.604539410342113e-07 -1.0450682640075684 1 True True
1836.4759999999999 4.0016865730285645 -1.3829856377891083 1.687972370778219 -1.8758074245848597 -1.5707686583148401 2.4307773113250732 -1.0452306270599365 0.0023561292327940464 -0.0025774380192160606 0.0006622732034884393 1.6640384071218463e-14 -1.0504162311553955 1 True True
1836.4959999999999 3.980666160583496 -1.3829495918801804 1.6878493467914026 -1.8757792911925257 -1.5707972685443323 2.409860372543335 -1.04383385181427 0.001017330214381218 -0.0013091994915157557 0.0011746120871976018 4.940679015867931e-22 -1.051138997077942 1 True True
1836.5159999999998 3.9598238468170166 -1.382864699964859 1.6878302733050745 -1.8757711849608363 -1.5708368460284632 2.3890745639801025 -1.0493608713150024 0.002265289193019271 -0.0023681572638452053 0.0004363899934105575 1.4669320885380402e-29 -1.0452518463134766 1 True True
1836.5359999999998 3.9389073848724365 -1.382799194460251 1.6877577940570276 -1.8756991825499476 -1.5707891623126429 2.367914915084839 -1.0451290607452393 0.0019701167475432158 -0.0029267624486237764 0.0005584695609286427 4.3554522118121775e-37 -1.0463961362838745 1 True True
1836.5559999999998 3.9178760051727295 -1.3828330797008057 1.6877015272723597 -1.8757473431029261 -1.570772949849264 2.3471219539642334 -1.0453051328659058 0.001256909454241395 -0.002009078161790967 0.0003981914196629077 -0.00011489699681987986 -1.0526254177093506 1 True True
1836.576 3.8969624042510986 -1.3827481877854844 1.6877401510821741 -1.8757277927794398 -1.5708654562579554 2.326204776763916 -1.049867033958435 0.0025847707875072956 -0.001929313293658197 0.0003483339387457818 -0.00015037352568469942 -1.0443103313446045 1 True True
1836.596 3.8760504722595215 -1.3827084761909028 1.6876800696002405 -1.8756844005980433 -1.5707724730121058 2.305136203765869 -1.0450211763381958 0.002433904679492116 -0.002800090704113245 0.0007349530351348221 0.00011763690417865291 -1.044368028640747 1 True True
1836.616 3.855055332183838 -1.3826876890710373 1.6876609961139124 -1.8756996593871058 -1.5707610289203089 2.2842202186584473 -1.0446025133132935 0.001379334949888289 -0.0023871534503996372 0.0005658925510942936 2.1539142691651136e-10 -1.0533790588378906 1 True True
1836.636 3.8341379165649414 -1.3826618057540436 1.6875761190997522 -1.875707288781637 -1.5707843939410608 2.2634024620056152 -1.0520106554031372 0.0023102250415831804 -0.002227506833150983 0.0003692423633765429 6.395166994170503e-18 -1.043689489364624 1 True True
1836.656 3.8132286071777344 -1.3826780033162613 1.6875441710101526 -1.8757034740843714 -1.5707967917071741 2.242291212081909 -1.0487773418426514 0.002208857797086239 -0.003058751579374075 0.0007711059297434986 0.00019099567725788802 -1.0432988405227661 1 True True
1836.676 3.792224645614624 -1.3826543253711243 1.687484089528219 -1.8756596050658167 -1.5707772413836878 2.22139573097229 -1.0450669527053833 0.001143105560913682 -0.0020628306083381176 0.0014467642176896334 1.2302724117230213e-10 -1.0526126623153687 1 True True
1836.696 3.771334409713745 -1.3825584662011643 1.68744403520693 -1.8756715259947718 -1.5708254019366663 2.2005274295806885 -1.0497897863388062 0.0018893633969128132 -0.002125565893948078 0.0004997913492843509 3.652789880364768e-18 -1.0440073013305664 1 True True
1836.716 3.7503044605255127 -1.38254967451606 1.6873977820025843 -1.8756562672057093 -1.5708168188678187 2.1795289516448975 -1.0488061904907227 0.002450605621561408 -0.0030222719069570303 0.0007279670680873096 1.0845463103180598e-25 -1.0477529764175415 1 True True
1836.7359999999999 3.729341506958008 -1.3824689400247117 1.687331501637594 -1.8756081066527308 -1.570784870778219 2.15853214263916 -1.0420644283294678 0.0011381475487723947 -0.0018805608851835132 0.00038773397682234645 3.2201150618380036e-33 -1.0505475997924805 1 True True
1836.7559999999999 3.708458662033081 -1.3823925715735932 1.6873257795916956 -1.8756076298155726 -1.5707805792437952 2.137634515762329 -1.0482233762741089 0.0027337835635989904 -0.002176902024075389 0.0002953368821181357 9.560779162395362e-41 -1.0454621315002441 1 True True
1836.7759999999998 3.687490940093994 -1.382368416791298 1.687232796345846 -1.8756681881346644 -1.5708087126361292 2.1166317462921143 -1.0483986139297485 0.002654746640473604 -0.002517955144867301 0.00046019404544495046 4.5354307076195255e-05 -1.043720006942749 1 True True
1836.7959999999998 3.6665308475494385 -1.3823521000197907 1.6871550718890589 -1.8756762943663539 -1.570784870778219 2.09574031829834 -1.0413267612457275 0.0013018605532124639 -0.0019258514512330294 0.00028049221145920455 1.0068518067896104e-11 -1.050905466079712 1 True True
1836.8159999999998 3.6456387042999268 -1.382345588212349 1.6871731917010706 -1.8755842647948207 -1.5707925001727503 2.074873447418213 -1.0490829944610596 0.00261764251627028 -0.0019015141297131777 0.0002526829484850168 2.989433060212115e-19 -1.0426647663116455 1 True True
1836.836 3.624675750732422 -1.38228893399749 1.687092129384176 -1.8756042919554652 -1.5708091894732874 2.053820848464966 -1.048594355583191 0.0026936703361570835 -0.0028081582859158516 0.0003267897991463542 8.875894667741458e-27 -1.0469661951065063 1 True True
1836.856 3.603745222091675 -1.382297621374466 1.6871054808246058 -1.875608583489889 -1.5707805792437952 2.0329041481018066 -1.0454384088516235 0.0015814532525837421 -0.0017804399831220508 0.0006857496919110417 2.6353322903250917e-34 -1.0541510581970215 1 True True
1836.876 3.5828635692596436 -1.3821886044791718 1.6870577971087855 -1.8755842647948207 -1.5707686583148401 2.012066602706909 -1.051487922668457 0.002114007016643882 -0.0018530411180108786 0.0003884770267177373 7.824850624789779e-42 -1.0467402935028076 1 True True
