Andreas691667/Digital_Twin_UR/src/controller_monitor/test_results/E4_robot_output.csv
timestamp actual_q_0 actual_q_1 actual_q_2 actual_q_3 actual_q_4 actual_q_5 actual_qd_0 actual_qd_1 actual_qd_2 actual_qd_3 actual_qd_4 actual_qd_5 safety_status output_bit_register_65 output_bit_register_66
2005.9499999999998 3.7120494842529297 -0.8254750531962891 0.8429306189166468 -1.588269372979635 -1.5707648436175745 2.141295909881592 0.0 0.0 -0.0 0.0 -0.0 -0.0 1 False False
2005.9699999999998 3.7120537757873535 -0.8254817885211487 0.8429802099810999 -1.5882650814452113 -1.5708168188678187 2.141258955001831 0.0 0.0 -0.0 0.0 -0.0 -0.0 1 False False
2005.99 3.712066650390625 -0.8255396050265809 0.8429515997516077 -1.5882932148375453 -1.5707691351519983 2.14127516746521 0.0 0.0 -0.0 0.0 -0.0 -0.0 1 False False
2006.01 3.712066650390625 -0.8255201739123841 0.8430054823504847 -1.5883094273009242 -1.5707805792437952 2.14127516746521 0.0 0.0 -0.0 0.0 -0.0 -0.0 1 False False
2006.03 3.7120416164398193 -0.8255127829364319 0.8429630438434046 -1.5882889233031214 -1.5707524458514612 2.1413414478302 0.0 0.0 -0.0 0.0 -0.0 -0.0 1 False False
2006.05 3.712095022201538 -0.8254906100085755 0.8429144064532679 -1.588280817071432 -1.570801083241598 2.141263246536255 0.0 0.0 -0.0 0.0 -0.0 -0.0 1 False False
2006.07 3.7120578289031982 -0.8255202931216736 0.8429473082171839 -1.5882889233031214 -1.5707925001727503 2.141270637512207 0.0 0.0 -0.0 0.0 -0.0 -0.0 1 False False
2006.09 3.712042808532715 -0.8254913848689576 0.8430097738849085 -1.5883327923216761 -1.5707805792437952 2.141291618347168 0.0 0.0 -0.0 0.0 -0.0 -0.0 1 False False
2006.11 3.7120490074157715 -0.8255365651896973 0.8429673353778284 -1.5882774792113246 -1.570824925099508 2.141263246536255 0.0 0.0 -0.0 0.0 -0.0 -0.0 1 False False
2006.1299999999999 3.712071180343628 -0.8255452078631897 0.8429630438434046 -1.5883327923216761 -1.5708168188678187 2.141287088394165 0.0 0.0 -0.0 0.0 -0.0 -0.0 1 False False
2006.1499999999999 3.7120981216430664 -0.8255112928203125 0.8429673353778284 -1.5882488689818324 -1.57074481645693 2.1413004398345947 0.0 0.0 -0.0 0.0 -0.0 -0.0 1 False False
2006.1699999999998 3.7120535373687744 -0.8254823845675965 0.8429587523089808 -1.588252683679098 -1.5708048979388636 2.1413094997406006 0.0 0.0 -0.0 0.0 -0.0 -0.0 1 False False
2006.1899999999998 3.7120323181152344 -0.8254957360080262 0.8429892698871058 -1.5882531605162562 -1.570813004170553 2.1413004398345947 0.0 0.0 -0.0 0.0 -0.0 -0.0 1 False False
2006.2099999999998 3.712078809738159 -0.8254774969867249 0.8429606596576136 -1.5883451900877894 -1.570813004170553 2.141322135925293 0.0 0.0 -0.0 0.0 -0.0 -0.0 1 False False
2006.23 3.712083339691162 -0.8255809110454102 0.8429802099810999 -1.588285585443014 -1.5707967917071741 2.141214370727539 0.0 0.0 -0.0 0.0 -0.0 -0.0 1 False False
2006.25 3.7120816707611084 -0.8255039018443604 0.8429845015155237 -1.5882655582823695 -1.5707605520831507 2.141296148300171 0.0 0.0 -0.0 0.0 -0.0 -0.0 1 False False
2006.27 3.7120578289031982 -0.8255352538875123 0.8429845015155237 -1.5882655582823695 -1.5708044211017054 2.14131760597229 0.0 0.0 -0.0 0.0 -0.0 -0.0 1 False False
2006.29 3.712062358856201 -0.8254780334285279 0.8430307547198694 -1.5882770023741664 -1.5708168188678187 2.1413309574127197 0.0 0.0 -0.0 0.0 -0.0 -0.0 1 False False
2006.31 3.712050199508667 -0.8254824441722413 0.8429721037494105 -1.5882774792113246 -1.5708254019366663 2.141258955001831 0.0 0.0 -0.0 0.0 -0.0 -0.0 1 False False
2006.33 3.712078809738159 -0.8254617613605042 0.8429978529559534 -1.588269372979635 -1.5708168188678187 2.14123797416687 0.0 0.0 -0.0 0.0 -0.0 -0.0 1 False False
2006.35 3.712095022201538 -0.8254587811282654 0.8429802099810999 -1.5883094273009242 -1.570801083241598 2.141237735748291 0.0 0.0 -0.0 0.0 -0.0 -0.0 1 False False
2006.37 3.7120413780212402 -0.8254649204066773 0.8429887930499476 -1.5883246860899867 -1.5707772413836878 2.141338586807251 0.0 0.0 -0.0 0.0 -0.0 -0.0 1 False False
2006.3899999999999 3.7120203971862793 -0.8254649204066773 0.8429392019854944 -1.5883013210692347 -1.5708168188678187 2.1412994861602783 0.0 0.0 -0.0 0.0 -0.0 -0.0 1 False False
2006.4099999999999 3.7120535373687744 -0.8254497808269043 0.8430216948138636 -1.5883008442320765 -1.570801083241598 2.141267776489258 0.0 0.0 -0.0 0.0 -0.0 -0.0 1 False False
2006.4299999999998 3.7120490074157715 -0.8254780930331727 0.8429887930499476 -1.588297029534811 -1.5707767645465296 2.141263246536255 0.0 0.0 -0.0 0.0 -0.0 -0.0 1 False False
2006.4499999999998 3.712083101272583 -0.8254661721042176 0.8429630438434046 -1.5882889233031214 -1.5708087126361292 2.141263246536255 0.0 0.0 -0.0 0.0 -0.0 -0.0 1 False False
2006.4699999999998 3.7120697498321533 -0.8255156439593812 0.8430126349078577 -1.5883165798582972 -1.5707648436175745 2.141284227371216 0.0 0.0 -0.0 0.0 -0.0 -0.0 1 False False
2006.49 3.7120742797851562 -0.8254950207522889 0.8430216948138636 -1.5883013210692347 -1.570813004170553 2.141226053237915 0.0 0.0 -0.0 0.0 -0.0 -0.0 1 False False
2006.51 3.7120578289031982 -0.8255025905421753 0.8429606596576136 -1.588269372979635 -1.5707686583148401 2.1412513256073 0.0 0.0 -0.0 0.0 -0.0 -0.0 1 False False
2006.53 3.7121145725250244 -0.8254906696132203 0.8429563681231897 -1.588292738000387 -1.570801083241598 2.141326427459717 0.0 0.0 -0.0 0.0 -0.0 -0.0 1 False False
2006.55 3.712132453918457 -0.8254913252643128 0.8430126349078577 -1.5883251629271449 -1.5708211104022425 2.141284227371216 0.0 0.0 -0.0 0.0 -0.0 -0.0 1 False False
2006.57 3.712078809738159 -0.8254544299891968 0.8429306189166468 -1.588308950463766 -1.5707443396197718 2.141266107559204 0.0 0.0 -0.0 0.0 -0.0 -0.0 1 False False
2006.59 3.712062358856201 -0.8255232733539124 0.8429515997516077 -1.5883013210692347 -1.570784870778219 2.141267776489258 0.0 0.0 -0.0 0.0 -0.0 -0.0 1 False False
2006.61 3.712125062942505 -0.8254661721042176 0.8429935614215296 -1.588280817071432 -1.5707891623126429 2.141254186630249 0.0 0.0 -0.0 0.0 -0.0 -0.0 1 False False
2006.6299999999999 3.712050199508667 -0.8254750531962891 0.8429964224444788 -1.5882889233031214 -1.570813004170553 2.141287088394165 0.0 0.0 -0.0 0.0 -0.0 -0.0 1 False False
2006.6499999999999 3.712127923965454 -0.8255558174899598 0.8429678122149866 -1.5883251629271449 -1.5707686583148401 2.14131760597229 0.0 0.0 -0.0 0.0 -0.0 -0.0 1 False False
2006.6699999999998 3.712036609649658 -0.8255570691875 0.8429935614215296 -1.5883451900877894 -1.570801083241598 2.141270637512207 0.0 0.0 -0.0 0.0 -0.0 -0.0 1 False False
2006.6899999999998 3.7121565341949463 -0.8255245250514527 0.8429587523089808 -1.5882488689818324 -1.570772949849264 2.1412885189056396 0.0 0.0 -0.0 0.0 -0.0 -0.0 1 False False
2006.7099999999998 3.712095260620117 -0.8254661721042176 0.8429678122149866 -1.5883575878539027 -1.570801083241598 2.141313076019287 0.0 0.0 -0.0 0.0 -0.0 -0.0 1 False False
2006.73 3.7120907306671143 -0.825461820965149 0.8429887930499476 -1.588252683679098 -1.5707767645465296 2.141279697418213 0.0 0.0 -0.0 0.0 -0.0 -0.0 1 False False
2006.75 3.7120742797851562 -0.8254707020572205 0.8430140654193323 -1.5883165798582972 -1.5708254019366663 2.14127516746521 0.0 0.0 -0.0 0.0 -0.0 -0.0 1 False False
2006.77 3.712111473083496 -0.8254661721042176 0.8429563681231897 -1.5883170566954554 -1.5707648436175745 2.141237735748291 0.0 0.0 -0.0 0.0 -0.0 -0.0 1 False False
2006.79 3.712078809738159 -0.8255364459804078 0.8429887930499476 -1.5882774792113246 -1.5708168188678187 2.141282558441162 0.0 0.0 -0.0 0.0 -0.0 -0.0 1 False False
2006.81 3.712095260620117 -0.8254994314960022 0.8429439703570765 -1.5883094273009242 -1.5707891623126429 2.141322135925293 0.0 0.0 -0.0 0.0 -0.0 -0.0 1 False False
2006.83 3.712104082107544 -0.8255156439593812 0.8429678122149866 -1.5883013210692347 -1.570784870778219 2.141284227371216 0.0 0.0 -0.0 0.0 -0.0 -0.0 1 False False
2006.85 3.7120742797851562 -0.8255039018443604 0.8429396788226526 -1.588320871392721 -1.5708211104022425 2.141270637512207 0.0 0.0 -0.0 0.0 -0.0 -0.0 1 False False
2006.87 3.712041139602661 -0.8255275648883362 0.8429845015155237 -1.588313718835348 -1.570801083241598 2.141284227371216 0.0 0.0 -0.0 0.0 -0.0 -0.0 1 False False
2006.8899999999999 3.7120203971862793 -0.8255155843547364 0.8429930845843714 -1.5882846317686976 -1.5708048979388636 2.141287088394165 0.0 0.0 -0.0 0.0 -0.0 -0.0 1 False False
2006.9099999999999 3.712132453918457 -0.8254456085017701 0.8429978529559534 -1.5882774792113246 -1.5707925001727503 2.1413159370422363 0.0 0.0 -0.0 0.0 -0.0 -0.0 1 False False
2006.9299999999998 3.7120742797851562 -0.825518862610199 0.8429721037494105 -1.5882731876769007 -1.5708168188678187 2.141254186630249 0.0 0.0 -0.0 0.0 -0.0 -0.0 1 False False
2006.9499999999998 3.7120907306671143 -0.8254869741252442 0.8429678122149866 -1.5882889233031214 -1.5708373228656214 2.141263246536255 0.0 0.0 -0.0 0.0 -0.0 -0.0 1 False False
2006.9699999999998 3.7120490074157715 -0.8254587215236207 0.8430288473712366 -1.5882774792113246 -1.570784870778219 2.141258955001831 0.0 0.0 -0.0 0.0 -0.0 -0.0 1 False False
2006.99 3.7120532989501953 -0.8254781526378174 0.8430140654193323 -1.5882607899107875 -1.5707605520831507 2.141242504119873 0.0 0.0 -0.0 0.0 -0.0 -0.0 1 False False
2007.01 3.712041139602661 -0.8255275648883362 0.8429473082171839 -1.5883056126036585 -1.5707886854754847 2.141247034072876 0.0 0.0 -0.0 0.0 -0.0 -0.0 1 False False
2007.03 3.7120697498321533 -0.825490729217865 0.8429563681231897 -1.5883251629271449 -1.5707724730121058 2.141226053237915 0.0 0.0 -0.0 0.0 -0.0 -0.0 1 False False
2007.05 3.7120444774627686 -0.8254781526378174 0.8429763952838343 -1.5882731876769007 -1.5707605520831507 2.141313076019287 0.0 0.0 -0.0 0.0 -0.0 -0.0 1 False False
2007.07 3.7120907306671143 -0.8255318564227601 0.8429887930499476 -1.588269372979635 -1.5708254019366663 2.141287088394165 0.0 0.0 -0.0 0.0 -0.0 -0.0 1 False False
2007.09 3.7121026515960693 -0.8255287569812317 0.8429845015155237 -1.5882607899107875 -1.5708406607257288 2.141254186630249 0.0 0.0 -0.0 0.0 -0.0 -0.0 1 False False
2007.11 3.7120742797851562 -0.8255254787257691 0.8429964224444788 -1.5883251629271449 -1.5708044211017054 2.141254186630249 0.0 0.0 -0.0 0.0 -0.0 -0.0 1 False False
2007.1299999999999 3.7120981216430664 -0.8254956167987366 0.8429802099810999 -1.5883532963194789 -1.570853058491842 2.1413004398345947 0.0 0.0 -0.0 0.0 -0.0 -0.0 1 False False
2007.1499999999999 3.7120652198791504 -0.8254662317088624 0.8429930845843714 -1.5883289776244105 -1.5707724730121058 2.1412723064422607 0.0 0.0 -0.0 0.0 -0.0 -0.0 1 False False
2007.1699999999998 3.7121026515960693 -0.8255201143077393 0.8429392019854944 -1.5883094273009242 -1.5707562605487269 2.141266107559204 0.0 0.0 -0.0 0.0 -0.0 -0.0 1 False False
2007.1899999999998 3.7120862007141113 -0.8255200547030945 0.8429802099810999 -1.5882846317686976 -1.5707967917071741 2.141313076019287 0.0 0.0 -0.0 0.0 -0.0 -0.0 1 False False
2007.2099999999998 3.7120652198791504 -0.8254956167987366 0.8430050055133265 -1.588297029534811 -1.5707648436175745 2.141263246536255 0.0 0.0 -0.0 0.0 -0.0 -0.0 1 False False
2007.23 3.7120862007141113 -0.8254500192454834 0.8429439703570765 -1.5883499584593714 -1.5708168188678187 2.1412973403930664 0.0 0.0 -0.0 0.0 -0.0 -0.0 1 False False
2007.25 3.7121188640594482 -0.8254993718913575 0.8429353872882288 -1.588280817071432 -1.5708168188678187 2.141263246536255 0.0 0.0 -0.0 0.0 -0.0 -0.0 1 False False
2007.27 3.712083339691162 -0.8254738611033936 0.8429802099810999 -1.5883056126036585 -1.5708211104022425 2.1413159370422363 0.0 0.0 -0.0 0.0 -0.0 -0.0 1 False False
2007.29 3.712099552154541 -0.8254707020572205 0.8429887930499476 -1.5883056126036585 -1.5707805792437952 2.141267776489258 0.0 0.0 -0.0 0.0 -0.0 -0.0 1 False False
2007.31 3.712095260620117 -0.825482503776886 0.8429678122149866 -1.5882731876769007 -1.5708168188678187 2.141357660293579 0.0 0.0 -0.0 0.0 -0.0 -0.0 1 False False
2007.33 3.7120697498321533 -0.8255773347667237 0.843029801045553 -1.5883013210692347 -1.5707967917071741 2.141279697418213 0.0 0.0 -0.0 0.0 -0.0 -0.0 1 False False
2007.35 3.7121071815490723 -0.825528697376587 0.8430169264422815 -1.5883175335326136 -1.5707805792437952 2.141254425048828 0.0 0.0 -0.0 0.0 -0.0 -0.0 1 False False
2007.37 3.712071418762207 -0.8255611819079895 0.8429845015155237 -1.5882817707457484 -1.570813004170553 2.1412885189056396 0.0 0.0 -0.0 0.0 -0.0 -0.0 1 False False
2007.3899999999999 3.7120368480682373 -0.8254383963397522 0.8429635206805628 -1.5882889233031214 -1.5707925001727503 2.1412839889526367 0.0 0.0 -0.0 0.0 -0.0 -0.0 1 False False
2007.4099999999999 3.712104320526123 -0.825491265659668 0.8429678122149866 -1.5882932148375453 -1.5707891623126429 2.141333818435669 0.0 0.0 -0.0 0.0 -0.0 -0.0 1 False False
2007.4299999999998 3.712062358856201 -0.8254869741252442 0.8430169264422815 -1.5882731876769007 -1.570801083241598 2.1413204669952393 0.0 0.0 -0.0 0.0 -0.0 -0.0 1 False False
2007.4499999999998 3.712078809738159 -0.8254662913135071 0.8429887930499476 -1.5883094273009242 -1.5708087126361292 2.141254425048828 0.0 0.0 -0.0 0.0 -0.0 -0.0 1 False False
2007.4699999999998 3.7120532989501953 -0.825528697376587 0.8429759184466761 -1.5882650814452113 -1.5707724730121058 2.141287088394165 0.0 0.0 -0.0 0.0 -0.0 -0.0 1 False False
2007.49 3.7120532989501953 -0.8255200547030945 0.8429973761187952 -1.5882374248900355 -1.5707967917071741 2.141247034072876 0.0 0.0 -0.0 0.0 -0.0 -0.0 1 False False
2007.51 3.7121236324310303 -0.8255038422397156 0.8429763952838343 -1.5883056126036585 -1.5708254019366663 2.141230821609497 0.0 0.0 -0.0 0.0 -0.0 -0.0 1 False False
2007.53 3.712111473083496 -0.825491265659668 0.8430255095111292 -1.5882374248900355 -1.5708048979388636 2.1413047313690186 0.0 0.0 -0.0 0.0 -0.0 -0.0 1 False False
2007.55 3.7121026515960693 -0.8254707616618653 0.8429845015155237 -1.5883013210692347 -1.5708335081683558 2.141291618347168 0.0 0.0 -0.0 0.0 -0.0 -0.0 1 False False
2007.57 3.7120697498321533 -0.8255242866328736 0.8429845015155237 -1.588280817071432 -1.5707891623126429 2.141313076019287 0.0 0.0 -0.0 0.0 -0.0 -0.0 1 False False
2007.59 3.7120742797851562 -0.8254869741252442 0.8429845015155237 -1.5882817707457484 -1.570801083241598 2.1412885189056396 0.0 0.0 -0.0 0.0 -0.0 -0.0 1 False False
2007.61 3.712083339691162 -0.8254414361766358 0.8430050055133265 -1.588252683679098 -1.5707925001727503 2.1412720680236816 0.0 0.0 -0.0 0.0 -0.0 -0.0 1 False False
2007.6299999999999 3.7120697498321533 -0.8254457873157044 0.8429396788226526 -1.5883413753905238 -1.5707724730121058 2.141254425048828 0.0 0.0 -0.0 0.0 -0.0 -0.0 1 False False
2007.6499999999999 3.7120203971862793 -0.8254630726626893 0.8429520765887659 -1.5882932148375453 -1.5707486311541956 2.1412839889526367 0.0 0.0 -0.0 0.0 -0.0 -0.0 1 False False
2007.6699999999998 3.712062358856201 -0.8254696887782593 0.8429759184466761 -1.5883013210692347 -1.5708168188678187 2.141275405883789 0.0 0.0 -0.0 0.0 -0.0 -0.0 1 False False
2007.6899999999998 3.7120578289031982 -0.825585739021637 0.8430255095111292 -1.588269372979635 -1.570784870778219 2.1413259506225586 0.0 0.0 -0.0 0.0 -0.0 -0.0 1 False False
2007.7099999999998 3.7120907306671143 -0.8255165976336976 0.8429721037494105 -1.5882846317686976 -1.570772949849264 2.141345500946045 0.0 0.0 -0.0 0.0 -0.0 -0.0 1 False False
2007.73 3.712078809738159 -0.8254415553859253 0.8429964224444788 -1.5883251629271449 -1.5707362333880823 2.141270875930786 0.0 0.0 -0.0 0.0 -0.0 -0.0 1 False False
2007.75 3.7120580673217773 -0.8254588407329102 0.8429525534259241 -1.5882846317686976 -1.5707805792437952 2.1412055492401123 0.0 0.0 -0.0 0.0 -0.0 -0.0 1 False False
2007.77 3.712120532989502 -0.8254587811282654 0.8429845015155237 -1.5882889233031214 -1.5707772413836878 2.141275405883789 0.0 0.0 -0.0 0.0 -0.0 -0.0 1 False False
2007.79 3.712066888809204 -0.8254060310176392 0.8429678122149866 -1.5883294544615687 -1.5708168188678187 2.141324758529663 0.0 0.0 -0.0 0.0 -0.0 -0.0 1 False False
2007.81 3.712045669555664 -0.8255038422397156 0.8429678122149866 -1.5882846317686976 -1.5707805792437952 2.141270875930786 0.0 0.0 -0.0 0.0 -0.0 -0.0 1 False False
2007.83 3.712095022201538 -0.8254793447307129 0.8429759184466761 -1.5882774792113246 -1.5708087126361292 2.141291618347168 0.0 0.0 -0.0 0.0 -0.0 -0.0 1 False False
2007.85 3.7120742797851562 -0.825478271847107 0.8430092970477503 -1.588280817071432 -1.5707805792437952 2.14132022857666 0.0 0.0 -0.0 0.0 -0.0 -0.0 1 False False
2007.87 3.7120578289031982 -0.8254950803569336 0.8430050055133265 -1.5882207355894984 -1.5708168188678187 2.141263484954834 0.0 0.0 -0.0 0.0 -0.0 -0.0 1 False False
2007.8899999999999 3.712066888809204 -0.8254793447307129 0.8429759184466761 -1.588269372979635 -1.570756737385885 2.141270875930786 0.0 0.0 -0.0 0.0 -0.0 -0.0 1 False False
2007.9099999999999 3.712078809738159 -0.8254869145205994 0.8429520765887659 -1.5883013210692347 -1.570756737385885 2.141238212585449 0.0 0.0 -0.0 0.0 -0.0 -0.0 1 False False
2007.9299999999998 3.712050199508667 -0.825458900337555 0.8430092970477503 -1.5882846317686976 -1.5708168188678187 2.141324758529663 0.0 0.0 -0.0 0.0 -0.0 -0.0 1 False False
2007.9499999999998 3.712045669555664 -0.8255027097514649 0.8430331389056605 -1.588252683679098 -1.5707925001727503 2.1413047313690186 0.0 0.0 -0.0 0.0 -0.0 -0.0 1 False False
2007.9699999999998 3.7120742797851562 -0.8255404394916077 0.8430212179767054 -1.588320871392721 -1.570813004170553 2.141270875930786 0.0 0.0 -0.0 0.0 -0.0 -0.0 1 False False
2007.99 3.712099552154541 -0.8254383963397522 0.8429678122149866 -1.5882607899107875 -1.5708368460284632 2.1412429809570312 0.0 0.0 -0.0 0.0 -0.0 -0.0 1 False False
2008.01 3.7120413780212402 -0.8254501980594178 0.8429515997516077 -1.5883094273009242 -1.5707967917071741 2.141275405883789 0.0 0.0 -0.0 0.0 -0.0 -0.0 1 False False
2008.03 3.712083101272583 -0.8254954975894471 0.8429845015155237 -1.588297029534811 -1.570772949849264 2.1412601470947266 0.0 0.0 -0.0 0.0 -0.0 -0.0 1 False False
2008.05 3.712083101272583 -0.8255123657039185 0.8429721037494105 -1.588297029534811 -1.570756737385885 2.141275405883789 0.0 0.0 -0.0 0.0 -0.0 -0.0 1 False False
2008.07 3.71207857131958 -0.8255166572383423 0.8429349104510706 -1.5882817707457484 -1.5707891623126429 2.1413040161132812 0.0 0.0 -0.0 0.0 -0.0 -0.0 1 False False
2008.09 3.712099552154541 -0.8255361479571839 0.8429392019854944 -1.588297029534811 -1.5707529226886194 2.1412546634674072 0.0 0.0 -0.0 0.0 -0.0 -0.0 1 False False
2008.11 3.7120413780212402 -0.8254993122867127 0.8429811636554163 -1.5882374248900355 -1.5707648436175745 2.141275405883789 0.0 0.0 -0.0 0.0 -0.0 -0.0 1 False False
2008.1299999999999 3.7120819091796875 -0.8254716557315369 0.8429186979876917 -1.588273664514059 -1.5707486311541956 2.1412546634674072 0.0 0.0 -0.0 0.0 -0.0 -0.0 1 False False
2008.1499999999999 3.7120907306671143 -0.8255317372134705 0.8429845015155237 -1.5883289776244105 -1.5708168188678187 2.1412503719329834 0.0 0.0 -0.0 0.0 -0.0 -0.0 1 False False
2008.1699999999998 3.712012767791748 -0.8255404394916077 0.8429721037494105 -1.5883375606932582 -1.5707724730121058 2.1412384510040283 0.0 0.0 -0.0 0.0 -0.0 -0.0 1 False False
2008.1899999999998 3.7120654582977295 -0.8254825633815308 0.8429630438434046 -1.5883375606932582 -1.570813004170553 2.141242742538452 0.0 0.0 -0.0 0.0 -0.0 -0.0 1 False False
2008.23 3.7120611667633057 -0.8255080145648499 0.8429587523089808 -1.5882774792113246 -1.5708373228656214 2.1412222385406494 0.0 0.0 -0.0 0.0 -0.0 -0.0 1 False False
2008.25 3.7120754718780518 -0.8254869741252442 0.8430007139789026 -1.5882569752135218 -1.5708211104022425 2.141295909881592 0.0 0.0 -0.0 0.0 -0.0 -0.0 1 False False
2008.27 3.712045669555664 -0.8254739207080384 0.8429935614215296 -1.5883251629271449 -1.5708048979388636 2.141317129135132 0.0 0.0 -0.0 0.0 -0.0 -0.0 1 False False
2008.29 3.7120699882507324 -0.8254708212665101 0.8429845015155237 -1.5882417164244593 -1.5707648436175745 2.1412785053253174 0.0 0.0 -0.0 0.0 -0.0 -0.0 1 False False
2008.31 3.712090492248535 -0.8255080741694947 0.8429563681231897 -1.588280817071432 -1.5708206335650843 2.14125919342041 0.0 0.0 -0.0 0.0 -0.0 -0.0 1 False False
2008.33 3.712062358856201 -0.825463132267334 0.8429721037494105 -1.5883094273009242 -1.5707967917071741 2.1413333415985107 0.0 0.0 -0.0 0.0 -0.0 -0.0 1 False False
2008.35 3.7120862007141113 -0.825478271847107 0.8430145422564905 -1.5883289776244105 -1.5707929770099085 2.141279697418213 0.0 0.0 -0.0 0.0 -0.0 -0.0 1 False False
2008.37 3.7120862007141113 -0.8255155843547364 0.8429306189166468 -1.5882650814452113 -1.570772949849264 2.141270875930786 0.0 0.0 -0.0 0.0 -0.0 -0.0 1 False False
2008.3899999999999 3.7120699882507324 -0.8254296344569703 0.8429845015155237 -1.588269372979635 -1.5708125273333948 2.1412997245788574 0.0 0.0 -0.0 0.0 -0.0 -0.0 1 False False
2008.4099999999999 3.712083101272583 -0.8255123657039185 0.8430174032794397 -1.5882889233031214 -1.5708006064044397 2.141270875930786 0.0 0.0 -0.0 0.0 -0.0 -0.0 1 False False
2008.4299999999998 3.7120699882507324 -0.8255446714213868 0.8429396788226526 -1.5882655582823695 -1.570784870778219 2.1413333415985107 0.0 0.0 -0.0 0.0 -0.0 -0.0 1 False False
2008.4499999999998 3.712123155593872 -0.8254993718913575 0.8429630438434046 -1.5882531605162562 -1.5708087126361292 2.141251564025879 0.0 0.0 -0.0 0.0 -0.0 -0.0 1 False False
2008.4699999999998 3.712013006210327 -0.8255479496768494 0.8429482618915003 -1.5883013210692347 -1.5707967917071741 2.141291618347168 0.0 0.0 -0.0 0.0 -0.0 -0.0 1 False False
2008.49 3.712087392807007 -0.825491265659668 0.8429186979876917 -1.588269372979635 -1.570784870778219 2.141247272491455 0.0 0.0 -0.0 0.0 -0.0 -0.0 1 False False
2008.51 3.7120370864868164 -0.8254620593837281 0.8429845015155237 -1.5882851086058558 -1.5708048979388636 2.141267776489258 0.0 0.0 -0.0 0.0 -0.0 -0.0 1 False False
2008.53 3.712095022201538 -0.8254577678493042 0.8429649511920374 -1.5882846317686976 -1.5707925001727503 2.1412267684936523 0.0 0.0 -0.0 0.0 -0.0 -0.0 1 False False
2008.55 3.7120537757873535 -0.8255362075618287 0.8429482618915003 -1.5882851086058558 -1.5707967917071741 2.141308546066284 0.0 0.0 -0.0 0.0 -0.0 -0.0 1 False False
2008.57 3.7121353149414062 -0.8255165976336976 0.8430007139789026 -1.588269372979635 -1.5707886854754847 2.1412665843963623 0.0 0.0 -0.0 0.0 -0.0 -0.0 1 False False
2008.59 3.7120862007141113 -0.8254739803126832 0.8430054823504847 -1.5883494816222132 -1.5708125273333948 2.1413040161132812 0.0 0.0 -0.0 0.0 -0.0 -0.0 1 False False
2008.61 3.7120699882507324 -0.8254708212665101 0.8429845015155237 -1.5882417164244593 -1.5708048979388636 2.141247272491455 0.0 0.0 -0.0 0.0 -0.0 -0.0 1 False False
2008.6299999999999 3.7120494842529297 -0.8254708212665101 0.8429754416095179 -1.5882655582823695 -1.570784870778219 2.141295909881592 0.0 0.0 -0.0 0.0 -0.0 -0.0 1 False False
2008.6499999999999 3.7120776176452637 -0.8254493039897461 0.8429845015155237 -1.5882488689818324 -1.5707810560809534 2.1413040161132812 0.0 0.0 -0.0 0.0 -0.0 -0.0 1 False False
2008.6699999999998 3.7120699882507324 -0.8254707616618653 0.8429887930499476 -1.588297506371969 -1.5707929770099085 2.141287088394165 0.0 0.0 -0.0 0.0 -0.0 -0.0 1 False False
2008.6899999999998 3.712066650390625 -0.8255199950984498 0.8429763952838343 -1.5882932148375453 -1.570829216633932 2.141282796859741 0.0 0.0 -0.0 0.0 -0.0 -0.0 1 False False
2008.7099999999998 3.7121317386627197 -0.8255404394916077 0.8429515997516077 -1.588292738000387 -1.5707810560809534 2.141247272491455 0.0 0.0 -0.0 0.0 -0.0 -0.0 1 False False
2008.73 3.7120494842529297 -0.8254955571940918 0.8429563681231897 -1.588269372979635 -1.5707767645465296 2.141291618347168 0.0 0.0 -0.0 0.0 -0.0 -0.0 1 False False
2008.75 3.7120981216430664 -0.8255199950984498 0.8429754416095179 -1.5883327923216761 -1.5708330313311976 2.141279697418213 0.0 0.0 -0.0 0.0 -0.0 -0.0 1 False False
2008.77 3.7121100425720215 -0.8254908484271546 0.8429515997516077 -1.5882774792113246 -1.5707410017596644 2.141308546066284 0.0 0.0 -0.0 0.0 -0.0 -0.0 1 False False
2008.79 3.7121036052703857 -0.8254707616618653 0.8429845015155237 -1.5883246860899867 -1.570824925099508 2.141291618347168 0.0 0.0 -0.0 0.0 -0.0 -0.0 1 False False
2008.81 3.71207857131958 -0.8255275052836915 0.8429439703570765 -1.588297506371969 -1.5707886854754847 2.141263484954834 0.0 0.0 -0.0 0.0 -0.0 -0.0 1 False False
2008.83 3.712094783782959 -0.8254674238017579 0.8429349104510706 -1.5882612667479457 -1.5707648436175745 2.141324758529663 0.0 0.0 -0.0 0.0 -0.0 -0.0 1 False False
2008.85 3.7120492458343506 -0.825457827453949 0.8429935614215296 -1.588269372979635 -1.5707810560809534 2.141287088394165 0.0 0.0 -0.0 0.0 -0.0 -0.0 1 False False
2008.87 3.7120580673217773 -0.8254459065249939 0.8430097738849085 -1.5883051357665003 -1.5708087126361292 2.1412546634674072 0.0 0.0 -0.0 0.0 -0.0 -0.0 1 False False
2008.8899999999999 3.712066650390625 -0.8255112332156678 0.8429673353778284 -1.5882531605162562 -1.5707691351519983 2.141312837600708 0.0 0.0 -0.0 0.0 -0.0 -0.0 1 False False
2008.9099999999999 3.7120916843414307 -0.8254546088031312 0.8429673353778284 -1.5882650814452113 -1.570772949849264 2.1413214206695557 0.0 0.0 -0.0 0.0 -0.0 -0.0 1 False False
2008.9299999999998 3.7121036052703857 -0.8255189222148438 0.8430097738849085 -1.5883251629271449 -1.5707648436175745 2.141279697418213 0.0 0.0 -0.0 0.0 -0.0 -0.0 1 False False
2008.9499999999998 3.7120819091796875 -0.8254951399615784 0.8429721037494105 -1.5883532963194789 -1.57082444826235 2.141275405883789 0.0 0.0 -0.0 0.0 -0.0 -0.0 1 False False
2008.9699999999998 3.712070941925049 -0.8254545491984864 0.8429845015155237 -1.588269372979635 -1.5708168188678187 2.1412665843963623 0.0 0.0 -0.0 0.0 -0.0 -0.0 1 False False
2008.99 3.71207857131958 -0.8255514067462464 0.8429515997516077 -1.5882932148375453 -1.5707767645465296 2.141317129135132 0.0 0.0 -0.0 0.0 -0.0 -0.0 1 False False
2009.01 3.71207857131958 -0.8255112928203125 0.8429606596576136 -1.5882374248900355 -1.5707691351519983 2.141308546066284 0.0 0.0 -0.0 0.0 -0.0 -0.0 1 False False
2009.03 3.712127447128296 -0.8254993718913575 0.8429892698871058 -1.588269372979635 -1.5708125273333948 2.141270875930786 0.0 0.0 -0.0 0.0 -0.0 -0.0 1 False False
2009.05 3.712115526199341 -0.8254869741252442 0.8429721037494105 -1.5883251629271449 -1.5708125273333948 2.141295909881592 0.0 0.0 -0.0 0.0 -0.0 -0.0 1 False False
2009.07 3.7120494842529297 -0.825450138454773 0.8429935614215296 -1.5883170566954554 -1.5707886854754847 2.141312837600708 0.0 0.0 -0.0 0.0 -0.0 -0.0 1 True False
2009.09 3.712082862854004 -0.8255038422397156 0.8429673353778284 -1.5883456669249476 -1.5708335081683558 2.141329050064087 0.0 0.0 -0.0 0.0 -0.0 -0.0 1 True False
2009.11 3.7120981216430664 -0.8254416149905701 0.8429935614215296 -1.5882731876769007 -1.570784870778219 2.141295909881592 0.0 0.0 -0.0 0.0 -0.0 -0.0 1 True False
2009.1299999999999 3.7120327949523926 -0.8254955571940918 0.8429845015155237 -1.5882774792113246 -1.5707891623126429 2.1413159370422363 0.0 0.0 -0.0 0.0 -0.0 -0.0 1 True False
2009.1499999999999 3.71207857131958 -0.825450138454773 0.8429673353778284 -1.5882817707457484 -1.5707767645465296 2.141287088394165 0.0 0.0 -0.0 0.0 -0.0 -0.0 1 True False
2009.1699999999998 3.7121081352233887 -0.8255199950984498 0.8429935614215296 -1.5883094273009242 -1.5708211104022425 2.1412546634674072 0.0 0.0 -0.0 0.0 -0.0 -0.0 1 True False
2009.1899999999998 3.7120699882507324 -0.8255080741694947 0.8429811636554163 -1.5882650814452113 -1.5707891623126429 2.141279697418213 0.0 0.0 -0.0 0.0 -0.0 -0.0 1 True False
2009.2099999999998 3.712062358856201 -0.8254458469203492 0.8429306189166468 -1.5883013210692347 -1.5708168188678187 2.1412601470947266 0.0 0.0 -0.0 0.0 -0.0 -0.0 1 True False
2009.23 3.7120862007141113 -0.8255274456790467 0.8429754416095179 -1.588269372979635 -1.5707767645465296 2.1412839889526367 0.0 0.0 -0.0 0.0 -0.0 -0.0 1 True False
2009.25 3.712062358856201 -0.8254825633815308 0.8429349104510706 -1.588320871392721 -1.5707967917071741 2.141251564025879 0.0 0.0 -0.0 0.0 -0.0 -0.0 1 True False
2009.27 3.712045907974243 -0.8255274456790467 0.8429845015155237 -1.5882817707457484 -1.5707605520831507 2.141267776489258 0.0 0.0 -0.0 0.0 -0.0 -0.0 1 True False
2009.29 3.7120537757873535 -0.8255446714213868 0.8429697195636194 -1.5882731876769007 -1.570772949849264 2.141291618347168 0.0 0.0 -0.0 0.0 -0.0 -0.0 1 True False
2009.31 3.712106704711914 -0.8255361479571839 0.8429811636554163 -1.588297029534811 -1.570801083241598 2.141267776489258 0.0 0.0 -0.0 0.0 -0.0 -0.0 1 True False
2009.33 3.712090492248535 -0.8254912060550232 0.8429845015155237 -1.5883013210692347 -1.5707767645465296 2.1413004398345947 0.0 0.0 -0.0 0.0 -0.0 -0.0 1 True False
2009.35 3.7120449542999268 -0.8254912060550232 0.8429563681231897 -1.5883251629271449 -1.570784870778219 2.141216993331909 0.0 0.0 -0.0 0.0 -0.0 -0.0 1 True False
2009.37 3.7120862007141113 -0.8254663509181519 0.8430054823504847 -1.588320871392721 -1.5708487669574183 2.1412930488586426 0.0 0.0 -0.0 0.0 -0.0 -0.0 1 True False
2009.3899999999999 3.7120296955108643 -0.8254825633815308 0.8429802099810999 -1.5882817707457484 -1.5708168188678187 2.141329526901245 0.0 0.0 -0.0 0.0 -0.0 -0.0 1 True False
2009.4099999999999 3.712094783782959 -0.8255242866328736 0.8429678122149866 -1.5882612667479457 -1.5707648436175745 2.141247034072876 0.0 0.0 -0.0 0.0 -0.0 -0.0 1 True False
2009.4299999999998 3.712062358856201 -0.8254869145205994 0.8429887930499476 -1.5882932148375453 -1.570829216633932 2.141279697418213 0.0 0.0 -0.0 0.0 -0.0 -0.0 1 True False
2009.4499999999998 3.7120537757873535 -0.8254501980594178 0.8429763952838343 -1.5882774792113246 -1.5707605520831507 2.1412930488586426 0.0 0.0 -0.0 0.0 -0.0 -0.0 1 True False
2009.4699999999998 3.7120862007141113 -0.8254578870585938 0.8430083433734339 -1.5882898769774378 -1.5708254019366663 2.1413092613220215 0.0 0.0 -0.0 0.0 -0.0 -0.0 1 True False
2009.49 3.7120249271392822 -0.8254620593837281 0.8430054823504847 -1.588297029534811 -1.5708373228656214 2.141336679458618 0.0 0.0 -0.0 0.0 -0.0 -0.0 1 True False
2009.51 3.712071180343628 -0.8254993718913575 0.8429935614215296 -1.5882498226561488 -1.570772949849264 2.1412734985351562 0.0 0.0 -0.0 0.0 -0.0 -0.0003838687262032181 1 True False
2009.53 3.712127923965454 -0.8254494231990357 0.8430140654193323 -1.5883094273009242 -1.5708211104022425 2.1412112712860107 0.0 0.0 -0.0 0.0 -0.0 -0.00011491640179883689 1 True False
2009.55 3.712050199508667 -0.8254869741252442 0.8430007139789026 -1.588269372979635 -1.5707891623126429 2.141267776489258 0.0 0.0 -0.0 0.0 -0.0 -7.596402156195836e-07 1 True False
2009.57 3.712071418762207 -0.8255317372134705 0.8429396788226526 -1.588313718835348 -1.570813004170553 2.1412439346313477 0.0 0.0 -0.0 0.0 -0.0 -2.255440707246356e-14 1 True False
2009.59 3.712062358856201 -0.8255155247500916 0.8429630438434046 -1.5882932148375453 -1.5707772413836878 2.1412572860717773 0.0 0.0 -0.0 0.0 -0.0 -0.0014193831011652946 1 True False
2009.61 3.7120413780212402 -0.8254993718913575 0.8430259863482874 -1.5883532963194789 -1.5707805792437952 2.1412692070007324 0.0 0.0 -0.0 0.0 -0.00023583057918585837 5.506836714630481e-06 1 True False
2009.6299999999999 3.7120203971862793 -0.8255317372134705 0.8429678122149866 -1.5882498226561488 -1.5707805792437952 2.1412320137023926 0.0 0.0 -0.0 0.0 -9.711393147981973e-12 1.8343607735005207e-05 1 True False
2009.6499999999999 3.712108612060547 -0.8254707616618653 0.8429802099810999 -1.5882889233031214 -1.5707648436175745 2.1412513256073 0.0 0.0 -0.0 0.0 -0.00021077325800433755 4.1580089600756764e-05 1 True False
2009.6699999999998 3.7120535373687744 -0.8254912060550232 0.8429563681231897 -1.5882731876769007 -1.5707767645465296 2.141313076019287 0.0 0.0 -0.0 0.0 -1.9161948069945645e-11 1.2345503308877626e-12 1 True False
2009.6899999999998 3.712106943130493 -0.8255317372134705 0.8429515997516077 -1.5883332691588343 -1.570784870778219 2.141226053237915 0.0 0.0 -0.0 0.0 -5.689356007957967e-19 5.950556442257948e-05 1 True False
2009.7099999999998 3.7120578289031982 -0.8255037826350708 0.8429349104510706 -1.5883332691588343 -1.5707886854754847 2.1412885189056396 0.0 0.0 -0.0 0.0 -1.689220982344796e-26 1.7667741184987373e-12 1 True False
2009.73 3.7120862007141113 -0.8254502576640625 0.8429887930499476 -1.5882774792113246 -1.5707967917071741 2.141279697418213 0.0 0.0 -0.0 0.0 -5.015449145052318e-34 5.245709964877368e-20 1 True False
2009.75 3.7120578289031982 -0.8255027693561097 0.8429887930499476 -1.588297029534811 -1.570829216633932 2.141296148300171 0.0 0.0 -0.0 0.0 -1.489159878037983e-41 1.5574985830609854e-27 1 True False
2009.77 3.7123050689697266 -0.8256514233401795 0.8431356588946741 -1.588349004785055 -1.5708168188678187 2.141552209854126 0.021480880677700043 -0.01380600780248642 0.022081058472394943 -0.006088376045227051 8.740144039620645e-06 0.029917722567915916 1 True False
2009.79 3.713225841522217 -0.8260066670230408 0.8436597029315394 -1.588644643823141 -1.570829216633932 2.1423707008361816 0.057455480098724365 -0.025483887642621994 0.03669650852680206 -0.014437966048717499 0.00018752639880403876 0.053097572177648544 1 True False
2009.81 3.7146661281585693 -0.8266413372806092 0.8446973005877894 -1.5888878307738246 -1.5707925001727503 2.1437666416168213 0.0813363790512085 -0.040371403098106384 0.06195884943008423 -0.018971458077430725 0.0001839226169977337 0.08007857203483582 1 True False
2009.83 3.7165305614471436 -0.8274959486773987 0.8461511770831507 -1.5894576511778773 -1.5707925001727503 2.1457417011260986 0.10698399692773819 -0.05104739964008331 0.08527380228042603 -0.02999977022409439 0.00012170818808954209 0.10911136865615845 1 True False
2009.85 3.719034433364868 -0.8287834686091919 0.848184887562887 -1.590071817437643 -1.570813004170553 2.148212432861328 0.13981470465660095 -0.07066284865140915 0.10937951505184174 -0.032978326082229614 9.095118002733216e-05 0.13866256177425385 1 True False
2009.87 3.7222161293029785 -0.8303336066058655 0.8507240454303187 -1.5909015140929164 -1.5708087126361292 2.151249885559082 0.16835938394069672 -0.08718583732843399 0.1342480480670929 -0.04520069807767868 9.075656271306798e-05 0.1679089218378067 1 True False
2009.8899999999999 3.725806951522827 -0.8322583001903077 0.8535350004779261 -1.591973444024557 -1.5708168188678187 2.1548609733581543 0.19303984940052032 -0.1007574126124382 0.1490049809217453 -0.054361701011657715 7.552362512797117e-05 0.19042007625102997 1 True False
2009.9099999999999 3.7299206256866455 -0.8344701689532776 0.856732193623678 -1.5930620632567347 -1.5707767645465296 2.159062147140503 0.21943967044353485 -0.12165148556232452 0.17454487085342407 -0.05687788128852844 7.123934483388439e-05 0.21786750853061676 1 True False
2009.9299999999998 3.734626531600952 -0.8369853657535096 0.8604281584369105 -1.5941907368102015 -1.5708044211017054 2.163795232772827 0.25200629234313965 -0.12996771931648254 0.19683486223220825 -0.05959092453122139 6.150238186819479e-05 0.2414758950471878 1 True False
2009.9499999999998 3.739983320236206 -0.8397389811328431 0.8646157423602503 -1.5956584415831507 -1.5707967917071741 2.1690452098846436 0.2757989168167114 -0.1420087069272995 0.21955981850624084 -0.07049228996038437 7.117349014151841e-05 0.27954596281051636 1 True False
2009.9699999999998 3.745833158493042 -0.8426987093738099 0.8691614309894007 -1.5970856151976527 -1.570784870778219 2.174926996231079 0.30323782563209534 -0.15587970614433289 0.2379269003868103 -0.08317841589450836 0.00013571792806033045 0.30903494358062744 1 True False
2009.99 3.752190113067627 -0.8460355562022706 0.874190632496969 -1.5989276371397914 -1.5707486311541956 2.181345224380493 0.32882553339004517 -0.1698705404996872 0.2548045217990875 -0.10166208446025848 0.00014577990805264562 0.3309604823589325 1 True False
2010.01 3.7590606212615967 -0.8496537369540711 0.8795979658709925 -1.6007658443846644 -1.5707486311541956 2.1883745193481445 0.35810941457748413 -0.1858411580324173 0.2755885720252991 -0.0945974662899971 0.00012220499047543854 0.35857436060905457 1 True False
2010.03 3.7666075229644775 -0.8535178464702149 0.8853920141803187 -1.6026321850218714 -1.5708335081683558 2.1958584785461426 0.39124056696891785 -0.19919796288013458 0.3012143075466156 -0.10149535536766052 9.141291957348585e-05 0.3817695379257202 1 True False
2010.05 3.774852752685547 -0.8576104205897828 0.8915894667254847 -1.6047741375365199 -1.570813004170553 2.2038321495056152 0.41646692156791687 -0.214514821767807 0.3275632858276367 -0.11174851655960083 7.982920214999467e-05 0.42031317949295044 1 True False
2010.07 3.7834157943725586 -0.8620562118342896 0.8983710447894495 -1.6071583233275355 -1.5707967917071741 2.212493896484375 0.44702157378196716 -0.23051932454109192 0.3497393727302551 -0.12075106799602509 8.408483699895442e-05 0.44660529494285583 1 True False
2010.09 3.792466402053833 -0.8667905491641541 0.9056757132159632 -1.609434267083639 -1.5707886854754847 2.2218387126922607 0.46997764706611633 -0.24259568750858307 0.3690551817417145 -0.12199337780475616 5.808662899653427e-05 0.4681033194065094 1 True False
2010.11 3.8022308349609375 -0.8717702192119141 0.9133265654193323 -1.6119781933226527 -1.5708087126361292 2.231572151184082 0.5001025199890137 -0.25500616431236267 0.3900589048862457 -0.1426047533750534 3.7509395042434335e-05 0.49944621324539185 1 True False
2010.1299999999999 3.812755584716797 -0.8769927781871338 0.9212420622455042 -1.6149007282652796 -1.5707486311541956 2.2417635917663574 0.5341898202896118 -0.26717644929885864 0.4086264371871948 -0.13663046061992645 4.381419057608582e-05 0.5320262908935547 1 True False
2010.1499999999999 3.823631525039673 -0.8826165360263367 0.9295876661883753 -1.617620130578512 -1.5707805792437952 2.252793788909912 0.5565996766090393 -0.2875503897666931 0.4283096492290497 -0.14410626888275146 1.9214653548260685e-06 0.5541293621063232 1 True False
2010.1699999999998 3.8349056243896484 -0.8885125082782288 0.9384477774249476 -1.6207858524718226 -1.5707686583148401 2.264139413833618 0.5812779068946838 -0.29668837785720825 0.4516855478286743 -0.16255302727222443 -4.903579247184098e-05 0.582729160785675 1 True False
2010.1899999999998 3.846975088119507 -0.8946535748294373 0.9478753248797815 -1.6238209209837855 -1.570801083241598 2.2761104106903076 0.6158753037452698 -0.3148882985115051 0.47565317153930664 -0.14764542877674103 -2.9896040359744802e-05 0.6165004968643188 1 True False
2010.2099999999998 3.8595542907714844 -0.9010494512370606 0.9576213995562952 -1.6272498569884242 -1.5708368460284632 2.288789749145508 0.6440197229385376 -0.32002249360084534 0.49644002318382263 -0.18601393699645996 -2.3584098216011817e-11 0.6357187628746033 1 True False
2010.23 3.872591972351074 -0.9077689212611695 0.9676530996905726 -1.6307350597777308 -1.5707724730121058 2.301734447479248 0.6636301279067993 -0.3424883782863617 0.5217056274414062 -0.16273613274097443 -7.002333590408794e-19 0.6733571290969849 1 True False
2010.25 3.8862836360931396 -0.9148418468287964 0.9784210363971155 -1.6343237362303675 -1.5708211104022425 2.3155269622802734 0.7003598213195801 -0.36045876145362854 0.5397600531578064 -0.19275321066379547 -6.249848229344934e-05 0.6943339705467224 1 True False
2010.27 3.900499105453491 -0.9220181864551087 0.9892500082599085 -1.638092657128805 -1.5707767645465296 2.329636812210083 0.721990168094635 -0.3709535598754883 0.5674961805343628 -0.1888388693332672 -7.359994924627244e-05 0.7224169373512268 1 True False
2010.29 3.9152824878692627 -0.9295899432948609 1.000890080128805 -1.6418959103026332 -1.570772949849264 2.34446382522583 0.7597560286521912 -0.38465672731399536 0.5853396654129028 -0.20262211561203003 -2.614250661281403e-05 0.7545092105865479 1 True False
2010.31 3.9306650161743164 -0.9375015658191224 1.0129278341876429 -1.6459809742369593 -1.570853058491842 2.3597874641418457 0.7757352590560913 -0.39837393164634705 0.6013825535774231 -0.19007180631160736 -4.0081598854158074e-05 0.7788184881210327 1 True False
2010.33 3.9465432167053223 -0.9457408350757142 1.0250871817218226 -1.6502915821471156 -1.570756737385885 2.3757665157318115 0.8145203590393066 -0.41614121198654175 0.6223637461662292 -0.21718420088291168 -1.6552148736082017e-05 0.8096987009048462 1 True False
2010.35 3.963019609451294 -0.9542159599116822 1.0379164854632776 -1.6545549831786097 -1.570813004170553 2.3921327590942383 0.8315749168395996 -0.42990851402282715 0.6523596048355103 -0.22540093958377838 -2.7486306862556376e-05 0.82955002784729 1 True False
2010.37 3.97998046875 -0.9628654283336182 1.0512483755694788 -1.659008642236227 -1.5707486311541956 2.4092516899108887 0.8681235909461975 -0.4384513795375824 0.6728029251098633 -0.22223126888275146 2.6852791052078828e-05 0.8618367910385132 1 True False
2010.3899999999999 3.9976770877838135 -0.9719035786441346 1.0648658911334437 -1.663530012170309 -1.5707805792437952 2.4267702102661133 0.8843547701835632 -0.45376095175743103 0.6932176351547241 -0.2408737689256668 1.0410706607899556e-07 0.893096923828125 1 True False
2010.4099999999999 4.015791416168213 -0.9812144798091431 1.078913990651266 -1.6683837376036585 -1.5708048979388636 2.445059299468994 0.9200614094734192 -0.47528499364852905 0.7133314609527588 -0.24511614441871643 3.0910326534271506e-15 0.9140555262565613 1 True False
2010.4299999999998 4.034420490264893 -0.9907931846431275 1.0932605902301233 -1.6733175716795863 -1.5707686583148401 2.463489294052124 0.9470748901367188 -0.4881556034088135 0.7397584319114685 -0.23741255700588226 9.17755475988842e-23 0.9557051658630371 1 True False
2010.4499999999998 4.053762435913086 -1.0006593030742188 1.1084139982806605 -1.6783935032286585 -1.570813004170553 2.482931613922119 0.9741262197494507 -0.49402856826782227 0.7621076107025146 -0.25195908546447754 2.724898408313454e-30 0.9682741165161133 1 True False
2010.4699999999998 4.073452472686768 -1.0107237857631226 1.1237357298480433 -1.6837216816344203 -1.5707767645465296 2.5027363300323486 1.006436824798584 -0.5148563981056213 0.7786429524421692 -0.2707446217536926 8.090467869741319e-38 1.005077600479126 1 True False
2010.49 4.093813419342041 -1.0212349456599732 1.1395562330829065 -1.6890999279417933 -1.5707767645465296 2.52293062210083 1.0284401178359985 -0.5308945178985596 0.8030704259872437 -0.27114760875701904 2.802596928649634e-45 1.0352845191955566 1 True False
2010.51 4.1147284507751465 -1.0318416518023987 1.1557686964618128 -1.6945420704283656 -1.5708048979388636 2.5439817905426025 1.030442237854004 -0.5288606286048889 0.8157480955123901 -0.2737201452255249 -0.00028853825642727315 1.0395830869674683 1 True False
2010.53 4.1356587409973145 -1.0426573318294068 1.1720498243915003 -1.7001625500121058 -1.5707772413836878 2.564925193786621 1.0514734983444214 -0.54023677110672 0.8089970350265503 -0.2683194875717163 -0.00018652861763257533 1.0532894134521484 1 True False
2010.55 4.156615734100342 -1.053201512699463 1.1881268660174769 -1.7056294880309046 -1.5707886854754847 2.5857229232788086 1.044921875 -0.5380152463912964 0.8179682493209839 -0.2726535499095917 -0.00026160787092521787 1.0477707386016846 1 True False
2010.57 4.177626132965088 -1.064124421482422 1.204581085835592 -1.7110687694945277 -1.5707405249225062 2.6068294048309326 1.0487688779830933 -0.5314009189605713 0.8200789093971252 -0.27435874938964844 -0.00016861553012859076 1.042508602142334 1 True False
2010.59 4.198460578918457 -1.07480342805896 1.2206981817828577 -1.7166649303831996 -1.5707486311541956 2.627805233001709 1.0512527227401733 -0.5389276146888733 0.8102414011955261 -0.2866324186325073 6.222395313670859e-05 1.047295093536377 1 True False
2010.61 4.219383239746094 -1.08552439630542 1.2369006315814417 -1.7222238979735316 -1.5707886854754847 2.6485683917999268 1.0428240299224854 -0.5401500463485718 0.8168891072273254 -0.2632964551448822 7.005460211928494e-09 1.0502433776855469 1 True False
2010.6299999999999 4.2403411865234375 -1.0962830048850556 1.2533443609820765 -1.727706094781393 -1.5707486311541956 2.669677734375 1.0497095584869385 -0.5325632095336914 0.8159369230270386 -0.268593430519104 2.0799835020494185e-16 1.0414448976516724 1 True False
2010.6499999999999 4.26136589050293 -1.1070434910110016 1.269545857106344 -1.7332149944701136 -1.5707767645465296 2.6905877590179443 1.0557000637054443 -0.5410523414611816 0.808506965637207 -0.2672983407974243 -8.090137998806313e-05 1.047816514968872 1 True False
2010.6699999999998 4.282275199890137 -1.1177700620940705 1.285757843648092 -1.7388988933958949 -1.5707805792437952 2.7112956047058105 1.0426597595214844 -0.5388203263282776 0.8192363977432251 -0.2801704704761505 -0.00011105508747277781 1.0525081157684326 1 True False
2010.6899999999998 4.303231716156006 -1.1285272997668763 1.3020928541766565 -1.744239946404928 -1.5708168188678187 2.7325172424316406 1.0470716953277588 -0.5312590003013611 0.8148260712623596 -0.2768968939781189 -8.507117308909073e-05 1.0436196327209473 1 True False
2010.7099999999998 4.324157238006592 -1.1392111343196412 1.3182666937457483 -1.7499271831908167 -1.570784870778219 2.7534046173095703 1.051863431930542 -0.5431504845619202 0.8087718486785889 -0.2731882333755493 -5.2560484618879855e-05 1.049065351486206 1 True False
2010.73 4.345086097717285 -1.149995283489563 1.3345745245562952 -1.7553512058653773 -1.5707648436175745 2.7741708755493164 1.0450350046157837 -0.5343323945999146 0.8158776164054871 -0.2621381878852844 -6.15899552940391e-05 1.0511916875839233 1 True False
2010.75 4.366053581237793 -1.16081856310878 1.3508732954608362 -1.7609731159605921 -1.570784870778219 2.7952613830566406 1.047330379486084 -0.5346077084541321 0.8151329755783081 -0.28076425194740295 -8.279772700792165e-11 1.0411561727523804 1 True False
2010.77 4.386959075927734 -1.1715467733195801 1.3669942061053675 -1.7664662800230921 -1.5707648436175745 2.8161909580230713 1.053585410118103 -0.5377306938171387 0.8096544742584229 -0.27685806155204773 -2.458338801091511e-18 1.052666187286377 1 True False
2010.79 4.407900810241699 -1.1821381014636536 1.3833869139300745 -1.772031923333639 -1.5707686583148401 2.8370137214660645 1.0450680255889893 -0.5381308794021606 0.8165144324302673 -0.2820952236652374 -7.299029202789907e-26 1.050848364830017 1 True False
2010.81 4.428643703460693 -1.1928338569453736 1.3994887510882776 -1.777262350121969 -1.5707443396197718 2.8578696250915527 1.0308103561401367 -0.5182995796203613 0.7927416563034058 -0.26456478238105774 -0.00010220237163593993 1.0175076723098755 1 True False
2010.83 4.448756694793701 -1.2031208139709015 1.4150221983539026 -1.782912393609518 -1.570756737385885 2.878077507019043 0.9943336844444275 -0.5138091444969177 0.7624669075012207 -0.26552602648735046 -0.00011308163084322587 0.9964698553085327 1 True False
2010.85 4.468282699584961 -1.2131273609450837 1.4302733580218714 -1.787863393823141 -1.5708211104022425 2.897372245788574 0.9646552205085754 -0.4920976459980011 0.7570711374282837 -0.25377222895622253 -0.001089724712073803 0.9701752662658691 1 True False
2010.87 4.487411975860596 -1.2228673857501526 1.4451430479632776 -1.79284729580068 -1.5708168188678187 2.9168031215667725 0.9397517442703247 -0.4803996980190277 0.7314928770065308 -0.26127690076828003 -7.220832776511088e-05 0.9412468671798706 1 True False
2010.8899999999999 4.505836009979248 -1.2324202221683045 1.4593671003924769 -1.797722955743307 -1.5707925001727503 2.9351212978363037 0.9126408696174622 -0.46989116072654724 0.7057690024375916 -0.23147952556610107 8.562344737583771e-05 0.9153921008110046 1 True False
2010.9099999999999 4.5237202644348145 -1.2414886516383667 1.4732006231891077 -1.8026544056334437 -1.5707925001727503 2.9529829025268555 0.8790923953056335 -0.4534844160079956 0.6889480948448181 -0.23080939054489136 1.5051337243221496e-07 0.8767400979995728 1 True False
2010.9299999999998 4.541115760803223 -1.2505396765521546 1.4868958632098597 -1.8071004352965296 -1.5708335081683558 2.9703993797302246 0.8608859181404114 -0.4345654547214508 0.6711214184761047 -0.22267264127731323 4.468876796528487e-15 0.8562577962875366 1 True False
2010.9499999999998 4.558108329772949 -1.2591464680484314 1.4997380415545862 -1.8115688763060511 -1.5708416144000452 2.987102746963501 0.8204016089439392 -0.4213559031486511 0.6434926986694336 -0.21701793372631073 1.3268499061943203e-22 0.8245813250541687 1 True False
2010.9699999999998 4.574108600616455 -1.2675189238837739 1.5123556295977991 -1.8159896335997523 -1.5708091894732874 3.003499984741211 0.8031692504882812 -0.4100315272808075 0.6167373657226562 -0.20881535112857819 3.939537097176316e-30 0.7986791729927063 1 True False
2010.99 4.589900016784668 -1.2753776770881196 1.5245922247516077 -1.8198772869505824 -1.5707882086383265 3.01894474029541 0.7694684267044067 -0.3910931944847107 0.603432834148407 -0.21047237515449524 5.848704677191563e-05 0.7729833722114563 1 True False
2011.01 4.604997158050537 -1.2831521493247529 1.5362728277789515 -1.824008127252096 -1.5707810560809534 3.0342421531677246 0.7462047934532166 -0.38174906373023987 0.5747278928756714 -0.19664447009563446 3.89095396527428e-12 0.7488112449645996 1 True False
2011.03 4.619589805603027 -1.2907745701125641 1.5476377646075647 -1.8278314075865687 -1.5708211104022425 3.048762321472168 0.7118310928344727 -0.3668479919433594 0.5571961402893066 -0.1882936656475067 1.1552591843023116e-19 0.7134884595870972 1 True False
2011.05 4.633561134338379 -1.2978212100318451 1.558420483266012 -1.831536432305807 -1.5707686583148401 3.0628082752227783 0.6913083791732788 -0.35277190804481506 0.5311265587806702 -0.17972615361213684 3.430068134630045e-27 0.6916792392730713 1 True False
2011.07 4.6469902992248535 -1.304646061067917 1.5690353552447718 -1.835095544854635 -1.5707686583148401 3.0762338638305664 0.6596459150314331 -0.34264999628067017 0.5155999064445496 -0.18593959510326385 -0.00016599505033809692 0.6519643664360046 1 True False
2011.09 4.660040378570557 -1.3114379805377503 1.5790794531451624 -1.8384062252440394 -1.5707891623126429 3.088994026184082 0.6330259442329407 -0.32574379444122314 0.4871681034564972 -0.15271799266338348 -6.097324671827664e-07 0.643302857875824 1 True False
2011.11 4.672199249267578 -1.3177494567683716 1.5885198752032679 -1.8418618641295375 -1.5707767645465296 3.101550340652466 0.6013701558113098 -0.30661600828170776 0.4671960175037384 -0.17415204644203186 -1.810350304452639e-14 0.6046027541160583 1 True False
2011.1299999999999 4.684030055999756 -1.323788271551468 1.5975478331195276 -1.8449465237059535 -1.5707925001727503 3.1131792068481445 0.574536144733429 -0.2955140471458435 0.45061391592025757 -0.147729754447937 -5.3750942403003205e-22 0.5779245495796204 1 True False
2011.1499999999999 4.695335388183594 -1.3294902604869385 1.606534783040182 -1.8477970562376917 -1.5707772413836878 3.124450445175171 0.5511192679405212 -0.27945083379745483 0.4272984564304352 -0.1477503478527069 -1.59591372339953e-29 0.5469246506690979 1 True False
2011.1699999999998 4.705846309661865 -1.3347827804139634 1.61476976076235 -1.8505469761290492 -1.5707967917071741 3.135201930999756 0.5180689096450806 -0.263078510761261 0.4015628397464752 -0.1392604112625122 0.00011825573164969683 0.514943540096283 1 True False
2011.1899999999998 4.715999126434326 -1.3401321333697815 1.6224187056170862 -1.85321106533193 -1.5708087126361292 3.1449804306030273 0.49305272102355957 -0.25512486696243286 0.3789951205253601 -0.12633444368839264 1.472442306971189e-11 0.4979010224342346 1 True False
2011.2099999999998 4.725592613220215 -1.3451232624104996 1.6297372023211878 -1.8559185467162074 -1.570784870778219 3.1547632217407227 0.46726664900779724 -0.23508396744728088 0.36287999153137207 -0.12844353914260864 4.371813422501613e-19 0.46680155396461487 1 True False
2011.23 4.7344512939453125 -1.3496610087207337 1.6369512716876429 -1.8580810032286585 -1.5708168188678187 3.1638505458831787 0.43216297030448914 -0.2160857915878296 0.34174543619155884 -0.10371674597263336 1.2980307142727272e-26 0.43401631712913513 1 True False
2011.25 4.742949485778809 -1.3538520199111481 1.6435239950763147 -1.8601604900755824 -1.5708373228656214 3.1721346378326416 0.40902799367904663 -0.2032897174358368 0.31672048568725586 -0.11393456161022186 3.8539698092987016e-34 0.4071826636791229 1 True False
2011.27 4.750857353210449 -1.3579227340272446 1.6495125929461878 -1.862537523309225 -1.5707967917071741 3.1799874305725098 0.3798104226589203 -0.19994255900382996 0.29362139105796814 -0.1038602665066719 9.579907055012882e-05 0.38906100392341614 1 True False
2011.29 4.758072853088379 -1.3616857093623658 1.6551106611834925 -1.864469667474264 -1.570801083241598 3.1873435974121094 0.35102903842926025 -0.1812821626663208 0.27301841974258423 -0.0878857970237732 3.1263811251847073e-05 0.3490094542503357 1 True False
2011.31 4.764865398406982 -1.365165577535965 1.6604536215411585 -1.866159578362936 -1.570801083241598 3.1940908432006836 0.32620590925216675 -0.16616979241371155 0.25208520889282227 -0.0839097872376442 5.075696807299579e-12 0.3265496492385864 1 True False
2011.33 4.771158695220947 -1.3683304351619263 1.6653607527362269 -1.867748876611227 -1.570784870778219 3.2002644538879395 0.2969585359096527 -0.15309926867485046 0.2345062792301178 -0.08715119957923889 1.5070200662359594e-19 0.2956267297267914 1 True False
2011.35 4.7767839431762695 -1.3712137651494523 1.6697681585894983 -1.8693677387633265 -1.570829216633932 3.2058017253875732 0.2652229070663452 -0.13596871495246887 0.20357105135917664 -0.06692074239253998 4.474477602683888e-27 0.2729438841342926 1 True False
2011.37 4.78170919418335 -1.3738134664348145 1.673584286366598 -1.8706795177855433 -1.5708368460284632 3.2109456062316895 0.24110999703407288 -0.12240812182426453 0.18769708275794983 -0.06062103435397148 1.3285130652025066e-34 0.2498035877943039 1 True False
2011.3899999999999 4.786201477050781 -1.3761701744845887 1.6770346800433558 -1.8718639812865199 -1.5708048979388636 3.2154934406280518 0.21228548884391785 -0.10724686086177826 0.16619613766670227 -0.05565362796187401 3.94465517707436e-42 0.21112781763076782 1 True False
2011.4099999999999 4.790160179138184 -1.3781013202718277 1.6800907293902796 -1.872857233087057 -1.5707481543170374 3.2194437980651855 0.18790225684642792 -0.09662489593029022 0.14933888614177704 -0.048353005200624466 0.0 0.1853194236755371 1 True False
2011.4299999999998 4.793583393096924 -1.3798613858274003 1.6828234831439417 -1.8737245998778285 -1.570829216633932 3.2228567600250244 0.16327446699142456 -0.07724831253290176 0.1187104731798172 -0.03983914107084274 0.0 0.15530182421207428 1 True False
2011.4499999999998 4.796487331390381 -1.381331981425621 1.6849373022662562 -1.8746549091734828 -1.5708373228656214 3.225721836090088 0.1300782859325409 -0.06660468876361847 0.10007867962121964 -0.04287344217300415 0.0 0.12693654000759125 1 True False
2011.4699999999998 4.798779487609863 -1.3825796407512208 1.686767880116598 -1.8752829037108363 -1.570784870778219 3.227972984313965 0.09784749150276184 -0.050423815846443176 0.0820099487900734 -0.023616289719939232 0.0 0.0997982770204544 1 True False
2011.49 4.8004679679870605 -1.3833979976228257 1.6880891958819788 -1.8755842647948207 -1.570784870778219 3.229696750640869 0.07655556499958038 -0.0368255153298378 0.05788882449269295 -0.013754053972661495 0.0 0.06961844861507416 1 True False
2011.51 4.801617622375488 -1.3840144586614151 1.6890142599688929 -1.8759142361082972 -1.5708087126361292 3.2308595180511475 0.04338131472468376 -0.024021323770284653 0.03623606264591217 -0.014240537770092487 0.0 0.046666938811540604 1 True False
2011.53 4.8022847175598145 -1.3843088758042832 1.689455811177389 -1.8760301075377406 -1.5707891623126429 3.2314651012420654 0.018700437620282173 -0.011312529444694519 0.012872906401753426 -0.0013023967621847987 0.0 0.018372759222984314 1 True False
2011.55 4.8022942543029785 -1.384316311483719 1.6895487944232386 -1.876061578790182 -1.5707767645465296 3.231504440307617 0.007109818048775196 0.008032537065446377 0.01665157824754715 -0.00641117338091135 5.2226409934519324e-06 -0.0017632319359108806 1 True False
2011.57 4.802211284637451 -1.3841288846782227 1.6899932066546839 -1.8767639599242152 -1.5708211104022425 3.2314913272857666 -0.0008193884277716279 0.013526241295039654 0.028880704194307327 -0.031164061278104782 4.970699407635948e-09 -0.0004634363576769829 1 True False
2011.59 4.80228328704834 -1.383714721804001 1.690754238759176 -1.8776823482909144 -1.5707967917071741 3.2315447330474854 0.0017556654056534171 0.022309836000204086 0.042807724326848984 -0.060989294201135635 1.4758455904008633e-16 -0.00026688457001000643 1 True False
2011.61 4.802215099334717 -1.3832092148116608 1.6918142477618616 -1.8792950115599574 -1.5708168188678187 3.2314794063568115 0.0004669272166211158 0.032468341290950775 0.059752412140369415 -0.09189841151237488 4.3819188023891736e-24 -5.5884604080347344e-05 1 True False
2011.6299999999999 4.802234172821045 -1.3825106632760544 1.6931670347796839 -1.8814951382079066 -1.5708044211017054 3.2314913272857666 0.0003142128116451204 0.04439713805913925 0.07863830029964447 -0.12879376113414764 1.3010309173700485e-31 -2.1203530195634812e-05 1 True False
2011.6499999999999 4.802323341369629 -1.3814849865487595 1.6949766317950647 -1.884336610833639 -1.5708373228656214 3.2315151691436768 0.0007430346449837089 0.05545014142990112 0.0914800837635994 -0.14320743083953857 3.8628782012932924e-39 -5.330080560944639e-12 1 True False
2011.6699999999998 4.8022541999816895 -1.3802798253348847 1.6970704237567347 -1.887533803979391 -1.5708211104022425 3.2315239906311035 0.00031877748551778495 0.06751859188079834 0.11151216179132462 -0.17171618342399597 0.0 -1.5825492817333228e-19 1 True False
2011.6899999999998 4.802310466766357 -1.3787383449128647 1.699548069630758 -1.891522069970602 -1.5708211104022425 3.2315151691436768 0.0011900676181539893 0.07447750866413116 0.1324906349182129 -0.2005409449338913 0.0 0.00046119780745357275 1 True False
2011.7099999999998 4.802273750305176 -1.3771328193000336 1.7023285071002405 -1.8958574734129847 -1.5708325544940394 3.2315521240234375 0.0004560923553071916 0.08854929357767105 0.14468428492546082 -0.23717744648456573 0.0 0.0003296331560704857 1 True False
2011.73 4.802306175231934 -1.3752764922431489 1.7053521315204065 -1.9008704624571742 -1.5707529226886194 3.2315359115600586 0.0003213559102732688 0.09501892328262329 0.15922875702381134 -0.25505656003952026 0.0 0.00024182024935726076 1 True False
2011.75 4.802306175231934 -1.3733018797687073 1.7088153998004358 -1.9064227543272914 -1.5708254019366663 3.2315728664398193 0.0002882090047933161 0.10602137446403503 0.18482771515846252 -0.2890786826610565 0.0 0.0002514233929105103 1 True False
2011.77 4.802298545837402 -1.3709570330432435 1.7127755323993128 -1.9125062427916468 -1.5708091894732874 3.231597423553467 0.00026730753597803414 0.11613938957452774 0.2035423368215561 -0.3195670247077942 0.0 0.00018551475659478456 1 True False
2011.79 4.802298545837402 -1.368574784403183 1.7169488112079065 -1.9190360508360804 -1.570813004170553 3.2315685749053955 0.0002383965766057372 0.1261257529258728 0.22059619426727295 -0.3520657420158386 0.0 0.0001765635097399354 1 True False
2011.81 4.80230188369751 -1.3659357589534302 1.721471134816305 -1.9263855419554652 -1.5708325544940394 3.2315521240234375 0.0001948763383552432 0.13526424765586853 0.24077007174491882 -0.3847554922103882 0.0 0.0001494065800216049 1 True False
2011.83 4.802323341369629 -1.3630135369351883 1.7264297644244593 -1.9342175922789515 -1.5708168188678187 3.231498956680298 0.00016468140529468656 0.14780278503894806 0.2530595660209656 -0.40270331501960754 0.0 0.0001326847996097058 1 True False
2011.85 4.80232572555542 -1.3599807781032105 1.7319086233722132 -1.9424873791136683 -1.5708048979388636 3.2315597534179688 0.00015091639943420887 0.15822559595108032 0.2724795639514923 -0.41348403692245483 6.90137967467308e-05 9.827267786022276e-05 1 True False
2011.87 4.802363872528076 -1.3566926580718537 1.7375033537494105 -1.951325079003805 -1.5707886854754847 3.2315402030944824 0.00011896898649865761 0.16992583870887756 0.28469353914260864 -0.45472100377082825 7.164513226598501e-05 8.06535390438512e-05 1 True False
2011.8899999999999 4.802350997924805 -1.353286550646164 1.743265453969137 -1.9608317814269007 -1.5707805792437952 3.2315478324890137 0.00011291182454442605 0.17729344964027405 0.30721038579940796 -0.4930672347545624 6.337937520584092e-05 6.83944090269506e-05 1 True False
2012.1299999999999 4.802350997924805 -1.3120874625495453 1.8139479796039026 -2.0726663074889125 -1.5707929770099085 3.23154354095459 2.1572708646999672e-05 0.11887115985155106 0.20438291132450104 -0.3330451250076294 0.0 4.359230339997745e-27 1 True False
2012.1499999999999 4.802330017089844 -1.309888319378235 1.8178122679339808 -2.0788728199400843 -1.5708087126361292 3.231584072113037 5.865276320182744e-11 0.10324738174676895 0.18410299718379974 -0.29648029804229736 0.0 1.2942949297452987e-34 1 True False
2012.1699999999998 4.802363872528076 -1.3078661423972626 1.821404282246725 -2.0843831501402796 -1.570772949849264 3.2314858436584473 4.584334869054336e-31 0.09692072868347168 0.16860710084438324 -0.2684705853462219 0.0 3.8423603891786484e-42 1 True False
2012.1899999999998 4.802285671234131 -1.3060667675784607 1.8246234099017542 -2.0892235241331996 -1.5708048979388636 3.231527328491211 0.0 0.0853029191493988 0.1501826047897339 -0.24151241779327393 0.0 0.0 1 True False
2012.2099999999998 4.802350997924805 -1.3044005793384095 1.8274558226214808 -2.093835016290182 -1.5707810560809534 3.2316014766693115 0.0 0.07858283817768097 0.12660396099090576 -0.20458467304706573 0.0 0.0 1 True False
2012.23 4.8023834228515625 -1.3030482691577454 1.8297346274005335 -2.097740789453024 -1.5707691351519983 3.231588363647461 0.0 0.06530486792325974 0.11484431475400925 -0.186530202627182 0.0 0.0 1 True False
2012.25 4.802330017089844 -1.3017553848079224 1.8318513075457972 -2.1009909115233363 -1.570756737385885 3.2315521240234375 0.0 0.055992234498262405 0.09940965473651886 -0.14770996570587158 0.0 0.0 1 True False
2012.27 4.802335262298584 -1.3007230323604126 1.8337114492999476 -2.103756090203756 -1.5707491079913538 3.2315640449523926 0.0 0.046253133565187454 0.0805039182305336 -0.1378975361585617 0.0 0.0 1 True False
2012.29 4.802362442016602 -1.300014929180481 1.835001293812887 -2.1059709988036097 -1.5708006064044397 3.2315683364868164 0.0 0.03573191165924072 0.059814341366291046 -0.09428224712610245 0.0 0.0 1 True False
2012.31 4.80239200592041 -1.2993934613517304 1.8359478155719202 -2.1075779400267542 -1.5707810560809534 3.2315640449523926 0.0 0.025346316397190094 0.04543452709913254 -0.0646909698843956 0.0 0.0 1 True False
2012.33 4.802342414855957 -1.298900381927826 1.8367474714862269 -2.108572622338766 -1.5708006064044397 3.2315597534179688 0.0 0.01605534367263317 0.030814414843916893 -0.04278066009283066 0.0 0.0 1 True False
2012.35 4.802338123321533 -1.2987137299827118 1.8371647039996546 -2.1092611751952113 -1.5708330313311976 3.2315478324890137 0.0 0.0023361335042864084 0.01030674111098051 -0.020615775138139725 0.0 0.0 1 True False
2012.37 4.8023223876953125 -1.29881106436763 1.8371031920062464 -2.10921635250234 -1.5707648436175745 3.2315196990966797 0.0 -7.154967818223668e-08 -0.000407543673645705 0.0007750990916974843 0.0 0.0 1 True False
2012.3899999999999 4.802342891693115 -1.29878123224292 1.8371360937701624 -2.109248777429098 -1.5707929770099085 3.2315478324890137 0.0 -0.00011746755626518279 7.168267037891904e-14 6.90868982928805e-05 0.0 0.0 1 True False
2012.4099999999999 4.802334308624268 -1.2988020938685914 1.8371885458575647 -2.1092049084105433 -1.570829216633932 3.231580972671509 0.0 -2.6663662679538485e-23 1.0094174163761065e-25 7.812197145540267e-05 0.0 0.0 1 True False
2012.4299999999998 4.802350997924805 -1.298769311313965 1.8370955626117151 -2.1092244587340296 -1.5708125273333948 3.2315196990966797 0.0 -2.0879347118439774e-43 9.72848865785636e-05 3.251520183766843e-06 0.0 0.0 1 True False
2012.4499999999998 4.802309513092041 -1.2986804407886048 1.8371217886554163 -2.109248777429098 -1.5708730856524866 3.231515407562256 0.0 0.0 0.00012627735850401223 9.654056661078173e-14 0.0 0.0 1 True False
2012.4699999999998 4.802399635314941 -1.298724578028061 1.8371484915362757 -2.10919251064443 -1.5707929770099085 3.2315196990966797 0.0 0.00015056699339766055 8.245850767707452e-05 2.86637610659105e-21 0.0 0.0 1 True False
2012.49 4.802313804626465 -1.298736498957016 1.8371227423297327 -2.109248777429098 -1.5707767645465296 3.2315196990966797 0.0 0.00015697779599577188 8.482320117764175e-05 8.510528544292321e-29 0.0 0.0 1 True False
2012.51 4.802359580993652 -1.2986911994269867 1.8371394316302698 -2.1092244587340296 -1.5707929770099085 3.2315683364868164 0.0 0.0005007075378671288 0.00015461217844858766 2.526852779956111e-36 0.0 0.0 1 True False
2012.53 4.802359580993652 -1.2987075310996552 1.8371527830706995 -2.1092568836607875 -1.570829216633932 3.2315478324890137 0.0 0.00037899732706137 0.00016669864999130368 -0.0001862045464804396 0.0 0.0 1 True False
2012.55 4.802362442016602 -1.2987591487220307 1.8371604124652308 -2.1092568836607875 -1.5707648436175745 3.231506586074829 0.0 0.0006705507985316217 0.0002548134361859411 -0.0003629844286479056 0.0 0.0 1 True False
2012.57 4.802347183227539 -1.2986628276160737 1.8371394316302698 -2.1092845402159632 -1.5707572142230433 3.231576919555664 0.0 0.0006339481915347278 0.00042782287346199155 -0.0002581103763077408 0.0 0.0 1 True False
2012.59 4.802350997924805 -1.2987047594836731 1.8371885458575647 -2.1092645130553187 -1.570784870778219 3.23154354095459 0.0 0.0003074985870625824 0.0003839388082269579 -0.0002558483392931521 0.0 0.0 1 True False
2012.61 4.8023223876953125 -1.2987471681884308 1.8372038046466272 -2.1092845402159632 -1.5707767645465296 3.231576681137085 0.0 0.0001826653751777485 0.0002869761665351689 -0.00030994362896308303 0.0 0.0 1 True False
2012.6299999999999 4.802334308624268 -1.2986419063857575 1.8371885458575647 -2.1093207798399867 -1.5707767645465296 3.2315564155578613 0.0 0.00018188590183854103 0.000391182693419978 -0.00022015540162101388 0.0 0.0 1 True False
2012.6499999999999 4.802314758300781 -1.2987300914577027 1.8372367064105433 -2.109288831750387 -1.5708330313311976 3.2315359115600586 0.0 0.00014114315854385495 0.00025118919438682497 -0.00018509005894884467 0.0 0.0 1 True False
2012.6699999999998 4.802375316619873 -1.2987092298320313 1.8371294180499476 -2.109244485894674 -1.5708125273333948 3.2315478324890137 0.0 0.00013178240624256432 0.00022855785209685564 -0.00015139592869672924 0.0 0.0 1 True False
2012.6899999999998 4.802269458770752 -1.2986764770797272 1.8371952215777796 -2.109312673608297 -1.5707929770099085 3.231539011001587 0.0 8.550870552426204e-05 0.0001405062066623941 -0.00014010665472596884 0.0 0.0 1 True False
2012.7099999999998 4.802346706390381 -1.298660085802414 1.8371995131122034 -2.109288831750387 -1.5708444754229944 3.231580972671509 0.0 8.622602763352916e-05 0.00010706161265261471 -0.00013099204807076603 0.0 0.0 1 True False
2012.73 4.802346706390381 -1.2987227004817505 1.8371828238116663 -2.1092845402159632 -1.5707967917071741 3.2315640449523926 0.0 7.435362203978002e-05 0.0001037818583426997 -0.0001108147989725694 0.0 0.0 1 True False
2012.75 4.802306175231934 -1.2987256807139893 1.837219540272848 -2.1093083820738734 -1.570801083241598 3.2315597534179688 0.0 7.624740828759968e-05 8.705138316145167e-05 -0.00010667515743989497 0.0 0.0 1 True False
2012.77 4.802380561828613 -1.2986883384040375 1.8372152487384241 -2.1092683277525843 -1.5707686583148401 3.231527328491211 0.0 6.617395076347066e-09 8.746072126086801e-05 -8.909696771297604e-05 0.0 0.0 1 True False
2012.79 4.802338600158691 -1.2987516683391114 1.8371694723712366 -2.1092640362181605 -1.570813004170553 3.2316014766693115 0.0 5.172194402917509e-29 7.679902046220377e-05 -8.922426059143618e-05 0.0 0.0 1 True False
2012.81 4.8023552894592285 -1.2987346214107056 1.837257210408346 -2.109300275842184 -1.570772949849264 3.2315597534179688 0.0 0.0 1.161010345640534e-06 -8.927848830353469e-05 0.0 0.0 1 True False
2012.83 4.802430152893066 -1.2986928087523957 1.8372276465045374 -2.1092807255186976 -1.5708091894732874 3.2315938472747803 0.0 0.0 1.6349054201109253e-18 -5.166250412003137e-05 0.0 0.0 1 True False
2012.85 4.8023600578308105 -1.2987047296813508 1.837151352559225 -2.109300275842184 -1.5707805792437952 3.231580972671509 0.0 0.0001350853854091838 2.302232581396197e-30 -5.146227704244666e-05 0.0 0.0 1 True False
2012.87 4.802346706390381 -1.2987047296813508 1.8372367064105433 -2.109300275842184 -1.5707724730121058 3.2315564155578613 0.0 0.0001079450230463408 3.242604646447627e-42 -6.125264917500317e-05 0.0 0.0 1 True False
2012.8899999999999 4.802358150482178 -1.29868836820636 1.8371871153460901 -2.109328886071676 -1.570824925099508 3.231576681137085 0.0 6.749895692337304e-05 0.0 -5.391386730480008e-05 0.0 0.0 1 True False
2012.9099999999999 4.8023881912231445 -1.2986644369414826 1.8372152487384241 -2.1093722782530726 -1.5708377997027796 3.231567859649658 -2.812790708352947e-19 4.909015115117654e-05 0.0 -1.7845466970811685e-07 0.0 0.0 1 True False
2012.9299999999998 4.80239725112915 -1.2987018090537568 1.837191406880514 -2.109312673608297 -1.5708168188678187 3.2315521240234375 -2.198494358082277e-39 3.857099363813177e-05 0.0 -5.298479499794189e-15 0.0 0.0 1 True False
2012.9499999999998 4.802371501922607 -1.2987300914577027 1.8371294180499476 -2.109336038629049 -1.5708044211017054 3.231572151184082 -3.375284359208308e-05 3.176449172315188e-05 0.0 -1.5731658547244464e-22 2.6606487846247973e-11 0.0 1 True False
2012.9699999999998 4.802305698394775 -1.298769311313965 1.8370793501483362 -2.109455724755758 -1.570784870778219 3.2316207885742188 -2.4546765416744165e-05 -0.0009503270266577601 1.4524594634662824e-12 -0.011282341554760933 7.899705130827891e-19 0.0 1 True False
2012.99 4.8023176193237305 -1.2987648409656067 1.8371031920062464 -2.1094676456847132 -1.5708406607257288 3.2315683364868164 -1.9286491806269623e-05 0.00023620198771823198 0.0001246312604052946 -0.0006796377710998058 2.3454930124000174e-26 0.0 1 True False
2013.01 4.802338600158691 -1.2987320882133027 1.8370912710772913 -2.1094676456847132 -1.5707605520831507 3.2315316200256348 -1.5882807929301634e-05 0.00020995363593101501 0.00010447241220390424 -0.0002645837957970798 6.963978427511593e-34 0.0 1 True False
2013.03 4.802313327789307 -1.2987946432879944 1.8370912710772913 -2.1094395122923792 -1.5707805792437952 3.2315316200256348 -1.3500348359229974e-05 0.0001432221761206165 9.91476044873707e-05 -1.8027361647909856e-06 2.0676158841112676e-41 0.0 1 True False
2013.05 4.802342891693115 -1.2988410157016297 1.8370793501483362 -2.1094914875426234 -1.5707967917071741 3.231576681137085 -1.1739400179067161e-05 0.00015147673548199236 9.668790153227746e-05 0.0005639225128106773 0.0 0.0 1 True False
2013.07 4.80233097076416 -1.2987874013236542 1.837116543446676 -2.1094876728453578 -1.5707648436175745 3.231580972671509 -1.0384840607002843e-05 0.000157725386088714 7.62168929213658e-05 0.0007905433303676546 0.0 0.0 1 True True
2013.09 4.802282333374023 -1.298800603752472 1.836975399647848 -2.10892977337026 -1.5707648436175745 3.2315683364868164 -8.562417835777307e-18 -0.007099628914147615 -0.014266641810536385 0.039841603487730026 0.0 0.0 1 True True
2013.11 4.80239725112915 -1.2989495557597657 1.8367474714862269 -2.10796656231069 -1.570813004170553 3.2315239906311035 -6.692436672915922e-38 -0.014140283688902855 -0.027034766972064972 0.049388229846954346 0.0 0.0 1 True True
2013.1299999999999 4.802358150482178 -1.2993247371963044 1.8360250631915491 -2.1067453823485316 -1.5707724730121058 3.231527328491211 0.0 -0.027018483728170395 -0.05036945268511772 0.06930838525295258 0.0 0.0 1 True True
2013.1499999999999 4.802335739135742 -1.3000148993781586 1.8347366491900843 -2.105009218255514 -1.5707686583148401 3.2315478324890137 0.0 -0.04424227401614189 -0.07801463454961777 0.10416924953460693 0.0 0.0 1 True True
2013.1699999999998 4.802347660064697 -1.3009914320758362 1.832999054585592 -2.1026274166502894 -1.570801083241598 3.2315521240234375 0.0 -0.052743129432201385 -0.0894753709435463 0.1408149003982544 0.0 0.0 1 True True
2013.1899999999998 4.802285194396973 -1.3021558386138459 1.8312080542193812 -2.099403520623678 -1.570784870778219 3.23154354095459 0.0 -0.06193981692194939 -0.1037621796131134 0.16107162833213806 0.0 0.0 1 True True
2013.2099999999998 4.802273273468018 -1.303478555088379 1.8288748900042933 -2.09580721477651 -1.570801083241598 3.231588363647461 0.0 -0.07267982512712479 -0.1279672384262085 0.18740427494049072 0.0 0.0 1 True True
2013.23 4.802326679229736 -1.30514411747966 1.8260558287249964 -2.0915733776488246 -1.5707805792437952 3.2315852642059326 0.0 -0.08390724658966064 -0.14223989844322205 0.2124069333076477 0.0 0.0 1 True True
2013.25 4.802313327789307 -1.3069248360446473 1.8230145613299769 -2.0869628391661585 -1.570801083241598 3.2315971851348877 0.0 -0.09033919125795364 -0.1577722132205963 0.26267024874687195 0.0 0.0 1 True True
2013.27 4.8023176193237305 -1.308809445505478 1.819683853779928 -2.081583162347311 -1.5707486311541956 3.231593608856201 0.0 -0.09774325788021088 -0.17203128337860107 0.2668425738811493 0.0 0.0 1 True True
2013.29 4.8023552894592285 -1.3109965783408661 1.815873924885885 -2.0758944950499476 -1.5707767645465296 3.2315196990966797 0.0 -0.11385229974985123 -0.1944749504327774 0.2988417148590088 0.0 0.0 1 True True
2013.31 4.8023881912231445 -1.3134131890586396 1.8117793242083948 -2.0695001087584437 -1.5707648436175745 3.231515407562256 0.0 -0.12092116475105286 -0.2106674462556839 0.32809677720069885 0.0 0.0 1 True True
2013.33 4.802347660064697 -1.3159235280803223 1.8073394934283655 -2.0624338589110316 -1.5708254019366663 3.2315726280212402 0.0 -0.13247637450695038 -0.22841346263885498 0.36172714829444885 0.0 0.0 1 True True
2013.35 4.802301406860352 -1.318643019800522 1.802784268056051 -2.0548917255797328 -1.5707805792437952 3.2315564155578613 0.0 -0.14186587929725647 -0.24059371650218964 0.3745189607143402 0.0 0.0 1 True True
2013.37 4.802313327789307 -1.3215545576861878 1.7976825873004358 -2.046898504296774 -1.5708168188678187 3.2315597534179688 0.0 -0.15374122560024261 -0.2627823054790497 0.4060342311859131 0.0 0.0 1 True True
2013.3899999999999 4.802375793457031 -1.3247987639955063 1.792253319417135 -2.0382548771300257 -1.5708211104022425 3.231538772583008 0.0 -0.16735945641994476 -0.2774452865123749 0.45633769035339355 0.0 0.0 1 True True
2013.4099999999999 4.802375793457031 -1.328161047106125 1.7863600889789026 -2.0290447674193324 -1.5707925001727503 3.231581211090088 0.0 -0.17577822506427765 -0.3045111298561096 0.47090595960617065 0.0 0.0 1 True True
2013.4299999999998 4.802366733551025 -1.3317770671895524 1.7801397482501429 -2.0192882023253382 -1.5707805792437952 3.2315597534179688 0.0 -0.18711169064044952 -0.32537978887557983 0.4881150722503662 0.0 0.0 1 True True
2013.4499999999998 4.802321910858154 -1.3355705452016373 1.773670498524801 -2.009026189843649 -1.5708211104022425 3.2315685749053955 0.0 -0.19577236473560333 -0.33286258578300476 0.5243545174598694 0.0 -2.3832912639937254e-12 1 True True
2013.4699999999998 4.802310466766357 -1.3395990294269104 1.7668021360980433 -1.9981962643065394 -1.5708654562579554 3.2315642833709717 0.0 -0.2029731720685959 -0.35642752051353455 0.5508500337600708 0.0 -7.07620637672952e-20 1 True True
2013.49 4.802358150482178 -1.3437068176320572 1.7597950140582483 -1.9867922268309535 -1.5707805792437952 3.2315731048583984 0.0 -0.19476620852947235 -0.34508392214775085 0.5514163970947266 0.0 -2.100989657798247e-27 1 True True
2013.51 4.802350997924805 -1.347632424240448 1.7528017202960413 -1.9761620960631312 -1.5707805792437952 3.2316229343414307 0.0 -0.19153466820716858 -0.34058114886283875 0.5313341617584229 0.0 -6.238026521605476e-35 1 True True
2013.53 4.8023552894592285 -1.3514301639846344 1.746354881917135 -1.9657613239684046 -1.570853058491842 3.231572151184082 0.0 -0.18440251052379608 -0.3208095133304596 0.4970388114452362 0.0 -1.8525165698374082e-42 1 True True
2013.55 4.802334308624268 -1.3550013464740296 1.740314785634176 -1.9560357532896937 -1.5707853476153772 3.2315404415130615 0.0 -0.17194058001041412 -0.2969726026058197 0.4719333350658417 0.0 -0.0 1 True True
2013.57 4.802337646484375 -1.358262450700142 1.734567944203512 -1.946892877618307 -1.5708487669574183 3.2315433025360107 0.0 -0.16664370894432068 -0.27543339133262634 0.44784465432167053 0.0 -0.0 1 True True
2013.59 4.8023600578308105 -1.3614901465228577 1.729001824055807 -1.938160081902975 -1.570824925099508 3.2315566539764404 0.0 -0.1554269939661026 -0.2651638388633728 0.41838663816452026 0.0 -0.0 1 True True
2013.61 4.802380561828613 -1.3644499343684693 1.7239392439471644 -1.9301659069456996 -1.570756737385885 3.231527090072632 0.0 -0.14417578279972076 -0.2458304911851883 0.3848671019077301 0.0 -0.0 1 True True
2013.6299999999999 4.80233097076416 -1.367295728330948 1.7191231886493128 -1.9227901897826136 -1.570784870778219 3.231527090072632 0.0 -0.1314195692539215 -0.2278580665588379 0.35378679633140564 0.0 -2.0812262135905257e-08 1 True True
2013.6499999999999 4.802334308624268 -1.3697753858617325 1.7148411909686487 -1.915811677972311 -1.5707805792437952 3.231506109237671 0.0 -0.12281198799610138 -0.20769114792346954 0.32743537425994873 0.0 -6.17934728400568e-16 1 True True
2013.6699999999998 4.802364349365234 -1.3721189361861725 1.7109368483172815 -1.9094230137267054 -1.5708654562579554 3.2315359115600586 0.0 -0.10968459397554398 -0.1925996094942093 0.3128262460231781 0.0 -1.834703663281717e-23 1 True True
2013.6899999999998 4.802313327789307 -1.3742162895253678 1.7071884314166468 -1.903539320031637 -1.5707724730121058 3.2315566539764404 0.0 -0.10262814164161682 -0.17273837327957153 0.2711729407310486 0.0 -5.447402099535413e-31 1 True True
2013.7099999999998 4.80239725112915 -1.3761669111302872 1.7038562933551233 -1.8981663189330042 -1.5707967917071741 3.2315597534179688 0.0 -0.0899510607123375 -0.16360202431678772 0.25044870376586914 0.0 -1.6173830315489433e-38 1 True True
2013.73 4.802338600158691 -1.377831296329834 1.7008541266070765 -1.8935724697508753 -1.570784870778219 3.2315523624420166 0.0 -0.08080913126468658 -0.13770604133605957 0.2294679433107376 0.0 -0.0 1 True True
2013.75 4.802310466766357 -1.3794367772391816 1.698392693196432 -1.8894063434996546 -1.5708254019366663 3.2315685749053955 0.0 -0.07047945261001587 -0.12503096461296082 0.18733489513397217 0.0 -0.0 1 True True
2013.77 4.802340030670166 -1.3807365161231537 1.695930306111471 -1.8859344921507777 -1.5708044211017054 3.2314987182617188 0.0 -0.06088857725262642 -0.10866525024175644 0.1699080467224121 0.0 -0.0 1 True True
2013.79 4.802310466766357 -1.381940783267357 1.6940115133868616 -1.8829614124693812 -1.5707767645465296 3.231585741043091 0.0 -0.051993295550346375 -0.08440765738487244 0.13654455542564392 0.0 -0.0 1 True True
2013.81 4.802334308624268 -1.3828191471150895 1.6924622694598597 -1.880362173120016 -1.5708254019366663 3.2315478324890137 0.0 -0.04069584980607033 -0.06856901198625565 0.12735958397388458 0.0 -0.0 1 True True
2013.83 4.802392959594727 -1.3834503305009385 1.6912787596331995 -1.8783947430052699 -1.5707648436175745 3.2315523624420166 0.0 -0.028817318379878998 -0.05302054435014725 0.07644642144441605 0.0 -0.0 1 True True
2013.85 4.802277565002441 -1.3839859676412125 1.690291706715719 -1.8771454296507777 -1.5707767645465296 3.2315151691436768 0.0 -0.02214331366121769 -0.03783087059855461 0.05555490404367447 0.0 -0.0 1 True True
2013.87 4.802341938018799 -1.3843459647944947 1.6897743383990687 -1.876411577264303 -1.5707648436175745 3.2315404415130615 0.0 -0.011169022880494595 -0.017782151699066162 0.023504091426730156 0.0 -0.0 1 True True
2013.8899999999999 4.802366733551025 -1.3843404811671753 1.6896722952472132 -1.876216550866598 -1.57074481645693 3.2315566539764404 0.0 -4.49416802439373e-07 0.000651128008030355 -0.002588457427918911 0.0 -0.0 1 True True
2013.9099999999999 4.802002429962158 -1.3842759740403672 1.689707104359762 -1.8761846027769984 -1.5707805792437952 3.2311816215515137 -0.027907418087124825 -8.704665372565642e-16 -2.124198239528141e-08 0.00018867244943976402 0.0 -0.026519248262047768 1 True True
2013.9299999999998 4.801113128662109 -1.3843448919108887 1.6897128264056605 -1.8761888943114222 -1.5707648436175745 3.2303500175476074 -0.054981332272291183 -6.803618383568504e-36 -2.991242453178589e-20 0.0002454862406011671 0.0 -0.05565918982028961 1 True True
2013.9499999999998 4.799831867218018 -1.3843327325633545 1.6896875540362757 -1.8761960468687953 -1.5707686583148401 3.228893756866455 -0.08375046402215958 0.0 -4.2121912250981324e-32 0.0021232047583907843 0.0 -0.08137764036655426 1 True True
2013.9699999999998 4.797845363616943 -1.3843045246652146 1.689634148274557 -1.8761049709715785 -1.570784870778219 3.226916790008545 -0.11455810815095901 0.0 -5.885453550164232e-44 0.0021066812332719564 0.0 -0.1098366379737854 1 True True
2013.99 4.795131683349609 -1.384378806953766 1.689676586781637 -1.8761006794371546 -1.570813004170553 3.224348545074463 -0.1467144787311554 0.0 -0.0 0.0007823016494512558 0.0 -0.13793127238750458 1 True True
2014.01 4.791990280151367 -1.3843045246652146 1.6896966139422815 -1.876113077203268 -1.5707805792437952 3.2212138175964355 -0.16652950644493103 0.0 -0.0 0.0021839593537151814 0.0 -0.16681797802448273 1 True True
2014.03 4.788415908813477 -1.384312005048134 1.6896474997149866 -1.876077791253561 -1.570784870778219 3.217524290084839 -0.1950700432062149 0.0 -0.0 0.0006298089865595102 0.0 -0.19287574291229248 1 True True
2014.05 4.7841644287109375 -1.3843044948628922 1.6896756331073206 -1.8761097393431605 -1.5708611647235315 3.2133421897888184 -0.22994954884052277 0.0 -0.0 0.00035957907675765455 -6.372154166456312e-05 -0.2206173539161682 1 True True
2014.07 4.779330253601074 -1.3843699854663392 1.6896632353412073 -1.8760138950743617 -1.5707886854754847 3.2087244987487793 -0.25507059693336487 0.0 -0.0 0.00023978127865120769 -6.152169953566045e-05 -0.25109848380088806 1 True True
2014.09 4.773961067199707 -1.38432830691848 1.6896279493915003 -1.876021524468893 -1.5708087126361292 3.203199863433838 -0.28476062417030334 0.0 -0.0006957732257433236 0.00013498532644007355 -6.494456465588883e-05 -0.2840851843357086 1 True True
2014.11 4.76798677444458 -1.3843001586249848 1.6896236578570765 -1.8760529957213343 -1.5708211104022425 3.1972813606262207 -0.30760279297828674 0.0 -0.0005773631273768842 9.786715963855386e-05 -5.084067993266217e-07 -0.3144877552986145 1 True True
2014.1299999999999 4.761577129364014 -1.3843001884273072 1.6896675268756312 -1.8761059246458949 -1.5708254019366663 3.1907289028167725 -0.3319636881351471 0.0 -0.0010520232608541846 8.038310625124723e-05 -0.00011012351751560345 -0.33416929841041565 1 True True
2014.1499999999999 4.754604339599609 -1.3843493324569245 1.6896198431598108 -1.8760415516295375 -1.5708168188678187 3.1837337017059326 -0.36370882391929626 0.0 -0.0011067705927416682 6.819965346949175e-05 -1.577947728037543e-07 -0.35945484042167664 1 True True
2014.1699999999998 4.747039318084717 -1.3842922908118744 1.6895735899554651 -1.876089712182516 -1.5708254019366663 3.1761622428894043 -0.39490026235580444 0.0 -0.001081515452824533 5.9223559219390154e-05 -4.6850671332385706e-15 -0.3848307430744171 1 True True
2014.1899999999998 4.738796234130859 -1.3842879396728058 1.6895306746112269 -1.8760177097716273 -1.5708168188678187 3.1681106090545654 -0.42036423087120056 0.0 -0.0015217115869745612 5.233553747530095e-05 -1.3910385714190678e-22 -0.4239823818206787 1 True True
2014.2099999999998 4.730020523071289 -1.3843176674893876 1.6895349661456507 -1.8760296307005824 -1.5708044211017054 3.1593270301818848 -0.44479188323020935 0.0002623616892378777 -0.0014912616461515427 2.3420465566914572e-09 -4.130118773761009e-30 -0.44332659244537354 1 True True
2014.23 4.720897197723389 -1.3842638593963166 1.6895182768451136 -1.8760653934874476 -1.570784870778219 3.15004825592041 -0.4742712676525116 0.0005415096529759467 -0.0010719880228862166 6.95374742073072e-17 -1.2262694477941415e-37 -0.46871381998062134 1 True True
2014.25 4.711049556732178 -1.3843176823905488 1.6895049254046839 -1.8760696850218714 -1.5707891623126429 3.140366554260254 -0.5060556530952454 0.0005946146557107568 -0.0016106003895401955 2.0646298353259098e-24 -4.203895392974451e-45 -0.5096508264541626 1 True True
2014.27 4.700554847717285 -1.3842160415700455 1.689434830342428 -1.876061578790182 -1.5708006064044397 3.129894971847534 -0.5342506766319275 0.0017847840208560228 -0.0018105010967701674 6.130071971918113e-32 -0.0 -0.5339013934135437 1 True True
2014.29 4.689800262451172 -1.3842441451600571 1.6894076506244105 -1.8760739765562953 -1.5707767645465296 3.1188650131225586 -0.5584427118301392 0.0011652328539639711 -0.0012440865393728018 3.8394623591564425e-10 -0.0 -0.5553725361824036 1 True True
2014.31 4.678289890289307 -1.3841875505498429 1.689437214528219 -1.8760014973082484 -1.5707405249225062 3.1075284481048584 -0.5898829698562622 0.0010492769069969654 -0.001071794773451984 0.0008055501966737211 -0.0 -0.5882548689842224 1 True True
2014.33 4.666053771972656 -1.384237827067711 1.6894057432757776 -1.87603821376943 -1.5708087126361292 3.0953242778778076 -0.6152499318122864 0.0018067932687699795 -0.0012907724594697356 0.0004592235491145402 -0.0 -0.613232433795929 1 True True
2014.35 4.653633117675781 -1.3841070991805573 1.689348045979635 -1.8760377369322718 -1.570784870778219 3.082886219024658 -0.6424038410186768 0.001080332905985415 -0.001132696750573814 0.00023242768656928092 -0.00012013303057756275 -0.6389018893241882 1 True True
2014.37 4.6404242515563965 -1.3841451567462464 1.6892994085894983 -1.8760301075377406 -1.5708211104022425 3.069650888442993 -0.6719023585319519 0.001508176326751709 -0.0016011338448151946 0.0006884901667945087 -4.826553219594576e-12 -0.6782715916633606 1 True True
2014.3899999999999 4.6266326904296875 -1.3840926450541993 1.6892502943622034 -1.876073499719137 -1.5708211104022425 3.0557615756988525 -0.7030161619186401 0.0017710421234369278 -0.002164834178984165 0.00035697099519893527 -0.0017265361966565251 -0.695307195186615 1 True True
2014.4099999999999 4.612465858459473 -1.3840794575265427 1.6892264525042933 -1.875998159448141 -1.5707290808307093 3.0416908264160156 -0.7198242545127869 0.0005136045510880649 -0.0012596212327480316 0.0003068285877816379 0.002531365491449833 -0.7319189310073853 1 True True
2014.4299999999998 4.5974836349487305 -1.3840807241252442 1.6892488638507288 -1.8760463200011195 -1.5708006064044397 3.0266051292419434 -0.7594715356826782 0.00197555311024189 -0.0023212875239551067 0.0005145873292349279 -0.0016562900273129344 -0.7498208284378052 1 True True
2014.4499999999998 4.582137584686279 -1.384074093108513 1.6892364660846155 -1.8760587177672328 -1.5707772413836878 3.011469841003418 -0.7781333327293396 0.0011839004000648856 -0.0010908374097198248 0.00023897452047094703 0.0001075870095519349 -0.7877027988433838 1 True True
2014.4699999999998 4.566305160522461 -1.3839805287173768 1.6891515890704554 -1.876005312005514 -1.5707929770099085 2.9953348636627197 -0.8129453659057617 0.0017725760117173195 -0.0021329354494810104 0.00038659435813315213 0.000137246199301444 -0.8098382353782654 1 True True
2014.49 4.549597263336182 -1.3839488637498398 1.6891725699054163 -1.875953813592428 -1.5707805792437952 2.9790191650390625 -0.8388350009918213 0.0014594689710065722 -0.0011779798660427332 0.0003188316768500954 4.0749621559033056e-12 -0.8410490155220032 1 True True
2014.51 4.532556533813477 -1.3839006882957001 1.6891220251666468 -1.875925680200094 -1.5708611647235315 2.961644411087036 -0.8668848872184753 0.0020300208125263453 -0.0031302450224757195 0.0002947485772892833 -0.0001096318374038674 -0.8598455786705017 1 True True
2014.53 4.514984607696533 -1.3839094650796433 1.6890719572650355 -1.8759662113585414 -1.5707686583148401 2.9442179203033447 -0.8902658820152283 0.0010153463808819652 -0.0013676583766937256 0.00031272042542696 -1.3148420293873642e-05 -0.9017918705940247 1 True True
2014.55 4.496771812438965 -1.383831874733307 1.6890080610858362 -1.8759662113585414 -1.5708211104022425 2.925877332687378 -0.9298893213272095 0.0027901625726372004 -0.0029052337631583214 0.0005133933736942708 -0.00033581064781174064 -0.9149957299232483 1 True True
2014.57 4.477962017059326 -1.3838005524924775 1.6889718214618128 -1.875970026055807 -1.5707967917071741 2.9070918560028076 -0.9472613334655762 0.002159592928364873 -0.0019657521042972803 0.0003332776250317693 -7.857021410018206e-05 -0.9498050808906555 1 True True
2014.59 4.458705902099609 -1.3838005375913163 1.6889422575580042 -1.8759461841978968 -1.5708254019366663 2.8880412578582764 -0.9826288223266602 0.0018726428970694542 -0.002132060471922159 0.000412083143601194 -8.376712503377348e-05 -0.9810903668403625 1 True True
2014.61 4.4388227462768555 -1.3837523025325318 1.688859764729635 -1.8759743175902308 -1.570829216633932 2.867858648300171 -1.0079926252365112 0.002411028603091836 -0.0021211651619523764 0.0004849841061513871 -1.9963783404186586e-10 -1.007378339767456 1 True True
2014.6299999999999 4.418320178985596 -1.3837576669505616 1.6888211409198206 -1.8759099445738734 -1.5707891623126429 2.847568988800049 -1.028387427330017 0.001426295144483447 -0.0026755258440971375 0.0006219584029167891 -5.927426549864124e-18 -1.039867877960205 1 True True
2014.6499999999999 4.397510051727295 -1.3836641323617478 1.6887763182269495 -1.8759905300536097 -1.5708211104022425 2.826802968978882 -1.0421603918075562 0.0012932217214256525 -0.0013619052479043603 0.0004704291350208223 -1.7599064015339381e-25 -1.0421746969223022 1 True True
2014.6699999999998 4.376608371734619 -1.383633629684784 1.6887534300433558 -1.8758861027159632 -1.5707767645465296 2.8057360649108887 -1.0472303628921509 0.0023686971981078386 -0.002956872573122382 0.0004766114288941026 -5.225321079928664e-33 -1.048787236213684 1 True True
2014.6899999999998 4.355750560760498 -1.3836127084544678 1.6887219587909144 -1.8759142361082972 -1.570772949849264 2.784849166870117 -1.043990969657898 0.0013905527302995324 -0.0021354886703193188 0.0016963263042271137 0.001543897669762373 -1.0577847957611084 1 True True
2014.7099999999998 4.334662914276123 -1.3836182665875931 1.6886580626117151 -1.8759542904295863 -1.570784870778219 2.763989210128784 -1.0532920360565186 0.0022899950854480267 -0.002136833965778351 0.00047441115020774305 -0.00040315825026482344 -1.0438705682754517 1 True True
2014.73 4.313701629638672 -1.383536384706833 1.6886428038226526 -1.8758751354613246 -1.570784870778219 2.7428884506225586 -1.048790454864502 0.0020774283912032843 -0.0026941876858472824 0.0006370072369463742 -6.948884401936084e-05 -1.04742431640625 1 True True
2014.75 4.292769908905029 -1.3834971946528931 1.6886113325702112 -1.875850339929098 -1.5707810560809534 2.721984386444092 -1.0409435033798218 0.0011843538377434015 -0.0028056881856173277 0.0006435475661419332 -5.490174359579214e-08 -1.0530385971069336 1 True True
2014.77 4.271821022033691 -1.3834904891303559 1.6885641256915491 -1.875894685784811 -1.5708087126361292 2.7011451721191406 -1.0503958463668823 0.0023662676103413105 -0.002201400464400649 0.00043403496965765953 -1.6300824021015501e-15 -1.045360803604126 1 True True
2014.79 4.250946044921875 -1.3834338796189805 1.6884496847735804 -1.8758632145323695 -1.5708087126361292 2.6800336837768555 -1.0480899810791016 0.0024467443581670523 -0.0024268729612231255 0.0005264562787488103 -4.8398610775677473e-23 -1.0500766038894653 1 True True
2014.81 4.229935646057129 -1.3833890867284317 1.688446346913473 -1.8758427105345667 -1.5707648436175745 2.659140110015869 -1.0436958074569702 0.0012310805032029748 -0.0028105867095291615 0.0005293377325870097 7.909328996902332e-05 -1.0516554117202759 1 True True
2014.83 4.208995819091797 -1.3833783280900498 1.6884482542621058 -1.8758465252318324 -1.5707805792437952 2.6382839679718018 -1.0505586862564087 0.0024804023560136557 -0.0018559998134151101 0.0003870668006129563 7.734461604513854e-08 -1.0429197549819946 1 True True
2014.85 4.188110828399658 -1.3833095741323014 1.6883180777179163 -1.8757993183531703 -1.570772949849264 2.6171629428863525 -1.0472157001495361 0.002582106739282608 -0.0019307557959109545 0.0004901932552456856 2.296431680882602e-15 -1.0471522808074951 1 True True
2014.87 4.167155742645264 -1.3832605344108124 1.6882613340960901 -1.8758064709105433 -1.570813004170553 2.5963075160980225 -1.0445235967636108 0.0013698410475626588 -0.0027379009407013655 0.000280088308500126 6.818313499353734e-23 -1.0547764301300049 1 True True
2014.8899999999999 4.14613676071167 -1.383212612276413 1.6882508436786097 -1.8757745228209437 -1.5707925001727503 2.5754823684692383 -1.0485633611679077 0.0025521100033074617 -0.001995269674807787 0.0002425087586743757 2.0244188796302033e-30 -1.04317307472229 1 True True
2014.9099999999999 4.125248908996582 -1.3831972193768998 1.6881607214557093 -1.8758145771422328 -1.5707891623126429 2.5543272495269775 -1.0464911460876465 0.002350962022319436 -0.002070265356451273 0.0003450819640420377 6.010683109765855e-38 -1.0433861017227173 1 True True
2014.9299999999998 4.10422945022583 -1.3831786823323746 1.68813401857485 -1.875779768029684 -1.570772949849264 2.533498764038086 -1.0435670614242554 0.0012093812692910433 -0.003066412406042218 0.0006420339341275394 1.401298464324817e-45 -1.0558046102523804 1 True True
2014.9499999999998 4.083313941955566 -1.3830764156631012 1.6880906263934534 -1.875803133050436 -1.5708449522601526 2.512639045715332 -1.0498409271240234 0.002624031389132142 -0.0024628182873129845 0.0003911425592377782 4.4273537014305475e-07 -1.0446937084197998 1 True True
2014.9699999999998 4.0624494552612305 -1.3830895137837906 1.6880138556109827 -1.875786920587057 -1.5707648436175745 2.491509199142456 -1.0482105016708374 0.002722173696383834 -0.0032061750534921885 0.0006405129097402096 1.3145211881623788e-14 -1.0473921298980713 1 True True
2014.99 4.041432857513428 -1.3830447506955643 1.6880396048175257 -1.875791688958639 -1.5707772413836878 2.4706151485443115 -1.0471020936965942 0.0015286434208974242 -0.0024170877877622843 0.0003898180730175227 3.9029316115254758e-22 -1.0519989728927612 1 True True
2015.01 4.020462989807129 -1.3829680991223832 1.6879914442645472 -1.875803133050436 -1.5707605520831507 2.449859380722046 -1.0506367683410645 0.0023770842235535383 -0.0016357257263734937 0.00036694551818072796 -0.00014762546925339848 -1.0466787815093994 1 True True
2015.03 3.9995906352996826 -1.3829277467778702 1.6879194418536585 -1.8757349453368128 -1.5708254019366663 2.42866587638855 -1.048870325088501 0.002516142325475812 -0.002311853924766183 0.00036980313598178327 -6.472341920016333e-05 -1.043224573135376 1 True True
2015.05 3.9785149097442627 -1.3829320830157776 1.6878464857684534 -1.8757716617979945 -1.5707925001727503 2.4077844619750977 -1.0426013469696045 0.0015193141298368573 -0.0029223845340311527 0.0008981620194390416 0.00019348034402355552 -1.0501967668533325 1 True True
2015.07 3.957648277282715 -1.3828766655972977 1.6878631750689905 -1.8757807217040003 -1.5708211104022425 2.386958122253418 -1.0481535196304321 0.0027399412356317043 -0.0016992491437122226 0.00046929740346968174 2.0828417746088235e-07 -1.0477937459945679 1 True True
2015.09 3.936790704727173 -1.3828790348819275 1.6878331343280237 -1.8757602177061976 -1.5708211104022425 2.365849494934082 -1.0527132749557495 0.0028721236158162355 -0.0023874754551798105 0.0006547156954184175 6.184144349223337e-15 -1.0431952476501465 1 True True
2015.11 3.915747880935669 -1.3828254801085968 1.6877897421466272 -1.8757602177061976 -1.5707805792437952 2.3450424671173096 -1.0434322357177734 0.0015204206574708223 -0.002703548176214099 0.0007528243586421013 1.8361275256612048e-22 -1.0532130002975464 1 True True
2015.1299999999999 3.8948512077331543 -1.382736088042595 1.6877239386187952 -1.8757192097105921 -1.570829216633932 2.3241000175476074 -1.047098994255066 0.001979697961360216 -0.0016653555212542415 0.00044700392754748464 -0.0002018505911109969 -1.0446739196777344 1 True True
2015.1499999999999 3.874018907546997 -1.3827937704375763 1.6876891295062464 -1.8757320843138636 -1.5708254019366663 2.3030872344970703 -1.050675392150879 0.0023501624818891287 -0.00242952280677855 0.0006868588388897479 -5.3137445832351915e-11 -1.04303777217865 1 True True
2015.1699999999998 3.8528919219970703 -1.382668436770775 1.6876323858844202 -1.875683923760885 -1.5707767645465296 2.2821524143218994 -1.0451552867889404 0.0016948935808613896 -0.0028996358159929514 0.00043719715904444456 -1.5776983327297939e-18 -1.0524623394012451 1 True True
2015.1899999999998 3.832014799118042 -1.3826082807830353 1.687613312398092 -1.875707288781637 -1.570772949849264 2.261308431625366 -1.0471564531326294 0.0025678365491330624 -0.0019265722949057817 0.000437501905253157 -7.829687092453241e-05 -1.0453424453735352 1 True True
2015.2099999999998 3.8111255168914795 -1.3825963300517579 1.6875160376178187 -1.8757039509215296 -1.5708449522601526 2.2401859760284424 -1.0498400926589966 0.0020959957037121058 -0.0030516982078552246 0.000598935061134398 -8.471119639086311e-12 -1.0430673360824585 1 True True
2015.23 3.7901132106781006 -1.3825726819089432 1.6875126997577112 -1.8756476841368617 -1.5707686583148401 2.219247341156006 -1.0441820621490479 0.0013073969166725874 -0.0026810630224645138 0.00040822982555255294 -2.5151519954047025e-19 -1.0522160530090332 1 True True
2015.25 3.7692770957946777 -1.382541002040245 1.687476936970846 -1.875639101068014 -1.5707925001727503 2.198410987854004 -1.0480060577392578 0.002181141171604395 -0.001783127780072391 0.00033852687920443714 -8.734897710382938e-05 -1.0471144914627075 1 True True
2015.27 3.748208999633789 -1.3825049859336396 1.6874006430255335 -1.8756724796690882 -1.57074481645693 2.1774253845214844 -1.048820972442627 0.0028687207959592342 -0.002812932711094618 0.0005158002022653818 -2.0787347537742917e-11 -1.0447126626968384 1 True True
2015.29 3.7272822856903076 -1.3824765098145981 1.68736440340151 -1.8756562672057093 -1.5708048979388636 2.156435012817383 -1.0436550378799438 0.0014565305318683386 -0.0024673091247677803 0.0003411314100958407 -6.171951271897303e-19 -1.0503933429718018 1 True True
2015.31 3.7063496112823486 -1.3823957753232499 1.6873167196856897 -1.875620027581686 -1.570756737385885 2.135652780532837 -1.0457607507705688 0.0015116605209186673 -0.002234111074358225 0.00038147997111082077 -1.8325083213144598e-26 -1.0475044250488281 1 True True
2015.33 3.6854171752929688 -1.3823522490314026 1.6872661749469202 -1.8756357632079066 -1.5708335081683558 2.114565849304199 -1.0497993230819702 0.0024081210140138865 -0.0023114215582609177 0.000549878051970154 4.645994704333134e-05 -1.042866587638855 1 True True
