Andreas691667/Digital_Twin_UR/src/controller_monitor/test_results/robot_output.csv
timestamp actual_q_0 actual_q_1 actual_q_2 actual_q_3 actual_q_4 actual_q_5 output_bit_register_65 output_bit_register_66
7421.987 0.6300329566001892 -1.7399879894652308 -1.4599846601486206 -1.4899944004467507 1.5600132942199707 0.29002028703689575 False False
7422.007 0.6300159692764282 -1.7400084934630335 -1.4599847793579102 -1.4899861079505463 1.5600330829620361 0.29001277685165405 False False
7422.027 0.6300159096717834 -1.7399832210936488 -1.4599685668945312 -1.490062454049923 1.560021162033081 0.29004520177841187 False False
7422.047 0.630028486251831 -1.739925046960348 -1.4600257873535156 -1.4900382694653054 1.5600013732910156 0.29000070691108704 False False
7422.067 0.6300114989280701 -1.7400504551329554 -1.4599814414978027 -1.4899944078973313 1.5600250959396362 0.2899712324142456 False False
7422.0869999999995 0.6299920678138733 -1.740016599694723 -1.459989070892334 -1.4900141072324296 1.5599970817565918 0.29000943899154663 False False
7422.107 0.6300204396247864 -1.7399994335570277 -1.4599523544311523 -1.48999439299617 1.5599970817565918 0.2899669110774994 False False
7422.1269999999995 0.6300070881843567 -1.7399832210936488 -1.460000991821289 -1.4900181976011773 1.560021162033081 0.2899467647075653 False False
7422.147 0.6300357580184937 -1.740021368066305 -1.460000991821289 -1.4900100988200684 1.560057520866394 0.28995099663734436 False False
7422.1669999999995 0.6300070285797119 -1.7400132618346156 -1.4600539207458496 -1.4900341790965577 1.560017466545105 0.2899433970451355 False False
7422.187 0.6299906373023987 -1.7400132618346156 -1.4600138664245605 -1.490010031764843 1.5599970817565918 0.29002121090888977 False False
7422.206999999999 0.6299906969070435 -1.7399622402586878 -1.460005283355713 -1.4899977532080193 1.5599929094314575 0.2900083065032959 False False
7422.227 0.6299770474433899 -1.7400280437865199 -1.4600214958190918 -1.4899984163096924 1.56002938747406 0.2900007665157318 False False
7422.246999999999 0.6299742460250854 -1.740016599694723 -1.460005283355713 -1.4899783965996285 1.5600011348724365 0.29001584649086 False False
7422.267 0.6300865411758423 -1.7400504551329554 -1.4600086212158203 -1.4900181976011773 1.5599651336669922 0.28998416662216187 False False
7422.286999999999 0.6299742460250854 -1.7400552235045375 -1.459976077079773 -1.4900304612568398 1.560017466545105 0.29004937410354614 False False
7422.307 0.6300070285797119 -1.740061422387594 -1.460005283355713 -1.4900222730687638 1.560017466545105 0.28998416662216187 False False
7422.326999999999 0.6299951076507568 -1.7400084934630335 -1.4600257873535156 -1.4900100988200684 1.560017466545105 0.29001694917678833 False False
7422.347 0.6299741864204407 -1.7400323353209437 -1.460058331489563 -1.4900181677988549 1.5600051879882812 0.28996825218200684 False False
7422.366999999999 0.6299906373023987 -1.7399832210936488 -1.4600129127502441 -1.4900100988200684 1.5600576400756836 0.2899712324142456 False False
7422.387 0.6300374865531921 -1.7400371036925257 -1.460017204284668 -1.489994430249073 1.5600011348724365 0.29006171226501465 False False
7422.406999999999 0.629999577999115 -1.7400313816466273 -1.4599804878234863 -1.4900304836085816 1.5599970817565918 0.2899596095085144 False False
7422.427 0.6299742460250854 -1.740021368066305 -1.459977149963379 -1.4900584456375618 1.5600051879882812 0.289939820766449 False False
7422.447 0.629999577999115 -1.740049501458639 -1.4600582122802734 -1.489986204808094 1.5599651336669922 0.2899553179740906 False False
7422.467 0.6299951076507568 -1.739978929559225 -1.4600257873535156 -1.4899943855455895 1.5600134134292603 0.2900170087814331 False False
7422.487 0.6300159692764282 -1.7400132618346156 -1.4600582122802734 -1.4900502127460022 1.5599970817565918 0.28997471928596497 False False
7422.507 0.6299859881401062 -1.7399383984007777 -1.4599847793579102 -1.4900304091027756 1.5599567890167236 0.29002130031585693 False False
7422.527 0.6300204396247864 -1.7400323353209437 -1.4599599838256836 -1.4900750157288094 1.5599929094314575 0.29001694917678833 False False
7422.547 0.6300070285797119 -1.7400323353209437 -1.4600496292114258 -1.4900427547148247 1.5600134134292603 0.2900332510471344 False False
7422.567 0.6299979090690613 -1.740021368066305 -1.4599847793579102 -1.4900663507035752 1.559981107711792 0.28998425602912903 False False
7422.5869999999995 0.6300204396247864 -1.739974161187643 -1.4600377082824707 -1.490022176211216 1.5599769353866577 0.2899834215641022 False False
7422.607 0.6300329566001892 -1.7400123081602992 -1.460005283355713 -1.4899862197092553 1.5599769353866577 0.2900083363056183 False False
7422.6269999999995 0.6299951076507568 -1.7399474583067835 -1.4599976539611816 -1.4899978798678895 1.5599651336669922 0.28999969363212585 False False
7422.647 0.6299742460250854 -1.7400084934630335 -1.4600181579589844 -1.4900059786489983 1.5599970817565918 0.2899712324142456 False False
7422.6669999999995 0.6300449371337891 -1.7400042019286097 -1.4599565267562866 -1.4899902728251 1.5600093603134155 0.29000401496887207 False False
7422.687 0.6300448775291443 -1.739965101281637 -1.4599599838256836 -1.4900059786489983 1.5600051879882812 0.29000401496887207 False False
7422.706999999999 0.6300449371337891 -1.7399879894652308 -1.4600203037261963 -1.4899902579239388 1.559981107711792 0.2899553179740906 False False
7422.727 0.6299921870231628 -1.739986082116598 -1.4599967002868652 -1.490014137034752 1.5599769353866577 0.28999537229537964 False False
7422.746999999999 0.6299906373023987 -1.7399994335570277 -1.4599804878234863 -1.490030163233616 1.559981107711792 0.28996825218200684 False False
7422.767 0.6299831867218018 -1.7399670086302699 -1.4600086212158203 -1.4899864953807374 1.559984803199768 0.29002895951271057 False False
7422.786999999999 0.6300204396247864 -1.7400371036925257 -1.4600214958190918 -1.4900263783386727 1.560017466545105 0.29004520177841187 False False
7422.807 0.6299951076507568 -1.7400957546629847 -1.460017204284668 -1.4900100988200684 1.5599970817565918 0.2899434566497803 False False
7422.826999999999 0.6299831867218018 -1.739957948724264 -1.459977149963379 -1.4900343504599114 1.560009241104126 0.28995534777641296 False False
7422.847 0.6299487948417664 -1.7400146923460902 -1.4599933624267578 -1.4900060159019013 1.5600411891937256 0.2899755835533142 False False
7422.866999999999 0.6300159692764282 -1.7399622402586878 -1.460017204284668 -1.4900302749923249 1.5600371360778809 0.2900245189666748 False False
7422.887 0.6300249695777893 -1.740082403222555 -1.4600708484649658 -1.490005986099579 1.5600494146347046 0.28995105624198914 False False
7422.906999999999 0.6300114989280701 -1.7400123081602992 -1.4600377082824707 -1.4900019404343148 1.5600411891937256 0.29002562165260315 False False
7422.927 0.6300194263458252 -1.7400413952269496 -1.4600181579589844 -1.4900343653610726 1.5599970817565918 0.2900245785713196 False False
7422.947 0.6299832463264465 -1.7399622402586878 -1.4600334167480469 -1.4899626535228272 1.5600051879882812 0.2899799942970276 False False
7422.967 0.6299906373023987 -1.7399951420226039 -1.4599847793579102 -1.4900220570019265 1.56002938747406 0.2900127172470093 False False
7422.987 0.6300115585327148 -1.7400404415526332 -1.4600419998168945 -1.4899625790170212 1.560001015663147 0.28996407985687256 False False
7423.007 0.6300040483474731 -1.7400132618346156 -1.4599933624267578 -1.4900343281081696 1.56002938747406 0.29000401496887207 False False
7423.027 0.6299504041671753 -1.7400084934630335 -1.4600335359573364 -1.4900060159019013 1.559984803199768 0.29001590609550476 False False
7423.047 0.6300070285797119 -1.7400299511351527 -1.4600216150283813 -1.4900381577065964 1.5600051879882812 0.29000401496887207 False False
7423.067 0.629957914352417 -1.7400747738280238 -1.4600021839141846 -1.490034246151783 1.5600216388702393 0.2899877727031708 False False
7423.0869999999995 0.6299876570701599 -1.739962717095846 -1.4600305557250977 -1.4900100988200684 1.5599688291549683 0.2899669110774994 False False
7423.107 0.6300404667854309 -1.7400123081602992 -1.4599933624267578 -1.4900463831475754 1.559960961341858 0.2899669408798218 False False
7423.1269999999995 0.6300070285797119 -1.7400371036925257 -1.4599963426589966 -1.4899785381606598 1.56002938747406 0.28998780250549316 False False
7423.147 0.629986047744751 -1.7399536571898402 -1.4600008726119995 -1.490002104347088 1.5599929094314575 0.29000404477119446 False False
7423.1669999999995 0.6299340128898621 -1.739969869653219 -1.4599844217300415 -1.4900179889849205 1.5600011348724365 0.2900407910346985 False False
7423.187 0.6299787163734436 -1.740016599694723 -1.4599800109863281 -1.4900222581676026 1.560017466545105 0.2899755835533142 False False
7423.206999999999 0.6299875974655151 -1.7400042019286097 -1.4600305557250977 -1.4899786126664658 1.560057520866394 0.2900537848472595 False False
7423.227 0.6299742460250854 -1.7400084934630335 -1.4600008726119995 -1.4900263410857697 1.5600051879882812 0.28994226455688477 False False
7423.246999999999 0.6299951076507568 -1.740016599694723 -1.4600261449813843 -1.490046502356865 1.5600453615188599 0.2900127172470093 False False
7423.267 0.6299787163734436 -1.7399879894652308 -1.459984540939331 -1.4900218930891533 1.5600535869598389 0.29000401496887207 False False
7423.286999999999 0.6300240755081177 -1.7400790653624476 -1.4600380659103394 -1.4899745744517823 1.5600216388702393 0.29001593589782715 False False
7423.307 0.6299578547477722 -1.7399593792357386 -1.460005283355713 -1.49000238001857 1.5600134134292603 0.28999972343444824 False False
7423.326999999999 0.6299787163734436 -1.7400361500182093 -1.4599963426589966 -1.4900381055525322 1.5599805116653442 0.28998780250549316 False False
7423.347 0.6300159096717834 -1.7400456867613734 -1.460005283355713 -1.4900218334845086 1.560009241104126 0.2899553179740906 False False
7423.366999999999 0.6299951076507568 -1.7400371036925257 -1.4600142240524292 -1.4900341790965577 1.5600051879882812 0.29005303978919983 False False
7423.387 0.6299386024475098 -1.7400299511351527 -1.4600498676300049 -1.4899945345572014 1.5599929094314575 0.2899596095085144 False False
7423.406999999999 0.6300203204154968 -1.73999085048818 -1.4600008726119995 -1.4900024619749566 1.5599769353866577 0.28998780250549316 False False
7423.427 0.6299995183944702 -1.7400323353209437 -1.4599977731704712 -1.4900340598872681 1.5600134134292603 0.2899596691131592 False False
7423.447 0.6300194263458252 -1.7399760685362757 -1.4600008726119995 -1.490022325222828 1.560017466545105 0.2899423837661743 False False
7423.467 0.6299743056297302 -1.7400280437865199 -1.460005283355713 -1.4899902653745194 1.5600495338439941 0.28998348116874695 False False
7423.487 0.6299743056297302 -1.7399951420226039 -1.4599725008010864 -1.4900341790965577 1.560017466545105 0.2900245189666748 False False
7423.507 0.6299756169319153 -1.740016599694723 -1.4600557088851929 -1.4900264379433175 1.5600334405899048 0.2899834215641022 False False
7423.527 0.6299697160720825 -1.7400833568968714 -1.4600632190704346 -1.489990198319294 1.56002938747406 0.2900083363056183 False False
7423.547 0.6299951076507568 -1.739978929559225 -1.4600632190704346 -1.4900141072324296 1.5600413084030151 0.28999969363212585 False False
7423.567 0.6299281716346741 -1.7399879894652308 -1.4600008726119995 -1.4900100913694878 1.5599688291549683 0.2900169789791107 False False
7423.5869999999995 0.6299787163734436 -1.73999085048818 -1.4600424766540527 -1.4900100988200684 1.5600053071975708 0.2899921238422394 False False
7423.607 0.6299624443054199 -1.7399584255614222 -1.460017204284668 -1.489970089202263 1.5599929094314575 0.2899920642375946 False False
7423.6269999999995 0.6299697756767273 -1.7400404415526332 -1.4599872827529907 -1.4900585126927872 1.559981107711792 0.2900083363056183 False False
7423.647 0.6300039291381836 -1.7400299511351527 -1.459984540939331 -1.4900382694653054 1.56002938747406 0.2899596393108368 False False
7423.6669999999995 0.629974365234375 -1.740016599694723 -1.4600335359573364 -1.4900463682464142 1.559972882270813 0.28999653458595276 False False
7423.687 0.63004469871521 -1.740018983880514 -1.4600127935409546 -1.4900222283652802 1.5599929094314575 0.29004523158073425 False False
7423.706999999999 0.6299298405647278 -1.7399832210936488 -1.460017204284668 -1.490058497791626 1.5600252151489258 0.28997910022735596 False False
7423.727 0.6300158500671387 -1.7400042019286097 -1.460033655166626 -1.4899821442416687 1.5599408149719238 0.2899520695209503 False False
7423.746999999999 0.6299787759780884 -1.7399879894652308 -1.4599933624267578 -1.4899660509875794 1.5599769353866577 0.2900082767009735 False False
7423.767 0.6300070881843567 -1.7400032482542933 -1.460005283355713 -1.4899541971138497 1.560017466545105 0.2899877727031708 False False
7423.786999999999 0.6300240159034729 -1.7400084934630335 -1.4600216150283813 -1.4899701562574883 1.5600134134292603 0.2899596393108368 False False
7423.807 0.6300283670425415 -1.7400208912291468 -1.4600424766540527 -1.4900181976011773 1.560017466545105 0.28995534777641296 False False
7423.826999999999 0.6299907565116882 -1.7399670086302699 -1.4600082635879517 -1.4899820771864434 1.560012936592102 0.28999653458595276 False False
7423.847 0.6299669146537781 -1.7399655781187953 -1.4600186347961426 -1.4899906155518075 1.5600051879882812 0.29002127051353455 False False
7423.866999999999 0.6299951076507568 -1.740060945550436 -1.4599725008010864 -1.4899902057698746 1.5599888563156128 0.2899640202522278 False False
7423.887 0.6299907565116882 -1.7400042019286097 -1.4599978923797607 -1.490050533120968 1.5599970817565918 0.28999969363212585 False False
7423.906999999999 0.6300157904624939 -1.7400371036925257 -1.4599963426589966 -1.4900424417904397 1.5599888563156128 0.289992094039917 False False
7423.927 0.6300608515739441 -1.7400499782957972 -1.4599800109863281 -1.4900025141290207 1.56002938747406 0.28993475437164307 False False
7423.947 0.6299951076507568 -1.7400042019286097 -1.4600335359573364 -1.4900583934834977 1.5600134134292603 0.28997913002967834 False False
7423.967 0.6299936771392822 -1.7400175533690394 -1.4599517583847046 -1.489990235572197 1.5600134134292603 0.289992094039917 False False
7423.987 0.630003809928894 -1.7400490246214808 -1.4600499868392944 -1.49003008872781 1.5600011348724365 0.2900331914424896 False False
7424.007 0.6299788355827332 -1.7399598560728968 -1.4599963426589966 -1.4900101137212296 1.5600011348724365 0.28993919491767883 False False
7424.027 0.6299993991851807 -1.7399922809996546 -1.4600216150283813 -1.490038276915886 1.5600252151489258 0.28997552394866943 False False
7424.047 0.6300113797187805 -1.7399922809996546 -1.4600350856781006 -1.4900222805193444 1.5599888563156128 0.29004937410354614 False False
7424.067 0.6299907565116882 -1.7399760685362757 -1.4600096940994263 -1.4900424417904397 1.560009241104126 0.2900127172470093 False False
7424.0869999999995 0.6300070285797119 -1.7400537929930628 -1.4600023031234741 -1.4900181976011773 1.5600011348724365 0.2899467647075653 False False
7424.107 0.6299994587898254 -1.740044733087057 -1.4600082635879517 -1.4900386121920128 1.560009241104126 0.28998851776123047 False False
7424.1269999999995 0.6299819350242615 -1.7400862179198207 -1.4600186347961426 -1.4900059413960953 1.5599769353866577 0.2900245189666748 False False
7424.147 0.6299862265586853 -1.7399431667723597 -1.4600380659103394 -1.4899984163096924 1.5599970817565918 0.2899799346923828 False False
7424.1669999999995 0.6299831867218018 -1.7400280437865199 -1.460021734237671 -1.489990235572197 1.5599888563156128 0.2900082767009735 False False
7424.187 0.6299506425857544 -1.7400084934630335 -1.4600096940994263 -1.489990235572197 1.5600334405899048 0.28998780250549316 False False
7424.206999999999 0.6300070285797119 -1.7399670086302699 -1.4599933624267578 -1.4900025066784401 1.560021162033081 0.2900127172470093 False False
7424.227 0.6299745440483093 -1.7399746380248011 -1.459968090057373 -1.4899663937142869 1.560009241104126 0.28995969891548157 False False
7424.246999999999 0.6299994587898254 -1.7399865589537562 -1.4599933624267578 -1.490005948846676 1.559969186782837 0.2899063229560852 False False
7424.267 0.6300070285797119 -1.7400490246214808 -1.460017204284668 -1.4900182274034997 1.5599970817565918 0.28997913002967834 False False
7424.286999999999 0.6300113797187805 -1.7399865589537562 -1.4599725008010864 -1.489978389149048 1.560009241104126 0.29003751277923584 False False
7424.307 0.6300325989723206 -1.7399879894652308 -1.4600216150283813 -1.4899984461120148 1.5599732398986816 0.28995099663734436 False False
7424.326999999999 0.629990816116333 -1.7400042019286097 -1.4599977731704712 -1.48998615265403 1.56002938747406 0.2900007367134094 False False
7424.347 0.6299862861633301 -1.739962717095846 -1.4600335359573364 -1.4900100988200684 1.5599727630615234 0.289992094039917 False False
7424.366999999999 0.629990816116333 -1.7400084934630335 -1.4600008726119995 -1.4900264677456398 1.5599888563156128 0.28998345136642456 False False
7424.387 0.629990816116333 -1.7400127849974574 -1.4600305557250977 -1.4899742317250748 1.559981107711792 0.289992094039917 False False
7424.406999999999 0.6300194263458252 -1.7400533161559046 -1.4599800109863281 -1.490030438905098 1.5599888563156128 0.2899712324142456 False False
7424.427 0.6300113201141357 -1.7400251827635707 -1.4600543975830078 -1.4899902728251 1.560009241104126 0.2900083065032959 False False
7424.447 0.6300281882286072 -1.7400208912291468 -1.460017204284668 -1.4900018882802506 1.560001015663147 0.2899866998195648 False False
7424.467 0.6300573348999023 -1.7400042019286097 -1.4600216150283813 -1.4900464427522202 1.5599968433380127 0.2900201976299286 False False
7424.487 0.629990816116333 -1.7400084934630335 -1.4600589275360107 -1.4900141072324296 1.5600134134292603 0.2899877727031708 False False
7424.507 0.6300488114356995 -1.7400366268553675 -1.4600008726119995 -1.4900424864939232 1.5599608421325684 0.29002344608306885 False False
7424.527 0.630028247833252 -1.7400084934630335 -1.460034966468811 -1.4899742689779778 1.5600011348724365 0.2899553179740906 False False
7424.547 0.629990816116333 -1.7400084934630335 -1.4600261449813843 -1.4900100988200684 1.5599929094314575 0.2900083065032959 False False
7424.567 0.629990816116333 -1.7399794063963832 -1.4600008726119995 -1.4900181976011773 1.5599448680877686 0.28998419642448425 False False
7424.5869999999995 0.630028247833252 -1.7399684391417445 -1.4599933624267578 -1.490018145447113 1.5599970817565918 0.2900245785713196 False False
7424.607 0.630002498626709 -1.7400037250914515 -1.4600468873977661 -1.4899422240308304 1.5599929094314575 0.2900083363056183 True False
7424.6269999999995 0.6300113201141357 -1.7399913273253382 -1.460017204284668 -1.490030438905098 1.5600134134292603 0.29002127051353455 True False
7424.647 0.6300151348114014 -1.7399751148619593 -1.4600335359573364 -1.489990585749485 1.560017466545105 0.290020227432251 True False
7424.6669999999995 0.6300952434539795 -1.7400127849974574 -1.4600588083267212 -1.4900385972908516 1.5599852800369263 0.28999966382980347 True False
7424.687 0.6302440762519836 -1.7400042019286097 -1.4600008726119995 -1.4900181901505967 1.5600011348724365 0.29001694917678833 True False
7424.706999999999 0.6305320858955383 -1.7400366268553675 -1.460017204284668 -1.4900424417904397 1.559952735900879 0.29005303978919983 True False
7424.727 0.6308281421661377 -1.7400037250914515 -1.4599933624267578 -1.490038627093174 1.560009241104126 0.29009634256362915 True False
7424.746999999999 0.6312256455421448 -1.7400294742979945 -1.4599844217300415 -1.4900100988200684 1.559960961341858 0.29013460874557495 True False
7424.767 0.6317388415336609 -1.7400404415526332 -1.4600008726119995 -1.4899745744517823 1.5599485635757446 0.2903441786766052 True False
7424.786999999999 0.6324748992919922 -1.7400318584837855 -1.4600008726119995 -1.4899188217571755 1.5600051879882812 0.29045820236206055 True False
7424.807 0.6334395408630371 -1.740075250665182 -1.4600335359573364 -1.4898473855904122 1.5599970817565918 0.29065364599227905 True False
7424.826999999999 0.6346613168716431 -1.7401720486082972 -1.4599889516830444 -1.4897595208934327 1.5600051879882812 0.29080408811569214 True False
7424.847 0.6360698342323303 -1.74023499111318 -1.460017204284668 -1.489631065433361 1.5600011348724365 0.2911255359649658 True False
7424.866999999999 0.6378239393234253 -1.7403675518431605 -1.4600021839141846 -1.4895482075265427 1.5600011348724365 0.29146018624305725 True False
7424.887 0.6400541663169861 -1.7405125103392542 -1.4599814414978027 -1.4894168090871354 1.5600011348724365 0.29170486330986023 True False
7424.906999999999 0.6425387859344482 -1.7406441173949183 -1.4599169492721558 -1.4892333832434197 1.5600169897079468 0.2922360599040985 True False
7424.927 0.6455915570259094 -1.7407456837096156 -1.4598826169967651 -1.489058071081974 1.5600650310516357 0.2928197383880615 True False
7424.947 0.6490367650985718 -1.7409249744811 -1.4597824811935425 -1.4888795104673882 1.5601692199707031 0.2933674156665802 True False
7424.967 0.6529117822647095 -1.7411538563170375 -1.4597535133361816 -1.4886722278646012 1.5601330995559692 0.29402956366539 True False
7424.987 0.6570674180984497 -1.741340776483053 -1.4596859216690063 -1.4884534266642113 1.560185194015503 0.29478704929351807 True False
7425.007 0.6615641713142395 -1.7416101894774378 -1.4595931768417358 -1.488214561050274 1.5602208375930786 0.2955305576324463 True False
7425.027 0.66645348072052 -1.7417079410948695 -1.4595255851745605 -1.48788374782119 1.5602773427963257 0.2964928150177002 True False
7425.047 0.6716223359107971 -1.7420197925963343 -1.4594535827636719 -1.4876050290516396 1.5602569580078125 0.29733291268348694 True False
7425.067 0.677154004573822 -1.742314954797262 -1.4593216180801392 -1.487318792646267 1.560325264930725 0.29836568236351013 True False
7425.0869999999995 0.6831076741218567 -1.742657323876852 -1.4592857360839844 -1.486935944562294 1.5603771209716797 0.2994089424610138 True False
7425.107 0.689405083656311 -1.7428819141783656 -1.4591823816299438 -1.4866576057723542 1.560449242591858 0.3005293011665344 True False
7425.1269999999995 0.6960895657539368 -1.7433062992491664 -1.4590728282928467 -1.4862314623645325 1.560461401939392 0.3017379641532898 True False
7425.147 0.7029733657836914 -1.7435838184752406 -1.4590435028076172 -1.4858531442335625 1.5605089664459229 0.30296045541763306 True False
7425.1669999999995 0.7102169990539551 -1.744032999078268 -1.458827257156372 -1.4854988244226952 1.5605449676513672 0.3042723536491394 True False
7425.187 0.7178372740745544 -1.7443753681578578 -1.4587972164154053 -1.4850649547627945 1.5606013536453247 0.30557096004486084 True False
7425.206999999999 0.7260050773620605 -1.7447706661620082 -1.4586620330810547 -1.4845231112888833 1.5607130527496338 0.3070012032985687 True False
7425.227 0.7343537211418152 -1.7451254330077113 -1.4584835767745972 -1.484117218559124 1.5607569217681885 0.3085283637046814 True False
7425.246999999999 0.7429611682891846 -1.7455798588194789 -1.4584134817123413 -1.4836755481413384 1.560748815536499 0.3100714087486267 True False
7425.267 0.7520713806152344 -1.7460838756956996 -1.4582781791687012 -1.4830656138113518 1.5608927011489868 0.31158339977264404 True False
7425.286999999999 0.7616174817085266 -1.7465588055052699 -1.458146095275879 -1.482520469730236 1.5610175132751465 0.3132329285144806 True False
7425.307 0.7711114883422852 -1.7469879589476527 -1.4579964876174927 -1.4820233073881646 1.560956358909607 0.31507691740989685 True False
7425.326999999999 0.7812029719352722 -1.7474833927550257 -1.4578536748886108 -1.481410102253296 1.5610170364379883 0.31683653593063354 True False
7425.347 0.7918044924736023 -1.7480913601317347 -1.4576857089996338 -1.4807368752411385 1.5611766576766968 0.31866949796676636 True False
7425.366999999999 0.8026154041290283 -1.7485691509642542 -1.4575868844985962 -1.4801394280842324 1.5612088441848755 0.32058221101760864 True False
7425.387 0.8136245608329773 -1.7491256199278773 -1.4574590921401978 -1.4795662698200722 1.5612449645996094 0.32254740595817566 True False
7425.406999999999 0.8253989815711975 -1.7496749363341273 -1.457189917564392 -1.478921153848507 1.561432957649231 0.3246470093727112 True False
7425.427 0.8370378017425537 -1.750359674493307 -1.4570789337158203 -1.478304148917534 1.5614728927612305 0.3266957998275757 True False
7425.447 0.8491845726966858 -1.750908990899557 -1.4569494724273682 -1.477595606153347 1.5614771842956543 0.3288714289665222 True False
7425.467 0.8618766665458679 -1.7516075573363246 -1.456705927848816 -1.4767710503986855 1.5617462396621704 0.3310789465904236 True False
7425.487 0.8747280240058899 -1.7522360287108363 -1.4565868377685547 -1.476153941159584 1.561720848083496 0.333457887172699 True False
7425.507 0.8879508972167969 -1.7528087101378382 -1.4563859701156616 -1.4754135620645066 1.5617649555206299 0.33577048778533936 True False
7425.527 0.9015563130378723 -1.7534753284850062 -1.456141710281372 -1.47455798954282 1.56194007396698 0.3382088541984558 True False
7425.547 0.9155277609825134 -1.7541614971556605 -1.4559694528579712 -1.4737888363054772 1.561968445777893 0.3406110405921936 True False
7425.567 0.9297457337379456 -1.754921098748678 -1.4557222127914429 -1.472972923224308 1.5621414184570312 0.343150794506073 True False
7425.5869999999995 0.9443292617797852 -1.7555657825865687 -1.455579400062561 -1.4722204741886635 1.5622012615203857 0.3457052409648895 True False
7425.607 0.9594254493713379 -1.7563697300352992 -1.4553214311599731 -1.4713642311147233 1.5623443126678467 0.3483886122703552 True False
7425.6269999999995 0.9747693538665771 -1.75718416790151 -1.4551341533660889 -1.47046813488517 1.562416434288025 0.35108599066734314 True False
7425.647 0.9904309511184692 -1.7579084835448207 -1.4549601078033447 -1.4695840787938614 1.562532901763916 0.35392725467681885 True False
7425.6669999999995 1.0064704418182373 -1.7587176762022914 -1.4546914100646973 -1.4686928924969216 1.5626604557037354 0.35678431391716003 True False
7425.687 1.0229376554489136 -1.7595259151854457 -1.4544153213500977 -1.4676166635802765 1.5628209114074707 0.35969316959381104 True False
7425.706999999999 1.0396074056625366 -1.7604338131346644 -1.4541878700256348 -1.4666736659458657 1.562860369682312 0.36260300874710083 True False
7425.727 1.0566819906234741 -1.7611733875670375 -1.4538578987121582 -1.4657539290240784 1.5630120038986206 0.3656279742717743 True False
7425.746999999999 1.0741963386535645 -1.762045522729391 -1.4536569118499756 -1.4648545694402237 1.5631080865859985 0.36871904134750366 True False
7425.767 1.0915250778198242 -1.7629782162108363 -1.45347261428833 -1.4638744306615372 1.5633286237716675 0.3719125986099243 True False
7425.786999999999 1.1089998483657837 -1.7637831173338832 -1.453170657157898 -1.4628592518023034 1.563368320465088 0.3748975694179535 True False
7425.807 1.1264327764511108 -1.7646719417967738 -1.4529772996902466 -1.461847835486271 1.563564419746399 0.37799176573753357 True False
7425.826999999999 1.143859624862671 -1.7654921017088832 -1.452683925628662 -1.4608606931618233 1.5636080503463745 0.38111060857772827 True False
7425.847 1.161348581314087 -1.7663337192931117 -1.4524641036987305 -1.4597532910159607 1.5637727975845337 0.38419923186302185 True False
7425.866999999999 1.1788076162338257 -1.7671710453429164 -1.4521560668945312 -1.4588783991387864 1.563936710357666 0.38734206557273865 True False
7425.887 1.1962484121322632 -1.7681051693358363 -1.4519448280334473 -1.4578860488585015 1.5640734434127808 0.3904564380645752 True False
7425.906999999999 1.2137079238891602 -1.7690421543517054 -1.4517569541931152 -1.4569066253355523 1.5641236305236816 0.3934808373451233 True False
7425.927 1.2311698198318481 -1.769816061059469 -1.4514727592468262 -1.4559595894864579 1.5642039775848389 0.396616667509079 True False
7425.947 1.248545527458191 -1.7707320652403773 -1.4512324333190918 -1.4549523156932374 1.5644365549087524 0.3996987044811249 True False
7425.967 1.2660614252090454 -1.7715302906432093 -1.4509806632995605 -1.453912691479065 1.5644396543502808 0.40280213952064514 True False
7425.987 1.2835578918457031 -1.772468706170553 -1.4507238864898682 -1.4528498214534302 1.564656138420105 0.4058611989021301 True False
7426.007 1.300978183746338 -1.7733241520323695 -1.450505256652832 -1.4519018244794388 1.5647482872009277 0.4089866876602173 True False
7426.027 1.318427324295044 -1.7742802105345667 -1.4502534866333008 -1.4509622243097802 1.564872145652771 0.4120441675186157 True False
7426.047 1.3358547687530518 -1.7750293217101039 -1.4500086307525635 -1.450018787091114 1.5650241374969482 0.4151094853878021 True False
7426.067 1.3532860279083252 -1.7759839497008265 -1.4497652053833008 -1.4489198488048096 1.5651037693023682 0.41826117038726807 True False
7426.0869999999995 1.3708382844924927 -1.7767464123167933 -1.4495785236358643 -1.4480081361583252 1.5652958154678345 0.4213978052139282 True False
7426.107 1.3882735967636108 -1.777647157708639 -1.449338436126709 -1.4469288897565384 1.565323829650879 0.42447081208229065 True False
7426.1269999999995 1.4057140350341797 -1.7785378895201625 -1.4490569829940796 -1.445889600818493 1.5655244588851929 0.4275668263435364 True False
7426.147 1.4231117963790894 -1.7793780765929164 -1.4487287998199463 -1.4449782383492966 1.5655956268310547 0.43060964345932007 True False
7426.1669999999995 1.440591812133789 -1.780217786828512 -1.448493480682373 -1.4440066081336518 1.5657806396484375 0.4337255358695984 True False
7426.187 1.4581224918365479 -1.7810875378050746 -1.4482406377792358 -1.443054960375168 1.5659124851226807 0.43677273392677307 True False
7426.206999999999 1.4754503965377808 -1.781971117059225 -1.4480128288269043 -1.4420835983804245 1.5659675598144531 0.4398529529571533 True False
7426.227 1.4929900169372559 -1.7829109630980433 -1.4477696418762207 -1.441111446624138 1.5661602020263672 0.442961722612381 True False
7426.246999999999 1.510361909866333 -1.7838031254210414 -1.4475226402282715 -1.4400506925633927 1.5662646293640137 0.4461172819137573 True False
7426.267 1.527886986732483 -1.7845775089659632 -1.4472546577453613 -1.439014510517456 1.5664000511169434 0.4492085874080658 True False
7426.286999999999 1.545444369316101 -1.7854887447752894 -1.4469304084777832 -1.4380375307849427 1.5665003061294556 0.4523347020149231 True False
7426.307 1.5628098249435425 -1.7863198719420375 -1.4466753005981445 -1.4371487510255356 1.5666234493255615 0.45534297823905945 True False
7426.326999999999 1.5802079439163208 -1.7871977291502894 -1.4465404748916626 -1.4361757201007386 1.5666835308074951 0.4585277736186981 True False
7426.347 1.59779691696167 -1.7881256542601527 -1.4462432861328125 -1.4351112109473725 1.5668680667877197 0.46158209443092346 True False
7426.366999999999 1.6151410341262817 -1.7889191112914027 -1.4460196495056152 -1.4341425162604828 1.56698739528656 0.4646545350551605 True False
7426.387 1.6319888830184937 -1.789835115472311 -1.4457764625549316 -1.433165819650032 1.5670751333236694 0.46762558817863464 True False
7426.406999999999 1.6487436294555664 -1.7906347713866175 -1.4455523490905762 -1.4321733129075547 1.5672236680984497 0.4706208109855652 True False
7426.427 1.66525137424469 -1.7914015255370082 -1.4453080892562866 -1.4312519145062943 1.5673635005950928 0.47358718514442444 True False
7426.447 1.6811553239822388 -1.792204042474264 -1.4450526237487793 -1.4304145735553284 1.5675327777862549 0.4763433635234833 True False
7426.467 1.6967650651931763 -1.792962213555807 -1.4448609352111816 -1.4294819396785279 1.5675517320632935 0.47915875911712646 True False
7426.487 1.7121117115020752 -1.7936879597105921 -1.4446415901184082 -1.4285851281932374 1.5676994323730469 0.4818805158138275 True False
7426.507 1.7270017862319946 -1.7944475613036097 -1.4444729089736938 -1.4277837586453934 1.5677547454833984 0.4845302402973175 True False
7426.527 1.7416536808013916 -1.7951332531371058 -1.444290041923523 -1.4269183588078995 1.5678675174713135 0.48707082867622375 True False
7426.547 1.755968689918518 -1.795835634271139 -1.4440983533859253 -1.4260369700244446 1.5679913759231567 0.48962363600730896 True False
7426.567 1.769789218902588 -1.7965904674925746 -1.4438490867614746 -1.4252198946527024 1.5680714845657349 0.49211451411247253 True False
7426.5869999999995 1.783416509628296 -1.797262807885641 -1.4436583518981934 -1.4245587599328537 1.5681796073913574 0.4944876432418823 True False
7426.607 1.7966538667678833 -1.7978950939574183 -1.4434980154037476 -1.423833043580391 1.5682837963104248 0.4968875050544739 True False
7426.6269999999995 1.8095124959945679 -1.7985078297057093 -1.4433192014694214 -1.4231397074512024 1.5683995485305786 0.49907243251800537 True False
7426.647 1.821886420249939 -1.7991415462889613 -1.4431875944137573 -1.4224415582469483 1.5684194564819336 0.5012848377227783 True False
7426.6669999999995 1.8341279029846191 -1.7997571430602015 -1.4429841041564941 -1.4216408294490357 1.5685431957244873 0.5035251975059509 True False
7426.687 1.845930576324463 -1.800368448297018 -1.4427992105484009 -1.4210340094617386 1.5686473846435547 0.5056066513061523 True False
7426.706999999999 1.8573801517486572 -1.8009716473021449 -1.442691445350647 -1.4204086673310776 1.5686354637145996 0.5075638294219971 True False
7426.727 1.868606448173523 -1.8014847240843714 -1.4425405263900757 -1.4196713429740448 1.5688279867172241 0.5096354484558105 True False
7426.746999999999 1.8791592121124268 -1.8019958935179652 -1.4423024654388428 -1.4191414576819916 1.5688432455062866 0.5114867091178894 True False
7426.767 1.8897550106048584 -1.8025299511351527 -1.4421921968460083 -1.4185152810863038 1.5689113140106201 0.5134162306785583 True False
7426.786999999999 1.8998875617980957 -1.803037782708639 -1.4419838190078735 -1.417868898516037 1.5690433979034424 0.5151057839393616 True False
7426.807 1.9094563722610474 -1.8035203419127406 -1.4418838024139404 -1.4174428892186661 1.5689908266067505 0.5169029235839844 True False
7426.826999999999 1.9188798666000366 -1.804040094415182 -1.4417405128479004 -1.4168078315309067 1.5691275596618652 0.5185245275497437 True False
7426.847 1.9280232191085815 -1.8044668636717738 -1.4416497945785522 -1.4164024901441117 1.569206714630127 0.5201060771942139 True False
7426.866999999999 1.9364763498306274 -1.8048550091185511 -1.4414726495742798 -1.4159443390420456 1.5692193508148193 0.5217068791389465 True False
7426.887 1.9448180198669434 -1.805216451684469 -1.4414048194885254 -1.4154010278037568 1.5693111419677734 0.523170530796051 True False
7426.906999999999 1.9530259370803833 -1.805709024468893 -1.4413013458251953 -1.414922909145691 1.5693589448928833 0.5245335102081299 True False
7426.927 1.9604605436325073 -1.806084772149557 -1.4412012100219727 -1.4145405751517792 1.5694433450698853 0.525877058506012 True False
7426.947 1.967673897743225 -1.806413312951559 -1.4410730600357056 -1.4141219568303605 1.5694350004196167 0.5272024869918823 True False
7426.967 1.974737524986267 -1.8067275486388148 -1.440964698791504 -1.4137194615653534 1.5695714950561523 0.5284742712974548 True False
7426.987 1.9813441038131714 -1.807096620599264 -1.4409146308898926 -1.4133320909789582 1.5695627927780151 0.5295071601867676 True False
7427.007 1.9875481128692627 -1.8073731861510218 -1.440778136253357 -1.4130220276168366 1.5695987939834595 0.530678391456604 True False
7427.027 1.9932911396026611 -1.8077064953246058 -1.4407399892807007 -1.4126265955022355 1.5696310997009277 0.5317064523696899 True False
7427.047 1.9988149404525757 -1.8078905544676722 -1.4405763149261475 -1.4123362463763733 1.5697113275527954 0.5326835513114929 True False
7427.067 2.0041143894195557 -1.8082105122008265 -1.4404851198196411 -1.4120332610658188 1.569771409034729 0.5335856676101685 True False
7427.0869999999995 2.0089755058288574 -1.808450838128561 -1.4404329061508179 -1.41173009694133 1.5697952508926392 0.5344952344894409 True False
7427.107 2.013408899307251 -1.8086520634093226 -1.4404643774032593 -1.4114587020925065 1.5698390007019043 0.5352612137794495 True False
7427.1269999999995 2.0175631046295166 -1.8088752231993617 -1.4402860403060913 -1.4112273764661332 1.5698795318603516 0.5360571146011353 True False
7427.147 2.0213284492492676 -1.8090397320189417 -1.440311312675476 -1.4110802424005051 1.569863200187683 0.5366450548171997 True False
7427.1669999999995 2.024653673171997 -1.809289117852682 -1.4402259588241577 -1.4109051388553162 1.5698871612548828 0.537304699420929 True False
7427.187 2.02778697013855 -1.809362073937887 -1.440149188041687 -1.410725162630417 1.5698950290679932 0.5378387570381165 True False
7427.206999999999 2.0305213928222656 -1.8094669781126917 -1.4401843547821045 -1.4105859410813828 1.5699315071105957 0.5382844805717468 True False
7427.227 2.032939910888672 -1.8096057377257289 -1.4400734901428223 -1.4104060393622895 1.5699633359909058 0.5387558341026306 True False
7427.246999999999 2.0349764823913574 -1.8097316227354945 -1.4400789737701416 -1.4102948021939774 1.569951057434082 0.5391402244567871 True False
7427.267 2.036661386489868 -1.8097597561278285 -1.4400551319122314 -1.4101950538209458 1.5699349641799927 0.539417028427124 True False
7427.286999999999 2.038005828857422 -1.8098780117430628 -1.4400416612625122 -1.4101993155530472 1.569978952407837 0.5396232604980469 True False
7427.307 2.039090156555176 -1.8098842106261195 -1.4399983882904053 -1.4101155710271378 1.5700112581253052 0.5397671461105347 True False
7427.326999999999 2.039717435836792 -1.8099199734129847 -1.439972996711731 -1.4101238411716004 1.569982886314392 0.5398224592208862 True False
7427.347 2.0399892330169678 -1.8099929294981898 -1.44001042842865 -1.4100876909545441 1.5700314044952393 0.5398675799369812 True False
7427.366999999999 2.03994083404541 -1.8099919758238734 -1.4400386810302734 -1.409915567641594 1.5699989795684814 0.5398600101470947 True False
7427.387 2.0398876667022705 -1.810066362420553 -1.4402587413787842 -1.4093217116645356 1.5699633359909058 0.5399630665779114 True False
7427.406999999999 2.0399234294891357 -1.8101188145079554 -1.4409106969833374 -1.4086757612279435 1.5698672533035278 0.540027379989624 True False
7427.427 2.0398950576782227 -1.810387750665182 -1.4420305490493774 -1.4077353787473221 1.56955087184906 0.5400882959365845 True False
7427.447 2.0399351119995117 -1.8105818233885707 -1.4434536695480347 -1.4062714588693161 1.5693271160125732 0.5401020646095276 True False
7427.467 2.0399396419525146 -1.8108607731261195 -1.4451650381088257 -1.404302106504776 1.5690234899520874 0.5401545166969299 True False
7427.487 2.039956569671631 -1.8110243282713832 -1.4472633600234985 -1.4022453439286728 1.5685795545578003 0.5402831435203552 True False
7427.507 2.0399508476257324 -1.8113724193968714 -1.4499295949935913 -1.3998323690942307 1.5680508613586426 0.5403176546096802 True False
7427.527 2.0399584770202637 -1.8118444881834925 -1.4527182579040527 -1.3968856793693085 1.5675196647644043 0.5404562950134277 True False
7427.547 2.039987802505493 -1.8120976887144984 -1.4557363986968994 -1.3936965775540848 1.5668514966964722 0.540501594543457 True False
7427.567 2.040015935897827 -1.8125487766661585 -1.4591684341430664 -1.3901598316482087 1.5661029815673828 0.5406871438026428 True False
7427.5869999999995 2.0399627685546875 -1.81304993251943 -1.4628723859786987 -1.3863092076829453 1.565451741218567 0.540827751159668 True False
7427.607 2.040040969848633 -1.8136068783202113 -1.4669958353042603 -1.3819389206222077 1.5646600723266602 0.5408594012260437 True False
7427.6269999999995 2.040004014968872 -1.8142057857909144 -1.4713245630264282 -1.3774952453425904 1.5637359619140625 0.5410477519035339 True False
7427.647 2.0399835109710693 -1.8148752651610316 -1.4762413501739502 -1.3725056064179917 1.562744140625 0.5411837697029114 True False
7427.6669999999995 2.0400278568267822 -1.8155247173705042 -1.4814872741699219 -1.3672007781318207 1.561767816543579 0.5413963794708252 True False
7427.687 2.0399465560913086 -1.8162805042662562 -1.4869792461395264 -1.3615313184312363 1.5607082843780518 0.5415800213813782 True False
7427.706999999999 2.0399911403656006 -1.8169871769347132 -1.492547631263733 -1.3555467140725632 1.5594402551651 0.5417549014091492 True False
7427.727 2.04003643989563 -1.8178049526610316 -1.498533010482788 -1.3492450428060074 1.5582729578018188 0.5420079827308655 True False
7427.746999999999 2.0400404930114746 -1.818690916100973 -1.5049992799758911 -1.3426658076098938 1.5569568872451782 0.5421978831291199 True False
7427.767 2.0400073528289795 -1.8196083507933558 -1.511995553970337 -1.335527465944626 1.5555775165557861 0.5424014925956726 True False
7427.786999999999 2.040053367614746 -1.8206149540343226 -1.5191786289215088 -1.328199402695038 1.5542941093444824 0.5426450967788696 True False
7427.807 2.0399587154388428 -1.8216124973692835 -1.5264314413070679 -1.3203426760486145 1.5526939630508423 0.5428966879844666 True False
7427.826999999999 2.040008306503296 -1.822580476800436 -1.5341204404830933 -1.3123859924129029 1.5511020421981812 0.5431223511695862 True False
7427.847 2.0399954319000244 -1.8236271343626917 -1.5424202680587769 -1.303796575670578 1.549566626548767 0.543411135673523 True False
7427.866999999999 2.040020227432251 -1.8248115978636683 -1.551063060760498 -1.2951364678195496 1.547855019569397 0.5436773300170898 True False
7427.887 2.0399911403656006 -1.8260280094542445 -1.5597822666168213 -1.286015735273697 1.5461435317993164 0.5439556837081909 True False
7427.906999999999 2.039987802505493 -1.8271013698973597 -1.568694829940796 -1.276330218916275 1.5441831350326538 0.5442755222320557 True False
7427.927 2.040015935897827 -1.8283354244627894 -1.5782774686813354 -1.2667209070971985 1.542336106300354 0.5446169376373291 True False
7427.947 2.0399672985076904 -1.8298384151854457 -1.5882198810577393 -1.256499544983246 1.5404083728790283 0.5449429154396057 True False
7427.967 2.0400278568267822 -1.831078668633932 -1.597841501235962 -1.2462310653975983 1.5383522510528564 0.5452659726142883 True False
7427.987 2.039966106414795 -1.8322097263731898 -1.6075794696807861 -1.2360457342914124 1.5364490747451782 0.5455935001373291 True False
7428.007 2.0400490760803223 -1.8336011372008265 -1.617069959640503 -1.226657198076584 1.5345616340637207 0.5459168553352356 True False
7428.027 2.040020227432251 -1.8348561726012171 -1.6258801221847534 -1.2175283294967194 1.5328295230865479 0.5461814999580383 True False
7428.047 2.0399911403656006 -1.8358475170531214 -1.6342809200286865 -1.208318756227829 1.5310744047164917 0.5464819073677063 True False
7428.067 2.039992094039917 -1.8369680843748988 -1.6426422595977783 -1.1998407703689118 1.5294650793075562 0.5467275977134705 True False
7428.0869999999995 2.0400073528289795 -1.838201185266012 -1.650726318359375 -1.1917709869197388 1.527815818786621 0.5470041632652283 True False
7428.107 2.0400609970092773 -1.8390699825682582 -1.6580064296722412 -1.183773712520935 1.5264393091201782 0.5472959876060486 True False
7428.1269999999995 2.040032148361206 -1.8399297199644984 -1.665216088294983 -1.1761677128127594 1.524902105331421 0.5474904179573059 True False
7428.147 2.039975881576538 -1.8409763775267542 -1.6724461317062378 -1.1691520375064393 1.5235730409622192 0.547722339630127 True False
7428.1669999999995 2.0400028228759766 -1.8420444927611292 -1.6791969537734985 -1.162371740942337 1.522275686264038 0.5479873418807983 True False
7428.187 2.0399835109710693 -1.8426948986449183 -1.6851096153259277 -1.155730978851654 1.5209463834762573 0.5481992363929749 True False
7428.206999999999 2.0399835109710693 -1.843365331689352 -1.690735936164856 -1.1496464771083375 1.519848108291626 0.5483402013778687 True False
7428.227 2.0399749279022217 -1.844224592248434 -1.6966103315353394 -1.1440428358367463 1.518762469291687 0.5485330820083618 True False
7428.246999999999 2.0399715900421143 -1.8450223408141078 -1.702134370803833 -1.138647900228836 1.5176125764846802 0.5487126708030701 True False
7428.267 2.0400290489196777 -1.8456555805602015 -1.706878423690796 -1.133284406071045 1.516638994216919 0.5488754510879517 True False
7428.286999999999 2.0399954319000244 -1.8461271725096644 -1.7112092971801758 -1.1285900634578248 1.5157009363174438 0.549047589302063 True False
7428.307 2.0399997234344482 -1.8467761478819789 -1.7154366970062256 -1.1243795615485688 1.514862298965454 0.5491421818733215 True False
7428.326999999999 2.04003643989563 -1.8473197422423304 -1.7193704843521118 -1.1202998918345948 1.5140637159347534 0.5492824912071228 True False
7428.347 2.0399954319000244 -1.8476902447142542 -1.72279953956604 -1.116570608024933 1.5134053230285645 0.549445629119873 True False
7428.366999999999 2.0400190353393555 -1.8480645618834437 -1.7262002229690552 -1.11316533506427 1.5127665996551514 0.5495293140411377 True False
7428.387 2.0399835109710693 -1.8485270939269007 -1.7291162014007568 -1.1103835862926026 1.5122039318084717 0.5496013164520264 True False
7428.406999999999 2.0399997234344482 -1.8489352665343226 -1.7317490577697754 -1.1076725286296387 1.5116609334945679 0.5497341752052307 True False
7428.427 2.0399954319000244 -1.8492065868773402 -1.7338826656341553 -1.1053496462157746 1.5111496448516846 0.549801766872406 True False
7428.447 2.040008306503296 -1.849414964715475 -1.735658884048462 -1.1034613114646454 1.5108428001403809 0.5498120784759521 True False
7428.467 2.040004014968872 -1.8496142826476039 -1.7371894121170044 -1.1018001300147553 1.5105719566345215 0.5498720407485962 True False
7428.487 2.040020227432251 -1.8497420750060023 -1.7384895086288452 -1.1006358724883576 1.510307788848877 0.5499603748321533 True False
7428.507 2.0400619506835938 -1.8498064480223597 -1.7392596006393433 -1.0996730786613007 1.5101360082626343 0.5499976873397827 True False
7428.527 2.0399703979492188 -1.8498851261534632 -1.7397462129592896 -1.0991461139968415 1.5101803541183472 0.550009548664093 True False
7428.547 2.040020227432251 -1.8499065838255824 -1.7399086952209473 -1.0990348023227234 1.5101242065429688 0.5499842166900635 True False
7428.567 2.039987802505493 -1.849957128564352 -1.7398980855941772 -1.0990668100169678 1.5101040601730347 0.5500005483627319 True False
7428.5869999999995 2.040065288543701 -1.8498975239195765 -1.739863395690918 -1.0990748566440125 1.5101324319839478 0.5499752163887024 True False
7428.607 2.040015935897827 -1.849896093408102 -1.739925503730774 -1.0991109770587464 1.5101046562194824 0.5500050187110901 True False
7428.6269999999995 2.0399954319000244 -1.8499499760069789 -1.7399166822433472 -1.0990429681590577 1.51005220413208 0.5499812960624695 True False
7428.647 2.0399699211120605 -1.8499814472594203 -1.739960789680481 -1.0990831416896363 1.5099520683288574 0.5499961376190186 True False
7428.6669999999995 2.040020227432251 -1.8499938450255335 -1.7399901151657104 -1.099070892935135 1.5100083351135254 0.5499842166900635 True False
7428.687 2.0399951934814453 -1.849973817864889 -1.7399945259094238 -1.09909542024646 1.5099841356277466 0.5499138832092285 True False
7428.706999999999 2.0399625301361084 -1.8499766788878382 -1.739943027496338 -1.0991151195815583 1.509972333908081 0.5499961376190186 True False
7428.727 2.0400116443634033 -1.8499981365599574 -1.7399767637252808 -1.0990388852408906 1.5100083351135254 0.5500246286392212 True False
7428.746999999999 2.0399997234344482 -1.8500262699522914 -1.7399970293045044 -1.0990672272494812 1.5100046396255493 0.5500274896621704 True False
7428.767 2.0399670600891113 -1.8500338993468226 -1.7399840354919434 -1.0990589720061799 1.5099722146987915 0.5499915480613708 True False
7428.786999999999 2.039992332458496 -1.8500353298582972 -1.740013837814331 -1.0990713697722931 1.5100247859954834 0.5499950051307678 True False
7428.807 2.0399997234344482 -1.8500310383238734 -1.7399970293045044 -1.0989622932723542 1.5099483728408813 0.550011396408081 True False
7428.826999999999 2.040004253387451 -1.85001864055776 -1.7399970293045044 -1.099074975853302 1.5099927186965942 0.5499871969223022 True False
7428.847 2.0399396419525146 -1.8500052891173304 -1.7400050163269043 -1.0990028840354462 1.5099409818649292 0.5500128269195557 True False
7428.866999999999 2.039992332458496 -1.850013872186178 -1.7399882078170776 -1.0990269941142579 1.5099406242370605 0.5500362515449524 True False
7428.887 2.039980411529541 -1.8500386677184046 -1.740037441253662 -1.0990352195552369 1.5099886655807495 0.5500128269195557 True False
7428.906999999999 2.0400569438934326 -1.849954744378561 -1.7398654222488403 -1.098703221683838 1.5101040601730347 0.5500470995903015 True False
7428.927 2.039914131164551 -1.8499065838255824 -1.739881157875061 -1.0986996752074738 1.5099927186965942 0.5500319004058838 True False
7428.947 2.0399997234344482 -1.8498851261534632 -1.7398539781570435 -1.098703311090805 1.5099364519119263 0.5499979853630066 True False
7428.967 2.039968490600586 -1.84991516689443 -1.7398203611373901 -1.0986991983703156 1.5099964141845703 0.55000239610672 True False
7428.987 2.0399580001831055 -1.8498484096922816 -1.7398697137832642 -1.0987554353526612 1.5099648237228394 0.5500605702400208 True False
7429.007 2.040005683898926 -1.8498722515501917 -1.7398697137832642 -1.098791853790619 1.5099722146987915 0.550055980682373 True False
7429.027 2.0400280952453613 -1.8498808346190394 -1.739804744720459 -1.0988356632045289 1.5099323987960815 0.5500526428222656 True False
7429.047 2.039980411529541 -1.8499299488463343 -1.739832878112793 -1.0988639158061524 1.5099763870239258 0.5501009225845337 True False
7429.067 2.039987802505493 -1.8499018154540003 -1.7398091554641724 -1.0988270801356812 1.5099644660949707 0.5500693321228027 True False
7429.0869999999995 2.0399625301361084 -1.8499185047545375 -1.7398289442062378 -1.098827139740326 1.5099644660949707 0.5500813126564026 True False
7429.107 2.0399832725524902 -1.8499099216856898 -1.7398582696914673 -1.0989312094501038 1.5099883079528809 0.5500229001045227 True False
7429.1269999999995 2.0399625301361084 -1.8498927555479945 -1.7398284673690796 -1.0988665086082001 1.5100246667861938 0.5500348806381226 True False
7429.147 2.040008544921875 -1.8499590359129847 -1.7398653030395508 -1.0989553791335602 1.5099844932556152 0.5499979853630066 True True
7429.1669999999995 2.039943218231201 -1.8498884640135707 -1.7398371696472168 -1.0989512962153931 1.5099722146987915 0.550048291683197 True True
7429.187 2.039611339569092 -1.8499213657774867 -1.7398133277893066 -1.0989787441543122 1.510160207748413 0.5498748421669006 True True
7429.206999999999 2.0389883518218994 -1.8498722515501917 -1.739845633506775 -1.0991420310786744 1.5102040767669678 0.549777626991272 True True
7429.227 2.037992477416992 -1.849887033502096 -1.7398176193237305 -1.0994547766498108 1.5102159976959229 0.5495563745498657 True True
7429.246999999999 2.0364675521850586 -1.8497396908202113 -1.7398110628128052 -1.0996493858150025 1.5102200508117676 0.5492616295814514 True True
7429.267 2.034658908843994 -1.8496667347350062 -1.7396360635757446 -1.1000091296485444 1.5102245807647705 0.5489266514778137 True True
7429.286999999999 2.03251576423645 -1.8495704136290492 -1.7396225929260254 -1.100352482204773 1.5101922750473022 0.5485315322875977 True True
7429.307 2.0299830436706543 -1.8493958912291468 -1.739508867263794 -1.1007793706706543 1.510151982307434 0.5479946732521057 True True
7429.326999999999 2.0271692276000977 -1.8491975269713343 -1.7393746376037598 -1.101259009247162 1.5103002786636353 0.5474813580513 True True
7429.347 2.0240516662597656 -1.84887756923818 -1.7390328645706177 -1.1016338628581543 1.5105117559432983 0.546842634677887 True True
7429.366999999999 2.0205678939819336 -1.8483711681761683 -1.738334059715271 -1.1019812685302277 1.5106632709503174 0.5461483001708984 True True
7429.387 2.016645908355713 -1.8478661976256312 -1.7378005981445312 -1.1025999349406739 1.5108108520507812 0.5454232096672058 True True
7429.406999999999 2.0124282836914062 -1.8476387463011683 -1.7373087406158447 -1.1033910971931 1.5109467506408691 0.5445734858512878 True True
7429.427 2.007828712463379 -1.847196718255514 -1.736791968345642 -1.104029194717743 1.5111541748046875 0.5436473488807678 True True
7429.447 2.002995491027832 -1.846685071984762 -1.7361268997192383 -1.1047248107245942 1.5113098621368408 0.542709469795227 True True
7429.467 1.9977689981460571 -1.8461829624571742 -1.735480785369873 -1.1055108469775696 1.511493444442749 0.5416444540023804 True True
7429.487 1.9921437501907349 -1.8456503353514613 -1.7349910736083984 -1.1064203542521973 1.5116490125656128 0.5404973030090332 True True
7429.507 1.9862604141235352 -1.8451730213561 -1.7344028949737549 -1.1074002546123047 1.5118764638900757 0.5394035577774048 True True
7429.527 1.9798483848571777 -1.844475885430807 -1.733659029006958 -1.1083449882319947 1.5121206045150757 0.5381366014480591 True True
7429.547 1.9731526374816895 -1.8438612423338832 -1.7329940795898438 -1.109399066572525 1.5123357772827148 0.5368858575820923 True True
7429.567 1.9661586284637451 -1.8432299099364222 -1.7323493957519531 -1.1105171901038666 1.5126197338104248 0.5354703664779663 True True
7429.5869999999995 1.9589817523956299 -1.8425899944701136 -1.7316131591796875 -1.1115752023509522 1.512814998626709 0.5340272188186646 True True
7429.607 1.9511656761169434 -1.8419114551939906 -1.7306544780731201 -1.1127616328052063 1.513106346130371 0.5325413942337036 True True
7429.6269999999995 1.9430238008499146 -1.8411323032774867 -1.7297176122665405 -1.1139425200274964 1.5133455991744995 0.5308865904808044 True True
7429.647 1.934615135192871 -1.8403474293150843 -1.7288012504577637 -1.1153485935977479 1.5136693716049194 0.5292467474937439 True True
7429.6669999999995 1.925988793373108 -1.83953919033193 -1.7278741598129272 -1.1167693895152588 1.5139930248260498 0.5276142358779907 True True
7429.687 1.916894555091858 -1.8387729130186976 -1.7269803285598755 -1.1181744200042267 1.5143318176269531 0.5257487297058105 True True
7429.706999999999 1.9073700904846191 -1.8379508457579554 -1.726028323173523 -1.1196365517428895 1.5145795345306396 0.5238678455352783 True True
7429.727 1.8975728750228882 -1.8369056187071742 -1.7250646352767944 -1.1211212438395997 1.5149750709533691 0.5219917893409729 True True
7429.746999999999 1.8875901699066162 -1.836076398889059 -1.7238918542861938 -1.1226863724044343 1.51543390750885 0.519914984703064 True True
7429.767 1.8769768476486206 -1.835147043267721 -1.7227872610092163 -1.1244667631438752 1.5157413482666016 0.5178707838058472 True True
7429.786999999999 1.8660972118377686 -1.834130426446432 -1.721657395362854 -1.1259195667556305 1.516036868095398 0.5157658457756042 True True
7429.807 1.8551025390625 -1.8330403767027796 -1.7203478813171387 -1.1277001959136506 1.5166199207305908 0.5134900212287903 True True
7429.826999999999 1.8433303833007812 -1.8320676289000453 -1.7192013263702393 -1.129593090420105 1.5168907642364502 0.5113373398780823 True True
7429.847 1.831437349319458 -1.8309933147826136 -1.7181977033615112 -1.1315361720374604 1.5172221660614014 0.5089381337165833 True True
7429.866999999999 1.819381833076477 -1.8298732242979945 -1.7168610095977783 -1.133320764904358 1.517841100692749 0.5065322518348694 True True
7429.887 1.8067225217819214 -1.8287269077696742 -1.7153995037078857 -1.1350916189006348 1.5181159973144531 0.5040770173072815 True True
7429.906999999999 1.793766736984253 -1.827461381951803 -1.7139972448349 -1.1372989577106019 1.5185762643814087 0.5015770196914673 True True
7429.927 1.7804495096206665 -1.8263145885863246 -1.7127513885498047 -1.1393735271743317 1.519277572631836 0.49892738461494446 True True
7429.947 1.7668358087539673 -1.8251081905760707 -1.7113745212554932 -1.1414137047580262 1.5195467472076416 0.49625349044799805 True True
7429.967 1.7529029846191406 -1.823744913140768 -1.7098851203918457 -1.1435684722713013 1.5201690196990967 0.49345242977142334 True True
7429.987 1.7385151386260986 -1.8224488697447718 -1.708257794380188 -1.145863876943924 1.520479440689087 0.4906306564807892 True True
7430.007 1.7238224744796753 -1.8211413822569789 -1.7066600322723389 -1.148042307501175 1.5210834741592407 0.4877457916736603 True True
7430.027 1.7089109420776367 -1.8197480640807093 -1.7051417827606201 -1.1504122775844117 1.5216410160064697 0.4847298264503479 True True
7430.047 1.6933947801589966 -1.8183142147459925 -1.7035644054412842 -1.15294702470813 1.5220210552215576 0.48168328404426575 True True
7430.067 1.677717685699463 -1.8168684444823207 -1.7018707990646362 -1.1553178888610383 1.5227752923965454 0.4787144958972931 True True
7430.0869999999995 1.6617285013198853 -1.8154174290099085 -1.6999492645263672 -1.157644585972168 1.5233662128448486 0.475509375333786 True True
7430.107 1.645215630531311 -1.8138438663878382 -1.6982349157333374 -1.1604294937900086 1.5238412618637085 0.47224652767181396 True True
7430.1269999999995 1.6283773183822632 -1.8123752079405726 -1.6966938972473145 -1.1629750293544312 1.5244449377059937 0.4689751863479614 True True
7430.147 1.6114097833633423 -1.8108722172179164 -1.6947565078735352 -1.1657327872565766 1.5251269340515137 0.4656614065170288 True True
7430.1669999999995 1.593902826309204 -1.8091479740538539 -1.692781686782837 -1.16826747477565 1.5256823301315308 0.46217572689056396 True True
7430.187 1.5763126611709595 -1.8074656925597132 -1.6910239458084106 -1.171044186954834 1.5262049436569214 0.4586952328681946 True True
7430.206999999999 1.559044361114502 -1.806047102014059 -1.689328908920288 -1.1738467675498505 1.5270440578460693 0.4552649259567261 True True
7430.227 1.5415444374084473 -1.8045579395689906 -1.6875368356704712 -1.176403210764267 1.5274461507797241 0.4518408179283142 True True
7430.246999999999 1.524008870124817 -1.8027922115721644 -1.6855031251907349 -1.1791056853583832 1.5280851125717163 0.4484286606311798 True True
7430.267 1.5066747665405273 -1.8012100658812464 -1.6837356090545654 -1.1818749171546479 1.5287483930587769 0.44494926929473877 True True
7430.286999999999 1.4891729354858398 -1.7997218571104945 -1.6820405721664429 -1.184605137710907 1.529378056526184 0.44150611758232117 True True
7430.307 1.4717016220092773 -1.7981111011900843 -1.680196762084961 -1.187442348604538 1.5299288034439087 0.43812811374664307 True True
7430.326999999999 1.4542685747146606 -1.7964636288084925 -1.6781253814697266 -1.1897968810847779 1.5305440425872803 0.4347109794616699 True True
7430.347 1.4368315935134888 -1.7948304615416468 -1.6763594150543213 -1.1927539271167298 1.5312552452087402 0.43123432993888855 True True
7430.366999999999 1.4193272590637207 -1.7933837376036585 -1.674733281135559 -1.1956249934485932 1.5317070484161377 0.42774268984794617 True True
7430.387 1.401951789855957 -1.7917443714537562 -1.6727607250213623 -1.1981050235084076 1.5324671268463135 0.4243614673614502 True True
7430.406999999999 1.384484887123108 -1.7900268040099085 -1.6706749200820923 -1.2008948487094422 1.533074975013733 0.4209284782409668 True True
7430.427 1.3669918775558472 -1.7884284458556117 -1.6689866781234741 -1.2035840612700959 1.5336668491363525 0.4174948036670685 True True
7430.447 1.3495006561279297 -1.7869945965208949 -1.6673154830932617 -1.2064884167960663 1.534254789352417 0.4139861762523651 True True
7430.467 1.3321025371551514 -1.7852674923338832 -1.665265440940857 -1.20905555904422 1.5348424911499023 0.41065022349357605 True True
7430.487 1.3146945238113403 -1.783619066277975 -1.6633234024047852 -1.211555854683258 1.5354825258255005 0.4071638882160187 True True
7430.507 1.2971937656402588 -1.7820636234679164 -1.6616685390472412 -1.2145467859557648 1.5361262559890747 0.4037771224975586 True True
7430.527 1.2797341346740723 -1.780551096002096 -1.6599351167678833 -1.2172391575625916 1.5368345975875854 0.4003307819366455 True True
7430.547 1.2622971534729004 -1.7788640461363734 -1.6578799486160278 -1.2197029453567048 1.5373420715332031 0.3968869149684906 True True
7430.567 1.2447941303253174 -1.7771374187865199 -1.6559611558914185 -1.222518877392151 1.5380338430404663 0.3934047520160675 True True
7430.5869999999995 1.2274113893508911 -1.775729318658346 -1.6544095277786255 -1.2253460747054596 1.5385499000549316 0.38999390602111816 True True
7430.607 1.21003258228302 -1.7742215595641078 -1.6524658203125 -1.2280976337245484 1.5392177104949951 0.38654986023902893 True True
7430.6269999999995 1.1924219131469727 -1.7725497684874476 -1.6505447626113892 -1.2306617063334961 1.5398297309875488 0.3830353915691376 True True
7430.647 1.175013542175293 -1.7708364925780238 -1.648684024810791 -1.233385906820633 1.5404573678970337 0.37968650460243225 True True
7430.6669999999995 1.157652735710144 -1.7693678341307582 -1.647079586982727 -1.236280546789505 1.5411376953125 0.37628695368766785 True True
7430.687 1.1401021480560303 -1.7678495846190394 -1.6451573371887207 -1.2387887996486207 1.5415410995483398 0.3728368282318115 True True
7430.706999999999 1.1225494146347046 -1.7660709820189417 -1.6431851387023926 -1.241516874437668 1.5422532558441162 0.3694014847278595 True True
7430.727 1.1052649021148682 -1.7645184002318324 -1.6414673328399658 -1.244316743021347 1.542820692062378 0.3658662736415863 True True
7430.746999999999 1.0877431631088257 -1.7630516491331996 -1.6397284269332886 -1.2469713550857087 1.5435727834701538 0.36249983310699463 True True
7430.767 1.0703641176223755 -1.7614408932127894 -1.6377575397491455 -1.24980782092128 1.5440765619277954 0.3590431213378906 True True
7430.786999999999 1.052799105644226 -1.7597223720946253 -1.635810375213623 -1.252162830238678 1.5447802543640137 0.35559773445129395 True True
7430.807 1.0355825424194336 -1.7581879101195277 -1.634013056755066 -1.2552068692496796 1.5452845096588135 0.35221749544143677 True True
7430.826999999999 1.018775463104248 -1.7567178211607875 -1.632347583770752 -1.2578142148307343 1.5459802150726318 0.34889933466911316 True True
7430.847 1.0022339820861816 -1.7551566563048304 -1.63051176071167 -1.2601974469474335 1.5464999675750732 0.3456907272338867 True True
7430.866999999999 0.9859387278556824 -1.753502985040182 -1.628726601600647 -1.262864039545395 1.5470759868621826 0.3424462676048279 True True
7430.887 0.9700547456741333 -1.75221647838735 -1.627227544784546 -1.265347496872284 1.5476237535476685 0.3393250107765198 True True
7430.906999999999 0.9545876383781433 -1.7508875332274378 -1.625564455986023 -1.2676915389350434 1.5481117963790894 0.3362746834754944 True True
7430.927 0.9394644498825073 -1.7494145832457484 -1.6238553524017334 -1.2699780327132721 1.548691749572754 0.3333234488964081 True True
7430.947 0.9246559739112854 -1.748030801812643 -1.62226402759552 -1.2722909909537812 1.5491435527801514 0.3303765058517456 True True
7430.967 0.9101540446281433 -1.7467152080931605 -1.620906949043274 -1.274554656153061 1.5497071743011475 0.3275284469127655 True True
7430.987 0.8960705995559692 -1.7454997501769007 -1.619554042816162 -1.276933566933014 1.5502592325210571 0.32475364208221436 True True
7431.007 0.8823385834693909 -1.744152685204977 -1.617894172668457 -1.2788711053184052 1.5506831407546997 0.3220736086368561 True True
7431.027 0.8688691258430481 -1.7428490124144496 -1.6163239479064941 -1.2808761161616822 1.5512030124664307 0.3194657266139984 True True
7431.047 0.8559026122093201 -1.7417642078795375 -1.6150959730148315 -1.2830760937980195 1.5515230894088745 0.316832035779953 True True
7431.067 0.8431873917579651 -1.7406808338561 -1.6139512062072754 -1.285073147421219 1.5521589517593384 0.3143464922904968 True True
7431.0869999999995 0.83078533411026 -1.7395392856993617 -1.6125482320785522 -1.2869299811175843 1.5524228811264038 0.3118584454059601 True True
7431.107 0.8187962770462036 -1.738335748712057 -1.6110222339630127 -1.288724498157837 1.5529705286026 0.3095393776893616 True True
7431.1269999999995 0.8071500062942505 -1.7372929058470667 -1.6098777055740356 -1.290633187895157 1.5533983707427979 0.3072170615196228 True True
7431.147 0.79573655128479 -1.7363034687437953 -1.6088422536849976 -1.2924426358989258 1.5537025928497314 0.30496522784233093 True True
7431.1669999999995 0.7848746180534363 -1.7352649174132289 -1.6077086925506592 -1.2940412324718018 1.5542463064193726 0.3027982711791992 True True
7431.187 0.77421635389328 -1.7342835865416468 -1.606449842453003 -1.29570688427005 1.5544860363006592 0.3007141053676605 True True
7431.206999999999 0.7638548612594604 -1.7333947620787562 -1.6053920984268188 -1.29744507492099 1.5548021793365479 0.2987174093723297 True True
7431.227 0.7540581226348877 -1.7325283489623011 -1.604316234588623 -1.2988802951625367 1.5552781820297241 0.29677048325538635 True True
7431.246999999999 0.7444109320640564 -1.7316390476622523 -1.6032540798187256 -1.300278828745224 1.555490255355835 0.2948724627494812 True True
7431.267 0.7351699471473694 -1.7307406864561976 -1.602270483970642 -1.3017655175975342 1.555761694908142 0.2930791974067688 True True
7431.286999999999 0.7265438437461853 -1.7299534283080042 -1.6014297008514404 -1.3032283347896119 1.5563099384307861 0.29135623574256897 True True
7431.307 0.7178249359130859 -1.7291981182494105 -1.6006126403808594 -1.304483250980713 1.5564535856246948 0.28963208198547363 True True
7431.326999999999 0.7094969749450684 -1.7284494839110316 -1.5997756719589233 -1.3057506841472168 1.5566819906234741 0.2880747318267822 True True
7431.347 0.7019461989402771 -1.7277056179442347 -1.5988166332244873 -1.3069271308234711 1.5571699142456055 0.28653863072395325 True True
7431.366999999999 0.6944541931152344 -1.727060457269186 -1.5979928970336914 -1.3080587846091767 1.557386040687561 0.28506526350975037 True True
7431.387 0.687099814414978 -1.7263695202269496 -1.5971882343292236 -1.309326635008194 1.5574655532836914 0.2836243510246277 True True
7431.406999999999 0.680391788482666 -1.7256795368590296 -1.5965561866760254 -1.3103506726077576 1.5578176975250244 0.28229397535324097 True True
7431.427 0.674220621585846 -1.7251764736571253 -1.5958728790283203 -1.3112752598575135 1.5580735206604004 0.28102385997772217 True True
7431.447 0.6679700613021851 -1.7245694599547328 -1.595215082168579 -1.312235788708069 1.5582096576690674 0.2798703908920288 True True
7431.467 0.6621816158294678 -1.7240826092162074 -1.594688057899475 -1.3130807441524048 1.5584217309951782 0.27871590852737427 True True
7431.487 0.6568549871444702 -1.7235924206175746 -1.5941859483718872 -1.3139022451690217 1.5586659908294678 0.27769121527671814 True True
7431.507 0.6517349481582642 -1.7231060467162074 -1.5936540365219116 -1.3146992486766358 1.5587453842163086 0.2766306698322296 True True
7431.527 0.6470712423324585 -1.7226902447142542 -1.593154788017273 -1.315492497091629 1.55894136428833 0.2757619023323059 True True
7431.547 0.6428053975105286 -1.722295423547262 -1.5927329063415527 -1.3162335318377991 1.5591415166854858 0.2749350965023041 True True
7431.567 0.6388344168663025 -1.7219521007933558 -1.5922651290893555 -1.3168111604503174 1.5592249631881714 0.27410823106765747 True True
7431.5869999999995 0.635206937789917 -1.7215563259520472 -1.591739535331726 -1.3173213464072724 1.5594054460525513 0.2733399271965027 True True
7431.607 0.6318152546882629 -1.7212683163084925 -1.591451644897461 -1.3178358537009736 1.5594727993011475 0.2727077007293701 True True
7431.6269999999995 0.6289139986038208 -1.7210670910277308 -1.5911208391189575 -1.3183354598334809 1.5595849752426147 0.2721249461174011 True True
7431.647 0.6263784766197205 -1.7207776508727015 -1.590919852256775 -1.3186503809741517 1.5597336292266846 0.27164995670318604 True True
7431.6669999999995 0.6240962147712708 -1.720562597314352 -1.5907342433929443 -1.3190253537944336 1.5596847534179688 0.27122026681900024 True True
7431.687 0.622247040271759 -1.72045960048818 -1.5904316902160645 -1.3192964357188721 1.5598936080932617 0.2708622217178345 True True
7431.706999999999 0.6207460761070251 -1.7202989063658656 -1.5902702808380127 -1.3195685011199494 1.5598570108413696 0.2705371379852295 True True
7431.727 0.6194652915000916 -1.7202559910216273 -1.5902326107025146 -1.3197397750667115 1.5598965883255005 0.2702975869178772 True True
7431.746999999999 0.6185764670372009 -1.7201506100096644 -1.5901397466659546 -1.3198360365680237 1.5599820613861084 0.27015671133995056 True True
7431.767 0.6181814074516296 -1.7201243839659632 -1.5900869369506836 -1.3198519510081788 1.5600335597991943 0.27014636993408203 True True
7431.786999999999 0.6179810762405396 -1.7201320133604945 -1.5900906324386597 -1.3198078137687226 1.560017466545105 0.27008509635925293 True True
7431.807 0.6181180477142334 -1.7201792202391566 -1.5900959968566895 -1.3198319536498566 1.5599929094314575 0.27002933621406555 True True
7431.826999999999 0.6180931925773621 -1.720593591729635 -1.5901130437850952 -1.3196357947639008 1.5600850582122803 0.26971325278282166 True True
7431.847 0.6180617213249207 -1.721424242059225 -1.5902683734893799 -1.3193366092494507 1.5599888563156128 0.26951420307159424 True True
7431.866999999999 0.6181051135063171 -1.7226773701109828 -1.5905022621154785 -1.318629429941513 1.5600571632385254 0.26922959089279175 True True
7431.887 0.6180617213249207 -1.7242728672423304 -1.5909278392791748 -1.3177230519107361 1.560017466545105 0.2688429653644562 True True
7431.906999999999 0.6181309819221497 -1.726309438745016 -1.5914427042007446 -1.3168741923621674 1.560009241104126 0.2683669626712799 True True
7431.927 0.6181180477142334 -1.728713174859518 -1.5920345783233643 -1.3156348031810303 1.5600413084030151 0.2677333354949951 True True
7431.947 0.6180856227874756 -1.7313772640623988 -1.5927256345748901 -1.314231590633728 1.560021162033081 0.26719531416893005 True True
7431.967 0.6181385517120361 -1.7342945537962855 -1.5934408903121948 -1.3128568691066285 1.560009241104126 0.26641494035720825 True True
7431.987 0.6182149052619934 -1.7376429043211878 -1.5942893028259277 -1.3111381989768525 1.5600534677505493 0.2655462622642517 True True
7432.007 0.6181857585906982 -1.7413708172240199 -1.59514319896698 -1.3092930179885407 1.560037612915039 0.26463258266448975 True True
7432.027 0.6183393597602844 -1.7454692325987757 -1.596239686012268 -1.3071883481791993 1.5600371360778809 0.26363468170166016 True True
7432.047 0.6183833479881287 -1.7500134907164515 -1.597324252128601 -1.3050514918616791 1.5599929094314575 0.2625192403793335 True True
7432.067 0.6183822154998779 -1.754766126672262 -1.5986473560333252 -1.3027599912932892 1.5600453615188599 0.2613699734210968 True True
7432.0869999999995 0.6184621453285217 -1.759900232354635 -1.600022315979004 -1.2999892991832276 1.5600252151489258 0.2601030766963959 True True
7432.107 0.6185713410377502 -1.7652155361571253 -1.601304292678833 -1.297386811380722 1.5599650144577026 0.2587206959724426 True True
7432.1269999999995 0.6185818314552307 -1.7708035908141078 -1.6027823686599731 -1.2946048241904755 1.5599970817565918 0.25727519392967224 True True
7432.147 0.6186374425888062 -1.7770549259581507 -1.6042368412017822 -1.2913328570178528 1.560017466545105 0.25571852922439575 True True
7432.1669999999995 0.6187174320220947 -1.7837001285948695 -1.6059757471084595 -1.2882387203029175 1.5600134134292603 0.2541623115539551 True True
7432.187 0.61887127161026 -1.7906867466368617 -1.607909917831421 -1.284867302780487 1.5600093603134155 0.252382755279541 True True
7432.206999999999 0.6189229488372803 -1.7976933918394984 -1.6095294952392578 -1.281263844375946 1.5600215196609497 0.25067511200904846 True True
7432.227 0.6190590262413025 -1.804779668847555 -1.6112149953842163 -1.2773656708053132 1.559981107711792 0.24877285957336426 True True
7432.246999999999 0.6191101670265198 -1.8118816814818324 -1.613034725189209 -1.2739855510047455 1.5599490404129028 0.2470475137233734 True True
7432.267 0.6192317605018616 -1.8189054928221644 -1.6148360967636108 -1.2706900996020813 1.5599929094314575 0.24535170197486877 True True
7432.286999999999 0.619329035282135 -1.8252388439574183 -1.6164419651031494 -1.2676285964301606 1.5600134134292603 0.24367544054985046 True True
7432.307 0.6193339824676514 -1.8310800991454066 -1.6177284717559814 -1.264328734283783 1.5599613189697266 0.24221497774124146 True True
7432.326999999999 0.6194150447845459 -1.8366357288756312 -1.6189799308776855 -1.2615623337081452 1.5600011348724365 0.24075426161289215 True True
7432.347 0.6194959878921509 -1.8420521221556605 -1.620481252670288 -1.258787826900818 1.5599970817565918 0.23951135575771332 True True
7432.366999999999 0.6195665001869202 -1.8471290073790492 -1.6218980550765991 -1.2566359502128144 1.560009241104126 0.2382066398859024 True True
7432.387 0.6196242570877075 -1.8517738781371058 -1.6229571104049683 -1.2541738611510773 1.5599970817565918 0.23704901337623596 True True
7432.406999999999 0.61966872215271 -1.8559452495970667 -1.6238291263580322 -1.251853571539261 1.5599970817565918 0.236028790473938 True True
7432.427 0.6196858286857605 -1.8598514995970667 -1.6248582601547241 -1.2500687700561066 1.5599892139434814 0.23496384918689728 True True
7432.447 0.6197481751441956 -1.863389631310934 -1.6259443759918213 -1.2483908397010346 1.5600011348724365 0.23411624133586884 True True
7432.467 0.6197949051856995 -1.8666125736632289 -1.6266194581985474 -1.2465976637652894 1.559936761856079 0.23332957923412323 True True
7432.487 0.6198758482933044 -1.8694912395873011 -1.6273021697998047 -1.2450964611819764 1.5599769353866577 0.23264361917972565 True True
7432.507 0.6198837757110596 -1.8720737896361292 -1.6280337572097778 -1.2440304321101685 1.5599651336669922 0.23202353715896606 True True
7432.527 0.6198956966400146 -1.87426819423818 -1.6286486387252808 -1.2429720622352143 1.5599651336669922 0.23145145177841187 True True
7432.547 0.6199761629104614 -1.876084943810934 -1.628995418548584 -1.2419177752784272 1.5600051879882812 0.23104682564735413 True True
7432.567 0.6199462413787842 -1.8775445423521937 -1.6293762922286987 -1.2412195366672059 1.560009241104126 0.23060202598571777 True True
7432.5869999999995 0.6199915409088135 -1.8787275753416957 -1.629679560661316 -1.2407325071147461 1.560009241104126 0.2303171455860138 True True
7432.607 0.6199626326560974 -1.879484315911764 -1.6298670768737793 -1.2402444046786805 1.5600051879882812 0.23015856742858887 True True
7432.6269999999995 0.6200006008148193 -1.8798915348448695 -1.6298950910568237 -1.2400337618640442 1.5600051879882812 0.23011064529418945 True True
7432.647 0.619941771030426 -1.8799244366087855 -1.6299028396606445 -1.2400699120811005 1.56002938747406 0.23012256622314453 True True
7432.6669999999995 0.6199842691421509 -1.8798805675902308 -1.6298339366912842 -1.2399976712516327 1.5599929094314575 0.23007752001285553 True True
7432.687 0.620049774646759 -1.879984041253561 -1.6298543214797974 -1.2401019793799897 1.560009241104126 0.23010294139385223 True True
7432.706999999999 0.6199796199798584 -1.8799377880492152 -1.629922866821289 -1.2399976712516327 1.5599888563156128 0.23014049232006073 True True
7432.727 0.6199796199798584 -1.879923006097311 -1.6299189329147339 -1.2400292617133637 1.5600252151489258 0.23009105026721954 True True
7432.746999999999 0.6200065016746521 -1.879995962182516 -1.6299389600753784 -1.2399894756129761 1.5599892139434814 0.23005501925945282 True True
7432.767 0.6200198531150818 -1.880007883111471 -1.6299551725387573 -1.2399894756129761 1.5600453615188599 0.22997286915779114 True True
7432.786999999999 0.6199662685394287 -1.879979749719137 -1.629942536354065 -1.2400296789458771 1.5599970817565918 0.22999516129493713 True True
7432.807 0.6199581027030945 -1.8799706898131312 -1.6299102306365967 -1.2399895948222657 1.5599970817565918 0.22998331487178802 True False
7432.826999999999 0.6200436949729919 -1.879921098748678 -1.6299705505371094 -1.2400055986693879 1.5599327087402344 0.22999073565006256 True False
7432.847 0.6199870705604553 -1.8799287281432093 -1.6299866437911987 -1.240017758016922 1.559981107711792 0.22999072074890137 True False
7432.866999999999 0.6200652718544006 -1.8800155125060023 -1.6300147771835327 -1.2400459808162232 1.5599970817565918 0.2299666404724121 True False
7432.887 0.6200273036956787 -1.8800155125060023 -1.6300019025802612 -1.240005539064743 1.5600134134292603 0.22996211051940918 True False
7432.906999999999 0.6200287342071533 -1.879972597161764 -1.6299902200698853 -1.239977316265442 1.5599650144577026 0.23002378642559052 True False
7432.927 0.6200778484344482 -1.8799778423705042 -1.630063772201538 -1.2400538486293335 1.5599651336669922 0.2299787998199463 True False
7432.947 0.6199491620063782 -1.8800097904601039 -1.6300104856491089 -1.2399695080569764 1.5599448680877686 0.2299620658159256 True False
7432.967 0.6199989914894104 -1.8800021610655726 -1.629957914352417 -1.2400017541697999 1.5599608421325684 0.22999365627765656 True False
7432.987 0.6199826002120972 -1.8799621067442835 -1.6299697160720825 -1.2400860649398346 1.560017466545105 0.2300328016281128 True False
7433.007 0.6199870705604553 -1.8800021610655726 -1.6300231218338013 -1.2399494510940094 1.559989333152771 0.22997558116912842 True False
7433.027 0.6199572086334229 -1.8800112209715785 -1.6300028562545776 -1.239969478254654 1.5599970817565918 0.2299862802028656 True False
7433.047 0.6200607419013977 -1.8799778423705042 -1.6300435066223145 -1.2399936479381104 1.559981107711792 0.2299743890762329 True False
7433.067 0.6200153827667236 -1.8799945316710414 -1.6300231218338013 -1.2400136452964325 1.5600134134292603 0.2299787998199463 True False
7433.0869999999995 0.6199989914894104 -1.8799902401366175 -1.6300595998764038 -1.2400096219829102 1.5599851608276367 0.22996214032173157 True False
7433.107 0.6200034618377686 -1.8799601993956507 -1.6300020217895508 -1.2400096219829102 1.5599769353866577 0.22995471954345703 True False
7433.1269999999995 0.6200406551361084 -1.8800393543639125 -1.6299943923950195 -1.239961401825287 1.5599970817565918 0.2299906611442566 True False
7433.147 0.6200243234634399 -1.8800140819945277 -1.6300272941589355 -1.2400377553752442 1.5600011348724365 0.2299279272556305 True False
7433.1669999999995 0.6200153827667236 -1.8800050220885218 -1.6300019025802612 -1.2400336426547547 1.5599732398986816 0.23006543517112732 True False
7433.187 0.6200078725814819 -1.8799811802306117 -1.629957914352417 -1.2400058668902894 1.559981107711792 0.2300070822238922 True False
7433.206999999999 0.6200287938117981 -1.8799902401366175 -1.6299782991409302 -1.2399936777404328 1.559981107711792 0.2299877554178238 True False
7433.227 0.6199781894683838 -1.8800317249693812 -1.629981517791748 -1.2399734419635315 1.5599732398986816 0.22999516129493713 True False
7433.246999999999 0.6200006604194641 -1.8799530468382777 -1.6300106048583984 -1.2399854821017762 1.5600134134292603 0.23002375662326813 True False
7433.267 0.6200034618377686 -1.8797575436034144 -1.6299374103546143 -1.2401893895915528 1.5600576400756836 0.2300386279821396 True False
7433.286999999999 0.6199580430984497 -1.8792220554747523 -1.6299399137496948 -1.2404765647700806 1.5600252151489258 0.23021547496318817 True False
7433.307 0.6200079321861267 -1.878270765344137 -1.6296669244766235 -1.2409368020347138 1.560025691986084 0.23047469556331635 True False
7433.326999999999 0.6199796199798584 -1.8770743809142054 -1.6293835639953613 -1.2414992612651368 1.5599408149719238 0.23076963424682617 True False
7433.347 0.6199960112571716 -1.87528719524526 -1.629011631011963 -1.2423947018435975 1.5599929094314575 0.2311815321445465 True False
7433.366999999999 0.619918167591095 -1.8732243976988734 -1.6284433603286743 -1.2434090834907074 1.560009241104126 0.23173421621322632 True False
7433.387 0.6199612617492676 -1.8707663021483363 -1.6278326511383057 -1.24453957498584 1.5600011348724365 0.23227627575397491 True False
7433.406999999999 0.619843065738678 -1.8681184254088343 -1.6271520853042603 -1.2459009450725098 1.5600134134292603 0.2329552173614502 True False
7433.427 0.6197857856750488 -1.8651062450804652 -1.6263952255249023 -1.2475871604732056 1.5600252151489258 0.23378445208072662 True False
7433.447 0.6197993755340576 -1.8616968593993128 -1.6254345178604126 -1.249266968374588 1.560009241104126 0.2346058040857315 True False
7433.467 0.6197065114974976 -1.8579627476134242 -1.6244593858718872 -1.2510056060603638 1.5600134134292603 0.23555675148963928 True False
7433.487 0.6196864247322083 -1.85377897838735 -1.6234246492385864 -1.2530051630786438 1.5600011348724365 0.23659648001194 True False
7433.507 0.619636058807373 -1.8492962322630824 -1.6223297119140625 -1.2554627519897004 1.56002938747406 0.23767335712909698 True False
7433.527 0.6195665001869202 -1.8444601498045863 -1.6212149858474731 -1.2577869159034272 1.5599572658538818 0.23888050019741058 True False
7433.547 0.6195352077484131 -1.8392869434752406 -1.6199414730072021 -1.260274128322937 1.560009241104126 0.24017906188964844 True False
7433.567 0.6194557547569275 -1.8337966404356898 -1.6184346675872803 -1.2631632846644898 1.5599929094314575 0.24154971539974213 True False
7433.5869999999995 0.619343101978302 -1.8279639683165492 -1.616923451423645 -1.266038404112198 1.5600335597991943 0.2430044412612915 True False
7433.607 0.6193068027496338 -1.8217460117735804 -1.615535020828247 -1.2692088645747681 1.5600051879882812 0.2445172220468521 True False
7433.6269999999995 0.6192243695259094 -1.8151384792723597 -1.613924264907837 -1.2723771196654816 1.5599929094314575 0.24618259072303772 True False
7433.647 0.6191310286521912 -1.8082949123778285 -1.6121346950531006 -1.2758671206286927 1.5599851608276367 0.24789755046367645 True False
7433.6669999999995 0.6190515756607056 -1.8011476002135218 -1.6102325916290283 -1.2794178289226075 1.5599929094314575 0.24976401031017303 True False
7433.687 0.6188775897026062 -1.793800493279928 -1.6083271503448486 -1.2830709677985688 1.5600011348724365 0.2515185475349426 True False
7433.706999999999 0.6188822984695435 -1.7867104015746058 -1.6067249774932861 -1.2866205734065552 1.5600011348724365 0.253272145986557 True False
7433.727 0.6187620759010315 -1.7800494633116664 -1.6049789190292358 -1.2900197964957734 1.5600252151489258 0.25497549772262573 True False
7433.746999999999 0.6187188625335693 -1.7737046680846156 -1.6032559871673584 -1.2930889886668702 1.5599769353866577 0.25658008456230164 True False
7433.767 0.6186299920082092 -1.7678505382933558 -1.601771354675293 -1.29608707249675 1.560017466545105 0.25800949335098267 True False
7433.786999999999 0.6185579895973206 -1.76237215618276 -1.600661039352417 -1.298946575527527 1.5600011348724365 0.25938650965690613 True False
7433.807 0.618478536605835 -1.7570473156371058 -1.5993289947509766 -1.301471309070923 1.5600134134292603 0.26079413294792175 True False
7433.826999999999 0.6184135675430298 -1.751986642877096 -1.5979660749435425 -1.3040381532958527 1.5600051879882812 0.2619748115539551 True False
7433.847 0.6183511018753052 -1.7474171123900355 -1.596692681312561 -1.306193785076477 1.5600134134292603 0.2631135880947113 True False
7433.866999999999 0.6183102130889893 -1.7433048687376917 -1.5958517789840698 -1.308346377020218 1.5599846839904785 0.26412004232406616 True False
7433.887 0.6182700395584106 -1.7394663296141566 -1.5948508977890015 -1.310371146803238 1.5599892139434814 0.2650851309299469 True False
7433.906999999999 0.6182308793067932 -1.736009260217184 -1.5940074920654297 -1.312024937277176 1.5600011348724365 0.2660370469093323 True False
7433.927 0.6181573867797852 -1.732865949670309 -1.593273639678955 -1.3135715585998078 1.5600252151489258 0.266780287027359 True False
7433.947 0.6181403398513794 -1.729931493798727 -1.592617154121399 -1.3149026793292542 1.559981107711792 0.2675769031047821 True False
7433.967 0.6180928349494934 -1.727485796014303 -1.5919255018234253 -1.3162693542293091 1.5599769353866577 0.2681508958339691 True False
7433.987 0.6181105375289917 -1.7254039249815882 -1.5913125276565552 -1.317381666307785 1.56002938747406 0.2686692476272583 True False
7434.007 0.6181076765060425 -1.723616739312643 -1.5909018516540527 -1.3182234925082703 1.5599970817565918 0.2691093385219574 True False
7434.027 0.6180548667907715 -1.722199102441305 -1.5905684232711792 -1.3188420695117493 1.5600134134292603 0.2694554924964905 True False
7434.047 0.6179969906806946 -1.7211886845030726 -1.5903044939041138 -1.3194210690310975 1.5599651336669922 0.2697281539440155 True False
7434.067 0.6180309653282166 -1.7204896412291468 -1.5900825262069702 -1.3197923761657258 1.560057520866394 0.2698915898799896 True False
7434.0869999999995 0.6179807186126709 -1.7201649151244105 -1.5901293754577637 -1.3198916775039216 1.559969186782837 0.26993632316589355 True False
7434.107 0.6180102825164795 -1.7200495205321253 -1.5901130437850952 -1.3198875945857544 1.5599933862686157 0.2699408233165741 False False
7434.1269999999995 0.6180134415626526 -1.7201820812621058 -1.590142846107483 -1.3199717563441773 1.5600053071975708 0.269890159368515 False False
7434.147 0.6180119514465332 -1.7200738392271937 -1.5900603532791138 -1.3199274402907868 1.5600134134292603 0.26988130807876587 False False
7434.1669999999995 0.6180146932601929 -1.7201038799681605 -1.5900558233261108 -1.3199158769897004 1.5600618124008179 0.2699381113052368 False False
7434.187 0.6179983615875244 -1.7201291523375453 -1.5900393724441528 -1.3199798625758667 1.5600134134292603 0.26993364095687866 False False
7434.206999999999 0.6180636286735535 -1.720098157922262 -1.590073585510254 -1.3199237150004883 1.5600134134292603 0.2699544429779053 False False
7434.227 0.618026614189148 -1.720107217828268 -1.590069055557251 -1.319971726541855 1.5599970817565918 0.2700112462043762 False False
7434.246999999999 0.6180309653282166 -1.720001836816305 -1.5900335311889648 -1.3199594479850312 1.5599846839904785 0.2700200378894806 False False
7434.267 0.6180029511451721 -1.719961782495016 -1.5899955034255981 -1.319951669578888 1.5600216388702393 0.26996085047721863 False False
7434.286999999999 0.6180029511451721 -1.719961782495016 -1.5900543928146362 -1.3199958962253113 1.5600011348724365 0.2700190246105194 False False
7434.307 0.6180265545845032 -1.7200333080687464 -1.5900036096572876 -1.3199590903571625 1.5600011348724365 0.26999348402023315 False False
7434.326999999999 0.6180798411369324 -1.7199751339354457 -1.590004563331604 -1.3199918133071442 1.5599769353866577 0.26998603343963623 False False
7434.347 0.6179482340812683 -1.7200380764403285 -1.5900170803070068 -1.320019320850708 1.559981107711792 0.2700190246105194 False False
7434.366999999999 0.6180146336555481 -1.7200080356993617 -1.5900200605392456 -1.3199631136706849 1.559972882270813 0.27000677585601807 False False
7434.387 0.6180265545845032 -1.7200123272337855 -1.5899791717529297 -1.32001148283992 1.5599769353866577 0.27001452445983887 False False
7434.406999999999 0.618019163608551 -1.7200695476927699 -1.5899465084075928 -1.3199749451926728 1.5600252151489258 0.2699815630912781 False False
7434.427 0.6180281043052673 -1.7200457058348597 -1.5900335311889648 -1.3200192910483857 1.5599851608276367 0.2699534296989441 False False
7434.447 0.6180102825164795 -1.7199913463988246 -1.590012550354004 -1.3200315100005646 1.5599769353866577 0.27000677585601807 False False
7434.467 0.6179683804512024 -1.7199961147704066 -1.5900171995162964 -1.3200032872012635 1.559981107711792 0.27000677585601807 False False
7434.487 0.6179940104484558 -1.7200123272337855 -1.5900498628616333 -1.3199549478343506 1.5600535869598389 0.2699771523475647 False False
7434.507 0.6179644465446472 -1.7199632130064906 -1.5900081396102905 -1.320019320850708 1.5599929094314575 0.27002203464508057 True False
7434.527 0.6179983615875244 -1.7200123272337855 -1.5899746417999268 -1.320091889505722 1.5599970817565918 0.27001452445983887 True False
7434.547 0.6180222034454346 -1.7200619182982386 -1.590009093284607 -1.319999174480774 1.5599608421325684 0.2700101435184479 True False
7434.567 0.6180616617202759 -1.7199799023070277 -1.5899791717529297 -1.3200397056392212 1.560017466545105 0.27001553773880005 True False
7434.5869999999995 0.6181492805480957 -1.7199889622130335 -1.5899991989135742 -1.3200273972800751 1.560017466545105 0.26999348402023315 True False
7434.607 0.6183822154998779 -1.7199269733824671 -1.590024471282959 -1.319967196588852 1.5599888563156128 0.27001896500587463 True False
7434.6269999999995 0.6186737418174744 -1.7199107609190882 -1.5899955034255981 -1.3200032872012635 1.5599769353866577 0.27006828784942627 True False
7434.647 0.6190317869186401 -1.7198406658568324 -1.5900483131408691 -1.3200712961009522 1.5599727630615234 0.2700950801372528 True False
7434.6669999999995 0.6195321679115295 -1.7197643719115199 -1.5901039838790894 -1.3200713259032746 1.5599970817565918 0.27011340856552124 True False
7434.687 0.6202775835990906 -1.7196489773192347 -1.5902444124221802 -1.3201797765544434 1.56002938747406 0.2702259123325348 True False
7434.706999999999 0.6211870312690735 -1.7194181881346644 -1.5904048681259155 -1.3201752764037629 1.5600252151489258 0.2702944874763489 True False
7434.727 0.6222710609436035 -1.719304700891012 -1.5905593633651733 -1.320235089664795 1.5599732398986816 0.27033236622810364 True False
7434.746999999999 0.623765766620636 -1.7190162144102992 -1.5908366441726685 -1.320347176199295 1.5600171089172363 0.2705191671848297 True False
7434.767 0.6254698634147644 -1.7188283405699671 -1.5910102128982544 -1.320399062042572 1.5600850582122803 0.27063775062561035 True False
7434.786999999999 0.6276421546936035 -1.7185923061766566 -1.5913230180740356 -1.3204985421947022 1.5600810050964355 0.27080538868904114 True False
7434.807 0.6300672888755798 -1.7181984386839808 -1.591691493988037 -1.3205895882895966 1.5601210594177246 0.27096882462501526 True False
7434.826999999999 0.6329988241195679 -1.7178245983519496 -1.592106819152832 -1.3207820814898987 1.5601009130477905 0.27123361825942993 True False
7434.847 0.6363296508789062 -1.7173487148680628 -1.5925740003585815 -1.3209616255811234 1.5601611137390137 0.27147188782691956 True False
7434.866999999999 0.640047550201416 -1.716790338555807 -1.5931371450424194 -1.3211054515889664 1.5601927042007446 0.2718164324760437 True False
7434.887 0.644149661064148 -1.7162062130370082 -1.593701958656311 -1.3213570278934021 1.5602329969406128 0.27216944098472595 True False
7434.906999999999 0.6486024260520935 -1.7155658207335414 -1.5943927764892578 -1.3215363186648865 1.5602929592132568 0.2724873125553131 True False
7434.927 0.6534044742584229 -1.7148171863951625 -1.5950114727020264 -1.3217317920974274 1.5603210926055908 0.2728828489780426 True False
7434.947 0.6585109829902649 -1.714083810845846 -1.5957576036453247 -1.3220112335732956 1.5603278875350952 0.2733636796474457 True False
7434.967 0.664104163646698 -1.7133013210692347 -1.5966581106185913 -1.3223386269858857 1.5603808164596558 0.2737620174884796 True False
7434.987 0.669906735420227 -1.7124582729735316 -1.5975658893585205 -1.3226421636394043 1.5604569911956787 0.2742652893066406 True False
7435.007 0.675975501537323 -1.711560388604635 -1.5984586477279663 -1.3229454469731827 1.5604969263076782 0.27473247051239014 True False
7435.027 0.6825924515724182 -1.710546155969137 -1.5994311571121216 -1.3233011227897187 1.5605533123016357 0.2752763628959656 True False
7435.047 0.6896030902862549 -1.709604402581686 -1.6004971265792847 -1.3236161184361954 1.5606852769851685 0.27583926916122437 True False
7435.067 0.6968527436256409 -1.7085868320860804 -1.6015287637710571 -1.3239275229028244 1.5606930255889893 0.2764100432395935 True False
7435.0869999999995 0.7043662071228027 -1.7074910602965296 -1.6025664806365967 -1.3243347269347687 1.5607854127883911 0.27701258659362793 True False
7435.107 0.712263822555542 -1.7062636814513148 -1.6037849187850952 -1.3246776026538392 1.5608454942703247 0.2777611315250397 True False
7435.1269999999995 0.7206049561500549 -1.7051564655699671 -1.6049562692642212 -1.3251131635955353 1.5609654188156128 0.2784082293510437 True False
7435.147 0.7293036580085754 -1.703869482079977 -1.606278419494629 -1.3255603176406403 1.5610454082489014 0.27910321950912476 True False
7435.1669999999995 0.7381783127784729 -1.7025848827757777 -1.6075315475463867 -1.3260273051312943 1.5610933303833008 0.279841810464859 True False
7435.187 0.7474719285964966 -1.7011414966978968 -1.6089683771133423 -1.3265063625625153 1.5611411333084106 0.2805771827697754 True False
7435.206999999999 0.7573685646057129 -1.6998192272581996 -1.6102488040924072 -1.3269172322801133 1.5612894296646118 0.2813638746738434 True False
7435.227 0.7673226594924927 -1.6983138523497523 -1.6117457151412964 -1.3274005514434357 1.561356544494629 0.2821829319000244 True False
7435.246999999999 0.7775867581367493 -1.6968733272948207 -1.6132782697677612 -1.3279838275960465 1.5613683462142944 0.2830788195133209 True False
7435.267 0.7883774042129517 -1.6952468357481898 -1.6148438453674316 -1.3284864586642762 1.5615047216415405 0.28391608595848083 True False
7435.286999999999 0.7995848655700684 -1.6936561069884242 -1.616469383239746 -1.3290734899095078 1.5617127418518066 0.28490138053894043 True False
7435.307 0.8108564615249634 -1.6919275722899378 -1.6179556846618652 -1.329728217130043 1.5617008209228516 0.28581032156944275 True False
7435.326999999999 0.8227356672286987 -1.6902085743346156 -1.6197023391723633 -1.3303145480206986 1.561800479888916 0.28675487637519836 True False
7435.347 0.8348469734191895 -1.6885534725584925 -1.6215541362762451 -1.3308258664659043 1.562052845954895 0.28769776225090027 True False
7435.366999999999 0.8471429347991943 -1.6867057285704554 -1.623379111289978 -1.3315683466247101 1.5620203018188477 0.2887840270996094 True False
7435.387 0.8601170182228088 -1.6847278080382289 -1.6250855922698975 -1.3320517551949997 1.5622532367706299 0.28975868225097656 True False
7435.406999999999 0.8732846975326538 -1.6828471622862757 -1.6269867420196533 -1.332629756336548 1.562308669090271 0.2908346354961395 True False
7435.427 0.8867573142051697 -1.6808582744994105 -1.6291804313659668 -1.3334996265224 1.5623289346694946 0.29197025299072266 True False
7435.447 0.9006884694099426 -1.6789442501463832 -1.6311553716659546 -1.3340507012656708 1.5625725984573364 0.29312238097190857 True False
7435.467 0.9149007797241211 -1.676842828790182 -1.6331013441085815 -1.334826023583748 1.5626121759414673 0.2942729592323303 True False
7435.487 0.9294953346252441 -1.6747881374754847 -1.6352993249893188 -1.3355367940715333 1.562896728515625 0.2954533100128174 True False
7435.507 0.9443554878234863 -1.6726657352843226 -1.637534499168396 -1.3364066791585465 1.5628838539123535 0.29666367173194885 True False
7435.527 0.9596887826919556 -1.670424600640768 -1.639643669128418 -1.3371572208455582 1.5631287097930908 0.2978866994380951 True False
7435.547 0.9753111600875854 -1.6680108509459437 -1.6419614553451538 -1.3378955137780686 1.5632483959197998 0.29921168088912964 True False
7435.567 0.9912490248680115 -1.6657692394652308 -1.6442924737930298 -1.3386658442071457 1.5633759498596191 0.3005177080631256 True False
7435.5869999999995 1.007619023323059 -1.663476129571432 -1.6466155052185059 -1.3393958073905488 1.5635524988174438 0.3017958998680115 True False
7435.607 1.0242668390274048 -1.6609264812865199 -1.6489614248275757 -1.3402542781880875 1.5637775659561157 0.30322542786598206 True False
7435.6269999999995 1.0412657260894775 -1.6584555111327113 -1.6514424085617065 -1.3411088299802323 1.5638079643249512 0.3046073317527771 True False
7435.647 1.0585415363311768 -1.655959268609518 -1.6539589166641235 -1.341951386337616 1.5640324354171753 0.3059898316860199 True False
7435.6669999999995 1.076117753982544 -1.6533791027464808 -1.6565057039260864 -1.3428374391845246 1.5641764402389526 0.30745288729667664 True False
7435.687 1.0934162139892578 -1.6508642635741175 -1.6590793132781982 -1.3438193810037156 1.5642880201339722 0.30887407064437866 True False
7435.706999999999 1.1109646558761597 -1.6483422718443812 -1.6615839004516602 -1.3446492117694397 1.5644683837890625 0.31029045581817627 True False
7435.727 1.1283950805664062 -1.645827432672018 -1.664210319519043 -1.3454920214465638 1.5646358728408813 0.31169557571411133 True False
7435.746999999999 1.1458934545516968 -1.6434017620482386 -1.6667919158935547 -1.3463421624949952 1.5647602081298828 0.31315529346466064 True False
7435.767 1.1633070707321167 -1.6407762966551722 -1.6693506240844727 -1.3472521168044587 1.5648958683013916 0.3145766258239746 True False
7435.786999999999 1.1807235479354858 -1.6382442913451136 -1.671882152557373 -1.348054678445198 1.5651440620422363 0.31598711013793945 True False
7435.807 1.1982204914093018 -1.6356874905028285 -1.6744556427001953 -1.348980726008751 1.565240502357483 0.3173936903476715 True False
7435.826999999999 1.2157233953475952 -1.6331483326353968 -1.6769890785217285 -1.349819005732872 1.5654481649398804 0.3188600540161133 True False
7435.847 1.2330862283706665 -1.630664964715475 -1.6794624328613281 -1.3507965368083497 1.5654996633529663 0.32031211256980896 True False
7435.866999999999 1.2506113052368164 -1.6280328236021937 -1.6818125247955322 -1.3516434890082856 1.5657962560653687 0.3216891288757324 True False
7435.887 1.2680184841156006 -1.6255952320494593 -1.6844122409820557 -1.3525096339038392 1.5658801794052124 0.32311195135116577 True False
7435.906999999999 1.285449504852295 -1.6229802570738734 -1.6869871616363525 -1.3534078311971207 1.5660643577575684 0.3245791494846344 True False
7435.927 1.3029314279556274 -1.6204844913878382 -1.6894086599349976 -1.3542424154332657 1.5662161111831665 0.32591134309768677 True False
7435.947 1.3203870058059692 -1.6179176769652308 -1.6920465230941772 -1.3550400000861664 1.5663715600967407 0.32747459411621094 True False
7435.967 1.337780237197876 -1.6153704128661097 -1.6945310831069946 -1.3558982026628037 1.5665357112884521 0.3288426995277405 True False
7435.987 1.3553457260131836 -1.612816949883932 -1.697187066078186 -1.3568443816951294 1.566704273223877 0.3302532136440277 True False
7436.007 1.3727949857711792 -1.6103469334044398 -1.6997684240341187 -1.357762561445572 1.5668998956680298 0.33167189359664917 True False
7436.027 1.3901885747909546 -1.607812067071432 -1.7023593187332153 -1.3586606842330475 1.5669115781784058 0.3331315815448761 True False
7436.047 1.4077081680297852 -1.6052009067931117 -1.704866886138916 -1.359391228561737 1.5672194957733154 0.3345749080181122 True False
7436.067 1.4251227378845215 -1.602708478967184 -1.7073445320129395 -1.3602774304202576 1.567356824874878 0.33597657084465027 True False
7436.0869999999995 1.4425601959228516 -1.6002112827696742 -1.7098259925842285 -1.3612275582602997 1.5674874782562256 0.3373697102069855 True False
