Andreas691667/Digital_Twin_UR/src/controller_monitor/test_results/robot_output.csv
timestamp actual_q_0 actual_q_1 actual_q_2 actual_q_3 actual_q_4 actual_q_5 output_bit_register_65 output_bit_register_66
459.97299999999996 2.981024742126465 -1.127447472219803 1.337642017995016 -1.7809139690794886 -1.5708335081683558 1.5621567964553833 False False
459.993 2.9810738563537598 -1.1274312001517792 1.3376300970660608 -1.7809258900084437 -1.570784870778219 1.5621196031570435 False False
460.013 2.9810380935668945 -1.1274343591979523 1.3376629988299769 -1.7809301815428675 -1.570784870778219 1.5620627403259277 False False
460.03299999999996 2.981024742126465 -1.1275366705707093 1.3375838438617151 -1.7809425793089808 -1.570829216633932 1.5621073246002197 False False
460.053 2.9810545444488525 -1.1274355512908478 1.3376629988299769 -1.7809063396849574 -1.570784870778219 1.5621027946472168 False False
460.073 2.9810664653778076 -1.1274224382689972 1.3376448790179651 -1.7809425793089808 -1.5708087126361292 1.5621494054794312 False False
460.09299999999996 2.981036424636841 -1.127434418802597 1.3376253286944788 -1.7809621296324671 -1.5707886854754847 1.5621118545532227 False False
460.113 2.9810664653778076 -1.12743432939563 1.337588135396139 -1.7809425793089808 -1.5707967917071741 1.5621073246002197 False False
460.133 2.9810290336608887 -1.127492533331253 1.3376463095294397 -1.7809788189330042 -1.570772949849264 1.5621118545532227 False False
460.15299999999996 2.9810664653778076 -1.1274386805346985 1.3376253286944788 -1.7809468708434046 -1.5708406607257288 1.5621567964553833 False False
460.173 2.9810664653778076 -1.1274431508830567 1.337604824696676 -1.7809459171690882 -1.5707967917071741 1.562065601348877 False False
460.193 2.9811203479766846 -1.1275173884681244 1.3376167456256312 -1.7809139690794886 -1.5707767645465296 1.5620955228805542 False False
460.21299999999997 2.981024742126465 -1.127430037861206 1.3375838438617151 -1.7809907398619593 -1.5708087126361292 1.5620999336242676 False False
460.233 2.9810500144958496 -1.1274475020221253 1.3376091162311 -1.780922075311178 -1.5708335081683558 1.5620700120925903 False False
460.253 2.9810664653778076 -1.1274686616710206 1.337621037160055 -1.7809058628477992 -1.570829216633932 1.5621404647827148 False False
460.27299999999997 2.9810409545898438 -1.1274517935565491 1.337604824696676 -1.780926366845602 -1.5707925001727503 1.5621118545532227 False False
460.293 2.9810664653778076 -1.1274343591979523 1.337649170552389 -1.7809344730772914 -1.5708087126361292 1.5620657205581665 False False
460.313 2.9810619354248047 -1.1274512273124238 1.3376506010638636 -1.7809540234007777 -1.570801083241598 1.562137484550476 False False
460.33299999999997 2.9810409545898438 -1.1274956327727814 1.3376224676715296 -1.7808901272215785 -1.5707805792437952 1.5621449947357178 False False
460.35299999999995 2.9810619354248047 -1.1274717611125489 1.33763295808901 -1.7809015713133753 -1.570801083241598 1.5620790719985962 False False
460.373 2.981065034866333 -1.1274762910655518 1.3375971953021448 -1.780966421166891 -1.5707767645465296 1.5620908737182617 False False
460.393 2.980987548828125 -1.1273975533298035 1.3376091162311 -1.780910154382223 -1.5708087126361292 1.5621027946472168 False False
460.41299999999995 2.9810783863067627 -1.1274600487998505 1.3376582304583948 -1.780954977075094 -1.5708254019366663 1.562116265296936 False False
460.433 2.981090545654297 -1.1274224382689972 1.3376300970660608 -1.780910154382223 -1.570768181477682 1.5620909929275513 False False
460.453 2.9810783863067627 -1.1274631780437012 1.3376091162311 -1.7809468708434046 -1.5707724730121058 1.5621118545532227 False False
460.47299999999996 2.981048583984375 -1.1274386805346985 1.337653938923971 -1.780898233453268 -1.5707805792437952 1.5620864629745483 False False
460.493 2.981069564819336 -1.1274431508830567 1.3376167456256312 -1.7809258900084437 -1.5707772413836878 1.5621196031570435 False False
460.513 2.9810664653778076 -1.1274631780437012 1.337604824696676 -1.7809583149352015 -1.5707967917071741 1.5620745420455933 False False
460.53299999999996 2.9810829162597656 -1.1274762016585846 1.3376253286944788 -1.780983110467428 -1.5707925001727503 1.5621163845062256 False False
460.553 2.9810664653778076 -1.1274181765368958 1.3376372496234339 -1.780983110467428 -1.5708044211017054 1.5620790719985962 False False
460.573 2.9810292720794678 -1.1274386805346985 1.3376253286944788 -1.780922075311178 -1.5707481543170374 1.5620999336242676 False False
460.59299999999996 2.9810664653778076 -1.1274512273124238 1.3376167456256312 -1.780922075311178 -1.5707686583148401 1.5620999336242676 False False
460.613 2.9811112880706787 -1.1274300974658509 1.3376224676715296 -1.780966421166891 -1.5707925001727503 1.5620999336242676 False False
460.633 2.981081485748291 -1.1274880927852173 1.3375971953021448 -1.7809702358641566 -1.5707805792437952 1.5620791912078857 False False
460.65299999999996 2.9810292720794678 -1.12745554864917 1.337642017995016 -1.7809301815428675 -1.5707925001727503 1.5621163845062256 False False
460.673 2.9810574054718018 -1.1274386805346985 1.337642017995016 -1.780922075311178 -1.5707648436175745 1.5621538162231445 False False
460.693 2.9810292720794678 -1.1274073880961915 1.3376343886004847 -1.780938287774557 -1.570801083241598 1.562104344367981 False False
460.71299999999997 2.9810707569122314 -1.1274517339519043 1.3376091162311 -1.7809301815428675 -1.570784870778219 1.5621088743209839 False False
460.733 2.9810619354248047 -1.1274269682220002 1.337600056325094 -1.7809139690794886 -1.570784870778219 1.5620999336242676 False False
460.753 2.981024742126465 -1.1273653370193024 1.3375676313983362 -1.780853887597555 -1.5708048979388636 1.5621285438537598 False False
460.77299999999997 2.981079578399658 -1.1274269682220002 1.3375466505633753 -1.7809788189330042 -1.5708087126361292 1.5620627403259277 False False
460.793 2.9810826778411865 -1.1274431210807343 1.337621037160055 -1.7809788189330042 -1.570801083241598 1.5620864629745483 False False
460.813 2.9810707569122314 -1.1274431210807343 1.3376463095294397 -1.7809621296324671 -1.5707648436175745 1.5620836019515991 False False
460.83299999999997 2.981015920639038 -1.12739451349292 1.337604824696676 -1.7809540234007777 -1.5707648436175745 1.5621285438537598 False False
460.85299999999995 2.9810783863067627 -1.1274728936007996 1.337588135396139 -1.7809583149352015 -1.5708368460284632 1.5621027946472168 False False
460.873 2.9810380935668945 -1.1274474424174805 1.3376372496234339 -1.7809258900084437 -1.5708168188678187 1.5621285438537598 False False
460.893 2.981020450592041 -1.1274386805346985 1.3376372496234339 -1.7809497318663539 -1.5707767645465296 1.5621163845062256 False False
460.91299999999995 2.9810872077941895 -1.127480463390686 1.3376343886004847 -1.7809506855406703 -1.5707805792437952 1.5621240139007568 False False
460.933 2.9810707569122314 -1.1274600189975281 1.3376372496234339 -1.780954977075094 -1.570784870778219 1.5621285438537598 False False
460.953 2.9810216426849365 -1.1274646681598206 1.3376167456256312 -1.7809058628477992 -1.570756737385885 1.5621285438537598 False False
460.97299999999996 2.9810292720794678 -1.1274555188468476 1.337649170552389 -1.780922075311178 -1.570756737385885 1.562116265296936 False False
460.993 2.9810619354248047 -1.127476529484131 1.3376372496234339 -1.7809506855406703 -1.5708211104022425 1.5621044635772705 False False
461.013 2.9810588359832764 -1.127476618891098 1.337642017995016 -1.780910154382223 -1.5707805792437952 1.5621566772460938 False False
461.03299999999996 2.981045722961426 -1.1274929207614441 1.337592903767721 -1.780954977075094 -1.5707886854754847 1.5621163845062256 False False
461.053 2.981086015701294 -1.12749736130748 1.337592903767721 -1.7809425793089808 -1.5707891623126429 1.5620999336242676 False False
461.073 2.9810948371887207 -1.1275256437114258 1.3376296202289026 -1.7809702358641566 -1.570772949849264 1.5621196031570435 False False
461.09299999999996 2.981102466583252 -1.1274148684791108 1.3375957647906702 -1.7809587917723597 -1.5708044211017054 1.5621448755264282 False False
461.113 2.9810903072357178 -1.127443180685379 1.337604824696676 -1.780893941918844 -1.5707891623126429 1.5621073246002197 False False
461.133 2.981041193008423 -1.1274898809245606 1.337604824696676 -1.7809907398619593 -1.5708091894732874 1.562120795249939 False False
461.15299999999996 2.9810738563537598 -1.1274432104877015 1.3376091162311 -1.7809177837767542 -1.5708168188678187 1.5621240139007568 False False
461.173 2.981041193008423 -1.127396897678711 1.3376253286944788 -1.7808743915953578 -1.5708373228656214 1.562119483947754 False False
461.193 2.9810338020324707 -1.1274674397758027 1.337604824696676 -1.7809702358641566 -1.5707805792437952 1.5621029138565063 False False
461.21299999999997 2.9810619354248047 -1.12746016800914 1.3375723997699183 -1.780922075311178 -1.5707805792437952 1.5621027946472168 False False
461.233 2.9810781478881836 -1.12749736130748 1.3376057783709925 -1.7809869251646937 -1.5708325544940394 1.5621285438537598 False False
461.253 2.9810662269592285 -1.1275001925281067 1.3375957647906702 -1.7809864483275355 -1.5708048979388636 1.5620999336242676 False False
461.27299999999997 2.9810619354248047 -1.1274511081031342 1.3375838438617151 -1.7809425793089808 -1.5708335081683558 1.5621733665466309 False False
461.293 2.981041193008423 -1.1274296802333375 1.3375886122332972 -1.7809344730772914 -1.5707648436175745 1.5621522665023804 False False
461.313 2.9810991287231445 -1.1274207395366211 1.3376005331622522 -1.7809497318663539 -1.5708449522601526 1.5621373653411865 False False
461.33299999999997 2.981069564819336 -1.127467469578125 1.337604824696676 -1.7809344730772914 -1.5707925001727503 1.562153697013855 False False
461.35299999999995 2.9810826778411865 -1.1274340909770508 1.3376582304583948 -1.780966421166891 -1.5707648436175745 1.562098503112793 False False
461.373 2.9810738563537598 -1.127434031372406 1.3376091162311 -1.7809258900084437 -1.5707805792437952 1.562191128730774 False False
461.393 2.9810619354248047 -1.127476529484131 1.3376286665545862 -1.7809540234007777 -1.5707686583148401 1.5621029138565063 False False
461.41299999999995 2.981036901473999 -1.1274221998504181 1.3375957647906702 -1.7809182606139125 -1.5708168188678187 1.5621206760406494 False False
461.433 2.981048822402954 -1.1274691385081788 1.3376372496234339 -1.7809506855406703 -1.5708211104022425 1.5621252059936523 False False
461.453 2.981041193008423 -1.12746016800914 1.3376134077655237 -1.7809907398619593 -1.5708211104022425 1.5621240139007568 False False
461.47299999999996 2.9810619354248047 -1.1274267894080658 1.3376134077655237 -1.7809621296324671 -1.5707886854754847 1.5621448755264282 False False
461.493 2.9810738563537598 -1.1274601382068177 1.3376506010638636 -1.7809707127013148 -1.5707967917071741 1.5621240139007568 False False
461.513 2.9811153411865234 -1.1274431508830567 1.3376253286944788 -1.7809344730772914 -1.5708373228656214 1.5621403455734253 False False
461.53299999999996 2.98102068901062 -1.127467469578125 1.3375838438617151 -1.7809578380980433 -1.570829216633932 1.5620746612548828 False False
461.553 2.9810869693756104 -1.1274341505816956 1.337621037160055 -1.780926366845602 -1.5708449522601526 1.5620909929275513 False False
461.573 2.9811034202575684 -1.1274221700480958 1.3376448790179651 -1.780978342095846 -1.5707686583148401 1.562186598777771 False False
461.59299999999996 2.9810662269592285 -1.1274854999831696 1.3376448790179651 -1.7809463940062464 -1.5708087126361292 1.5621329545974731 False False
461.613 2.981091260910034 -1.127425180082657 1.337580982838766 -1.7809745273985804 -1.570784870778219 1.5621238946914673 False False
461.633 2.9810824394226074 -1.1274630290320893 1.337592903767721 -1.7809578380980433 -1.5708254019366663 1.5621118545532227 False False
461.65299999999996 2.9810338020324707 -1.1274267894080658 1.3376296202289026 -1.7809139690794886 -1.570801083241598 1.5621029138565063 False False
461.673 2.9811065196990967 -1.1274489921382447 1.337592903767721 -1.7809344730772914 -1.5707967917071741 1.5620583295822144 False False
461.693 2.981086015701294 -1.127443180685379 1.337604824696676 -1.7809344730772914 -1.5708168188678187 1.5620955228805542 False False
461.71299999999997 2.981029510498047 -1.1274913412383576 1.3375723997699183 -1.7809421024718226 -1.570813004170553 1.5621206760406494 False False
461.733 2.981045722961426 -1.1274431508830567 1.3376415411578577 -1.7809182606139125 -1.5707724730121058 1.5621284246444702 False False
461.753 2.981053113937378 -1.1274780196002503 1.3376005331622522 -1.7809387646117152 -1.5707805792437952 1.562116265296936 False False
461.77299999999997 2.981045722961426 -1.1274074477008362 1.3376534620868128 -1.7809463940062464 -1.570813004170553 1.5620791912078857 False False
461.793 2.9810619354248047 -1.1274385315230866 1.337621037160055 -1.7809745273985804 -1.5708449522601526 1.5620909929275513 False False
461.813 2.9810903072357178 -1.1274385315230866 1.3376296202289026 -1.780966421166891 -1.5707610289203089 1.5621118545532227 False False
461.83299999999997 2.981057643890381 -1.1274511081031342 1.3376167456256312 -1.78100647548818 -1.5707648436175745 1.5620999336242676 False False
461.85299999999995 2.9810619354248047 -1.1274837714484711 1.3376134077655237 -1.7809025249876917 -1.5707767645465296 1.5621328353881836 False False
461.873 2.981065273284912 -1.1274221998504181 1.3376286665545862 -1.7809301815428675 -1.5708091894732874 1.5621118545532227 False False
461.893 2.981057643890381 -1.1274973911098023 1.3376219908343714 -1.780910154382223 -1.5708211104022425 1.562135934829712 False False
461.91299999999995 2.9810662269592285 -1.1274475914290925 1.3376577536212366 -1.7809983692564906 -1.5707891623126429 1.5620639324188232 False False
461.933 2.9810867309570312 -1.127434031372406 1.3376415411578577 -1.7809182606139125 -1.5707805792437952 1.5621074438095093 False False
461.953 2.9810619354248047 -1.1274431210807343 1.3376253286944788 -1.7809707127013148 -1.5708168188678187 1.5621240139007568 False False
461.97299999999996 2.9810867309570312 -1.127476529484131 1.3376091162311 -1.7809015713133753 -1.5707967917071741 1.5621284246444702 False False
461.993 2.981057643890381 -1.1274340611747284 1.3376176992999476 -1.7809015713133753 -1.570772949849264 1.5621118545532227 False False
462.013 2.9810988903045654 -1.1275001925281067 1.3376091162311 -1.7809301815428675 -1.570784870778219 1.5620955228805542 False False
462.03299999999996 2.981020927429199 -1.12749736130748 1.3376372496234339 -1.7809707127013148 -1.5707805792437952 1.5620911121368408 False False
462.053 2.9810500144958496 -1.1274520319751282 1.337592903767721 -1.7809869251646937 -1.5708087126361292 1.5620837211608887 False False
462.073 2.9810903072357178 -1.1274296206286927 1.3375681082354944 -1.7809139690794886 -1.570784870778219 1.5621118545532227 False False
462.09299999999996 2.9810988903045654 -1.1274340909770508 1.3375843206988733 -1.7809425793089808 -1.5707925001727503 1.5620911121368408 False False
462.113 2.9810824394226074 -1.1274013978293915 1.3375971953021448 -1.7809506855406703 -1.570801083241598 1.5621074438095093 False False
462.133 2.9810338020324707 -1.1274510783008118 1.3376124540912073 -1.7809621296324671 -1.5708211104022425 1.5621118545532227 False False
462.15299999999996 2.9810781478881836 -1.127431259756424 1.337604824696676 -1.780938287774557 -1.5707891623126429 1.5621161460876465 False False
462.173 2.981102228164673 -1.1274385315230866 1.3376176992999476 -1.7809583149352015 -1.5708168188678187 1.5620956420898438 False False
462.193 2.9811034202575684 -1.12745554864917 1.337576691304342 -1.7809540234007777 -1.5708211104022425 1.5621284246444702 False False
462.21299999999997 2.981017589569092 -1.1274132591537018 1.3375843206988733 -1.7809258900084437 -1.5707648436175745 1.562103033065796 False False
462.233 2.981057643890381 -1.1274207395366211 1.337604824696676 -1.7809258900084437 -1.5707967917071741 1.5620673894882202 False False
462.253 2.981069564819336 -1.1274252396873017 1.3376167456256312 -1.7809177837767542 -1.5707605520831507 1.5620911121368408 False False
462.27299999999997 2.9810869693756104 -1.1275046032718201 1.337604824696676 -1.7809258900084437 -1.5707891623126429 1.5620421171188354 False False
462.293 2.9810738563537598 -1.127423809175827 1.3376253286944788 -1.7809344730772914 -1.5707810560809534 1.5621371269226074 False False
462.313 2.981041431427002 -1.1274555188468476 1.337592903767721 -1.7809015713133753 -1.5707805792437952 1.5621118545532227 False False
462.33299999999997 2.9810824394226074 -1.1274674099734803 1.3376134077655237 -1.7809630833067835 -1.5707967917071741 1.5621074438095093 False False
462.35299999999995 2.981069564819336 -1.1274765592864533 1.3376458326922815 -1.780938287774557 -1.5708487669574183 1.5620999336242676 False False
462.373 2.981057643890381 -1.1274176698974152 1.3376577536212366 -1.7809540234007777 -1.5707686583148401 1.5621161460876465 False False
462.393 2.9810292720794678 -1.1273684662631531 1.3375962416278284 -1.780983110467428 -1.5708048979388636 1.562148928642273 False False
462.41299999999995 2.9810738563537598 -1.1274176400950928 1.3376091162311 -1.7809864483275355 -1.5707886854754847 1.5620912313461304 False False
462.433 2.9811034202575684 -1.1274810594371338 1.337621037160055 -1.780922075311178 -1.5707886854754847 1.5620675086975098 False False
462.453 2.981057643890381 -1.1273894172957917 1.337621037160055 -1.7809344730772914 -1.5707925001727503 1.5621446371078491 False False
462.47299999999996 2.9810500144958496 -1.1275093418410798 1.3375886122332972 -1.7809506855406703 -1.5708048979388636 1.562132716178894 False False
462.493 2.9810543060302734 -1.1274221402457734 1.337604824696676 -1.7809301815428675 -1.570813004170553 1.5621240139007568 False False
462.513 2.9810824394226074 -1.1274385017207642 1.337670628224508 -1.7809745273985804 -1.5707767645465296 1.562135934829712 False False
462.53299999999996 2.9811031818389893 -1.1274013084224244 1.3376014868365687 -1.7810031376280726 -1.5708373228656214 1.5620794296264648 False False
462.553 2.9810945987701416 -1.1274267596057435 1.3376091162311 -1.7809621296324671 -1.5707648436175745 1.5621522665023804 False False
462.573 2.981025218963623 -1.1274838608554383 1.337621037160055 -1.7809621296324671 -1.5707967917071741 1.5620912313461304 False False
462.59299999999996 2.9810945987701416 -1.1273923081210633 1.3376458326922815 -1.7809344730772914 -1.5708087126361292 1.5620837211608887 False False
462.613 2.981057643890381 -1.1274601978114625 1.3376253286944788 -1.780966421166891 -1.570784870778219 1.5620912313461304 False False
462.633 2.981029510498047 -1.127429561024048 1.337592903767721 -1.780910154382223 -1.5708168188678187 1.5621284246444702 False False
462.65299999999996 2.9810705184936523 -1.1274719101241608 1.337604824696676 -1.7809177837767542 -1.5707967917071741 1.5620499849319458 False False
462.673 2.981045722961426 -1.1274765890887757 1.3376415411578577 -1.7809387646117152 -1.5708525816546839 1.5621161460876465 False False
462.693 2.9810738563537598 -1.127443180685379 1.3376296202289026 -1.7809540234007777 -1.5707929770099085 1.562119722366333 False False
462.71299999999997 2.981004476547241 -1.1274357003024598 1.3376057783709925 -1.7809578380980433 -1.5707686583148401 1.5620956420898438 False False
462.733 2.9810781478881836 -1.1274013084224244 1.3376091162311 -1.7808824978270472 -1.570784870778219 1.5620999336242676 False False
462.753 2.9810705184936523 -1.1273985368064423 1.3376167456256312 -1.780938287774557 -1.5707929770099085 1.5621817111968994 False False
462.77299999999997 2.981029510498047 -1.1274057489684601 1.3376372496234339 -1.780983110467428 -1.5708125273333948 1.5621196031570435 False False
462.793 2.9810738563537598 -1.1274601978114625 1.3375514189349573 -1.780966421166891 -1.5708168188678187 1.5621118545532227 False False
462.813 2.9810662269592285 -1.12744756162677 1.3376415411578577 -1.7809788189330042 -1.5708206335650843 1.562098741531372 False False
462.83299999999997 2.9810738563537598 -1.1274431508830567 1.3376296202289026 -1.780922075311178 -1.5707529226886194 1.562119722366333 False False
462.85299999999995 2.98103666305542 -1.127485529785492 1.3376372496234339 -1.7809344730772914 -1.5708168188678187 1.562135934829712 False False
462.873 2.98103666305542 -1.12745554864917 1.3376668135272425 -1.7808901272215785 -1.5707891623126429 1.562132716178894 False False
462.893 2.9810454845428467 -1.1274929207614441 1.3376501242267054 -1.7809015713133753 -1.5708487669574183 1.5621328353881836 False False
462.91299999999995 2.981053113937378 -1.1274691087058564 1.3376296202289026 -1.7809459171690882 -1.570756737385885 1.5621370077133179 False False
462.933 2.9810783863067627 -1.1274087888053437 1.3375843206988733 -1.7809468708434046 -1.5708006064044397 1.5621074438095093 False False
462.953 2.9810619354248047 -1.1274646383574982 1.3376091162311 -1.780910154382223 -1.570784870778219 1.5621118545532227 False False
462.97299999999996 2.9810619354248047 -1.1274521511844178 1.3376005331622522 -1.7809907398619593 -1.570772949849264 1.5621031522750854 False False
462.993 2.981053113937378 -1.127543644314148 1.3376005331622522 -1.780938287774557 -1.570784870778219 1.562135934829712 False False
463.013 2.9810948371887207 -1.1273984473994751 1.3375843206988733 -1.7809301815428675 -1.5708206335650843 1.5620912313461304 False False
463.03299999999996 2.9810917377471924 -1.127440170650818 1.3376534620868128 -1.7808662853636683 -1.5707929770099085 1.562160849571228 False False
463.053 2.9810128211975098 -1.1274854701808472 1.337621037160055 -1.7809177837767542 -1.5708168188678187 1.562042236328125 False False
463.073 2.9810826778411865 -1.127469078903534 1.3376415411578577 -1.7809702358641566 -1.570772949849264 1.5621240139007568 False False
463.09299999999996 2.9810709953308105 -1.1274312299541016 1.337674919758932 -1.7809301815428675 -1.570784870778219 1.5621118545532227 False False
463.113 2.9810335636138916 -1.1274118584445496 1.33763295808901 -1.7809425793089808 -1.570772949849264 1.5620837211608887 False False
463.133 2.9810545444488525 -1.1274602574161072 1.3375886122332972 -1.7809707127013148 -1.5707686583148401 1.5621240139007568 False False
463.15299999999996 2.981024742126465 -1.1274565321258088 1.337621037160055 -1.7809540234007777 -1.5708087126361292 1.5620675086975098 False False
463.173 2.9810664653778076 -1.127429561024048 1.3375971953021448 -1.7809788189330042 -1.5707810560809534 1.5621284246444702 False False
463.193 2.981024742126465 -1.1275019210628052 1.3376091162311 -1.7809468708434046 -1.5708168188678187 1.5621074438095093 False False
463.21299999999997 2.9810619354248047 -1.1274511081031342 1.3376296202289026 -1.7809826336302699 -1.570824925099508 1.5620335340499878 False False
463.233 2.9810738563537598 -1.1274132293513794 1.3376501242267054 -1.7809907398619593 -1.570732895527975 1.5620912313461304 False False
463.253 2.9810950756073 -1.1273940664580842 1.3376091162311 -1.780922075311178 -1.5708048979388636 1.5620825290679932 False False
463.27299999999997 2.9810707569122314 -1.1274540585330506 1.337621037160055 -1.7809468708434046 -1.5707810560809534 1.562132716178894 False False
463.293 2.981041193008423 -1.1274268192103882 1.3376296202289026 -1.7809139690794886 -1.5707610289203089 1.5620999336242676 False False
463.313 2.9810409545898438 -1.1274882715991517 1.337576691304342 -1.7809177837767542 -1.5707529226886194 1.5620630979537964 False False
463.33299999999997 2.9810948371887207 -1.1274221402457734 1.337604824696676 -1.780938287774557 -1.5708125273333948 1.5621031522750854 False False
463.35299999999995 2.981024742126465 -1.127452091579773 1.3376167456256312 -1.7809468708434046 -1.5708211104022425 1.5620826482772827 False False
463.373 2.9810545444488525 -1.1274646383574982 1.3375886122332972 -1.7809182606139125 -1.5708006064044397 1.5621074438095093 False False
463.393 2.981053113937378 -1.1274131697467347 1.3376253286944788 -1.7809139690794886 -1.5707767645465296 1.5620912313461304 False False
463.41299999999995 2.9810707569122314 -1.12741772950206 1.3376286665545862 -1.780938287774557 -1.5707929770099085 1.5621154308319092 False False
463.433 2.9810948371887207 -1.1274735492518921 1.3376167456256312 -1.7809468708434046 -1.5708048979388636 1.5621414184570312 False False
463.453 2.9810380935668945 -1.1274646383574982 1.3376167456256312 -1.7809301815428675 -1.5707367102252405 1.5621240139007568 False False
463.47299999999996 2.981045722961426 -1.1274837714484711 1.337604824696676 -1.7809301815428675 -1.5708125273333948 1.5621205568313599 False False
463.493 2.9810292720794678 -1.1274609726718445 1.3376343886004847 -1.7809258900084437 -1.5707886854754847 1.5620760917663574 False False
463.513 2.9810292720794678 -1.1274511081031342 1.3375385443316858 -1.7809621296324671 -1.5708125273333948 1.5621446371078491 False False
463.53299999999996 2.9810454845428467 -1.1274883312037964 1.337604824696676 -1.780922075311178 -1.5707805792437952 1.5621694326400757 False False
463.553 2.9810292720794678 -1.1274674099734803 1.337604824696676 -1.780954500237936 -1.5707648436175745 1.5620837211608887 False False
463.573 2.9810454845428467 -1.127467469578125 1.3376224676715296 -1.7809707127013148 -1.5707805792437952 1.5621118545532227 False False
463.59299999999996 2.981086015701294 -1.1274476212314148 1.3375971953021448 -1.7809497318663539 -1.5707891623126429 1.5620582103729248 False False
463.613 2.9810843467712402 -1.127500281935074 1.3376167456256312 -1.780922075311178 -1.570824925099508 1.5620745420455933 False False
463.633 2.9810664653778076 -1.127443180685379 1.3375957647906702 -1.7809139690794886 -1.570772949849264 1.5621567964553833 False False
463.65299999999996 2.9810783863067627 -1.1274510783008118 1.337642017995016 -1.780938287774557 -1.5707767645465296 1.5620954036712646 False False
463.673 2.9810619354248047 -1.1274340611747284 1.3375957647906702 -1.780966421166891 -1.570784870778219 1.5620999336242676 False False
463.693 2.98103666305542 -1.127452091579773 1.337580982838766 -1.7808977566161097 -1.57074481645693 1.5621404647827148 False False
463.71299999999997 2.9810500144958496 -1.12745554864917 1.337592903767721 -1.780898233453268 -1.5707648436175745 1.5620746612548828 False False
463.733 2.981024742126465 -1.127434031372406 1.3376134077655237 -1.7810026607909144 -1.570801083241598 1.562104344367981 False False
463.753 2.9810829162597656 -1.1274385017207642 1.337621037160055 -1.7809621296324671 -1.5707724730121058 1.562116265296936 False False
463.77299999999997 2.9811413288116455 -1.1274838608554383 1.3376286665545862 -1.7810026607909144 -1.570829216633932 1.5620864629745483 False False
463.793 2.9810500144958496 -1.1274476212314148 1.3376119772540491 -1.7809182606139125 -1.5707925001727503 1.5620595216751099 False False
463.813 2.9810454845428467 -1.1274013084224244 1.3376253286944788 -1.7809344730772914 -1.570829216633932 1.562082052230835 False False
463.83299999999997 2.9810454845428467 -1.127422110443451 1.3376167456256312 -1.7809301815428675 -1.5708254019366663 1.5620999336242676 False False
463.85299999999995 2.9810738563537598 -1.12746016800914 1.337604824696676 -1.7809344730772914 -1.570784870778219 1.5621613264083862 False False
463.873 2.9810872077941895 -1.1274646383574982 1.3375838438617151 -1.780978342095846 -1.5707648436175745 1.5621073246002197 False False
463.893 2.981020212173462 -1.1274267596057435 1.3376091162311 -1.780922075311178 -1.5707686583148401 1.5621196031570435 False False
463.91299999999995 2.9810290336608887 -1.1274883312037964 1.3376372496234339 -1.7809063396849574 -1.5707686583148401 1.5621196031570435 False False
463.933 2.9810783863067627 -1.1274838608554383 1.3376091162311 -1.7809344730772914 -1.5707605520831507 1.5621403455734253 False False
463.953 2.9810335636138916 -1.1274357003024598 1.3376167456256312 -1.7808901272215785 -1.5707648436175745 1.5621196031570435 False False
463.97299999999996 2.9810738563537598 -1.1274432104877015 1.337621037160055 -1.7809463940062464 -1.570801083241598 1.5621449947357178 False False
463.993 2.9810574054718018 -1.1275347632220765 1.3375509420977991 -1.7809621296324671 -1.5707805792437952 1.5620938539505005 False False
464.013 2.9810783863067627 -1.1274837714484711 1.337649170552389 -1.780978342095846 -1.5707529226886194 1.5621329545974731 False False
464.03299999999996 2.9810619354248047 -1.1274013382247468 1.3376134077655237 -1.7808829746642054 -1.5707529226886194 1.5621330738067627 False False
464.053 2.9810500144958496 -1.1274267894080658 1.337560002003805 -1.7809025249876917 -1.5707605520831507 1.5621448755264282 False False
464.073 2.9810454845428467 -1.127422110443451 1.337621037160055 -1.7809697590269984 -1.570784870778219 1.5620745420455933 False False
464.09299999999996 2.9810783863067627 -1.1274250906756897 1.337642017995016 -1.7809659443297328 -1.5707925001727503 1.5621118545532227 False False
464.113 2.9810872077941895 -1.127434031372406 1.337621037160055 -1.7809301815428675 -1.5707572142230433 1.5620701313018799 False False
464.133 2.9810454845428467 -1.1274510783008118 1.337567154561178 -1.7809621296324671 -1.570801083241598 1.5620983839035034 False False
464.15299999999996 2.9810380935668945 -1.1274057191661377 1.33763295808901 -1.7809144459166468 -1.5707886854754847 1.5620790719985962 False False
464.173 2.9810872077941895 -1.1274646681598206 1.3375762144671839 -1.7809578380980433 -1.5708254019366663 1.5621240139007568 False False
464.193 2.9810619354248047 -1.1274385017207642 1.337621037160055 -1.7809583149352015 -1.5707767645465296 1.562116265296936 False False
464.21299999999997 2.9810619354248047 -1.1274719399264832 1.3376372496234339 -1.7809907398619593 -1.5708406607257288 1.5621448755264282 False False
464.233 2.9810454845428467 -1.1274312001517792 1.3376134077655237 -1.7809540234007777 -1.5707686583148401 1.5620908737182617 False False
464.253 2.9810829162597656 -1.127442167406418 1.3375557104693812 -1.780910154382223 -1.570784870778219 1.5621196031570435 False False
464.27299999999997 2.9810380935668945 -1.1274735492518921 1.3376253286944788 -1.7809707127013148 -1.570796314870016 1.5621027946472168 False False
464.293 2.981024742126465 -1.1274810296348114 1.3376062552081507 -1.7809506855406703 -1.5708044211017054 1.5621240139007568 False False
464.313 2.9810783863067627 -1.1274295908263703 1.3375676313983362 -1.780938287774557 -1.5707805792437952 1.5620790719985962 False False
464.33299999999997 2.9810545444488525 -1.1274475914290925 1.337592903767721 -1.780966421166891 -1.5707767645465296 1.5620909929275513 False False
464.35299999999995 2.9810783863067627 -1.1274510783008118 1.3376091162311 -1.7809621296324671 -1.57074481645693 1.562077522277832 False False
464.373 2.9810619354248047 -1.127442167406418 1.3376253286944788 -1.7809583149352015 -1.570756737385885 1.5621567964553833 False False
464.393 2.9810454845428467 -1.12739850700412 1.3375466505633753 -1.7809344730772914 -1.5707767645465296 1.5620955228805542 False False
464.41299999999995 2.9810128211975098 -1.1274475914290925 1.337592903767721 -1.7809497318663539 -1.5707648436175745 1.562082052230835 False False
464.433 2.9810664653778076 -1.1274088484099885 1.337653938923971 -1.780938287774557 -1.570784870778219 1.5621073246002197 False False
464.453 2.9811367988586426 -1.1274510783008118 1.3375971953021448 -1.7809425793089808 -1.5707929770099085 1.5620745420455933 False False
464.47299999999996 2.9810500144958496 -1.1274267894080658 1.3376372496234339 -1.780910154382223 -1.570756737385885 1.5621404647827148 False False
464.493 2.981032133102417 -1.127476529484131 1.3376014868365687 -1.7809258900084437 -1.5707805792437952 1.562082052230835 False False
464.513 2.9810872077941895 -1.1274431508830567 1.3376091162311 -1.7808815441527308 -1.5707886854754847 1.5621583461761475 False False
464.53299999999996 2.9810783863067627 -1.1274104875377198 1.3376253286944788 -1.7809344730772914 -1.5707805792437952 1.562120795249939 False False
464.553 2.981041193008423 -1.127525584106781 1.3376238981830042 -1.7809301815428675 -1.5708168188678187 1.562119483947754 False False
464.573 2.9810783863067627 -1.127495751982071 1.3376091162311 -1.7809707127013148 -1.5707805792437952 1.5621285438537598 False False
464.59299999999996 2.9810454845428467 -1.1274148684791108 1.337621037160055 -1.7809468708434046 -1.5707686583148401 1.5621734857559204 False False
464.613 2.9810454845428467 -1.1274929207614441 1.3376372496234339 -1.7809497318663539 -1.5707925001727503 1.5620955228805542 False False
464.633 2.981053113937378 -1.1274520021728058 1.337588135396139 -1.7809621296324671 -1.5708048979388636 1.562116265296936 False False
464.65299999999996 2.9810950756073 -1.127467469578125 1.337621037160055 -1.7809301815428675 -1.5707686583148401 1.5620836019515991 False False
464.673 2.9810545444488525 -1.1274356705001374 1.3375924269305628 -1.7809139690794886 -1.570784870778219 1.5620864629745483 False False
464.693 2.9810619354248047 -1.1274794203094025 1.337588135396139 -1.780922075311178 -1.570784870778219 1.5620774030685425 False False
464.71299999999997 2.9810335636138916 -1.1274088782123108 1.3376134077655237 -1.7809344730772914 -1.570813004170553 1.562142014503479 False False
464.733 2.9810574054718018 -1.1274356705001374 1.337642017995016 -1.7809139690794886 -1.5708168188678187 1.5621495246887207 False False
464.753 2.9810380935668945 -1.1274326008609314 1.3376253286944788 -1.7809301815428675 -1.5707967917071741 1.5621403455734253 False False
464.77299999999997 2.9810335636138916 -1.1274178189090271 1.3376553694354456 -1.780954977075094 -1.5707886854754847 1.5620744228363037 False False
464.793 2.981086015701294 -1.1274385315230866 1.3375747839557093 -1.7809583149352015 -1.5707925001727503 1.5621285438537598 False False
464.813 2.9810454845428467 -1.1274431508830567 1.3375971953021448 -1.7809540234007777 -1.5708087126361292 1.5621163845062256 False False
464.83299999999997 2.9810380935668945 -1.1274476212314148 1.3376253286944788 -1.7809258900084437 -1.5707486311541956 1.5621567964553833 False False
464.85299999999995 2.9811084270477295 -1.1274793607047577 1.3376372496234339 -1.7809182606139125 -1.570801083241598 1.5621029138565063 False False
464.873 2.981024742126465 -1.1274645787528534 1.3376448790179651 -1.7808858356871546 -1.5707686583148401 1.5620700120925903 True False
464.893 2.9810500144958496 -1.1274267596057435 1.337600056325094 -1.7809621296324671 -1.5708406607257288 1.5621330738067627 True False
464.91299999999995 2.9810128211975098 -1.1274735194495697 1.3376181761371058 -1.780922075311178 -1.5707972685443323 1.5621118545532227 True False
464.933 2.981069326400757 -1.1274431508830567 1.3376076857196253 -1.7809177837767542 -1.5707686583148401 1.562104344367981 True False
464.953 2.9810380935668945 -1.1274764996818085 1.3375838438617151 -1.7809344730772914 -1.5707967917071741 1.562125325202942 True False
464.97299999999996 2.9808452129364014 -1.12744756162677 1.337621037160055 -1.7808948955931605 -1.570784870778219 1.5621330738067627 True False
464.993 2.9805355072021484 -1.127492831354477 1.337588135396139 -1.7809258900084437 -1.5708044211017054 1.5620908737182617 True False
465.013 2.980055332183838 -1.1274341207793732 1.3375957647906702 -1.780954977075094 -1.5708044211017054 1.5621764659881592 True False
465.03299999999996 2.9794838428497314 -1.1274882417968293 1.3376300970660608 -1.780938287774557 -1.570772949849264 1.5622317790985107 True False
465.053 2.9786553382873535 -1.127489761715271 1.337592903767721 -1.7809788189330042 -1.5707886854754847 1.5623993873596191 True False
465.073 2.9773895740509033 -1.1274104875377198 1.3375957647906702 -1.7809058628477992 -1.570784870778219 1.5625370740890503 True False
465.09299999999996 2.975741386413574 -1.127460078602173 1.3376181761371058 -1.7809058628477992 -1.570829216633932 1.5627167224884033 True False
465.113 2.9736979007720947 -1.127464548950531 1.3376253286944788 -1.7809344730772914 -1.5707967917071741 1.562899112701416 True False
465.133 2.9712448120117188 -1.1274601084044953 1.3375838438617151 -1.7809177837767542 -1.5707290808307093 1.5631309747695923 True False
465.15299999999996 2.9682369232177734 -1.1273941558650513 1.337592903767721 -1.780922075311178 -1.5707929770099085 1.5633734464645386 True False
465.173 2.964507818222046 -1.1274519127658387 1.3375971953021448 -1.780922075311178 -1.5707281271563929 1.5637458562850952 True False
465.193 2.960066556930542 -1.127438561325409 1.3375609556781214 -1.7809468708434046 -1.5707891623126429 1.564168095588684 True False
465.21299999999997 2.955012083053589 -1.127391056423523 1.3375251928912562 -1.780922075311178 -1.5707925001727503 1.564650535583496 True False
465.233 2.9493284225463867 -1.1273715955070038 1.3374488989459437 -1.7809301815428675 -1.5707805792437952 1.5652295351028442 True False
465.253 2.943119764328003 -1.12732349455867 1.3374303022967737 -1.7808624706664027 -1.5707529226886194 1.5658326148986816 True False
465.27299999999997 2.936399459838867 -1.1272303026965638 1.3373482863055628 -1.7808624706664027 -1.5708325544940394 1.566544532775879 True False
465.293 2.929047107696533 -1.1272434753230591 1.3373091856585901 -1.780862947503561 -1.5707405249225062 1.5672574043273926 True False
465.313 2.921050548553467 -1.1271134179881592 1.3372162024127405 -1.7807704410948695 -1.5707529226886194 1.568040370941162 True False
465.33299999999997 2.912546157836914 -1.1271521014026185 1.337156120930807 -1.780806680718893 -1.570813004170553 1.568871021270752 True False
465.35299999999995 2.9035682678222656 -1.127111868267395 1.3370936552630823 -1.7807828388609828 -1.5707967917071741 1.569724202156067 True False
465.373 2.8940515518188477 -1.1270147424987336 1.3370497862445276 -1.7807675800719203 -1.570732895527975 1.5706952810287476 True False
465.393 2.8838210105895996 -1.1270442766002198 1.3369444052325647 -1.7806951008238734 -1.570801083241598 1.571710467338562 True False
465.41299999999995 2.8731236457824707 -1.1269806188395997 1.3368614355670374 -1.7806750736632289 -1.5707925001727503 1.5727521181106567 True False
465.433 2.862071990966797 -1.126849429016449 1.3367965857135218 -1.7806393108763636 -1.5707891623126429 1.573865532875061 True False
465.453 2.850090742111206 -1.1268344980529328 1.3367050329791468 -1.7806555233397425 -1.5708211104022425 1.5749315023422241 True False
465.47299999999996 2.837650775909424 -1.126709745531418 1.336609188710348 -1.780619283715719 -1.5708168188678187 1.5762349367141724 True False
465.493 2.824941396713257 -1.1266988080791016 1.336541477833883 -1.7805715999998988 -1.5707405249225062 1.5774847269058228 True False
465.513 2.8113296031951904 -1.126655564909317 1.3363917509662073 -1.7805596790709437 -1.5708335081683558 1.578792691230774 True False
465.53299999999996 2.7973084449768066 -1.1265552800944825 1.3363679091082972 -1.7805553875365199 -1.5707767645465296 1.580214500427246 True False
465.553 2.782670497894287 -1.1265026789954682 1.3362534681903284 -1.7804795704283656 -1.5707767645465296 1.581633448600769 True False
465.573 2.767524480819702 -1.1264181298068543 1.3360603491412562 -1.7805124721922816 -1.5708044211017054 1.5831464529037476 True False
465.59299999999996 2.7518558502197266 -1.1263417464545746 1.335989777241842 -1.7804237804808558 -1.5707805792437952 1.5846986770629883 True False
465.613 2.7355408668518066 -1.1262747806361695 1.3358777205096644 -1.7804085216917933 -1.570829216633932 1.586294412612915 True False
465.633 2.718682289123535 -1.1262368720820923 1.3357861677752894 -1.7802955112852992 -1.5707605520831507 1.587915301322937 True False
465.65299999999996 2.7013041973114014 -1.126079038982727 1.3356450239764612 -1.780327936212057 -1.5707648436175745 1.58965003490448 True False
465.673 2.683259963989258 -1.126007692222931 1.335595432912008 -1.7802564106383265 -1.570801083241598 1.5914196968078613 True False
465.693 2.664762496948242 -1.1259067219546814 1.3354170958148401 -1.7802087269225062 -1.5708335081683558 1.593265175819397 True False
465.71299999999997 2.6457879543304443 -1.1257732969573517 1.3353312651263636 -1.78021301845693 -1.5708211104022425 1.5951552391052246 True False
465.733 2.6260597705841064 -1.1256925028613587 1.3351486364947718 -1.780161043206686 -1.5708044211017054 1.597063660621643 True False
465.753 2.6059045791625977 -1.125634328728058 1.334994141255514 -1.7801052532591761 -1.5707767645465296 1.5991166830062866 True False
465.77299999999997 2.585197687149048 -1.125532792215683 1.3349326292621058 -1.7801257572569789 -1.5708168188678187 1.6010849475860596 True False
465.793 2.5641930103302 -1.1254252058318635 1.3347304503070276 -1.7800051174559535 -1.5708211104022425 1.6031650304794312 True False
465.813 2.5432236194610596 -1.1253878635219117 1.334611717854635 -1.7799974880614222 -1.5708254019366663 1.6052260398864746 True False
465.83299999999997 2.522387981414795 -1.1252826017192383 1.334442440663473 -1.7799178562560023 -1.5707762877093714 1.6072523593902588 True False
465.85299999999995 2.50140380859375 -1.1251875323108216 1.3342788855182093 -1.7798735104002894 -1.570829216633932 1.6093418598175049 True False
465.873 2.4804720878601074 -1.1250546735576172 1.334090534840719 -1.7797895870604457 -1.5707767645465296 1.6114354133605957 True False
465.893 2.4595108032226562 -1.12501613915477 1.3339598814593714 -1.7798072300352992 -1.5708368460284632 1.6134793758392334 True False
465.91299999999995 2.438594102859497 -1.1248581272414704 1.333771053944723 -1.7797790966429652 -1.5708044211017054 1.6155357360839844 True False
465.933 2.4176084995269775 -1.1248036187938233 1.3336761633502405 -1.779637952844137 -1.5707967917071741 1.617566466331482 True False
465.953 2.396714448928833 -1.124645249252655 1.3334887663470667 -1.7796417675414027 -1.5707686583148401 1.6195944547653198 True False
465.97299999999996 2.3757193088531494 -1.1245412689498444 1.3333919684039515 -1.7795702419676722 -1.570796314870016 1.6217271089553833 True False
465.993 2.354896068572998 -1.1244322818568726 1.3331769148456019 -1.779607435266012 -1.5708449522601526 1.6237711906433105 True False
466.013 2.3338897228240967 -1.1243001383594056 1.3330872694598597 -1.7795072994627894 -1.5707648436175745 1.6259042024612427 True False
466.03299999999996 2.312873363494873 -1.124299780731537 1.3329713980304163 -1.7794276676573695 -1.5707767645465296 1.6278914213180542 True False
466.053 2.291912794113159 -1.1241257053664704 1.3328035513507288 -1.7793590031065882 -1.570829216633932 1.629972219467163 True False
466.073 2.2710657119750977 -1.124049351816513 1.332637135182516 -1.7793885670103968 -1.570801083241598 1.6320199966430664 True False
466.09299999999996 2.2500064373016357 -1.1239502888968964 1.332503620778219 -1.779328008691305 -1.5707843939410608 1.6340689659118652 True False
466.113 2.2291088104248047 -1.123861388569214 1.3323271910296839 -1.7792755566039027 -1.5708087126361292 1.6361491680145264 True False
466.133 2.2082042694091797 -1.1237174731544037 1.3321335951434534 -1.7792397938170375 -1.5708015600787562 1.6382263898849487 True False
466.15299999999996 2.187264919281006 -1.1236905020526429 1.332031551991598 -1.7792087994017542 -1.570784870778219 1.6402822732925415 True False
466.173 2.166269540786743 -1.1235446792891999 1.331841293965475 -1.7791201076903285 -1.5708449522601526 1.6423503160476685 True False
466.193 2.145350217819214 -1.1233806771091004 1.3317425886737269 -1.779116769830221 -1.5708087126361292 1.6443490982055664 True False
466.21299999999997 2.1244235038757324 -1.1233011347106476 1.3316000143634241 -1.7789761028685511 -1.5707967917071741 1.6465240716934204 True False
466.233 2.103489637374878 -1.1232330066016694 1.3314421812640589 -1.7790008984007777 -1.5708125273333948 1.6485111713409424 True False
466.253 2.0825164318084717 -1.1231371623328705 1.3313000837909144 -1.7789207897581996 -1.5708044211017054 1.6505179405212402 True False
466.27299999999997 2.061605930328369 -1.1230500501445313 1.3311637083636683 -1.7789050541319789 -1.5708254019366663 1.652674674987793 True False
466.293 2.040611505508423 -1.122981922035553 1.33099872270693 -1.7788611851134242 -1.5708254019366663 1.654725193977356 True False
466.313 2.0196869373321533 -1.1228328210166474 1.3308756987201136 -1.7787724934019984 -1.5708048979388636 1.6567384004592896 True False
466.33299999999997 1.9987589120864868 -1.1227501195720215 1.3307693640338343 -1.7787491283812464 -1.5707281271563929 1.6588199138641357 True False
466.35299999999995 1.977799415588379 -1.1226982933333893 1.3305743376361292 -1.7786694965758265 -1.570801083241598 1.6608915328979492 True False
466.373 1.9568833112716675 -1.122499780063965 1.3304532209979456 -1.7786337337889613 -1.570801083241598 1.662954330444336 True False
466.393 1.9358789920806885 -1.122474805717804 1.330301586781637 -1.7786618671812953 -1.5707929770099085 1.6650521755218506 True False
466.41299999999995 1.9149491786956787 -1.1223696929267426 1.3301547209369105 -1.7785335979857386 -1.5708044211017054 1.6670838594436646 True False
466.433 1.8940733671188354 -1.1222738188556214 1.3299759070025843 -1.7784658871092738 -1.570801083241598 1.6690833568572998 True False
466.453 1.8730887174606323 -1.1221779745868226 1.3298605124102991 -1.7784186802306117 -1.5707967917071741 1.6712504625320435 True False
466.47299999999996 1.852180004119873 -1.1220740538886567 1.3297002951251429 -1.7784511051573695 -1.5707767645465296 1.673217535018921 True False
466.493 1.8311980962753296 -1.121907727127411 1.3295443693744105 -1.77844299892568 -1.5707686583148401 1.6753125190734863 True False
466.513 1.8102490901947021 -1.1218901139548798 1.3294289747821253 -1.7783829174437464 -1.5707891623126429 1.677409291267395 True False
466.53299999999996 1.7893319129943848 -1.121786044245102 1.329256836568014 -1.7782789669432582 -1.5707767645465296 1.6794013977050781 True False
466.553 1.7683722972869873 -1.1216615599444886 1.3290885130511683 -1.778267046014303 -1.5708373228656214 1.6814491748809814 True False
466.573 1.7474275827407837 -1.121615247135498 1.3289216200457972 -1.7781840763487757 -1.5707486311541956 1.6835756301879883 True False
466.59299999999996 1.7264214754104614 -1.121428207760193 1.3287704626666468 -1.7781430683531703 -1.5707843939410608 1.6856735944747925 True False
466.613 1.7056258916854858 -1.1213042002967377 1.3286688963519495 -1.7781278095641078 -1.5708044211017054 1.687697172164917 True False
466.633 1.684636116027832 -1.1212609571269532 1.3285487333880823 -1.778055330316061 -1.5707967917071741 1.6897656917572021 True False
466.65299999999996 1.663662075996399 -1.1211455923369904 1.3283804098712366 -1.778072019616598 -1.5707886854754847 1.6917699575424194 True False
466.673 1.6426876783370972 -1.1210073095611115 1.3282774130450647 -1.7780124149718226 -1.5707967917071741 1.6938639879226685 True False
466.693 1.6217873096466064 -1.1209622484496613 1.3281453291522425 -1.777867933312887 -1.5707767645465296 1.6959455013275146 True False
466.71299999999997 1.6008615493774414 -1.1209065181067963 1.3279712835894983 -1.777848859826559 -1.5707805792437952 1.6979917287826538 True False
466.733 1.5798295736312866 -1.120691106920578 1.3278334776507776 -1.777804513970846 -1.570784870778219 1.7000573873519897 True False
466.753 1.558861494064331 -1.1206583243659516 1.3277042547809046 -1.777780672112936 -1.5708048979388636 1.7020676136016846 True False
466.77299999999997 1.5379680395126343 -1.1205170911601563 1.3276203314410608 -1.7776967487730921 -1.5707524458514612 1.7041348218917847 True False
466.793 1.5170471668243408 -1.1204615098289032 1.3273523489581507 -1.777684827844137 -1.5708368460284632 1.7062623500823975 True False
466.813 1.4961413145065308 -1.1203325253776093 1.3272398153888147 -1.7776409588255824 -1.5707886854754847 1.7083512544631958 True False
466.83299999999997 1.4751455783843994 -1.120245323782303 1.3270581404315394 -1.7775770626463832 -1.5708487669574183 1.7103791236877441 True False
466.85299999999995 1.4541994333267212 -1.1201490026763459 1.3268726507769983 -1.7775331936278285 -1.570829216633932 1.712475061416626 True False
466.873 1.433262825012207 -1.120015726690628 1.326740566884176 -1.777461668054098 -1.570784870778219 1.7145339250564575 True False
466.893 1.4123213291168213 -1.1199854773334046 1.3266833464251917 -1.7775103054442347 -1.570829216633932 1.7165979146957397 True False
466.91299999999995 1.391373634338379 -1.1197986763766785 1.3264825979815882 -1.777398248712057 -1.5707929770099085 1.718629240989685 True False
466.933 1.3704520463943481 -1.1197604101947327 1.3263219038592737 -1.777346750298971 -1.570784870778219 1.7207032442092896 True False
466.953 1.3494493961334229 -1.1196320217898865 1.3261707464801233 -1.7772661648192347 -1.5707891623126429 1.722771167755127 True False
466.97299999999996 1.3286077976226807 -1.1195224088481446 1.3260420004474085 -1.777262350121969 -1.570801083241598 1.7248387336730957 True False
466.993 1.3076493740081787 -1.1194929045489808 1.325902287160055 -1.777194162408346 -1.5708373228656214 1.7268959283828735 True False
467.013 1.2866750955581665 -1.1193970304778595 1.3257043997394007 -1.7771746120848597 -1.5707767645465296 1.7289209365844727 True False
467.03299999999996 1.2657274007797241 -1.1192563337138672 1.325594727193014 -1.77711882213735 -1.570801083241598 1.7310155630111694 True False
467.053 1.2446446418762207 -1.1191930633834382 1.3254182974444788 -1.7770306072630824 -1.570801083241598 1.733059287071228 True False
467.073 1.2238801717758179 -1.119032160644867 1.325275723134176 -1.77703919033193 -1.570829216633932 1.73514723777771 True False
467.09299999999996 1.2029331922531128 -1.1189278227141877 1.325106445943014 -1.777043958703512 -1.570813004170553 1.7371585369110107 True False
467.113 1.1818749904632568 -1.118861125116684 1.324972931538717 -1.7769433460631312 -1.5707767645465296 1.7392855882644653 True False
467.133 1.1609898805618286 -1.1187323492816468 1.3248756567584437 -1.7768556080260218 -1.5708087126361292 1.7413100004196167 True False
467.15299999999996 1.1400924921035767 -1.1186202031425019 1.3247068564044397 -1.776895662347311 -1.5708048979388636 1.7433143854141235 True False
467.173 1.118970513343811 -1.1185439091971894 1.3245590368853968 -1.7767802677550257 -1.5707605520831507 1.7454463243484497 True False
467.193 1.098109483718872 -1.118476228123047 1.3244016806231897 -1.7767120800414027 -1.5707605520831507 1.7474501132965088 True False
467.21299999999997 1.0773029327392578 -1.1183646780303498 1.3242829481707972 -1.7766920528807582 -1.5708168188678187 1.7495819330215454 True False
467.233 1.0562694072723389 -1.118223415022232 1.324122730885641 -1.7766605816283167 -1.5708168188678187 1.7515932321548462 True False
467.253 1.0353789329528809 -1.1181157392314454 1.3239992300616663 -1.7766286335387171 -1.570784870778219 1.753646969795227 True False
467.27299999999997 1.0143547058105469 -1.118006781940796 1.323794190083639 -1.7766334019102992 -1.570784870778219 1.7557097673416138 True False
467.293 0.9934225678443909 -1.1179359716228028 1.3236501852618616 -1.7764722309508265 -1.570841137562887 1.7578052282333374 True False
467.313 0.9724772572517395 -1.1179384750178833 1.3235486189471644 -1.7765051327147425 -1.5707686583148401 1.7598776817321777 True False
467.33299999999997 0.9515601992607117 -1.1177318555167695 1.3233640829669397 -1.7764250240721644 -1.5708330313311976 1.761914849281311 True False
467.35299999999995 0.9306749105453491 -1.1176598829082032 1.3232410589801233 -1.7763573131956996 -1.5708168188678187 1.7639634609222412 True False
467.373 0.9096567034721375 -1.117539719944336 1.323050324116842 -1.7763053379454554 -1.5707810560809534 1.765997290611267 True False
467.393 0.8887445330619812 -1.1174146097949524 1.3229425589190882 -1.7763296566405238 -1.5707810560809534 1.7680515050888062 True False
467.41299999999995 0.8676716089248657 -1.1173101526549836 1.3228033224688929 -1.77624573330068 -1.5707967917071741 1.7701809406280518 True False
467.433 0.8468703031539917 -1.117174194460251 1.3226998488055628 -1.7761498890318812 -1.5708168188678187 1.7721974849700928 True False
467.453 0.8258674740791321 -1.117168979053833 1.3224752585040491 -1.7762218914427699 -1.5708006064044397 1.7742193937301636 True False
467.47299999999996 0.8049432039260864 -1.1169981819442292 1.3223841826068323 -1.776057859460348 -1.570784870778219 1.776334285736084 True False
467.493 0.7840117812156677 -1.1169261795333405 1.3222277800189417 -1.776034494439596 -1.5707967917071741 1.7784302234649658 True False
467.513 0.763060986995697 -1.1168766778758545 1.3220732847796839 -1.7759982548155726 -1.5707810560809534 1.7805078029632568 True False
467.53299999999996 0.7420817613601685 -1.1167102617076416 1.3218873182879847 -1.775938173333639 -1.5707925001727503 1.7825889587402344 True False
467.553 0.7211819291114807 -1.116606966858246 1.321817700062887 -1.7759114704527796 -1.5707929770099085 1.7846379280090332 True False
467.573 0.7002483010292053 -1.1164949101260682 1.321615997944967 -1.7758833370604457 -1.570772949849264 1.786666750907898 True False
467.59299999999996 0.6792389750480652 -1.1164441865733643 1.3215168158160608 -1.7758308849730433 -1.5708006064044397 1.7887928485870361 True False
467.613 0.6583222150802612 -1.116327629690506 1.3213518301593226 -1.7757874927916468 -1.5707886854754847 1.7907811403274536 True False
467.633 0.6374422907829285 -1.1162481766990204 1.321216885243551 -1.7757474384703578 -1.5707767645465296 1.7928664684295654 True False
467.65299999999996 0.6163894534111023 -1.1161549550345917 1.3210480848895472 -1.775703569451803 -1.570824925099508 1.7949600219726562 True False
467.673 0.5954471826553345 -1.1160185498050232 1.3208921591388147 -1.7756558857359828 -1.5708211104022425 1.7969802618026733 True False
467.693 0.5746486783027649 -1.1158732932857056 1.3207686583148401 -1.7755643330016078 -1.5707967917071741 1.7990134954452515 True False
467.71299999999997 0.5536099076271057 -1.1158426266959687 1.3206408659564417 -1.7754999599852503 -1.5707967917071741 1.8011234998703003 True False
467.733 0.5327243208885193 -1.1157315534404297 1.3204391638385218 -1.775491853753561 -1.5708087126361292 1.8031221628189087 True False
467.753 0.5117282271385193 -1.1155488652041932 1.3202431837665003 -1.7754723034300746 -1.5708406607257288 1.805179238319397 True False
467.77299999999997 0.49077028036117554 -1.1155687433532258 1.3201654593097132 -1.7753964863219203 -1.5707810560809534 1.8072938919067383 True False
467.793 0.4698633551597595 -1.115395413046219 1.3200214544879358 -1.7753282986082972 -1.5707767645465296 1.809297800064087 True False
467.813 0.4487847089767456 -1.1153186124614258 1.319852654133932 -1.7753249607481898 -1.570829216633932 1.8114067316055298 True False
467.83299999999997 0.42790889739990234 -1.1151946049979706 1.3196638266192835 -1.7752486668028773 -1.5708373228656214 1.8134562969207764 True False
467.85299999999995 0.4069563150405884 -1.1150619846633454 1.319573227559225 -1.7752086124815882 -1.5707767645465296 1.8155455589294434 True False
467.873 0.3861146867275238 -1.1150349241546174 1.3193934599505823 -1.7751933536925257 -1.5707610289203089 1.8175946474075317 True False
467.893 0.36508285999298096 -1.1149228376201172 1.3192113081561487 -1.7750846348204554 -1.5708006064044397 1.8196604251861572 True False
467.91299999999995 0.34414103627204895 -1.1148345929435273 1.3190930525409144 -1.7750941715636195 -1.5707648436175745 1.8217092752456665 True False
467.933 0.32325485348701477 -1.1147057575038453 1.318965260182516 -1.7750336132445277 -1.570784870778219 1.8236442804336548 True False
467.953 0.30230534076690674 -1.1146229070476075 1.3188255468951624 -1.7749902210631312 -1.5707967917071741 1.8257745504379272 True False
467.97299999999996 0.28132253885269165 -1.1145640474608918 1.3186653296100062 -1.774938245812887 -1.5708125273333948 1.8279008865356445 True False
467.993 0.2604324519634247 -1.1144340497306366 1.3184884230243128 -1.7748977146544398 -1.5708048979388636 1.8299096822738647 True False
468.013 0.23945637047290802 -1.1143137079528351 1.3183239142047327 -1.77490295986318 -1.5707610289203089 1.8320062160491943 True False
468.03299999999996 0.21852530539035797 -1.1142015916160126 1.3181527296649378 -1.774790426293844 -1.5708087126361292 1.834123969078064 True False
468.053 0.19756126403808594 -1.1140935581973572 1.3180325667010706 -1.7747422657408656 -1.5707886854754847 1.8360834121704102 True False
468.073 0.1765616089105606 -1.114038811331131 1.3178799788104456 -1.7746864757933558 -1.5708087126361292 1.8382623195648193 True False
468.09299999999996 0.15561573207378387 -1.1139061611941834 1.3178027311908167 -1.774670740167135 -1.5708168188678187 1.8402518033981323 True False
468.113 0.1347823441028595 -1.113803432588913 1.3176706472979944 -1.7746030292906703 -1.5708330313311976 1.8423293828964233 True False
468.133 0.11382384598255157 -1.1137584012797852 1.317486588154928 -1.7745877705016078 -1.570784870778219 1.8443992137908936 True False
468.15299999999996 0.09277228266000748 -1.113610641365387 1.3172968069659632 -1.7745477161803187 -1.570824925099508 1.8464248180389404 True False
468.173 0.07198245078325272 -1.1135598880103608 1.3172019163714808 -1.7744552097716273 -1.5707929770099085 1.8484649658203125 True False
468.193 0.050902366638183594 -1.1134189528277894 1.317054573689596 -1.7744037113585414 -1.5707691351519983 1.8506300449371338 True False
468.21299999999997 0.030020810663700104 -1.1133464735797425 1.3169062773333948 -1.774339338342184 -1.5707886854754847 1.852634072303772 True False
468.233 0.009076625108718872 -1.1132331949523468 1.3167622725116175 -1.774304052392477 -1.5708125273333948 1.8546481132507324 True False
468.253 -0.011914078389303029 -1.1131590765765687 1.316578213368551 -1.7742349110045375 -1.5707648436175745 1.856738567352295 True False
468.27299999999997 -0.03279477754701787 -1.1129733187011261 1.3164385000811976 -1.774247785607809 -1.5708006064044397 1.858833909034729 True False
468.293 -0.05366641679872686 -1.112840698366501 1.3162902037249964 -1.7742420635619105 -1.5708406607257288 1.8608428239822388 True False
468.313 -0.07475406328310186 -1.112835482960083 1.3161299864398401 -1.7741204700865687 -1.570784870778219 1.8629664182662964 True False
468.33299999999997 -0.09567529359926397 -1.1126766961864014 1.3160174528705042 -1.7740966282286585 -1.5707886854754847 1.8650110960006714 True False
468.35299999999995 -0.11661178270448858 -1.1125571888736268 1.3159316221820276 -1.774074216882223 -1.570784870778219 1.8670119047164917 True False
468.373 -0.13752872148622686 -1.1124806863120575 1.3157132307635706 -1.7740093670287074 -1.5708125273333948 1.869106650352478 True False
468.393 -0.15846091905702764 -1.1124137204936524 1.3156068960772913 -1.7739368877806605 -1.5708006064044397 1.8712353706359863 True False
468.41299999999995 -0.17947131792177373 -1.1122517448714753 1.3154633680926722 -1.7739011249937953 -1.5708330313311976 1.873161792755127 True False
468.433 -0.2004478613482874 -1.1122670632651825 1.315352741871969 -1.7738577328123988 -1.5707691351519983 1.8753516674041748 True False
468.453 -0.22123605409731084 -1.1120568376830597 1.3150971571551722 -1.7738257847227992 -1.5708444754229944 1.877393126487732 True False
468.47299999999996 -0.24225312868227178 -1.1120017033866425 1.3149908224688929 -1.773733755151266 -1.5708125273333948 1.8794796466827393 True False
468.493 -0.2632506529437464 -1.1119265717319031 1.314899746571676 -1.7737299404540003 -1.5707691351519983 1.8815540075302124 True False
468.513 -0.2841408888446253 -1.1117797654918213 1.3146818319903772 -1.773710390130514 -1.570772949849264 1.883548617362976 True False
468.53299999999996 -0.3050902525531214 -1.111729936008789 1.3145673910724085 -1.7736183605589808 -1.5708125273333948 1.8856300115585327 True False
468.553 -0.32607824007143194 -1.1116298002055665 1.3144519964801233 -1.7735620937743128 -1.5708087126361292 1.8876844644546509 True False
468.573 -0.3469446341144007 -1.1114929181388398 1.314287010823385 -1.7735268078246058 -1.570784870778219 1.8897758722305298 True False
468.59299999999996 -0.367894474660055 -1.1114507180503388 1.3141358534442347 -1.7734748325743617 -1.570813004170553 1.8917871713638306 True False
468.613 -0.38886720338930303 -1.1113255780986329 1.3140156904803675 -1.773459096948141 -1.570756737385885 1.8938868045806885 True False
468.633 -0.4097808043109339 -1.1112135213664551 1.313875977193014 -1.7733994923033656 -1.5707767645465296 1.8959240913391113 True False
468.65299999999996 -0.43073827425111944 -1.1111382108977814 1.3137276808368128 -1.7733756504454554 -1.5708487669574183 1.897975206375122 True False
468.673 -0.45171910921205694 -1.111025647526123 1.3135760466205042 -1.773295064965719 -1.5707529226886194 1.9000449180603027 True False
468.693 -0.4726665655719202 -1.1109255117229004 1.3134482542621058 -1.7731949291624964 -1.5707967917071741 1.9021294116973877 True False
468.71299999999997 -0.4935348669635218 -1.1107633870891114 1.3132036367999476 -1.7732354603209437 -1.570813004170553 1.9041703939437866 True False
468.733 -0.5144980589496058 -1.1107378464988251 1.3130024115191858 -1.77317537883901 -1.5708044211017054 1.906211018562317 True False
468.753 -0.5354536215411585 -1.1106131833842774 1.3129242102252405 -1.773140092889303 -1.5707886854754847 1.9083287715911865 True False
468.77299999999997 -0.5564711729632776 -1.1105128687671204 1.3127716223346155 -1.7730561695494593 -1.5707843939410608 1.9103995561599731 True False
468.793 -0.5773652235614222 -1.1104343992522736 1.3126524130450647 -1.7730161152281703 -1.5707925001727503 1.9124610424041748 True False
468.813 -0.5982864538775843 -1.1102804404548188 1.312467400227682 -1.7729164562621058 -1.5708487669574183 1.914527416229248 True False
468.83299999999997 -0.6192567984210413 -1.1102174085429688 1.3123725096331995 -1.7729727230467738 -1.570784870778219 1.9165111780166626 True False
468.85299999999995 -0.6401556173907679 -1.110131637459137 1.3121631781207483 -1.7728730640807093 -1.570784870778219 1.9186015129089355 True False
468.873 -0.6611507574664515 -1.1099969309619446 1.3120649496661585 -1.772876878777975 -1.5707891623126429 1.9207247495651245 True False
468.893 -0.682049576436178 -1.109921471481659 1.31191331544985 -1.772764345208639 -1.570784870778219 1.9227501153945923 True False
468.91299999999995 -0.7030208746539515 -1.1098258060267945 1.3117802778827112 -1.7727695904173792 -1.5707324186908167 1.9247485399246216 True False
468.933 -0.7239649931537073 -1.1097299617579957 1.3116124312030237 -1.7726813755431117 -1.5707648436175745 1.9268670082092285 True False
468.953 -0.7448108831988733 -1.1095838111690064 1.3114693800555628 -1.7726413212218226 -1.5707925001727503 1.9289636611938477 True False
468.97299999999996 -0.7658365408526819 -1.1095450681499024 1.3113167921649378 -1.77260222057485 -1.5708335081683558 1.9309556484222412 True False
468.993 -0.7868550459491175 -1.1094383758357544 1.3111284414874476 -1.7725535831847132 -1.5708087126361292 1.9330472946166992 True False
469.013 -0.8077204863177698 -1.109271989469864 1.3109920660602015 -1.7725502453246058 -1.570829216633932 1.935040831565857 True False
469.03299999999996 -0.8287218252765101 -1.1092505616000672 1.3109090963946741 -1.7724782429137171 -1.570784870778219 1.9371577501296997 True False
469.053 -0.8496411482440394 -1.1091057819179078 1.310732666646139 -1.7724181614317835 -1.5708048979388636 1.9392236471176147 True False
469.073 -0.8705948034869593 -1.1090139013579865 1.3105767408954065 -1.7723866901793421 -1.5708168188678187 1.94129478931427 True False
469.09299999999996 -0.8914855162249964 -1.1088429254344483 1.3104522863971155 -1.7722984753050746 -1.5707648436175745 1.9434245824813843 True False
469.113 -0.9124892393695276 -1.1087345641902466 1.3102873007403772 -1.7722789249815882 -1.5708168188678187 1.9453791379928589 True False
469.133 -0.9334543387042444 -1.1086805623820801 1.3101723829852503 -1.7722512684264125 -1.5708087126361292 1.9474633932113647 True False
469.15299999999996 -0.9542802015887659 -1.1086249512485047 1.3100174109088343 -1.7721950016417445 -1.5707767645465296 1.9495030641555786 True False
469.173 -0.9753916899310511 -1.1084249776652833 1.3098896185504358 -1.7721473179259242 -1.570813004170553 1.951586127281189 True False
469.193 -0.9962328116046351 -1.1083897215178986 1.3097379843341272 -1.7721034489073695 -1.5707891623126429 1.9536199569702148 True False
469.21299999999997 -1.0171492735492151 -1.1083339613727112 1.3095124403582972 -1.7720519504942835 -1.5707972685443323 1.955701231956482 True False
469.233 -1.0380733648883265 -1.1082738500884552 1.3094022909747522 -1.772048135797018 -1.5708172957049769 1.957794427871704 True False
469.253 -1.0590851942645472 -1.1080802243999024 1.3092253843890589 -1.7719117603697718 -1.5707967917071741 1.9598028659820557 True False
469.27299999999997 -1.0800288359271448 -1.1080669325641175 1.309101406727926 -1.7718554935851039 -1.5707925001727503 1.9619276523590088 True False
469.293 -1.100985352193014 -1.1079548758319397 1.3089497725116175 -1.7718435726561488 -1.570801083241598 1.9639875888824463 True False
469.313 -1.121819798146383 -1.1077505511096497 1.3088825384723108 -1.771815916100973 -1.5708335081683558 1.965939998626709 True False
469.33299999999997 -1.1428559462176722 -1.1077246826938172 1.3087099234210413 -1.7717725239195765 -1.5708335081683558 1.9680618047714233 True False
469.35299999999995 -1.1638339201556605 -1.1075791877559205 1.3085582892047327 -1.7717043362059535 -1.5708254019366663 1.9701520204544067 True False
469.373 -1.1848366896258753 -1.107492284183838 1.3083770910846155 -1.7717091045775355 -1.5707805792437952 1.972256064414978 True False
469.393 -1.205726448689596 -1.1074456137469788 1.3082178274737757 -1.7716323337950648 -1.5708168188678187 1.9743103981018066 True False
469.41299999999995 -1.226586643849508 -1.1073092383197327 1.308077637349264 -1.7716013393797816 -1.5707724730121058 1.976340413093567 True False
469.433 -1.2475150267230433 -1.1072073143771668 1.3079341093646448 -1.7715336285033167 -1.5707925001727503 1.9784126281738281 True False
469.453 -1.2685635725604456 -1.1071278017810364 1.3078144232379358 -1.7714530430235804 -1.5707605520831507 1.9804922342300415 True False
469.47299999999996 -1.289443318043844 -1.1070539516261597 1.3076866308795374 -1.7714172802367152 -1.5707886854754847 1.9825571775436401 True False
469.493 -1.3104165236102503 -1.1069536668113251 1.307563606892721 -1.771341463128561 -1.5708087126361292 1.984601616859436 True False
469.513 -1.3313000837909144 -1.1068622034839173 1.307382885609762 -1.7713576755919398 -1.5707686583148401 1.9866931438446045 True False
469.53299999999996 -1.3523133436786097 -1.1066817802241822 1.307230297719137 -1.7713142834105433 -1.570824925099508 1.9887135028839111 True False
469.553 -1.373254124318258 -1.106633649473526 1.3070820013629358 -1.7712303600706996 -1.5707967917071741 1.9907801151275635 True False
469.573 -1.3942955175982874 -1.1065120559981843 1.3069422880755823 -1.7712108097472132 -1.5707686583148401 1.9928455352783203 True False
469.59299999999996 -1.4151175657855433 -1.1063879293254395 1.3068307081805628 -1.771186967889303 -1.5707648436175745 1.994895577430725 True False
469.613 -1.4361026922809046 -1.1062541765025635 1.3066781202899378 -1.7710825405516566 -1.570801083241598 1.9969737529754639 True False
469.633 -1.45703632036318 -1.1061534446528931 1.3064773718463343 -1.771050592462057 -1.5707929770099085 1.9990178346633911 True False
469.65299999999996 -1.4778874556170862 -1.1060636800578614 1.3063347975360315 -1.7710067234435023 -1.5708006064044397 2.0011212825775146 True False
469.673 -1.498852554951803 -1.105991707449295 1.3061383406268519 -1.7709714374937953 -1.5707767645465296 2.003152847290039 True False
469.693 -1.5198600927936 -1.1058700543693085 1.3060672918902796 -1.7708946667113246 -1.5707891623126429 2.0052237510681152 True False
469.71299999999997 -1.5408347288714808 -1.1058203738978882 1.3058703581439417 -1.7708789310851039 -1.5707925001727503 2.0072882175445557 True False
469.733 -1.5617807547198694 -1.105663464670517 1.3057873884784144 -1.770879407922262 -1.5708449522601526 2.0092766284942627 True False
469.753 -1.5826380888568323 -1.1056207579425354 1.3056195417987269 -1.7707959614195765 -1.5707443396197718 2.011385202407837 True False
469.77299999999997 -1.6035917440997522 -1.105487660770752 1.3054516951190394 -1.7706958256163539 -1.5707686583148401 2.013413429260254 True False
469.793 -1.6244996229754847 -1.1053414207747956 1.3052952925311487 -1.7706958256163539 -1.5708373228656214 2.015497922897339 True False
469.813 -1.6455495993243616 -1.105287567978241 1.3051918188678187 -1.7706243000426234 -1.5708087126361292 2.0175514221191406 True False
469.83299999999997 -1.666389290486471 -1.1051350992969056 1.3049991766559046 -1.7705804310240687 -1.5707486311541956 2.0196635723114014 True False
469.85299999999995 -1.6874178091632288 -1.1050462585738678 1.3048799673663538 -1.7705165348448695 -1.5707767645465296 2.0216894149780273 True False
469.873 -1.7084134260760706 -1.1049638253501435 1.304678742085592 -1.7704922161498011 -1.5707767645465296 2.0237245559692383 True False
469.893 -1.7292364279376429 -1.1048962336829682 1.3045147101031702 -1.7704602680602015 -1.5707805792437952 2.025822162628174 True False
469.91299999999995 -1.750209156666891 -1.1047293108752747 1.3043020407306116 -1.7704416714110316 -1.5707529226886194 2.027883768081665 True False
469.933 -1.7711504141436976 -1.1047443014434357 1.3041980902301233 -1.7703291378416957 -1.5707843939410608 2.0299365520477295 True False
469.953 -1.7920249144183558 -1.1045964819243927 1.3040831724749964 -1.7702976665892542 -1.5707605520831507 2.032026529312134 True False
469.97299999999996 -1.8130610624896448 -1.1044866007617493 1.303939167653219 -1.7702614269652308 -1.5708087126361292 2.0341320037841797 True False
469.993 -1.8339574972735804 -1.1043737095645447 1.3038604895221155 -1.7702175579466761 -1.570853058491842 2.0361998081207275 True False
470.013 -1.8549616972552698 -1.1042823654464264 1.3036916891681116 -1.7702018223204554 -1.5707562605487269 2.0381505489349365 True False
470.03299999999996 -1.8759215513812464 -1.1041831833175202 1.3035391012774866 -1.7701460323729457 -1.5708487669574183 2.0401883125305176 True False
470.053 -1.8968585173236292 -1.1041156512549897 1.3034165541278284 -1.7700664005675257 -1.570784870778219 2.0423483848571777 True False
470.073 -1.9176977316485804 -1.10392980397258 1.3032730261432093 -1.7699696026244105 -1.5707443396197718 2.044362783432007 True False
470.09299999999996 -1.9387195746051233 -1.1038995844176789 1.3030393759356897 -1.7699462376036585 -1.5708048979388636 2.046501874923706 True False
470.113 -1.9596594015704554 -1.1037904185107728 1.3029044310199183 -1.7699586353697718 -1.5707805792437952 2.048518657684326 True False
470.133 -1.980591122304098 -1.103670672779419 1.3027809301959437 -1.7698666057982386 -1.5707805792437952 2.050581932067871 True False
470.15299999999996 -2.0015700499164026 -1.1035744112781067 1.3026087919818323 -1.7699066601195277 -1.570772949849264 2.0526576042175293 True False
470.173 -2.022456471120016 -1.1034996074489136 1.30253774324526 -1.7697588406004847 -1.570801083241598 2.0547282695770264 True False
470.193 -2.0434892813311976 -1.1033623975566407 1.302328888569967 -1.7696906528868617 -1.5707529226886194 2.0567727088928223 True False
470.21299999999997 -2.064380947743551 -1.1032591325095673 1.3022053877459925 -1.7697111568846644 -1.570813004170553 2.058820962905884 True False
470.233 -2.085330311452047 -1.10317815959964 1.3021052519427698 -1.7696315250792445 -1.5707524458514612 2.0609142780303955 True False
470.253 -2.1062467733966272 -1.1031648975661774 1.3019655386554163 -1.7695909939207972 -1.5707886854754847 2.062915086746216 True False
470.27299999999997 -2.127213780079977 -1.103039638405182 1.3018139044391077 -1.7695752582945765 -1.570853058491842 2.0650596618652344 True False
470.293 -2.1481860319720667 -1.1029362839511414 1.3016861120807093 -1.7695642910399378 -1.5707967917071741 2.067051410675049 True False
470.313 -2.1690476576434534 -1.102756456737854 1.3014519850360315 -1.7694674930968226 -1.570813004170553 2.0690665245056152 True False
470.33299999999997 -2.190042320881979 -1.1026451748660584 1.301333252583639 -1.7694603405394496 -1.570829216633932 2.071150302886963 True False
470.35299999999995 -2.2110231558429163 -1.1025873881629487 1.3012173811541956 -1.7693563900389613 -1.5707648436175745 2.0732812881469727 True False
470.373 -2.2315338293658655 -1.1024919313243409 1.3010814825641077 -1.769327779809469 -1.5708044211017054 2.0752439498901367 True False
470.393 -2.2515795866595667 -1.1023855072310944 1.3009265104876917 -1.7692843876280726 -1.5707886854754847 2.077258825302124 True False
470.41299999999995 -2.270991627370016 -1.102330521946289 1.3007929960833948 -1.7692448101439417 -1.5707686583148401 2.0790703296661377 True False
470.433 -2.289938990269796 -1.1022222501090546 1.3006494680987757 -1.7692491016783656 -1.5708492437945765 2.0809879302978516 True False
470.453 -2.3084970156299036 -1.102121279840805 1.3005622068988245 -1.769205232659811 -1.5707925001727503 2.0828254222869873 True False
470.47299999999996 -2.326048199330465 -1.102047161465027 1.3004258314715784 -1.7691332302489222 -1.5708449522601526 2.084571123123169 True False
470.493 -2.343350950871603 -1.102019653921463 1.3002775351153772 -1.769081254998678 -1.5707443396197718 2.086277723312378 True False
470.513 -2.3600524107562464 -1.1019278329661866 1.3002217451678675 -1.769113679925436 -1.5707562605487269 2.087925434112549 True False
470.53299999999996 -2.3761635462390345 -1.101790265446045 1.3000734488116663 -1.7689930401244105 -1.5707925001727503 2.0895652770996094 True False
470.553 -2.3916381041156214 -1.1017376345447083 1.2999537626849573 -1.7689858875670375 -1.5707362333880823 2.091069459915161 True False
470.573 -2.406700674687521 -1.1016962391189118 1.2998622099505823 -1.7689577541747035 -1.5708044211017054 2.09249210357666 True False
470.59299999999996 -2.421121660863058 -1.1015737515738984 1.2997625509845179 -1.7688738308348597 -1.5707529226886194 2.093876838684082 True False
470.613 -2.4350767771350306 -1.1014762681773682 1.2996018568622034 -1.7688819370665492 -1.570801083241598 2.095280408859253 True False
470.633 -2.4482954184161585 -1.101421282892563 1.2995098272906702 -1.7688495121397914 -1.5707891623126429 2.0966434478759766 True False
470.65299999999996 -2.4610915819751185 -1.1014555853656312 1.2994707266436976 -1.7688185177245082 -1.5708048979388636 2.09793758392334 True False
470.673 -2.473358694707052 -1.1013384026340027 1.2993462721454065 -1.7687579594054164 -1.5707967917071741 2.099125862121582 True False
470.693 -2.484962526951925 -1.101304904823639 1.2992947737323206 -1.7687708340086878 -1.570756737385885 2.1002135276794434 True False
470.71299999999997 -2.496194664631979 -1.1012308162501832 1.2991612593280237 -1.7688142261900843 -1.5707767645465296 2.1012868881225586 True False
470.733 -2.5066028277026575 -1.1011288327029725 1.2991140524493616 -1.768754621545309 -1.5707967917071741 2.102283000946045 True False
470.753 -2.5164557139026087 -1.1011134547046204 1.2990816275226038 -1.768642087975973 -1.570772949849264 2.1033546924591064 True False
470.77299999999997 -2.5261147657977503 -1.1010561746409913 1.2990191618548792 -1.7686783275999964 -1.5708168188678187 2.104243278503418 True False
470.793 -2.5348570982562464 -1.100951538687088 1.2989462057696741 -1.768686910668844 -1.5708254019366663 2.1050562858581543 True False
470.813 -2.5430150667773646 -1.1009813708117981 1.2988861242877405 -1.7686144314207972 -1.570756737385885 2.105919361114502 True False
470.83299999999997 -2.5511019865619105 -1.1009830099395295 1.2988389174090784 -1.7686511478819789 -1.570784870778219 2.10666561126709 True False
470.85299999999995 -2.5582264105426233 -1.1009183090976258 1.298774544392721 -1.7686306438841761 -1.5708044211017054 2.107408285140991 True False
470.873 -2.564563576375143 -1.100964443092682 1.298706356679098 -1.768578668633932 -1.5707610289203089 2.1080710887908936 True False
470.893 -2.570648495350973 -1.1008327466300507 1.2986624876605433 -1.7685829601683558 -1.5707891623126429 2.108672618865967 True False
470.91299999999995 -2.576409641896383 -1.1008128684810181 1.2986624876605433 -1.7686072788634242 -1.5708168188678187 2.109174966812134 True False
470.933 -2.5813267866717737 -1.1007936757854004 1.2986233870135706 -1.7685429058470667 -1.570813004170553 2.1096227169036865 True False
470.953 -2.5855868498431605 -1.1007647079280396 1.2985461393939417 -1.7685872517027796 -1.5707686583148401 2.1100947856903076 True False
470.97299999999996 -2.589395825062887 -1.100789265041687 1.298542324696676 -1.768487115899557 -1.5707967917071741 2.110471248626709 True False
470.993 -2.592727009450094 -1.1007319551757355 1.2985394636737269 -1.768515249291891 -1.5708044211017054 2.1108016967773438 True False
471.013 -2.5953806082354944 -1.100703851585724 1.298502270375387 -1.7685548267760218 -1.570756737385885 2.11106538772583 True False
471.03299999999996 -2.5975289980517786 -1.1007202726653595 1.2984455267535608 -1.7684995136656703 -1.5708373228656214 2.111264705657959 True False
471.053 -2.5991881529437464 -1.1007082921317597 1.2984421888934534 -1.7685629330077113 -1.5707891623126429 2.1114420890808105 True False
471.073 -2.600358311329977 -1.1007291239551087 1.298462216054098 -1.7685910664000453 -1.5708168188678187 2.111415386199951 True False
471.09299999999996 -2.6007447878467005 -1.1007172030261536 1.2984750906573694 -1.7685710392394007 -1.5707843939410608 2.111452102661133 True False
471.113 -2.600672785435812 -1.1006814402392884 1.2984870115863245 -1.7686149082579554 -1.5707443396197718 2.111485719680786 True False
471.133 -2.6006575266467493 -1.1003436011127015 1.298795525227682 -1.7692176304259242 -1.5707929770099085 2.111520290374756 True False
471.15299999999996 -2.6007218996631067 -1.0998875063708802 1.299530331288473 -1.770414491693014 -1.5707805792437952 2.111639976501465 True False
471.173 -2.6006696859942835 -1.099390671854355 1.3007691542254847 -1.7722436390318812 -1.5707929770099085 2.1116323471069336 True False
471.193 -2.6007142702685755 -1.0987948042205353 1.3022521177874964 -1.7745286426939906 -1.5707925001727503 2.1115880012512207 True False
471.21299999999997 -2.600745979939596 -1.098017619257309 1.304410759602682 -1.777351518670553 -1.570801083241598 2.111579179763794 True False
471.233 -2.6007218996631067 -1.0969132345965882 1.307000462208883 -1.780820985833639 -1.570772949849264 2.111611843109131 True False
471.253 -2.6007285753833216 -1.0956997734359284 1.3098352591144007 -1.784724851647848 -1.5707772413836878 2.111611843109131 True False
471.27299999999997 -2.60077411333193 -1.0944687885097046 1.3130272070514124 -1.7894178829588832 -1.5707767645465296 2.111611843109131 True False
471.293 -2.600713316594259 -1.0930145245841523 1.3167827765094202 -1.79447664837026 -1.5707967917071741 2.111583709716797 True False
471.313 -2.6007373968707483 -1.0913058680346985 1.3208687941180628 -1.8000346622862757 -1.5707686583148401 2.111599922180176 True False
471.33299999999997 -2.6007493177997034 -1.0893415969661255 1.3252394835101526 -1.806314607659811 -1.570784870778219 2.1116042137145996 True False
471.35299999999995 -2.600790564213888 -1.0874500435641785 1.3298543135272425 -1.8131405315794886 -1.5707925001727503 2.111571788787842 True False
471.373 -2.6007285753833216 -1.0853318733027955 1.3349321524249476 -1.8205424747862757 -1.570756737385885 2.111595630645752 True False
471.393 -2.6007450262652796 -1.0829536479762574 1.3405306974994105 -1.8283988438048304 -1.5708044211017054 2.1116409301757812 True False
471.41299999999995 -2.6007450262652796 -1.0803764027408143 1.3464940229998987 -1.8368588886656703 -1.5707967917071741 2.111631393432617 True False
471.433 -2.600741688405172 -1.0776794713786622 1.3529041449176233 -1.845983167687887 -1.570784870778219 2.111623764038086 True False
471.453 -2.6007612387286585 -1.074858770971634 1.3595832029925745 -1.8553387127318324 -1.5707648436175745 2.1116247177124023 True False
471.47299999999996 -2.600797239934103 -1.0719223779490967 1.3666589895831507 -1.8655172787108363 -1.5707886854754847 2.111599922180176 True False
471.493 -2.6007946173297327 -1.0687251251987 1.3740695158587855 -1.8762499294676722 -1.570857350026266 2.111595630645752 True False
471.513 -2.6007404963122767 -1.0655309718898316 1.3815539518939417 -1.8866073093810023 -1.5708044211017054 2.111639976501465 True False
471.53299999999996 -2.6007731596576136 -1.0625161689570923 1.3885396162616175 -1.8964740238585414 -1.5707767645465296 2.1115708351135254 True False
471.553 -2.6007896105395716 -1.0597791832736512 1.3949254194842737 -1.9058343372740687 -1.5708449522601526 2.111611843109131 True False
471.573 -2.6007774511920374 -1.0572856825641175 1.4008820692645472 -1.9145623646178187 -1.570824925099508 2.1116366386413574 True False
471.59299999999996 -2.600802723561422 -1.0548724693110962 1.4066498915301722 -1.9226461849608363 -1.5708091894732874 2.1116042137145996 True False
471.613 -2.600786034260885 -1.0526492160609742 1.4121645132647913 -1.9302612743773402 -1.5708335081683558 2.1116204261779785 True False
471.633 -2.6007655302630823 -1.0505268734744568 1.4172170797931116 -1.937449117700094 -1.5707767645465296 2.1116204261779785 True False
471.65299999999996 -2.6007853190051478 -1.0485974711230774 1.4216879049884241 -1.9438940487303675 -1.570813004170553 2.111595630645752 True False
471.673 -2.6007774511920374 -1.0468662542155762 1.425819222127096 -1.9498831234373988 -1.5707805792437952 2.111611843109131 True False
471.693 -2.6007731596576136 -1.045295314197876 1.4295223394977015 -1.9552785358824671 -1.5707648436175745 2.1116204261779785 True False
471.71299999999997 -2.6007939020739954 -1.0437727731517334 1.432972256337301 -1.9600383243956507 -1.5708168188678187 2.111583709716797 True False
471.733 -2.6007612387286585 -1.0425275725177308 1.4359315077411097 -1.9643460712828578 -1.5707805792437952 2.1116204261779785 True False
471.753 -2.6008058230029505 -1.0414256614497681 1.438589874898092 -1.968161245385641 -1.5708048979388636 2.111595630645752 True False
471.77299999999997 -2.600762192402975 -1.040451542740204 1.4408476988421839 -1.971215387383932 -1.5707686583148401 2.1116042137145996 True False
471.793 -2.600741688405172 -1.0396145743182679 1.4427617231952112 -1.9739233456053675 -1.57074481645693 2.1116485595703125 True False
471.813 -2.6007853190051478 -1.039075033073761 1.4442876021014612 -1.975868364373678 -1.5707925001727503 2.1116366386413574 True False
471.83299999999997 -2.600786034260885 -1.0386403960040589 1.4452789465533655 -1.977311750451559 -1.5708048979388636 2.111611843109131 True False
471.85299999999995 -2.6007981936084192 -1.0383342069438477 1.445897404347555 -1.9783526859679164 -1.5708168188678187 2.1116280555725098 True False
471.873 -2.6007688681231897 -1.038297490482666 1.4461286703692835 -1.978807111779684 -1.5707929770099085 2.1116366386413574 True False
471.893 -2.6007090250598353 -1.0383643072894593 1.4460070768939417 -1.9786468944945277 -1.5708487669574183 2.111595630645752 True False
471.91299999999995 -2.600786034260885 -1.0383019608310242 1.4461010138141077 -1.9786750278868617 -1.5707324186908167 2.111619472503662 True False
471.933 -2.6007404963122767 -1.0382928413203736 1.4460967222796839 -1.9786468944945277 -1.5707925001727503 2.111563205718994 True False
471.953 -2.600752655659811 -1.0382793110660096 1.4460938612567347 -1.9786788425841273 -1.5707929770099085 2.1116161346435547 True False
471.97299999999996 -2.600752655659811 -1.0382584494403382 1.446118179951803 -1.9786554775633753 -1.5708254019366663 2.1116161346435547 True False
471.993 -2.6008015314685267 -1.038297490482666 1.4461091200457972 -1.9785949192442835 -1.5708048979388636 2.1115922927856445 True False
472.013 -2.6007731596576136 -1.0383189481547852 1.446113411580221 -1.978643079797262 -1.570801083241598 2.1116366386413574 True False
472.03299999999996 -2.600786034260885 -1.0382765096477051 1.4461286703692835 -1.9786869488158167 -1.5707686583148401 2.111611843109131 True False
472.053 -2.6007817427264612 -1.0382900399020691 1.4461339155780237 -1.9786588154234828 -1.5708168188678187 2.1116485595703125 True False
472.073 -2.6007939020739954 -1.0382647079280396 1.4461248556720179 -1.9786268673338832 -1.5707767645465296 2.1116204261779785 True False
472.09299999999996 -2.6007655302630823 -1.0382572573474427 1.4461610952960413 -1.9786230526366175 -1.570784870778219 2.1116085052490234 True False
472.113 -2.6007986704455774 -1.0383019608310242 1.4461048285113733 -1.9786068401732386 -1.5707967917071741 2.1116647720336914 True False
472.133 -2.6008032003985804 -1.0382617276958008 1.4461701552020472 -1.9786631069579066 -1.5708487669574183 2.1116366386413574 True False
472.15299999999996 -2.6007865110980433 -1.0382870596698304 1.4461286703692835 -1.9786750278868617 -1.570772949849264 2.1116647720336914 True False
472.173 -2.6007729212390345 -1.0382989805987854 1.4461444059955042 -1.9786550007262171 -1.570772949849264 2.1116204261779785 True False
472.193 -2.6007521788226526 -1.0382498067668458 1.4460776487933558 -1.978643079797262 -1.5708087126361292 2.1116161346435547 True False
472.21299999999997 -2.6007986704455774 -1.038217083816864 1.446120564137594 -1.9786707363524378 -1.5707967917071741 2.1116280555725098 True False
472.233 -2.6007610003100794 -1.038278118973114 1.4461286703692835 -1.9786831341185511 -1.570784870778219 2.111575126647949 True False
472.253 -2.6007445494281214 -1.0382527869990845 1.4461162726031702 -1.9786631069579066 -1.5707529226886194 2.1116561889648438 True False
472.27299999999997 -2.6007819811450403 -1.0382423561862488 1.4461525122271937 -1.9786626301207484 -1.570824925099508 2.111595630645752 True False
472.293 -2.60075813928713 -1.0382692378810425 1.4461568037616175 -1.9786912403502406 -1.570772949849264 2.1116690635681152 True False
472.313 -2.6007729212390345 -1.0382081431201478 1.4461610952960413 -1.978643079797262 -1.5707929770099085 2.111575126647949 True False
472.33299999999997 -2.6007986704455774 -1.0382498067668458 1.4461401144610804 -1.9787117443480433 -1.5708373228656214 2.111591339111328 True False
472.35299999999995 -2.6007610003100794 -1.038290099506714 1.4461820761310022 -1.9786750278868617 -1.5707648436175745 2.1116366386413574 True False
472.373 -2.6007729212390345 -1.038254277115204 1.4461777845965784 -1.9787193737425746 -1.5707886854754847 2.111563205718994 True False
472.393 -2.6007896105395716 -1.0382750195315857 1.4461239019977015 -1.9786869488158167 -1.570784870778219 2.1116247177124023 True False
472.41299999999995 -2.6007326284991663 -1.0382215541652222 1.446120564137594 -1.97869934658193 -1.5708487669574183 2.111623764038086 True False
472.433 -2.6007490793811243 -1.0382586878589173 1.4461239019977015 -1.9786426029601039 -1.5708006064044397 2.1116409301757812 True False
472.453 -2.6007445494281214 -1.0381792944720765 1.4461372534381312 -1.9786750278868617 -1.5707967917071741 2.1115543842315674 True False
472.47299999999996 -2.6007655302630823 -1.0382498067668458 1.4461239019977015 -1.978711267510885 -1.5708048979388636 2.111623764038086 True False
472.493 -2.6007729212390345 -1.0382498067668458 1.4461000601397913 -1.9787513218321742 -1.5707691351519983 2.1116528511047363 True False
472.513 -2.6008148829089563 -1.038350598221161 1.4459517637835901 -1.9788509807982386 -1.5708172957049769 2.111591339111328 True False
472.53299999999996 -2.6007564703570765 -1.038338617687561 1.446066681538717 -1.978802343408102 -1.5708168188678187 2.1116161346435547 True False
472.553 -2.6007896105395716 -1.0382882517627259 1.4460251967059534 -1.9788829288878382 -1.5707886854754847 2.1116323471069336 True False
472.573 -2.6008060614215296 -1.0383222860148926 1.4460490385638636 -1.9788147411742152 -1.5708006064044397 2.1116647720336914 True False
472.59299999999996 -2.6007850805865687 -1.0383222860148926 1.4460161367999476 -1.978835245172018 -1.5708087126361292 2.1116204261779785 True False
472.613 -2.600780789052145 -1.0382963579944153 1.4459903875934046 -1.978835245172018 -1.570824925099508 2.1116604804992676 True False
472.633 -2.6007896105395716 -1.038389341240265 1.4460580984698694 -1.9787785015501917 -1.5707610289203089 2.111591339111328 True True
472.65299999999996 -2.6008060614215296 -1.0383641880801697 1.4460490385638636 -1.978802343408102 -1.570784870778219 2.1116366386413574 True True
472.673 -2.6008015314685267 -1.0383461278728028 1.4458888212787073 -1.9782558880248011 -1.5707886854754847 2.1116280555725098 True True
472.693 -2.6008105913745325 -1.0384499591640015 1.4456084410296839 -1.9772073231139125 -1.5708563963519495 2.1116323471069336 True True
472.71299999999997 -2.6007819811450403 -1.0385502141765137 1.4449332396136683 -1.9758392773070277 -1.5707929770099085 2.111619472503662 True True
472.733 -2.6007655302630823 -1.0391374391368409 1.4434579054461878 -1.9741517506041468 -1.5708006064044397 2.111579418182373 True True
472.753 -2.6007686297046106 -1.0400597018054505 1.4412372748004358 -1.97169890026235 -1.5707691351519983 2.1116280555725098 True True
472.77299999999997 -2.6007655302630823 -1.0411615532687684 1.4388468901263636 -1.9685212574400843 -1.5707967917071741 2.1116366386413574 True True
472.793 -2.6007865110980433 -1.0422498744777222 1.4364226500140589 -1.9648643932738246 -1.570784870778219 2.1116151809692383 True True
472.813 -2.6007941404925745 -1.043423668747284 1.4334662596331995 -1.9605456791319789 -1.5707610289203089 2.1116485595703125 True True
472.83299999999997 -2.600715939198629 -1.0449620646289368 1.4300640265094202 -1.9559432468810023 -1.5707810560809534 2.1116325855255127 True True
472.85299999999995 -2.6007564703570765 -1.046606497173645 1.426326100026266 -1.9505754909911097 -1.570784870778219 2.1116533279418945 True True
472.873 -2.600720469151632 -1.0483319920352479 1.4222858587848108 -1.9447013340392054 -1.5708048979388636 2.111595392227173 True True
472.893 -2.6007283369647425 -1.0502076906016846 1.4176924864398401 -1.9381252727904261 -1.570784870778219 2.1116325855255127 True True
472.91299999999995 -2.600757900868551 -1.05226285875354 1.412727181111471 -1.931183477441305 -1.5707648436175745 2.1116042137145996 True True
472.933 -2.6007192770587366 -1.0545901221087952 1.407254997883932 -1.9236465893187464 -1.5707967917071741 2.1116325855255127 True True
472.953 -2.6007354895221155 -1.056989924316742 1.401649300252096 -1.9155923328795375 -1.570772949849264 2.1116130352020264 True True
472.97299999999996 -2.6007819811450403 -1.0595566195300599 1.3956816832171839 -1.906853815118307 -1.5708048979388636 2.1116607189178467 True True
472.993 -2.6007774511920374 -1.0623029631427308 1.389190975819723 -1.8974806270995082 -1.570829216633932 2.1116368770599365 True True
473.013 -2.6007986704455774 -1.0652354520610352 1.382204834614889 -1.8877417049803675 -1.5708006064044397 2.1116042137145996 True True
473.03299999999996 -2.6007896105395716 -1.0683921736529847 1.3748167196856897 -1.877566476861471 -1.5708444754229944 2.111562728881836 True True
473.053 -2.6007564703570765 -1.0716610115817566 1.367333714162008 -1.8667475185790003 -1.570784870778219 2.111623525619507 True True
473.073 -2.6007865110980433 -1.0746215146831055 1.360162083302633 -1.856624265710348 -1.5707810560809534 2.1116087436676025 True True
473.09299999999996 -2.6008361021624964 -1.0773947399905701 1.353694264088766 -1.8468595943846644 -1.5708325544940394 2.11159086227417 True True
473.113 -2.6007564703570765 -1.079990879898407 1.3472841421710413 -1.8378049335875453 -1.5707648436175745 2.1116161346435547 True True
473.133 -2.6007655302630823 -1.082631455068924 1.3411763350116175 -1.8293405971922816 -1.5707886854754847 2.1116116046905518 True True
473.15299999999996 -2.6007700602160853 -1.0850716990283509 1.3355911413775843 -1.8213068447508753 -1.5707529226886194 2.1115996837615967 True True
473.173 -2.6007610003100794 -1.0872312945178528 1.3305276075946253 -1.814012189904684 -1.5708044211017054 2.111699342727661 True True
473.193 -2.6007357279406946 -1.0891683560660859 1.3257253805743616 -1.8071142635741175 -1.570784870778219 2.1116414070129395 True True
473.21299999999997 -2.6007729212390345 -1.0911141794971009 1.3212602774249476 -1.8007761440672816 -1.5708048979388636 2.1116206645965576 True True
473.233 -2.6007683912860315 -1.0928702515414734 1.317129913960592 -1.7949148617186488 -1.570829216633932 2.111570119857788 True True
473.253 -2.6007865110980433 -1.0943339628032227 1.3133919874774378 -1.7899891338744105 -1.5708211104022425 2.111578941345215 True True
473.27299999999997 -2.6008315722094935 -1.0957016509822388 1.3102720419513147 -1.7853690586485804 -1.5708087126361292 2.1116042137145996 True True
473.293 -2.6007655302630823 -1.096894995575287 1.3074019590960901 -1.7812582455077113 -1.5707686583148401 2.1116578578948975 True True
473.313 -2.6007819811450403 -1.097942129974701 1.3050559202777308 -1.7778259716429652 -1.5707686583148401 2.1116445064544678 True True
473.33299999999997 -2.6007564703570765 -1.0987496835044404 1.3029807249652308 -1.7747694454588832 -1.5708487669574183 2.1116087436676025 True True
473.35299999999995 -2.6007850805865687 -1.09949545681987 1.3012726942645472 -1.7725488148131312 -1.570772949849264 2.1116325855255127 True True
473.373 -2.6007655302630823 -1.100073681478836 1.300004784260885 -1.7706958256163539 -1.5708168188678187 2.111574411392212 True True
473.393 -2.6007683912860315 -1.1004869800857087 1.2992141882525843 -1.7692324123778285 -1.5708087126361292 2.111595392227173 True True
473.41299999999995 -2.6007536093341272 -1.1005613666823884 1.298734490071432 -1.7686230144896449 -1.5707524458514612 2.1115880012512207 True True
473.433 -2.6007371584521692 -1.1005801421454926 1.2985709349261683 -1.7685867748656214 -1.570801083241598 2.1115996837615967 True True
473.453 -2.600405518208639 -1.1006041926196595 1.2986353079425257 -1.7685390911498011 -1.5708044211017054 2.1116130352020264 True True
473.47299999999996 -2.5993555227862757 -1.1006108683398743 1.2985180060016077 -1.768594881097311 -1.5708335081683558 2.1114726066589355 True True
473.493 -2.597971264516012 -1.1005900663188477 1.2985580603228968 -1.768503328362936 -1.5708492437945765 2.1113064289093018 True True
473.513 -2.5958710352527063 -1.1005856853774567 1.2985623518573206 -1.7685867748656214 -1.570881191884176 2.111053466796875 True True
473.53299999999996 -2.593062225972311 -1.1006627839854737 1.2985418478595179 -1.768594881097311 -1.5708168188678187 2.110826015472412 True True
473.553 -2.5898333231555384 -1.1007304352572937 1.2985871473895472 -1.768594881097311 -1.570772949849264 2.110541820526123 True True
473.573 -2.5861578623401087 -1.100757436161377 1.2986109892474573 -1.7686149082579554 -1.5707886854754847 2.1101629734039307 True True
473.59299999999996 -2.581820789967672 -1.1008012157729645 1.2985504309283655 -1.768578668633932 -1.5708406607257288 2.109706401824951 True True
473.613 -2.576883618031637 -1.10085944951091 1.2985947767840784 -1.768503328362936 -1.570829216633932 2.109253168106079 True True
473.633 -2.571411911641256 -1.100787953739502 1.2985699812518519 -1.7685266933836878 -1.570813004170553 2.1086606979370117 True True
473.65299999999996 -2.565436903630392 -1.1009138387492676 1.2986224333392542 -1.7686034641661585 -1.5707686583148401 2.1081433296203613 True True
473.673 -2.558945957814352 -1.1009496015361329 1.2986257711993616 -1.7685500584044398 -1.570813004170553 2.1074557304382324 True True
473.693 -2.551840607319967 -1.100990192299225 1.2987092177020472 -1.768646856347555 -1.5708368460284632 2.1067123413085938 True True
473.71299999999997 -2.5441017786609095 -1.1010053318789979 1.2988250891314905 -1.76865877727651 -1.5708087126361292 2.1060426235198975 True True
473.733 -2.53571588197817 -1.1011431080153962 1.2989547888385218 -1.7687307796873988 -1.5708048979388636 2.1051812171936035 True True
473.753 -2.5270915667163294 -1.1011674267104645 1.299025837575094 -1.7687589130797328 -1.5707686583148401 2.1043198108673096 True True
473.77299999999997 -2.5178104082690638 -1.1012350779822846 1.299176041279928 -1.7688185177245082 -1.5707686583148401 2.103320598602295 True True
473.793 -2.5076945463763636 -1.1012368661216279 1.2992709318744105 -1.7687856159605921 -1.5707767645465296 2.1024086475372314 True True
473.813 -2.497279230748312 -1.1013740462115784 1.2993744055377405 -1.7688218555846156 -1.570801083241598 2.101367473602295 True True
473.83299999999997 -2.486406151448385 -1.101339952354767 1.2994540373431605 -1.7688657246031703 -1.570813004170553 2.100224256515503 True True
473.85299999999995 -2.474731747304098 -1.101430283193924 1.2995699087726038 -1.7689339123167933 -1.570813004170553 2.0991337299346924 True True
473.873 -2.4625044504748743 -1.1015423697284241 1.2997506300555628 -1.7689539394774378 -1.5707486311541956 2.0978572368621826 True True
473.893 -2.4500394503222864 -1.1016069811633606 1.299858872090475 -1.7689691982665003 -1.5708044211017054 2.0966174602508545 True True
473.91299999999995 -2.4365673700915735 -1.1016399425319214 1.2999008337603968 -1.7690779171385707 -1.5707767645465296 2.0952727794647217 True True
473.933 -2.4227409998523157 -1.1017407935908814 1.300041977559225 -1.769029279748434 -1.570784870778219 2.093956470489502 True True
473.953 -2.4084413687335413 -1.1018247169307251 1.3001616636859339 -1.7691527805724085 -1.57074481645693 2.092531204223633 True True
473.97299999999996 -2.393554751073019 -1.1019329291633149 1.3002727667437952 -1.7691732845702113 -1.5708048979388636 2.0910253524780273 True True
473.993 -2.378012005482809 -1.1020338398269196 1.3003843466388147 -1.7692047558226527 -1.5708406607257288 2.089555263519287 True True
474.013 -2.361908499394552 -1.1021828216365357 1.3005979696856897 -1.7692614994444789 -1.570784870778219 2.0879318714141846 True True
474.03299999999996 -2.3452914396869105 -1.1022836428931733 1.3007777372943323 -1.7693082294859828 -1.5708335081683558 2.086228609085083 True True
474.053 -2.3282349745379847 -1.1023673874190827 1.3009174505816858 -1.769303937951559 -1.5707967917071741 2.08461332321167 True True
474.073 -2.3104775587665003 -1.1024784010699769 1.3010643164264124 -1.7694479427733363 -1.570756737385885 2.0828583240509033 True True
474.09299999999996 -2.2920544783221644 -1.102549598818161 1.3012083212481897 -1.7694884739317835 -1.570784870778219 2.080986976623535 True True
474.113 -2.273228470479147 -1.1027349692634125 1.3014410177813929 -1.7695394955077113 -1.5707405249225062 2.0791871547698975 True True
