Andreas691667/Digital_Twin_UR/src/controller_monitor/test_results/robot_output.csv
timestamp actual_q_0 actual_q_1 actual_q_2 actual_q_3 actual_q_4 actual_q_5 output_bit_register_65 output_bit_register_66
18416.64 3.6767234802246094 -0.9805512589267273 1.3036654631244105 -1.9892145595946253 -1.542581860219137 1.3497512340545654 False False
18416.66 3.6767406463623047 -0.9805066150477906 1.3036444822894495 -1.989218374291891 -1.5425694624530237 1.3497588634490967 False False
18416.68 3.676732063293457 -0.980511025791504 1.3036373297320765 -1.989246507684225 -1.5426095167743128 1.3497631549835205 False False
18416.7 3.676715850830078 -0.9805556696704407 1.3036401907550257 -1.9891663990416468 -1.542581860219137 1.3497588634490967 False False
18416.719999999998 3.676727771759033 -0.9805332583240052 1.3036282698260706 -1.9892345867552699 -1.5425856749164026 1.3497382402420044 False False
18416.739999999998 3.6767678260803223 -0.9804932636073609 1.3036444822894495 -1.989174028436178 -1.5425737539874476 1.3497707843780518 False False
18416.76 3.6767852306365967 -0.9805512589267273 1.3036239782916468 -1.9892102680602015 -1.5425651709186 1.3498162031173706 False False
18416.78 3.67669939994812 -0.9805794519237061 1.3036235014544886 -1.9892426929869593 -1.5426252524005335 1.3497761487960815 False False
18416.8 3.676736354827881 -0.980530397301056 1.3036120573626917 -1.989307542840475 -1.542605225239889 1.349722981452942 False False
18416.82 3.6766953468322754 -0.9804857534221192 1.3036001364337366 -1.9891945324339808 -1.5426009337054651 1.3497588634490967 False False
18416.84 3.676732063293457 -0.9805184167674561 1.3036401907550257 -1.9892102680602015 -1.542605225239889 1.349759817123413 False False
18416.86 3.6767678260803223 -0.9805512589267273 1.3035743872271937 -1.9892102680602015 -1.5425856749164026 1.3497350215911865 False False
18416.879999999997 3.6767311096191406 -0.980588511829712 1.3036239782916468 -1.9892221889891566 -1.5425971190081995 1.3497436046600342 False False
18416.899999999998 3.6767396926879883 -0.9805154365352173 1.3036778608905237 -1.9891659222044886 -1.5425971190081995 1.3498162031173706 False False
18416.92 3.6767852306365967 -0.9805348676494141 1.3036416212665003 -1.9892384014525355 -1.5426495710956019 1.3497220277786255 False False
18416.94 3.67676043510437 -0.980522946720459 1.3036826292621058 -1.9892507992186488 -1.5425856749164026 1.3497350215911865 False False
18416.96 3.6767022609710693 -0.9804932636073609 1.3036492506610315 -1.9891945324339808 -1.5425570646869105 1.3497220277786255 False False
18416.98 3.676727533340454 -0.9805065554431458 1.3036330381976526 -1.989206930200094 -1.5425851980792444 1.3497631549835205 False False
18417.0 3.676732063293457 -0.9805318278125306 1.3036206404315394 -1.9892145595946253 -1.5425651709186 1.3497761487960815 False False
18417.02 3.6767678260803223 -0.9805928629687806 1.3036325613604944 -1.9892426929869593 -1.542633358632223 1.3497555255889893 False False
18417.04 3.6766812801361084 -0.9804976743510743 1.3036325613604944 -1.9891983471312464 -1.5425775686847132 1.3497393131256104 False False
18417.059999999998 3.676781177520752 -0.9804902237704773 1.3036745230304163 -1.989206930200094 -1.5426176230060022 1.349817156791687 False False
18417.079999999998 3.676711320877075 -0.9805348676494141 1.3036163488971155 -1.9892102680602015 -1.5425775686847132 1.3497512340545654 False False
18417.1 3.6767799854278564 -0.9805184763721009 1.3035882155047815 -1.9892307720580042 -1.542605225239889 1.3497836589813232 False False
18417.12 3.6767141819000244 -0.9805482190898438 1.3036239782916468 -1.9892107448973597 -1.5426214377032679 1.3497793674468994 False False
18417.14 3.6767306327819824 -0.9805109661868592 1.3036254088031214 -1.9891983471312464 -1.5425933043109339 1.3498042821884155 False False
18417.16 3.676727533340454 -0.9805437487414856 1.3036072889911097 -1.9892307720580042 -1.5425856749164026 1.3497469425201416 False False
18417.18 3.676743984222412 -0.9805021446994324 1.3036029974566858 -1.9891945324339808 -1.5425856749164026 1.3497512340545654 False False
18417.2 3.676748514175415 -0.9805512589267273 1.3036282698260706 -1.9891983471312464 -1.542581860219137 1.3497512340545654 False False
18417.219999999998 3.6767351627349854 -0.980542318230011 1.3036401907550257 -1.9892665348448695 -1.5425775686847132 1.3497555255889893 False False
18417.239999999998 3.6767351627349854 -0.9805675905993958 1.3036325613604944 -1.9891821346678675 -1.5425775686847132 1.34976327419281 False False
18417.26 3.676743984222412 -0.9805764716914673 1.3036325613604944 -1.9892102680602015 -1.5426414648639124 1.3497511148452759 False False
18417.28 3.676711320877075 -0.9804976743510743 1.3036072889911097 -1.989178319970602 -1.5425856749164026 1.3497912883758545 False False
18417.3 3.676743984222412 -0.9805392783931275 1.3036401907550257 -1.9891983471312464 -1.5425971190081995 1.349734902381897 False False
18417.32 3.676755905151367 -0.9805392783931275 1.3036444822894495 -1.9892264805235804 -1.542581860219137 1.349807620048523 False False
18417.34 3.676755905151367 -0.98056914032016 1.3036001364337366 -1.989174028436178 -1.5426133314715784 1.3497393131256104 False False
18417.36 3.676772356033325 -0.9805273574641724 1.3036001364337366 -1.9892145595946253 -1.5426133314715784 1.3497880697250366 False False
18417.379999999997 3.676727533340454 -0.9805393379977723 1.3035743872271937 -1.9892264805235804 -1.5426133314715784 1.3497674465179443 False False
18417.399999999998 3.676694869995117 -0.9804731768420716 1.3036702314959925 -1.989178319970602 -1.5425775686847132 1.3497880697250366 False False
18417.42 3.676764965057373 -0.9805512589267273 1.3036325613604944 -1.9892341099181117 -1.5426252524005335 1.3497631549835205 False False
18417.44 3.676727533340454 -0.9805273574641724 1.3036282698260706 -1.9892994366087855 -1.5426495710956019 1.3497426509857178 False False
18417.46 3.676752805709839 -0.980536476974823 1.3036444822894495 -1.989246507684225 -1.5425933043109339 1.3497273921966553 False False
18417.48 3.676739454269409 -0.9805185359767457 1.3036282698260706 -1.9892345867552699 -1.5426214377032679 1.3497501611709595 False False
18417.5 3.676748514175415 -0.9804857534221192 1.3036611715899866 -1.9891983471312464 -1.5425613562213343 1.3497220277786255 False False
18417.52 3.6767349243164062 -0.9805184763721009 1.3036444822894495 -1.9891826115050257 -1.5426095167743128 1.3497426509857178 False False
18417.54 3.676743984222412 -0.9805021446994324 1.3036239782916468 -1.9892102680602015 -1.5425694624530237 1.3497674465179443 False False
18417.559999999998 3.676743984222412 -0.9805065554431458 1.3036358992206019 -1.9892307720580042 -1.5426014105426233 1.3497188091278076 False False
18417.579999999998 3.6767306327819824 -0.9805379074862977 1.3036001364337366 -1.9892102680602015 -1.5426653067218226 1.3497588634490967 False False
18417.6 3.676743984222412 -0.9805304569057007 1.3036163488971155 -1.989178319970602 -1.5425856749164026 1.3497793674468994 False False
18417.62 3.676715612411499 -0.9805154961398621 1.3036564032184046 -1.9892221889891566 -1.5426095167743128 1.3498119115829468 False False
18417.64 3.6767232418060303 -0.9805556696704407 1.3035953680621546 -1.9891983471312464 -1.5425732771502894 1.3497512340545654 False False
18417.66 3.676781177520752 -0.9805154365352173 1.3036254088031214 -1.9892507992186488 -1.542633358632223 1.3497836589813232 False False
18417.68 3.6767513751983643 -0.9805736702731629 1.3036492506610315 -1.9892188511290492 -1.5425971190081995 1.3497350215911865 False False
18417.7 3.676776647567749 -0.9805318278125306 1.3036239782916468 -1.989206453362936 -1.5425775686847132 1.349787950515747 False False
18417.719999999998 3.6766903400421143 -0.9804820579341431 1.3036564032184046 -1.9891702137389125 -1.5426252524005335 1.3497955799102783 False False
18417.739999999998 3.6767022609710693 -0.980583981876709 1.3036325613604944 -1.9892670116820277 -1.5425775686847132 1.3497674465179443 False False
18417.76 3.676769495010376 -0.980546848183014 1.3036702314959925 -1.9892384014525355 -1.5426133314715784 1.3497588634490967 False False
18417.78 3.6767516136169434 -0.9805304569057007 1.3036611715899866 -1.9892507992186488 -1.542581860219137 1.3497555255889893 False False
18417.8 3.676711320877075 -0.9804731768420716 1.3036091963397425 -1.989190240899557 -1.5426009337054651 1.349738359451294 False False
18417.82 3.676764965057373 -0.9805304569057007 1.3036416212665003 -1.9892507992186488 -1.5426295439349573 1.3497836589813232 False False
18417.84 3.6767513751983643 -0.9805021446994324 1.3036611715899866 -1.9892388782896937 -1.5426009337054651 1.3497999906539917 False False
18417.86 3.676727533340454 -0.9805437487414856 1.3036239782916468 -1.9892226658263148 -1.542633358632223 1.3497469425201416 False False
18417.879999999997 3.676743984222412 -0.9805644911578675 1.3036001364337366 -1.989206453362936 -1.542633358632223 1.3497707843780518 False False
18417.899999999998 3.676755905151367 -0.9805675905993958 1.3036282698260706 -1.9892388782896937 -1.54258901277651 1.3497382402420044 False False
18417.92 3.676753044128418 -0.9805065554431458 1.3036492506610315 -1.9892627201476039 -1.5426295439349573 1.3497750759124756 False False
18417.94 3.67676043510437 -0.9805408877185364 1.3035791555987757 -1.9892102680602015 -1.5426176230060022 1.349738359451294 False False
18417.96 3.676711082458496 -0.980497733955719 1.3036282698260706 -1.9892708263792933 -1.5425971190081995 1.3497480154037476 False False
18417.98 3.676715612411499 -0.980485813026764 1.3036654631244105 -1.989206930200094 -1.5425813833819788 1.3497188091278076 False False
18418.0 3.6767935752868652 -0.9804813426784058 1.3036163488971155 -1.9891625843443812 -1.5425651709186 1.3497307300567627 False False
18418.02 3.676711082458496 -0.9805184763721009 1.3036611715899866 -1.9892546139159144 -1.5426414648639124 1.3497869968414307 False False
18418.04 3.6767349243164062 -0.9805140060237427 1.3036444822894495 -1.9892550907530726 -1.5426295439349573 1.3497793674468994 False False
18418.059999999998 3.676732063293457 -0.9805467885783692 1.3036311308490198 -1.9892507992186488 -1.5426176230060022 1.3497382402420044 False False
18418.079999999998 3.676757335662842 -0.9804857534221192 1.3036778608905237 -1.9892307720580042 -1.54258901277651 1.349759817123413 False False
18418.1 3.676711320877075 -0.9805423778346558 1.3036163488971155 -1.9891983471312464 -1.5425732771502894 1.349766492843628 False False
18418.12 3.676727533340454 -0.9805109661868592 1.3035834471331995 -1.9892026386656703 -1.5425928274737757 1.349759817123413 False False
18418.14 3.676723003387451 -0.980581061249115 1.3036611715899866 -1.989246507684225 -1.5425527731524866 1.3497836589813232 False False
18418.16 3.676694869995117 -0.9804767531207581 1.3036564032184046 -1.9891907177367152 -1.5426176230060022 1.349759817123413 False False
18418.18 3.676757335662842 -0.980536476974823 1.303582016621725 -1.9892264805235804 -1.5426095167743128 1.3497469425201416 False False
18418.2 3.676757574081421 -0.980511025791504 1.3036239782916468 -1.9892550907530726 -1.5426176230060022 1.349750280380249 False False
18418.219999999998 3.676715612411499 -0.9804839652827759 1.3036001364337366 -1.9891864262022914 -1.5426338354693812 1.3497793674468994 False False
18418.239999999998 3.676723003387451 -0.9805437487414856 1.3035882155047815 -1.9891826115050257 -1.5426095167743128 1.3497512340545654 False False
18418.26 3.676769495010376 -0.980530397301056 1.3036239782916468 -1.9892384014525355 -1.5425856749164026 1.3497512340545654 False False
18418.28 3.676743984222412 -0.9804597061923523 1.3036373297320765 -1.9892426929869593 -1.5426014105426233 1.3497750759124756 False False
18418.3 3.676748514175415 -0.9805184763721009 1.3036120573626917 -1.9892426929869593 -1.5426095167743128 1.3497512340545654 False False
18418.32 3.676753044128418 -0.9805066150477906 1.3036163488971155 -1.9891983471312464 -1.5426295439349573 1.3497998714447021 False False
18418.34 3.676727533340454 -0.980564610367157 1.3036239782916468 -1.9892827473082484 -1.5425689856158655 1.3497143983840942 False False
18418.36 3.67673659324646 -0.9805110853961487 1.3036282698260706 -1.9892026386656703 -1.5426138083087366 1.3497642278671265 False False
18418.379999999997 3.67676043510437 -0.9805065554431458 1.3036444822894495 -1.9892307720580042 -1.54265004793276 1.3498162031173706 False False
18418.399999999998 3.676743984222412 -0.9805020850947876 1.3036564032184046 -1.989206453362936 -1.5425813833819788 1.3497436046600342 False False
18418.42 3.676743984222412 -0.9805274170688172 1.3036206404315394 -1.9892627201476039 -1.5425408522235315 1.3497263193130493 False False
18418.44 3.676776885986328 -0.9805274170688172 1.3035910765277308 -1.9892145595946253 -1.5425856749164026 1.3497512340545654 False False
18418.48 3.676715612411499 -0.9805393379977723 1.3036239782916468 -1.9891864262022914 -1.5426138083087366 1.3497307300567627 False False
18418.5 3.676753044128418 -0.9805348676494141 1.3036120573626917 -1.9891864262022914 -1.5426657835589808 1.349759817123413 False False
18418.52 3.676715612411499 -0.9805154961398621 1.3036416212665003 -1.989206930200094 -1.542617146168844 1.3497555255889893 False False
18418.54 3.676727533340454 -0.9805438083461304 1.3036077658282679 -1.989206453362936 -1.5426176230060022 1.349677324295044 False False
18418.559999999998 3.676743984222412 -0.9804946345141907 1.3036368528949183 -1.9891983471312464 -1.5425651709186 1.3497836589813232 False False
18418.579999999998 3.676724672317505 -0.9805274170688172 1.3035839239703577 -1.9892188511290492 -1.5425813833819788 1.3497350215911865 False False
18418.6 3.67673659324646 -0.9805393379977723 1.3036120573626917 -1.989206930200094 -1.5425971190081995 1.3497545719146729 False False
18418.62 3.676727533340454 -0.9805556696704407 1.3036521116839808 -1.9892188511290492 -1.542605225239889 1.3497426509857178 False False
18418.64 3.676739454269409 -0.9805482190898438 1.3035958448993128 -1.9892221889891566 -1.54258901277651 1.3497923612594604 False False
18418.66 3.676703691482544 -0.9804932040027161 1.3036487738238733 -1.989274641076559 -1.5426014105426233 1.3497469425201416 False False
18418.68 3.676727533340454 -0.980530397301056 1.3036077658282679 -1.989246507684225 -1.5425732771502894 1.3497588634490967 False False
18418.7 3.676790237426758 -0.9805348676494141 1.3035748640643519 -1.9891745052733363 -1.542605225239889 1.3497350215911865 False False
18418.719999999998 3.676741123199463 -0.980564610367157 1.3036535421954554 -1.989206930200094 -1.5426457563983362 1.3497923612594604 False False
18418.739999999998 3.676723003387451 -0.9805259269526978 1.3036163488971155 -1.9892226658263148 -1.5425532499896448 1.3497555255889893 False False
18418.76 3.676769256591797 -0.9805082243731995 1.3036358992206019 -1.989178319970602 -1.542621914540426 1.3497264385223389 False False
18418.78 3.676706552505493 -0.9805438083461304 1.3035910765277308 -1.989206453362936 -1.5425689856158655 1.3497436046600342 True False
18418.8 3.676748514175415 -0.980522946720459 1.3036029974566858 -1.9892665348448695 -1.5425408522235315 1.3498042821884155 True False
18418.82 3.67673659324646 -0.9804856938174744 1.3036239782916468 -1.9892622433104457 -1.5426014105426233 1.3497717380523682 True False
18418.84 3.676764965057373 -0.9805587095073243 1.303586784993307 -1.989206453362936 -1.5425413290606897 1.349718689918518 True False
18418.86 3.6767303943634033 -0.980564610367157 1.3036444822894495 -1.989202161828512 -1.5425570646869105 1.3497631549835205 True False
18418.879999999997 3.676757335662842 -0.9805348676494141 1.3036239782916468 -1.9892784557738246 -1.5425971190081995 1.3497393131256104 True False
18418.899999999998 3.6767737865448 -0.980513946419098 1.3036001364337366 -1.9891907177367152 -1.5426338354693812 1.3497674465179443 True False
18418.92 3.676708221435547 -0.9805184167674561 1.3036077658282679 -1.989206453362936 -1.542605225239889 1.3497512340545654 True False
18418.94 3.676757335662842 -0.9805184763721009 1.3036535421954554 -1.9892102680602015 -1.5425813833819788 1.3497339487075806 True False
18418.96 3.6766912937164307 -0.9805065554431458 1.303586784993307 -1.9892102680602015 -1.5426257292376917 1.3497761487960815 True False
18418.98 3.676743984222412 -0.9805482190898438 1.3036249319659632 -1.9892102680602015 -1.5425856749164026 1.3497912883758545 True False
18419.0 3.676715612411499 -0.9804811638644715 1.3036444822894495 -1.989190240899557 -1.542633358632223 1.3497588634490967 True False
18419.02 3.676741123199463 -0.9805692595294495 1.303603474293844 -1.9891978702940882 -1.5426095167743128 1.3497912883758545 True False
18419.04 3.67676043510437 -0.9804857534221192 1.3035839239703577 -1.989150186578268 -1.542560879384176 1.3497264385223389 True False
18419.059999999998 3.676699161529541 -0.9805184763721009 1.3036001364337366 -1.9891864262022914 -1.5426176230060022 1.3497458696365356 True False
18419.079999999998 3.6767513751983643 -0.9805274170688172 1.3036444822894495 -1.9892307720580042 -1.5426095167743128 1.3497512340545654 True False
18419.1 3.676727533340454 -0.9805795711329957 1.3036697546588343 -1.9892460308470667 -1.5425971190081995 1.3498085737228394 True False
18419.12 3.676723003387451 -0.9805021446994324 1.3036444822894495 -1.9892345867552699 -1.5425651709186 1.3497998714447021 True False
18419.14 3.676743984222412 -0.9805274170688172 1.3036120573626917 -1.9892426929869593 -1.542605225239889 1.3497717380523682 True False
18419.16 3.6767349243164062 -0.9804856938174744 1.3036163488971155 -1.9891745052733363 -1.5426133314715784 1.3496794700622559 True False
18419.18 3.676793336868286 -0.9805482786944886 1.3036368528949183 -1.989190240899557 -1.5425689856158655 1.349736213684082 True False
18419.2 3.676739454269409 -0.980530397301056 1.3036368528949183 -1.9891826115050257 -1.5426095167743128 1.3497273921966553 True False
18419.219999999998 3.676727771759033 -0.9805318278125306 1.3036282698260706 -1.98925842861318 -1.5425732771502894 1.3497350215911865 True False
18419.239999999998 3.6767141819000244 -0.9805021446994324 1.3036077658282679 -1.9891945324339808 -1.542617146168844 1.3497750759124756 True False
18419.26 3.676802396774292 -0.9805765909007569 1.3036358992206019 -1.9892784557738246 -1.5426414648639124 1.3497631549835205 True False
18419.28 3.676769256591797 -0.9805348080447693 1.3036001364337366 -1.9892264805235804 -1.542605225239889 1.3497469425201416 True False
18419.3 3.676788806915283 -0.9804686468890687 1.30357534090151 -1.9892426929869593 -1.5426176230060022 1.3497512340545654 True False
18419.32 3.676776647567749 -0.9805437487414856 1.3036282698260706 -1.9892546139159144 -1.5426338354693812 1.3497955799102783 True False
18419.34 3.676772356033325 -0.9805184763721009 1.303619686757223 -1.9891983471312464 -1.5425565878497522 1.3497827053070068 True False
18419.36 3.677009344100952 -0.9806040686419983 1.3036721388446253 -1.9892384014525355 -1.5426014105426233 1.3503221273422241 True False
18419.379999999997 3.677583932876587 -0.9808312815478821 1.3038528601275843 -1.9891544781126917 -1.54258901277651 1.3512508869171143 True False
18419.399999999998 3.6785664558410645 -0.9811302584460755 1.3041585127459925 -1.9890748463072718 -1.5426533857928675 1.3527116775512695 True False
18419.42 3.6797003746032715 -0.9815066617778321 1.3044431845294397 -1.988955637017721 -1.5426090399371546 1.3548672199249268 True False
18419.44 3.681359052658081 -0.9820673030665894 1.3050153891192835 -1.9887439213194789 -1.5426977316485804 1.3575648069381714 True False
18419.46 3.6834404468536377 -0.9827555578998108 1.3057478109942835 -1.988516469995016 -1.5427611509906214 1.3607783317565918 True False
18419.48 3.6856727600097656 -0.9835401338389893 1.3065555731402796 -1.9882809124388636 -1.5428174177752894 1.3645797967910767 True False
18419.5 3.688184976577759 -0.9845210474780579 1.307422939931051 -1.9881345234312953 -1.542844597493307 1.3688302040100098 True False
18419.52 3.691075086593628 -0.9855961364558716 1.3084314505206507 -1.9878431759276332 -1.5429485479937952 1.373790979385376 True False
18419.54 3.694357395172119 -0.9867466253093262 1.3096039930926722 -1.9874965153136195 -1.5430124441729944 1.3791956901550293 True False
18419.559999999998 3.6980013847351074 -0.9880948823741456 1.310878101979391 -1.9871045551695765 -1.543145004902975 1.3852729797363281 True False
18419.579999999998 3.701902389526367 -0.9895602625659485 1.3122709433185022 -1.9867459736266078 -1.5432527701007288 1.391783595085144 True False
18419.6 3.706228256225586 -0.9911657136729737 1.3137496153460901 -1.9863721332945765 -1.5433924833880823 1.399006962776184 True False
18419.62 3.7108492851257324 -0.9927796286395569 1.3153088728534144 -1.9858128033080042 -1.5434840361224573 1.4067076444625854 True False
18419.64 3.7157845497131348 -0.994425968532898 1.317031208668844 -1.9852625332274378 -1.5435636679278772 1.41495680809021 True False
18419.66 3.7209479808807373 -0.9963717025569458 1.3189323584186 -1.9846841297545375 -1.5437358061419886 1.4237622022628784 True False
18419.68 3.726527690887451 -0.9983778160861512 1.320876423512594 -1.98415007213735 -1.5438435713397425 1.4330838918685913 True False
18419.7 3.7325222492218018 -1.0005605977824708 1.3228305021869105 -1.9836074314513148 -1.543999497090475 1.4430463314056396 True False
18419.719999999998 3.738853693008423 -1.0028531712344666 1.3249738852130335 -1.9830252132811488 -1.5442279020892542 1.4534220695495605 True False
18419.739999999998 3.745476722717285 -1.0052409929088135 1.3271802107440394 -1.982347150842184 -1.5443275610553187 1.4645816087722778 True False
18419.76 3.7523815631866455 -1.0077177447131653 1.3295477072345179 -1.981657167474264 -1.5444629828082483 1.4761689901351929 True False
18419.78 3.759596347808838 -1.0102979105762024 1.3319461981402796 -1.9809957943358363 -1.5447586218463343 1.488362193107605 True False
18419.8 3.767233371734619 -1.013119952087738 1.3346460501300257 -1.9801627598204554 -1.544870678578512 1.5011228322982788 True False
18419.82 3.775336265563965 -1.0157839220813294 1.3374245802508753 -1.9793487987914027 -1.5449860731707972 1.514278769493103 True False
18419.84 3.783500909805298 -1.0188416999629517 1.3401911894427698 -1.978567739526266 -1.545262638722555 1.5281565189361572 True False
18419.86 3.7919352054595947 -1.0219009083560486 1.3430951277362269 -1.9775730572142542 -1.545633618031637 1.5425615310668945 True False
18419.879999999997 3.8009819984436035 -1.0250604909709473 1.3462145964251917 -1.976724763909811 -1.5457375685321253 1.5574917793273926 True False
18419.899999999998 3.8104851245880127 -1.0284440082362671 1.3495500723468226 -1.9757715664305628 -1.5458019415484827 1.5729286670684814 True False
18419.92 3.819943904876709 -1.0318969649127503 1.3528321425067347 -1.9748579464354457 -1.5461767355548304 1.5891002416610718 True False
18419.94 3.8296539783477783 -1.0354295533946534 1.3561461607562464 -1.9738851986327113 -1.546607796345846 1.6057125329971313 True False
18419.96 3.8401949405670166 -1.039094166164734 1.3595722357379358 -1.9728929005064906 -1.5466321150409144 1.6229666471481323 True False
18419.98 3.8508894443511963 -1.0429821771434327 1.363239590321676 -1.971691747704977 -1.5468962828265589 1.6405155658721924 True False
18420.0 3.861560344696045 -1.0467492502978821 1.3670695463763636 -1.970544000665182 -1.547375504170553 1.659027099609375 True False
18420.02 3.872972249984741 -1.0508320492557068 1.3709600607501429 -1.9694591961302699 -1.547518555318014 1.6778324842453003 True False
18420.04 3.884669542312622 -1.0550772708705445 1.3749068419085901 -1.968358655969137 -1.5476868788348597 1.6973081827163696 True False
18420.059999999998 3.896425485610962 -1.059434787636139 1.3789857069598597 -1.967170854608053 -1.5481661001788538 1.7172789573669434 True False
18420.079999999998 3.9088125228881836 -1.0638743203929444 1.3833406607257288 -1.965926309625143 -1.5483382383929651 1.7377619743347168 True False
18420.1 3.9213993549346924 -1.0682830971530457 1.387749497090475 -1.964654108087057 -1.5486376921283167 1.7586760520935059 True False
18420.12 3.9338834285736084 -1.0728136164001008 1.3918746153460901 -1.9633218250670375 -1.5490410963641565 1.7795354127883911 True False
18420.14 3.9463305473327637 -1.0772350591472168 1.396029297505514 -1.9621740780272425 -1.5493090788470667 1.8005619049072266 True False
18420.16 3.958832263946533 -1.0817232888988038 1.4003928343402308 -1.9608856640257777 -1.5496881643878382 1.8215447664260864 True False
18420.18 3.971414089202881 -1.0862759512713929 1.404628101979391 -1.9595815143980921 -1.5499513784991663 1.8424454927444458 True False
18420.2 3.984013319015503 -1.0907463890365143 1.4088900724994105 -1.9584289989867152 -1.5502913633929651 1.8633873462677002 True False
18420.219999999998 3.9965734481811523 -1.0952691596797486 1.4133408705340784 -1.9570538006224574 -1.5506671110736292 1.8843656778335571 True False
18420.239999999998 4.009018898010254 -1.0997367066195984 1.4177082220660608 -1.955757280389303 -1.5509074370013636 1.905274748802185 True False
18420.26 4.021513938903809 -1.104161576633789 1.4218757788287562 -1.9545570812621058 -1.5512941519366663 1.926200270652771 True False
18420.28 4.034151077270508 -1.1086940926364441 1.4261215368853968 -1.9533564052977503 -1.5515578428851526 1.9472250938415527 True False
18420.3 4.046634674072266 -1.1132710439017792 1.430436913167135 -1.9520565472044886 -1.5518577734576624 1.9680423736572266 True False
18420.32 4.059121608734131 -1.117800073032715 1.4347570578204554 -1.9508243999876917 -1.5522454420672815 1.989001989364624 True False
18420.34 4.071635723114014 -1.1222541195205231 1.4390609900103968 -1.9495049915709437 -1.552396599446432 2.0100603103637695 True False
18420.36 4.084171295166016 -1.126804606323578 1.4433844725238245 -1.9482647381224574 -1.5528400580035608 2.0308916568756104 True False
18420.379999999997 4.096731662750244 -1.1312715274146576 1.4478228727923792 -1.947108884850973 -1.553103272114889 2.051874876022339 True False
18420.399999999998 4.109313488006592 -1.1356280905059357 1.4520581404315394 -1.9457727871336878 -1.553427521382467 2.072824239730835 True False
18420.42 4.121808052062988 -1.1401539009860535 1.4562018553363245 -1.9445520840086878 -1.5537670294391077 2.0937492847442627 True False
18420.44 4.134239196777344 -1.1447140139392395 1.4604700247394007 -1.9432202778258265 -1.554030720387594 2.11470365524292 True False
18420.46 4.146756649017334 -1.149205968981125 1.4648092428790491 -1.9419247112669886 -1.5544422308551233 2.1357409954071045 True False
18420.48 4.159422874450684 -1.1536961954883118 1.4690497557269495 -1.9406639538206996 -1.5546577612506312 2.156625747680664 True False
18420.5 4.171966552734375 -1.158307747249939 1.4734013716327112 -1.939523836175436 -1.5549734274493616 2.177523136138916 True False
18420.52 4.184396266937256 -1.162709729080536 1.4778054396258753 -1.9382034740843714 -1.5553248564349573 2.198582887649536 True False
18420.54 4.196924686431885 -1.1671706301024933 1.482178036366598 -1.936906477014059 -1.5555046240436 2.2194230556488037 True False
18420.559999999998 4.209465980529785 -1.1716122788241883 1.486354176198141 -1.9356171093382777 -1.555960480366842 2.240312337875366 True False
18420.579999999998 4.221989631652832 -1.1761386853507538 1.4905946890460413 -1.9343916378416957 -1.5562718550311487 2.2614102363586426 True False
18420.6 4.234505653381348 -1.180669144993164 1.4949105421649378 -1.9331857166686 -1.556579891835348 2.2822866439819336 True False
18420.62 4.247023582458496 -1.185128466492035 1.4991009871112269 -1.9318849049010218 -1.5569313208209437 2.303217887878418 True False
18420.64 4.259615898132324 -1.1896708470634003 1.5034154097186487 -1.9306799374022425 -1.557166878377096 2.324260950088501 True False
18420.66 4.272032737731934 -1.1941737991622468 1.5078533331500452 -1.9294187031187953 -1.5576427618609827 2.345109224319458 True False
18420.68 4.284669399261475 -1.1985195142081757 1.5121877829181116 -1.92802157024526 -1.5577896277057093 2.365964412689209 True False
18420.7 4.29724645614624 -1.2030374270728608 1.516507927571432 -1.9268323383727015 -1.5581091086017054 2.38706111907959 True False
18420.719999999998 4.309648513793945 -1.2076331836036225 1.5205829779254358 -1.9256779156126917 -1.5585368315326136 2.407963275909424 True False
18420.739999999998 4.322258472442627 -1.212188647394516 1.5249183813678187 -1.9243890247740687 -1.5586965719806116 2.4288299083709717 True False
18420.76 4.334747314453125 -1.2165339154056092 1.5292452017413538 -1.9231039486327113 -1.5591047445880335 2.4499189853668213 True False
18420.78 4.347265720367432 -1.2210690540126343 1.5335009733783167 -1.921678205529684 -1.5594070593463343 2.470825672149658 True False
18420.8 4.359776496887207 -1.225597695713379 1.5379546324359339 -1.9205132923521937 -1.559711758290426 2.491656541824341 True False
18420.82 4.372323513031006 -1.2300357979587098 1.5423033873187464 -1.919396539727682 -1.5600670019732874 2.5127649307250977 True False
18420.84 4.384827136993408 -1.2344837945750733 1.5465973059283655 -1.918042322198385 -1.5603273550616663 2.533578872680664 True False
18420.86 4.3974175453186035 -1.2390297812274476 1.5506866613971155 -1.9168693027892054 -1.5606897513019007 2.5544581413269043 True False
18420.879999999997 4.409940242767334 -1.2436717313579102 1.5549662748919886 -1.9155947170653285 -1.5609777609454554 2.5755677223205566 True False
18420.899999999998 4.422435760498047 -1.2481594246676941 1.559303108845846 -1.9141222439207972 -1.5613372961627405 2.5964150428771973 True False
18420.92 4.434980392456055 -1.252516822223999 1.563629452382223 -1.912999769250387 -1.5616329352008265 2.617326498031616 True False
18420.94 4.447543621063232 -1.257143036728241 1.5679834524737757 -1.9118114910521449 -1.5618441740619105 2.638349771499634 True False
18420.96 4.459941864013672 -1.2615545254996796 1.5723279158221644 -1.9105774364867152 -1.5622161070453089 2.659310817718506 True False
18420.98 4.472540855407715 -1.2659585934928437 1.5767129103290003 -1.9091960392394007 -1.562472168599264 2.6801674365997314 True False
18421.0 4.485101222991943 -1.270504669552185 1.5808289686786097 -1.9078875980772914 -1.5627835432635706 2.7011187076568604 True False
18421.02 4.497640132904053 -1.2750662130168458 1.585057560597555 -1.9067617855467738 -1.5631745497332972 2.7221169471740723 True False
18421.04 4.5101728439331055 -1.2795634728721161 1.5893891493426722 -1.9054724178709925 -1.56346303621401 2.74302339553833 True False
18421.059999999998 4.522671699523926 -1.2839936178973694 1.5937460104571741 -1.904123445550436 -1.563850227986471 2.764068841934204 True False
18421.079999999998 4.535165309906006 -1.2885593634894867 1.5980270544635218 -1.9030338726439417 -1.56407338777651 2.784975528717041 True False
18421.1 4.5477375984191895 -1.2930359703353425 1.6023662726031702 -1.9016605816283167 -1.564409081135885 2.805790901184082 True False
18421.12 4.56031608581543 -1.2974424821189423 1.6067770163165491 -1.9002844295897425 -1.5647929350482386 2.8268513679504395 True False
18421.14 4.572710037231445 -1.301951841717102 1.6109588781939905 -1.8991943798460902 -1.56498891512026 2.8477487564086914 True False
18421.16 4.5849103927612305 -1.306425319319107 1.6149962584124964 -1.8979641399779261 -1.5654404799090784 2.8681013584136963 True False
18421.18 4.596941947937012 -1.310773180132248 1.619087044392721 -1.8968516788878382 -1.5656393210040491 2.8880064487457275 True False
18421.2 4.6083455085754395 -1.3147807580283661 1.6230962912188929 -1.8954979381956996 -1.5659073034869593 2.90729022026062 True False
18421.219999999998 4.619553565979004 -1.318830208187439 1.62689716020693 -1.8943807087340296 -1.5663469473468226 2.9260072708129883 True False
18421.239999999998 4.630565166473389 -1.3227844101241608 1.6306951681720179 -1.8932868442931117 -1.5664146582232874 2.944322347640991 True False
18421.26 4.640987873077393 -1.3264916998199006 1.6344216505633753 -1.892256876031393 -1.5667946974383753 2.961805582046509 True False
18421.28 4.651259899139404 -1.3300609600595017 1.6379879156695765 -1.8913194141783656 -1.5670135656939905 2.9790468215942383 True False
18421.3 4.661277770996094 -1.3337240678123017 1.641315762196676 -1.8902126751341761 -1.5671852270709437 2.9954071044921875 True False
18421.32 4.670601844787598 -1.3371240359595795 1.6443951765643519 -1.8894311390318812 -1.5675328413592737 3.0114426612854004 True False
18421.34 4.679856300354004 -1.3404796582511445 1.6476357618915003 -1.8884293041624964 -1.5677970091449183 3.0267064571380615 True False
18421.36 4.688892841339111 -1.3436492097428818 1.6507628599749964 -1.8874036274352015 -1.5678680578814905 3.0417661666870117 True False
18421.379999999997 4.697315216064453 -1.3466732513955613 1.6536462942706507 -1.886569162408346 -1.5682204405414026 3.055881977081299 True False
18421.399999999998 4.705415725708008 -1.3496457946351548 1.6562908331500452 -1.8858472309508265 -1.5684321562396448 3.069789171218872 True False
18421.42 4.71354866027832 -1.3525267255357285 1.659112278615133 -1.8850733242430628 -1.5685041586505335 3.08259916305542 True False
18421.44 4.720992088317871 -1.355086014871933 1.661825958882467 -1.8842302761473597 -1.5687559286700647 3.0954737663269043 True False
18421.46 4.728044509887695 -1.357699306016304 1.6642854849444788 -1.883592268029684 -1.5689352194415491 3.1075336933135986 True False
18421.48 4.735067844390869 -1.360234485273697 1.666650120412008 -1.882897516290182 -1.5690954367267054 3.1189944744110107 True False
18421.5 4.741621494293213 -1.362543062572815 1.6689022223102015 -1.8822432957091273 -1.569247070943014 3.1300034523010254 True False
18421.52 4.747777462005615 -1.3647684019855042 1.670926872883932 -1.881545206109518 -1.5694549719439905 3.1402862071990967 True False
18421.54 4.753649711608887 -1.366928682928421 1.6728704611407679 -1.8808886013426722 -1.569526497517721 3.1500134468078613 True False
18421.559999999998 4.75913667678833 -1.368937538271286 1.6748116652118128 -1.8803593120970667 -1.5696986357318323 3.1594371795654297 True False
18421.579999999998 4.7643656730651855 -1.3707606357387085 1.6766093412982386 -1.8799449406065882 -1.569874111806051 3.1681439876556396 True False
18421.6 4.769288539886475 -1.3724982303432007 1.678246800099508 -1.8794661960997523 -1.5698936621295374 3.176109552383423 True False
18421.62 4.7737956047058105 -1.3740773361972352 1.6798723379718226 -1.8789783916869105 -1.570090119038717 3.183805227279663 True False
18421.64 4.77806282043457 -1.3756662470153351 1.6812871138202112 -1.8785225353636683 -1.5701616446124476 3.190830707550049 True False
18421.66 4.781829833984375 -1.3770395678332825 1.6826017538653772 -1.878216405908102 -1.5702293554889124 3.1973226070404053 True False
18421.68 4.785325050354004 -1.3782064479640503 1.6837738196002405 -1.8778449497618617 -1.5703290144549769 3.2031071186065674 True False
18421.7 4.788495063781738 -1.3794086885503312 1.68486196199526 -1.8774367771544398 -1.570409123097555 3.2084383964538574 True False
18421.719999999998 4.791509628295898 -1.380447508101799 1.6859591642962855 -1.8771940670409144 -1.5705378691302698 3.213329315185547 True False
18421.739999999998 4.794000148773193 -1.3813430231860657 1.6868403593646448 -1.8769265613951625 -1.570573631917135 3.2175867557525635 True False
18421.76 4.796205043792725 -1.3821430963328858 1.6876314322101038 -1.8767434559264125 -1.5706127325641077 3.221209764480591 True False
18421.78 4.798111438751221 -1.3828015190413971 1.6881712118731897 -1.8765846691527308 -1.5706771055804651 3.2243945598602295 True False
18421.8 4.799574851989746 -1.3833951515010376 1.6887190977679651 -1.876366754571432 -1.5707247892962855 3.226911783218384 True False
18421.82 4.8007612228393555 -1.3837881994298478 1.6891172567950647 -1.8763319454588832 -1.5707443396197718 3.228870153427124 True False
18421.84 4.801651954650879 -1.3840432477048417 1.6893718878375452 -1.8762084446349085 -1.5708091894732874 3.2303264141082764 True False
18421.86 4.802184581756592 -1.384272651081421 1.6895044485675257 -1.8761855564513148 -1.5707929770099085 3.2312300205230713 True False
18421.879999999997 4.802375793457031 -1.3842848104289551 1.689570728932516 -1.876169343987936 -1.5707929770099085 3.2315077781677246 True False
18421.899999999998 4.802271366119385 -1.3842485708049317 1.6898205916034144 -1.8763805828490199 -1.5708087126361292 3.231499195098877 True False
18421.92 4.802237510681152 -1.384058029656746 1.690322224293844 -1.8768707714476527 -1.5707967917071741 3.2314839363098145 True False
18421.94 4.802262783050537 -1.3835888665965577 1.69127065340151 -1.8783251247801722 -1.5708373228656214 3.2315282821655273 True False
18421.96 4.802201271057129 -1.3829425138286133 1.692411247883932 -1.8802978001036585 -1.5707925001727503 3.2315001487731934 True False
18421.98 4.802310466766357 -1.3819728803685685 1.6940696875201624 -1.8828479252257289 -1.5708211104022425 3.231536865234375 True False
18422.0 4.802278995513916 -1.380900801425316 1.6959870497332972 -1.885817667047018 -1.570853058491842 3.231527328491211 True False
18422.02 4.802323341369629 -1.3795196574977417 1.698343578969137 -1.889470716516012 -1.5708368460284632 3.2314915657043457 True False
18422.04 4.8023600578308105 -1.3779922437718888 1.7008479277240198 -1.8935901127257289 -1.570813004170553 3.2315683364868164 True False
18422.059999999998 4.802282333374023 -1.376240850692131 1.7037695089923304 -1.898417135278219 -1.5707925001727503 3.2315597534179688 True False
18422.079999999998 4.8023600578308105 -1.3743502360633393 1.707015339528219 -1.9036418400206507 -1.5708368460284632 3.2315316200256348 True False
18422.1 4.8023176193237305 -1.3721223783544083 1.710728947316305 -1.9094826183714808 -1.5708368460284632 3.231515407562256 True False
18422.12 4.802342891693115 -1.3697670561126252 1.7147834936725062 -1.915715833703512 -1.5708254019366663 3.2315521240234375 True False
18422.14 4.802305698394775 -1.367194266324379 1.7190621534930628 -1.9226628742613734 -1.570813004170553 3.231522798538208 True False
18422.16 4.802338600158691 -1.3645569545081635 1.7238581816302698 -1.930206914941305 -1.5708006064044397 3.231522798538208 True False
18422.18 4.802347660064697 -1.3615167301944275 1.7291629950152796 -1.9383703670897425 -1.570801083241598 3.231522798538208 True False
18422.2 4.802334308624268 -1.3583306682160874 1.7347272078143519 -1.946859975854391 -1.5708254019366663 3.2315683364868164 True False
18422.219999999998 4.802383899688721 -1.3550349932960053 1.7403348127948206 -1.9561592541136683 -1.5707886854754847 3.2315640449523926 True False
18422.239999999998 4.802297115325928 -1.351487935786583 1.7463062445269983 -1.9658457241454066 -1.5708044211017054 3.2315316200256348 True False
18422.26 4.802346706390381 -1.3475328993848343 1.7528951803790491 -1.9760543308653773 -1.570784870778219 3.231518507003784 True False
18422.28 4.802338600158691 -1.3435268265059968 1.759946648274557 -1.9868370495238246 -1.5708006064044397 3.231576681137085 True False
18422.3 4.802366733551025 -1.3393695217422028 1.767106835042135 -1.99823059658193 -1.5707529226886194 3.231522798538208 True False
18422.32 4.802338600158691 -1.335427151327469 1.773742977772848 -2.008989473382467 -1.5707443396197718 3.231567859649658 True False
18422.34 4.802334308624268 -1.3318016839078446 1.7801502386676233 -2.0194999180235804 -1.5707529226886194 3.2315239906311035 True False
18422.36 4.802351951599121 -1.328172655110695 1.7864001433001917 -2.029083391229147 -1.5707925001727503 3.2315726280212402 True False
18422.379999999997 4.802343368530273 -1.3248313975385209 1.7924545446978968 -2.038236280480856 -1.5708087126361292 3.23154354095459 True False
18422.399999999998 4.802380084991455 -1.3215921980193635 1.7978118101703089 -2.0468951664366664 -1.5707529226886194 3.2315597534179688 True False
18422.42 4.802305698394775 -1.3186884683421631 1.8026674429522913 -2.0549918613829554 -1.5707529226886194 3.231550931930542 True False
18422.44 4.802375793457031 -1.3158942621997376 1.8074591795550745 -2.062498231927389 -1.5708211104022425 3.231527328491211 True False
18422.46 4.8023600578308105 -1.313241795902588 1.8119314352618616 -2.0694133243956507 -1.5707925001727503 3.2315316200256348 True False
18422.48 4.802292346954346 -1.3109173637679596 1.815995995198385 -2.075845857659811 -1.5707929770099085 3.2315683364868164 True False
18422.5 4.8023176193237305 -1.3088252407363434 1.8196542898761194 -2.081669946710104 -1.570784870778219 3.23149037361145 True False
18422.52 4.8024001121521 -1.3068282765201111 1.8231952826129358 -2.0869609318175257 -1.5707605520831507 3.231580972671509 True False
18422.54 4.802379131317139 -1.3051888805678864 1.8262017408954065 -2.091734548608297 -1.570801083241598 3.2315478324890137 True False
18422.559999999998 4.802383899688721 -1.3037006717971344 1.828606430684225 -2.0958477459349574 -1.5707529226886194 3.2315564155578613 True False
18422.579999999998 4.802375793457031 -1.3023931843093415 1.8308737913714808 -2.099424024621481 -1.5707967917071741 3.2315521240234375 True False
18422.6 4.802337646484375 -1.3011887830546875 1.8329227606402796 -2.1023394070067347 -1.5707891623126429 3.2315597534179688 True False
18422.62 4.802392482757568 -1.3002639573863526 1.8344009558307093 -2.104997297326559 -1.5708087126361292 3.2315402030944824 True False
18422.64 4.802334308624268 -1.2995991271785279 1.8355243841754358 -2.1068855724730433 -1.5707724730121058 3.2315726280212402 True False
18422.66 4.802338600158691 -1.29913683355365 1.8364594618426722 -2.108131547967428 -1.570784870778219 3.2315478324890137 True False
18422.68 4.802346706390381 -1.2987202864936371 1.8370354811297815 -2.108910699883932 -1.5707724730121058 3.2315359115600586 True False
18422.7 4.802404403686523 -1.2987381380847474 1.8371666113482874 -2.1092683277525843 -1.5707925001727503 3.231572151184082 True False
18422.719999999998 4.8023552894592285 -1.2987322074225922 1.837139908467428 -2.1092645130553187 -1.5707886854754847 3.231499195098877 True False
18422.739999999998 4.802395820617676 -1.2987589103034516 1.8372152487384241 -2.1092287502684535 -1.570784870778219 3.2315402030944824 True False
18422.76 4.802346706390381 -1.2988108557513733 1.8371880690204065 -2.1092282734312953 -1.5707967917071741 3.2315196990966797 True False
18422.78 4.802375793457031 -1.2986944776824494 1.8371556440936487 -2.1092683277525843 -1.5707486311541956 3.2315521240234375 True False
18422.8 4.8023600578308105 -1.2987677317908783 1.8372233549701136 -2.1092645130553187 -1.5707767645465296 3.2315359115600586 True False
18422.82 4.802334308624268 -1.2987203162959595 1.8371880690204065 -2.1093083820738734 -1.5708087126361292 3.23154354095459 True False
18422.84 4.802313327789307 -1.2986675065806885 1.8371995131122034 -2.1092645130553187 -1.5707767645465296 3.231515407562256 True False
18422.86 4.802374839782715 -1.2987544995597382 1.8372038046466272 -2.1092807255186976 -1.570784870778219 3.2315402030944824 True False
18422.879999999997 4.802326679229736 -1.298721120958664 1.8371208349811 -2.109203954736227 -1.5707843939410608 3.23154354095459 True False
18422.899999999998 4.8023295402526855 -1.2986928981593628 1.8371995131122034 -2.1092969379820765 -1.5708168188678187 3.2315521240234375 True False
18422.92 4.802367210388184 -1.2986853879741211 1.837191406880514 -2.109232564965719 -1.5708044211017054 3.2315478324890137 True False
18422.94 4.802375793457031 -1.2986483436873932 1.8371785322772425 -2.1093484363951625 -1.5708048979388636 3.2314915657043457 True False
18422.96 4.802310466766357 -1.2987136107734223 1.8372109572040003 -2.10924830059194 -1.5707805792437952 3.2315196990966797 True False
18422.98 4.802379131317139 -1.2987255615046998 1.8372152487384241 -2.109220167199606 -1.5708211104022425 3.2315478324890137 True False
18423.0 4.802338600158691 -1.2986512941173096 1.837236229573385 -2.1092969379820765 -1.5708044211017054 3.2315359115600586 True False
18423.02 4.802404880523682 -1.298713670378067 1.837236229573385 -2.1092645130553187 -1.5707805792437952 3.2315728664398193 True False
18423.04 4.8024001121521 -1.2987343829921265 1.8371742407428187 -2.1092645130553187 -1.5707605520831507 3.231527328491211 True False
18423.059999999998 4.8023552894592285 -1.2986973089030762 1.8371384779559534 -2.1092845402159632 -1.5707843939410608 3.231580972671509 True False
18423.079999999998 4.8023176193237305 -1.298694209461548 1.8372405211078089 -2.109276433984274 -1.5708487669574183 3.2315521240234375 True False
18423.1 4.802380561828613 -1.2986853879741211 1.837236229573385 -2.109244485894674 -1.570801083241598 3.231555223464966 True False
18423.12 4.8023600578308105 -1.2987061005881806 1.8371995131122034 -2.109293123284811 -1.570784870778219 3.2315077781677246 True False
18423.14 4.802350997924805 -1.2987047892859955 1.8372238318072718 -2.1092969379820765 -1.5707767645465296 3.231515407562256 True False
18423.16 4.802366733551025 -1.2987343829921265 1.8372152487384241 -2.109276433984274 -1.5707967917071741 3.23154878616333 True False
18423.18 4.802338600158691 -1.2987475556186219 1.8371580282794397 -2.1092807255186976 -1.5707610289203089 3.2316060066223145 True False
18423.2 4.802371501922607 -1.2986897987178345 1.8372481505023401 -2.1092521152892054 -1.5707686583148401 3.231576919555664 True False
18423.219999999998 4.8023552894592285 -1.29872681320224 1.8372395674334925 -2.109305044213766 -1.5708168188678187 3.2315316200256348 True False
18423.239999999998 4.802321910858154 -1.298660234814026 1.8371742407428187 -2.109288831750387 -1.5707886854754847 3.2315564155578613 True False
18423.26 4.80239725112915 -1.2987136405757447 1.8372481505023401 -2.109316965142721 -1.570829216633932 3.23149037361145 True False
18423.28 4.802375793457031 -1.2987211507609864 1.8372190634356897 -2.109272619287008 -1.5707891623126429 3.231499195098877 True False
18423.3 4.802346706390381 -1.2987211507609864 1.8371995131122034 -2.109260221520895 -1.5707891623126429 3.231499195098877 True False
18423.32 4.802334308624268 -1.298660234814026 1.8372066656695765 -2.109244485894674 -1.570813004170553 3.231580972671509 True False
18423.34 4.802287578582764 -1.2986809772304078 1.8371871153460901 -2.1093012295165003 -1.5707362333880823 3.231577157974243 True False
18423.36 4.802340030670166 -1.298673467045166 1.8372319380389612 -2.109260221520895 -1.5708168188678187 3.2316091060638428 True False
18423.379999999997 4.8023881912231445 -1.2986853879741211 1.8372023741351526 -2.1092645130553187 -1.570784870778219 3.2315640449523926 True False
18423.399999999998 4.802341938018799 -1.2986571055701752 1.8372276465045374 -2.1092807255186976 -1.5707686583148401 3.2315478324890137 True False
18423.42 4.8023600578308105 -1.2986364525607605 1.8372352758990687 -2.1092683277525843 -1.5707805792437952 3.2315564155578613 True False
18423.44 4.802334308624268 -1.298704819088318 1.8372319380389612 -2.109288831750387 -1.570813004170553 3.2315444946289062 True False
18423.46 4.802362442016602 -1.298660324220993 1.837219540272848 -2.109276433984274 -1.5708087126361292 3.2315359115600586 True False
18423.48 4.802362442016602 -1.2987179917148133 1.837186638508932 -2.1092645130553187 -1.5708335081683558 3.231572151184082 True False
18423.5 4.802346706390381 -1.2987060707858582 1.8372038046466272 -2.1092845402159632 -1.5707805792437952 3.231511116027832 True False
18423.52 4.802353382110596 -1.2986853879741211 1.8372319380389612 -2.1092564068236292 -1.5707767645465296 3.231560707092285 True False
18423.54 4.802383899688721 -1.2987224024585267 1.837214771901266 -2.109300275842184 -1.5708416144000452 3.231539011001587 True False
18423.559999999998 4.802351951599121 -1.298664705162384 1.8372319380389612 -2.109316965142721 -1.5707371870623987 3.231546640396118 True False
18423.579999999998 4.802371501922607 -1.2987060707858582 1.837264362965719 -2.10927214244985 -1.5707481543170374 3.2315597534179688 True False
18423.6 4.802350997924805 -1.2986513537219544 1.8372109572040003 -2.10924830059194 -1.5708335081683558 3.23154354095459 True False
18423.62 4.802341938018799 -1.2986350518516083 1.8372152487384241 -2.109293123284811 -1.5708254019366663 3.2316091060638428 True False
18423.64 4.802346706390381 -1.2987136107734223 1.8372319380389612 -2.1092807255186976 -1.5708168188678187 3.231539011001587 True False
18423.66 4.802313327789307 -1.2987512809089203 1.8371623198138636 -2.1092845402159632 -1.5708254019366663 3.2315635681152344 True False
18423.68 4.802379131317139 -1.298652784233429 1.8372352758990687 -2.1093012295165003 -1.5708449522601526 3.231576681137085 True False
18423.7 4.802412033081055 -1.2986885470202942 1.8371742407428187 -2.1093322239317835 -1.5707767645465296 3.231580972671509 True False
18423.719999999998 4.802380561828613 -1.298651472931244 1.8372066656695765 -2.109260221520895 -1.5707767645465296 3.23154354095459 True False
18423.739999999998 4.802379131317139 -1.2986766260913392 1.8372109572040003 -2.109312673608297 -1.5708449522601526 3.231588363647461 True False
18423.76 4.802334308624268 -1.2986558836749573 1.8372600714312952 -2.109344621697897 -1.5707967917071741 3.2314934730529785 True False
18423.78 4.802310466766357 -1.2986321312240143 1.8372190634356897 -2.1093083820738734 -1.5707772413836878 3.231572151184082 True False
18423.8 4.802346706390381 -1.298675314789154 1.8371871153460901 -2.1092807255186976 -1.5708044211017054 3.2315852642059326 True False
18423.82 4.802347660064697 -1.2986810070327302 1.8371952215777796 -2.1092807255186976 -1.5707886854754847 3.23154354095459 True False
18423.84 4.802301406860352 -1.2986722749522706 1.8371952215777796 -2.109316488305563 -1.5707967917071741 3.231567859649658 True False
18423.86 4.802341938018799 -1.298729882841446 1.8372276465045374 -2.1092683277525843 -1.5707967917071741 3.231511116027832 True False
18423.879999999997 4.8023600578308105 -1.2986734968474885 1.8372605482684534 -2.1092401943602503 -1.5708335081683558 3.23154354095459 True False
18423.899999999998 4.802374839782715 -1.2986973089030762 1.8372109572040003 -2.1092640362181605 -1.570801083241598 3.231576681137085 True False
18423.92 4.802366733551025 -1.298710362320282 1.8371861616717737 -2.109328409234518 -1.5707486311541956 3.231527328491211 True False
18423.94 4.802383899688721 -1.2987136107734223 1.8371952215777796 -2.1093045673766078 -1.5707843939410608 3.231550931930542 True False
18423.98 4.8023176193237305 -1.298664705162384 1.8371995131122034 -2.1092845402159632 -1.5708449522601526 3.2315282821655273 True False
18424.0 4.802366733551025 -1.298669086103775 1.8371871153460901 -2.1093083820738734 -1.5707891623126429 3.231510877609253 True False
18424.02 4.80233097076416 -1.2986677449992676 1.8371995131122034 -2.10929598430776 -1.570784870778219 3.23154354095459 True False
18424.04 4.8023600578308105 -1.2987385553172608 1.8371694723712366 -2.109293123284811 -1.5708087126361292 3.2315685749053955 True False
18424.059999999998 4.802305698394775 -1.2986528438380738 1.8372324148761194 -2.109276433984274 -1.570813004170553 3.2314751148223877 True False
18424.079999999998 4.80233097076416 -1.298717961912491 1.8371871153460901 -2.1093083820738734 -1.5708487669574183 3.23154354095459 True False
18424.1 4.8023600578308105 -1.2986854177764435 1.8372576872455042 -2.1092521152892054 -1.5708091894732874 3.2315239906311035 True False
18424.12 4.802347660064697 -1.2986352008632203 1.8372038046466272 -2.109260221520895 -1.570857350026266 3.23154354095459 True False
18424.14 4.802383899688721 -1.2986647647670289 1.8372395674334925 -2.1092926464476527 -1.5707724730121058 3.231588363647461 True False
18424.16 4.802351951599121 -1.2986897391131897 1.8372662703143519 -2.1092640362181605 -1.5707767645465296 3.2315316200256348 True False
18424.18 4.80239725112915 -1.298731045132019 1.8372443358050745 -2.10929598430776 -1.570784870778219 3.231539011001587 True False
18424.2 4.8023600578308105 -1.2986560624888916 1.8372038046466272 -2.109260221520895 -1.5707724730121058 3.2315564155578613 True False
18424.219999999998 4.8023295402526855 -1.2987511616996308 1.8372858206378382 -2.1092969379820765 -1.570784870778219 3.2315316200256348 True False
18424.239999999998 4.8023176193237305 -1.2987179321101685 1.8372200171100062 -2.109316965142721 -1.5707929770099085 3.2315316200256348 True False
18424.26 4.802375793457031 -1.2987092596343537 1.8371828238116663 -2.1092845402159632 -1.5708449522601526 3.2315282821655273 True False
18424.28 4.8024001121521 -1.2986941200545807 1.8371871153460901 -2.109276433984274 -1.5707891623126429 3.231588363647461 True False
18424.3 4.802350997924805 -1.298723892574646 1.8372152487384241 -2.109316965142721 -1.5707805792437952 3.2315196990966797 True False
18424.32 4.802371501922607 -1.2987092298320313 1.8372443358050745 -2.1092807255186976 -1.5708168188678187 3.2315609455108643 True False
18424.34 4.802362442016602 -1.2986929279616852 1.8372367064105433 -2.109260221520895 -1.5707724730121058 3.231527328491211 True False
18424.36 4.802301406860352 -1.298652784233429 1.8371952215777796 -2.10927214244985 -1.5708172957049769 3.2315402030944824 True False
18424.379999999997 4.802346706390381 -1.2987211507609864 1.8371828238116663 -2.1093045673766078 -1.5707486311541956 3.231527328491211 True False
18424.399999999998 4.8024001121521 -1.298722283249237 1.8372190634356897 -2.1093040905394496 -1.570784870778219 3.2314839363098145 True False
18424.42 4.802341938018799 -1.2987016600421448 1.8371976057635706 -2.1093322239317835 -1.570813004170553 3.231492757797241 True False
18424.44 4.802334308624268 -1.298669086103775 1.8371828238116663 -2.1092645130553187 -1.570784870778219 3.231503486633301 True False
18424.46 4.802383899688721 -1.2986634534648438 1.8372018972979944 -2.109276433984274 -1.570784870778219 3.231525182723999 True False
18424.48 4.8023223876953125 -1.2986984711936493 1.8372367064105433 -2.109276433984274 -1.5708048979388636 3.231503486633301 True False
18424.5 4.802366733551025 -1.2987335187247773 1.8372038046466272 -2.10929598430776 -1.5707805792437952 3.231527328491211 True False
18424.52 4.802292346954346 -1.2986691457084198 1.8372367064105433 -2.1092564068236292 -1.570813004170553 3.23154354095459 True False
18424.54 4.802366733551025 -1.2987060409835358 1.8371952215777796 -2.10924830059194 -1.5707886854754847 3.231511116027832 True False
18424.559999999998 4.802391052246094 -1.298639790420868 1.8371618429767054 -2.109260221520895 -1.570801083241598 3.231482744216919 True False
18424.579999999998 4.802412033081055 -1.298598365192749 1.8371270338641565 -2.1091929874815882 -1.5708449522601526 3.2315971851348877 True False
18424.6 4.802811145782471 -1.298521415596344 1.8365691343890589 -2.1088229618468226 -1.5707967917071741 3.232013463973999 True False
18424.62 4.8035078048706055 -1.2982409757426758 1.8354557196246546 -2.107891698876852 -1.5707843939410608 3.2326579093933105 True False
18424.64 4.804413318634033 -1.2977433067611237 1.8337791601764124 -2.1066743336119593 -1.570813004170553 3.2335641384124756 True False
18424.66 4.8057427406311035 -1.297263042335846 1.831506077443258 -2.104910989800924 -1.570784870778219 3.2349135875701904 True False
18424.68 4.807381629943848 -1.2965302628329773 1.8285864035235804 -2.1027828655638636 -1.5707967917071741 3.2365052700042725 True False
18424.7 4.809274673461914 -1.2957951885512848 1.8251822630511683 -2.1000968418517054 -1.5708335081683558 3.238473415374756 True False
18424.719999999998 4.811612606048584 -1.2948328119567414 1.821115795766012 -2.0971485577025355 -1.5707243124591272 3.2408511638641357 True False
18424.739999999998 4.814116477966309 -1.293699787264206 1.8164499441729944 -2.093739172021383 -1.5708487669574183 3.2433929443359375 True False
18424.76 4.817005634307861 -1.2924835246852417 1.811380688344137 -2.089928289453024 -1.5708654562579554 3.2463042736053467 True False
18424.78 4.820309638977051 -1.2911160451224823 1.8058441321002405 -2.085423608819479 -1.5708296934710901 3.2495102882385254 True False
18424.8 4.823870658874512 -1.2896343928626557 1.7997735182391565 -2.080899854699606 -1.5708211104022425 3.253082275390625 True False
18424.82 4.827818393707275 -1.288075403576233 1.7930434385882776 -2.0758310757079066 -1.5707805792437952 3.2570230960845947 True False
18424.84 4.831995010375977 -1.286297009592392 1.7855990568744105 -2.0703331432738246 -1.5707934538470667 3.261192798614502 True False
18424.86 4.836522102355957 -1.2843198341182251 1.7776983420001429 -2.064204832116598 -1.5708211104022425 3.2657134532928467 True False
18424.879999999997 4.841379165649414 -1.2822939616492768 1.7694571653949183 -2.0577765903868617 -1.5707605520831507 3.2704434394836426 True False
18424.899999999998 4.846592903137207 -1.280138449077942 1.7605488936053675 -2.050939222375387 -1.5707967917071741 3.2757070064544678 True False
18424.92 4.851903915405273 -1.277853624229767 1.7507599035846155 -2.0438229046263636 -1.5708087126361292 3.281202793121338 True False
18424.94 4.857700347900391 -1.2755084794810791 1.7407296339618128 -2.0362655125060023 -1.5707882086383265 3.2870595455169678 True False
18424.96 4.863989353179932 -1.2728451055339356 1.730199162160055 -2.0280729732909144 -1.5707762877093714 3.2931697368621826 True False
18424.98 4.870454788208008 -1.2701295179179688 1.7189062277423304 -2.019564767877096 -1.5708168188678187 3.299515724182129 True False
18425.0 4.877138137817383 -1.2674087148955842 1.7072299162494105 -2.0107299290099085 -1.570801083241598 3.306410551071167 True False
18425.02 4.884220600128174 -1.2644366484931489 1.6948025862323206 -2.0013519726195277 -1.570801083241598 3.3135361671447754 True False
18425.04 4.891691207885742 -1.2613278788379212 1.6819418112384241 -1.9915300808348597 -1.5708254019366663 3.320965051651001 True False
18425.059999999998 4.899490833282471 -1.2581149500659485 1.6684797445880335 -1.9813772640623988 -1.5707967917071741 3.3285067081451416 True False
18425.079999999998 4.907602310180664 -1.2546058160117646 1.6544182936297815 -1.970734258691305 -1.570784870778219 3.3366291522979736 True False
18425.1 4.915740489959717 -1.2510894697955628 1.6400235334979456 -1.9597088299193324 -1.5707767645465296 3.3450562953948975 True False
18425.12 4.923884391784668 -1.2476247412017365 1.6258280912982386 -1.9490019283690394 -1.5708087126361292 3.353212833404541 True False
18425.14 4.931756973266602 -1.2444662016681214 1.61235219637026 -1.9386335812010707 -1.570829216633932 3.3608717918395996 True False
18425.16 4.93927001953125 -1.2412904363921662 1.5993550459491175 -1.9287950001158656 -1.5708006064044397 3.3683958053588867 True False
18425.18 4.946392059326172 -1.2383614939502259 1.5869796911822718 -1.9194227657713832 -1.5707929770099085 3.3756792545318604 True False
18425.2 4.953176975250244 -1.2355003517917176 1.5751851240741175 -1.9104467831053675 -1.5708168188678187 3.3825244903564453 True False
18425.219999999998 4.959877014160156 -1.2326852244189759 1.5637367407428187 -1.9016853771605433 -1.5707486311541956 3.388939619064331 True False
18425.239999999998 4.96600866317749 -1.2302071017077942 1.552936855946676 -1.8935023746886195 -1.570784870778219 3.395002841949463 True False
18425.26 4.971835136413574 -1.22773830712352 1.5428126494037073 -1.885872026483053 -1.5707281271563929 3.401092290878296 True False
18425.28 4.9774370193481445 -1.225380466585495 1.5331338087665003 -1.8784557781615199 -1.570772949849264 3.4066717624664307 True False
18425.3 4.9826154708862305 -1.2231206160834809 1.5240052382098597 -1.871561189691061 -1.5707524458514612 3.4118995666503906 True False
18425.32 4.9876484870910645 -1.2210407716086884 1.515461270009176 -1.8650061092772425 -1.5707967917071741 3.4168500900268555 True False
18425.34 4.992243766784668 -1.219086156492569 1.5075801054583948 -1.858964582482809 -1.5707967917071741 3.421353816986084 True False
18425.36 4.9965105056762695 -1.217354492550232 1.5000413099872034 -1.8534699879088343 -1.570801083241598 3.425577163696289 True False
18425.379999999997 5.000415802001953 -1.2157660883716126 1.493253533040182 -1.8482381306090296 -1.5707762877093714 3.42966365814209 True False
18425.399999999998 5.004099369049072 -1.2141571205905457 1.4868910948382776 -1.8433004818358363 -1.5708091894732874 3.4332711696624756 True False
18425.42 5.007281303405762 -1.2127369207194825 1.4813035170184534 -1.838970800439352 -1.5707610289203089 3.436577320098877 True False
18425.44 5.010273456573486 -1.2115714711001893 1.4758995215045374 -1.835055490533346 -1.570801083241598 3.43953275680542 True False
18425.46 5.013023376464844 -1.21051378667865 1.4711459318744105 -1.8316403828062953 -1.5708535353290003 3.4422545433044434 True False
18425.48 5.01533842086792 -1.209454433327057 1.467177693043844 -1.8284360371031703 -1.5708206335650843 3.4446120262145996 True False
18425.5 5.017414093017578 -1.2085738641074677 1.4637730757342737 -1.8258725605406703 -1.570784870778219 3.4465837478637695 True False
18425.52 5.019128799438477 -1.2079003316215058 1.4608524481402796 -1.8234435520567835 -1.5708211104022425 3.4483349323272705 True False
18425.54 5.020468711853027 -1.2073658269694825 1.458343807850973 -1.8218256435790003 -1.5708296934710901 3.449659585952759 True False
18425.559999999998 5.021518230438232 -1.2068821054748078 1.4565423170672815 -1.8204237423338832 -1.570784870778219 3.4507546424865723 True False
18425.579999999998 5.022281646728516 -1.2065276068500062 1.4551942984210413 -1.8193332157530726 -1.5707686583148401 3.451460599899292 True False
18425.6 5.022727966308594 -1.2063173216632386 1.4544428030597132 -1.8187576733031214 -1.5707648436175745 3.451829433441162 True False
18425.62 5.022748947143555 -1.2064121824553986 1.4542258421527308 -1.8186384640135707 -1.5707643667804163 3.4519879817962646 True False
18425.64 5.022749423980713 -1.206251398926117 1.4544513861285608 -1.819087644616598 -1.5707886854754847 3.4519505500793457 True False
18425.66 5.022740840911865 -1.205876664524414 1.4550235907184046 -1.8199788532652796 -1.570768181477682 3.4520161151885986 True False
18425.68 5.022708415985107 -1.2053409081748505 1.4560149351703089 -1.8214975796141566 -1.5708492437945765 3.4519505500793457 True False
18425.7 5.022769451141357 -1.2047274273684998 1.4572652021991175 -1.8235851726927699 -1.5708568731891077 3.452019214630127 True False
18425.719999999998 5.022719383239746 -1.2038920384696503 1.4590557257281702 -1.8261214695372523 -1.5707967917071741 3.451970338821411 True False
18425.739999999998 5.022773742675781 -1.202818678026535 1.461257282887594 -1.8294264278807582 -1.5708254019366663 3.452040433883667 True False
18425.76 5.022744655609131 -1.2015162271312256 1.4638045469867151 -1.833099981347555 -1.570784870778219 3.4520325660705566 True False
18425.78 5.022767066955566 -1.2000906628421326 1.4666646162616175 -1.8374954662718714 -1.5707762877093714 3.452061176300049 True False
18425.8 5.022776126861572 -1.1984850329211731 1.4699567000018519 -1.8423105678954066 -1.5707925001727503 3.452019214630127 True False
18425.82 5.022812843322754 -1.196714625959732 1.4736951033221644 -1.847802301446432 -1.5707767645465296 3.4520061016082764 True False
18425.84 5.022751331329346 -1.1947164994529267 1.4777782599078577 -1.8535424671568812 -1.5707967917071741 3.452023506164551 True False
18425.86 5.022820472717285 -1.1925668579391022 1.482166592274801 -1.8601800403990687 -1.5707805792437952 3.4519734382629395 True False
18425.879999999997 5.022829055786133 -1.190220759516098 1.4867766539203089 -1.8673187694945277 -1.570824925099508 3.4520318508148193 True False
18425.899999999998 5.022841453552246 -1.1876192551902314 1.4919222036944788 -1.8749410114684046 -1.5708006064044397 3.452019214630127 True False
18425.92 5.022829055786133 -1.1848910611918946 1.4973257223712366 -1.883054872552389 -1.5708087126361292 3.4520511627197266 True False
18425.94 5.022820472717285 -1.1820153456977387 1.5031922499286097 -1.8920203648009242 -1.570772949849264 3.4520273208618164 True False
18425.96 5.022824764251709 -1.179011957054474 1.5095461050616663 -1.9013692341246546 -1.5707686583148401 3.4519779682159424 True False
18425.98 5.022837162017822 -1.175725207929947 1.5162628332721155 -1.911144872704977 -1.5707929770099085 3.4520103931427 True False
18426.0 5.022805213928223 -1.1722924274257203 1.523146931325094 -1.9215995273985804 -1.5708048979388636 3.452014923095703 True False
18426.02 5.022796630859375 -1.1688068968108674 1.5302870909320276 -1.932411333123678 -1.5707805792437952 3.4520061016082764 True False
18426.04 5.022817134857178 -1.1652563077262421 1.5373404661761683 -1.9429804287352503 -1.5708001295672815 3.452064275741577 True False
18426.059999999998 5.022812843322754 -1.1619772476008912 1.544032398854391 -1.9527059994139613 -1.5707805792437952 3.451998710632324 True False
18426.079999999998 5.022844314575195 -1.1587333542159577 1.550152603779928 -1.9620677433409632 -1.5707691351519983 3.452019214630127 True False
18426.1 5.022796630859375 -1.1559494894794007 1.5559466520892542 -1.9709564648070277 -1.5707324186908167 3.4520273208618164 True False
18426.12 5.022870063781738 -1.1532606345466156 1.5612910429583948 -1.9789701900877894 -1.5708006064044397 3.4519941806793213 True False
18426.14 5.022857189178467 -1.1507048171809693 1.5665667692767542 -1.986642976800436 -1.5707810560809534 3.4519808292388916 True False
18426.16 5.022788047790527 -1.1483878058246155 1.5714286009417933 -1.993779798547262 -1.5708048979388636 3.452036142349243 True False
18426.18 5.022832870483398 -1.1462608736804505 1.5758441130267542 -2.000331541100973 -1.5707410017596644 3.4519526958465576 True False
18426.2 5.022799968719482 -1.1443212789348145 1.5796573797809046 -2.0061851940550746 -1.570824925099508 3.451986789703369 True False
18426.219999999998 5.022861480712891 -1.1424758595279236 1.5832741896258753 -2.0117370090880335 -1.5707648436175745 3.4519896507263184 True False
18426.239999999998 5.022828578948975 -1.1409263771823426 1.5865171591388147 -2.016590734521383 -1.5707967917071741 3.452052593231201 True False
18426.26 5.022820472717285 -1.1394463640502472 1.589400593434469 -2.0208054981627406 -1.5707967917071741 3.45202374458313 True False
18426.28 5.022832870483398 -1.1382179719260712 1.5918586889850062 -2.024574419061178 -1.5707810560809534 3.4520645141601562 True False
18426.3 5.022844314575195 -1.1371894043735047 1.5940292517291468 -2.0277606449522914 -1.5708487669574183 3.4519777297973633 True False
18426.32 5.022837162017822 -1.1363133651069184 1.5957258383380335 -2.030408044854635 -1.5708048979388636 3.4519941806793213 True False
18426.34 5.022792339324951 -1.1355536443046113 1.597266976033346 -2.032354017297262 -1.5707767645465296 3.452014923095703 True False
18426.36 5.0228118896484375 -1.1350653928569336 1.5982282797442835 -2.034018178979391 -1.5708006064044397 3.4520187377929688 True False
18426.379999999997 5.022841453552246 -1.134774075155594 1.598797623311178 -2.034966131249899 -1.5707691351519983 3.452019214630127 True False
18426.399999999998 5.022804260253906 -1.1347519022277375 1.5990937391864222 -2.0352961025633753 -1.5708087126361292 3.452019214630127 True False
18426.42 5.022829055786133 -1.1347182554057618 1.5990293661700647 -2.035191675225729 -1.5708087126361292 3.452003002166748 True False
18426.44 5.0227556228637695 -1.1347378653338929 1.5990541617022913 -2.035244127313131 -1.570772949849264 3.4519734382629395 True False
18426.46 5.022771835327148 -1.1347182256034394 1.5990656057940882 -2.0352236233153285 -1.5707605520831507 3.451998710632324 True False
18426.48 5.022829055786133 -1.1347378355315705 1.5990741888629358 -2.0352641544737757 -1.5708168188678187 3.451995372772217 True False
18426.5 5.022852897644043 -1.1347463589957734 1.599036995564596 -2.035204072991842 -1.5707805792437952 3.4519526958465576 True False
18426.52 5.022820472717285 -1.13469351947818 1.5991056601153772 -2.035204072991842 -1.570784870778219 3.452019214630127 True False
18426.54 5.022820472717285 -1.1347344380668183 1.5990851561175745 -2.0352164707579554 -1.5708206335650843 3.4519734382629395 True False
18426.559999999998 5.02284574508667 -1.1347267788699646 1.5990775267230433 -2.035244127313131 -1.5708206335650843 3.4520103931427 True False
18426.579999999998 5.022804260253906 -1.1346651774695893 1.5991089979754847 -2.0352121792235316 -1.570784870778219 3.4520061016082764 True False
18426.6 5.02286958694458 -1.1346775752357026 1.5991089979754847 -2.035175939599508 -1.570772949849264 3.452003002166748 True False
18426.62 5.022857189178467 -1.134644554262497 1.5991342703448694 -2.0352045498290003 -1.5707967917071741 3.4520280361175537 True False
18426.64 5.022837162017822 -1.1346695882133027 1.599121395741598 -2.035208364526266 -1.570784870778219 3.45202374458313 True False
18426.66 5.022776126861572 -1.1346662801555176 1.599121395741598 -2.035208364526266 -1.5708006064044397 3.4520318508148193 True False
18426.68 5.022861480712891 -1.1346662801555176 1.5991666952716272 -2.035287996331686 -1.570784870778219 3.452019214630127 True False
18426.7 5.022829055786133 -1.134660766725876 1.5991299788104456 -2.035232206384176 -1.5707767645465296 3.4520645141601562 True False
18426.719999999998 5.022747993469238 -1.1346738797477265 1.5991342703448694 -2.0352961025633753 -1.5708168188678187 3.452019214630127 True False
18426.739999999998 5.022792339324951 -1.1346458059600373 1.5991342703448694 -2.0352164707579554 -1.5708006064044397 3.452014923095703 True False
18426.76 5.022788047790527 -1.1346253615668793 1.5991581122027796 -2.0352121792235316 -1.570784870778219 3.452007293701172 True False
18426.78 5.022829055786133 -1.1346909266761322 1.5991538206683558 -2.0352360210814417 -1.5708006064044397 3.451998710632324 True False
18426.8 5.022771835327148 -1.134637252693512 1.5991538206683558 -2.0352283916869105 -1.5707810560809534 3.4520103931427 True False
18426.82 5.022833347320557 -1.1346858900836487 1.5991700331317347 -2.035247942010397 -1.5708087126361292 3.4519734382629395 True False
18426.84 5.022882461547852 -1.1346992713264008 1.599088493977682 -2.0352241001524867 -1.5708087126361292 3.4520015716552734 True False
18426.86 5.022804260253906 -1.1346489948085328 1.5991538206683558 -2.0352679691710414 -1.5708125273333948 3.4520103931427 True False
18426.879999999997 5.022796630859375 -1.1347032946399231 1.5991581122027796 -2.0352279148497523 -1.5707572142230433 3.4520435333251953 True False
18426.899999999998 5.022772789001465 -1.1346176725677033 1.5991089979754847 -2.035244127313131 -1.5707805792437952 3.451957941055298 True False
18426.92 5.022852897644043 -1.1346457463553925 1.599095646535055 -2.0352641544737757 -1.5707925001727503 3.4520061016082764 True False
18426.94 5.022788047790527 -1.1346619588187714 1.5991666952716272 -2.0352918110289515 -1.5707967917071741 3.452065944671631 True False
18426.96 5.022820472717285 -1.134665147667267 1.5991171042071741 -2.035276075402731 -1.5708087126361292 3.452014923095703 True False
18426.98 5.022780418395996 -1.1347259742072602 1.599008862172262 -2.0353833637633265 -1.5707767645465296 3.4520466327667236 True False
18427.0 5.022796630859375 -1.1347702008536835 1.5990217367755335 -2.035367628137106 -1.5707805792437952 3.4520769119262695 True False
18427.02 5.022824764251709 -1.134733573799469 1.598992649708883 -2.0353995762267054 -1.5707805792437952 3.452003002166748 True False
18427.04 5.022768497467041 -1.1347998243621369 1.5990303198443812 -2.0353995762267054 -1.5707724730121058 3.4520645141601562 True False
18427.059999999998 5.022792339324951 -1.1347830158523102 1.599018398915426 -2.0354234180846156 -1.570813004170553 3.451998472213745 True False
18427.079999999998 5.022792339324951 -1.134737805729248 1.5990541617022913 -2.035431524316305 -1.5707967917071741 3.4520273208618164 True False
18427.1 5.02280855178833 -1.1347583097270508 1.5989416281329554 -2.0351320705809535 -1.5707405249225062 3.4519941806793213 True True
18427.12 5.022816181182861 -1.1348703366569062 1.5986231009112757 -2.0342542133727015 -1.5707805792437952 3.45198655128479 True True
18427.14 5.022799491882324 -1.135078416471817 1.5981410185443323 -2.0327941379942835 -1.5707929770099085 3.452003002166748 True True
18427.16 5.022820472717285 -1.135603742008545 1.5969350973712366 -2.031107088128561 -1.5707805792437952 3.452052593231201 True True
18427.18 5.022776126861572 -1.1365897816470643 1.5950329939471644 -2.0288449726500453 -1.5708087126361292 3.452014923095703 True True
18427.2 5.022816181182861 -1.1376633209041138 1.5928805510150355 -2.0258690319456996 -1.570784870778219 3.452019214630127 True True
18427.219999999998 5.02280855178833 -1.1388107699206849 1.5906074682818812 -2.0222236118712367 -1.5708211104022425 3.4519941806793213 True True
18427.239999999998 5.022787570953369 -1.1401648086360474 1.5879014174090784 -2.0182229481139125 -1.5708087126361292 3.452052593231201 True True
18427.26 5.022824764251709 -1.141763136988022 1.5846427122699183 -2.013515134850973 -1.5708044211017054 3.4520103931427 True True
18427.28 5.022841930389404 -1.1435495179942627 1.5811026732074183 -2.0084458790221156 -1.5707805792437952 3.4520318508148193 True True
18427.3 5.022792339324951 -1.1454329949668427 1.5772226492511194 -2.00266232113027 -1.570813004170553 3.451986789703369 True True
18427.32 5.022796630859375 -1.1474955540946503 1.5731294790851038 -1.9961773357787074 -1.5707686583148401 3.4519777297973633 True True
18427.34 5.022743225097656 -1.1498187345317383 1.5683777968036097 -1.989389558831686 -1.5707686583148401 3.4520437717437744 True True
18427.36 5.022805690765381 -1.152310238485672 1.5632804075824183 -1.9819532833495082 -1.5707686583148401 3.451982259750366 True True
18427.379999999997 5.022809982299805 -1.1549867552569886 1.5580313841449183 -1.9740287266173304 -1.570784870778219 3.452036142349243 True True
18427.399999999998 5.022751808166504 -1.1577347677997132 1.5523584524737757 -1.9653355083861292 -1.570784870778219 3.451986789703369 True True
18427.42 5.022796630859375 -1.1607789558223267 1.546387020741598 -1.9563480816283167 -1.5707886854754847 3.451982259750366 True True
18427.44 5.022820472717285 -1.1640700262836 1.5398457686053675 -1.9467131100096644 -1.5708044211017054 3.451957941055298 True True
18427.46 5.022812843322754 -1.167375461464264 1.5328887144671839 -1.9364034138121546 -1.5708449522601526 3.451998710632324 True True
18427.48 5.022829532623291 -1.1709779661944886 1.5257247130023401 -1.9256450138487757 -1.5708087126361292 3.4519667625427246 True True
18427.5 5.022775650024414 -1.174399123792984 1.5187094847308558 -1.9150282345213832 -1.5707686583148401 3.4519615173339844 True True
18427.52 5.02277135848999 -1.1777495604804535 1.5119627157794397 -1.9050103626646937 -1.5707686583148401 3.4519777297973633 True True
18427.54 5.0227789878845215 -1.1808507901481171 1.5055139700519007 -1.8952704868712367 -1.5708168188678187 3.4519777297973633 True True
18427.559999999998 5.022846221923828 -1.1839396518519898 1.4994471708880823 -1.8865024052061976 -1.5707805792437952 3.452007293701172 True True
18427.579999999998 5.022800922393799 -1.18675051749263 1.49388295808901 -1.8780681095519007 -1.5707686583148401 3.451998472213745 True True
18427.6 5.022812843322754 -1.1892703634551545 1.4887660185443323 -1.8700467548766078 -1.5707886854754847 3.4520363807678223 True True
18427.62 5.02280855178833 -1.1916628938964386 1.4839347044574183 -1.8627072773375453 -1.5708335081683558 3.4519777297973633 True True
18427.64 5.022783279418945 -1.1939722758582612 1.4793437162982386 -1.8559943638243617 -1.570813004170553 3.451982259750366 True True
18427.66 5.022820472717285 -1.1960551303676148 1.4750445524798792 -1.8499318561949671 -1.5708492437945765 3.4519896507263184 True True
18427.68 5.022829532623291 -1.1978543859771271 1.4713452498065394 -1.8442617855467738 -1.570768181477682 3.4520058631896973 True True
18427.7 5.022841930389404 -1.199452744131424 1.4679940382586878 -1.839165826837057 -1.5707319418536585 3.452049493789673 True True
18427.719999999998 5.022829532623291 -1.2010374826243897 1.4649632612811487 -1.8347417316832484 -1.5708044211017054 3.452019214630127 True True
18427.739999999998 5.022816181182861 -1.2023137968829651 1.4623573462115687 -1.830698152581686 -1.570813004170553 3.4520103931427 True True
18427.76 5.022799491882324 -1.2033380729011078 1.460113827382223 -1.8273469410338343 -1.570813004170553 3.4520363807678223 True True
18427.78 5.022804260253906 -1.2043812435916443 1.458245102559225 -1.8245445690550746 -1.5707486311541956 3.451982259750366 True True
18427.8 5.022780418395996 -1.2051146787456055 1.4567907492267054 -1.822339197198385 -1.570801083241598 3.452019214630127 True True
18427.82 5.022833824157715 -1.2056172651103516 1.4555118719684046 -1.8206216297545375 -1.5708168188678187 3.4520273208618164 True True
18427.84 5.022833824157715 -1.2060855788043519 1.4546731154071253 -1.819369455377096 -1.570853058491842 3.451993942260742 True True
18427.86 5.02280855178833 -1.2063423258117218 1.4542821089373987 -1.8186899624266566 -1.570801083241598 3.452019214630127 True True
18427.879999999997 5.022718906402588 -1.2062562269023438 1.4543212095843714 -1.8185903034605921 -1.5707290808307093 3.451982259750366 True True
18427.899999999998 5.022320747375488 -1.2062562567046662 1.4542658964740198 -1.8186308346190394 -1.5707810560809534 3.4514846801757812 True True
18427.92 5.021238327026367 -1.2062648099711915 1.454207722340719 -1.8185583553709925 -1.5707772413836878 3.450397253036499 True True
18427.94 5.019665718078613 -1.2062528890422364 1.4541328589068812 -1.818522115746969 -1.5707929770099085 3.44876766204834 True True
18427.96 5.017507076263428 -1.2061560910991211 1.4539960066424769 -1.818578382531637 -1.5707362333880823 3.4464786052703857 True True
18427.98 5.0146164894104 -1.206173912887909 1.4537552038775843 -1.8185988865294398 -1.5707929770099085 3.4437716007232666 True True
18428.0 5.0112762451171875 -1.2059721511653443 1.4535444418536585 -1.8185268841185511 -1.5707925001727503 3.4404549598693848 True True
18428.02 5.007476806640625 -1.2058898669532319 1.4533689657794397 -1.8183957539000453 -1.570756737385885 3.4365766048431396 True True
18428.04 5.003077507019043 -1.2057255071452637 1.4531696478473108 -1.8183280430235804 -1.5707967917071741 3.432147741317749 True True
18428.059999999998 4.997992038726807 -1.2054459017566224 1.452900234852926 -1.8182369671263636 -1.570801083241598 3.427232027053833 True True
18428.079999999998 4.992429733276367 -1.205199972992279 1.4526217619525355 -1.8181292019286097 -1.5707486311541956 3.42177414894104 True True
18428.1 4.986265659332275 -1.2050143641284485 1.4522846380816858 -1.8180419407286585 -1.5707648436175745 3.4155585765838623 True True
18428.12 4.9796648025512695 -1.2047586304000397 1.4519880453692835 -1.8178907833495082 -1.5708211104022425 3.4088997840881348 True True
18428.14 4.972565174102783 -1.2045127910426636 1.451559845601217 -1.8178116283812464 -1.570824925099508 3.4016053676605225 True True
18428.16 4.964729309082031 -1.2042434376529236 1.4511273542987269 -1.8176881275572718 -1.5707767645465296 3.39395809173584 True True
18428.18 4.956334590911865 -1.2039938134006043 1.4505999724017542 -1.8175813160338343 -1.570772949849264 3.3855597972869873 True True
18428.2 4.947383880615234 -1.2036501628211518 1.450136963521139 -1.8173743687071742 -1.570801083241598 3.376586675643921 True True
18428.219999999998 4.938093185424805 -1.2033030849746247 1.4496339003192347 -1.8172065220274867 -1.570824925099508 3.367142915725708 True True
18428.239999999998 4.9279632568359375 -1.2029112142375489 1.449094597493307 -1.8170839748778285 -1.5707891623126429 3.3572821617126465 True True
18428.26 4.917280673980713 -1.202536718254425 1.4485319296466272 -1.8168727360167445 -1.5708044211017054 3.3465490341186523 True True
18428.28 4.906368732452393 -1.2020937365344544 1.4478877226458948 -1.8167063198485316 -1.5707686583148401 3.3353984355926514 True True
18428.3 4.894613265991211 -1.2016290885261078 1.4472559134112757 -1.816451211968893 -1.5707362333880823 3.3239729404449463 True True
18428.32 4.882211685180664 -1.2011750501445313 1.4466026465045374 -1.8162809811034144 -1.5707762877093714 3.3115274906158447 True True
18428.34 4.869627952575684 -1.200772688989975 1.4459427038775843 -1.8160821400084437 -1.5708044211017054 3.298851728439331 True True
18428.36 4.8562750816345215 -1.2002243858626862 1.4453228155719202 -1.8158632717528285 -1.570784870778219 3.2854065895080566 True True
18428.379999999997 4.842263698577881 -1.1996448200992127 1.4445632139789026 -1.815608640710348 -1.5708816687213343 3.271512269973755 True True
18428.399999999998 4.827773571014404 -1.1991314154914399 1.4437115828143519 -1.8153306446471156 -1.570813004170553 3.257009267807007 True True
18428.42 4.812809944152832 -1.1985680621913453 1.4428108374225062 -1.8150602779784144 -1.5708006064044397 3.241896390914917 True True
18428.44 4.797182083129883 -1.1979850989631196 1.4419663588153284 -1.8148371181883753 -1.5707772413836878 3.226447820663452 True True
18428.46 4.780991554260254 -1.1974233251861115 1.4410784880267542 -1.8146029911436976 -1.5708168188678187 3.210160732269287 True True
18428.48 4.76431131362915 -1.1967758399299164 1.4401920477496546 -1.8142959080138148 -1.5707805792437952 3.193559169769287 True True
18428.5 4.746988296508789 -1.1961692732623597 1.4392483870135706 -1.813976903954977 -1.5707686583148401 3.1762359142303467 True True
18428.52 4.729133129119873 -1.1954621535590668 1.4383872191058558 -1.8137465916075648 -1.5707891623126429 3.1583590507507324 True True
18428.54 4.710838317871094 -1.1947847169688721 1.4374316374408167 -1.8133717976012171 -1.570801083241598 3.1401455402374268 True True
18428.559999999998 4.69188117980957 -1.1941892367652436 1.4363744894610804 -1.8130527935423792 -1.5708254019366663 3.1209826469421387 True True
18428.579999999998 4.672363758087158 -1.193445698623993 1.4352873007403772 -1.812737604180807 -1.5708048979388636 3.1016287803649902 True True
18428.6 4.652298927307129 -1.1926664871028443 1.4341896216021937 -1.8123942814269007 -1.5707686583148401 3.0815534591674805 True True
18428.62 4.631665229797363 -1.191882775431015 1.4331310431109827 -1.8119312725462855 -1.5707972685443323 3.060816526412964 True True
18428.64 4.610653400421143 -1.1910136503032227 1.432000462208883 -1.8116570911803187 -1.5707805792437952 3.039990186691284 True True
18428.66 4.5898308753967285 -1.1903184217265625 1.4309161345111292 -1.8112946949400843 -1.5708335081683558 3.019118547439575 True True
18428.68 4.568918704986572 -1.1895287793925782 1.4298651854144495 -1.8109475574889125 -1.5707886854754847 2.997955799102783 True True
18428.7 4.547903537750244 -1.1888648730567475 1.428666893635885 -1.8106328449644984 -1.5707925001727503 2.977181911468506 True True
18428.719999999998 4.526995658874512 -1.1880291265300293 1.4274972120868128 -1.8103462658324183 -1.5708168188678187 2.956141710281372 True True
18428.739999999998 4.5060319900512695 -1.1872313481620331 1.4263981024371546 -1.8098908863463343 -1.5707605520831507 2.935180187225342 True True
18428.76 4.485130310058594 -1.1864536565593262 1.4253047148333948 -1.809568544427389 -1.5708048979388636 2.9142704010009766 True True
18428.78 4.464097499847412 -1.1856997472098847 1.4241297880755823 -1.8092967472472132 -1.5707886854754847 2.8933815956115723 True True
18428.8 4.4432172775268555 -1.1848952037147065 1.4231250921832483 -1.8089028797545375 -1.5707648436175745 2.8723344802856445 True True
18428.82 4.4221930503845215 -1.1841072303107758 1.422016445790426 -1.8084708652892054 -1.5707686583148401 2.851591110229492 True True
18428.84 4.40136194229126 -1.1833741825870057 1.4207409063922327 -1.808277269402975 -1.5707724730121058 2.8305366039276123 True True
18428.86 4.380382061004639 -1.1825992924026032 1.4196189085589808 -1.8078214130797328 -1.570756737385885 2.8094630241394043 True True
18428.879999999997 4.359450340270996 -1.1818394523910065 1.418617073689596 -1.8074513874449671 -1.5707805792437952 2.788774013519287 True True
18428.899999999998 4.338493347167969 -1.1809926492026825 1.4174450079547327 -1.8071962795653285 -1.5708168188678187 2.767726421356201 True True
18428.92 4.317519187927246 -1.1802832645228882 1.4162729422198694 -1.8067289791502894 -1.5707486311541956 2.7466366291046143 True True
18428.94 4.29652738571167 -1.1795166295817872 1.4151695410357874 -1.8063503704466761 -1.5707805792437952 2.725794792175293 True True
18428.96 4.275635719299316 -1.1786986154368897 1.413976017628805 -1.8060795269408167 -1.570801083241598 2.704923629760742 True True
18428.98 4.254748821258545 -1.1779821974090119 1.412727181111471 -1.8056885204710902 -1.5707686583148401 2.683868646621704 True True
18429.0 4.233638763427734 -1.1772079032710572 1.4117072264300745 -1.8052665195860804 -1.570784870778219 2.66296648979187 True True
18429.02 4.2128496170043945 -1.1763743621161957 1.4106457869159144 -1.8049994907774867 -1.5707886854754847 2.642024040222168 True True
18429.04 4.191917896270752 -1.1756443840316315 1.4095209280597132 -1.804568429986471 -1.5708168188678187 2.6210062503814697 True True
18429.059999999998 4.170894145965576 -1.1748539072326203 1.4084022680865687 -1.804253717462057 -1.5708211104022425 2.6001150608062744 True True
18429.079999999998 4.149961948394775 -1.174070344572403 1.4071663061725062 -1.8040148220457972 -1.5708335081683558 2.579233407974243 True True
18429.1 4.129044055938721 -1.1733639401248475 1.4060519377337855 -1.803563734094137 -1.570801083241598 2.5580687522888184 True True
18429.12 4.108108043670654 -1.1725861889174958 1.4049204031573694 -1.8032247028746546 -1.5708211104022425 2.5373239517211914 True True
18429.14 4.087143421173096 -1.1717543762973328 1.4038551489459437 -1.8029138050475062 -1.5707967917071741 2.516298770904541 True True
18429.16 4.066208839416504 -1.1710100036910553 1.4028280417071741 -1.8025113544859828 -1.5708168188678187 2.4952826499938965 True True
18429.18 4.045290470123291 -1.1702949565700074 1.4016898314105433 -1.8021484814085902 -1.5707405249225062 2.4745326042175293 True True
18429.2 4.024312496185303 -1.1694753629020234 1.400545899068014 -1.801849981347555 -1.5708492437945765 2.4535956382751465 True True
18429.219999999998 4.003392219543457 -1.168696181183197 1.3993414084063929 -1.80143465618276 -1.5707805792437952 2.4324660301208496 True True
18429.239999999998 3.9823122024536133 -1.167927400474884 1.3982246557818812 -1.8011161289610804 -1.5707972685443323 2.411632537841797 True True
18429.26 3.961477041244507 -1.1671302777579804 1.3972480932818812 -1.8007694683470667 -1.570801083241598 2.390798807144165 True True
18429.28 3.940580368041992 -1.1663318139365693 1.3961699644671839 -1.8003817997374476 -1.5707805792437952 2.369551420211792 True True
18429.3 3.9195709228515625 -1.1656150680831452 1.3949416319476526 -1.8000074825682582 -1.570772949849264 2.3488504886627197 True True
18429.32 3.898651599884033 -1.1647957426360627 1.3937285582171839 -1.7996884785094203 -1.57082444826235 2.3279166221618652 True True
18429.34 3.8776891231536865 -1.1640865069678803 1.392578426991598 -1.799389978448385 -1.570784870778219 2.306765556335449 True True
18429.36 3.856821060180664 -1.163316325550415 1.3914511839496058 -1.7989827595152796 -1.5707686583148401 2.285970449447632 True True
18429.379999999997 3.8358325958251953 -1.1624356669238587 1.3903935591327112 -1.798676153222555 -1.570829216633932 2.2650420665740967 True True
18429.399999999998 3.8149285316467285 -1.1617095333388825 1.3893139998065394 -1.798213621179098 -1.5708044211017054 2.243943214416504 True True
18429.42 3.79390811920166 -1.1609665316394349 1.388209644948141 -1.7978626690306605 -1.570784870778219 2.2231204509735107 True True
18429.44 3.7729949951171875 -1.1601303082755585 1.3869622389422815 -1.7975079021849574 -1.570784870778219 2.202216625213623 True True
18429.46 3.7520453929901123 -1.1593316358378907 1.3857720533954065 -1.7971683941283167 -1.570813004170553 2.1811444759368896 True True
18429.48 3.731046676635742 -1.1585830313018342 1.3846176306353968 -1.7968665562071742 -1.5707610289203089 2.1602866649627686 True True
18429.5 3.7101752758026123 -1.1577776235393067 1.3834856192218226 -1.7965432606139125 -1.5707648436175745 2.1394355297088623 True True
18429.52 3.689276695251465 -1.1570676130107422 1.3825176397906702 -1.7962085209288539 -1.5707686583148401 2.118290901184082 True True
18429.54 3.668226718902588 -1.1562310022166749 1.3813260237323206 -1.795849939385885 -1.570768181477682 2.097487211227417 True True
18429.559999999998 3.6473207473754883 -1.1554777485183259 1.3801234404193323 -1.7954541645445765 -1.5707643667804163 2.076549530029297 True True
18429.579999999998 3.626429796218872 -1.154724047785141 1.3789351622210901 -1.7951632938780726 -1.570784870778219 2.055497884750366 True True
18429.6 3.605452537536621 -1.1540207427791138 1.3778365294085901 -1.7947570286192835 -1.5707529226886194 2.034646511077881 True True
18429.62 3.584510564804077 -1.1531789761832734 1.3767784277545374 -1.7943736515440882 -1.5708254019366663 2.0138111114501953 True True
18429.64 3.5635225772857666 -1.1524742406657715 1.3757379690753382 -1.7940589390196742 -1.570829216633932 1.9926594495773315 True True
18429.66 3.5425596237182617 -1.1517084401896973 1.3745625654803675 -1.7936841450133265 -1.5707967917071741 1.971869707107544 True True
18429.68 3.521697998046875 -1.150938169365265 1.3734529654132288 -1.7933656177916468 -1.5707772413836878 1.9509544372558594 True True
18429.7 3.5007548332214355 -1.1501276952079316 1.3722251097308558 -1.793018480340475 -1.5708006064044397 1.9298607110977173 True True
18429.719999999998 3.480224370956421 -1.1494191747954865 1.3712061087237757 -1.792692323724264 -1.5708449522601526 1.90955650806427 True True
18429.739999999998 3.4605677127838135 -1.1486442548087616 1.3701284567462366 -1.7923208675780238 -1.5708168188678187 1.8896934986114502 True True
18429.76 3.4410560131073 -1.1479827028563996 1.369171444569723 -1.7919980488219203 -1.5708368460284632 1.8701634407043457 True True
18429.78 3.422255516052246 -1.1472368699363251 1.3681824843036097 -1.791654726068014 -1.5707686583148401 1.8515360355377197 True True
18429.8 3.4040794372558594 -1.14656616867099 1.3671496550189417 -1.791300436059469 -1.5708168188678187 1.8331854343414307 True True
18429.82 3.386357307434082 -1.1459127825549622 1.36615497270693 -1.791049142877096 -1.570784870778219 1.8156819343566895 True True
18429.84 3.369234561920166 -1.145216630106308 1.3652384916888636 -1.7907902203001917 -1.5708168188678187 1.798434853553772 True True
18429.86 3.3526973724365234 -1.1446710389903565 1.364310089741842 -1.790410657922262 -1.570801083241598 1.7818409204483032 True True
18429.879999999997 3.3367323875427246 -1.1439868372729798 1.3635461966144007 -1.7901512585081996 -1.570784870778219 1.7660365104675293 True True
18429.899999999998 3.3212618827819824 -1.1434516471675416 1.3626940886126917 -1.7899767361082972 -1.5708006064044397 1.7504464387893677 True True
18429.92 3.3063645362854004 -1.1429482263377686 1.3619077841388147 -1.7897292576231898 -1.5707886854754847 1.735614538192749 True True
18429.94 3.292163372039795 -1.1424507659724732 1.3611653486834925 -1.789405962029928 -1.5708134810077112 1.721312403678894 True True
18429.96 3.278263568878174 -1.1418990951827546 1.3603656927691858 -1.7892829380431117 -1.570796314870016 1.7074637413024902 True True
18429.98 3.2650904655456543 -1.1414460998824616 1.3596275488482874 -1.7890321216978968 -1.5707767645465296 1.6943552494049072 True True
18430.0 3.2524495124816895 -1.140930638914444 1.3589723745929163 -1.7888199291624964 -1.570813004170553 1.6816208362579346 True True
18430.02 3.2404255867004395 -1.1405200225165864 1.358365837727682 -1.7885767422118128 -1.5708048979388636 1.6695512533187866 True True
18430.04 3.2288942337036133 -1.1400529903224488 1.3576815764056605 -1.7884379825987757 -1.570756737385885 1.658003568649292 True True
18430.059999999998 3.2178761959075928 -1.13966657341037 1.3571198622332972 -1.7882944546141566 -1.5707605520831507 1.6470822095870972 True True
18430.079999999998 3.2075045108795166 -1.1393292111209412 1.3566015402423304 -1.787978311578268 -1.570813004170553 1.6367528438568115 True True
18430.1 3.19756817817688 -1.1389981669238587 1.3560565153705042 -1.7879158459105433 -1.5707686583148401 1.62680983543396 True True
18430.12 3.1883184909820557 -1.138634906416275 1.3555744330035608 -1.7877475223936976 -1.5708211104022425 1.6174852848052979 True True
18430.14 3.1796658039093018 -1.1382665795138855 1.3551300207721155 -1.7876087627806605 -1.5707925001727503 1.6088708639144897 True True
18430.16 3.1714236736297607 -1.1380327504924317 1.354748551045553 -1.7874371014037074 -1.570801083241598 1.6006605625152588 True True
18430.18 3.1636722087860107 -1.1377125841430207 1.3542936483966272 -1.7873531780638636 -1.570796314870016 1.5929958820343018 True True
18430.2 3.156825304031372 -1.137489990597107 1.3538416067706507 -1.7872091732420863 -1.5708048979388636 1.5859078168869019 True True
18430.219999999998 3.1503446102142334 -1.1372192961028595 1.3534734884845179 -1.7870856724181117 -1.5707925001727503 1.5795258283615112 True True
18430.239999999998 3.1443333625793457 -1.136935518389084 1.3532117048846644 -1.786990304986471 -1.5708373228656214 1.573575496673584 True True
18430.26 3.13887619972229 -1.13668508947406 1.3528464476214808 -1.7869311771788539 -1.5708091894732874 1.5681354999542236 True True
18430.28 3.1341001987457275 -1.1366164249232789 1.3525880018817347 -1.786807199517721 -1.5708368460284632 1.5633463859558105 True True
18430.3 3.1299188137054443 -1.1365130704692383 1.3523762861834925 -1.7867914638915003 -1.570784870778219 1.5590749979019165 True True
18430.32 3.1262030601501465 -1.13634146869693 1.3521598021136683 -1.786715646783346 -1.570813004170553 1.555353045463562 True True
18430.34 3.122999668121338 -1.1362379354289551 1.3520973364459437 -1.786630769769186 -1.5707967917071741 1.5522242784500122 True True
18430.36 3.120500087738037 -1.1361213487437745 1.351940933858053 -1.786612173120016 -1.5707686583148401 1.5496232509613037 True True
18430.379999999997 3.118440866470337 -1.1360581380179902 1.3518369833575647 -1.7865478001036585 -1.5707767645465296 1.5475850105285645 True True
18430.399999999998 3.1168644428253174 -1.1359853607467194 1.3517611662494105 -1.7865563831725062 -1.570801083241598 1.5461630821228027 True True
18430.42 3.1159493923187256 -1.1360029739192505 1.3517091909991663 -1.7865282497801722 -1.5707767645465296 1.5452542304992676 True True
18430.44 3.11566424369812 -1.1359910529902955 1.3516977469073694 -1.7865039310851039 -1.5707967917071741 1.5448158979415894 True True
18430.46 3.1157033443450928 -1.1359071296504517 1.3517935911761683 -1.786631246606344 -1.5707648436175745 1.5448939800262451 True True
18430.48 3.1157350540161133 -1.1355304282954712 1.3521087805377405 -1.787274023095602 -1.5708172957049769 1.544881820678711 True True
18430.5 3.1156630516052246 -1.1350640517524262 1.3530004660235804 -1.7886659107603968 -1.5708168188678187 1.5448743104934692 True True
18430.52 3.115669012069702 -1.134500966673233 1.354262653981344 -1.790596147576803 -1.5707686583148401 1.5448338985443115 True True
18430.54 3.1156792640686035 -1.1338493090919037 1.3559091726886194 -1.7931672535338343 -1.570772949849264 1.5448923110961914 True True
18430.559999999998 3.115673065185547 -1.1328813594630738 1.3579419294940394 -1.796030660668844 -1.570772949849264 1.5448640584945679 True True
18430.579999999998 3.1156792640686035 -1.1318147641471406 1.3605106512652796 -1.7996345959105433 -1.5707805792437952 1.5448129177093506 True True
18430.6 3.115647554397583 -1.1305214029601593 1.3634689489947718 -1.8037768803038539 -1.570853058491842 1.5448428392410278 True True
18430.62 3.1156532764434814 -1.1290852588466187 1.3667543570147913 -1.8084060154356898 -1.570813004170553 1.5448384284973145 True True
18430.64 3.1155941486358643 -1.1273982983878632 1.3704336325274866 -1.813730379144186 -1.5707648436175745 1.5447965860366821 True True
18430.66 3.115558385848999 -1.1256355506232758 1.3743274847613733 -1.8194567165770472 -1.570801083241598 1.5448384284973145 True True
18430.68 3.1156160831451416 -1.123737172489502 1.3787649313556116 -1.825756689111227 -1.570784870778219 1.544805645942688 True True
18430.7 3.115631341934204 -1.1215946537307282 1.383758846913473 -1.8326717815794886 -1.5707891623126429 1.5447696447372437 True True
18430.719999999998 3.115565776824951 -1.1191758674434205 1.3889301458941858 -1.8400746784605921 -1.5707925001727503 1.5448129177093506 True True
18430.739999999998 3.115631341934204 -1.1167304080775757 1.3942373434649866 -1.8482381306090296 -1.570801083241598 1.5448280572891235 True True
18430.76 3.1156444549560547 -1.1142465335181733 1.4001148382769983 -1.8568092785277308 -1.5708211104022425 1.544793725013733 True True
18430.78 3.1155953407287598 -1.1112615329078217 1.406363312398092 -1.8658296070494593 -1.570853058491842 1.5448145866394043 True True
18430.8 3.115579128265381 -1.1082862180522461 1.413309399281637 -1.8755957088866175 -1.5707524458514612 1.5447516441345215 True True
18430.82 3.1155953407287598 -1.105168179874756 1.4204309622394007 -1.8857995472350062 -1.5707605520831507 1.544793725013733 True True
18430.84 3.115579128265381 -1.101900504236557 1.4276617209063929 -1.8967400989928187 -1.570801083241598 1.5448071956634521 True True
18430.86 3.1155922412872314 -1.098687009220459 1.434756104146139 -1.9069816074767054 -1.5707925001727503 1.5448026657104492 True True
18430.879999999997 3.1155996322631836 -1.0955854815295716 1.4415367285357874 -1.9167877636351527 -1.5707686583148401 1.5448354482650757 True True
18430.899999999998 3.1155996322631836 -1.0926252168468018 1.448158089314596 -1.9259678326048792 -1.570813004170553 1.5447981357574463 True True
18430.92 3.115582227706909 -1.0898969930461426 1.4540708700763147 -1.9347244701781214 -1.5708168188678187 1.5447471141815186 True True
18430.94 3.1156115531921387 -1.087460533981659 1.4595149199115198 -1.9430285892882289 -1.5708168188678187 1.5448639392852783 True True
18430.96 3.115607261657715 -1.0851823848536988 1.4647257963763636 -1.9505168400206507 -1.5707805792437952 1.5448309183120728 True True
18430.98 3.115579128265381 -1.0829299849322815 1.4696219603167933 -1.9575077495970667 -1.5708335081683558 1.5447814464569092 True True
18431.0 3.115582227706909 -1.0809298616698761 1.4741480986224573 -1.9640103779234828 -1.5708211104022425 1.5448145866394043 True True
18431.02 3.1155953407287598 -1.0791357916644593 1.4783199469195765 -1.96997131923818 -1.5708377997027796 1.5447561740875244 True True
18431.04 3.1155495643615723 -1.0774309796145936 1.4820473829852503 -1.9752985439696253 -1.57074481645693 1.5447920560836792 True True
