Andreas691667/Digital_Twin_UR/src/controller_monitor/test_results/robot_output.csv
timestamp actual_q_0 actual_q_1 actual_q_2 actual_q_3 actual_q_4 actual_q_5 output_bit_register_65 output_bit_register_66
15375.553 0.629986047744751 -1.7399832210936488 -1.460021734237671 -1.4900100988200684 1.5599769353866577 0.2900248169898987 False False
15375.572999999999 0.6300070285797119 -1.7400323353209437 -1.459968090057373 -1.4899787467769166 1.5600053071975708 0.28998321294784546 False False
15375.592999999999 0.6299831867218018 -1.7399431667723597 -1.460005283355713 -1.4899977085045357 1.56002938747406 0.289992094039917 False False
15375.613 0.6300418376922607 -1.7400251827635707 -1.4600350856781006 -1.4900424417904397 1.56002938747406 0.28992971777915955 False False
15375.633 0.6300240755081177 -1.7400123081602992 -1.4600096940994263 -1.4900101137212296 1.5599851608276367 0.2899475395679474 False False
15375.652999999998 0.6300114989280701 -1.7400127849974574 -1.4599770307540894 -1.4900100839189072 1.560017466545105 0.2899876534938812 False False
15375.672999999999 0.629997968673706 -1.7400371036925257 -1.4600305557250977 -1.4899902206710358 1.5599490404129028 0.29001593589782715 False False
15375.693 0.6299951076507568 -1.739995618859762 -1.4600625038146973 -1.4899820622852822 1.5599530935287476 0.28999513387680054 False False
15375.713 0.6300159096717834 -1.7400342426695765 -1.4599635601043701 -1.4899820622852822 1.5599970817565918 0.2899443805217743 False False
15375.733 0.6299324631690979 -1.7400042019286097 -1.4599844217300415 -1.490022325222828 1.5599448680877686 0.28999513387680054 False False
15375.752999999999 0.6299697160720825 -1.7399522266783656 -1.4600008726119995 -1.4899663937142869 1.56002938747406 0.28995633125305176 False False
15375.773 0.6299920678138733 -1.73999085048818 -1.4600186347961426 -1.4899944153479119 1.5600495338439941 0.2899996042251587 False False
15375.793 0.6299906969070435 -1.739978929559225 -1.4599800109863281 -1.490038664346077 1.5600134134292603 0.2900039851665497 False False
15375.813 0.6299995183944702 -1.7399760685362757 -1.4600008726119995 -1.4899984163096924 1.5600618124008179 0.28996655344963074 False False
15376.092999999999 0.6299831867218018 -1.7400251827635707 -1.4599889516830444 -1.490030438905098 1.560037612915039 0.29003670811653137 False False
15376.113 0.6299787759780884 -1.7400666675963343 -1.4600008726119995 -1.489990235572197 1.559981107711792 0.2899876832962036 False False
15376.133 0.6300039291381836 -1.7400299511351527 -1.460033655166626 -1.4900059637478371 1.5600411891937256 0.29000401496887207 False False
15376.152999999998 0.6300415992736816 -1.7400123081602992 -1.4600499868392944 -1.4900140774301072 1.5600330829620361 0.29003670811653137 False False
15376.172999999999 0.6299861073493958 -1.7399660549559535 -1.4600380659103394 -1.4899984163096924 1.5599608421325684 0.29000401496887207 False False
15376.193 0.6300070285797119 -1.7399922809996546 -1.4600410461425781 -1.4900424790433426 1.560017466545105 0.2899996042251587 False False
15376.213 0.6299994587898254 -1.7399670086302699 -1.4600498676300049 -1.4900341492942353 1.5599968433380127 0.2899475693702698 False False
15376.233 0.6299906969070435 -1.7400366268553675 -1.460021734237671 -1.4899902653745194 1.5599408149719238 0.2900247871875763 False False
15376.252999999999 0.6299744248390198 -1.739999910394186 -1.4600335359573364 -1.4899783965996285 1.560009241104126 0.28999659419059753 False False
15376.273 0.6299625039100647 -1.7400032482542933 -1.4600142240524292 -1.4900018361261864 1.5599970817565918 0.2900129556655884 False False
15376.293 0.6300157904624939 -1.7400037250914515 -1.4600454568862915 -1.4900100988200684 1.5600330829620361 0.29000094532966614 False False
15376.313 0.6299980282783508 -1.7400342426695765 -1.4599889516830444 -1.4899704319289704 1.559969186782837 0.2899709939956665 False False
15376.332999999999 0.6300283670425415 -1.7400170765318812 -1.460005283355713 -1.4900025066784401 1.5600051879882812 0.29004111886024475 False False
15376.353 0.6300113797187805 -1.7400366268553675 -1.4600127935409546 -1.4899977532080193 1.560009241104126 0.2899549901485443 False False
15376.373 0.6300283670425415 -1.7400084934630335 -1.4599933624267578 -1.4899581384709855 1.5600051879882812 0.29003673791885376 False False
15376.393 0.6300490498542786 -1.740016599694723 -1.4600008726119995 -1.4900264304927369 1.560017466545105 0.29001593589782715 False False
15376.412999999999 0.6300370693206787 -1.739995618859762 -1.4600423574447632 -1.4899500471404572 1.5599929094314575 0.2899385988712311 False False
15376.432999999999 0.6300244331359863 -1.739950796166891 -1.4600995779037476 -1.4899857205203553 1.5599805116653442 0.29000407457351685 False False
15376.453 0.6299907565116882 -1.7400323353209437 -1.4600216150283813 -1.4900057700327416 1.560009241104126 0.2899549603462219 False False
15376.473 0.6299831867218018 -1.7399922809996546 -1.4600216150283813 -1.4900304091027756 1.5599851608276367 0.28998324275016785 False False
15376.492999999999 0.6300402283668518 -1.739999910394186 -1.4600216150283813 -1.4900265720537682 1.5599970817565918 0.29002928733825684 False False
15376.512999999999 0.6299951672554016 -1.740016599694723 -1.4600802659988403 -1.4900265646031876 1.5599970817565918 0.290012925863266 False False
15376.533 0.6299962401390076 -1.7400413952269496 -1.4599933624267578 -1.4900142338922997 1.5600495338439941 0.2899996042251587 False False
15376.553 0.6299907565116882 -1.739955564538473 -1.4599319696426392 -1.489966170196869 1.5600252151489258 0.290012925863266 False False
15376.572999999999 0.6299875378608704 -1.7400409183897914 -1.4600335359573364 -1.490006835465767 1.5600335597991943 0.2900543212890625 False False
15376.592999999999 0.6300070285797119 -1.7399922809996546 -1.4600260257720947 -1.4899822783521195 1.5599650144577026 0.29000091552734375 False False
15376.613 0.6299862265586853 -1.739950796166891 -1.459972620010376 -1.4900552195361634 1.5600051879882812 0.290012925863266 False False
15376.633 0.6299831867218018 -1.7400042019286097 -1.4600379467010498 -1.4900100988200684 1.5599970817565918 0.2900247573852539 False False
15376.652999999998 0.6300370097160339 -1.739983697930807 -1.460017204284668 -1.4900222432664414 1.560017466545105 0.28999659419059753 False False
15376.672999999999 0.6299625635147095 -1.7399822674193324 -1.4600127935409546 -1.4899858248284836 1.560009241104126 0.29000404477119446 False False
15376.693 0.6300283074378967 -1.7399965725340785 -1.4600260257720947 -1.4899493989399453 1.5600335597991943 0.29000401496887207 False False
15376.713 0.6299951076507568 -1.7400042019286097 -1.4599977731704712 -1.4899583619884034 1.5599645376205444 0.2900247573852539 False False
15376.733 0.6299951076507568 -1.7400080166258753 -1.459956407546997 -1.4899655816010018 1.5600011348724365 0.28996220231056213 False False
15376.752999999999 0.6299745440483093 -1.7400194607176722 -1.4600096940994263 -1.4900100988200684 1.5599645376205444 0.2899743318557739 False False
15376.773 0.6299993991851807 -1.7400251827635707 -1.460017204284668 -1.4899858620813866 1.5599851608276367 0.29002341628074646 False False
15376.793 0.6299626231193542 -1.7400785885252894 -1.4599727392196655 -1.4900100988200684 1.5599970817565918 0.29005342721939087 False False
15376.813 0.6299669146537781 -1.740016599694723 -1.4600334167480469 -1.490038425927498 1.5600134134292603 0.2899920642375946 False False
15376.832999999999 0.6299982070922852 -1.7400366268553675 -1.4599758386611938 -1.4899943333915253 1.5599970817565918 0.29001596570014954 False False
15376.853 0.6300488114356995 -1.7399598560728968 -1.4600454568862915 -1.4899979096702118 1.560017466545105 0.2899876832962036 False False
15376.873 0.6300123333930969 -1.739922662774557 -1.460062861442566 -1.490038925116398 1.5600134134292603 0.2900278568267822 False False
15376.893 0.6300037503242493 -1.7400251827635707 -1.4600497484207153 -1.4900306400707741 1.5599970817565918 0.2900128960609436 False False
15376.912999999999 0.629990816116333 -1.7399822674193324 -1.459977149963379 -1.489954413180687 1.5600535869598389 0.2900247275829315 False False
15376.932999999999 0.6299593448638916 -1.7399879894652308 -1.4600259065628052 -1.490001694565155 1.5599929094314575 0.2900322675704956 False False
15376.953 0.6300070285797119 -1.7400042019286097 -1.460017204284668 -1.49000600100074 1.559984803199768 0.2899710536003113 False False
15376.973 0.6299788951873779 -1.739983697930807 -1.459943413734436 -1.4900222730687638 1.5599651336669922 0.28997889161109924 False False
15376.992999999999 0.6300025582313538 -1.7400337658324183 -1.4599846601486206 -1.4900183615139504 1.5599530935287476 0.2899876832962036 False False
15377.012999999999 0.629990816116333 -1.740060945550436 -1.4599521160125732 -1.4899864953807374 1.5599970817565918 0.29000401496887207 False False
15377.033 0.629990816116333 -1.739955564538473 -1.459989070892334 -1.490026333635189 1.5599929094314575 0.2899952232837677 False False
15377.053 0.629990816116333 -1.7400409183897914 -1.460017204284668 -1.4900060159019013 1.5599970817565918 0.2899952232837677 False False
15377.072999999999 0.6300156116485596 -1.7399598560728968 -1.460042119026184 -1.4900100988200684 1.5600335597991943 0.289992094039917 False False
15377.092999999999 0.6299745440483093 -1.7400533161559046 -1.4600095748901367 -1.4900461000255127 1.5600335597991943 0.28995946049690247 False False
15377.113 0.6299746036529541 -1.7400037250914515 -1.460029125213623 -1.490002566283085 1.560009241104126 0.28999659419059753 False False
15377.133 0.6299831867218018 -1.7400123081602992 -1.459989070892334 -1.4900024321726342 1.560009241104126 0.28996825218200684 False False
15377.152999999998 0.6299993991851807 -1.740016599694723 -1.4599933624267578 -1.4899984163096924 1.5599929094314575 0.2900322675704956 False False
15377.172999999999 0.6299951076507568 -1.7400294742979945 -1.460005283355713 -1.4899825018695374 1.5600051879882812 0.2900247275829315 False False
15377.193 0.6300070285797119 -1.7400366268553675 -1.460017204284668 -1.490034171645977 1.5600330829620361 0.2900203466415405 False False
15377.213 0.630028247833252 -1.7399751148619593 -1.4599922895431519 -1.490006023352482 1.5599929094314575 0.28996825218200684 False False
15377.233 0.6300444006919861 -1.7399760685362757 -1.4600095748901367 -1.4899984088591118 1.5600252151489258 0.2900172173976898 False False
15377.252999999999 0.629990816116333 -1.7399951420226039 -1.4600214958190918 -1.489994355743267 1.5600134134292603 0.2899876832962036 False False
15377.273 0.630028247833252 -1.7400366268553675 -1.459989070892334 -1.4900625956109543 1.5600051879882812 0.29000842571258545 False False
15377.293 0.6300113201141357 -1.7400785885252894 -1.4600129127502441 -1.4900058892420311 1.559953212738037 0.29004552960395813 False False
15377.313 0.630032479763031 -1.739999910394186 -1.4600496292114258 -1.4900141295841713 1.5600134134292603 0.289938747882843 False False
15377.332999999999 0.6299831867218018 -1.7400051556029261 -1.459977149963379 -1.4900304836085816 1.56002938747406 0.28996822237968445 False False
15377.353 0.6299583911895752 -1.7399426899352015 -1.4600334167480469 -1.4899901908687134 1.5600011348724365 0.2900828719139099 False False
15377.373 0.6300156116485596 -1.7400123081602992 -1.460017204284668 -1.490002529030182 1.559981107711792 0.2899952530860901 False False
15377.393 0.6299907565116882 -1.7400404415526332 -1.460000991821289 -1.4900262740305443 1.5599769353866577 0.29004108905792236 False False
15377.412999999999 0.6300238966941833 -1.7400208912291468 -1.460000991821289 -1.4900060606053849 1.5599929094314575 0.289992094039917 False False
15377.432999999999 0.6300070285797119 -1.7400294742979945 -1.4600214958190918 -1.4900223401239892 1.5599732398986816 0.29002469778060913 False False
15377.453 0.6299993991851807 -1.7399760685362757 -1.460000991821289 -1.4900060606053849 1.559981107711792 0.29002469778060913 False False
15377.473 0.6300238966941833 -1.739999910394186 -1.4600300788879395 -1.490038090651371 1.5600011348724365 0.29000839591026306 False False
15377.492999999999 0.6299939751625061 -1.739995618859762 -1.460017204284668 -1.4899984163096924 1.5599929094314575 0.289987713098526 False False
15377.512999999999 0.6299746036529541 -1.7400337658324183 -1.4599847793579102 -1.4899945494583626 1.559981107711792 0.290000855922699 False False
15377.533 0.6300411820411682 -1.739971777001852 -1.4600181579589844 -1.4900584828904648 1.5599970817565918 0.2900215685367584 False False
15377.553 0.629990816116333 -1.7400251827635707 -1.4600257873535156 -1.4900023651174088 1.5599727630615234 0.29002469778060913 False False
15377.572999999999 0.6299669146537781 -1.7400366268553675 -1.459972858428955 -1.4900539082339783 1.5599569082260132 0.29001155495643616 False False
15377.592999999999 0.6300113201141357 -1.7400409183897914 -1.4599652290344238 -1.4900059190443535 1.5600011348724365 0.29000401496887207 False False
15377.613 0.6299583315849304 -1.7400323353209437 -1.4600095748901367 -1.490050495868065 1.5600050687789917 0.28995949029922485 False False
15377.633 0.6299994587898254 -1.740044733087057 -1.4600257873535156 -1.4900101137212296 1.5599929094314575 0.28996822237968445 False False
15377.652999999998 0.6299745440483093 -1.7400042019286097 -1.4599684476852417 -1.4900222432664414 1.5599769353866577 0.29000839591026306 False False
15377.672999999999 0.6299712657928467 -1.7400366268553675 -1.4599976539611816 -1.4899977532080193 1.5599970817565918 0.2899666726589203 False False
15377.693 0.6300238966941833 -1.7400652370848597 -1.4599804878234863 -1.4899984014085312 1.559984803199768 0.2899877429008484 False False
15377.713 0.6300238966941833 -1.739983697930807 -1.4600138664245605 -1.4900424939445038 1.5600216388702393 0.29001593589782715 False False
15377.733 0.6300367712974548 -1.7400294742979945 -1.460030198097229 -1.4900264155915757 1.5600011348724365 0.2899920642375946 False False
15377.752999999999 0.6300113201141357 -1.7400042019286097 -1.459989070892334 -1.4900059264949341 1.559972882270813 0.2900039851665497 False False
15377.773 0.6299658417701721 -1.7400366268553675 -1.4599803686141968 -1.4900341790965577 1.5600335597991943 0.2900247871875763 False False
15377.793 0.6299669742584229 -1.740016599694723 -1.4600257873535156 -1.4900181603482743 1.5599888563156128 0.2899877429008484 False False
15377.813 0.629990816116333 -1.7400366268553675 -1.4600377082824707 -1.4900304612568398 1.5600051879882812 0.2900128960609436 False False
15377.832999999999 0.6300563216209412 -1.740023752252096 -1.4600257873535156 -1.4899902206710358 1.56002938747406 0.290032297372818 False False
15377.853 0.6300070881843567 -1.7399922809996546 -1.4599847793579102 -1.4899783965996285 1.559981107711792 0.29004549980163574 False False
15377.873 0.6299669742584229 -1.7399922809996546 -1.460017204284668 -1.4900424268892785 1.5600374937057495 0.2900410294532776 False False
15377.893 0.629982054233551 -1.7399794063963832 -1.460005283355713 -1.4899902802756806 1.5600216388702393 0.289983332157135 False False
15377.912999999999 0.6299746036529541 -1.7400785885252894 -1.4600086212158203 -1.489990198319294 1.560009241104126 0.2900291681289673 False False
15377.932999999999 0.6299788951873779 -1.7399751148619593 -1.4599652290344238 -1.4900464427522202 1.5600413084030151 0.28997111320495605 False False
15377.953 0.629957914352417 -1.739999910394186 -1.4599641561508179 -1.4900505927256127 1.5600011348724365 0.2900083661079407 False False
15377.973 0.629990816116333 -1.740044733087057 -1.4600257873535156 -1.4899704840830346 1.559981107711792 0.28996673226356506 False False
15377.992999999999 0.6300373673439026 -1.7400366268553675 -1.459989070892334 -1.4900059264949341 1.559981107711792 0.28999653458595276 False False
15378.012999999999 0.629986047744751 -1.740016599694723 -1.4600496292114258 -1.4899944078973313 1.5599490404129028 0.2899431586265564 False False
15378.033 0.629957914352417 -1.7400042019286097 -1.4599652290344238 -1.489990235572197 1.560017466545105 0.2900291383266449 False False
15378.053 0.6299787759780884 -1.7399870357909144 -1.4599924087524414 -1.489998423760273 1.560021162033081 0.29000401496887207 False False
15378.072999999999 0.6300329566001892 -1.7400862179198207 -1.4599976539611816 -1.4899944078973313 1.5599851608276367 0.29002031683921814 False False
15378.092999999999 0.6299951076507568 -1.7400323353209437 -1.4599361419677734 -1.4899977532080193 1.560009241104126 0.29000401496887207 False False
15378.113 0.629997968673706 -1.7400862179198207 -1.459977149963379 -1.490014099781849 1.559964656829834 0.289987713098526 False False
15378.133 0.6300114989280701 -1.739995618859762 -1.459989070892334 -1.4900264304927369 1.5599727630615234 0.2899710536003113 False False
15378.152999999998 0.6300448179244995 -1.7399727306761683 -1.460000991821289 -1.4900341790965577 1.559981107711792 0.2900409698486328 False False
15378.172999999999 0.6300070285797119 -1.7399922809996546 -1.459989070892334 -1.489990235572197 1.5600011348724365 0.289987713098526 False False
15378.193 0.6300404667854309 -1.7400366268553675 -1.4599977731704712 -1.4899902653745194 1.5599970817565918 0.289992094039917 False False
15378.213 0.6299906969070435 -1.7400652370848597 -1.4600216150283813 -1.4900264677456398 1.5599970817565918 0.29002031683921814 False False
15378.233 0.6300023794174194 -1.7400576076903285 -1.4600261449813843 -1.490030438905098 1.5600011348724365 0.29001593589782715 False False
15378.252999999999 0.629986047744751 -1.740056654016012 -1.459968090057373 -1.4899944078973313 1.5599929094314575 0.2900291383266449 False False
15378.273 0.6299831867218018 -1.7399760685362757 -1.4599844217300415 -1.4900386121920128 1.5599970817565918 0.29000839591026306 False False
15378.293 0.6299742460250854 -1.7399879894652308 -1.4599858522415161 -1.4899783295444031 1.5600134134292603 0.28991782665252686 False False
15378.313 0.6300194263458252 -1.7400490246214808 -1.4600588083267212 -1.4900100988200684 1.5599888563156128 0.2899952530860901 False False
15378.332999999999 0.6300357580184937 -1.740023752252096 -1.4600142240524292 -1.4900784653476258 1.5599888563156128 0.28995513916015625 False False
15378.353 0.6300328969955444 -1.7400366268553675 -1.4600261449813843 -1.490030438905098 1.5599888563156128 0.28995513916015625 False False
15378.373 0.6300373673439026 -1.7399913273253382 -1.4599592685699463 -1.4900141221335907 1.5599851608276367 0.290000855922699 False False
15378.393 0.6300024390220642 -1.7400127849974574 -1.4599933624267578 -1.490018130545952 1.5600534677505493 0.28994637727737427 False False
15378.412999999999 0.6300159692764282 -1.739967485467428 -1.4600380659103394 -1.4900304836085816 1.5599970817565918 0.29000839591026306 False False
15378.432999999999 0.6300448179244995 -1.7400490246214808 -1.4600335359573364 -1.4900461223772545 1.560021162033081 0.2900409698486328 False False
15378.453 0.6300023794174194 -1.7400700054564417 -1.4600261449813843 -1.4900018659285088 1.5599651336669922 0.28996673226356506 False False
15378.473 0.6300114989280701 -1.7400661907591761 -1.4599888324737549 -1.4899780315211792 1.560009241104126 0.29002469778060913 False False
15378.492999999999 0.6299415230751038 -1.7400366268553675 -1.460017204284668 -1.4900264230421563 1.5600011348724365 0.28997546434402466 False False
15378.512999999999 0.6299743056297302 -1.739983697930807 -1.460044026374817 -1.4900624316981812 1.559953212738037 0.29001593589782715 False False
15378.533 0.6299743056297302 -1.7400080166258753 -1.4600261449813843 -1.4900182125023385 1.559981107711792 0.28999656438827515 False False
15378.553 0.6299667954444885 -1.7400366268553675 -1.4600335359573364 -1.4900100988200684 1.5600292682647705 0.29000401496887207 False False
15378.572999999999 0.6300240755081177 -1.7400123081602992 -1.4600216150283813 -1.4899623480490227 1.5600215196609497 0.28997108340263367 False False
15378.592999999999 0.6299712657928467 -1.7400533161559046 -1.4599844217300415 -1.4899977830103417 1.5600011348724365 0.28995513916015625 False False
15378.613 0.6300448179244995 -1.7400409183897914 -1.4600543975830078 -1.490030438905098 1.560017466545105 0.2900497317314148 False False
15378.633 0.6300023794174194 -1.7399879894652308 -1.4600008726119995 -1.4900181976011773 1.5600051879882812 0.2899921238422394 False False
15378.652999999998 0.6300507187843323 -1.7400576076903285 -1.4599933624267578 -1.4900784653476258 1.5600051879882812 0.29001155495643616 False False
15378.672999999999 0.630033016204834 -1.7400490246214808 -1.4599888324737549 -1.4900383067182084 1.560009241104126 0.29002031683921814 False False
15378.693 0.6299532055854797 -1.739983697930807 -1.4600008726119995 -1.4900058892420311 1.5600134134292603 0.28999972343444824 False False
15378.713 0.629925012588501 -1.740044733087057 -1.4599844217300415 -1.4900100988200684 1.560021162033081 0.2899789810180664 False False
15378.733 0.6300240755081177 -1.740023752252096 -1.4600260257720947 -1.4899663937142869 1.5599651336669922 0.29002031683921814 False False
15378.752999999999 0.6299906373023987 -1.7400123081602992 -1.4599889516830444 -1.4899500918439408 1.5599889755249023 0.2900366485118866 False False
15378.773 0.6299743056297302 -1.7399865589537562 -1.4600499868392944 -1.4900181528976937 1.5600173473358154 0.29004886746406555 False False
15378.793 0.6300159692764282 -1.7400194607176722 -1.4600261449813843 -1.489962415104248 1.5599970817565918 0.29002469778060913 False False
15378.813 0.6299696564674377 -1.739983697930807 -1.4600127935409546 -1.4900100988200684 1.5600371360778809 0.2899952828884125 False False
15378.832999999999 0.6299415230751038 -1.7400208912291468 -1.4600425958633423 -1.4900100988200684 1.5600134134292603 0.29001593589782715 False False
15378.853 0.6299623250961304 -1.7400452099242152 -1.4600470066070557 -1.4900584456375618 1.5599929094314575 0.2899667024612427 False False
15378.873 0.6299787163734436 -1.739971777001852 -1.4599977731704712 -1.4899984163096924 1.5600173473358154 0.2899419069290161 False False
15378.893 0.6300522685050964 -1.739995618859762 -1.4599725008010864 -1.4899783965996285 1.5600574016571045 0.28998422622680664 False False
15378.912999999999 0.6300404667854309 -1.7399589023985804 -1.460039496421814 -1.4900100988200684 1.5600011348724365 0.28997543454170227 False False
15378.932999999999 0.6300203800201416 -1.7399879894652308 -1.4599933624267578 -1.489990235572197 1.5600132942199707 0.2899876832962036 False False
15378.953 0.6300329566001892 -1.7400042019286097 -1.460005283355713 -1.4899663266590615 1.559993028640747 0.2900128662586212 False False
15378.973 0.6299459338188171 -1.7400170765318812 -1.4600589275360107 -1.4899984014085312 1.5599970817565918 0.28999653458595276 False False
15378.992999999999 0.6299859881401062 -1.7400042019286097 -1.4600127935409546 -1.4900107619217415 1.5599451065063477 0.2899833917617798 False False
15379.012999999999 0.6300040483474731 -1.7399879894652308 -1.4599844217300415 -1.4900065970471879 1.5600132942199707 0.28999969363212585 False False
15379.033 0.6300567984580994 -1.740049501458639 -1.4600096940994263 -1.4900181603482743 1.5599852800369263 0.28997549414634705 False False
15379.053 0.6299712657928467 -1.739971777001852 -1.4599800109863281 -1.4900100988200684 1.5600411891937256 0.289978951215744 False False
15379.072999999999 0.6300070285797119 -1.7400409183897914 -1.4599844217300415 -1.4900264304927369 1.5600252151489258 0.2899789810180664 False False
15379.092999999999 0.6299712061882019 -1.7400366268553675 -1.460021734237671 -1.4899783965996285 1.5600134134292603 0.29001283645629883 False False
15379.113 0.6300040483474731 -1.7400123081602992 -1.4600425958633423 -1.4900181901505967 1.5600050687789917 0.29000401496887207 False False
15379.133 0.6300114989280701 -1.7400323353209437 -1.4599651098251343 -1.4899419483593483 1.5599770545959473 0.289992094039917 False False
15379.152999999998 0.6300129294395447 -1.7400127849974574 -1.4599800109863281 -1.4899783965996285 1.5600011348724365 0.2900291085243225 False False
15379.172999999999 0.6299251317977905 -1.7400080166258753 -1.460029125213623 -1.4899824050119896 1.5599452257156372 0.29001283645629883 False False
15379.193 0.6299623847007751 -1.7400576076903285 -1.459935188293457 -1.4900025066784401 1.559993028640747 0.2900409400463104 False False
15379.213 0.6299667954444885 -1.7399922809996546 -1.4599933624267578 -1.489974209373333 1.5600132942199707 0.29002028703689575 False False
15379.233 0.6300613284111023 -1.7400042019286097 -1.4600380659103394 -1.490050585275032 1.5599849224090576 0.29001283645629883 False False
15379.252999999999 0.6300404667854309 -1.7399913273253382 -1.4600096940994263 -1.4899660509875794 1.559981107711792 0.2899799346923828 False False
15379.273 0.6299696564674377 -1.7399503193297328 -1.4600127935409546 -1.4899660509875794 1.5599652528762817 0.28999966382980347 False False
15379.293 0.6299250721931458 -1.7400108776488246 -1.4600499868392944 -1.4899943855455895 1.5599850416183472 0.29003340005874634 False False
15379.313 0.6299876570701599 -1.7400785885252894 -1.4599889516830444 -1.4899905633977433 1.559981107711792 0.28999966382980347 False False
15379.332999999999 0.6300418972969055 -1.7400404415526332 -1.4599635601043701 -1.4899944078973313 1.5600531101226807 0.29004883766174316 False False
15379.353 0.6300203800201416 -1.739995618859762 -1.4599888324737549 -1.489990235572197 1.5599970817565918 0.2900083661079407 False False
15379.373 0.6299622654914856 -1.740044733087057 -1.4599977731704712 -1.489997775559761 1.560009241104126 0.29000401496887207 False False
15379.393 0.6300114393234253 -1.739995618859762 -1.4599919319152832 -1.4899861079505463 1.5599970817565918 0.29000401496887207 False False
15379.412999999999 0.6300114989280701 -1.7400323353209437 -1.4599933624267578 -1.490010031764843 1.5600332021713257 0.28995516896247864 False False
15379.432999999999 0.6300104856491089 -1.7400280437865199 -1.4600008726119995 -1.4899582427791138 1.5600050687789917 0.28997549414634705 False False
15379.453 0.6300085186958313 -1.739983697930807 -1.4600410461425781 -1.489974209373333 1.5599970817565918 0.28991788625717163 False False
15379.473 0.6299876570701599 -1.7400084934630335 -1.460005283355713 -1.4900304165533562 1.559993028640747 0.28996676206588745 False False
15379.492999999999 0.6299771070480347 -1.7399879894652308 -1.4600261449813843 -1.4900222209146996 1.5599970817565918 0.29002466797828674 False False
15379.512999999999 0.6300159692764282 -1.7400323353209437 -1.4600380659103394 -1.4900141072324296 1.5600132942199707 0.2899833619594574 False False
15379.533 0.6300204396247864 -1.740016599694723 -1.4600350856781006 -1.4900141072324296 1.5599850416183472 0.2899921238422394 False False
15379.553 0.6300114989280701 -1.7400371036925257 -1.460017204284668 -1.4900624838522454 1.560041069984436 0.2899833619594574 False False
15379.572999999999 0.6299696564674377 -1.7400404415526332 -1.460005283355713 -1.4899784487536927 1.5599653720855713 0.29001709818840027 False False
15379.592999999999 0.6299487948417664 -1.7400371036925257 -1.4600098133087158 -1.4899864953807374 1.559989094734192 0.2899833917617798 False False
15379.613 0.6300240755081177 -1.7400123081602992 -1.4599933624267578 -1.490002529030182 1.559993028640747 0.2899877727031708 False False
15379.633 0.6299951076507568 -1.7399879894652308 -1.4600216150283813 -1.4899660509875794 1.5599851608276367 0.2899344861507416 False False
15379.652999999998 0.6300405263900757 -1.7399879894652308 -1.4600424766540527 -1.4900222209146996 1.5599970817565918 0.29007381200790405 False False
15379.672999999999 0.6299951076507568 -1.7400208912291468 -1.4600008726119995 -1.4900304240039368 1.5600090026855469 0.28997114300727844 False False
15379.693 0.6300159096717834 -1.7400580845274867 -1.4600625038146973 -1.4900181976011773 1.5599970817565918 0.28995513916015625 False False
15379.713 0.6300240755081177 -1.7399879894652308 -1.4600454568862915 -1.4900264304927369 1.560001015663147 0.28995954990386963 False False
15379.733 0.6299801468849182 -1.7400042019286097 -1.4599963426589966 -1.4900264528444787 1.5599812269210815 0.289913535118103 False False
15379.752999999999 0.6299459934234619 -1.7400075397887171 -1.4600008726119995 -1.4899823826602479 1.559993028640747 0.2900083661079407 False False
15379.773 0.629986047744751 -1.740016599694723 -1.4599546194076538 -1.4899905559471627 1.559993028640747 0.2900203466415405 False False
15379.793 0.630028486251831 -1.7400571308531703 -1.4600127935409546 -1.489958220427372 1.560029149055481 0.28999653458595276 False False
15379.813 0.6300203204154968 -1.7399713001646937 -1.4600008726119995 -1.490030438905098 1.5599812269210815 0.2900278568267822 False False
15379.832999999999 0.6299489736557007 -1.740044733087057 -1.4600424766540527 -1.48998615265403 1.5600132942199707 0.28996825218200684 False False
15379.853 0.6300284266471863 -1.740018983880514 -1.4600008726119995 -1.4899623927525063 1.5600132942199707 0.29004091024398804 False False
15379.873 0.630024790763855 -1.7400075397887171 -1.460034966468811 -1.4900059264949341 1.5599732398986816 0.2899790406227112 False False
15379.893 0.629974365234375 -1.7399879894652308 -1.4600186347961426 -1.4900222581676026 1.5600013732910156 0.29000401496887207 False False
15379.912999999999 0.6299906969070435 -1.7400323353209437 -1.4600801467895508 -1.4900181976011773 1.5599970817565918 0.2900083661079407 False False
15379.932999999999 0.6300024390220642 -1.7400371036925257 -1.4600632190704346 -1.4900181976011773 1.5599614381790161 0.2900083661079407 False False
15379.953 0.6299712657928467 -1.7400456867613734 -1.4599637985229492 -1.4899860855988045 1.5600132942199707 0.28999653458595276 False False
15379.973 0.6299787759780884 -1.7400404415526332 -1.460017204284668 -1.489990235572197 1.5599812269210815 0.28999653458595276 False False
15379.992999999999 0.6300039291381836 -1.7399341068663539 -1.4600083827972412 -1.4900345218232651 1.559993028640747 0.2900007963180542 False False
15380.012999999999 0.6299980282783508 -1.7399965725340785 -1.4600498676300049 -1.4899902132204552 1.5599812269210815 0.28996679186820984 False False
15380.033 0.6299533843994141 -1.7399994335570277 -1.4600423574447632 -1.490030438905098 1.5599534511566162 0.29001593589782715 False False
15380.053 0.6300327777862549 -1.740061422387594 -1.4600423574447632 -1.4899741944721718 1.56002938747406 0.29001158475875854 False False
15380.072999999999 0.630029022693634 -1.7400404415526332 -1.4599933624267578 -1.4900424417904397 1.5600252151489258 0.2899877429008484 False False
15380.092999999999 0.6300240159034729 -1.7400371036925257 -1.4600127935409546 -1.4899824050119896 1.5599888563156128 0.2900083661079407 False False
15380.113 0.6300371289253235 -1.7400175533690394 -1.460030436515808 -1.4900264379433175 1.5600252151489258 0.2899833917617798 False False
15380.133 0.6300038695335388 -1.7400175533690394 -1.4600454568862915 -1.4899824199131508 1.5599970817565918 0.2900039851665497 False False
15380.152999999998 0.6299774050712585 -1.739986082116598 -1.4600542783737183 -1.490014137034752 1.5599690675735474 0.28995949029922485 False False
15380.172999999999 0.6299625039100647 -1.7400042019286097 -1.4600259065628052 -1.4900665444186707 1.560009241104126 0.2900290787220001 False False
15380.193 0.6299372315406799 -1.7399994335570277 -1.4599889516830444 -1.4899902206710358 1.560009241104126 0.28997117280960083 False False
15380.213 0.6300024390220642 -1.739936967889303 -1.4600008726119995 -1.4899820920876046 1.5600053071975708 0.2899877429008484 False False
15380.233 0.6299535632133484 -1.740016599694723 -1.460005283355713 -1.4900265646031876 1.5599929094314575 0.2899877429008484 False False
15380.252999999999 0.6299669146537781 -1.7400371036925257 -1.4600214958190918 -1.4899738368443032 1.560009241104126 0.2900007665157318 False False
15380.273 0.6300194263458252 -1.7400371036925257 -1.4600141048431396 -1.4900265646031876 1.5599888563156128 0.28999537229537964 False False
15380.293 0.6300070285797119 -1.7400123081602992 -1.4600541591644287 -1.4899977830103417 1.5599769353866577 0.289959579706192 False False
15380.313 0.6300157904624939 -1.7399846516051234 -1.4600541591644287 -1.4900304314545174 1.560021162033081 0.28997117280960083 False False
15380.592999999999 0.6299745440483093 -1.7399922809996546 -1.4600346088409424 -1.4899864953807374 1.5599970817565918 0.2899267375469208 False False
15380.613 0.6300113201141357 -1.7400256596007289 -1.4600214958190918 -1.4900267881206055 1.5599929094314575 0.28995952010154724 False False
15380.633 0.6299387216567993 -1.7400123081602992 -1.460018277168274 -1.4900423002294083 1.5600171089172363 0.2900332808494568 False False
15380.912999999999 0.6299831867218018 -1.7400132618346156 -1.4599814414978027 -1.490026318734028 1.5600818395614624 0.29001593589782715 False False
15380.932999999999 0.6300037503242493 -1.740023752252096 -1.460017204284668 -1.4900299844196816 1.56002938747406 0.29000401496887207 False False
15380.953 0.6299788951873779 -1.7400323353209437 -1.4600138664245605 -1.4899901685169716 1.5599970817565918 0.2900083661079407 False False
15380.973 0.6299464106559753 -1.7400256596007289 -1.459989070892334 -1.490065985625126 1.5599929094314575 0.2899877429008484 False False
15380.992999999999 0.6300156116485596 -1.7399879894652308 -1.4600138664245605 -1.4899981406382103 1.5600051879882812 0.2899877429008484 False False
15381.012999999999 0.629982054233551 -1.7400323353209437 -1.4599565267562866 -1.4899819654277344 1.5600051879882812 0.2899639904499054 False False
15381.033 0.6300025582313538 -1.7400747738280238 -1.4600626230239868 -1.4900222581676026 1.5599690675735474 0.29001158475875854 False False
15381.053 0.629990816116333 -1.7400032482542933 -1.4600419998168945 -1.49001398802314 1.5600134134292603 0.28999534249305725 False False
15381.072999999999 0.6300156116485596 -1.7400084934630335 -1.460058331489563 -1.4900346261313935 1.5600134134292603 0.289992094039917 False False
15381.092999999999 0.6300238966941833 -1.7400123081602992 -1.4600496292114258 -1.490034559076168 1.560021162033081 0.29002463817596436 False False
15381.113 0.6300238966941833 -1.7399951420226039 -1.460005283355713 -1.4900262963822861 1.5599888563156128 0.29004088044166565 False False
15381.133 0.6299538612365723 -1.7399817905821742 -1.4599642753601074 -1.4899905932000657 1.5600011348724365 0.29001596570014954 False False
15381.152999999998 0.6299745440483093 -1.7400537929930628 -1.460000991821289 -1.4899745744517823 1.5599727630615234 0.29002028703689575 False False
15381.172999999999 0.6300113201141357 -1.7400371036925257 -1.4599924087524414 -1.4900380384973069 1.5599929094314575 0.29002028703689575 False False
15381.193 0.6300113201141357 -1.7400671444334925 -1.4600257873535156 -1.4900143978050728 1.560017466545105 0.29003649950027466 False False
15381.213 0.6299993991851807 -1.7399922809996546 -1.4600410461425781 -1.4900179144791146 1.5599970817565918 0.2899668216705322 False False
15381.233 0.6300238966941833 -1.7399994335570277 -1.4599847793579102 -1.490006075506546 1.5599929094314575 0.2899921238422394 False False
15381.252999999999 0.629990816116333 -1.7400042019286097 -1.4599967002868652 -1.4900021266988297 1.559981107711792 0.29001277685165405 False False
15381.273 0.6300238966941833 -1.73999085048818 -1.4600257873535156 -1.4899944153479119 1.5599727630615234 0.2899302840232849 False False
15381.293 0.6299874782562256 -1.740021368066305 -1.459989070892334 -1.4900018361261864 1.5599769353866577 0.289959579706192 False False
15381.313 0.6300070285797119 -1.7399922809996546 -1.460042119026184 -1.4900222581676026 1.5599888563156128 0.290053129196167 False False
15381.332999999999 0.6300368309020996 -1.7400504551329554 -1.4600095748901367 -1.4899783965996285 1.5600495338439941 0.2899668216705322 False False
15381.353 0.6299994587898254 -1.7399879894652308 -1.4600257873535156 -1.490014137034752 1.560021162033081 0.2900376319885254 False False
15381.373 0.6300156712532043 -1.7400537929930628 -1.4599814414978027 -1.4900424417904397 1.5600051879882812 0.29000401496887207 False False
15381.393 0.6299669146537781 -1.739957948724264 -1.4600214958190918 -1.4899704319289704 1.5599970817565918 0.290066123008728 False False
15381.412999999999 0.6300444006919861 -1.7399684391417445 -1.4599641561508179 -1.4900264304927369 1.560009241104126 0.289995402097702 False False
15381.432999999999 0.6300563812255859 -1.7399879894652308 -1.459976077079773 -1.489990198319294 1.56002938747406 0.29002028703689575 False False
15381.453 0.6300238966941833 -1.740023752252096 -1.459989070892334 -1.4900464427522202 1.5599970817565918 0.2900160253047943 False False
15381.473 0.6300199627876282 -1.740049501458639 -1.4599804878234863 -1.490030438905098 1.5600134134292603 0.28997254371643066 False False
15381.492999999999 0.6299951076507568 -1.7400042019286097 -1.460066556930542 -1.4900100988200684 1.559981107711792 0.28999653458595276 False False
15381.512999999999 0.6300156116485596 -1.7400585613646449 -1.4599924087524414 -1.4899664011648674 1.5600295066833496 0.28998416662216187 False False
15381.533 0.6300199627876282 -1.739974161187643 -1.4599803686141968 -1.4900181379965325 1.5599727630615234 0.28994661569595337 False False
15381.553 0.6299788355827332 -1.7400461635985316 -1.459977149963379 -1.4900024768761178 1.5600495338439941 0.2899884879589081 False False
15381.813 0.6300238966941833 -1.7399879894652308 -1.459977149963379 -1.4900464054993172 1.5599769353866577 0.29000401496887207 False False
15381.832999999999 0.6300734877586365 -1.7400299511351527 -1.460017204284668 -1.4900584456375618 1.5599970817565918 0.2899552583694458 False False
15381.853 0.6299821138381958 -1.7399670086302699 -1.4600582122802734 -1.4900542807630082 1.560009241104126 0.2899509370326996 False False
15381.873 0.6299496293067932 -1.7399503193297328 -1.459977149963379 -1.489970141356327 1.5600134134292603 0.28997257351875305 False False
15381.893 0.6299950480461121 -1.739908357659811 -1.460005283355713 -1.4899984163096924 1.56002938747406 0.2900083363056183 False False
15381.912999999999 0.6300070881843567 -1.7400413952269496 -1.4600214958190918 -1.4899704840830346 1.5600252151489258 0.29000401496887207 False False
15381.932999999999 0.6300156116485596 -1.7400084934630335 -1.4599924087524414 -1.4900546234897156 1.560017466545105 0.289992094039917 False False
15381.953 0.6300036907196045 -1.7399879894652308 -1.460017204284668 -1.4900140327266236 1.56002938747406 0.2899668514728546 False False
15381.973 0.6299667954444885 -1.7399879894652308 -1.460029125213623 -1.490018219952919 1.5599970817565918 0.290005087852478 False False
15381.992999999999 0.630028486251831 -1.7399994335570277 -1.4600499868392944 -1.490005948846676 1.559981107711792 0.2900494933128357 False False
15382.012999999999 0.629997968673706 -1.7399817905821742 -1.4600335359573364 -1.4900264379433175 1.5599970817565918 0.289959579706192 False False
15382.033 0.629999577999115 -1.7400537929930628 -1.4600096940994263 -1.4899984163096924 1.5599567890167236 0.2900419533252716 False False
15382.053 0.630028486251831 -1.7400132618346156 -1.4599933624267578 -1.4900545638850708 1.5600134134292603 0.28999537229537964 False False
15382.072999999999 0.6300449371337891 -1.7399922809996546 -1.4600082635879517 -1.4899664235166092 1.5600252151489258 0.28999969363212585 False False
15382.092999999999 0.6300476789474487 -1.7399879894652308 -1.460017204284668 -1.4900100988200684 1.5599846839904785 0.2899877429008484 False False
15382.113 0.6300024390220642 -1.7400280437865199 -1.4600098133087158 -1.4900018137744446 1.559952735900879 0.29006505012512207 False False
15382.133 0.6300404071807861 -1.739946027795309 -1.4600142240524292 -1.4900386121920128 1.560017466545105 0.2900488078594208 False False
15382.152999999998 0.6299579739570618 -1.7400404415526332 -1.4600454568862915 -1.4900100988200684 1.5600495338439941 0.2900530993938446 False False
15382.172999999999 0.6300070285797119 -1.7400413952269496 -1.4600261449813843 -1.4899865251830597 1.560009241104126 0.29000502824783325 False False
15382.193 0.6299815773963928 -1.7399622402586878 -1.460005283355713 -1.4900424417904397 1.5600335597991943 0.2899712324142456 False False
15382.213 0.6300105452537537 -1.7399832210936488 -1.4600216150283813 -1.490030438905098 1.5599888563156128 0.289992094039917 False False
15382.233 0.6300070285797119 -1.7400585613646449 -1.4600008726119995 -1.4899944153479119 1.5600454807281494 0.29001593589782715 False False
15382.252999999999 0.6299697160720825 -1.7400032482542933 -1.4599919319152832 -1.4899824050119896 1.559952735900879 0.2900407910346985 False False
15382.273 0.6299743056297302 -1.7400280437865199 -1.4599919319152832 -1.48999439299617 1.5599970817565918 0.29001694917678833 False False
15382.293 0.6300070285797119 -1.740021368066305 -1.4600468873977661 -1.4900706347874184 1.559981107711792 0.2899552583694458 False False
15382.313 0.6300039887428284 -1.7400628528990687 -1.4599517583847046 -1.4900025066784401 1.5599970817565918 0.28998345136642456 False False
15382.332999999999 0.6299787759780884 -1.7399832210936488 -1.4600543975830078 -1.4899783965996285 1.560009241104126 0.29004520177841187 False False
15382.353 0.6299995183944702 -1.7400628528990687 -1.460005283355713 -1.4900100988200684 1.5599970817565918 0.2900127172470093 False False
15382.373 0.629999577999115 -1.7399951420226039 -1.4599725008010864 -1.4899864953807374 1.5600011348724365 0.2899669110774994 False False
15382.393 0.6299995183944702 -1.7400256596007289 -1.4599800109863281 -1.4900100466660042 1.559981107711792 0.28995954990386963 False False
15382.412999999999 0.6299548149108887 -1.7400042019286097 -1.4600499868392944 -1.4900141221335907 1.5600051879882812 0.2900245785713196 False False
15382.432999999999 0.6300070285797119 -1.739969869653219 -1.4600260257720947 -1.4900065895966073 1.5599929094314575 0.29000404477119446 False False
15382.453 0.6299668550491333 -1.739978929559225 -1.460005283355713 -1.4899783816984673 1.5599769353866577 0.28997552394866943 False False
15382.473 0.6300194263458252 -1.7400323353209437 -1.460017204284668 -1.4900141072324296 1.5600495338439941 0.2900127172470093 False False
15382.492999999999 0.6300328969955444 -1.740016599694723 -1.459968090057373 -1.4900264304927369 1.5600171089172363 0.28997552394866943 False False
15382.512999999999 0.6299951076507568 -1.7400123081602992 -1.4599844217300415 -1.4900141146830101 1.560021162033081 0.2899877727031708 False False
15382.533 0.6300070285797119 -1.7400461635985316 -1.4599977731704712 -1.4899824199131508 1.5599846839904785 0.28999969363212585 False False
15382.553 0.6299951076507568 -1.7400042019286097 -1.4599933624267578 -1.489990585749485 1.559981107711792 0.2899755537509918 False False
15382.572999999999 0.6299743056297302 -1.7400123081602992 -1.4600008726119995 -1.490018145447113 1.5600216388702393 0.2900658845901489 False False
15382.592999999999 0.629986047744751 -1.739946027795309 -1.459956169128418 -1.4900867503932496 1.560021162033081 0.29001694917678833 False False
15382.613 0.6299623250961304 -1.7400208912291468 -1.4599920511245728 -1.4900059264949341 1.559952735900879 0.29003217816352844 False False
15382.633 0.6299132108688354 -1.7399488888182582 -1.4600499868392944 -1.489982397561409 1.560009241104126 0.28999969363212585 False False
15382.652999999998 0.6300024390220642 -1.7400676212706507 -1.4600632190704346 -1.4899820622852822 1.560009241104126 0.29003649950027466 False False
15382.672999999999 0.6299831867218018 -1.7400042019286097 -1.4600305557250977 -1.4900504660657425 1.5599888563156128 0.289992094039917 False False
15382.693 0.6299906373023987 -1.7400042019286097 -1.4600261449813843 -1.4899977606586 1.5599888563156128 0.29000401496887207 False False
15382.713 0.6299951076507568 -1.7400042019286097 -1.460005283355713 -1.4899944078973313 1.5599970817565918 0.2899755537509918 False False
15382.733 0.629999577999115 -1.7400042019286097 -1.460017204284668 -1.4899864953807374 1.5599970817565918 0.2900007367134094 False False
15382.752999999999 0.6300477385520935 -1.7399994335570277 -1.459951639175415 -1.4900424119881173 1.560012936592102 0.28999650478363037 False False
15382.773 0.6300084590911865 -1.7399951420226039 -1.4600187540054321 -1.490026355986931 1.5599888563156128 0.29003310203552246 False False
15382.793 0.629969596862793 -1.7400747738280238 -1.4600216150283813 -1.4899905633977433 1.559952735900879 0.2900245487689972 False False
15382.813 0.6300159692764282 -1.7400084934630335 -1.4600424766540527 -1.4900025066784401 1.5599650144577026 0.28997480869293213 False False
15382.832999999999 0.6299622654914856 -1.7400032482542933 -1.4600096940994263 -1.48999439299617 1.5600051879882812 0.29001694917678833 False False
15382.853 0.6300114989280701 -1.740021368066305 -1.4599605798721313 -1.4900018510273476 1.5600051879882812 0.2899755835533142 False False
15382.873 0.6299831867218018 -1.7399670086302699 -1.4600008726119995 -1.4899984163096924 1.5599888563156128 0.29001161456108093 False False
15382.893 0.6299786567687988 -1.7399832210936488 -1.4600127935409546 -1.4900025364807625 1.5600051879882812 0.2900278568267822 False False
15382.912999999999 0.6300159692764282 -1.7400123081602992 -1.4600261449813843 -1.489990548496582 1.5600335597991943 0.2899799346923828 False False
15382.932999999999 0.6299951672554016 -1.7399994335570277 -1.4600067138671875 -1.4900501903942605 1.5599769353866577 0.28999966382980347 False False
15382.953 0.6299623250961304 -1.7399608097472132 -1.4600216150283813 -1.4899820026806374 1.5599888563156128 0.2900127172470093 False False
15382.973 0.6299742460250854 -1.740021368066305 -1.4599800109863281 -1.4900264304927369 1.560009241104126 0.28998351097106934 False False
15382.992999999999 0.6299532055854797 -1.7400371036925257 -1.4599919319152832 -1.489982397561409 1.5599846839904785 0.2899669408798218 False False
15383.012999999999 0.6299743056297302 -1.7400132618346156 -1.4599636793136597 -1.4899663415602227 1.5599929094314575 0.29000070691108704 False False
15383.033 0.6300203800201416 -1.740044733087057 -1.4600380659103394 -1.4900066044977684 1.559981107711792 0.28995972871780396 False False
15383.053 0.6300241351127625 -1.7400208912291468 -1.4600261449813843 -1.490030438905098 1.560021162033081 0.29003646969795227 False False
15383.072999999999 0.6299696564674377 -1.7399622402586878 -1.4599844217300415 -1.489950069492199 1.560001015663147 0.289992094039917 False False
15383.092999999999 0.629999577999115 -1.7399994335570277 -1.4600261449813843 -1.4899500396898766 1.559969186782837 0.29000404477119446 False False
15383.113 0.6299668550491333 -1.740049501458639 -1.4600216150283813 -1.4900141072324296 1.5599970817565918 0.29001593589782715 False False
15383.133 0.6299787163734436 -1.7400075397887171 -1.4600335359573364 -1.4899977532080193 1.5599888563156128 0.2899920344352722 False False
15383.152999999998 0.6300159096717834 -1.739957948724264 -1.4599560499191284 -1.4900181677988549 1.560009241104126 0.28996697068214417 False False
15383.172999999999 0.6300240755081177 -1.7400042019286097 -1.4599977731704712 -1.4900424417904397 1.5600134134292603 0.28999969363212585 False False
15383.193 0.6300114989280701 -1.7400042019286097 -1.460051417350769 -1.4900059637478371 1.560009241104126 0.2899755537509918 False False
15383.213 0.6299951076507568 -1.740091463128561 -1.4600261449813843 -1.4900141072324296 1.5599970817565918 0.28995537757873535 False False
15383.233 0.6300285458564758 -1.7399641476073207 -1.4600380659103394 -1.4900059339455147 1.559981107711792 0.29000401496887207 False False
15383.252999999999 0.629969596862793 -1.7399965725340785 -1.4599441289901733 -1.4900385600379487 1.56002938747406 0.2899791896343231 False False
15383.273 0.6299503445625305 -1.7399760685362757 -1.460005283355713 -1.4900100988200684 1.5599970817565918 0.2899625897407532 False False
15383.293 0.6300070285797119 -1.7400123081602992 -1.4599964618682861 -1.4899783965996285 1.5600134134292603 0.29002127051353455 False False
15383.313 0.6299504041671753 -1.7400280437865199 -1.4599591493606567 -1.4900222805193444 1.5600051879882812 0.2899712324142456 False False
15383.332999999999 0.6300159692764282 -1.7400280437865199 -1.4600589275360107 -1.489970141356327 1.5599970817565918 0.28998422622680664 False False
15383.353 0.6300492882728577 -1.740016599694723 -1.4600186347961426 -1.49003008872781 1.5600618124008179 0.2900083065032959 False False
15383.373 0.6300039887428284 -1.7399922809996546 -1.4599888324737549 -1.4899944078973313 1.5599727630615234 0.28999969363212585 False False
15383.393 0.6299995183944702 -1.7400075397887171 -1.4600589275360107 -1.4899783965996285 1.5599769353866577 0.2900245487689972 False False
15383.412999999999 0.6299562454223633 -1.7400084934630335 -1.4599769115447998 -1.4900542807630082 1.5600051879882812 0.2900331914424896 False False
15383.432999999999 0.6300449371337891 -1.7400280437865199 -1.460017204284668 -1.4900141072324296 1.5600134134292603 0.2900170087814331 False False
15383.453 0.6299742460250854 -1.7400585613646449 -1.4599963426589966 -1.4899460610798378 1.560021162033081 0.28996264934539795 False False
15383.473 0.6299859881401062 -1.7400032482542933 -1.4599725008010864 -1.4899819877794762 1.5600335597991943 0.28997913002967834 False False
15383.492999999999 0.6299415230751038 -1.7400413952269496 -1.4599664211273193 -1.4900222805193444 1.56002938747406 0.2900039851665497 False False
15383.512999999999 0.6299757361412048 -1.740021368066305 -1.46000075340271 -1.4900141072324296 1.5599970817565918 0.2899755835533142 False False
15383.533 0.6300039887428284 -1.7400084934630335 -1.4600247144699097 -1.4900181752494355 1.5599687099456787 0.29002025723457336 False False
15383.553 0.6299770474433899 -1.7400323353209437 -1.4600142240524292 -1.4900100988200684 1.560017466545105 0.2899799346923828 False False
15383.572999999999 0.6299787163734436 -1.7400280437865199 -1.460029125213623 -1.4899984163096924 1.56002938747406 0.28999969363212585 False False
15383.592999999999 0.6300129294395447 -1.7400084934630335 -1.4599725008010864 -1.489997686152794 1.5599929094314575 0.2900374233722687 False False
15383.873 0.6299831867218018 -1.7400280437865199 -1.459968090057373 -1.4899984163096924 1.5600535869598389 0.2899799346923828 False False
15383.893 0.6299831867218018 -1.740021368066305 -1.4599800109863281 -1.4900015902570267 1.560009241104126 0.2900007367134094 False False
15383.912999999999 0.6299831867218018 -1.7400371036925257 -1.460017204284668 -1.490046077673771 1.5600051879882812 0.29002895951271057 False False
15383.932999999999 0.6299488544464111 -1.7400704822936 -1.4599977731704712 -1.4900100392154236 1.56002938747406 0.28994786739349365 False False
15383.953 0.6299831867218018 -1.7400075397887171 -1.459968090057373 -1.489966445868351 1.5599688291549683 0.2899434566497803 False False
15383.973 0.6299578547477722 -1.739978929559225 -1.4599963426589966 -1.4899784487536927 1.5599769353866577 0.28999969363212585 False False
15383.992999999999 0.6300114393234253 -1.7400208912291468 -1.4600260257720947 -1.4899784487536927 1.560017466545105 0.2899921238422394 False False
15384.012999999999 0.6300024390220642 -1.7400461635985316 -1.4600036144256592 -1.48994134486232 1.560017466545105 0.2899712324142456 False False
15384.033 0.6299325823783875 -1.7400356731810511 -1.4600082635879517 -1.4899942812374611 1.560025691986084 0.29006487131118774 False False
15384.053 0.6300114393234253 -1.7399922809996546 -1.4600216150283813 -1.4899702829173584 1.5599929094314575 0.289992094039917 False False
15384.072999999999 0.6299951076507568 -1.7400123081602992 -1.460005283355713 -1.4900100988200684 1.5600371360778809 0.29000499844551086 False False
15384.092999999999 0.6300070881843567 -1.7399713001646937 -1.4600186347961426 -1.4900306475213547 1.5600011348724365 0.289992094039917 False False
15384.113 0.6299742460250854 -1.7399951420226039 -1.4600096940994263 -1.4899462473443528 1.5599929094314575 0.2900007367134094 False False
15384.133 0.6299668550491333 -1.7399951420226039 -1.460005283355713 -1.489962102179863 1.5599929094314575 0.2899877727031708 False False
15384.152999999998 0.6299951076507568 -1.7400371036925257 -1.4600379467010498 -1.4900306400707741 1.560009241104126 0.28997915983200073 False False
15384.172999999999 0.6299787759780884 -1.7400361500182093 -1.4600335359573364 -1.4899543684772034 1.5599769353866577 0.289992094039917 False False
15384.193 0.6300158500671387 -1.7399832210936488 -1.4599889516830444 -1.4900019106319924 1.5600134134292603 0.2899596095085144 False False
15384.213 0.629983127117157 -1.7400571308531703 -1.460030436515808 -1.4900509131005784 1.5600134134292603 0.2899954319000244 False False
15384.233 0.630002498626709 -1.739999910394186 -1.4600023031234741 -1.4900100839189072 1.560009241104126 0.2900331914424896 False False
15384.252999999999 0.6300461888313293 -1.7400042019286097 -1.4599964618682861 -1.4900141891888161 1.5599929094314575 0.28998345136642456 False False
15384.273 0.6300328373908997 -1.7400256596007289 -1.460030436515808 -1.489965633755066 1.5600051879882812 0.2900083363056183 False False
15384.293 0.6299417018890381 -1.7399550877013148 -1.4600127935409546 -1.4900502947023888 1.559981107711792 0.29005736112594604 False False
15384.313 0.6299951076507568 -1.7400256596007289 -1.459984540939331 -1.489978515808918 1.5600535869598389 0.29000502824783325 False False
15384.332999999999 0.6299906969070435 -1.7400413952269496 -1.4600260257720947 -1.4899944600513955 1.5599970817565918 0.2899877727031708 False False
15384.353 0.6299951076507568 -1.7400132618346156 -1.4600498676300049 -1.4899625939181824 1.5599929094314575 0.2900007665157318 False False
15384.373 0.6300082802772522 -1.7400280437865199 -1.459984540939331 -1.4900263932398339 1.5600093603134155 0.29003646969795227 False False
15384.393 0.6300114393234253 -1.7400371036925257 -1.4600096940994263 -1.4900058519891282 1.5599929094314575 0.2899877727031708 False False
15384.412999999999 0.6300535202026367 -1.7400175533690394 -1.4600454568862915 -1.4900100988200684 1.5600134134292603 0.29001590609550476 False False
15384.432999999999 0.630065381526947 -1.740016599694723 -1.459972620010376 -1.490026333635189 1.5599567890167236 0.28995102643966675 False False
15384.453 0.6300114393234253 -1.7399550877013148 -1.4600021839141846 -1.4899943482926865 1.5600051879882812 0.28998416662216187 True False
15384.473 0.629940390586853 -1.7400280437865199 -1.4599801301956177 -1.4899545472911377 1.5600252151489258 0.2900127172470093 True False
15384.492999999999 0.6300357580184937 -1.7400084934630335 -1.4600216150283813 -1.4900581997684021 1.5599929094314575 0.29000404477119446 True False
15384.512999999999 0.6301276683807373 -1.7399832210936488 -1.4599682092666626 -1.489982472067215 1.5600335597991943 0.28997474908828735 True False
15384.533 0.6303161978721619 -1.7400042019286097 -1.4600260257720947 -1.4900503245047112 1.559981107711792 0.28999969363212585 True False
15384.553 0.6305601596832275 -1.7399622402586878 -1.460066795349121 -1.489978590314724 1.5599970817565918 0.289992094039917 True False
15384.572999999999 0.630897045135498 -1.7399641476073207 -1.4600684642791748 -1.4899585929564019 1.5600576400756836 0.2900083363056183 True False
15384.592999999999 0.6312057971954346 -1.7398845158019007 -1.4602181911468506 -1.4899665874293824 1.5599768161773682 0.2900649607181549 True False
15384.613 0.6316971182823181 -1.7397438488402308 -1.4602769613265991 -1.489978590314724 1.560009241104126 0.29010069370269775 True False
15384.633 0.6323487758636475 -1.7396618328490199 -1.4603965282440186 -1.4899945122054596 1.5599892139434814 0.2901313006877899 True False
15384.652999999998 0.633293628692627 -1.7394610844054164 -1.4605512619018555 -1.4899622809937973 1.5599888563156128 0.29025179147720337 True False
15384.672999999999 0.6342523097991943 -1.7392884693541468 -1.4608656167984009 -1.4899787914804001 1.5599769353866577 0.290355384349823 True False
15384.693 0.6355410814285278 -1.739098688165182 -1.4610671997070312 -1.4898510736278077 1.5599929094314575 0.2904473543167114 True False
15384.713 0.6371886730194092 -1.7388040028014125 -1.4614624977111816 -1.489798904662468 1.560012936592102 0.29051366448402405 True False
15384.733 0.6390329599380493 -1.7386466465392054 -1.4617929458618164 -1.4897714343718071 1.5600974559783936 0.29069849848747253 True False
15384.752999999999 0.6411951184272766 -1.7383142910399378 -1.462289571762085 -1.4897354406169434 1.560089111328125 0.2908537983894348 True False
15384.773 0.6437597274780273 -1.737885137597555 -1.4627774953842163 -1.489595742230751 1.5601251125335693 0.29101577401161194 True False
15384.793 0.6466892957687378 -1.7374121151366175 -1.4633172750473022 -1.489540384416916 1.5601898431777954 0.29122358560562134 True False
15384.813 0.6498858332633972 -1.736922403375143 -1.4639816284179688 -1.4894931700876732 1.5601565837860107 0.29148733615875244 True False
15384.832999999999 0.6534115672111511 -1.7363416157164515 -1.4646848440170288 -1.4893611010960122 1.5602130889892578 0.29166901111602783 True False
15384.853 0.6571670770645142 -1.7357880077757777 -1.4654805660247803 -1.4892415192774315 1.5602329969406128 0.2919811010360718 True False
15384.873 0.6611640453338623 -1.7352000675597132 -1.4663335084915161 -1.489085966055729 1.5603011846542358 0.29221439361572266 True False
15384.893 0.6656209230422974 -1.7344981632628382 -1.4672572612762451 -1.489006833439209 1.560333013534546 0.29263195395469666 True False
15384.912999999999 0.6701622009277344 -1.733865877191061 -1.4682397842407227 -1.4888713744333764 1.5603244304656982 0.29291242361068726 True False
15384.932999999999 0.6749142408370972 -1.733119627038473 -1.4692753553390503 -1.488820345406868 1.5603727102279663 0.2933046519756317 True False
15384.953 0.6801098585128784 -1.732274671594137 -1.4703624248504639 -1.4886491906693955 1.5604205131530762 0.29372745752334595 True False
15384.973 0.6855651140213013 -1.7313887081541957 -1.471407413482666 -1.4884611529162903 1.5605292320251465 0.2940208911895752 True False
15384.992999999999 0.6912835836410522 -1.7304746113219203 -1.4725427627563477 -1.4882700455239792 1.56052827835083 0.2944968342781067 True False
15385.012999999999 0.6972898840904236 -1.7295977077879847 -1.4738752841949463 -1.4881390270641823 1.5605887174606323 0.29490211606025696 True False
15385.033 0.7034817934036255 -1.728741308251852 -1.475205421447754 -1.4879596468857308 1.560697078704834 0.29536426067352295 True False
15385.053 0.7099300026893616 -1.7276040516295375 -1.476622462272644 -1.4878125947764893 1.5607091188430786 0.2958717942237854 True False
15385.072999999999 0.7168594598770142 -1.7265640697874964 -1.4779030084609985 -1.4875732746771355 1.5607976913452148 0.2963489294052124 True False
15385.092999999999 0.7240222096443176 -1.7253738842406214 -1.4793882369995117 -1.4874342691949387 1.5608654022216797 0.29684650897979736 True False
15385.113 0.7313960790634155 -1.7242456875243128 -1.48087477684021 -1.4872109454921265 1.5609090328216553 0.2973889410495758 True False
15385.133 0.7389642596244812 -1.723030229608053 -1.4825505018234253 -1.4870482248118897 1.5609935522079468 0.2979833483695984 True False
15385.152999999998 0.7469958662986755 -1.721828123132223 -1.4841450452804565 -1.4867930498770257 1.5610616207122803 0.29853203892707825 True False
15385.172999999999 0.7552881836891174 -1.7205425701537074 -1.4857831001281738 -1.4865337398699303 1.5611412525177002 0.2991420328617096 True False
15385.193 0.7638255953788757 -1.7192512951292933 -1.4874162673950195 -1.4863029730371018 1.561216950416565 0.2998122572898865 True False
15385.213 0.7724201083183289 -1.717865606347555 -1.4892877340316772 -1.4861564201167603 1.561288833618164 0.3003730773925781 True False
15385.233 0.7814834117889404 -1.7164279423155726 -1.4911799430847168 -1.4858612579158326 1.5613971948623657 0.301058828830719 True False
15385.252999999999 0.7909632921218872 -1.714999338189596 -1.4929795265197754 -1.4855587419918557 1.561476230621338 0.3016868829727173 True False
15385.273 0.800525963306427 -1.7135487995543421 -1.4949339628219604 -1.4853317973068734 1.5615448951721191 0.30242919921875 True False
15385.293 0.8103009462356567 -1.711926122704977 -1.496997356414795 -1.4850969699076195 1.5615609884262085 0.3032161593437195 True False
15385.313 0.8206667304039001 -1.710414548913473 -1.4990888833999634 -1.484798551802971 1.5617445707321167 0.3039734661579132 True False
15385.332999999999 0.8311372995376587 -1.708841463128561 -1.5012078285217285 -1.4845280063203354 1.56186044216156 0.3046700358390808 True False
15385.353 0.8416762351989746 -1.7071334324278773 -1.5035876035690308 -1.4842727568796654 1.5618774890899658 0.3054419755935669 True False
15385.373 0.8528019785881042 -1.7054821453490199 -1.5058255195617676 -1.4839582753232499 1.5620007514953613 0.30631205439567566 True False
15385.393 0.8641720414161682 -1.7037044964232386 -1.5082141160964966 -1.4835995820215722 1.562208652496338 0.3070557415485382 True False
15385.412999999999 0.8755194544792175 -1.7018152676024378 -1.5105743408203125 -1.483321265583374 1.5621850490570068 0.3079565167427063 True False
15385.432999999999 0.8875516057014465 -1.7000366650023402 -1.5130219459533691 -1.4829425078681489 1.562320590019226 0.30879366397857666 True False
15385.453 0.8997060656547546 -1.698195596734518 -1.5154414176940918 -1.4826004666141053 1.5624804496765137 0.3096943795681 True False
15385.473 0.9119120836257935 -1.6962253055968226 -1.5180983543395996 -1.48228573918853 1.5624719858169556 0.31064021587371826 True False
15385.492999999999 0.9248461127281189 -1.6942903004088343 -1.5205540657043457 -1.481919878428318 1.562729001045227 0.31154313683509827 True False
15385.512999999999 0.9376665949821472 -1.6922475300230921 -1.523162841796875 -1.4815373805216332 1.5627679824829102 0.31250032782554626 True False
15385.533 0.9508549571037292 -1.6901008091368617 -1.5259077548980713 -1.481174760763981 1.562840461730957 0.31337979435920715 True False
15385.553 0.9645528793334961 -1.6881596050658167 -1.5286155939102173 -1.4807685998133202 1.5631043910980225 0.3143928050994873 True False
15385.572999999999 0.9782670140266418 -1.6858416996397914 -1.5315898656845093 -1.4804425698569794 1.5631369352340698 0.3154611885547638 True False
15385.592999999999 0.992193877696991 -1.6837498150267542 -1.5343866348266602 -1.4800324749997635 1.5633816719055176 0.3165140151977539 True False
15385.613 1.0062650442123413 -1.6815735302367152 -1.5372740030288696 -1.47963401794944 1.5634490251541138 0.31747281551361084 True False
15385.633 1.0201747417449951 -1.6793896160521449 -1.5402888059616089 -1.4793716383031388 1.5635766983032227 0.31848224997520447 True False
15385.652999999998 1.0341354608535767 -1.677302976647848 -1.543095588684082 -1.4789495703629036 1.5636558532714844 0.3194689154624939 True False
15385.672999999999 1.0480732917785645 -1.6751038036742152 -1.5460336208343506 -1.478543021982052 1.5638278722763062 0.32056179642677307 True False
15385.693 1.0620425939559937 -1.6729775867857875 -1.5488624572753906 -1.4782010328820725 1.5639681816101074 0.3215179145336151 True False
15385.713 1.0759748220443726 -1.6707736454405726 -1.5516889095306396 -1.4777786073139687 1.5640608072280884 0.32262277603149414 True False
15385.733 1.0899728536605835 -1.668676038781637 -1.554571509361267 -1.4774330642870446 1.5642279386520386 0.3236584961414337 True False
15385.752999999999 1.10393488407135 -1.6664101086058558 -1.5573827028274536 -1.4770618838122864 1.5642963647842407 0.32464614510536194 True False
15385.773 1.1179258823394775 -1.6642962894835414 -1.560159683227539 -1.4765878853252907 1.5645039081573486 0.3256385028362274 True False
15385.793 1.1319273710250854 -1.6620527706541957 -1.5631005764007568 -1.4763535049608727 1.5645442008972168 0.3266712725162506 True False
15385.813 1.1458897590637207 -1.659882207910055 -1.56590735912323 -1.475827657883503 1.5647650957107544 0.3276633024215698 True False
15385.832999999999 1.1597610712051392 -1.657745977441305 -1.5688375234603882 -1.475473367874958 1.5648276805877686 0.3286546766757965 True False
15385.853 1.1737489700317383 -1.6555348835387171 -1.5717376470565796 -1.4750752982548256 1.5649689435958862 0.32971084117889404 True False
15385.873 1.1877306699752808 -1.653402944604391 -1.5746912956237793 -1.4747288611582299 1.5651075839996338 0.3306945264339447 True False
15385.893 1.2016934156417847 -1.6511861286559046 -1.5775445699691772 -1.4742666196874161 1.5651969909667969 0.3317597508430481 True False
15385.912999999999 1.2156733274459839 -1.649064680139059 -1.5803507566452026 -1.473888636832573 1.5653841495513916 0.3327754735946655 True False
15385.932999999999 1.2295979261398315 -1.646862646142477 -1.583272933959961 -1.4735622492483635 1.5654324293136597 0.33381977677345276 True False
15385.953 1.243551254272461 -1.6447254619994105 -1.5860621929168701 -1.4731361877969285 1.5656561851501465 0.33488085865974426 True False
15385.973 1.2575347423553467 -1.6425100765623988 -1.5888135433197021 -1.4728337091258545 1.565663456916809 0.3358805179595947 True False
15385.992999999999 1.271538257598877 -1.6404391727843226 -1.5916670560836792 -1.4724153515747567 1.5658560991287231 0.3368523120880127 True False
15386.012999999999 1.2854150533676147 -1.6382605038084925 -1.5946195125579834 -1.4720324960402031 1.5659925937652588 0.33787161111831665 True False
15386.033 1.2993664741516113 -1.636118551293844 -1.5974674224853516 -1.4716782060316582 1.566083312034607 0.33897313475608826 True False
15386.053 1.3134101629257202 -1.6338726482787074 -1.6003844738006592 -1.471236602669098 1.5662437677383423 0.3399524688720703 True False
15386.072999999999 1.327325701713562 -1.6317492924132289 -1.6033023595809937 -1.4709507983974 1.566299319267273 0.34090808033943176 True False
15386.092999999999 1.3412716388702393 -1.6295529804625453 -1.606223464012146 -1.4704805177501221 1.566467523574829 0.34191572666168213 True False
15386.113 1.3553136587142944 -1.6273719273009242 -1.6091716289520264 -1.4701779198697587 1.566599726676941 0.3429688811302185 True False
15386.133 1.3692377805709839 -1.6252805195250453 -1.6119627952575684 -1.4697555241039773 1.5667920112609863 0.3439847230911255 True False
15386.152999999998 1.383165955543518 -1.62304749111318 -1.614890694618225 -1.4694053840688248 1.5668188333511353 0.344996839761734 True False
15386.172999999999 1.3972346782684326 -1.6209007702269496 -1.6175730228424072 -1.4689666715315362 1.5670400857925415 0.3460540771484375 True False
15386.193 1.4111295938491821 -1.6187221012511195 -1.6204204559326172 -1.468584918682911 1.567168116569519 0.34699633717536926 True False
15386.213 1.4250805377960205 -1.6165315113463343 -1.6233561038970947 -1.4682225075415154 1.5672715902328491 0.348102331161499 True False
15386.233 1.4390417337417603 -1.6144539318480433 -1.62616765499115 -1.4677848678878327 1.567391037940979 0.34910473227500916 True False
15386.252999999999 1.453061580657959 -1.6121908626952113 -1.6291064023971558 -1.4674183812788506 1.5674834251403809 0.3500901460647583 True False
15386.273 1.4670100212097168 -1.6101037464537562 -1.631942629814148 -1.467020535176136 1.5676634311676025 0.35112330317497253 True False
15386.293 1.4809261560440063 -1.6079427204527796 -1.634894847869873 -1.4667058897069474 1.5677601099014282 0.3521779477596283 True False
15386.313 1.4950029850006104 -1.6057502231993617 -1.6377854347229004 -1.4663161796382447 1.567931890487671 0.35321664810180664 True False
15386.332999999999 1.5088175535202026 -1.603588720361227 -1.6406426429748535 -1.465957836513855 1.5679831504821777 0.35421374440193176 True False
15386.353 1.5228147506713867 -1.6014563045897425 -1.6435190439224243 -1.4655030083707352 1.5681309700012207 0.3552796542644501 True False
15386.373 1.5367504358291626 -1.5992776356139125 -1.6463018655776978 -1.4652087178877373 1.568251371383667 0.35621580481529236 True False
15386.393 1.550795316696167 -1.5969964466490687 -1.649158000946045 -1.4647785437158127 1.5684319734573364 0.357295423746109 True False
15386.412999999999 1.564690351486206 -1.5948506794371546 -1.6519505977630615 -1.4644526180676003 1.568530797958374 0.3582805395126343 True False
15386.432999999999 1.5786527395248413 -1.5927072964110316 -1.6548738479614258 -1.464102105503418 1.5686479806900024 0.3593105375766754 True False
15386.453 1.5927059650421143 -1.5905128918089808 -1.6577258110046387 -1.4636525747231026 1.5688554048538208 0.36031195521354675 True False
15386.473 1.6066033840179443 -1.5883804760374964 -1.6606323719024658 -1.4632536557367821 1.5688191652297974 0.3613256514072418 True False
15386.492999999999 1.6205354928970337 -1.5861231289305628 -1.6635243892669678 -1.462895707493164 1.5690553188323975 0.3623783588409424 True False
15386.512999999999 1.6343978643417358 -1.5840312443175257 -1.666483998298645 -1.4625414547375222 1.569123387336731 0.36344632506370544 True False
15386.533 1.64846670627594 -1.5818892918028773 -1.6694257259368896 -1.4621113550714036 1.569319486618042 0.3644445836544037 True False
15386.553 1.6624565124511719 -1.5797249279417933 -1.6722502708435059 -1.461716466849186 1.5694317817687988 0.3654174506664276 True False
15386.572999999999 1.676459550857544 -1.5775395832457484 -1.6751497983932495 -1.461314619784691 1.5695394277572632 0.36646726727485657 True False
15386.592999999999 1.6903849840164185 -1.575414320031637 -1.6779820919036865 -1.460892678504326 1.5696918964385986 0.36754342913627625 True False
15386.613 1.704364538192749 -1.5732470951476039 -1.6807738542556763 -1.460578278904297 1.5697307586669922 0.3684667944908142 True False
15386.633 1.718316674232483 -1.5709945164122523 -1.6835525035858154 -1.460012213592865 1.5699265003204346 0.36952492594718933 True False
15386.652999999998 1.7322306632995605 -1.568911857004725 -1.68646240234375 -1.4598496717265625 1.5699994564056396 0.37052208185195923 True False
15386.672999999999 1.7462660074234009 -1.5667285479469975 -1.6892378330230713 -1.4593513396433373 1.5702630281448364 0.37153559923171997 True False
15386.932999999999 1.9277480840682983 -1.538578738724329 -1.7266550064086914 -1.4545103025487442 1.5718427896499634 0.3848567306995392 True False
15386.953 1.9417697191238403 -1.5363413777998467 -1.7295221090316772 -1.4540126335671921 1.5719386339187622 0.3858344852924347 True False
15386.973 1.9556993246078491 -1.534120300119259 -1.7324985265731812 -1.4536900532296677 1.572087049484253 0.3868313729763031 True False
15387.252999999999 2.1511926651000977 -1.5038393077305336 -1.7725449800491333 -1.4483305227807541 1.5739222764968872 0.40110576152801514 True False
15387.273 2.165043830871582 -1.5016778868487854 -1.775363802909851 -1.4479282808354874 1.5739738941192627 0.4021519422531128 True False
15387.293 2.1790757179260254 -1.4995203253677865 -1.7781835794448853 -1.4475341376713295 1.5741382837295532 0.4031860828399658 True False
15387.313 2.193033456802368 -1.4973332223347207 -1.781069040298462 -1.447068305020668 1.5743298530578613 0.40420928597450256 True False
15387.332999999999 2.2069151401519775 -1.495124028330185 -1.7839547395706177 -1.4468096655658265 1.57433021068573 0.40521085262298584 True False
15387.353 2.2210097312927246 -1.4929986086538811 -1.7868150472640991 -1.4462720838240166 1.5745941400527954 0.40620267391204834 True False
15387.373 2.234961986541748 -1.4908206847361107 -1.7898200750350952 -1.446081058388092 1.5745455026626587 0.4072401821613312 True False
15387.393 2.2489781379699707 -1.4886511874249955 -1.792663335800171 -1.4455634516528626 1.5747900009155273 0.40819814801216125 True False
15387.412999999999 2.2628071308135986 -1.4864999142340203 -1.7956331968307495 -1.4453053784421463 1.574841856956482 0.40926387906074524 True False
15387.432999999999 2.27683162689209 -1.4843658295324822 -1.798468828201294 -1.4449268293431778 1.5750257968902588 0.41033613681793213 True False
15387.453 2.2907841205596924 -1.4821812447956582 -1.8013440370559692 -1.4444962751916428 1.575157880783081 0.411317378282547 True False
15387.473 2.304725170135498 -1.4800896060517807 -1.8042194843292236 -1.44422201931987 1.5752577781677246 0.4123227000236511 True False
15387.492999999999 2.318671226501465 -1.4779020485332985 -1.806955099105835 -1.443739802842476 1.575445532798767 0.4133450388908386 True False
15387.512999999999 2.332688331604004 -1.4756730881384392 -1.8098502159118652 -1.4434097123197098 1.575469732284546 0.41433483362197876 True False
15387.533 2.3466267585754395 -1.473497213130333 -1.8126616477966309 -1.442907677297928 1.5757545232772827 0.4154588580131531 True False
15387.553 2.3605902194976807 -1.4713044178536911 -1.81550931930542 -1.4425722819617768 1.575753927230835 0.41641151905059814 True False
15387.572999999999 2.3745391368865967 -1.4691364553621789 -1.8183951377868652 -1.4421828550151368 1.5759621858596802 0.41748639941215515 True False
15387.592999999999 2.388472557067871 -1.4669779700091858 -1.821337342262268 -1.4418847423842927 1.5759978294372559 0.4184591770172119 True False
15387.613 2.4025282859802246 -1.4647198852947731 -1.8243294954299927 -1.4414783281138916 1.5762097835540771 0.41948702931404114 True False
15387.633 2.4163730144500732 -1.4626434457353135 -1.8271063566207886 -1.441022203569748 1.5762859582901 0.42053672671318054 True False
15387.652999999998 2.430418014526367 -1.4603803691319008 -1.8300366401672363 -1.4406999808600922 1.576470136642456 0.4214896857738495 True False
15387.672999999999 2.4443328380584717 -1.4582910922220726 -1.8329015970230103 -1.4402498763850708 1.5765576362609863 0.42256543040275574 True False
15387.693 2.458278179168701 -1.4561415177634736 -1.8357269763946533 -1.439944089656212 1.5766537189483643 0.42355087399482727 True False
15387.713 2.4722816944122314 -1.4540405881455918 -1.838513731956482 -1.4394451093724747 1.5768617391586304 0.4245400130748749 True False
15387.733 2.4861838817596436 -1.4518160682967682 -1.8412442207336426 -1.4391745042851944 1.5769295692443848 0.4255785644054413 True False
15387.752999999999 2.499601364135742 -1.4498274338296433 -1.8440805673599243 -1.438742772941925 1.577149748802185 0.4266056716442108 True False
15387.773 2.512739896774292 -1.447728381758072 -1.8468059301376343 -1.438467637901642 1.5771616697311401 0.4275803565979004 True False
15387.793 2.5258452892303467 -1.445652351980545 -1.8494908809661865 -1.4380857956460495 1.5773735046386719 0.4284610450267792 True False
15387.813 2.53841233253479 -1.4437126231244584 -1.852146029472351 -1.4377299410155793 1.577368974685669 0.4294086992740631 True False
15387.832999999999 2.550899028778076 -1.441822813158371 -1.8547714948654175 -1.437479407792427 1.5774813890457153 0.4302940368652344 True False
15387.853 2.563016891479492 -1.4399330925992508 -1.857221007347107 -1.4370538306287308 1.5777413845062256 0.43121403455734253 True False
15387.873 2.5747339725494385 -1.4380316001227875 -1.8597925901412964 -1.436845452790596 1.5777496099472046 0.4321199953556061 True False
15387.893 2.5865328311920166 -1.436280758385994 -1.8619961738586426 -1.436323107486107 1.577925443649292 0.43293046951293945 True False
15387.912999999999 2.5976085662841797 -1.4345189493945618 -1.864385962486267 -1.4361127626946946 1.578001618385315 0.433744877576828 True False
15387.932999999999 2.608623504638672 -1.4327693742564698 -1.8666781187057495 -1.4358848196319123 1.5779688358306885 0.43457165360450745 True False
15387.953 2.6195318698883057 -1.4311085951379319 -1.8686940670013428 -1.4354826223901291 1.578213095664978 0.43531298637390137 True False
15387.973 2.629735231399536 -1.4294372659972687 -1.8709250688552856 -1.4352830213359375 1.578229546546936 0.4360678195953369 True False
15387.992999999999 2.6400976181030273 -1.427928404217102 -1.8729522228240967 -1.4349798572114487 1.578264594078064 0.4368671178817749 True False
15388.012999999999 2.6500203609466553 -1.4264445167830964 -1.8749094009399414 -1.4346168500236054 1.5784571170806885 0.4376109838485718 True False
15388.033 2.6593732833862305 -1.4248942595771332 -1.8770077228546143 -1.43441695094619 1.5784534215927124 0.4382695257663727 True False
15388.053 2.6688570976257324 -1.4235139799169083 -1.8789604902267456 -1.4341543775847931 1.5786452293395996 0.43887385725975037 True False
15388.072999999999 2.6779885292053223 -1.4221090537360688 -1.880726933479309 -1.4338803005269547 1.5787049531936646 0.43962982296943665 True False
15388.092999999999 2.686607599258423 -1.4206777524999161 -1.8825912475585938 -1.4336722952178498 1.5787572860717773 0.4402809143066406 True False
15388.113 2.695107936859131 -1.4194457989982148 -1.8844343423843384 -1.4334013027003785 1.5787887573242188 0.44086363911628723 True False
15388.133 2.703357696533203 -1.4182665807059784 -1.8861315250396729 -1.4331451517394562 1.5789859294891357 0.4414506256580353 True False
15388.152999999998 2.711344003677368 -1.416872428064682 -1.8876177072525024 -1.4329150033048172 1.5790495872497559 0.4420539438724518 True False
15388.172999999999 2.7189271450042725 -1.4156645399383088 -1.8891574144363403 -1.4327194106629868 1.5790491104125977 0.44262978434562683 True False
15388.193 2.726304054260254 -1.4145190429738541 -1.890884518623352 -1.4325356644443055 1.5791412591934204 0.4431154429912567 True False
15388.213 2.733424186706543 -1.4134836357882996 -1.89228355884552 -1.4324163061431427 1.5791853666305542 0.4436786472797394 True False
15388.233 2.7402637004852295 -1.412445993428566 -1.8935372829437256 -1.4321327668479462 1.5793335437774658 0.4441867470741272 True False
15388.252999999999 2.7467334270477295 -1.4113485378078003 -1.8948785066604614 -1.4319737267545243 1.5793125629425049 0.44465720653533936 True False
15388.273 2.7528884410858154 -1.410385162835457 -1.8962329626083374 -1.4319264155677338 1.5793569087982178 0.4450802803039551 True False
15388.293 2.7589213848114014 -1.4095299702933808 -1.8975021839141846 -1.4316783857396622 1.579429030418396 0.44549429416656494 True False
15388.313 2.7646548748016357 -1.4085895133069535 -1.898647427558899 -1.431495026951172 1.579525113105774 0.4459587633609772 True False
15388.332999999999 2.7701632976531982 -1.4078070533326645 -1.8997195959091187 -1.4313112658313294 1.57953679561615 0.4463053345680237 True False
15388.353 2.7752373218536377 -1.406907008295395 -1.900740146636963 -1.4312282365611573 1.5796380043029785 0.4467006325721741 True False
15388.373 2.7800674438476562 -1.406200350528099 -1.9017059803009033 -1.4311126333526154 1.5795563459396362 0.44714581966400146 True False
15388.393 2.7846839427948 -1.4055532378009339 -1.9026591777801514 -1.4309447270682831 1.5796689987182617 0.4474770426750183 True False
15388.412999999999 2.7890267372131348 -1.4047547441772004 -1.9035966396331787 -1.4308735144189377 1.5797333717346191 0.44773128628730774 True False
15388.432999999999 2.793041229248047 -1.4041480433991929 -1.9044829607009888 -1.4307859700969239 1.5797489881515503 0.4480268657207489 True False
15388.453 2.7968099117279053 -1.4035614740899582 -1.905238389968872 -1.4306743156960984 1.5798131227493286 0.4483184516429901 True False
15388.473 2.800280809402466 -1.403094158773758 -1.9059159755706787 -1.4305260491422196 1.5797966718673706 0.4485822319984436 True False
15388.492999999999 2.8033604621887207 -1.4025237572244187 -1.9065812826156616 -1.430495561366417 1.5798730850219727 0.448760986328125 True False
15388.512999999999 2.806236743927002 -1.402190924887993 -1.907158374786377 -1.43037901938472 1.5798166990280151 0.44900158047676086 True False
15388.533 2.8088443279266357 -1.4017043572715302 -1.9077361822128296 -1.4303273421576996 1.5798767805099487 0.449205219745636 True False
15388.553 2.811265468597412 -1.4013530772975464 -1.9081593751907349 -1.4302038264325638 1.5798808336257935 0.44934436678886414 True False
15388.572999999999 2.813342809677124 -1.4010215264609833 -1.9086365699768066 -1.4301997137120743 1.5799248218536377 0.44953274726867676 True False
15388.592999999999 2.815112352371216 -1.400723696952202 -1.9089837074279785 -1.4301444304040452 1.5799248218536377 0.4495866298675537 True False
15388.613 2.816655397415161 -1.400553510790207 -1.9093178510665894 -1.4301001292518158 1.5799283981323242 0.44974425435066223 True False
15388.633 2.817847728729248 -1.4003545355847855 -1.9095782041549683 -1.4300683301738282 1.5800050497055054 0.4498034715652466 True False
15388.652999999998 2.8188676834106445 -1.400217593913414 -1.909769892692566 -1.4300165188363572 1.5800292491912842 0.44991186261177063 True False
15388.672999999999 2.819520950317383 -1.4001737546971817 -1.909824013710022 -1.430056409244873 1.5799845457077026 0.44988247752189636 True False
15388.693 2.8199117183685303 -1.4001180094531556 -1.9098347425460815 -1.4300765705159684 1.579944372177124 0.4499228000640869 True False
15388.713 2.8199422359466553 -1.4001377385905762 -1.909906029701233 -1.4300451588681717 1.5800087451934814 0.4499184787273407 True False
15388.992999999999 2.820044994354248 -1.4087410283139725 -1.9283790588378906 -1.402140037422516 1.58082914352417 0.4531744718551636 True False
15389.012999999999 2.8199703693389893 -1.4100428086570282 -1.9308489561080933 -1.398205654030182 1.580920696258545 0.45363715291023254 True False
15389.313 2.820003032684326 -1.439823941593506 -1.9932676553726196 -1.3034739059260865 1.5835644006729126 0.46444666385650635 True False
15389.332999999999 2.8199987411499023 -1.4424434167197724 -1.9986581802368164 -1.2948734623244782 1.5838443040847778 0.4654485285282135 True False
15389.353 2.8199899196624756 -1.4452319306186219 -2.004455804824829 -1.286155716781952 1.5841119289398193 0.46647629141807556 True False
15389.373 2.8199856281280518 -1.4481389385512848 -2.0106303691864014 -1.277063713674881 1.5844039916992188 0.4674704968929291 True False
15389.393 2.8199572563171387 -1.4509674620679398 -2.01689076423645 -1.2676809293082734 1.5846643447875977 0.46847784519195557 True False
15389.412999999999 2.820007562637329 -1.4539488491467019 -2.023118734359741 -1.2579232913306733 1.584911823272705 0.46964114904403687 True False
15389.432999999999 2.820035934448242 -1.457044319515564 -2.0294456481933594 -1.2482427221587677 1.5852322578430176 0.47078320384025574 True False
15389.453 2.8199868202209473 -1.4600986999324341 -2.035629987716675 -1.2387264233878632 1.5854523181915283 0.47188615798950195 True False
15389.473 2.820007562637329 -1.4630600076964875 -2.041728973388672 -1.2292642158320923 1.585788369178772 0.47296059131622314 True False
15389.492999999999 2.8199825286865234 -1.4659329888275643 -2.0478572845458984 -1.22047512352977 1.5859793424606323 0.4739616811275482 True False
15389.512999999999 2.8199825286865234 -1.4687149685672303 -2.053659439086914 -1.211700753574707 1.586215853691101 0.4750027656555176 True False
15389.533 2.819969415664673 -1.471313939695694 -2.058959484100342 -1.2031946641257782 1.586455225944519 0.475846529006958 True False
15389.553 2.819991111755371 -1.4737688463977356 -2.0642237663269043 -1.1950115424445649 1.5866835117340088 0.4768127202987671 True False
15389.572999999999 2.8200390338897705 -1.4764049363187333 -2.0694730281829834 -1.187337504034378 1.586988091468811 0.4777594208717346 True False
15389.592999999999 2.820007562637329 -1.4787083876184006 -2.0746207237243652 -1.1795266431621094 1.5871715545654297 0.4786451458930969 True False
15389.613 2.8199899196624756 -1.4808892470649262 -2.079342842102051 -1.1721931558898468 1.5873875617980957 0.47947564721107483 True False
15389.633 2.8199825286865234 -1.4831009817174454 -2.084012508392334 -1.1652171176723023 1.5875916481018066 0.48031744360923767 True False
15389.652999999998 2.8200109004974365 -1.4852503699115296 -2.0884313583374023 -1.1585126978209992 1.587759256362915 0.48100975155830383 True False
15389.672999999999 2.819991111755371 -1.4873469185880204 -2.092611312866211 -1.151895360355713 1.5879392623901367 0.48176828026771545 True False
15389.693 2.8199779987335205 -1.489326537852623 -2.0966410636901855 -1.1457907420447846 1.5881434679031372 0.4824621379375458 True False
15389.713 2.8200271129608154 -1.4912063267878075 -2.1006534099578857 -1.1399757129004975 1.5882551670074463 0.4831773340702057 True False
15389.733 2.81998348236084 -1.492982679312565 -2.104357957839966 -1.1342452031425019 1.5884389877319336 0.48381611704826355 True False
15389.752999999999 2.8199574947357178 -1.4946756151369591 -2.107858657836914 -1.1288415652564545 1.5885910987854004 0.4844094514846802 True False
15389.773 2.819995403289795 -1.4963020917824288 -2.1112706661224365 -1.1238837105086823 1.5887072086334229 0.4850045442581177 True False
15389.793 2.820024013519287 -1.4977750194123765 -2.1145405769348145 -1.118913398390152 1.5888830423355103 0.4854775667190552 True False
15389.813 2.8199987411499023 -1.4991091948798676 -2.1173195838928223 -1.1144543451121827 1.5889830589294434 0.4860413670539856 True False
15389.832999999999 2.8200435638427734 -1.500523993079998 -2.1200525760650635 -1.1101517540267487 1.5890783071517944 0.48655611276626587 True False
15389.853 2.820003032684326 -1.501853199010231 -2.1227610111236572 -1.1062945288470765 1.5891785621643066 0.4869544506072998 True False
15389.873 2.8200433254241943 -1.5029277738979836 -2.125054359436035 -1.1025341314128418 1.589306354522705 0.48738551139831543 True False
15389.893 2.8199944496154785 -1.5039725464633484 -2.127338171005249 -1.099025235777237 1.5894269943237305 0.4878171384334564 True False
15389.912999999999 2.8199379444122314 -1.5050543931177636 -2.129438877105713 -1.0960955184749146 1.589478611946106 0.4881916344165802 True False
15389.932999999999 2.8200271129608154 -1.505904183988907 -2.1312575340270996 -1.093076692228653 1.58953857421875 0.48850709199905396 True False
15389.953 2.8199868202209473 -1.5066715639880677 -2.1329314708709717 -1.0905826550773163 1.5896345376968384 0.4887814223766327 True False
15389.973 2.8200271129608154 -1.5074165549925347 -2.1345787048339844 -1.0883783859065552 1.5897713899612427 0.48902079463005066 True False
15389.992999999999 2.819974899291992 -1.508113869731762 -2.135826587677002 -1.0862711828998108 1.589782953262329 0.4892972707748413 True False
15390.012999999999 2.8199901580810547 -1.5085423749736329 -2.136888027191162 -1.084466890697815 1.5898144245147705 0.48943960666656494 True False
15390.033 2.8199617862701416 -1.5090290953269978 -2.1379873752593994 -1.0831056100181122 1.5898499488830566 0.4896073043346405 True False
15390.053 2.8199825286865234 -1.5093933430365105 -2.1387970447540283 -1.0820239943316956 1.5898984670639038 0.48970314860343933 True False
15390.072999999999 2.8199617862701416 -1.50969526663933 -2.1394522190093994 -1.081090287571289 1.5898982286453247 0.48981091380119324 True False
15390.092999999999 2.8200109004974365 -1.5099133935621758 -2.1397976875305176 -1.0803799790195008 1.5899990797042847 0.48995548486709595 True False
15390.113 2.820028066635132 -1.5098834794810791 -2.139981985092163 -1.0800444346717377 1.5899745225906372 0.4898989200592041 True False
15390.133 2.8199574947357178 -1.5099413332394143 -2.139946699142456 -1.0800731939128418 1.5899745225906372 0.48993924260139465 True False
15390.152999999998 2.8199987411499023 -1.5099665199271222 -2.1399989128112793 -1.0800320667079468 1.5899627208709717 0.48991867899894714 True False
15390.432999999999 2.820024013519287 -1.5100477312556286 -2.1399943828582764 -1.0800165098956604 1.5900228023529053 0.4900272488594055 True False
15390.453 2.8199868202209473 -1.5100191582790394 -2.1400227546691895 -1.0800607663444062 1.58999502658844 0.4899695813655853 True False
15390.473 2.8200390338897705 -1.5100403402796765 -2.140040636062622 -1.079964057808258 1.5899744033813477 0.4900315999984741 True False
15390.492999999999 2.819929361343384 -1.5100403291038056 -2.140101671218872 -1.080016480093338 1.5900068283081055 0.4900186061859131 True False
15390.512999999999 2.8200347423553467 -1.509995338772871 -2.140029191970825 -1.079976425772049 1.5900871753692627 0.4900503158569336 True False
15390.533 2.820003032684326 -1.509987899368145 -2.1399900913238525 -1.0799763959697266 1.5899744033813477 0.49003833532333374 True False
15390.553 2.8200314044952393 -1.5100161594203492 -2.139991044998169 -1.0799841445735474 1.5900468826293945 0.4900665581226349 True False
15390.572999999999 2.820028305053711 -1.509967142050602 -2.140016794204712 -1.0799644750407715 1.590006709098816 0.49007952213287354 True False
15390.592999999999 2.8200271129608154 -1.5099134308150788 -2.1399199962615967 -1.0799923998168488 1.5899945497512817 0.4900383949279785 True False
15390.613 2.8199899196624756 -1.5100205701640625 -2.139991044998169 -1.079996482735016 1.5900309085845947 0.4900827407836914 True False
