Andreas691667/Digital_Twin_UR/src/controller_monitor/test_results/robot_output.csv
timestamp actual_q_0 actual_q_1 actual_q_2 actual_q_3 actual_q_4 actual_q_5 output_bit_register_65 output_bit_register_66
2122.63 0.6299859881401062 -1.7400075397887171 -1.4600008726119995 -1.4899823826602479 1.560001015663147 0.2899727523326874 False False
2122.65 0.6299951076507568 -1.7400032482542933 -1.4600379467010498 -1.4900018361261864 1.560001015663147 0.2899843156337738 False False
2122.67 0.6300204396247864 -1.740021368066305 -1.460017204284668 -1.4899864953807374 1.5599970817565918 0.2900546193122864 False False
2122.69 0.6299831867218018 -1.7399846516051234 -1.4600216150283813 -1.4899944451502343 1.5600053071975708 0.2900293469429016 False False
2122.71 0.6299204230308533 -1.7400123081602992 -1.460017204284668 -1.4900546234897156 1.5600253343582153 0.2900293469429016 False False
2122.73 0.6299415230751038 -1.7400042019286097 -1.4600008726119995 -1.4899984386614342 1.560001015663147 0.28995490074157715 False False
2122.75 0.629969596862793 -1.73999085048818 -1.4599682092666626 -1.4900100988200684 1.5600451231002808 0.29000842571258545 False False
2122.77 0.6299876570701599 -1.740065713922018 -1.4599933624267578 -1.4900100988200684 1.5600250959396362 0.29001590609550476 False False
2122.79 0.6299250721931458 -1.7400123081602992 -1.4600038528442383 -1.489978404050209 1.5599732398986816 0.2899799942970276 False False
2122.81 0.630014955997467 -1.740049501458639 -1.4600127935409546 -1.4899820622852822 1.5599851608276367 0.2899921238422394 False False
2122.83 0.6299578547477722 -1.740049501458639 -1.460017204284668 -1.4900546234897156 1.5599251985549927 0.29000404477119446 False False
2122.85 0.6299951672554016 -1.7400323353209437 -1.4599964618682861 -1.4900141295841713 1.559961199760437 0.2900248169898987 False False
2122.87 0.6300240159034729 -1.7400042019286097 -1.4600096940994263 -1.4900629085353394 1.5600134134292603 0.2900545299053192 False False
2122.89 0.6300203800201416 -1.739978929559225 -1.4599637985229492 -1.4900181677988549 1.560021162033081 0.29001298546791077 False False
2122.91 0.6300248503684998 -1.739946027795309 -1.459984540939331 -1.4900018659285088 1.559973120689392 0.2899995744228363 False False
2122.93 0.6300329566001892 -1.7399865589537562 -1.460045337677002 -1.4900263857892533 1.560009241104126 0.29001596570014954 False False
2122.95 0.6299787163734436 -1.7400371036925257 -1.4600378274917603 -1.4900100988200684 1.560001015663147 0.29001298546791077 False False
2122.97 0.6299787759780884 -1.7400013409056605 -1.4600335359573364 -1.4900018361261864 1.5600172281265259 0.29000845551490784 False False
2122.99 0.6299668550491333 -1.7400371036925257 -1.4600083827972412 -1.4900059264949341 1.5600132942199707 0.2900203764438629 False False
2123.0099999999998 0.6300159692764282 -1.7399341068663539 -1.4599846601486206 -1.4900465172580262 1.5600050687789917 0.2899754047393799 False False
2123.0299999999997 0.6300070285797119 -1.739962717095846 -1.4600216150283813 -1.4900665667704125 1.5599652528762817 0.2899709641933441 False False
2123.0499999999997 0.6299816370010376 -1.7400127849974574 -1.4600259065628052 -1.4899984163096924 1.559993028640747 0.2899966239929199 False False
2123.0699999999997 0.6299652457237244 -1.739950796166891 -1.4600008726119995 -1.4900385972908516 1.5600049495697021 0.289992094039917 False False
2123.0899999999997 0.6300023794174194 -1.7399832210936488 -1.4600335359573364 -1.4900303942016144 1.560021162033081 0.29000845551490784 False False
2123.11 0.6300492286682129 -1.7400123081602992 -1.460005283355713 -1.4900100988200684 1.5599771738052368 0.290032297372818 False False
2123.13 0.6300039887428284 -1.739999910394186 -1.4599965810775757 -1.4899984163096924 1.5600132942199707 0.28998321294784546 False False
2123.15 0.6299951076507568 -1.739971777001852 -1.460029125213623 -1.4900584381869812 1.5599970817565918 0.2899639308452606 False False
2123.17 0.6299787759780884 -1.7400876484312953 -1.460062861442566 -1.4899944004467507 1.5599851608276367 0.29004713892936707 False False
2123.19 0.6299980282783508 -1.739999910394186 -1.4600303173065186 -1.4899864953807374 1.5599970817565918 0.2900129556655884 False False
2123.21 0.6299906969070435 -1.7400218449034632 -1.4600259065628052 -1.4900385823896904 1.5599970817565918 0.29000845551490784 False False
2123.23 0.629986047744751 -1.7400323353209437 -1.459943413734436 -1.4900181976011773 1.5599653720855713 0.2899966835975647 False False
2123.25 0.6299920678138733 -1.7400580845274867 -1.460000991821289 -1.4899944153479119 1.5599613189697266 0.29005783796310425 False False
2123.27 0.6299624443054199 -1.7400413952269496 -1.4600096940994263 -1.4899861377528687 1.5599534511566162 0.2900203466415405 False False
2123.29 0.6299906969070435 -1.7400042019286097 -1.4600129127502441 -1.4900300961783906 1.5600132942199707 0.28993409872055054 False False
2123.31 0.6299787759780884 -1.7399879894652308 -1.459989070892334 -1.489954100256302 1.559989094734192 0.2900114059448242 False False
2123.33 0.6300128102302551 -1.7400299511351527 -1.459943413734436 -1.4899663937142869 1.5600053071975708 0.29000845551490784 False False
2123.35 0.6300491094589233 -1.7399584255614222 -1.4600497484207153 -1.4899582427791138 1.5599771738052368 0.28996825218200684 False False
2123.37 0.6299906969070435 -1.7400084934630335 -1.4599684476852417 -1.490030438905098 1.559989094734192 0.29001298546791077 False False
2123.39 0.6300566792488098 -1.740016599694723 -1.4600214958190918 -1.4900424864939232 1.5600013732910156 0.28998321294784546 False False
2123.41 0.6300240159034729 -1.73999085048818 -1.4600085020065308 -1.4899944153479119 1.5600450038909912 0.2900501787662506 False False
2123.43 0.629974365234375 -1.7400218449034632 -1.4600378274917603 -1.4899864879301568 1.5599970817565918 0.29000401496887207 False False
2123.45 0.6299875974655151 -1.7399703464903773 -1.4600627422332764 -1.4900505107692261 1.5600132942199707 0.2900579869747162 False False
2123.47 0.6300069689750671 -1.740016599694723 -1.460058331489563 -1.4899984163096924 1.559989094734192 0.29000845551490784 False False
2123.49 0.6299580335617065 -1.7400371036925257 -1.4599933624267578 -1.4900100988200684 1.559993028640747 0.2899876534938812 False False
2123.5099999999998 0.6299951076507568 -1.740016599694723 -1.4599533081054688 -1.4899943855455895 1.5599929094314575 0.2899548411369324 False False
2123.5299999999997 0.6300194263458252 -1.7399598560728968 -1.4599316120147705 -1.4900141146830101 1.5599970817565918 0.2900203764438629 False False
2123.5499999999997 0.630056619644165 -1.7399965725340785 -1.4599976539611816 -1.4899984163096924 1.56002938747406 0.2899620532989502 False False
2123.5699999999997 0.6300327181816101 -1.7400084934630335 -1.460017204284668 -1.4900025141290207 1.5599490404129028 0.289992094039917 False False
2123.5899999999997 0.6299980878829956 -1.7400042019286097 -1.4600257873535156 -1.4899944153479119 1.5600050687789917 0.2899966239929199 False False
2123.61 0.6300070285797119 -1.7399598560728968 -1.460042119026184 -1.4900345218232651 1.560021162033081 0.2900400757789612 False False
2123.63 0.6299831867218018 -1.7400056324400843 -1.460017204284668 -1.4899623331478615 1.5600134134292603 0.28994297981262207 False False
2123.65 0.6299906969070435 -1.7400299511351527 -1.4600257873535156 -1.490050570373871 1.5599929094314575 0.2899995744228363 False False
2123.67 0.6300070285797119 -1.7399922809996546 -1.4599684476852417 -1.4899704617312928 1.5599651336669922 0.2899709641933441 False False
2123.69 0.6300240159034729 -1.739999910394186 -1.4600539207458496 -1.4900304314545174 1.5600051879882812 0.2899754047393799 False False
2123.71 0.6299906969070435 -1.739950796166891 -1.4599814414978027 -1.489962377851345 1.5600453615188599 0.2899842858314514 False False
2123.73 0.6299669146537781 -1.7400413952269496 -1.4600095748901367 -1.4899944078973313 1.5600252151489258 0.2899876534938812 False False
2123.75 0.6299906373023987 -1.7400042019286097 -1.459989070892334 -1.4900018361261864 1.5600334405899048 0.2899754047393799 False False
2123.77 0.6300082206726074 -1.7400084934630335 -1.460017204284668 -1.4900345218232651 1.5599651336669922 0.29001739621162415 False False
2123.79 0.6300082206726074 -1.7399760685362757 -1.460017204284668 -1.4899820920876046 1.5599970817565918 0.2900203764438629 False False
2123.81 0.6299774050712585 -1.7400366268553675 -1.460017204284668 -1.4900140848806878 1.559981107711792 0.289992094039917 False False
2123.83 0.630002498626709 -1.7400580845274867 -1.4600625038146973 -1.4899540928057213 1.5599651336669922 0.2900203764438629 False False
2123.85 0.6299462914466858 -1.73999085048818 -1.4599847793579102 -1.4899984163096924 1.560017466545105 0.28997090458869934 False False
2123.87 0.630002498626709 -1.739934583703512 -1.4600257873535156 -1.4900424417904397 1.5600411891937256 0.2900337278842926 False False
2123.89 0.6300070285797119 -1.7400299511351527 -1.4600257873535156 -1.4900222581676026 1.5600335597991943 0.29001298546791077 False False
2123.91 0.6299581527709961 -1.7400127849974574 -1.4599847793579102 -1.4899824795177956 1.5599888563156128 0.2899218499660492 False False
2123.93 0.6299951076507568 -1.739971777001852 -1.459972858428955 -1.4900222805193444 1.5600453615188599 0.29000845551490784 False False
2123.95 0.6300288438796997 -1.7400323353209437 -1.4599967002868652 -1.490018145447113 1.5600252151489258 0.2900203764438629 False False
2123.97 0.6299625635147095 -1.739995618859762 -1.460005283355713 -1.4900222954205056 1.5600050687789917 0.2900203764438629 False False
2123.99 0.6300113797187805 -1.739995618859762 -1.460058331489563 -1.4899582055262108 1.5600374937057495 0.2899620532989502 False False
2124.0099999999998 0.6299625635147095 -1.739962717095846 -1.4600377082824707 -1.4900428664735337 1.5600011348724365 0.29000401496887207 False False
2124.0299999999997 0.6300283074378967 -1.7400490246214808 -1.4600377082824707 -1.4900221911123772 1.5600011348724365 0.2899995446205139 False False
2124.0499999999997 0.6300113797187805 -1.7399965725340785 -1.459972858428955 -1.4900222581676026 1.5600134134292603 0.29000401496887207 False False
2124.0699999999997 0.6299775242805481 -1.7400280437865199 -1.4600095748901367 -1.4900264304927369 1.559981107711792 0.2900054454803467 False False
2124.0899999999997 0.6300370097160339 -1.7399965725340785 -1.4600129127502441 -1.490050533120968 1.5600051879882812 0.2900248169898987 False False
2124.11 0.6299582123756409 -1.7400170765318812 -1.460000991821289 -1.4900059264949341 1.5599970817565918 0.2900203764438629 False False
2124.13 0.6299862265586853 -1.7400280437865199 -1.4599924087524414 -1.4900181752494355 1.5600051879882812 0.2900337278842926 False False
2124.15 0.630020022392273 -1.739999910394186 -1.4600257873535156 -1.4900222283652802 1.5599929094314575 0.28992512822151184 False False
2124.17 0.6299832463264465 -1.739999910394186 -1.4600095748901367 -1.4899824124625702 1.559960961341858 0.290032297372818 False False
2124.19 0.6299875378608704 -1.7400123081602992 -1.4600181579589844 -1.489990235572197 1.5599929094314575 0.29000401496887207 False False
2124.21 0.6300070881843567 -1.7399760685362757 -1.4599847793579102 -1.4900222581676026 1.5599806308746338 0.29000401496887207 False False
2124.23 0.6300325989723206 -1.7400385342040003 -1.459976077079773 -1.4899623927525063 1.559960961341858 0.29000401496887207 False False
2124.25 0.6300194263458252 -1.7400537929930628 -1.4600095748901367 -1.4899623927525063 1.56002938747406 0.28998321294784546 False False
2124.27 0.6299699544906616 -1.7400123081602992 -1.4600086212158203 -1.4899664011648674 1.5600616931915283 0.29003673791885376 False False
2124.29 0.630003809928894 -1.7400080166258753 -1.4600214958190918 -1.4900059339455147 1.5600330829620361 0.2899754047393799 False False
2124.31 0.6299669146537781 -1.739999910394186 -1.460029125213623 -1.4900304836085816 1.5599970817565918 0.2900114953517914 False False
2124.33 0.6300037503242493 -1.7400208912291468 -1.459977149963379 -1.4900018361261864 1.5600051879882812 0.29004573822021484 False False
2124.35 0.6300737261772156 -1.7400123081602992 -1.4600300788879395 -1.4899783965996285 1.5599769353866577 0.289992094039917 False False
2124.37 0.630002498626709 -1.7399379215636195 -1.459972858428955 -1.4900464427522202 1.560009241104126 0.2900203764438629 False False
2124.39 0.6300156712532043 -1.7400008640685023 -1.4600019454956055 -1.4900542807630082 1.5599888563156128 0.29000845551490784 False False
2124.41 0.6300156712532043 -1.7400123081602992 -1.4599933624267578 -1.4899821069887658 1.559981107711792 0.28999513387680054 False False
2124.43 0.6300445199012756 -1.7400366268553675 -1.4600870609283447 -1.4900059264949341 1.559960961341858 0.29001736640930176 False False
2124.45 0.6299551129341125 -1.739978929559225 -1.4600365161895752 -1.4900141072324296 1.5600334405899048 0.29000401496887207 False False
2124.47 0.6300113797187805 -1.7399670086302699 -1.4600214958190918 -1.4900345218232651 1.5600134134292603 0.290029376745224 False False
2124.49 0.6300080418586731 -1.7400666675963343 -1.4600257873535156 -1.4900345218232651 1.5600171089172363 0.2900336682796478 False False
2124.5099999999998 0.6300037503242493 -1.7400456867613734 -1.460005283355713 -1.4899824050119896 1.560017466545105 0.2899995744228363 False False
2124.5299999999997 0.6299918293952942 -1.7400280437865199 -1.460017204284668 -1.4900100913694878 1.5599970817565918 0.29004573822021484 False False
2124.5499999999997 0.6300025582313538 -1.7399794063963832 -1.460017204284668 -1.4900463756969948 1.5599851608276367 0.2900248169898987 False False
2124.5699999999997 0.629962682723999 -1.7400042019286097 -1.460000991821289 -1.4899864953807374 1.5600411891937256 0.2899504005908966 False False
2124.5899999999997 0.629990816116333 -1.7400080166258753 -1.4600257873535156 -1.4899944227984925 1.559981107711792 0.28998321294784546 False False
2124.61 0.6299583315849304 -1.739971777001852 -1.4599847793579102 -1.4899258774570008 1.5600134134292603 0.2899799346923828 False False
2124.63 0.6300156712532043 -1.7400208912291468 -1.4599922895431519 -1.489990235572197 1.5599769353866577 0.28996655344963074 False False
2124.65 0.6299907565116882 -1.739983697930807 -1.4600248336791992 -1.4900100988200684 1.5600252151489258 0.289992094039917 False False
2124.67 0.630028247833252 -1.7400742969908656 -1.4599523544311523 -1.4900100988200684 1.560009241104126 0.2900499999523163 False False
2124.69 0.6299670338630676 -1.7399794063963832 -1.4600248336791992 -1.4899581533721467 1.5600051879882812 0.2900545299053192 False False
2124.71 0.6299583911895752 -1.7400251827635707 -1.460005283355713 -1.490005948846676 1.560017466545105 0.29001298546791077 False False
2124.73 0.6299583315849304 -1.7400700054564417 -1.4600138664245605 -1.4899977532080193 1.5600371360778809 0.2899876534938812 False False
2124.75 0.6299831867218018 -1.7399994335570277 -1.4600334167480469 -1.489990235572197 1.559984803199768 0.2899709641933441 False False
2124.77 0.6299788951873779 -1.7400294742979945 -1.4599847793579102 -1.4900141072324296 1.5600011348724365 0.2899966239929199 False False
2124.79 0.6300283074378967 -1.7399584255614222 -1.4599717855453491 -1.490030438905098 1.5600134134292603 0.2900129556655884 False False
2124.81 0.6300281882286072 -1.7400366268553675 -1.4599685668945312 -1.4900018361261864 1.5600252151489258 0.289992094039917 False False
2124.83 0.6299755573272705 -1.7399794063963832 -1.460000991821289 -1.4900141072324296 1.5600334405899048 0.2900203764438629 False False
2124.85 0.6300531029701233 -1.7399922809996546 -1.460005283355713 -1.4900264304927369 1.5599888563156128 0.2899593710899353 False False
2124.87 0.6299669742584229 -1.7400576076903285 -1.460005283355713 -1.4899977532080193 1.5600453615188599 0.2900247573852539 False False
2124.89 0.6300444602966309 -1.7400409183897914 -1.460000991821289 -1.4899704617312928 1.560009241104126 0.289992094039917 False False
2124.91 0.6299951076507568 -1.7400208912291468 -1.4600379467010498 -1.4900100988200684 1.5599970817565918 0.29005905985832214 False False
2124.93 0.6300113797187805 -1.740016599694723 -1.4600498676300049 -1.490102970307209 1.559972882270813 0.2899414598941803 False False
2124.95 0.6299626231193542 -1.7400404415526332 -1.459984540939331 -1.4900222581676026 1.5599806308746338 0.2899995744228363 False False
2124.97 0.6300156712532043 -1.7400294742979945 -1.460030436515808 -1.4900059264949341 1.559972882270813 0.28996390104293823 False False
2124.99 0.629990816116333 -1.7400208912291468 -1.4600127935409546 -1.4899824050119896 1.5599970817565918 0.29000401496887207 False False
2125.0099999999998 0.6300113201141357 -1.7400042019286097 -1.4599889516830444 -1.490018145447113 1.5600255727767944 0.2900039851665497 False False
2125.0299999999997 0.6300411820411682 -1.740060945550436 -1.4599844217300415 -1.4899783965996285 1.5600252151489258 0.28996390104293823 False False
2125.0499999999997 0.6299819946289062 -1.7399922809996546 -1.460017204284668 -1.4900018361261864 1.56002938747406 0.28994297981262207 False False
2125.0699999999997 0.6299939155578613 -1.7399913273253382 -1.4599473476409912 -1.4900025066784401 1.5599769353866577 0.29000401496887207 False False
2125.0899999999997 0.629983127117157 -1.739999910394186 -1.4600051641464233 -1.4899783965996285 1.5599806308746338 0.2899799346923828 False False
2125.11 0.6300519704818726 -1.7399913273253382 -1.460017204284668 -1.4900263857892533 1.5599769353866577 0.29000401496887207 False False
2125.13 0.6300070285797119 -1.7399965725340785 -1.4599517583847046 -1.490050570373871 1.560009241104126 0.29007112979888916 False False
2125.15 0.6300368309020996 -1.7400194607176722 -1.4599844217300415 -1.490026408140995 1.5600411891937256 0.289992094039917 False False
2125.17 0.6300411224365234 -1.739999910394186 -1.460029125213623 -1.490034506922104 1.559981107711792 0.29001590609550476 False False
2125.19 0.6300199627876282 -1.7400452099242152 -1.460029125213623 -1.4899737995914002 1.560017466545105 0.28998321294784546 False False
2125.21 0.6299464106559753 -1.7399803600706996 -1.4600096940994263 -1.4899660509875794 1.5599929094314575 0.2899620532989502 False False
2125.23 0.6299831867218018 -1.7400323353209437 -1.4600008726119995 -1.489970141356327 1.5599888563156128 0.2899754047393799 False False
2125.25 0.629990816116333 -1.7399879894652308 -1.460005283355713 -1.4900018361261864 1.559960961341858 0.29007866978645325 False False
2125.27 0.629982054233551 -1.7400251827635707 -1.4599800109863281 -1.489990235572197 1.5599970817565918 0.2900698184967041 False False
2125.29 0.6299993991851807 -1.7400700054564417 -1.4599800109863281 -1.4899944004467507 1.5600334405899048 0.289992094039917 False False
2125.31 0.6300444602966309 -1.7399589023985804 -1.4599844217300415 -1.490062454049923 1.56002938747406 0.29000845551490784 False False
2125.33 0.6300156712532043 -1.7400404415526332 -1.4600008726119995 -1.4900386121920128 1.560009241104126 0.2900024950504303 False False
2125.35 0.630040168762207 -1.7400948009886683 -1.4600216150283813 -1.4899783965996285 1.5599688291549683 0.2899966239929199 False False
2125.37 0.629990816116333 -1.7400366268553675 -1.4599756002426147 -1.4899977532080193 1.560009241104126 0.2899460196495056 False False
2125.39 0.6299874782562256 -1.7400042019286097 -1.4599770307540894 -1.4900584456375618 1.5599929094314575 0.2899842858314514 False False
2125.41 0.6300070285797119 -1.7400366268553675 -1.4599649906158447 -1.4900140923312684 1.56002938747406 0.2899876534938812 False False
2125.43 0.6299755573272705 -1.7400366268553675 -1.4600670337677002 -1.4900100913694878 1.5600051879882812 0.2900248169898987 False False
2125.45 0.6300156712532043 -1.739983697930807 -1.4600379467010498 -1.4899741870215912 1.560001015663147 0.28995490074157715 False False
2125.47 0.6300069689750671 -1.7400084934630335 -1.4600008726119995 -1.48998615265403 1.5600535869598389 0.2899876534938812 False False
2125.49 0.629990816116333 -1.740016599694723 -1.4599756002426147 -1.4900584456375618 1.5600134134292603 0.28998321294784546 False False
2125.5099999999998 0.6299550533294678 -1.7400323353209437 -1.4600096940994263 -1.4900059264949341 1.5599851608276367 0.28997543454170227 False False
2125.5299999999997 0.6300070285797119 -1.7400280437865199 -1.4599933624267578 -1.4900181976011773 1.5600134134292603 0.29003673791885376 False False
2125.5499999999997 0.6299583911895752 -1.739999910394186 -1.4599769115447998 -1.4900024321726342 1.5600011348724365 0.29001304507255554 False False
2125.5699999999997 0.6300113797187805 -1.740016599694723 -1.460017204284668 -1.490018182700016 1.559960961341858 0.2900533676147461 False False
2125.5899999999997 0.629982054233551 -1.7400194607176722 -1.4600588083267212 -1.4900181528976937 1.560017466545105 0.29000845551490784 False False
2125.61 0.6299862861633301 -1.7400323353209437 -1.4600083827972412 -1.4899783965996285 1.560009241104126 0.2900068759918213 False False
2125.63 0.6299982666969299 -1.7400661907591761 -1.4600625038146973 -1.4900546383908768 1.5600330829620361 0.2899709641933441 False False
2125.65 0.6299712657928467 -1.7399965725340785 -1.4600096940994263 -1.4899824050119896 1.5600252151489258 0.28995487093925476 False False
2125.67 0.6299951672554016 -1.7399584255614222 -1.460005283355713 -1.4900264304927369 1.56002938747406 0.29000842571258545 False False
2125.69 0.6300025582313538 -1.7400452099242152 -1.4600305557250977 -1.4899623480490227 1.56002938747406 0.2899876534938812 False False
2125.71 0.6299831867218018 -1.7400490246214808 -1.4600335359573364 -1.4900018510273476 1.5599769353866577 0.290029376745224 False False
2125.73 0.6300070285797119 -1.7400123081602992 -1.460017204284668 -1.4899942663363 1.56002938747406 0.28998759388923645 False False
2125.75 0.6299862861633301 -1.7400294742979945 -1.4599889516830444 -1.4900057849339028 1.5599929094314575 0.289992094039917 False False
2125.77 0.6300193667411804 -1.7400194607176722 -1.4599889516830444 -1.4899772566607972 1.5599970817565918 0.2900203764438629 False False
2125.79 0.630032479763031 -1.7399879894652308 -1.4600515365600586 -1.4900222954205056 1.5600252151489258 0.29001304507255554 False False
2125.81 0.630064845085144 -1.7400490246214808 -1.4600096940994263 -1.4900464576533814 1.5599888563156128 0.289992094039917 False False
2125.83 0.6299951076507568 -1.7400685749449671 -1.4599591493606567 -1.489962400203087 1.5600699186325073 0.28995490074157715 False False
2125.85 0.629970133304596 -1.7400452099242152 -1.4600379467010498 -1.4900100988200684 1.5600011348724365 0.2899966239929199 False False
2125.87 0.6300025582313538 -1.7399703464903773 -1.4600216150283813 -1.4900424119881173 1.5599929094314575 0.2899341285228729 False False
2125.89 0.6299746036529541 -1.7399584255614222 -1.4599977731704712 -1.4900504884174843 1.560009241104126 0.29006239771842957 False False
2125.91 0.630089521408081 -1.7400323353209437 -1.4600082635879517 -1.4900264230421563 1.5599769353866577 0.28994762897491455 False False
2125.93 0.6300324201583862 -1.7400366268553675 -1.4599725008010864 -1.489974559550621 1.559984803199768 0.2899754047393799 False False
2125.95 0.6299743056297302 -1.7400208912291468 -1.4600543975830078 -1.4899455991438408 1.560009241104126 0.2900218367576599 False False
2125.97 0.6299876570701599 -1.7399794063963832 -1.4599963426589966 -1.4899743360332032 1.5599970817565918 0.28997093439102173 False False
2125.99 0.629999577999115 -1.7399965725340785 -1.4600677490234375 -1.490026408140995 1.5599688291549683 0.29001736640930176 False False
2126.0099999999998 0.6300567984580994 -1.739999910394186 -1.4600008726119995 -1.4900140848806878 1.56002938747406 0.2899921238422394 False False
2126.0299999999997 0.6300070285797119 -1.7400323353209437 -1.4599977731704712 -1.4900382694653054 1.5599970817565918 0.2900069057941437 False False
2126.0499999999997 0.6300023794174194 -1.7400123081602992 -1.4600335359573364 -1.4900341939977189 1.5599569082260132 0.2900099754333496 False False
2126.0699999999997 0.6299877166748047 -1.7400251827635707 -1.4600186347961426 -1.4900424045375367 1.5600535869598389 0.2899799346923828 False False
2126.0899999999997 0.6299667954444885 -1.7399794063963832 -1.4599844217300415 -1.4899542343667527 1.5599929094314575 0.2900010347366333 False False
2126.11 0.6299951076507568 -1.7400080166258753 -1.460017204284668 -1.4899543312243004 1.5599851608276367 0.28999948501586914 False False
2126.13 0.6299623847007751 -1.7400251827635707 -1.4599844217300415 -1.4900263932398339 1.5599970817565918 0.2900337874889374 False False
2126.15 0.6299920678138733 -1.739983697930807 -1.4599978923797607 -1.48999838650737 1.5600051879882812 0.28996390104293823 False False
2126.17 0.6299578547477722 -1.7400208912291468 -1.460017204284668 -1.4900064927390595 1.559981107711792 0.2900248169898987 False False
2126.19 0.6300194263458252 -1.7400208912291468 -1.4599844217300415 -1.4899944526008149 1.56002938747406 0.2899709641933441 False False
2126.21 0.6299951076507568 -1.7399794063963832 -1.4600261449813843 -1.4900184136680146 1.5599929094314575 0.28999659419059753 False False
2126.23 0.6299906373023987 -1.7400661907591761 -1.4600127935409546 -1.4900140699795266 1.559972882270813 0.2900337278842926 False False
2126.25 0.6300114989280701 -1.7400652370848597 -1.4599933624267578 -1.490050346856453 1.5599846839904785 0.289992094039917 False False
2126.27 0.6300203800201416 -1.7399751148619593 -1.4600008726119995 -1.49000650018964 1.5599851608276367 0.28996652364730835 False False
2126.29 0.6299859881401062 -1.7400409183897914 -1.4600008726119995 -1.4899823677590867 1.5599970817565918 0.28996649384498596 False False
2126.31 0.6299787759780884 -1.7399589023985804 -1.4600335359573364 -1.4899984088591118 1.5600736141204834 0.2899876534938812 False False
2126.33 0.6299831867218018 -1.740016599694723 -1.4599844217300415 -1.4899704989841958 1.5599929094314575 0.2899504601955414 False False
2126.35 0.6299787163734436 -1.7400042019286097 -1.4600305557250977 -1.489994467501976 1.560009241104126 0.2900009751319885 False False
2126.37 0.6299815773963928 -1.739995618859762 -1.4600127935409546 -1.4900501382401963 1.5599732398986816 0.29000845551490784 False False
2126.39 0.629999577999115 -1.7400208912291468 -1.4600335359573364 -1.4900341790965577 1.5599688291549683 0.2900204062461853 False False
2126.41 0.6299934387207031 -1.7399794063963832 -1.4600350856781006 -1.490074300473072 1.5600453615188599 0.2900009751319885 False False
2126.43 0.6300328969955444 -1.7400576076903285 -1.4599814414978027 -1.4900661271861573 1.5599929094314575 0.289992094039917 False False
2126.45 0.6299416422843933 -1.7399631939330042 -1.4599800109863281 -1.4900100988200684 1.560017466545105 0.2900489270687103 False False
2126.47 0.630024790763855 -1.7399760685362757 -1.459909439086914 -1.4900023949197312 1.5600134134292603 0.2899976670742035 False False
2126.49 0.6300203800201416 -1.7400576076903285 -1.4600127935409546 -1.4900220495513459 1.5599929094314575 0.289992094039917 False False
2126.5099999999998 0.6299416422843933 -1.7400151691832484 -1.4599800109863281 -1.4899946090630074 1.5600051879882812 0.2899218499660492 False False
2126.5299999999997 0.6300114989280701 -1.739967485467428 -1.460017204284668 -1.4900222581676026 1.560017466545105 0.29000845551490784 False False
2126.5499999999997 0.629999577999115 -1.739967485467428 -1.4600380659103394 -1.4900182646564026 1.5600011348724365 0.2899799346923828 False False
2126.5699999999997 0.6300159096717834 -1.7399879894652308 -1.4600380659103394 -1.4900263485363503 1.5599892139434814 0.29000401496887207 False False
2126.5899999999997 0.6300203800201416 -1.7399879894652308 -1.4600335359573364 -1.4899784934571763 1.560009241104126 0.28998321294784546 False False
2126.61 0.6300114989280701 -1.7400194607176722 -1.460017204284668 -1.4900742036155243 1.5600134134292603 0.29000401496887207 False False
2126.63 0.629997968673706 -1.739971777001852 -1.4600261449813843 -1.4899586004069825 1.5599651336669922 0.2899593710899353 False False
2126.65 0.6299906969070435 -1.7400123081602992 -1.4599844217300415 -1.4900541466525574 1.5600252151489258 0.2899620831012726 False False
2126.67 0.6300023794174194 -1.7400123081602992 -1.4599933624267578 -1.4900222805193444 1.5600371360778809 0.29001304507255554 False False
2126.69 0.6300023794174194 -1.7399598560728968 -1.4600380659103394 -1.4899664682200928 1.5600051879882812 0.28998321294784546 False False
2126.71 0.6300114989280701 -1.7399832210936488 -1.4600498676300049 -1.490010106270649 1.560009241104126 0.2900010049343109 False False
2126.73 0.6299951076507568 -1.739967485467428 -1.4600305557250977 -1.490018257205822 1.5600252151489258 0.28995493054389954 False False
2126.75 0.6299504637718201 -1.739999910394186 -1.4600335359573364 -1.490005986099579 1.560009241104126 0.2900293171405792 False False
2126.77 0.6299533247947693 -1.739978929559225 -1.4599933624267578 -1.4899904665401955 1.5600535869598389 0.2899966537952423 False False
2126.79 0.6299965977668762 -1.7399951420226039 -1.4600216150283813 -1.4900063958815117 1.5600616931915283 0.289992094039917 False False
2126.81 0.6300085186958313 -1.7399536571898402 -1.4600247144699097 -1.4899904292872925 1.5600093603134155 0.2899787724018097 False False
2126.83 0.6299742460250854 -1.7399684391417445 -1.460012674331665 -1.4899824944189568 1.5600051879882812 0.29000401496887207 False False
2126.85 0.6300286054611206 -1.740021368066305 -1.459972620010376 -1.489982509320118 1.5599569082260132 0.29005780816078186 False False
2126.87 0.6300114989280701 -1.740021368066305 -1.4600305557250977 -1.49001398802314 1.5599929094314575 0.2900084853172302 False False
2126.89 0.6299876570701599 -1.7400075397887171 -1.4599993228912354 -1.4900262963822861 1.559932827949524 0.2899385690689087 False False
2126.91 0.6299532651901245 -1.740021368066305 -1.460005283355713 -1.489994504754879 1.5599769353866577 0.2899920642375946 False False
2126.93 0.6300023794174194 -1.740018983880514 -1.459984540939331 -1.4900179591825982 1.559960961341858 0.2899682819843292 False False
2126.95 0.6299951076507568 -1.740021368066305 -1.4600216150283813 -1.490026318734028 1.5599970817565918 0.2900501787662506 False False
2126.97 0.6299667954444885 -1.7399832210936488 -1.4599933624267578 -1.4899822932532807 1.5600051879882812 0.2900129556655884 False False
2126.99 0.6299742460250854 -1.7400042019286097 -1.4599474668502808 -1.4899904516390343 1.5600453615188599 0.28997543454170227 False False
2127.0099999999998 0.6300568580627441 -1.7400413952269496 -1.4599682092666626 -1.490017944281437 1.5599970817565918 0.2899593412876129 False False
2127.0299999999997 0.6300374865531921 -1.7400280437865199 -1.4599889516830444 -1.4900263112834473 1.5599769353866577 0.2900009751319885 False False
2127.0499999999997 0.6300240755081177 -1.7399832210936488 -1.4600542783737183 -1.490010069017746 1.559981107711792 0.29002484679222107 False False
2127.0699999999997 0.6300070285797119 -1.7399713001646937 -1.4600186347961426 -1.4900100988200684 1.5600415468215942 0.2900084853172302 False False
2127.0899999999997 0.6300114393234253 -1.7399713001646937 -1.4599889516830444 -1.4899666246822854 1.5599888563156128 0.2900248169898987 False False
2127.11 0.6299787163734436 -1.7399994335570277 -1.460005283355713 -1.4900222805193444 1.5600011348724365 0.29001301527023315 False False
2127.13 0.6300114989280701 -1.739978929559225 -1.4599460363388062 -1.4899666395834466 1.5599929094314575 0.2899504601955414 False False
2127.15 0.6299831867218018 -1.7399832210936488 -1.4600260257720947 -1.49003420889888 1.5600413084030151 0.29002487659454346 False False
2127.17 0.6299623847007751 -1.7399622402586878 -1.4599562883377075 -1.4900381353548546 1.559972882270813 0.2900144159793854 False False
2127.19 0.6299696564674377 -1.7399832210936488 -1.459984540939331 -1.4900179591825982 1.5600011348724365 0.2900412082672119 False False
2127.21 0.6299712657928467 -1.7400084934630335 -1.4599933624267578 -1.4899706107429047 1.560021162033081 0.2899966239929199 False False
2127.23 0.6299906373023987 -1.739962717095846 -1.4600127935409546 -1.4899945569089432 1.5600051879882812 0.2899754047393799 False False
2127.25 0.6300240755081177 -1.7399760685362757 -1.4600247144699097 -1.4899984088591118 1.5599892139434814 0.2900203764438629 False False
2127.27 0.6299712657928467 -1.7399922809996546 -1.460046648979187 -1.4900421661189576 1.5599851608276367 0.2899966239929199 False False
2127.29 0.6299921274185181 -1.7399503193297328 -1.4600096940994263 -1.4899826359799881 1.559960961341858 0.2899593710899353 False False
2127.31 0.6299578547477722 -1.7399894199767054 -1.4600378274917603 -1.4900463756969948 1.5599970817565918 0.2900009751319885 False False
2127.33 0.6299623847007751 -1.7400084934630335 -1.4600008726119995 -1.4899944078973313 1.5600134134292603 0.2899754047393799 False False
2127.35 0.6300448775291443 -1.7400299511351527 -1.4599846601486206 -1.4900624689510842 1.5600495338439941 0.2899754047393799 False False
2127.37 0.629969596862793 -1.7399951420226039 -1.460005283355713 -1.4899864953807374 1.5599929094314575 0.2899799346923828 False False
2127.39 0.6299578547477722 -1.740021368066305 -1.460005283355713 -1.4899659913829346 1.5600334405899048 0.2899620532989502 False False
2127.41 0.6299368143081665 -1.7399474583067835 -1.460000991821289 -1.4900141072324296 1.559969186782837 0.289950430393219 False False
2127.43 0.6300070285797119 -1.7400084934630335 -1.4599933624267578 -1.489966132943966 1.5600215196609497 0.289992094039917 False False
2127.45 0.6299906373023987 -1.7399965725340785 -1.4599758386611938 -1.490005911593773 1.560009241104126 0.29001593589782715 False False
2127.47 0.6300293207168579 -1.739974161187643 -1.4600259065628052 -1.4900058966926117 1.560017466545105 0.2899995446205139 False False
2127.49 0.6299787163734436 -1.7399832210936488 -1.460005283355713 -1.4899860855988045 1.5599970817565918 0.2899876832962036 False False
2127.5099999999998 0.6299487352371216 -1.7399922809996546 -1.4600259065628052 -1.48998615265403 1.560017466545105 0.2899996042251587 False False
2127.5299999999997 0.6300114989280701 -1.7399922809996546 -1.4600008726119995 -1.4900304463556786 1.5599651336669922 0.2900412082672119 False False
2127.5499999999997 0.6299951076507568 -1.7399879894652308 -1.4600259065628052 -1.4900584456375618 1.5599929094314575 0.29000842571258545 False False
2127.5699999999997 0.6300104260444641 -1.7400175533690394 -1.4600335359573364 -1.4900059264949341 1.5599888563156128 0.2900411784648895 False False
2127.5899999999997 0.6300240755081177 -1.7399994335570277 -1.4599977731704712 -1.490062454049923 1.5599929094314575 0.2900248169898987 False False
2127.61 0.6299906373023987 -1.7400909862914027 -1.4600095748901367 -1.4899704840830346 1.5600011348724365 0.2899385392665863 False False
2127.63 0.629999577999115 -1.7399622402586878 -1.4600422382354736 -1.490046465103962 1.5599892139434814 0.2899787425994873 False False
2127.65 0.6299787163734436 -1.7399951420226039 -1.460005283355713 -1.4900424417904397 1.5600252151489258 0.2900009751319885 False False
2127.67 0.6300249099731445 -1.739969869653219 -1.4600095748901367 -1.4900620591691514 1.559984803199768 0.2899619936943054 False False
2127.69 0.6299831867218018 -1.740021368066305 -1.4599847793579102 -1.4900345218232651 1.5599970817565918 0.2899842858314514 False False
2127.71 0.6299324631690979 -1.7400256596007289 -1.4600095748901367 -1.4900344994715233 1.560021162033081 0.29000401496887207 False False
2127.73 0.629969596862793 -1.7399951420226039 -1.4600129127502441 -1.4900059264949341 1.560021162033081 0.28995490074157715 False False
2127.75 0.6299859881401062 -1.7399879894652308 -1.459987759590149 -1.4899742317250748 1.5600051879882812 0.29003816843032837 False False
2127.77 0.6300159692764282 -1.7400461635985316 -1.4599803686141968 -1.4900141072324296 1.5599970817565918 0.290029376745224 False False
2127.79 0.6299906373023987 -1.7399879894652308 -1.460030198097229 -1.4899944451502343 1.56002938747406 0.28999513387680054 False False
2127.81 0.6300070285797119 -1.7400795421996058 -1.4599522352218628 -1.4899977457574387 1.560017466545105 0.2900010049343109 False False
2127.83 0.6299951076507568 -1.7400480709471644 -1.459989070892334 -1.4900058817914505 1.5599651336669922 0.2900203764438629 False False
2127.85 0.6299951076507568 -1.7400256596007289 -1.4599922895431519 -1.489958220427372 1.5599929094314575 0.28995490074157715 False False
2127.87 0.6299578547477722 -1.7400084934630335 -1.4600129127502441 -1.4900181976011773 1.5599570274353027 0.29000401496887207 False False
2127.89 0.6299532055854797 -1.7399550877013148 -1.4600129127502441 -1.4900100988200684 1.5599970817565918 0.2899995744228363 False False
2127.91 0.6299742460250854 -1.7400123081602992 -1.4600377082824707 -1.4899664309671898 1.559981107711792 0.2899876832962036 False False
2127.93 0.6299504637718201 -1.7400585613646449 -1.460029125213623 -1.4899624598077317 1.5600051879882812 0.29001593589782715 False False
2127.95 0.629999577999115 -1.7400280437865199 -1.4600334167480469 -1.4900223177722474 1.5599610805511475 0.2899966537952423 False False
2127.97 0.6299787163734436 -1.7400084934630335 -1.4600419998168945 -1.4899783444455643 1.5600574016571045 0.2899906039237976 False False
2127.99 0.6300070285797119 -1.7399951420226039 -1.459989070892334 -1.4899784487536927 1.5600292682647705 0.2900323271751404 False False
2128.0099999999998 0.6300375461578369 -1.7400042019286097 -1.4599727392196655 -1.4899864953807374 1.5600011348724365 0.2899593710899353 False False
2128.0299999999997 0.6300159692764282 -1.7400299511351527 -1.460005283355713 -1.4899702382138749 1.5599572658538818 0.2899876832962036 False False
2128.0499999999997 0.6299787163734436 -1.740021368066305 -1.4599924087524414 -1.4900141221335907 1.5600011348724365 0.28995490074157715 False False
2128.0699999999997 0.6300070285797119 -1.7400347195067347 -1.4599804878234863 -1.4899820771864434 1.5600574016571045 0.2900412678718567 False False
2128.0899999999997 0.6299578547477722 -1.7399803600706996 -1.4600496292114258 -1.4900141221335907 1.5600252151489258 0.2899876534938812 False False
2128.11 0.6299505233764648 -1.7399965725340785 -1.4600214958190918 -1.4900181976011773 1.5600333213806152 0.28996652364730835 False False
2128.13 0.6299459934234619 -1.739974161187643 -1.4599727392196655 -1.4899742317250748 1.5600051879882812 0.2900203466415405 False False
2128.15 0.6299504041671753 -1.7399517498412074 -1.4599566459655762 -1.4900264304927369 1.559993028640747 0.2899620234966278 False False
2128.17 0.6300023794174194 -1.7399760685362757 -1.4600214958190918 -1.4899978575161477 1.5600333213806152 0.2899709939956665 False False
2128.19 0.6300418376922607 -1.7400299511351527 -1.4599642753601074 -1.4900181752494355 1.5599892139434814 0.2899594306945801 False False
2128.21 0.6299905776977539 -1.7400299511351527 -1.4599933624267578 -1.4900025066784401 1.5600051879882812 0.2899754047393799 False False
2128.23 0.6300357580184937 -1.7399922809996546 -1.4600625038146973 -1.4899581682733078 1.5600371360778809 0.2899995744228363 False False
2128.25 0.6299504637718201 -1.7399832210936488 -1.4600214958190918 -1.489990235572197 1.559973120689392 0.2900203764438629 False False
2128.27 0.6300203800201416 -1.740049501458639 -1.4599847793579102 -1.4900424939445038 1.5599929094314575 0.28998321294784546 False False
2128.29 0.6299623847007751 -1.7399760685362757 -1.4600534439086914 -1.4900424566916008 1.5600132942199707 0.289992094039917 False False
2128.31 0.6300114989280701 -1.7399879894652308 -1.459989070892334 -1.4900383663228531 1.5599970817565918 0.29000845551490784 False False
2128.33 0.6299743056297302 -1.740091463128561 -1.460000991821289 -1.4899702233127137 1.5600132942199707 0.29001736640930176 False False
2128.35 0.6299787759780884 -1.7400123081602992 -1.4600095748901367 -1.4899864953807374 1.560009241104126 0.2900114953517914 False False
2128.37 0.6300203204154968 -1.7400323353209437 -1.4599857330322266 -1.4900140923312684 1.5599493980407715 0.2899709641933441 False False
2128.39 0.629986047744751 -1.7399832210936488 -1.4600086212158203 -1.4900141072324296 1.5599812269210815 0.29001736640930176 False False
2128.41 0.6299787163734436 -1.7400838337340296 -1.4600086212158203 -1.4900181677988549 1.5600132942199707 0.2899876534938812 False False
2128.43 0.6299697160720825 -1.7399994335570277 -1.4599847793579102 -1.4899902281216164 1.5599812269210815 0.2900579869747162 False False
2128.45 0.6300023794174194 -1.7399879894652308 -1.4600334167480469 -1.48998615265403 1.560001015663147 0.28998762369155884 False False
2128.47 0.6300069689750671 -1.7400413952269496 -1.459972858428955 -1.490062454049923 1.5600011348724365 0.29001742601394653 False False
2128.49 0.6299608945846558 -1.7400256596007289 -1.459977149963379 -1.490030438905098 1.5600132942199707 0.2900412976741791 False False
2128.5099999999998 0.6299980282783508 -1.7400323353209437 -1.4600751399993896 -1.490005986099579 1.5600451231002808 0.289992094039917 False False
2128.5299999999997 0.6299951076507568 -1.7399670086302699 -1.4600138664245605 -1.4900385674885293 1.5600173473358154 0.28998759388923645 False False
2128.5499999999997 0.6300403475761414 -1.7399670086302699 -1.460005283355713 -1.4900059264949341 1.5600250959396362 0.2899876534938812 False False
2128.5699999999997 0.6300158500671387 -1.7400075397887171 -1.4600248336791992 -1.4900181752494355 1.560029149055481 0.29000115394592285 False False
2128.5899999999997 0.6300194263458252 -1.740061422387594 -1.4599814414978027 -1.4900141072324296 1.5600049495697021 0.2899995446205139 False False
2128.61 0.6300159096717834 -1.740061422387594 -1.4600095748901367 -1.4899783965996285 1.5599732398986816 0.28999510407447815 False False
2128.63 0.6299951076507568 -1.7399922809996546 -1.4600505828857422 -1.4900502276471634 1.5599850416183472 0.29001301527023315 False False
2128.65 0.629974365234375 -1.7400013409056605 -1.4600214958190918 -1.4899704095772286 1.5599812269210815 0.28997090458869934 False False
2128.67 0.630020260810852 -1.7400404415526332 -1.4600257873535156 -1.4899499875358124 1.5599812269210815 0.29000401496887207 False False
2128.69 0.6299713253974915 -1.7400537929930628 -1.4600019454956055 -1.4899623927525063 1.5599652528762817 0.29001304507255554 False False
2128.71 0.6299876570701599 -1.7400323353209437 -1.4599814414978027 -1.4900427845171471 1.5600332021713257 0.29003381729125977 False False
2128.73 0.6299831867218018 -1.7400404415526332 -1.459977149963379 -1.489974559550621 1.5600172281265259 0.289992094039917 False False
2128.75 0.6299951076507568 -1.7400371036925257 -1.4600086212158203 -1.4900345143726845 1.5600212812423706 0.2900010347366333 False False
2128.77 0.6300114393234253 -1.7399383984007777 -1.4600095748901367 -1.490010069017746 1.5599970817565918 0.29002487659454346 False False
2128.79 0.6299906969070435 -1.7400461635985316 -1.4600214958190918 -1.4899902579239388 1.5599851608276367 0.2899831533432007 False False
2128.81 0.6299580931663513 -1.7400084934630335 -1.460000991821289 -1.4900264304927369 1.5599613189697266 0.28993844985961914 False False
2128.83 0.6300070285797119 -1.7400299511351527 -1.4600214958190918 -1.4900222581676026 1.560009241104126 0.2899429202079773 False False
2128.85 0.6299654841423035 -1.7400413952269496 -1.4599642753601074 -1.4899983343533059 1.560001015663147 0.29003676772117615 False False
2128.87 0.6299906969070435 -1.7399713001646937 -1.4600334167480469 -1.4899701562574883 1.5600528717041016 0.29000401496887207 False False
2128.89 0.6299787759780884 -1.7400032482542933 -1.460005283355713 -1.489998349254467 1.560001015663147 0.2899966537952423 False False
2128.91 0.6299581527709961 -1.7400371036925257 -1.460005283355713 -1.4900066044977684 1.560029149055481 0.2900204062461853 False False
2128.93 0.630048930644989 -1.7399951420226039 -1.4600300788879395 -1.490062454049923 1.559993028640747 0.289992094039917 False False
2128.95 0.6300082802772522 -1.7400042019286097 -1.4599847793579102 -1.4900706347874184 1.5599851608276367 0.2899995446205139 False False
2128.97 0.6299861669540405 -1.7400175533690394 -1.4600664377212524 -1.4900382694653054 1.5599771738052368 0.2899831533432007 False False
2128.99 0.6300070285797119 -1.7400413952269496 -1.4600019454956055 -1.4900100839189072 1.560029149055481 0.2899773418903351 False False
2129.0099999999998 0.6299536824226379 -1.7400704822936 -1.459989070892334 -1.4900264528444787 1.560009241104126 0.28999507427215576 False False
2129.0299999999997 0.6300157904624939 -1.7399713001646937 -1.4599800109863281 -1.490042471592762 1.5599732398986816 0.2899876534938812 False False
2129.0499999999997 0.6299875974655151 -1.740018983880514 -1.4599933624267578 -1.4899977532080193 1.559989094734192 0.2899966835975647 False False
2129.0699999999997 0.6300313472747803 -1.740082403222555 -1.460005283355713 -1.4899824050119896 1.560009241104126 0.29000401496887207 False False
2129.0899999999997 0.6299981474876404 -1.7400084934630335 -1.4599919319152832 -1.48998615265403 1.5600049495697021 0.2900412380695343 False False
2129.11 0.6299951076507568 -1.7399593792357386 -1.4599844217300415 -1.4900182125023385 1.5600250959396362 0.29001739621162415 False False
2129.13 0.6300287842750549 -1.7400084934630335 -1.4599801301956177 -1.4900100466660042 1.5600172281265259 0.289987713098526 False False
2129.15 0.6299300789833069 -1.7399760685362757 -1.4599770307540894 -1.4900140774301072 1.560009241104126 0.28997093439102173 False False
2129.17 0.6300070285797119 -1.7400256596007289 -1.460017204284668 -1.4900141072324296 1.5599970817565918 0.2899664640426636 False False
2129.19 0.6300194263458252 -1.740016599694723 -1.4600096940994263 -1.490042859022953 1.5600172281265259 0.29003676772117615 True False
2129.21 0.6299981474876404 -1.740065713922018 -1.459951639175415 -1.4900264528444787 1.5599970817565918 0.2900203764438629 True False
2129.23 0.6300113797187805 -1.7400132618346156 -1.4599592685699463 -1.4899944078973313 1.560017466545105 0.2899966835975647 True False
2129.25 0.630083441734314 -1.7400747738280238 -1.4599889516830444 -1.489994340842106 1.5599888563156128 0.29002487659454346 True False
2129.27 0.6301677823066711 -1.7400371036925257 -1.4599889516830444 -1.4900141221335907 1.560017466545105 0.29000401496887207 True False
2129.29 0.6304846405982971 -1.7399994335570277 -1.4600423574447632 -1.490006611948349 1.559952735900879 0.2899966537952423 True False
2129.31 0.6307186484336853 -1.7400804958739222 -1.4600083827972412 -1.4900100988200684 1.5600051879882812 0.2900412678718567 True False
2129.33 0.6311010718345642 -1.739969392816061 -1.4600008726119995 -1.4899984163096924 1.559960961341858 0.29006966948509216 True False
2129.35 0.6315906047821045 -1.740082403222555 -1.4599756002426147 -1.4899944153479119 1.5599970817565918 0.2902103364467621 True False
2129.37 0.6322640776634216 -1.7400762043394984 -1.4600424766540527 -1.4899508369020005 1.5600051879882812 0.29042690992355347 True False
2129.39 0.6330742835998535 -1.7401162586607875 -1.4599756002426147 -1.489922971730568 1.5599970817565918 0.29053130745887756 True False
2129.41 0.6342490315437317 -1.740159650842184 -1.4600096940994263 -1.489795283680298 1.5599608421325684 0.290769100189209 True False
2129.43 0.6356223821640015 -1.7402240238585414 -1.4600067138671875 -1.4897357684424897 1.5599651336669922 0.29100537300109863 True False
2129.45 0.637294352054596 -1.7403246364989222 -1.4599273204803467 -1.4895521339825173 1.560009241104126 0.2913084924221039 True False
2129.47 0.6393957734107971 -1.74046053508901 -1.4599695205688477 -1.4894726958921929 1.5600978136062622 0.2916882038116455 True False
2129.49 0.6416874527931213 -1.7405792675414027 -1.459960699081421 -1.4893171724728127 1.5600371360778809 0.2920841872692108 True False
2129.5099999999998 0.6446150541305542 -1.7407108745970667 -1.4598612785339355 -1.489150123005249 1.5600650310516357 0.292586088180542 True False
2129.5299999999997 0.647986650466919 -1.7409140072264613 -1.4597644805908203 -1.4889393982342263 1.560137152671814 0.29323020577430725 True False
2129.5499999999997 0.6517550349235535 -1.7411138019957484 -1.45976984500885 -1.4887480747750779 1.5601893663406372 0.29386836290359497 True False
2129.5699999999997 0.6557451486587524 -1.7413302860655726 -1.459702968597412 -1.4885375437191506 1.5601372718811035 0.2945677936077118 True False
2129.5899999999997 0.6602279543876648 -1.7415033779540003 -1.4596229791641235 -1.488246203666069 1.5602011680603027 0.2953701317310333 True False
2129.61 0.6650127172470093 -1.7417060337462367 -1.459546446800232 -1.4880036202124138 1.5602734088897705 0.2961741089820862 True False
2129.63 0.6700380444526672 -1.741969724694723 -1.4594372510910034 -1.4877208408764382 1.5602450370788574 0.2971439063549042 True False
2129.65 0.6754297018051147 -1.742246767083639 -1.4593786001205444 -1.48741006970916 1.5603089332580566 0.2980554401874542 True False
2129.67 0.6812326908111572 -1.7424737415709437 -1.459313988685608 -1.4871314328959961 1.5603086948394775 0.2990953028202057 True False
2129.69 0.6874290108680725 -1.742847581902975 -1.4592918157577515 -1.4867253837040444 1.5604450702667236 0.30019113421440125 True False
2129.71 0.694021999835968 -1.7431122265257777 -1.4590801000595093 -1.4863505598953743 1.5604733228683472 0.3013431131839752 True False
2129.73 0.7009075880050659 -1.7434960804381312 -1.4589887857437134 -1.4859848481467743 1.5604807138442993 0.30257585644721985 True False
2129.75 0.7079994678497314 -1.7438732586302699 -1.4589332342147827 -1.4856384632042428 1.5605409145355225 0.30383846163749695 True False
2129.77 0.7155315279960632 -1.744181295434469 -1.4587925672531128 -1.485168070798256 1.5605648756027222 0.3051610291004181 True False
2129.79 0.7235186100006104 -1.7446142635741175 -1.4587146043777466 -1.4846984309009095 1.5606729984283447 0.3065642714500427 True False
2129.81 0.7318039536476135 -1.7450586758055628 -1.4585329294204712 -1.4842568573406716 1.5607409477233887 0.3081033229827881 True False
2129.83 0.7402836084365845 -1.7454854450621546 -1.4584414958953857 -1.483762876396515 1.5607528686523438 0.3096049427986145 True False
2129.85 0.7492939829826355 -1.7459074459471644 -1.4583048820495605 -1.4832289826921006 1.5608251094818115 0.31120431423187256 True False
2129.87 0.7587437629699707 -1.7464562855162562 -1.4582314491271973 -1.482723781173565 1.5609409809112549 0.31277602910995483 True False
2129.91 0.7782060503959656 -1.7473603687682093 -1.4578883647918701 -1.4816292461803933 1.5609843730926514 0.3162759840488434 True False
2129.93 0.7886084318161011 -1.7478934727110804 -1.4577711820602417 -1.4809118595770379 1.561120629310608 0.3181590437889099 True False
2129.95 0.7993683218955994 -1.7484756908812464 -1.457627773284912 -1.4802907866290589 1.561220645904541 0.3200875520706177 True False
2129.97 0.8103130459785461 -1.748941560784811 -1.4575189352035522 -1.4797653567842026 1.5612211227416992 0.3219567537307739 True False
2129.99 0.8217677474021912 -1.7495290241637171 -1.4573063850402832 -1.4791201514056702 1.5613211393356323 0.32404762506484985 True False
2130.0099999999998 0.8336055278778076 -1.7501236400999964 -1.4571220874786377 -1.4785359513810654 1.561501145362854 0.3260546326637268 True False
2130.0299999999997 0.8454477787017822 -1.7507149181761683 -1.456985592842102 -1.4778542828610917 1.5614688396453857 0.32819002866744995 True False
2130.0499999999997 0.858029305934906 -1.751331468621725 -1.4568103551864624 -1.4770501267961045 1.5615969896316528 0.33044689893722534 True False
2130.0699999999997 0.8708575963973999 -1.7520181141295375 -1.456585168838501 -1.4763010677746315 1.561740517616272 0.33271482586860657 True False
2130.0899999999997 0.8839239478111267 -1.7526427708067835 -1.4564696550369263 -1.4757126879743119 1.5617209672927856 0.3350013196468353 True False
2130.11 0.8974153995513916 -1.7532693348326625 -1.4562674760818481 -1.4747962367585679 1.5619447231292725 0.3373567759990692 True False
2130.13 0.9112933278083801 -1.7539669475951136 -1.4559917449951172 -1.4739477944425126 1.5619925260543823 0.3398757874965668 True False
2130.15 0.9254900813102722 -1.7546960316100062 -1.4558385610580444 -1.4731715109995385 1.5621414184570312 0.34234151244163513 True False
2130.17 0.9399564266204834 -1.7553297481932582 -1.4555939435958862 -1.4724031326225777 1.5621603727340698 0.34492382407188416 True False
2130.19 0.9548462629318237 -1.7561389408507289 -1.4554393291473389 -1.4715909150293847 1.562288522720337 0.34755828976631165 True False
2130.21 0.9701356291770935 -1.7569085560240687 -1.455238699913025 -1.4706828531673928 1.5623846054077148 0.3503320813179016 True False
2130.23 0.9856698513031006 -1.7576443157591761 -1.455072283744812 -1.4698992234519501 1.5624685287475586 0.3530770540237427 True False
2130.25 1.001673936843872 -1.7585002384581507 -1.4547306299209595 -1.4689433735660096 1.5626246929168701 0.35595273971557617 True False
2130.27 1.017960548400879 -1.7593213520445765 -1.4544953107833862 -1.467959814970829 1.5627487897872925 0.35878869891166687 True False
2130.29 1.034489393234253 -1.7601119480528773 -1.4541802406311035 -1.4669640895775338 1.5628604888916016 0.3617139160633087 True False
2130.31 1.051512360572815 -1.7609268627562464 -1.4539581537246704 -1.4660687160542984 1.5629643201828003 0.3647480607032776 True False
2130.33 1.0689423084259033 -1.7618323765196742 -1.4536776542663574 -1.4651372742703934 1.5631486177444458 0.3678461015224457 True False
2130.35 1.0863124132156372 -1.7626873455443324 -1.4534504413604736 -1.4641491037658234 1.563300371170044 0.3709566593170166 True False
2130.37 1.1037297248840332 -1.7634998760619105 -1.4532999992370605 -1.463221715097763 1.5633044242858887 0.3739221394062042 True False
2130.39 1.1211495399475098 -1.764369627038473 -1.4529871940612793 -1.4621027198484917 1.5634921789169312 0.3770982325077057 True False
2130.41 1.1387439966201782 -1.7652174435057582 -1.4528049230575562 -1.4611713674715539 1.563576102256775 0.38019534945487976 True False
2130.43 1.1561044454574585 -1.7660705051817835 -1.4524904489517212 -1.460123935048916 1.5637648105621338 0.3832723796367645 True False
2130.45 1.1735702753067017 -1.7669197521605433 -1.4522144794464111 -1.4591210645488282 1.56383216381073 0.3863901197910309 True False
2130.47 1.1909757852554321 -1.767858167687887 -1.4520540237426758 -1.4581970956972619 1.5640161037445068 0.3895248472690582 True False
2130.49 1.20853590965271 -1.768797060052389 -1.4517910480499268 -1.457221121793129 1.5641289949417114 0.39260247349739075 True False
2130.5099999999998 1.2259633541107178 -1.7695580921568812 -1.4515639543533325 -1.456225925391056 1.5642201900482178 0.39573559165000916 True False
2130.5299999999997 1.2433522939682007 -1.7703844509520472 -1.4513211250305176 -1.455254742210247 1.5643682479858398 0.3987472951412201 True False
2130.5499999999997 1.2609009742736816 -1.771325250665182 -1.4510552883148193 -1.454203264122345 1.5644521713256836 0.40185776352882385 True False
2130.5699999999997 1.278308391571045 -1.7721644840636195 -1.4507782459259033 -1.4531162914684792 1.5646040439605713 0.4049263894557953 True False
2130.5899999999997 1.2957466840744019 -1.7730480633177699 -1.4506263732910156 -1.4521644797972222 1.5646882057189941 0.4080861210823059 True False
2130.61 1.313199520111084 -1.7739139995970667 -1.4502630233764648 -1.451289252643921 1.564819574356079 0.41110125184059143 True False
2130.63 1.3306313753128052 -1.7747537098326625 -1.450085163116455 -1.4503374558738251 1.5649402141571045 0.41416457295417786 True False
2130.65 1.347997784614563 -1.7756148777403773 -1.4498413801193237 -1.4492179092815896 1.565116286277771 0.41734838485717773 True False
2130.67 1.3656303882598877 -1.7765432796873988 -1.4496084451675415 -1.4482144650867959 1.5652602910995483 0.42047908902168274 True False
2130.69 1.3830331563949585 -1.777416845361227 -1.4493565559387207 -1.447319821720459 1.5653440952301025 0.4235576093196869 True False
2130.71 1.4004559516906738 -1.778290411035055 -1.4490760564804077 -1.4462003868869324 1.5654480457305908 0.42661938071250916 True False
2130.73 1.4179619550704956 -1.779168268243307 -1.4488664865493774 -1.4452330035022278 1.5655920505523682 0.42972517013549805 True False
2130.75 1.4353697299957275 -1.7799879513182582 -1.4486054182052612 -1.4443371307900925 1.5657563209533691 0.4327721893787384 True False
2130.77 1.452776312828064 -1.7808367214598597 -1.4483373165130615 -1.443369300370552 1.5657920837402344 0.4359196424484253 True False
2130.79 1.470334768295288 -1.7817360363402308 -1.4481420516967773 -1.4423620712808152 1.565996527671814 0.43900999426841736 True False
2130.81 1.4877463579177856 -1.7826906643309535 -1.447934865951538 -1.4413858962110062 1.5660642385482788 0.4420155882835388 True False
2130.83 1.5051428079605103 -1.7835728130736292 -1.4476022720336914 -1.4403935235789795 1.566204309463501 0.44517621397972107 True False
2130.85 1.5225709676742554 -1.784389158288473 -1.4473505020141602 -1.4392612737468262 1.5663442611694336 0.448269248008728 True False
2130.87 1.5401495695114136 -1.7851482830443324 -1.447017788887024 -1.4382965576699753 1.5664840936660767 0.4513869881629944 True False
2130.89 1.5576292276382446 -1.7860733471312464 -1.446763515472412 -1.4374194157174607 1.5665795803070068 0.4544297754764557 True False
2130.91 1.5749480724334717 -1.7869087658324183 -1.4465173482894897 -1.4365149301341553 1.5666476488113403 0.4575112760066986 True False
2130.93 1.5924783945083618 -1.787729402581686 -1.446265459060669 -1.4353784632733841 1.5668519735336304 0.4606302082538605 True False
2130.95 1.6099681854248047 -1.7886306248106898 -1.4460872411727905 -1.4344056260636826 1.5669234991073608 0.46375682950019836 True False
2130.97 1.6270445585250854 -1.789487978021139 -1.4458880424499512 -1.4334368717721482 1.5670998096466064 0.46677231788635254 True False
2130.99 1.643731713294983 -1.7903458080687464 -1.445615530014038 -1.4323562395623703 1.5671756267547607 0.4697358012199402 True False
2131.0099999999998 1.6602987051010132 -1.791210790673727 -1.4453606605529785 -1.431519628768303 1.5672872066497803 0.4726443886756897 True False
2131.0299999999997 1.6764166355133057 -1.7918855152525843 -1.4451282024383545 -1.4306501609138031 1.5673953294754028 0.4755500853061676 True False
2131.0499999999997 1.6920560598373413 -1.7926637134947718 -1.4449366331100464 -1.429793269639351 1.5675077438354492 0.4783395528793335 True False
2131.0699999999997 1.7076454162597656 -1.793492933312887 -1.4447330236434937 -1.4288602334311982 1.5676721334457397 0.48101770877838135 True False
2131.0899999999997 1.7225857973098755 -1.7943493328490199 -1.4445208311080933 -1.4280024629882355 1.5677471160888672 0.4837643504142761 True False
2131.11 1.7372350692749023 -1.7949062786498011 -1.4443081617355347 -1.4271818709424515 1.5678279399871826 0.4863244295120239 True False
2131.13 1.7516733407974243 -1.7956930599608363 -1.4440975189208984 -1.4262811255506058 1.568032145500183 0.48887407779693604 True False
2131.15 1.7657036781311035 -1.796349664727682 -1.4439045190811157 -1.425519810324051 1.568023443222046 0.4913550615310669 True False
2131.17 1.7793381214141846 -1.7970324955382289 -1.443702220916748 -1.4247103792480011 1.5681840181350708 0.49378910660743713 True False
2131.19 1.7927266359329224 -1.7976585827269496 -1.4434524774551392 -1.4240046006492157 1.568239450454712 0.49616503715515137 True False
2131.21 1.805681824684143 -1.798351903954977 -1.4433512687683105 -1.4233311426690598 1.5683029890060425 0.4984005093574524 True False
2131.23 1.818159580230713 -1.7989937267699183 -1.4432148933410645 -1.422645093207695 1.5683794021606445 0.5006058812141418 True False
2131.25 1.8305295705795288 -1.799617429772848 -1.4430394172668457 -1.4219159346869965 1.5685033798217773 0.5028713941574097 True False
2131.27 1.8424285650253296 -1.8002172909178675 -1.4428186416625977 -1.421234132056572 1.568647861480713 0.5049780607223511 True False
2131.29 1.8539557456970215 -1.800835748712057 -1.4427227973937988 -1.4206482929042359 1.568598985671997 0.507011890411377 True False
2131.31 1.8653173446655273 -1.8013416729369105 -1.4425430297851562 -1.419874669318535 1.568763256072998 0.5090257525444031 True False
2131.33 1.8760555982589722 -1.8018933735289515 -1.4424118995666504 -1.419304685001709 1.5688310861587524 0.5108955502510071 True False
2131.35 1.8865492343902588 -1.8023525677123011 -1.44223952293396 -1.4186905783465882 1.568814992904663 0.5127955079078674 True False
2131.37 1.8968970775604248 -1.8029190502562464 -1.4420957565307617 -1.4180408877185364 1.5690233707427979 0.5146583318710327 True False
2131.39 1.9065126180648804 -1.8033763370909632 -1.4419236183166504 -1.4175265294364472 1.5690433979034424 0.51631760597229 True False
2131.41 1.916021704673767 -1.803880353967184 -1.441812515258789 -1.4170360577157517 1.5690754652023315 0.5180639624595642 True False
2131.43 1.9253804683685303 -1.8043304882445277 -1.4416576623916626 -1.4165419054082413 1.5692192316055298 0.5195903182029724 True False
2131.45 1.9340221881866455 -1.8047648868956507 -1.4415249824523926 -1.4161030513099213 1.5692431926727295 0.5212316513061523 True False
2131.47 1.9422826766967773 -1.805227895776266 -1.4414199590682983 -1.4155932676843186 1.569263219833374 0.5227124691009521 True False
2131.49 1.9506601095199585 -1.805504938165182 -1.4413371086120605 -1.4150868219188233 1.5693753957748413 0.5240771174430847 True False
2131.5099999999998 1.958292007446289 -1.8059517345824183 -1.441192626953125 -1.414640263920166 1.5694270133972168 0.5254746079444885 True False
2131.5299999999997 1.9655187129974365 -1.8063260517516078 -1.4412139654159546 -1.4142936629107972 1.5694310665130615 0.5268568992614746 True False
2131.5499999999997 1.9726195335388184 -1.806615491906637 -1.441053867340088 -1.4138149929097672 1.5694870948791504 0.5280481576919556 True False
2131.5699999999997 1.9794127941131592 -1.8069755039610804 -1.4409266710281372 -1.4134043914130707 1.5695950984954834 0.5291929244995117 True False
2131.5899999999997 1.9856630563735962 -1.8073297939696253 -1.4407200813293457 -1.4130973827889939 1.5695708990097046 0.5303301215171814 True False
2131.61 1.9916303157806396 -1.8076092205443324 -1.4408040046691895 -1.4127825957587739 1.5696189403533936 0.5314355492591858 True False
2131.63 1.9972060918807983 -1.807875772515768 -1.4406306743621826 -1.4123877745917817 1.569646954536438 0.5324740409851074 True False
2131.65 2.0025250911712646 -1.8081141910948695 -1.4405298233032227 -1.4120648962310334 1.5697349309921265 0.5334032773971558 True False
2131.67 2.007511854171753 -1.8083983860411585 -1.4404408931732178 -1.4117896866849442 1.5697791576385498 0.534236490726471 True False
2131.69 2.012134552001953 -1.8086773357787074 -1.4404220581054688 -1.4115665715983887 1.5697788000106812 0.5350264310836792 True False
2131.71 2.0164124965667725 -1.8088776073851527 -1.4403055906295776 -1.4113072764924546 1.5698509216308594 0.5357549786567688 True False
2131.73 2.0202085971832275 -1.8089548550047816 -1.4402698278427124 -1.4110962313464661 1.5698308944702148 0.5365446209907532 True False
2131.75 2.0237491130828857 -1.8091384373106898 -1.440287470817566 -1.4110004019788285 1.569883108139038 0.5371328592300415 True False
2131.77 2.0269289016723633 -1.8093468151488246 -1.4402271509170532 -1.410761297946312 1.5698589086532593 0.5377113223075867 True False
2131.79 2.0297129154205322 -1.8094588718810023 -1.4401752948760986 -1.4105979216149827 1.5699273347854614 0.538176953792572 True False
2131.81 2.0322678089141846 -1.8095241985716761 -1.4401670694351196 -1.4104504895261307 1.5698989629745483 0.5385988354682922 True False
2131.83 2.034451723098755 -1.8097073040404261 -1.440085768699646 -1.4103624534657975 1.5699591636657715 0.5389935374259949 True False
2131.85 2.036247968673706 -1.809817453423971 -1.4400699138641357 -1.4102985721877594 1.5699551105499268 0.5393587350845337 True False
2131.87 2.0376789569854736 -1.809812685052389 -1.440066933631897 -1.4101871860078354 1.5699551105499268 0.5396309494972229 True False
2131.89 2.0387938022613525 -1.809871336022848 -1.440006136894226 -1.4101114136031647 1.5700350999832153 0.5397102236747742 True False
2131.91 2.0395376682281494 -1.8099190197386683 -1.4400148391723633 -1.410083608036377 1.5699386596679688 0.5398359298706055 True False
2131.93 2.0399084091186523 -1.8100091419615687 -1.4400018453598022 -1.4100954842618485 1.569991111755371 0.5399178862571716 True False
2131.95 2.03995943069458 -1.809983869592184 -1.4400354623794556 -1.4100674253753205 1.5699948072433472 0.5398600101470947 True False
2131.97 2.039872169494629 -1.8099624119200648 -1.4401988983154297 -1.4095094960979004 1.5699551105499268 0.5399360060691833 True False
2131.99 2.0399112701416016 -1.8101164303221644 -1.4406296014785767 -1.4088870149901886 1.5699113607406616 0.5400453805923462 True False
2132.0099999999998 2.039952039718628 -1.810237546960348 -1.4416539669036865 -1.4079942566207428 1.5696231126785278 0.5400962233543396 True False
2132.0299999999997 2.0399112701416016 -1.8105017147459925 -1.4429758787155151 -1.406717689042427 1.5693910121917725 0.5400704741477966 True False
2132.0499999999997 2.039989471435547 -1.810777326623434 -1.444502830505371 -1.4048556846431275 1.569115161895752 0.5401455760002136 True False
2132.0699999999997 2.039952039718628 -1.8109361133971156 -1.4465899467468262 -1.4029274445823212 1.568703532218933 0.5402471423149109 True False
2132.0899999999997 2.039963960647583 -1.8111950359740199 -1.4491143226623535 -1.4006260198405762 1.568215250968933 0.5403266549110413 True False
2132.11 2.039975881576538 -1.8116423092284144 -1.4518647193908691 -1.3978312027505417 1.5676792860031128 0.5404266715049744 True False
2132.13 2.0399386882781982 -1.8119598827757777 -1.4547635316848755 -1.3946776551059266 1.567026972770691 0.5404475927352905 True False
2132.15 2.039971351623535 -1.8123675785460414 -1.4581314325332642 -1.3913328361562272 1.566375732421875 0.5405943393707275 True False
2132.17 2.0399997234344482 -1.8129788837828578 -1.4617263078689575 -1.387517051105835 1.5656194686889648 0.540749728679657 True False
2132.19 2.0399951934814453 -1.8134447536864222 -1.4656906127929688 -1.3834067446044465 1.564863920211792 0.540833592414856 True False
2132.21 2.0400116443634033 -1.8140260181822718 -1.4699959754943848 -1.3788126421025773 1.5639756917953491 0.5410161018371582 True False
2132.23 2.039971351623535 -1.8146306476988734 -1.4747751951217651 -1.374002830391266 1.5630559921264648 0.5411898493766785 True False
2132.25 2.0399460792541504 -1.8153368435301722 -1.4798768758773804 -1.368821607237198 1.5620886087417603 0.5413481593132019 True False
2132.27 2.0400116443634033 -1.815989156762594 -1.4852995872497559 -1.3632924121669312 1.5610361099243164 0.5414829850196838 True False
2132.29 2.040013074874878 -1.816756387750143 -1.4907726049423218 -1.3574161541512986 1.5597963333129883 0.5417027473449707 True False
2132.31 2.0399744510650635 -1.8175202808775843 -1.4966813325881958 -1.3511484873345871 1.558592438697815 0.5418776869773865 True False
2132.33 2.0399906635284424 -1.8184462986388148 -1.5029462575912476 -1.3447221678546448 1.5573368072509766 0.5421395897865295 True False
2132.35 2.0400161743164062 -1.8193522892394007 -1.5098826885223389 -1.337752417927124 1.5560295581817627 0.5423040986061096 True False
2132.37 2.0400161743164062 -1.8202454052367152 -1.5170320272445679 -1.3304231029799958 1.5546334981918335 0.5425692200660706 True False
2132.39 2.0399951934814453 -1.8212601147093714 -1.5242477655410767 -1.3227820259383698 1.5531936883926392 0.542809784412384 True False
2132.41 2.039987802505493 -1.8222557506956996 -1.5317362546920776 -1.3147824865630646 1.5515661239624023 0.5430476069450378 True False
2132.43 2.0399506092071533 -1.8232623539366664 -1.5398341417312622 -1.3064316672137757 1.5500425100326538 0.5433063507080078 True False
2132.45 2.039975881576538 -1.8244453869261683 -1.5485337972640991 -1.2977519494346161 1.5482983589172363 0.5436428785324097 True False
2132.47 2.0399386882781982 -1.8256827793517054 -1.5571622848510742 -1.2887695890716095 1.5467033386230469 0.5438523888587952 True False
2132.49 2.039992332458496 -1.8267771206297816 -1.565825343132019 -1.2793511909297486 1.5448074340820312 0.5441455841064453 True False
2132.5099999999998 2.039975881576538 -1.8279310665526332 -1.5754002332687378 -1.2695546311191102 1.5428999662399292 0.5445122718811035 True False
2132.5299999999997 2.0400116443634033 -1.8293167553343714 -1.5852711200714111 -1.2597457629493256 1.5409525632858276 0.5448353290557861 True False
2132.5499999999997 2.040004253387451 -1.8307067356505335 -1.595008134841919 -1.249317930345871 1.5390208959579468 0.545153796672821 True False
2132.5699999999997 2.040004253387451 -1.831858297387594 -1.6046401262283325 -1.2391146582416077 1.5370293855667114 0.5454589128494263 True False
2132.5899999999997 2.0399997234344482 -1.8331810436644496 -1.614263892173767 -1.2294648748687287 1.5350894927978516 0.5458092093467712 True False
2132.61 2.0399997234344482 -1.8345467052855433 -1.623285174369812 -1.2202569109252472 1.5333938598632812 0.5460948944091797 True False
2132.63 2.0399906635284424 -1.8355313740172328 -1.6317418813705444 -1.211054967050888 1.5316627025604248 0.5464239716529846 True False
2132.65 2.0399832725524902 -1.8365899525084437 -1.6401770114898682 -1.2023252111724396 1.5299766063690186 0.5466826558113098 True False
2132.67 2.039992332458496 -1.8378497562804164 -1.6484007835388184 -1.1941737991622468 1.5283063650131226 0.546970009803772 True False
2132.69 2.0399832725524902 -1.8389159641661585 -1.6558620929718018 -1.1861833196929474 1.5268092155456543 0.5471673607826233 True False
2132.71 2.0400161743164062 -1.8396254978575648 -1.6630619764328003 -1.178381935959198 1.5253686904907227 0.5474696159362793 True False
2132.73 2.040041446685791 -1.8406855068602503 -1.6703460216522217 -1.1711636942676087 1.5239115953445435 0.5476416349411011 True False
2132.75 2.040004253387451 -1.8417426548399867 -1.6773262023925781 -1.1644592446139832 1.5227302312850952 0.547881007194519 True False
2132.77 2.039987802505493 -1.8425246677794398 -1.683281421661377 -1.1576910477927704 1.521293044090271 0.5481022596359253 True False
2132.79 2.039963960647583 -1.8431045017638148 -1.6890445947647095 -1.1513622862151642 1.5201748609542847 0.5483148694038391 True False
2132.81 2.0399951934814453 -1.8439790211119593 -1.6948868036270142 -1.1456116002849122 1.5190688371658325 0.5484883785247803 True False
2132.83 2.0399386882781982 -1.8447734318175257 -1.7005690336227417 -1.1402365130237122 1.5178824663162231 0.548681378364563 True False
2132.85 2.040004253387451 -1.8454457722105921 -1.7054730653762817 -1.1348125797561188 1.5169055461883545 0.5488322973251343 True False
2132.87 2.0400235652923584 -1.8460012874998988 -1.7099065780639648 -1.1300476056388398 1.5160481929779053 0.5489954352378845 True False
2132.89 2.0399670600891113 -1.846661230126852 -1.7141709327697754 -1.1255566042712708 1.5151056051254272 0.5491106510162354 True False
2132.91 2.0399789810180664 -1.8471914730467738 -1.7182228565216064 -1.1214926403811951 1.5143191814422607 0.5492660999298096 True False
2132.93 2.0399997234344482 -1.8476058445372523 -1.7218202352523804 -1.1176645022681733 1.5136570930480957 0.5493738651275635 True False
2132.95 2.0400116443634033 -1.8480502567686976 -1.725221037864685 -1.1141959589770813 1.5130138397216797 0.5494771599769592 True False
2132.97 2.0399951934814453 -1.8484698734679164 -1.7282177209854126 -1.1111419659904023 1.5123589038848877 0.5495890974998474 True False
2132.99 2.0399951934814453 -1.8488241634764613 -1.7309684753417969 -1.1084671181491395 1.511820673942566 0.5496521592140198 True False
2133.0099999999998 2.0400116443634033 -1.8491140804686488 -1.7333228588104248 -1.1059566003135224 1.5113211870193481 0.5497899055480957 True False
2133.0299999999997 2.0399506092071533 -1.8494278393187464 -1.735219120979309 -1.1040200752070923 1.5109139680862427 0.5498287677764893 True False
2133.0499999999997 2.040004253387451 -1.8495904407896937 -1.7367467880249023 -1.1022992891124268 1.5106513500213623 0.5498242974281311 True False
2133.0699999999997 2.039987802505493 -1.8497511349120082 -1.738109827041626 -1.1009427470019837 1.5103954076766968 0.5499423146247864 True False
2133.0899999999997 2.040041208267212 -1.849910398522848 -1.7391343116760254 -1.0999085766128083 1.5102158784866333 0.549927294254303 True False
2133.11 2.0399625301361084 -1.8499185047545375 -1.7396206855773926 -1.099277750854828 1.5101441144943237 0.550009548664093 True False
2133.13 2.040024757385254 -1.8498975239195765 -1.739884853363037 -1.0989827674678345 1.510148286819458 0.5499931573867798 True False
2133.15 2.0400235652923584 -1.849938531915182 -1.7399019002914429 -1.0990147155574341 1.5101643800735474 0.5499915480613708 True False
2133.17 2.040029287338257 -1.8499719105162562 -1.7398589849472046 -1.0991032284549256 1.5100831985473633 0.5499633550643921 True False
2133.19 2.0399463176727295 -1.8499013386168421 -1.7398937940597534 -1.0990831416896363 1.5100840330123901 0.5499678254127502 True False
2133.21 2.039987802505493 -1.8499628506102503 -1.7399166822433472 -1.0990429383567353 1.5100123882293701 0.5499722957611084 True False
2133.23 2.0399997234344482 -1.8499814472594203 -1.739925503730774 -1.0990668398192902 1.5100164413452148 0.5499678254127502 True False
2133.25 2.0399954319000244 -1.8500024280943812 -1.7399449348449707 -1.0990470510772248 1.5100207328796387 0.5500082969665527 True False
2133.27 2.040029287338257 -1.8500095806517542 -1.7399519681930542 -1.0990188282779236 1.5100042819976807 0.5499916076660156 True False
2133.29 2.0399997234344482 -1.849945684472555 -1.7399473190307617 -1.0990589720061799 1.5099678039550781 0.5500202178955078 True False
2133.31 2.0399997234344482 -1.8500095806517542 -1.7399970293045044 -1.0990631145289917 1.5099517107009888 0.550033688545227 True False
2133.33 2.0400073528289795 -1.8500586948790492 -1.7399839162826538 -1.0990672272494812 1.5099923610687256 0.5499588251113892 True False
2133.35 2.040032386779785 -1.8500544033446253 -1.7399767637252808 -1.099070892935135 1.5100164413452148 0.5499916076660156 True False
2133.37 2.0400073528289795 -1.8500706158080042 -1.7400623559951782 -1.0990553361228486 1.5099958181381226 0.5499797463417053 True False
2133.39 2.0399997234344482 -1.850018163720602 -1.7400164604187012 -1.099074975853302 1.5099881887435913 0.5500082969665527 True False
2133.41 2.0399701595306396 -1.8499938450255335 -1.7400288581848145 -1.0990111094764252 1.5100367069244385 0.5499961376190186 True False
2133.43 2.039984703063965 -1.8500262699522914 -1.740053415298462 -1.0990310472301026 1.5100042819976807 0.5500050783157349 True False
2133.45 2.0399909019470215 -1.8500219784178675 -1.740024447441101 -1.098970578317978 1.510000228881836 0.5500038266181946 True False
2133.47 2.0399835109710693 -1.8500381908812464 -1.7400007247924805 -1.0990110498717804 1.5099923610687256 0.5500038266181946 True False
2133.49 2.0400278568267822 -1.8500024280943812 -1.7399837970733643 -1.0989385706237336 1.5099725723266602 0.549999475479126 True False
2133.5099999999998 2.0399627685546875 -1.8500715694823207 -1.7399919033050537 -1.0990392428687592 1.5099842548370361 0.5500483512878418 True False
2133.5299999999997 2.039987802505493 -1.8499895534911097 -1.7399795055389404 -1.0989909631064911 1.5099678039550781 0.5500650405883789 True False
2133.5499999999997 2.040074348449707 -1.8500391445555628 -1.7400050163269043 -1.099039302473404 1.5099842548370361 0.5500438809394836 True False
2133.5699999999997 2.040015935897827 -1.8499938450255335 -1.7399767637252808 -1.0989704889110108 1.5099961757659912 0.5500362515449524 True False
2133.5899999999997 2.040008544921875 -1.850046773950094 -1.739992618560791 -1.098974661236145 1.5100083351135254 0.5500363111495972 True False
2133.61 2.0399670600891113 -1.8500620327391566 -1.7400332689285278 -1.0990352195552369 1.5099645853042603 0.549999475479126 True False
2133.63 2.0399508476257324 -1.8500219784178675 -1.7399919033050537 -1.0989787143519898 1.510008454322815 0.5500438809394836 True False
2133.65 2.039987802505493 -1.849985261956686 -1.7400296926498413 -1.099014775162079 1.5100204944610596 0.550034761428833 True False
2133.67 2.0399670600891113 -1.8500095806517542 -1.7400774955749512 -1.0990033012679596 1.5099844932556152 0.5500158667564392 True False
2133.69 2.0400073528289795 -1.849985261956686 -1.7400492429733276 -1.098986880188324 1.5100245475769043 0.5500605702400208 True False
2133.71 2.0399909019470215 -1.8500005207457484 -1.740046501159668 -1.0989827376655121 1.5100204944610596 0.5500571131706238 True False
2133.73 2.0400290489196777 -1.8500639400877894 -1.740020751953125 -1.098970578317978 1.5099644660949707 0.5500319004058838 True False
2133.75 2.0400116443634033 -1.8500787220396937 -1.7400075197219849 -1.0989827674678345 1.5100244283676147 0.5500319004058838 True False
2133.77 2.039992094039917 -1.850022932092184 -1.7400492429733276 -1.0990110498717804 1.5100325345993042 0.5500362515449524 True False
2133.79 2.0400278568267822 -1.8500668011107386 -1.7400535345077515 -1.0989909631064911 1.5099605321884155 0.5499707460403442 True False
2133.81 2.0399954319000244 -1.8500682316222132 -1.7400007247924805 -1.0990033012679596 1.5099804401397705 0.5500038266181946 True False
2133.83 2.0399835109710693 -1.8499962292113246 -1.7400332689285278 -1.098974661236145 1.5099884271621704 0.5500496625900269 True False
2133.85 2.0399177074432373 -1.8499647579588832 -1.7400007247924805 -1.0989909631064911 1.5100284814834595 0.549970805644989 True False
2133.87 2.0400116443634033 -1.850011488000387 -1.7399874925613403 -1.099018858080246 1.5099804401397705 0.549999475479126 True False
2133.89 2.040032148361206 -1.85001864055776 -1.7400094270706177 -1.0990193051150818 1.5099725723266602 0.5500452518463135 True False
2133.91 2.0399997234344482 -1.850013872186178 -1.739967942237854 -1.0989909631064911 1.5099804401397705 0.5500128269195557 True False
2133.93 2.0399630069732666 -1.8500262699522914 -1.7400288581848145 -1.0989663761905213 1.509992241859436 0.5499768257141113 True False
2133.95 2.0400147438049316 -1.8499423466124476 -1.7400094270706177 -1.0990147155574341 1.5099884271621704 0.5500407218933105 True False
2133.97 2.0399672985076904 -1.850013872186178 -1.7400288581848145 -1.0989787441543122 1.5100204944610596 0.5500082969665527 True False
2133.99 2.0399997234344482 -1.849969049493307 -1.740020751953125 -1.0990028840354462 1.5100244283676147 0.5500542521476746 True False
2134.0099999999998 2.039992094039917 -1.8500591717162074 -1.7399839162826538 -1.099027083521225 1.509936809539795 0.5500128269195557 True False
2134.0299999999997 2.040004014968872 -1.8500219784178675 -1.7400288581848145 -1.0990234476378937 1.5099685192108154 0.5499469041824341 True False
2134.0499999999997 2.039980173110962 -1.8499766788878382 -1.7400492429733276 -1.099026934509613 1.5100244283676147 0.5500038266181946 True False
2134.0699999999997 2.0400190353393555 -1.850013872186178 -1.740020751953125 -1.0989909631064911 1.510000228881836 0.5499526858329773 True False
2134.0899999999997 2.04005765914917 -1.8499723873534144 -1.739967942237854 -1.0989949864200135 1.5099843740463257 0.5499752163887024 True False
2134.11 2.0399911403656006 -1.8500052891173304 -1.7400031089782715 -1.0990106624415894 1.5099923610687256 0.5499767661094666 True False
2134.13 2.039926052093506 -1.8499647579588832 -1.7400050163269043 -1.0990028840354462 1.5099923610687256 0.5500005483627319 True False
2134.15 2.0399954319000244 -1.8499814472594203 -1.7400403022766113 -1.098995105629303 1.5100042819976807 0.5500006079673767 True False
2134.17 2.0399672985076904 -1.85001864055776 -1.7399829626083374 -1.0990028542331238 1.5100042819976807 0.5499961376190186 True False
2134.19 2.0399835109710693 -1.8500219784178675 -1.7400007247924805 -1.099006937151291 1.5099765062332153 0.5500050187110901 True False
2134.21 2.0400278568267822 -1.8500801525511683 -1.7399839162826538 -1.0989909631064911 1.5100481510162354 0.5500006079673767 True False
2134.23 2.0400288105010986 -1.8500095806517542 -1.7400164604187012 -1.0990393322757264 1.5099960565567017 0.5500050187110901 True False
2134.25 2.0399792194366455 -1.8499695263304652 -1.7399882078170776 -1.099051223402359 1.5100042819976807 0.5499797463417053 True False
2134.27 2.040015935897827 -1.850011488000387 -1.7396795749664307 -1.099326179628708 1.5100443363189697 0.5499425530433655 True False
2134.29 2.04003643989563 -1.8499142132201136 -1.7391302585601807 -1.0999976259521027 1.510160207748413 0.5499722957611084 True False
2134.31 2.040015935897827 -1.8497687778868617 -1.7381843328475952 -1.101079599266388 1.510387659072876 0.5499482154846191 True False
2134.33 2.0399835109710693 -1.849630971948141 -1.7368488311767578 -1.1025409561446686 1.5106637477874756 0.5499570965766907 True False
2134.35 2.0399715900421143 -1.8493458233275355 -1.7350283861160278 -1.1042055648616333 1.510982871055603 0.5498437285423279 True False
2134.37 2.0400278568267822 -1.84904207805776 -1.7328834533691406 -1.1062299472144623 1.5113699436187744 0.5498299598693848 True False
2134.39 2.040004014968872 -1.8488232098021449 -1.730636477470398 -1.1087173980525513 1.5118408203125 0.5497296452522278 True False
2134.41 2.039975881576538 -1.8485237560667933 -1.7279653549194336 -1.111567423944809 1.5124282836914062 0.5496340394020081 True False
2134.43 2.0400073528289795 -1.8480407200255335 -1.7248083353042603 -1.1144699913314362 1.5129785537719727 0.5494968891143799 True False
2134.45 2.040015935897827 -1.847532411614889 -1.721444010734558 -1.1181146067431946 1.513657569885254 0.5494140982627869 True False
2134.47 2.0399715900421143 -1.8471313915648402 -1.7179250717163086 -1.1219242078116913 1.5143839120864868 0.549245297908783 True False
2134.49 2.0399997234344482 -1.84668030361318 -1.713929295539856 -1.1260876518538971 1.5152024030685425 0.5490731596946716 True False
2134.5099999999998 2.040008306503296 -1.8459941349425257 -1.7095506191253662 -1.1305713516524811 1.5160930156707764 0.548954963684082 True False
2134.5299999999997 2.0399954319000244 -1.8453966579832972 -1.7049225568771362 -1.1355119806579133 1.5170546770095825 0.5488445162773132 True False
2134.5499999999997 2.040008306503296 -1.8446742496886195 -1.6997478008270264 -1.1408837896636506 1.5180294513702393 0.5486723780632019 True False
2134.5699999999997 2.040008306503296 -1.8439423046507777 -1.6942800283432007 -1.1462713939002533 1.519122838973999 0.5484959483146667 True False
2134.5899999999997 2.040015935897827 -1.8430735073485316 -1.688516616821289 -1.1521946650794526 1.5202404260635376 0.5482683777809143 True False
2134.61 2.0399630069732666 -1.842330118218893 -1.6826863288879395 -1.1583838325789948 1.5213749408721924 0.5480725169181824 True False
2134.63 2.040008306503296 -1.8415810070433558 -1.6763365268707275 -1.1651798349669953 1.5227322578430176 0.5478075742721558 True False
2134.65 2.040004014968872 -1.840621133843893 -1.6695817708969116 -1.172115222816803 1.5241488218307495 0.5476135015487671 True False
2134.67 2.0400407314300537 -1.8396598301329554 -1.6623579263687134 -1.1792675715735932 1.5254627466201782 0.5474516153335571 True False
2134.69 2.040015935897827 -1.838651796380514 -1.6549330949783325 -1.1870453518680115 1.5269871950149536 0.5472167730331421 True False
2134.71 2.0399672985076904 -1.8376480541624964 -1.6473392248153687 -1.195040301685669 1.5284843444824219 0.5469534993171692 True False
2134.73 2.0399997234344482 -1.836644788781637 -1.6393662691116333 -1.2035511595061799 1.5301899909973145 0.5466127991676331 True False
2134.75 2.0399866104125977 -1.8355289898314417 -1.6307671070098877 -1.2120696169188996 1.5317795276641846 0.5463448166847229 True False
2134.77 2.040015935897827 -1.834299226800436 -1.6219574213027954 -1.2210718852332612 1.5336241722106934 0.5460860729217529 True False
2134.79 2.040020227432251 -1.8330470524229945 -1.6130902767181396 -1.2307488185218354 1.535294771194458 0.5457926988601685 True False
2134.81 2.0400006771087646 -1.8319055042662562 -1.6036392450332642 -1.2404019397548218 1.5372869968414307 0.5454516410827637 True False
2134.83 2.0400116443634033 -1.8305374584593714 -1.5936477184295654 -1.2504427593997498 1.5392673015594482 0.5451405048370361 True False
2134.85 2.039980173110962 -1.8291002712645472 -1.5839356184005737 -1.2607435447028656 1.5412777662277222 0.5448095798492432 True False
2134.87 2.0400073528289795 -1.8279410801329554 -1.5743211507797241 -1.2708866459182282 1.5431499481201172 0.544425368309021 True False
2134.89 2.0399792194366455 -1.826773305932516 -1.5649323463439941 -1.2805361610702057 1.5450773239135742 0.5441097021102905 True False
2134.91 2.0399630069732666 -1.8254310093321742 -1.5559358596801758 -1.2897715133479615 1.5468485355377197 0.5438478589057922 True False
2134.93 2.0400407314300537 -1.8242327175536097 -1.5472886562347412 -1.2989151340774079 1.548552393913269 0.5435431599617004 True False
2134.95 2.0399866104125977 -1.823327203790182 -1.53896164894104 -1.307548151617386 1.5502406358718872 0.5433349609375 True False
2134.97 2.0399835109710693 -1.8221727810301722 -1.5309940576553345 -1.3156195443919678 1.551835298538208 0.5430519580841064 True False
2134.99 2.040015935897827 -1.8210984669127406 -1.523295283317566 -1.3235962998918076 1.5533188581466675 0.5427424907684326 True False
2135.0099999999998 2.0400006771087646 -1.8201190433897914 -1.5161384344100952 -1.3313473773053666 1.5548548698425293 0.5425646305084229 True False
2135.0299999999997 2.0399954319000244 -1.819254537621969 -1.5090577602386475 -1.338509203200676 1.5561504364013672 0.5423086881637573 True False
2135.0499999999997 2.0399997234344482 -1.8182951412596644 -1.5022327899932861 -1.3452312362245102 1.557562232017517 0.5420944690704346 True False
2135.0699999999997 2.039987802505493 -1.8173490963377894 -1.495885968208313 -1.3518891793540497 1.5588703155517578 0.5418866872787476 True False
2135.0899999999997 2.0399997234344482 -1.8167034588255824 -1.4902466535568237 -1.3582319182208558 1.560033917427063 0.541644811630249 True False
2135.11 2.0399582386016846 -1.8159381351866664 -1.4846824407577515 -1.3640598070672532 1.5611975193023682 0.5414589643478394 True False
2135.13 2.0400326251983643 -1.815202375451559 -1.479183316230774 -1.3694162976792832 1.562160849571228 0.541336178779602 True False
2135.15 2.039992332458496 -1.8144809208311976 -1.474108099937439 -1.3746423137239 1.5630930662155151 0.5411522388458252 True False
2135.17 2.0399789810180664 -1.8139244518675746 -1.4694314002990723 -1.3793400687030335 1.564108967781067 0.5410013198852539 True False
2135.19 2.040004253387451 -1.813444276849264 -1.4652992486953735 -1.3838529002717515 1.5650206804275513 0.5408859252929688 True False
2135.21 2.0399951934814453 -1.8127862415709437 -1.4614746570587158 -1.387951285844185 1.5657243728637695 0.5407782793045044 True False
2135.23 2.040004253387451 -1.8123709164061488 -1.4582929611206055 -1.391148255472519 1.566412329673767 0.5405913591384888 True False
2135.25 2.0399625301361084 -1.8120714626707972 -1.4557782411575317 -1.3938311648419877 1.566843867301941 0.5405744910240173 True False
2135.27 2.0399832725524902 -1.8118163547911585 -1.4539276361465454 -1.395808072095253 1.5672881603240967 0.5404642820358276 True False
2135.29 2.039987802505493 -1.8117219410338343 -1.4523786306381226 -1.3972951036742707 1.5675795078277588 0.5404266119003296 True False
2135.31 2.039963960647583 -1.8115531406798304 -1.45121169090271 -1.3982632768205185 1.5677632093429565 0.5403582453727722 True False
2135.33 2.040041446685791 -1.811514516870016 -1.4505391120910645 -1.3992246103337784 1.5677872896194458 0.5403949022293091 True False
2135.35 2.039992332458496 -1.8115221462645472 -1.450341820716858 -1.3995503795197983 1.5678515434265137 0.5403949618339539 True False
2135.37 2.04002046585083 -1.8114625416197718 -1.4503059387207031 -1.3995146763375779 1.5678073167800903 0.5403878688812256 True False
2135.39 2.04006290435791 -1.8114906750121058 -1.4503179788589478 -1.3995268654874344 1.5678315162658691 0.5403504371643066 True False
2135.41 2.04002046585083 -1.8114949665465296 -1.4502640962600708 -1.3995591712049027 1.5678675174713135 0.54035484790802 True False
2135.43 2.0399670600891113 -1.811352869073385 -1.450249195098877 -1.3995068830302735 1.5679317712783813 0.5403429269790649 True False
2135.45 2.0399832725524902 -1.8113857708373011 -1.4502203464508057 -1.3994667393020173 1.5679755210876465 0.5403341054916382 True False
2135.47 2.040024995803833 -1.8114081821837367 -1.450214147567749 -1.3994668287089844 1.5679718255996704 0.5403178334236145 True False
2135.49 2.039975881576538 -1.8113542995848597 -1.450214147567749 -1.3994707626155396 1.5679714679718018 0.5403459668159485 True False
2135.5099999999998 2.0399789810180664 -1.811366697350973 -1.450181007385254 -1.3995071810534974 1.5679636001586914 0.5403429269790649 True False
2135.5299999999997 2.0399789810180664 -1.8113423786559046 -1.4502016305923462 -1.399451122885086 1.5679956674575806 0.5403625965118408 True False
2135.5499999999997 2.039971351623535 -1.8113872013487757 -1.4501571655273438 -1.3994708073190232 1.5679471492767334 0.5403252840042114 True False
2135.5699999999997 2.0399832725524902 -1.8114038906493128 -1.4501409530639648 -1.3995391440442582 1.5679677724838257 0.5403429269790649 True False
2135.5899999999997 2.0399997234344482 -1.8113590679564417 -1.4501279592514038 -1.3994593781283875 1.5679914951324463 0.5403177738189697 True False
2135.61 2.0399625301361084 -1.811366697350973 -1.4501690864562988 -1.3994749051383515 1.5679837465286255 0.5403265953063965 True False
2135.63 2.0399861335754395 -1.8113376102843226 -1.4501571655273438 -1.3994708222201844 1.5679672956466675 0.5403429269790649 True False
2135.65 2.0399551391601562 -1.8113542995848597 -1.4501409530639648 -1.3995030385306855 1.5679837465286255 0.5403310060501099 True False
2135.67 2.039971351623535 -1.8113886318602503 -1.450165867805481 -1.3994668287089844 1.5679874420166016 0.540310263633728 True False
2135.69 2.0399832725524902 -1.8113633594908656 -1.450124740600586 -1.399559201007225 1.567983865737915 0.5403504371643066 True False
2135.71 2.040004253387451 -1.8113261661925257 -1.4500880241394043 -1.3994511824897309 1.568023920059204 0.54035484790802 True False
2135.73 2.0400161743164062 -1.8113843403258265 -1.4501571655273438 -1.3994790625623246 1.5680315494537354 0.540363609790802 True False
2135.75 2.0399951934814453 -1.811366697350973 -1.4501897096633911 -1.3995189678720017 1.5679795742034912 0.540363609790802 True False
2135.77 2.0399789810180664 -1.8113309345641078 -1.4501690864562988 -1.3994830709746857 1.5679874420166016 0.5403385162353516 True False
2135.79 2.0400116443634033 -1.8113757572569789 -1.4501690864562988 -1.3994828921607514 1.5679755210876465 0.5403518080711365 True False
2135.81 2.0400686264038086 -1.8114129505553187 -1.4501819610595703 -1.3994708222201844 1.567947268486023 0.5403472781181335 True False
2135.83 2.0400314331054688 -1.8113147221007289 -1.4501614570617676 -1.3994431656650086 1.5680118799209595 0.5403385162353516 True False
2135.85 2.040233850479126 -1.8112923107542933 -1.45017671585083 -1.3995030683330079 1.5679672956466675 0.5403473377227783 True False
2135.87 2.040473461151123 -1.811197420159811 -1.450278401374817 -1.3994869154742737 1.5679956674575806 0.5402490496635437 True False
2135.89 2.0407650470733643 -1.810967584649557 -1.4503769874572754 -1.3994990152171631 1.567995548248291 0.5402204990386963 True False
2135.91 2.041102170944214 -1.8108355007567347 -1.4506492614746094 -1.3995389652303238 1.567995548248291 0.5402024984359741 True False
2135.93 2.0414888858795166 -1.81044401744985 -1.4509427547454834 -1.3995069426349183 1.5679837465286255 0.5400890111923218 True False
2135.95 2.0421688556671143 -1.8101564846434535 -1.4513180255889893 -1.3995308440974732 1.5679956674575806 0.5400352478027344 True False
2135.97 2.0430424213409424 -1.8096586666502894 -1.4518046379089355 -1.3995431077531357 1.5679996013641357 0.5399719476699829 True False
2135.99 2.044114351272583 -1.809207101861471 -1.4524695873260498 -1.3996505600265046 1.5680193901062012 0.5398107171058655 True False
2136.0099999999998 2.045552968978882 -1.8084565601744593 -1.4533065557479858 -1.3996584725430985 1.5681037902832031 0.5396968126296997 True False
2136.0299999999997 2.0471527576446533 -1.807570596734518 -1.4543097019195557 -1.3997582507184525 1.5680955648422241 0.5394975543022156 True False
2136.0499999999997 2.0491421222686768 -1.806608339349264 -1.455528974533081 -1.399825708275177 1.5681073665618896 0.5393106341362 True False
2136.0699999999997 2.05146861076355 -1.8052526913084925 -1.456929087638855 -1.3999773126891633 1.5681352615356445 0.5390222072601318 True False
2136.0899999999997 2.0543935298919678 -1.8038293323912562 -1.4585483074188232 -1.4000728291324158 1.5682439804077148 0.5386499762535095 True False
2136.11 2.057654619216919 -1.8020154438414515 -1.4604718685150146 -1.4002366226962586 1.568239450454712 0.5383071303367615 True False
2136.13 2.0613067150115967 -1.8001443348326625 -1.4626590013504028 -1.400352270608284 1.56832754611969 0.5378478765487671 True False
2136.15 2.065354824066162 -1.798051496545309 -1.4651001691818237 -1.400467963223793 1.5683552026748657 0.5373738408088684 True False
2136.17 2.0697338581085205 -1.7957235775389613 -1.4676486253738403 -1.4006273758462449 1.5684154033660889 0.5369113683700562 True False
2136.19 2.0744659900665283 -1.7931930027403773 -1.470384120941162 -1.4008427572301407 1.5685116052627563 0.5363771915435791 True False
2136.21 2.0795488357543945 -1.7905446491637171 -1.4734293222427368 -1.4009743344834824 1.5685347318649292 0.5357494950294495 True False
2136.23 2.0849926471710205 -1.7876931629576625 -1.4766945838928223 -1.4012369972518464 1.5686793327331543 0.5351520776748657 True False
2136.25 2.090651512145996 -1.784593244592184 -1.4801620244979858 -1.4014721375754853 1.5687391757965088 0.5344686508178711 True False
2136.27 2.0969064235687256 -1.7813302479186 -1.4837754964828491 -1.4016638559154053 1.5688633918762207 0.5337386131286621 True False
2136.29 2.103339672088623 -1.7779103718199671 -1.487596869468689 -1.4019906383803864 1.5689592361450195 0.5330218076705933 True False
2136.31 2.1101419925689697 -1.7742907009520472 -1.491513967514038 -1.4022180002978821 1.5690234899520874 0.5322645306587219 True False
2136.33 2.117324113845825 -1.770534177819723 -1.4955893754959106 -1.4024572682431717 1.569150686264038 0.5314044952392578 True False
2136.35 2.1247668266296387 -1.7666837177672328 -1.500051498413086 -1.4027919632247468 1.5692754983901978 0.5304994583129883 True False
2136.37 2.1326842308044434 -1.7625142536559046 -1.5048011541366577 -1.403059185748436 1.5693910121917725 0.5296102166175842 True False
2136.39 2.141019344329834 -1.7581874332823695 -1.5097002983093262 -1.40338188529525 1.569498896598816 0.5286918878555298 True False
2136.41 2.149479866027832 -1.7535559139647425 -1.5148295164108276 -1.403736801152565 1.5697118043899536 0.5276461243629456 True False
2136.43 2.1582727432250977 -1.7489053211607875 -1.5200906991958618 -1.4041353178075333 1.5697307586669922 0.5265872478485107 True False
2136.45 2.167703151702881 -1.7439552746214808 -1.5254113674163818 -1.4045064461282273 1.5699349641799927 0.5255307555198669 True False
2136.47 2.177379608154297 -1.7389236889281214 -1.5309116840362549 -1.4048212629607697 1.5701231956481934 0.5244096517562866 True False
2136.49 2.1871514320373535 -1.7337666950621546 -1.5368784666061401 -1.4053196173957367 1.570246934890747 0.5232845544815063 True False
2136.5099999999998 2.19750714302063 -1.7283374271788539 -1.5431970357894897 -1.4057700347951432 1.5704154968261719 0.5220745801925659 True False
2136.5299999999997 2.208286762237549 -1.722670694390768 -1.5494822263717651 -1.4060650628856202 1.5706393718719482 0.5208263993263245 True False
2136.5499999999997 2.2191548347473145 -1.716818471948141 -1.5558732748031616 -1.4064878088286896 1.5707309246063232 0.5195327997207642 True False
2136.5699999999997 2.230492115020752 -1.7107106647887171 -1.5624613761901855 -1.40693852425132 1.570846676826477 0.5182086229324341 True False
2136.5899999999997 2.242447853088379 -1.704660554925436 -1.5692752599716187 -1.4073330473950882 1.5712193250656128 0.5168843269348145 True False
2136.61 2.2542858123779297 -1.698362489739889 -1.5767078399658203 -1.407879338865616 1.5712305307388306 0.5155250430107117 True False
2136.63 2.266702651977539 -1.6917277775206507 -1.5839970111846924 -1.4084375512650986 1.5714033842086792 0.5140519738197327 True False
2136.65 2.2796380519866943 -1.684889932672018 -1.591112732887268 -1.4087200921824952 1.571738362312317 0.5126318335533142 True False
2136.67 2.292537212371826 -1.6779891453185023 -1.5988487005233765 -1.409370483165123 1.571846842765808 0.5111486315727234 True False
2136.69 2.306025981903076 -1.6711484394469203 -1.6071172952651978 -1.40998029828582 1.5720586776733398 0.5095273852348328 True False
2136.71 2.319929838180542 -1.664034982720846 -1.6155027151107788 -1.4104944926551362 1.5723145008087158 0.5079476237297058 True False
2136.73 2.33402943611145 -1.656168123284811 -1.6234837770462036 -1.4109128576568146 1.5724586248397827 0.5062878727912903 True False
2136.75 2.3485512733459473 -1.6483379803099574 -1.631799340248108 -1.4113476139358063 1.5727665424346924 0.5045908689498901 True False
2136.77 2.363393545150757 -1.6408077679076136 -1.640919804573059 -1.4122046095183869 1.5729224681854248 0.5028572678565979 True False
2136.79 2.3785996437072754 -1.6329947910704554 -1.6500355005264282 -1.4129658353379746 1.5731860399246216 0.5010989904403687 True False
2136.81 2.394155740737915 -1.6244551144041957 -1.6588735580444336 -1.413312853579857 1.5734226703643799 0.4993528425693512 True False
2136.83 2.4100615978240967 -1.6159249744811 -1.6680036783218384 -1.4138799172690888 1.5737261772155762 0.4975617229938507 True False
2136.85 2.42622971534729 -1.607762952844137 -1.6782009601593018 -1.4148365718177338 1.5738298892974854 0.4955441653728485 True False
2136.87 2.442711114883423 -1.5993238888182582 -1.6878106594085693 -1.4153661590865632 1.5742543935775757 0.49369436502456665 True False
2136.89 2.458662271499634 -1.590215345422262 -1.69670569896698 -1.4156728845885773 1.574410080909729 0.4918312728404999 True False
2136.91 2.474276542663574 -1.58189119915151 -1.7060948610305786 -1.416438878779747 1.5746663808822632 0.4900476932525635 True False
2136.93 2.4898276329040527 -1.5744668445982875 -1.7155026197433472 -1.4172037702849885 1.5749468803405762 0.48822692036628723 True False
