Andreas691667/Digital_Twin_UR/src/controller_monitor/test_results/robot_output.csv
timestamp actual_q_0 actual_q_1 actual_q_2 actual_q_3 actual_q_4 actual_q_5 output_bit_register_65 output_bit_register_66
11658.791 0.0002219676971435547 -1.7798472843565882 -0.004782199859619141 -1.5699484455729653 0.4732888340950012 0.010727319866418839 False False
11658.811 0.00022199349768925458 -1.779823442498678 -0.004800065886229277 -1.569896019911841 0.47327327728271484 0.010764360427856445 False False
11658.831 0.0002219676971435547 -1.7798263035216273 -0.004779737908393145 -1.5699644927847949 0.473280668258667 0.010755777359008789 False False
11658.850999999999 0.00022627977887168527 -1.7798029385008753 -0.004766300320625305 -1.5699448133567167 0.4732204079627991 0.010760086588561535 False False
11658.871 0.00027522086747922003 -1.779855867425436 -0.004775202367454767 -1.5699489022702728 0.4732609987258911 0.010764360427856445 False False
11658.891 0.0002392196620348841 -1.7798763714232386 -0.004753911402076483 -1.5699406427196045 0.4732204079627991 0.010760068893432617 False False
11658.911 0.0001851209090091288 -1.779830118218893 -0.004704672377556562 -1.569960831930377 0.47322407364845276 0.010809030383825302 False False
11658.930999999999 0.0002100295532727614 -1.779879709283346 -0.004713720176368952 -1.56998092183888 0.47327283024787903 0.010743856430053711 False False
11658.951 0.0002385044062975794 -1.7797657452025355 -0.004779737908393145 -1.569976808361691 0.4732244610786438 0.010800361633300781 False False
11658.971 0.00026759147294797003 -1.7798105678954066 -0.004799061920493841 -1.5699243127349582 0.4733011722564697 0.010792817920446396 False False
11658.991 0.00023055076599121094 -1.7798305950560511 -0.004753911402076483 -1.5699161349660535 0.47325682640075684 0.010760068893432617 False False
11659.010999999999 0.00021004676818847656 -1.7798305950560511 -0.004741898272186518 -1.569868105554935 0.4732527434825897 0.010776281356811523 False False
11659.030999999999 0.00022622779943048954 -1.779811521569723 -0.004741862416267395 -1.5699525717976321 0.4732765853404999 0.010767612606287003 False False
11659.051 0.00025034823920577765 -1.7798592052855433 -0.004732999950647354 -1.5698882041945872 0.4732687473297119 0.010789250954985619 False False
11659.071 0.0002219762682216242 -1.779879709283346 -0.004741877317428589 -1.569908302892447 0.47332537174224854 0.01074281707406044 False False
11659.091 0.00025471686967648566 -1.7798472843565882 -0.004730045795440674 -1.569936553864256 0.4732606112957001 0.010788526386022568 False False
11659.110999999999 0.0002090072666760534 -1.7798220119872035 -0.004786643199622631 -1.56990012518175 0.4732687473297119 0.010760068893432617 False False
11659.131 0.0002255678118672222 -1.779773851434225 -0.004804614000022411 -1.5699406427196045 0.4732769727706909 0.010776307433843613 False False
11659.151 0.00021760248637292534 -1.7798840008177699 -0.004800224676728249 -1.5699484675754611 0.473280668258667 0.010800370015203953 False False
11659.171 0.00022624731354881078 -1.7797781429686488 -0.00475388765335083 -1.5699124854621296 0.473280668258667 0.0107935331761837 False False
11659.391 0.00025035362341441214 -1.779811521569723 -0.00475388765335083 -1.5699603957221662 0.47325682640075684 0.010784941725432873 False False
11659.411 0.0002460739342495799 -1.779750486413473 -0.004725527949631214 -1.5699448133567167 0.4732970595359802 0.010788488201797009 False False
11659.430999999999 0.00020904326811432838 -1.7798201046385707 -0.004730048589408398 -1.5699202163126138 0.4732123017311096 0.01077299378812313 False False
11659.451 0.0002219676971435547 -1.7798720798888148 -0.004767423961311579 -1.5699365337244053 0.47329702973365784 0.010792809538543224 False False
11659.471 0.0002219591842731461 -1.7798434696593226 -0.004758358001708984 -1.5699685734328632 0.4732605814933777 0.010776277631521225 False False
11659.491 0.00021860600099898875 -1.779773851434225 -0.004737406969070435 -1.5699566937731397 0.4732487201690674 0.010788526386022568 False False
11659.510999999999 0.00026325200451537967 -1.7798072300352992 -0.004707587417215109 -1.56990830306707 0.4733007550239563 0.01074815634638071 False False
11659.530999999999 0.00023052692995406687 -1.7797824345030726 -0.004812514875084162 -1.5699648710763832 0.4732806980609894 0.010771955363452435 False False
11659.551 0.0002219676971435547 -1.7798062763609828 -0.004791140556335449 -1.5699645091993553 0.47324877977371216 0.010747143998742104 False False
11659.571 0.00017733573622535914 -1.7798601589598597 -0.004784256219863892 -1.5699243127349582 0.4732486605644226 0.010706798173487186 False False
11659.591 0.0001395088474964723 -1.7797910175719203 -0.004770755767822266 -1.5699448133567167 0.4732770621776581 0.010730909183621407 False False
11659.610999999999 0.00017291032418143004 -1.7798305950560511 -0.004766285419464111 -1.5699447723203157 0.473280668258667 0.01075579784810543 False False
11659.631 0.0001966452255146578 -1.779867788354391 -0.004734570160508156 -1.5699648874327359 0.47325682640075684 0.010760068893432617 False False
11659.651 0.00023412704467773438 -1.7797781429686488 -0.004775234963744879 -1.5699124039131966 0.4732404947280884 0.010776269249618053 False False
11659.671 0.00023412704467773438 -1.779834886590475 -0.004767388105392456 -1.569960823199228 0.4732687771320343 0.010792793706059456 False False
11659.690999999999 0.00022638154041487724 -1.779795309106344 -0.004762917757034302 -1.5699525636485596 0.47325682640075684 0.010804714635014534 False False
11659.711 0.00021891594224143773 -1.7797700367369593 -0.004770755767822266 -1.5699202391300169 0.4732646346092224 0.010723063722252846 False False
11659.731 0.00018477800767868757 -1.779773851434225 -0.004786703269928694 -1.5699243127349582 0.47328925132751465 0.010760068893432617 False False
11659.751 0.00016842580225784332 -1.779827734033102 -0.004791134502738714 -1.5699406427196045 0.47329258918762207 0.01076008565723896 False False
11659.770999999999 0.00022640227689407766 -1.7798072300352992 -0.004779785871505737 -1.5700366525891987 0.4732646644115448 0.010780548676848412 False False
11659.791 0.0002056121884379536 -1.779827734033102 -0.004820019006729126 -1.5699566525039081 0.47330477833747864 0.01077299378812313 False False
11659.811 0.00019809034711215645 -1.779855867425436 -0.004749417304992676 -1.569948474793211 0.47323644161224365 0.010776248760521412 False False
11659.831 0.00018617842579260468 -1.7797910175719203 -0.004795673303306103 -1.5699886803962109 0.4732970595359802 0.010808994993567467 False False
11659.850999999999 0.0002219945308752358 -1.7798601589598597 -0.004753914661705494 -1.5699124616551963 0.47331708669662476 0.010809020139276981 False False
11659.871 0.0002430608292343095 -1.7797566852965296 -0.00473293662071228 -1.5699804780636732 0.47324874997138977 0.010747143998742104 False False
11659.891 0.00019665432046167552 -1.7798263035216273 -0.0047509074211120605 -1.5699644845775147 0.4732687771320343 0.010752513073384762 False False
11659.911 0.0001847333915065974 -1.779855867425436 -0.004782199859619141 -1.5699448133567167 0.4732806980609894 0.010760034434497356 False False
11659.930999999999 0.0002668142260517925 -1.779895921746725 -0.004758348688483238 -1.5699726870846753 0.4732605814933777 0.010771989822387695 False False
11659.951 0.00020857524941675365 -1.7798434696593226 -0.004734533838927746 -1.5699284833720704 0.47320449352264404 0.010735214687883854 False False
11659.971 0.00020109508477617055 -1.7798072300352992 -0.004779804032295942 -1.5699685734328632 0.4732929468154907 0.010808950290083885 False False
11659.991 0.0002056121884379536 -1.7797867260374964 -0.004766285419464111 -1.5699768329835315 0.47326913475990295 0.010747180320322514 False False
11660.010999999999 0.00018925666518043727 -1.7798191509642542 -0.00477522611618042 -1.569924287181795 0.4732486605644226 0.010751406662166119 False False
11660.030999999999 0.00023865031835157424 -1.7798387012877406 -0.004762917757034302 -1.5699566441802126 0.4732646644115448 0.01075579784810543 False False
11660.051 0.0002219676971435547 -1.7798062763609828 -0.0048079281114041805 -1.5699448133567167 0.47325682640075684 0.010780525393784046 False False
11660.071 0.00021448134793899953 -1.7798477611937464 -0.004770755767822266 -1.5699804943618183 0.4732002913951874 0.010752513073384762 False False
11660.091 0.0002144694299204275 -1.779827734033102 -0.004713654518127441 -1.5699566525039081 0.4732770025730133 0.010743880644440651 False False
11660.110999999999 0.0002341179788345471 -1.779834886590475 -0.004746473394334316 -1.5699525636485596 0.4732770025730133 0.010760068893432617 False False
11660.131 0.0002025604189839214 -1.779851575891012 -0.004784256219863892 -1.5699325722274189 0.4732445776462555 0.010763343423604965 False False
11660.151 0.00021448134793899953 -1.7798305950560511 -0.004746437072753906 -1.5700046342429523 0.47328469157218933 0.010698256082832813 False False
11660.171 0.00017733573622535914 -1.7798305950560511 -0.00473742512986064 -1.5699202319704746 0.4732323884963989 0.010788502171635628 False False
11660.190999999999 0.0002504884614609182 -1.779834886590475 -0.004753896500915289 -1.5699726623464194 0.47329261898994446 0.010731623508036137 False False
11660.211 0.00017593300435692072 -1.7797910175719203 -0.004770755767822266 -1.5699001251235423 0.4732929766178131 0.010731696151196957 False False
11660.231 0.0002430608292343095 -1.7798191509642542 -0.0047494410537183285 -1.5699448174894606 0.473280668258667 0.010780525393784046 False False
11660.251 0.00023083687119651586 -1.779851575891012 -0.004746437072753906 -1.5699685734328632 0.473304808139801 0.010751448571681976 False False
11660.270999999999 0.0002683095808606595 -1.7797657452025355 -0.004732999484986067 -1.5699324649506998 0.4732888340950012 0.010764379985630512 False False
11660.291 0.0002056121884379536 -1.779851575891012 -0.004779761657118797 -1.5699406427196045 0.4732487201690674 0.010763369500637054 False False
11660.311 0.00020857524941675365 -1.779811521569723 -0.0047583673149347305 -1.5699161349660535 0.4732966125011444 0.010788502171635628 False False
11660.331 0.00018931621161755174 -1.7798220119872035 -0.004770755767822266 -1.5699969316813913 0.4732646644115448 0.010809926316142082 False False
11660.350999999999 0.00025044375797733665 -1.7798072300352992 -0.004762893542647362 -1.5699525801795353 0.47324466705322266 0.010742913000285625 False False
11660.371 0.0002219499583588913 -1.7798191509642542 -0.004734516143798828 -1.5699644845775147 0.47330477833747864 0.010714479722082615 False False
11660.391 0.00021448134793899953 -1.7798191509642542 -0.004750862717628479 -1.569936553864256 0.473212331533432 0.010776214301586151 False False
11660.411 0.0002189397782785818 -1.7798439464964808 -0.0047707646153867245 -1.5699489022702728 0.4732487201690674 0.010797037743031979 False False
11660.430999999999 0.00018613321299199015 -1.7798429928221644 -0.004721078556030989 -1.5699804943618183 0.47327250242233276 0.010743880644440651 False False
11660.451 0.00018467042536940426 -1.7798215351500453 -0.004784148186445236 -1.5699726623464194 0.4732245206832886 0.010739612393081188 False False
11660.471 0.00020560025586746633 -1.7798072300352992 -0.004779713694006205 -1.569984986072388 0.47328877449035645 0.010771989822387695 False False
11660.491 0.00018468854250386357 -1.779790540734762 -0.004740531090646982 -1.569948474793211 0.47327688336372375 0.010832792147994041 False False
11660.510999999999 0.00021303925313986838 -1.7798611126341761 -0.004770773462951183 -1.5699685734328632 0.47324466705322266 0.010788490064442158 False False
11660.530999999999 0.00025952112628147006 -1.7797728977599085 -0.004782244563102722 -1.5699243127349582 0.473248690366745 0.010743880644440651 False False
11660.551 0.00022198552323970944 -1.7798520527281703 -0.004758358001708984 -1.5699324649506998 0.47328469157218933 0.010751448571681976 False False
11660.571 0.00022641420946456492 -1.7798215351500453 -0.004791045095771551 -1.5699161349660535 0.47324469685554504 0.010760086588561535 False False
11660.591 0.00017729407409206033 -1.779795309106344 -0.004755229223519564 -1.569904205888026 0.47322842478752136 0.01078849844634533 False False
11660.610999999999 0.00017729407409206033 -1.779795309106344 -0.004775222856551409 -1.5699324649506998 0.47329291701316833 0.010760077275335789 False False
11660.631 0.0001773118565324694 -1.779872556725973 -0.0047539472579956055 -1.569912046110705 0.47330066561698914 0.010801399126648903 False False
11660.651 0.00020557940297294408 -1.7798119984068812 -0.004745170008391142 -1.5699603957221662 0.47330474853515625 0.010752462781965733 False False
11660.671 0.00017286538786720484 -1.7798592052855433 -0.004779647570103407 -1.5699525636485596 0.47326064109802246 0.010690722614526749 False False
11660.690999999999 0.00024310898152180016 -1.7798191509642542 -0.00472119590267539 -1.5699444115492334 0.47328877449035645 0.010808922350406647 False False
11660.711 0.00017731190018821508 -1.779778619805807 -0.004737509414553642 -1.5699566525039081 0.47330474853515625 0.010816528461873531 False False
11660.731 0.00023868936114013195 -1.779872556725973 -0.004770755767822266 -1.569912046110705 0.4732404947280884 0.010768751613795757 False False
11660.751 0.00022641420946456492 -1.779825826684469 -0.004704911727458239 -1.5699768329835315 0.47332891821861267 0.010731656104326248 False False
11660.770999999999 0.00017572371871210635 -1.7798191509642542 -0.004721231758594513 -1.5699406427196045 0.47322869300842285 0.010792778804898262 False False
11660.791 0.0001892328291432932 -1.7797776661314906 -0.0047539593651890755 -1.569920223821402 0.47324052453041077 0.010808897204697132 False False
11660.811 0.0002520020061638206 -1.7797981701292933 -0.004758358001708984 -1.569976841132604 0.47331690788269043 0.01079704612493515 False False
11660.911 0.00024310898152180016 -1.7798391781248988 -0.0047628325410187244 -1.5699727193317194 0.4732205271720886 0.010780501179397106 False False
11661.091 0.00024310898152180016 -1.7797695598998011 -0.004745268728584051 -1.5699444178938684 0.4732687175273895 0.010755804367363453 False False
11661.110999999999 0.00025946740061044693 -1.779823442498678 -0.004737623501569033 -1.5699645091993553 0.473280668258667 0.010739636607468128 False False
11661.131 0.00023535195214208215 -1.7798339329161585 -0.004766401369124651 -1.5699324649506998 0.47326093912124634 0.010743912309408188 False False
11661.151 0.00024752833996899426 -1.7797986469664515 -0.00476715387776494 -1.569920223821402 0.473248690366745 0.01075669378042221 False False
11661.171 0.00017580437997821718 -1.7798119984068812 -0.004790902137756348 -1.5699483183310186 0.4732046127319336 0.01082511618733406 False False
11661.190999999999 0.0002639228187035769 -1.779839654962057 -0.004770755767822266 -1.5700047313915384 0.4732886850833893 0.010711215436458588 False False
11661.211 0.0002219676971435547 -1.7798611126341761 -0.004737682640552521 -1.5699608397302036 0.4732447862625122 0.010767648927867413 False False
11661.231 0.000184706412255764 -1.7797938785948695 -0.004730165004730225 -1.5699324969649133 0.4733169376850128 0.010739636607468128 False False
11661.251 0.00019220748799853027 -1.7798696957030238 -0.004741972777992487 -1.5699886363912192 0.4732809066772461 0.010727433487772942 False False
11661.270999999999 0.00020110678451601416 -1.779795309106344 -0.004790919367223978 -1.5699365738876914 0.47331684827804565 0.010771989822387695 False False
11661.291 0.0001728385832393542 -1.779872556725973 -0.004746437072753906 -1.5699365776711893 0.47327277064323425 0.01073964312672615 False False
11661.311 0.00025049448595382273 -1.7797938785948695 -0.004746437072753906 -1.5699284833720704 0.4732568562030792 0.010731682181358337 False False
11661.471 0.00023407347907777876 -1.7798639736571253 -0.0047627598978579044 -1.569940658959542 0.4732365608215332 0.010805537924170494 False False
11661.530999999999 0.00026247804635204375 -1.779839654962057 -0.004746437072753906 -1.5699926510900077 0.4732285737991333 0.010760068893432617 False False
11661.551 0.00019666290609166026 -1.7798305950560511 -0.004775067791342735 -1.569960726865549 0.47328466176986694 0.01078046951442957 False False
11661.571 0.0002296924649272114 -1.7798611126341761 -0.004762733820825815 -1.5699163231514213 0.473280668258667 0.010764296166598797 False False
11661.591 0.0002430937602184713 -1.7797538242735804 -0.004807579331099987 -1.5699603985743416 0.47324880957603455 0.01076431293040514 False False
11661.610999999999 0.00020857524941675365 -1.779773851434225 -0.004705281928181648 -1.5699525716812168 0.47322070598602295 0.010727415792644024 False False
11661.631 0.00019226766016799957 -1.779905458489889 -0.004749709740281105 -1.5699607513127667 0.4732528328895569 0.010715494863688946 False False
11661.651 0.0002549880591686815 -1.77988924602651 -0.004721483681350946 -1.5699885533870948 0.4732647240161896 0.010751496069133282 False False
11661.671 0.00024310285516548902 -1.7798191509642542 -0.004742009099572897 -1.569964732076489 0.473244845867157 0.010760120116174221 False False
11661.690999999999 0.0001937031775014475 -1.779856344262594 -0.004782147705554962 -1.569912349780072 0.4732886850833893 0.01079272199422121 False False
11661.711 0.00023412704467773438 -1.7798305950560511 -0.004770755767822266 -1.5699039980284688 0.4732886850833893 0.010711250826716423 False False
11661.731 0.00022639035887550563 -1.7798391781248988 -0.004758358001708984 -1.5699366253432636 0.4732167422771454 0.010755824856460094 False False
11661.751 0.00020113684877287596 -1.779816289941305 -0.004737761337310076 -1.5699243856691574 0.47328466176986694 0.010788477957248688 False False
11661.770999999999 0.00018032881780527532 -1.77982821087026 -0.004779455717653036 -1.5699766413057041 0.473296582698822 0.010817458853125572 False False
11661.791 0.00021887444017920643 -1.7797895870604457 -0.004730174783617258 -1.5699525553830718 0.473296582698822 0.010808928869664669 False False
11661.811 0.0002307891845703125 -1.7798439464964808 -0.0047750831581652164 -1.5699366658557956 0.473236620426178 0.010776233859360218 True False
11661.831 0.0002011370670516044 -1.7797819576659144 -0.004724705126136541 -1.569936637275834 0.4732167422771454 0.010755833238363266 True False
11661.850999999999 0.00019371509552001953 -1.7798119984068812 -0.004766440484672785 -1.5699163869470176 0.4733128249645233 0.010748147964477539 True False
11661.871 0.00025354622630402446 -1.779825826684469 -0.0048032524064183235 -1.5699125569993448 0.4733208119869232 0.010767652653157711 True False
11661.891 0.0003701448440551758 -1.779773851434225 -0.004846605472266674 -1.5699406267124978 0.47334790229797363 0.01079272199422121 True False
11661.911 0.0006463365280069411 -1.779773851434225 -0.0050069307908415794 -1.5699284833720704 0.47352856397628784 0.01085684448480606 True False
11661.930999999999 0.0009461521985940635 -1.779799600640768 -0.005201816558837891 -1.5699406427196045 0.47378093004226685 0.01094075944274664 True False
11661.951 0.0013222694396972656 -1.7798148594298304 -0.0054860832169651985 -1.5699165624431153 0.4739847481250763 0.011071443557739258 True False
11661.971 0.0018633888103067875 -1.7798191509642542 -0.005797498859465122 -1.5698847096976642 0.4742209315299988 0.011272584088146687 True False
11661.991 0.0025022332556545734 -1.779823442498678 -0.006278390064835548 -1.5697932357764621 0.4745566248893738 0.011446991004049778 True False
11662.010999999999 0.003343873657286167 -1.779790540734762 -0.006948823109269142 -1.5697052242797618 0.47502440214157104 0.011614811606705189 True False
11662.030999999999 0.004433776717633009 -1.779856344262594 -0.007762589957565069 -1.569629506473877 0.47561267018318176 0.011848832480609417 True False
11662.051 0.005741529166698456 -1.779839654962057 -0.008774147368967533 -1.5694812704208125 0.47625982761383057 0.012197494506835938 True False
11662.071 0.007314256392419338 -1.7798639736571253 -0.009836068376898766 -1.5693422828665753 0.4770514667034149 0.012584924697875977 True False
11662.091 0.009276535362005234 -1.7798339329161585 -0.011061610653996468 -1.5691744679682706 0.47805508971214294 0.013120773248374462 True False
11662.110999999999 0.0114180538803339 -1.7798010311522425 -0.012648837640881538 -1.5690235549448808 0.4793832302093506 0.013757443055510521 True False
11662.131 0.014119732193648815 -1.779947420159811 -0.014449231326580048 -1.5688198418686916 0.4807060956954956 0.014367209747433662 True False
11662.151 0.01696126163005829 -1.7800117931761683 -0.016531724482774734 -1.5686043193894257 0.482289582490921 0.015104573220014572 True False
11662.171 0.020173124969005585 -1.780046125451559 -0.018793471157550812 -1.5684292358676721 0.4840531647205353 0.01592341996729374 True False
11662.190999999999 0.023715155199170113 -1.7800823650755824 -0.021155353635549545 -1.5681582254222413 0.4858359098434448 0.016821781173348427 True False
11662.211 0.027418099343776703 -1.7802092037596644 -0.023796549066901207 -1.567790587698557 0.48790308833122253 0.01786613091826439 True False
11662.231 0.031539157032966614 -1.7802616558470667 -0.026561575010418892 -1.5675483174021174 0.49010947346687317 0.01881316863000393 True False
11662.251 0.03571566194295883 -1.7803541622557582 -0.029830271378159523 -1.5672133725932618 0.4922603666782379 0.02002543769776821 True False
11662.270999999999 0.0403331033885479 -1.7804004154601039 -0.033131685107946396 -1.5668225840530177 0.4948287010192871 0.021166350692510605 True False
11662.291 0.045138128101825714 -1.7805096111693324 -0.036542411893606186 -1.5664354723742981 0.4974505603313446 0.022473080083727837 True False
11662.311 0.05031798034906387 -1.7805468044676722 -0.0402209646999836 -1.5660651487163086 0.5001298189163208 0.02370036020874977 True False
11662.331 0.05578457564115524 -1.7806679211058558 -0.0439620167016983 -1.565622405414917 0.503209114074707 0.0251789353787899 True False
11662.350999999999 0.06154133751988411 -1.7807675800719203 -0.04792402312159538 -1.5651713784648855 0.5061594247817993 0.026620451360940933 True False
11662.371 0.06753779947757721 -1.7808710537352503 -0.0520440973341465 -1.564616543972381 0.5093290209770203 0.028189735487103462 True False
11662.391 0.07372424006462097 -1.7809096775450648 -0.05637954920530319 -1.5641426022960623 0.5127837657928467 0.02984347939491272 True False
11662.411 0.08020146191120148 -1.7810398540892542 -0.06113388389348984 -1.5636281606606026 0.5163268446922302 0.031519562005996704 True False
11662.430999999999 0.08705227822065353 -1.7811523876585902 -0.0660042092204094 -1.5630655831522127 0.5200008153915405 0.03324861079454422 True False
11662.451 0.09431923180818558 -1.7813030682005824 -0.07100239396095276 -1.5625834067216893 0.5237316489219666 0.03517049178481102 True False
11662.471 0.10164999961853027 -1.7814041576781214 -0.07621514052152634 -1.5620532681098958 0.5277177691459656 0.037078045308589935 True False
11662.491 0.10922179371118546 -1.7815567455687464 -0.08151030540466309 -1.5614345961115141 0.5319192409515381 0.03904864564538002 True False
11662.510999999999 0.11714199185371399 -1.7815724811949671 -0.08693920075893402 -1.5608010797626157 0.5361960530281067 0.04108280688524246 True False
11662.530999999999 0.1254483163356781 -1.7815991840758265 -0.09281232208013535 -1.560123406616487 0.5404984951019287 0.04324609041213989 True False
11662.551 0.13400898873806 -1.7818457088866175 -0.09903425723314285 -1.5594567100382228 0.5451637506484985 0.04546181112527847 True False
11662.571 0.14269492030143738 -1.7820235691466273 -0.10532883554697037 -1.55881873917345 0.5499435067176819 0.047744445502758026 True False
11662.591 0.15171104669570923 -1.782191892663473 -0.11148687452077866 -1.5581853057122608 0.5548565983772278 0.050099655985832214 True False
11662.610999999999 0.1611742079257965 -1.7823101482787074 -0.117765873670578 -1.5572553093409915 0.5597569346427917 0.052501827478408813 True False
11662.631 0.17071975767612457 -1.7823015652098597 -0.12464706599712372 -1.556481680167355 0.5647968053817749 0.05504106357693672 True False
11662.651 0.18056166172027588 -1.7825194797911585 -0.1318138986825943 -1.5558076810887833 0.5701860189437866 0.05752688646316528 True False
11662.671 0.19083715975284576 -1.7827125988402308 -0.13908399641513824 -1.5550376505455752 0.5757178664207458 0.06019796431064606 True False
11662.690999999999 0.20136834681034088 -1.7829395733275355 -0.14629240334033966 -1.5542321775904675 0.5814037919044495 0.06284335255622864 True False
11662.711 0.21196120977401733 -1.7829953632750453 -0.1536850780248642 -1.553303226163127 0.5870871543884277 0.06566683202981949 True False
11662.731 0.22298523783683777 -1.7830349407591761 -0.16150116920471191 -1.5524218504181881 0.5929751396179199 0.06856172531843185 True False
11662.751 0.2343672215938568 -1.78322233776235 -0.16957910358905792 -1.5515881602517148 0.5992413759231567 0.0715075209736824 True False
11662.770999999999 0.24587076902389526 -1.7836152515807093 -0.17770326137542725 -1.5506870739958067 0.6053391695022583 0.07453805208206177 True False
11662.791 0.2576843500137329 -1.7838016949095667 -0.18598522245883942 -1.5496500239572306 0.6117330193519592 0.07760132104158401 True False
11662.811 0.269841730594635 -1.7837511501707972 -0.1946183145046234 -1.548749405225255 0.6183999180793762 0.08074767887592316 True False
11662.831 0.28231191635131836 -1.7840129337706507 -0.20328177511692047 -1.5478798330626269 0.6249005198478699 0.08394896239042282 True False
11662.850999999999 0.29487407207489014 -1.7843204937376917 -0.21219947934150696 -1.5469588090530415 0.6316946148872375 0.0872066468000412 True False
11662.871 0.30793702602386475 -1.7844892940916957 -0.22135625779628754 -1.545814038520195 0.6386483907699585 0.09061497449874878 True False
11662.891 0.3212008476257324 -1.7845374546446742 -0.23073641955852509 -1.544817080055811 0.6459078788757324 0.09403660148382187 True False
11662.911 0.3346204161643982 -1.7848402462401332 -0.2402043342590332 -1.5437484674951811 0.6529639959335327 0.09752656519412994 True False
11662.930999999999 0.34854447841644287 -1.784989973107809 -0.24986696243286133 -1.542495721285679 0.6606021523475647 0.10119468718767166 True False
11662.951 0.3624550998210907 -1.785168310204977 -0.25983378291130066 -1.541495207031705 0.6680683493614197 0.10472427308559418 True False
11662.971 0.37649306654930115 -1.7854968510069789 -0.2695091962814331 -1.5405464016697188 0.6756688952445984 0.10844919830560684 True False
11662.991 0.3903627097606659 -1.785652299920553 -0.27921801805496216 -1.5393452172032376 0.6831313371658325 0.11196639388799667 True False
11663.010999999999 0.4042956233024597 -1.7858339748778285 -0.2892049551010132 -1.5382809986225148 0.6905831694602966 0.11563879251480103 True False
11663.030999999999 0.4183396100997925 -1.7860080204405726 -0.29895806312561035 -1.53714448705826 0.6979658007621765 0.1192707046866417 True False
11663.051 0.4322361946105957 -1.7863241634764613 -0.3086792528629303 -1.536020004456379 0.7055611610412598 0.12288697808980942 True False
11663.071 0.4462887942790985 -1.786424299279684 -0.31865403056144714 -1.534991317694523 0.7130879759788513 0.12641693651676178 True False
11663.091 0.4601931571960449 -1.7867146931090296 -0.32855263352394104 -1.5339185868254681 0.7205520868301392 0.13007383048534393 True False
11663.110999999999 0.4742929935455322 -1.7868625126280726 -0.33821696043014526 -1.532889751052 0.7280914783477783 0.13370785117149353 True False
11663.131 0.4881182909011841 -1.7870074711241664 -0.3480885624885559 -1.531708662664034 0.7356283068656921 0.13738037645816803 True False
11663.151 0.5020519495010376 -1.7871629200377406 -0.3580119013786316 -1.5305639703622838 0.7432785034179688 0.1409921497106552 True False
11663.171 0.5160040259361267 -1.787527700463766 -0.36759576201438904 -1.5294638399830838 0.7506390810012817 0.14461563527584076 True False
11663.251 0.5719597935676575 -1.7882915935912074 -0.4068596661090851 -1.5251332086375733 0.7804180383682251 0.1590496301651001 True False
11663.411 0.6835529208183289 -1.7900010548033656 -0.4857114851474762 -1.5163916137865563 0.8406742215156555 0.18806220591068268 True False
11663.430999999999 0.697573184967041 -1.790197034875387 -0.4954686164855957 -1.5152431775680562 0.8482477068901062 0.19169007241725922 True False
11663.451 0.7116033434867859 -1.7904554806151332 -0.5053073167800903 -1.5141344603947182 0.8557819128036499 0.19527588784694672 True False
11663.471 0.7254390716552734 -1.7904659710326136 -0.5151713490486145 -1.513165147309639 0.8632564544677734 0.19894956052303314 True False
11663.491 0.7393645644187927 -1.790870805779928 -0.5248655080795288 -1.512048826818802 0.8707744479179382 0.20256957411766052 True False
11663.510999999999 0.7534797191619873 -1.7909571133055628 -0.534657895565033 -1.5108200137368222 0.878273069858551 0.20622575283050537 True False
11663.530999999999 0.7674280405044556 -1.791121622125143 -0.544655978679657 -1.5098236848464985 0.8856964707374573 0.20981286466121674 True False
11663.551 0.781326949596405 -1.7914535007872523 -0.554423451423645 -1.5087027263692399 0.8933022618293762 0.21342526376247406 True False
11663.571 0.7953110933303833 -1.791560789147848 -0.5641429424285889 -1.5075546664050599 0.9007719159126282 0.2170725166797638 True False
11663.591 0.8093084692955017 -1.7916413746275843 -0.5741040110588074 -1.5064460051110764 0.9081145524978638 0.22067241370677948 True False
11663.610999999999 0.8232516646385193 -1.7919618091978968 -0.5838621854782104 -1.5055165153792878 0.9157574772834778 0.22435656189918518 True False
11663.631 0.837175190448761 -1.792276998559469 -0.5936474204063416 -1.504328341489174 0.9233127236366272 0.2279350310564041 True False
11663.651 0.8512021899223328 -1.7923981151976527 -0.6035202145576477 -1.5032246869853516 0.9309349060058594 0.23157426714897156 True False
11663.671 0.8650882840156555 -1.792598386804098 -0.613326370716095 -1.5021056917360802 0.9382786154747009 0.23515747487545013 True False
11663.690999999999 0.87906813621521 -1.792849679986471 -0.6231579780578613 -1.500947357421257 0.9456929564476013 0.23880808055400848 True False
11663.711 0.8930419683456421 -1.793060918847555 -0.6330471038818359 -1.499928132896759 0.9532238841056824 0.2424599826335907 True False
11663.731 0.9069267511367798 -1.7932006321349085 -0.6428527235984802 -1.4988684442690392 0.9609503746032715 0.24605432152748108 True False
11663.751 0.9210135340690613 -1.793527742425436 -0.652518630027771 -1.4977699753693123 0.9680690765380859 0.24964964389801025 True False
11663.770999999999 0.9349141716957092 -1.7936536274352015 -0.6623373627662659 -1.4965589952519913 0.9760172963142395 0.2531659007072449 True False
11663.791 0.9488707184791565 -1.7937623463072718 -0.6724244952201843 -1.4956001576832314 0.9833223819732666 0.2570021450519562 True False
11663.811 0.9628584980964661 -1.7941395244994105 -0.682121217250824 -1.4944254842451592 0.9910080432891846 0.2604958713054657 True False
11663.831 0.9768115878105164 -1.7942530117430628 -0.6919218897819519 -1.4933184471777459 0.998333215713501 0.2641638517379761 True False
11663.850999999999 0.9907484650611877 -1.7944714031615199 -0.7018889784812927 -1.492331163292267 1.0058599710464478 0.26775363087654114 True False
11663.871 1.004732370376587 -1.794732233087057 -0.7115485668182373 -1.491231994037964 1.0132700204849243 0.2714628577232361 True False
11663.891 1.0187240839004517 -1.7949148617186488 -0.7213114500045776 -1.4901335027864953 1.020955204963684 0.27507859468460083 True False
11663.911 1.0327494144439697 -1.7950884304442347 -0.7313708066940308 -1.4889624428800126 1.0284205675125122 0.2786431610584259 True False
11663.930999999999 1.0465760231018066 -1.7953540287413539 -0.7410566806793213 -1.4878273916295548 1.0358242988586426 0.2822466492652893 True False
11663.951 1.0605926513671875 -1.7955810032286585 -0.7508028149604797 -1.486756519680359 1.0434517860412598 0.28588929772377014 True False
11663.971 1.074621558189392 -1.7956425152220667 -0.7606777548789978 -1.4856615227511902 1.050930380821228 0.28949645161628723 True False
11663.991 1.0884623527526855 -1.7959968052306117 -0.7705384492874146 -1.4847464573434372 1.0585052967071533 0.2931262254714966 True False
11664.010999999999 1.1024740934371948 -1.796206613580221 -0.7802227735519409 -1.4835597065142174 1.0659247636795044 0.2967362105846405 True False
11664.030999999999 1.116451382637024 -1.7962914905943812 -0.790071427822113 -1.482336976831295 1.0733994245529175 0.3003727197647095 True False
11664.051 1.1304103136062622 -1.796487947503561 -0.8000770807266235 -1.4813263949802895 1.0808225870132446 0.3040248155593872 True False
11664.071 1.1443500518798828 -1.7967964611449183 -0.8097289800643921 -1.4802074444345017 1.0885454416275024 0.3076346814632416 True False
11664.091 1.1583412885665894 -1.7969323597350062 -0.819597065448761 -1.4790929120830079 1.0958924293518066 0.31122449040412903 True False
11664.110999999999 1.1723788976669312 -1.7971536121764125 -0.8296597003936768 -1.4780486983111878 1.1035386323928833 0.314799040555954 True False
11664.131 1.1861906051635742 -1.7974182567992152 -0.8393239378929138 -1.476981872027256 1.1109569072723389 0.3184854984283447 True False
11664.151 1.2002813816070557 -1.7974606953062953 -0.8490379452705383 -1.4758153793266793 1.1186070442199707 0.3220738172531128 True False
11664.171 1.214231014251709 -1.7976824245848597 -0.8589743971824646 -1.4747165453485032 1.1260408163070679 0.3257823586463928 True False
11664.190999999999 1.228128433227539 -1.797985693017477 -0.8687926530838013 -1.4736735087684174 1.1333907842636108 0.32935184240341187 True False
11664.211 1.2420586347579956 -1.798187871972555 -0.8785722851753235 -1.472466417854168 1.1409168243408203 0.3329850435256958 True False
11664.231 1.2560731172561646 -1.798351903954977 -0.8885387182235718 -1.4714672353914757 1.1485912799835205 0.33662399649620056 True False
11664.251 1.2701157331466675 -1.7986494503416957 -0.8983282446861267 -1.4705035400441666 1.15583336353302 0.34025442600250244 True False
11664.270999999999 1.28398859500885 -1.7988363705077113 -0.9079638719558716 -1.4693253573826333 1.1636195182800293 0.34387141466140747 True False
11664.291 1.2980226278305054 -1.7989336452879847 -0.9179040193557739 -1.4681789887002488 1.1710176467895508 0.3474110960960388 True False
11664.530999999999 1.4655728340148926 -1.8014551601805628 -1.0355849266052246 -1.455011324291565 1.2611172199249268 0.3910082280635834 True False
11664.551 1.479451298713684 -1.8015624485411585 -1.0456042289733887 -1.4539043393782158 1.2685158252716064 0.39456745982170105 True False
11664.571 1.493420958518982 -1.8019300899901332 -1.0554615259170532 -1.4528493371656914 1.2761657238006592 0.3982251286506653 True False
11664.591 1.5073440074920654 -1.8021589718260707 -1.065218448638916 -1.4516503748348732 1.283530354499817 0.4018327295780182 True False
11664.610999999999 1.5213134288787842 -1.8022691212096156 -1.0750977993011475 -1.4506919470480462 1.291217565536499 0.40542876720428467 True False
11664.631 1.5352553129196167 -1.802514215508932 -1.0850105285644531 -1.4496882122806092 1.2986493110656738 0.4090156853199005 True False
11664.651 1.549368977546692 -1.802798410455221 -1.0946776866912842 -1.4485254374197503 1.3062729835510254 0.4126952290534973 True False
11664.671 1.5632777214050293 -1.8028637371458949 -1.1044955253601074 -1.4472952869585534 1.3136703968048096 0.41631707549095154 True False
11664.690999999999 1.5771214962005615 -1.8031617603697718 -1.1144440174102783 -1.446243779068329 1.3210828304290771 0.4199495315551758 True False
11664.711 1.5912669897079468 -1.803481241265768 -1.1241297721862793 -1.4451414358666916 1.3285976648330688 0.4236084818840027 True False
11664.731 1.6052693128585815 -1.803612848321432 -1.1340163946151733 -1.444086642270424 1.3362329006195068 0.42712730169296265 True False
11664.751 1.61903715133667 -1.8038040600218714 -1.1440224647521973 -1.4431227904609223 1.3436038494110107 0.4308275580406189 True False
11664.770999999999 1.6329630613327026 -1.8040210209288539 -1.1536792516708374 -1.4419557464173813 1.3512303829193115 0.43449702858924866 True False
11664.791 1.6471163034439087 -1.8040553532042445 -1.163330078125 -1.4407761555961152 1.3587816953659058 0.4380212426185608 True False
11664.811 1.6610114574432373 -1.8043214283385218 -1.1734559535980225 -1.4396312844804307 1.3662811517715454 0.44167453050613403 True False
11664.831 1.6749330759048462 -1.8046890697874964 -1.1831945180892944 -1.4386995893767853 1.3737035989761353 0.4452960193157196 True False
11664.850999999999 1.6889101266860962 -1.8048116169371546 -1.1929357051849365 -1.4375432294658204 1.3812302350997925 0.4488885700702667 True False
11664.871 1.702845573425293 -1.8049522838988246 -1.202825903892517 -1.4364264023355027 1.3886256217956543 0.45248672366142273 True False
11664.891 1.7163245677947998 -1.8053156338133753 -1.2123315334320068 -1.435449482207634 1.3959804773330688 0.45603716373443604 True False
11664.911 1.729583740234375 -1.8054539165892542 -1.2215279340744019 -1.4343774181655427 1.4029629230499268 0.45941397547721863 True False
11664.930999999999 1.7427266836166382 -1.8054958782591761 -1.2306582927703857 -1.433221848016121 1.4101680517196655 0.4628118574619293 True False
11664.951 1.7554311752319336 -1.8058167896666468 -1.2397829294204712 -1.4322642844966431 1.4171102046966553 0.4661535322666168 True False
11664.971 1.7678788900375366 -1.8060223064818324 -1.2484650611877441 -1.431359664802887 1.4236339330673218 0.4693535268306732 True False
11664.991 1.7801623344421387 -1.8061381779112757 -1.256974458694458 -1.4303151381066819 1.4303449392318726 0.4725427031517029 True False
11665.010999999999 1.7919771671295166 -1.806204458276266 -1.2655633687973022 -1.4294898968986054 1.4366681575775146 0.4756889045238495 True False
11665.030999999999 1.803638219833374 -1.8065482578673304 -1.2737594842910767 -1.4286607664874573 1.4428644180297852 0.47869643568992615 True False
11665.051 1.815006971359253 -1.8066889248290003 -1.281505823135376 -1.4276403200677414 1.4489953517913818 0.4815995693206787 True False
11665.071 1.8260422945022583 -1.8066617451109828 -1.2893203496932983 -1.4266793441823502 1.4548848867416382 0.4844765067100525 True False
11665.091 1.8368418216705322 -1.8069192371764125 -1.297123908996582 -1.4258901339820405 1.460808277130127 0.48729342222213745 True False
11665.110999999999 1.8473377227783203 -1.8072549305357875 -1.3045248985290527 -1.4251285803369065 1.4662489891052246 0.4900318384170532 True False
11665.371 1.9585306644439697 -1.808763166467184 -1.3827632665634155 -1.4164820474437256 1.5261467695236206 0.5188441872596741 True False
11665.391 1.9650598764419556 -1.8088270626463832 -1.3874685764312744 -1.4158954930356522 1.5296992063522339 0.5206242799758911 True False
11665.411 1.9715280532836914 -1.8089467487730921 -1.3918635845184326 -1.4153698098710557 1.5331884622573853 0.5222402811050415 True False
11665.430999999999 1.977614402770996 -1.809096475640768 -1.3960849046707153 -1.4148985159448166 1.536463737487793 0.5237962603569031 True False
11665.451 1.9833276271820068 -1.8091021976866664 -1.400044560432434 -1.414496735935547 1.539579153060913 0.5253032445907593 True False
11665.471 1.9888807535171509 -1.8091994724669398 -1.4038476943969727 -1.414054201250412 1.5424981117248535 0.5266907215118408 True False
11665.491 1.993971586227417 -1.8092695675291957 -1.4075897932052612 -1.4135461014560242 1.5453135967254639 0.5280685424804688 True False
11665.510999999999 1.9988360404968262 -1.809371133843893 -1.4111288785934448 -1.4132197809270401 1.5479049682617188 0.529337465763092 True False
11665.530999999999 2.003634214401245 -1.8094250164427699 -1.4143956899642944 -1.4128545981696625 1.5503922700881958 0.5305374264717102 True False
11665.551 2.0079448223114014 -1.8095060787596644 -1.4175565242767334 -1.4125635486892243 1.55279541015625 0.5317400693893433 True False
11665.571 2.0120370388031006 -1.8095642528929652 -1.4204075336456299 -1.412213222389557 1.554955005645752 0.5327527523040771 True False
11665.591 2.0159595012664795 -1.8096209965147914 -1.423061490058899 -1.4118536424687882 1.5570348501205444 0.5336681604385376 True False
11665.610999999999 2.019436836242676 -1.8097168407835902 -1.425489902496338 -1.4115784925273438 1.558982014656067 0.5346105694770813 True False
11665.631 2.0225841999053955 -1.8097416363158167 -1.4277433156967163 -1.4113547217896958 1.5606935024261475 0.5355221629142761 True False
11665.651 2.0255966186523438 -1.8097597561278285 -1.4298458099365234 -1.411168561582901 1.5622648000717163 0.5363001227378845 True False
11665.671 2.0283117294311523 -1.8098231754698695 -1.4316458702087402 -1.4109564435533066 1.5636810064315796 0.5369114279747009 True False
11665.690999999999 2.0306668281555176 -1.8098327122130335 -1.4333821535110474 -1.410720781689026 1.5650206804275513 0.5375871062278748 True False
11665.711 2.0328805446624756 -1.8099004230894984 -1.4349547624588013 -1.4105933618596573 1.5662087202072144 0.5381332039833069 True False
11665.731 2.0347342491149902 -1.809906621972555 -1.4362844228744507 -1.4104656291059037 1.5671478509902954 0.5386651158332825 True False
11665.751 2.0363481044769287 -1.8099080524840296 -1.437299132347107 -1.4103303861669083 1.5679996013641357 0.5390102863311768 True False
11665.770999999999 2.037569761276245 -1.8098989925780238 -1.438177227973938 -1.4102348548224946 1.5687077045440674 0.5393496155738831 True False
11665.791 2.0386078357696533 -1.8099929294981898 -1.4390008449554443 -1.4101631504348298 1.569227695465088 0.5396444797515869 True False
11665.811 2.039357900619507 -1.8100210628905238 -1.4395723342895508 -1.4101031583598633 1.5695550441741943 0.5398284196853638 True False
11665.831 2.0397791862487793 -1.809981485406393 -1.4398388862609863 -1.4100913417390366 1.5698426961898804 0.539880633354187 True False
11665.850999999999 2.040020704269409 -1.809972425500387 -1.43992280960083 -1.410031647687294 1.5699074268341064 0.5398836135864258 True False
11665.871 2.0398993492126465 -1.8099390468993128 -1.4400310516357422 -1.4098113936236878 1.5698509216308594 0.5398471355438232 True False
11665.891 2.0398786067962646 -1.8100768528380335 -1.440503478050232 -1.4093375963023682 1.5697907209396362 0.5399227738380432 True False
11665.911 2.0399186611175537 -1.8101541004576625 -1.441178321838379 -1.4088152957013627 1.569766879081726 0.5400198101997375 True False
11665.930999999999 2.039917469024658 -1.810354848901266 -1.4420934915542603 -1.407930002813675 1.5695668458938599 0.5400794148445129 True False
11665.951 2.039973020553589 -1.8104907474913539 -1.443159818649292 -1.4066768300584336 1.5694026947021484 0.5401229858398438 True False
11665.971 2.03999662399292 -1.8106638393797816 -1.4446161985397339 -1.4051745396903534 1.569123387336731 0.540175199508667 True False
11665.991 2.03999400138855 -1.810920854608053 -1.4464017152786255 -1.4033567768386384 1.5687710046768188 0.5402069091796875 True False
11666.010999999999 2.039975881576538 -1.8112169704832972 -1.4484045505523682 -1.4013947260430832 1.568387508392334 0.5402743816375732 True False
11666.030999999999 2.039975881576538 -1.811472078362936 -1.4506957530975342 -1.3990859401277085 1.5679317712783813 0.5403212308883667 True False
11666.051 2.0399951934814453 -1.8117214641966761 -1.4531919956207275 -1.3963231605342408 1.5673993825912476 0.5404863357543945 True False
11666.071 2.0400161743164062 -1.8119780025877894 -1.4559757709503174 -1.393560991888382 1.566831350326538 0.5405335426330566 True False
11666.091 2.040034055709839 -1.8125392399229945 -1.4590305089950562 -1.390406535272934 1.5662037134170532 0.5406420826911926 True False
11666.110999999999 2.040008544921875 -1.812976976434225 -1.4622563123703003 -1.3869018715671082 1.5655395984649658 0.5407495498657227 True False
11666.131 2.0400116443634033 -1.8134590588011683 -1.465820550918579 -1.3831947904876252 1.564795732498169 0.5408489108085632 True False
11666.151 2.0399861335754395 -1.81400789837026 -1.4696600437164307 -1.37920796990905 1.5640640258789062 0.540996789932251 True False
11666.171 2.040008544921875 -1.814519544641012 -1.4738582372665405 -1.3749238711646576 1.5631998777389526 0.5411197543144226 True False
11666.190999999999 2.0399909019470215 -1.8151623211302699 -1.478384256362915 -1.3702971947244187 1.5623362064361572 0.5413078665733337 True False
11666.211 2.0400116443634033 -1.8156949482359828 -1.483099102973938 -1.3654586535743256 1.5614601373672485 0.5414514541625977 True False
11666.231 2.0399951934814453 -1.8163687191405238 -1.488020658493042 -1.36030966163192 1.5604404211044312 0.541566789150238 True False
11666.251 2.0399415493011475 -1.8170167408385218 -1.493046522140503 -1.3549802017262955 1.5593688488006592 0.5417211055755615 True False
11666.270999999999 2.0400359630584717 -1.8177181682982386 -1.498483419418335 -1.3492441338351746 1.5582771301269531 0.5419211983680725 True False
11666.291 2.0399532318115234 -1.818582674066061 -1.5042296648025513 -1.3433951449445267 1.5571171045303345 0.5421423316001892 True False
11666.311 2.0400161743164062 -1.8194195232787074 -1.5104349851608276 -1.3370710176280518 1.5558536052703857 0.5423535108566284 True False
11666.331 2.03999662399292 -1.820256849328512 -1.516842007637024 -1.330621899371483 1.5546374320983887 0.5425611138343811 True False
11666.350999999999 2.0399625301361084 -1.8211285076537074 -1.523256540298462 -1.3237752330354233 1.553377628326416 0.542776346206665 True False
11666.371 2.0400161743164062 -1.8220898113646449 -1.5299415588378906 -1.3166949313930054 1.551961898803711 0.5429713726043701 True False
11666.391 2.0400540828704834 -1.822892805139059 -1.5370885133743286 -1.3092684310725708 1.5505702495574951 0.5432876944541931 True False
11666.411 2.0400359630584717 -1.8239380321898402 -1.544662356376648 -1.3016123336604615 1.5490702390670776 0.5435119271278381 True False
11666.430999999999 2.0399551391601562 -1.825057169000143 -1.5523337125778198 -1.2938243311694642 1.5476068258285522 0.5437785983085632 True False
11666.451 2.039987802505493 -1.8260423145689906 -1.5600873231887817 -1.2855331760695954 1.546055555343628 0.5439927577972412 True False
11666.471 2.0400190353393555 -1.8269955120482386 -1.5681627988815308 -1.2770039600184937 1.544323444366455 0.5442724823951721 True False
11666.491 2.040045738220215 -1.82816805462026 -1.5767648220062256 -1.2683261793902894 1.5426241159439087 0.5445716977119446 True False
11666.510999999999 2.0399951934814453 -1.8293935261168421 -1.585594654083252 -1.259390191440918 1.5409125089645386 0.5448424816131592 True False
11666.530999999999 2.040004253387451 -1.830597539941305 -1.5941884517669678 -1.2500477892211457 1.5391571521759033 0.5451460480690002 True False
11666.551 2.040036916732788 -1.8315984211363734 -1.6029057502746582 -1.2409512561610718 1.5373730659484863 0.54542475938797 True False
11666.571 2.0399789810180664 -1.8328057728209437 -1.6116491556167603 -1.2322250765613099 1.5356494188308716 0.5457073450088501 True False
11666.591 2.040032386779785 -1.8340469799437464 -1.6197890043258667 -1.2238432627967377 1.5340179204940796 0.5459911823272705 True False
11666.610999999999 2.040008544921875 -1.8349915943541468 -1.6274909973144531 -1.2154924136451264 1.5325183868408203 0.5462459325790405 True False
11666.631 2.0399670600891113 -1.8359447918333949 -1.635081171989441 -1.207480565910675 1.5308947563171387 0.5465341210365295 True False
11666.651 2.0399081707000732 -1.837074419061178 -1.642788052558899 -1.2000727516463776 1.5295212268829346 0.546765923500061 True False
11666.671 2.0399653911590576 -1.8380481205382289 -1.649806022644043 -1.1926165980151673 1.527988314628601 0.5469837188720703 True False
11666.690999999999 2.0399832725524902 -1.8387953243651332 -1.656286597251892 -1.1853814882091065 1.526770830154419 0.5471912026405334 True False
11666.711 2.040032386779785 -1.839658876458639 -1.6629101037979126 -1.1785457295230408 1.525445818901062 0.5474112033843994 True False
11666.731 2.040032386779785 -1.8406883678831996 -1.6695597171783447 -1.1722213190845032 1.52412748336792 0.5475819706916809 True False
11666.751 2.0399460792541504 -1.8415290317931117 -1.6756614446640015 -1.1659108859351655 1.5229742527008057 0.5478377342224121 True False
11666.770999999999 2.040004253387451 -1.8420926533141078 -1.6811890602111816 -1.1598183673671265 1.5217409133911133 0.5480616688728333 True False
11666.791 2.0399951934814453 -1.8427845440306605 -1.6865202188491821 -1.1541918379119416 1.5206791162490845 0.5482043623924255 True False
11666.811 2.040004253387451 -1.8436418972411097 -1.6918526887893677 -1.1489160817912598 1.5196846723556519 0.5483684539794922 True False
11666.831 2.039987802505493 -1.8443237743773402 -1.6968778371810913 -1.1437278550914307 1.518710970878601 0.5485895276069641 True False
11666.850999999999 2.039971351623535 -1.8448826275267542 -1.701603651046753 -1.1388670963099976 1.5176887512207031 0.5487080812454224 True False
11666.871 2.0399670600891113 -1.8455139599242152 -1.706102967262268 -1.134178326731064 1.5168383121490479 0.5488753318786621 True False
11666.891 2.0400280952453613 -1.8460689983763636 -1.7101014852523804 -1.130011872654297 1.5159566402435303 0.5490365028381348 True False
11666.911 2.0400235652923584 -1.8466421566405238 -1.7139153480529785 -1.1259120267680665 1.5151617527008057 0.5491356253623962 True False
11666.930999999999 2.0400161743164062 -1.8469692669310511 -1.7174395322799683 -1.1222320956042786 1.5144193172454834 0.5492466688156128 True False
11666.951 2.0399997234344482 -1.8474537334837855 -1.720757007598877 -1.1187634331038971 1.5138006210327148 0.5493868589401245 True False
11666.971 2.040013074874878 -1.8479062519469203 -1.7239000797271729 -1.1156091553023835 1.513229250907898 0.5494412779808044 True False
11666.991 2.040032386779785 -1.8482328854002894 -1.7268428802490234 -1.1125265818885346 1.5126912593841553 0.5495696663856506 True False
11667.010999999999 2.0399670600891113 -1.8485599956908167 -1.7293354272842407 -1.1101201337626954 1.5121883153915405 0.5496294498443604 True False
11667.030999999999 2.0399537086486816 -1.8489114246764125 -1.7316386699676514 -1.1076523226550599 1.5115888118743896 0.5497000813484192 True False
11667.051 2.0400025844573975 -1.8492189846434535 -1.7337288856506348 -1.1056414109519501 1.5112658739089966 0.5498144030570984 True False
11667.071 2.0400493144989014 -1.8493701420226039 -1.7353038787841797 -1.1038485926440735 1.5109107494354248 0.5498569011688232 True False
11667.091 2.0399997234344482 -1.8495108089842738 -1.7366989850997925 -1.1023556155017395 1.5106756687164307 0.5498927235603333 True False
11667.110999999999 2.040041208267212 -1.8496700725951136 -1.7379544973373413 -1.1011139017394562 1.5104597806930542 0.5499002933502197 True False
11667.131 2.0400161743164062 -1.8497616253294886 -1.7388700246810913 -1.1001246136477967 1.510256052017212 0.5499233603477478 True False
11667.151 2.039987802505493 -1.849870344201559 -1.739504337310791 -1.099441574220993 1.5101680755615234 0.5499276518821716 True False
11667.171 2.0399582386016846 -1.849882265130514 -1.7398823499679565 -1.0991593462279816 1.5101319551467896 0.5499473810195923 True False
11667.190999999999 2.0399835109710693 -1.8499318561949671 -1.7399290800094604 -1.0991233450225373 1.510148286819458 0.5500047206878662 True False
11667.211 2.0399997234344482 -1.849910398522848 -1.7399086952209473 -1.0990668398192902 1.5101401805877686 0.5499798655509949 True False
11667.231 2.0399670600891113 -1.8499509296812953 -1.7399253845214844 -1.099119172697403 1.5100964307785034 0.5499517321586609 True False
11667.251 2.0400116443634033 -1.8499542675414027 -1.739899754524231 -1.0990466338447114 1.5100845098495483 0.5499560832977295 True False
11667.270999999999 2.0399746894836426 -1.8499957523741664 -1.7399741411209106 -1.0990466636470337 1.5100123882293701 0.5499885082244873 True False
11667.291 2.0400404930114746 -1.8499652347960414 -1.7399210929870605 -1.0990310174277802 1.5100685358047485 0.5499592423439026 True False
11667.311 2.0400478839874268 -1.8500439129271449 -1.739892840385437 -1.0990065497211 1.5100324153900146 0.550004780292511 True False
11667.331 2.040004014968872 -1.8500024280943812 -1.7399811744689941 -1.099143312578537 1.5100005865097046 0.5500376224517822 True False
11667.350999999999 2.0400404930114746 -1.8500095806517542 -1.7400274276733398 -1.0990429681590577 1.5100001096725464 0.5499954223632812 True False
11667.371 2.0400116443634033 -1.8499442539610804 -1.7399821281433105 -1.0989950460246583 1.510060429573059 0.5499711632728577 True False
11667.391 2.0400190353393555 -1.85007967571401 -1.7400062084197998 -1.0990110498717804 1.5100164413452148 0.5499917268753052 True False
11667.411 2.040032386779785 -1.8499814472594203 -1.7399314641952515 -1.099039302473404 1.5099923610687256 0.5500159859657288 True False
11667.430999999999 2.04002046585083 -1.8500381908812464 -1.739992618560791 -1.0989945989898224 1.5099804401397705 0.5500048398971558 True False
11667.451 2.0399701595306396 -1.8500663242735804 -1.7399680614471436 -1.0990110796741028 1.5100164413452148 0.5499637126922607 True False
11667.471 2.040036678314209 -1.8500110111632289 -1.739992618560791 -1.099027083521225 1.5100001096725464 0.5499723553657532 True False
11667.491 2.0399746894836426 -1.8500009975829066 -1.74000084400177 -1.0989950460246583 1.5099964141845703 0.5500332117080688 True False
11667.510999999999 2.0399463176727295 -1.849990030328268 -1.7400295734405518 -1.0990470808795472 1.5099923610687256 0.5500404238700867 True False
11667.530999999999 2.0400190353393555 -1.8497959576048792 -1.7397452592849731 -1.0987914067557831 1.5101561546325684 0.5500841736793518 True False
11667.551 2.040015935897827 -1.8498670063414515 -1.7396637201309204 -1.0985678893378754 1.5100164413452148 0.5500732660293579 True False
11667.571 2.0400805473327637 -1.8497897587218226 -1.7396841049194336 -1.0985436600497742 1.5099164247512817 0.5500679016113281 True False
11667.591 2.039992094039917 -1.8498908481993617 -1.739714503288269 -1.0985559088042756 1.5100046396255493 0.5501211881637573 True False
11667.610999999999 2.0399982929229736 -1.8498789272704066 -1.739717960357666 -1.098632113342621 1.5099525451660156 0.5499788522720337 True False
11667.631 2.04002046585083 -1.8498865566649378 -1.739729404449463 -1.0986758333495636 1.5099883079528809 0.5500072240829468 True False
11667.651 2.0400116443634033 -1.849898477593893 -1.7397338151931763 -1.098731980924942 1.5100328922271729 0.5499954223632812 True False
11667.671 2.040031671524048 -1.8498412571349085 -1.7397384643554688 -1.0987075728229065 1.5099883079528809 0.5500245094299316 True False
11667.690999999999 2.0400447845458984 -1.8498584232726039 -1.7397314310073853 -1.0987635117820282 1.5100042819976807 0.5500082969665527 True False
11667.711 2.0400447845458984 -1.8498617611327113 -1.7397518157958984 -1.098863200550415 1.5099960565567017 0.5500448346138 True False
11667.731 2.0399909019470215 -1.84985413173818 -1.7396706342697144 -1.0989034336856385 1.5100041627883911 0.5499711632728577 True False
11667.751 2.0400612354278564 -1.849910398522848 -1.7397338151931763 -1.0988474947265168 1.5099636316299438 0.5500819683074951 True False
11667.770999999999 2.0400731563568115 -1.8499404392638148 -1.7397160530090332 -1.098826990728714 1.51002836227417 0.5500040054321289 True False
11667.791 2.0400116443634033 -1.849879880944723 -1.7397384643554688 -1.0989111226848145 1.5100324153900146 0.5500523447990417 True False
11667.811 2.039789915084839 -1.849905630151266 -1.7397135496139526 -1.0988910359195252 1.5100927352905273 0.550004780292511 True False
11667.831 2.039426803588867 -1.8498779735960902 -1.7397338151931763 -1.0990949732116242 1.5102044343948364 0.5499045848846436 True False
11667.850999999999 2.0387513637542725 -1.849936147729391 -1.7397338151931763 -1.0992108148387452 1.5102040767669678 0.549713134765625 True False
11667.871 2.0377402305603027 -1.8497897587218226 -1.7397338151931763 -1.099386290912964 1.5102159976959229 0.5495250225067139 True False
11667.891 2.036444902420044 -1.8497463665404261 -1.7397055625915527 -1.0997260969928284 1.5101879835128784 0.5492498278617859 True False
11667.911 2.034853219985962 -1.8496176205077113 -1.7396817207336426 -1.0998852413943787 1.5102205276489258 0.5490028858184814 True False
11667.930999999999 2.0329113006591797 -1.8495704136290492 -1.739556908607483 -1.1002048414996644 1.5101882219314575 0.5486113429069519 True False
11667.951 2.0308005809783936 -1.8494192562498988 -1.7395907640457153 -1.1006321770003815 1.5102044343948364 0.5482173562049866 True False
11667.971 2.02828049659729 -1.8492948017516078 -1.7395044565200806 -1.1010512870601197 1.5102483034133911 0.5477254986763 True False
11667.991 2.025686740875244 -1.8490458927550257 -1.7393072843551636 -1.1015298527530213 1.5103520154953003 0.5471706986427307 True False
11668.010999999999 2.022676944732666 -1.84892000774526 -1.7392297983169556 -1.1020411115935822 1.5104479789733887 0.5466172695159912 True False
11668.030999999999 2.0194406509399414 -1.84861483196401 -1.7388341426849365 -1.1024761658957978 1.5106395483016968 0.5459781885147095 True False
11668.051 2.015981435775757 -1.8481360874571742 -1.7381702661514282 -1.1026840966990967 1.5108428001403809 0.5452885627746582 True False
11668.071 2.012187957763672 -1.8475119076170863 -1.7373569011688232 -1.1032307308963318 1.5109585523605347 0.5444934964179993 True False
11668.091 2.008042812347412 -1.8472186527647914 -1.7368019819259644 -1.10397361338649 1.5110985040664673 0.5436673760414124 True False
11668.110999999999 2.0037147998809814 -1.8467737636961878 -1.7363311052322388 -1.1047163766673584 1.5112462043762207 0.5429188013076782 True False
11668.131 1.9990633726119995 -1.8462702236571253 -1.73573637008667 -1.105290339594223 1.5114409923553467 0.5420181751251221 True False
11668.151 1.9942103624343872 -1.8458315334715785 -1.7351020574569702 -1.1061140459826966 1.5115933418273926 0.5409870743751526 True False
11668.171 1.9890097379684448 -1.8454400501646937 -1.7346596717834473 -1.1069602531245728 1.5118048191070557 0.5399707555770874 True False
11668.190999999999 1.983542561531067 -1.8448950252928675 -1.7341420650482178 -1.1077858966640015 1.5120326280593872 0.5388928055763245 True False
11668.211 1.9776438474655151 -1.8443299732603968 -1.7334771156311035 -1.1085961324027558 1.5122202634811401 0.5377471446990967 True False
11668.231 1.971631407737732 -1.8437305889525355 -1.7328269481658936 -1.1096824270537873 1.5124361515045166 0.5365472435951233 True False
11668.251 1.9654632806777954 -1.8432194195189417 -1.7321995496749878 -1.1106367868236084 1.5126192569732666 0.5353415608406067 True False
11668.270999999999 1.9588655233383179 -1.842602392236227 -1.7315188646316528 -1.1115870338729401 1.5128790140151978 0.533980667591095 True False
11668.291 1.951987624168396 -1.8419858417906703 -1.7306885719299316 -1.1126727026752015 1.5130584239959717 0.5325998067855835 True False
11668.311 1.9447035789489746 -1.8413626156248988 -1.7298964262008667 -1.1137793821147461 1.5133259296417236 0.5312854647636414 True False
11668.331 1.9372937679290771 -1.840670724908346 -1.7291449308395386 -1.1149120193770905 1.513561487197876 0.5297878384590149 True False
11668.350999999999 1.9296153783798218 -1.8399154148497523 -1.7283154726028442 -1.116213635807373 1.5139011144638062 0.5282798409461975 True False
11668.371 1.9217205047607422 -1.839189191857809 -1.7274205684661865 -1.117439017896988 1.5141925811767578 0.5266510844230652 True False
11668.391 1.9134081602096558 -1.838428636590475 -1.726591944694519 -1.1186446410468598 1.514399766921997 0.525092363357544 True False
11668.411 1.9047975540161133 -1.83764710048818 -1.7257184982299805 -1.1199979049018403 1.5147112607955933 0.5234002470970154 True False
11668.430999999999 1.8960974216461182 -1.8368026218810023 -1.724885106086731 -1.1213393372348328 1.5150783061981201 0.521660566329956 True False
11668.451 1.886961817741394 -1.8360253773131312 -1.7238799333572388 -1.1228169661811371 1.5154216289520264 0.5198246240615845 True False
11668.471 1.8774904012680054 -1.8351770840086878 -1.7228950262069702 -1.1243214470199128 1.5156853199005127 0.5180055499076843 True False
11668.491 1.8677887916564941 -1.8343283138670863 -1.721785545349121 -1.1257480543902894 1.5159802436828613 0.5161020755767822 True False
11668.510999999999 1.8580750226974487 -1.833348890344137 -1.7207152843475342 -1.127215788965561 1.516467571258545 0.5141881108283997 True False
11668.530999999999 1.847617506980896 -1.8324347935118617 -1.719639539718628 -1.1288618606380005 1.5167591571807861 0.512180507183075 True False
11668.551 1.8370864391326904 -1.8314925632872523 -1.7187079191207886 -1.130701557998993 1.5170469284057617 0.5101056098937988 True False
11668.571 1.8264890909194946 -1.830531736413473 -1.7175891399383545 -1.1322135788253327 1.5176016092300415 0.5078907012939453 True False
11668.591 1.8153648376464844 -1.8294698200621546 -1.7163426876068115 -1.133878306751587 1.5179649591445923 0.5056921243667603 True False
11668.610999999999 1.803897500038147 -1.8284241161742152 -1.7151005268096924 -1.135662929420807 1.5180686712265015 0.5035490393638611 True False
11668.631 1.7925000190734863 -1.8273974857726039 -1.713865041732788 -1.1375298661044617 1.5189194679260254 0.5012747645378113 True False
11668.651 1.7804598808288574 -1.8263803921141566 -1.712693452835083 -1.1393534404090424 1.5191903114318848 0.4988882541656494 True False
11668.671 1.7682281732559204 -1.825184007684225 -1.711489200592041 -1.1412208539298554 1.5193345546722412 0.4965503215789795 True False
11668.690999999999 1.7558515071868896 -1.82399382213735 -1.7101333141326904 -1.143021212225296 1.5202289819717407 0.49403315782546997 True False
11668.711 1.743149757385254 -1.8228541813292445 -1.7087651491165161 -1.145156280403473 1.5204037427902222 0.49153563380241394 True False
11668.731 1.7299655675888062 -1.821636816064352 -1.7073317766189575 -1.1471232336810608 1.520607590675354 0.48898598551750183 True False
11668.751 1.7168463468551636 -1.820470472375387 -1.7059181928634644 -1.149127261047699 1.5214940309524536 0.48635202646255493 True False
11668.770999999999 1.7033100128173828 -1.8191591701903285 -1.7044860124588013 -1.1514777404120942 1.521689534187317 0.4836828112602234 True False
11668.791 1.6892998218536377 -1.8180085621275843 -1.7031890153884888 -1.1535524886897583 1.5223487615585327 0.48095443844795227 True False
11668.811 1.6753917932510376 -1.8166772327818812 -1.7015643119812012 -1.1555833977511902 1.5227833986282349 0.4781317114830017 True False
11668.831 1.6614967584609985 -1.8153625927367152 -1.6999332904815674 -1.157695696955063 1.5234581232070923 0.4754759967327118 True False
11668.850999999999 1.647444486618042 -1.814021726647848 -1.6985265016555786 -1.1601221424392243 1.5236858129501343 0.47274187207221985 True False
11668.871 1.6334433555603027 -1.812941690484518 -1.6972850561141968 -1.162195937042572 1.524264931678772 0.46996456384658813 True False
11668.891 1.6196554899215698 -1.8116771183409632 -1.6956545114517212 -1.1643794041923066 1.524878978729248 0.4672498106956482 True False
11668.911 1.6056526899337769 -1.8102857075133265 -1.694074273109436 -1.1664746862700959 1.5251826047897339 0.46449777483940125 True False
11668.930999999999 1.591544270515442 -1.8089662990965785 -1.692568063735962 -1.1686737400344391 1.525829792022705 0.4617277979850769 True False
11668.951 1.5776195526123047 -1.8077384434142054 -1.6912351846694946 -1.1708567601493378 1.5262646675109863 0.4589996635913849 True False
11668.971 1.5637705326080322 -1.8065115414061488 -1.6898348331451416 -1.1731151205352326 1.526855707168579 0.45625633001327515 True False
11668.991 1.5496432781219482 -1.8052588901915492 -1.68834388256073 -1.1752061408809205 1.5271388292312622 0.45346546173095703 True False
11669.010999999999 1.5356837511062622 -1.8038355312743128 -1.68672776222229 -1.1772541564754029 1.5277457237243652 0.4507465362548828 True False
11669.030999999999 1.5218669176101685 -1.8025976620116175 -1.6852999925613403 -1.179552600984909 1.528172492980957 0.4480038285255432 True False
11669.051 1.5079095363616943 -1.801382680932516 -1.6839863061904907 -1.1817751985839386 1.5286400318145752 0.44520077109336853 True False
11669.071 1.4939082860946655 -1.8001586399474085 -1.682558536529541 -1.1838623446277161 1.5292060375213623 0.4425167739391327 True False
11669.091 1.4799529314041138 -1.7987696133055628 -1.6809571981430054 -1.186092959051468 1.5297380685806274 0.43973785638809204 True False
11669.110999999999 1.4659677743911743 -1.797544618646139 -1.6794493198394775 -1.1881160301021119 1.5302364826202393 0.4369695782661438 True False
11669.131 1.4518781900405884 -1.7962876758971156 -1.6779963970184326 -1.1903318625739594 1.5305876731872559 0.4342057704925537 True False
11669.151 1.4380311965942383 -1.795027872125143 -1.6766196489334106 -1.1926624041846772 1.5311990976333618 0.43143582344055176 True False
11669.171 1.424015998840332 -1.7937408886351527 -1.6751948595046997 -1.1947371822646637 1.5315712690353394 0.4287053048610687 True False
11669.190999999999 1.4101972579956055 -1.7924915752806605 -1.6735950708389282 -1.196846680050232 1.5321791172027588 0.4259384274482727 True False
11669.211 1.3961652517318726 -1.791140695611471 -1.6719367504119873 -1.1990431112102051 1.5326226949691772 0.42327675223350525 True False
11669.231 1.3821967840194702 -1.7898766003050746 -1.6706279516220093 -1.2012872260859986 1.5331271886825562 0.4204969108104706 True False
11669.251 1.3682105541229248 -1.7886482677855433 -1.6692997217178345 -1.2034402948668976 1.5336387157440186 0.4177491366863251 True False
11669.270999999999 1.3542503118515015 -1.7873622379698695 -1.6676700115203857 -1.205573098068573 1.5341031551361084 0.41489583253860474 True False
11669.291 1.3402892351150513 -1.7860681019225062 -1.6660009622573853 -1.207725928430893 1.534602403640747 0.41221195459365845 True False
11669.311 1.326356291770935 -1.784661432305807 -1.6646251678466797 -1.209950254564621 1.535030722618103 0.4095233976840973 True False
11669.331 1.3124324083328247 -1.7835265598692835 -1.6632159948349 -1.2120510798743744 1.535646677017212 0.40668830275535583 True False
11669.350999999999 1.298431396484375 -1.7822853527464808 -1.6618200540542603 -1.214439795618393 1.5360265970230103 0.4039418399333954 True False
11669.371 1.284430742263794 -1.780973573724264 -1.6602576971054077 -1.216379241352417 1.5366301536560059 0.4012410342693329 True False
11669.391 1.2705665826797485 -1.7796102962889613 -1.6586833000183105 -1.218472645883896 1.537094235420227 0.3985031545162201 True False
11669.411 1.2564531564712524 -1.7783094845213832 -1.6572057008743286 -1.220773236160614 1.5375339984893799 0.3957121670246124 True False
11669.510999999999 1.1866888999938965 -1.7720629177489222 -1.6500447988510132 -1.231568382387497 1.5401053428649902 0.3819940984249115 True False
11669.631 1.1029471158981323 -1.7644502125182093 -1.641353964805603 -1.2446679931930085 1.5428811311721802 0.36547228693962097 True False
11669.651 1.0889794826507568 -1.7631217441954554 -1.639682650566101 -1.2467816036990662 1.5435535907745361 0.3627171218395233 True False
11669.671 1.0750547647476196 -1.7617222271361292 -1.638190507888794 -1.2489779454520722 1.5438684225082397 0.3599182963371277 True False
11669.690999999999 1.0610383749008179 -1.7605287037291468 -1.6366921663284302 -1.2509980362704773 1.544541358947754 0.3572903871536255 True False
11669.711 1.0471148490905762 -1.7592884502806605 -1.63532292842865 -1.2532829505256196 1.5448604822158813 0.35450002551078796 True False
11669.731 1.0331541299819946 -1.7580143413939417 -1.6338889598846436 -1.2556035083583375 1.5454362630844116 0.3517360985279083 True False
11669.751 1.019166350364685 -1.756697794000143 -1.6322885751724243 -1.2576595705798645 1.5458767414093018 0.3490191400051117 True False
11669.770999999999 1.0051815509796143 -1.755374094048971 -1.630726933479309 -1.2597276133349915 1.546449065208435 0.3462872803211212 True False
11669.791 0.9911742210388184 -1.7540871105589808 -1.6292155981063843 -1.2620846790126343 1.5469565391540527 0.34352535009384155 True False
11669.811 0.9772716760635376 -1.7527982197203578 -1.6280477046966553 -1.2642916303924103 1.5473319292068481 0.3408409655094147 True False
11669.831 0.9633946418762207 -1.7515632114806117 -1.626500129699707 -1.2662526232055207 1.547879695892334 0.33796563744544983 True False
11669.850999999999 0.9495598077774048 -1.750312944451803 -1.6248568296432495 -1.268441156750061 1.548231601715088 0.33529630303382874 True False
11669.871 0.9361228346824646 -1.7490555248656214 -1.623476266860962 -1.2705694299987336 1.548848032951355 0.3326468765735626 True False
11669.891 0.9229573011398315 -1.7479311428465785 -1.6222237348556519 -1.2725135546973725 1.549172043800354 0.33006078004837036 True False
11669.911 0.9099957942962646 -1.746744295159811 -1.6209357976913452 -1.2746264797500153 1.5497597455978394 0.32749438285827637 True False
11669.930999999999 0.8973312973976135 -1.7455302677550257 -1.619551658630371 -1.2767075461200257 1.5502040386199951 0.3249970078468323 True False
11669.951 0.8850178122520447 -1.7443858585753382 -1.6181550025939941 -1.2785020631602784 1.5505269765853882 0.32255303859710693 True False
11669.971 0.8729647994041443 -1.7432929478087367 -1.6168177127838135 -1.2802590292743226 1.5511474609375 0.3201504945755005 True False
11669.991 0.8610870242118835 -1.7422672710814417 -1.615721344947815 -1.2822507184794922 1.551343321800232 0.31785848736763 True False
11670.010999999999 0.849747359752655 -1.7412411175169886 -1.6146183013916016 -1.2840254765800019 1.5519077777862549 0.3155948221683502 True False
11670.030999999999 0.8384932279586792 -1.7402101955809535 -1.6133280992507935 -1.2857711774161835 1.5522505044937134 0.31342893838882446 True False
11670.051 0.8274091482162476 -1.7390715084471644 -1.6121375560760498 -1.2874292892268677 1.5524789094924927 0.3113291263580322 True False
11670.071 0.816834568977356 -1.7381874523558558 -1.6108595132827759 -1.289094702606537 1.553094506263733 0.3091489374637604 True False
11670.091 0.8063688278198242 -1.7372571430602015 -1.6098493337631226 -1.2908136707595368 1.553390622138977 0.3070680797100067 True False
11670.110999999999 0.7961505055427551 -1.7363597355284632 -1.6088672876358032 -1.2923642557910462 1.5536552667617798 0.30504757165908813 True False
11670.131 0.7866137027740479 -1.7354456386961878 -1.6077961921691895 -1.2937224370292206 1.554247498512268 0.30313050746917725 True False
11670.151 0.7768321633338928 -1.7345549068846644 -1.6068304777145386 -1.2952930492213746 1.554402232170105 0.3012709319591522 True False
11670.171 0.7674476504325867 -1.7337380848326625 -1.6058346033096313 -1.2969427865794678 1.5546067953109741 0.2994667589664459 True False
11670.190999999999 0.7587234377861023 -1.732950349847311 -1.6046910285949707 -1.29805080712352 1.555182933807373 0.29767686128616333 True False
11670.211 0.7498907446861267 -1.7320715389647425 -1.6037582159042358 -1.2994900804809113 1.5553901195526123 0.29590708017349243 True False
11670.231 0.7411704659461975 -1.731267591516012 -1.6029226779937744 -1.3007852298072358 1.555503010749817 0.29432612657546997 True False
11670.251 0.7334089279174805 -1.730586668054098 -1.6021696329116821 -1.302080587749817 1.5560221672058105 0.2926875054836273 True False
11670.270999999999 0.7256132960319519 -1.7299133739867152 -1.6013177633285522 -1.3032914859107514 1.556281566619873 0.2910921275615692 True False
11670.291 0.7175886631011963 -1.729154726068014 -1.600577712059021 -1.3045118612102051 1.5563503503799438 0.2896239459514618 True False
11670.311 0.7104021310806274 -1.7284313640990199 -1.5998265743255615 -1.3056559723666687 1.5567625761032104 0.28829455375671387 True False
11670.331 0.7036086320877075 -1.727865835229391 -1.5989834070205688 -1.3066997689059754 1.557170033454895 0.28679269552230835 True False
11670.350999999999 0.6966102719306946 -1.7272759876646937 -1.5982362031936646 -1.3077044647983094 1.557201862335205 0.2855032980442047 True False
11670.371 0.6900451183319092 -1.7266589603819789 -1.597536563873291 -1.3087566059878846 1.5574259757995605 0.2842199504375458 True False
11670.391 0.6840196251869202 -1.7259723148741664 -1.5968995094299316 -1.3098411423018952 1.5577175617218018 0.2829457223415375 True False
11670.411 0.6780869364738464 -1.725504060784811 -1.5963001251220703 -1.3107021313956757 1.5579136610031128 0.2818569242954254 True False
11670.430999999999 0.6724390387535095 -1.725009103814596 -1.5957608222961426 -1.3115587693503876 1.5580542087554932 0.28066545724868774 True False
11670.451 0.6670618653297424 -1.7245103321471156 -1.5951405763626099 -1.3124234837344666 1.5582778453826904 0.27961865067481995 True False
11670.471 0.6619343161582947 -1.724039217034811 -1.5946403741836548 -1.3131655019572754 1.5584495067596436 0.27863284945487976 True False
11670.491 0.6568970680236816 -1.723595758477682 -1.594180703163147 -1.3138539654067536 1.5585533380508423 0.2777383029460907 True False
11670.510999999999 0.6524778008460999 -1.7231399021544398 -1.5937265157699585 -1.3145553034595032 1.5587494373321533 0.2767914831638336 True False
11670.530999999999 0.6483665108680725 -1.7227393589415492 -1.5932635068893433 -1.3153133255294343 1.5589858293533325 0.2759983539581299 True False
11670.551 0.6443239450454712 -1.7223712406554164 -1.5928395986557007 -1.3160343331149598 1.559029459953308 0.27517732977867126 True False
11670.571 0.6406735777854919 -1.722058435479635 -1.592390537261963 -1.3165564101985474 1.559145450592041 0.27442556619644165 True False
11670.591 0.637333333492279 -1.721788068810934 -1.591960072517395 -1.317042962913849 1.559409737586975 0.2737913727760315 True False
11670.831 0.618062436580658 -1.7200800381102503 -1.5901334285736084 -1.3198799055865784 1.5599972009658813 0.2701427936553955 True False
11670.850999999999 0.6181508302688599 -1.720105310479635 -1.5901002883911133 -1.3198845249465485 1.5600252151489258 0.26995325088500977 True False
11670.871 0.6180750131607056 -1.7204987011351527 -1.5901002883911133 -1.3196799916080018 1.560009241104126 0.2697702646255493 True False
11670.891 0.6180867552757263 -1.7211758098998011 -1.590235710144043 -1.3194009822658082 1.5599730014801025 0.2695678174495697 True False
11670.911 0.6180986762046814 -1.7222863636412562 -1.5904873609542847 -1.3188699346831818 1.5600371360778809 0.2693433463573456 True False
11670.930999999999 0.6180658936500549 -1.7236505947508753 -1.5908280611038208 -1.3181107503226777 1.5600451231002808 0.2690155506134033 True False
11670.951 0.6180480718612671 -1.7253200016417445 -1.5912432670593262 -1.3173090380481263 1.560001254081726 0.26865243911743164 True False
11670.971 0.6180986762046814 -1.7273651562132777 -1.5917192697525024 -1.3163644832423707 1.5600451231002808 0.2681691348552704 True False
11670.991 0.6181105971336365 -1.7295438251891078 -1.592180609703064 -1.3152364057353516 1.5600370168685913 0.267592191696167 True False
11671.010999999999 0.6180853247642517 -1.7320028744139613 -1.5928807258605957 -1.3139531773379822 1.5600172281265259 0.26693275570869446 True False
11671.030999999999 0.6181091070175171 -1.7346626720824183 -1.593480110168457 -1.3126886051944275 1.5600173473358154 0.2662944495677948 True False
11671.051 0.6181811094284058 -1.7376438579955042 -1.5943642854690552 -1.3111823064139863 1.5600250959396362 0.2655600905418396 True False
11671.071 0.6182365417480469 -1.7409545383849085 -1.5951324701309204 -1.3094717127135773 1.5599770545959473 0.2647160589694977 True False
11671.091 0.6182953715324402 -1.744551797906393 -1.5959856510162354 -1.3076029282859345 1.5600050687789917 0.2638705372810364 True False
11671.110999999999 0.6183629035949707 -1.7485066852965296 -1.5969595909118652 -1.3057415646365662 1.559973120689392 0.2628783583641052 True False
11671.131 0.6183658242225647 -1.7526437244811 -1.5981225967407227 -1.303772584801056 1.559973120689392 0.26188895106315613 True False
11671.151 0.6184161305427551 -1.7570826015868128 -1.5992982387542725 -1.3014404338649292 1.5599889755249023 0.26074206829071045 True False
11671.171 0.6185358166694641 -1.7616564236082972 -1.6003954410552979 -1.2991213661483307 1.560009241104126 0.25956374406814575 True False
11671.190999999999 0.6185877919197083 -1.7665611706175746 -1.6017757654190063 -1.2967851024917145 1.5600292682647705 0.2583414912223816 True False
11671.211 0.6185982823371887 -1.7717606029906214 -1.6030869483947754 -1.2940543752959748 1.5599693059921265 0.2569950520992279 True False
11671.231 0.618643045425415 -1.777288099328512 -1.6043245792388916 -1.291245476608612 1.560001015663147 0.2556436061859131 True False
11671.251 0.6187693476676941 -1.7832662067809046 -1.6058986186981201 -1.288518802528717 1.5600172281265259 0.25423434376716614 True False
11671.270999999999 0.6188921928405762 -1.7894894085326136 -1.60757315158844 -1.2853814226439972 1.5600132942199707 0.2527783513069153 True False
11671.291 0.6189365386962891 -1.795668741265768 -1.6090543270111084 -1.2822240454009552 1.560009241104126 0.25109753012657166 True False
11671.311 0.618994951248169 -1.8020783863463343 -1.610597014427185 -1.2787367862514039 1.5599892139434814 0.24948431551456451 True False
11671.331 0.6190589666366577 -1.8085018597044886 -1.6121340990066528 -1.2756596368602295 1.5599812269210815 0.2479039877653122 True False
11671.350999999999 0.6191588044166565 -1.8148724041380824 -1.6138290166854858 -1.2725346845439454 1.560001254081726 0.24631182849407196 True False
11671.371 0.6192348003387451 -1.820822378198141 -1.6153348684310913 -1.2697293621352692 1.5599851608276367 0.2448156177997589 True False
11671.391 0.6193246841430664 -1.8263923130431117 -1.6164917945861816 -1.266842709188797 1.559989094734192 0.2434253692626953 True False
11671.411 0.6193584203720093 -1.8315865002074183 -1.6178150177001953 -1.2641373437694092 1.560029149055481 0.2420668751001358 True False
11671.430999999999 0.619484007358551 -1.8365756473936976 -1.619122862815857 -1.2617138487151642 1.5600212812423706 0.24082805216312408 True False
11671.451 0.6195153594017029 -1.84144987682485 -1.6203733682632446 -1.2591380041888733 1.559993028640747 0.2396644651889801 True False
11671.471 0.6195590496063232 -1.84611239055776 -1.6214866638183594 -1.2569545668414612 1.5599851608276367 0.2385123074054718 True False
11671.491 0.6195528507232666 -1.8502727947630824 -1.6225699186325073 -1.2549930971911927 1.5600053071975708 0.23744270205497742 True False
11671.510999999999 0.619638979434967 -1.854215761224264 -1.6235148906707764 -1.2528719466975708 1.5599970817565918 0.23641112446784973 True False
11671.530999999999 0.6197437047958374 -1.8578177891173304 -1.6243720054626465 -1.2510390442660828 1.5599970817565918 0.23552115261554718 True False
11671.551 0.6198092103004456 -1.8611160717406214 -1.625266432762146 -1.2495179039290925 1.5599732398986816 0.23472723364830017 True False
11671.571 0.6197630763053894 -1.8641635380186976 -1.6260151863098145 -1.2478519541076203 1.559989094734192 0.23394536972045898 True False
11671.591 0.6198327541351318 -1.8670069179930628 -1.6267815828323364 -1.246463344698288 1.5599771738052368 0.23324115574359894 True False
11671.610999999999 0.6198475360870361 -1.869678636590475 -1.6274299621582031 -1.2451211673072358 1.5599732398986816 0.23258225619792938 True False
11671.631 0.6198883652687073 -1.8719006977477015 -1.628037929534912 -1.2441390615752717 1.5599732398986816 0.23203866183757782 True False
11671.651 0.6198704242706299 -1.8739310703673304 -1.6284847259521484 -1.2431286138347168 1.5599812269210815 0.2314782440662384 True False
11671.671 0.6199164390563965 -1.8756853542723597 -1.628884196281433 -1.2422218185714264 1.5600172281265259 0.23106777667999268 True False
11671.690999999999 0.619997501373291 -1.8770719967284144 -1.6292599439620972 -1.2414987844279786 1.5599693059921265 0.23068289458751678 True False
11671.711 0.6199345588684082 -1.8782297573485316 -1.6295390129089355 -1.2409118574908753 1.5599573850631714 0.23040437698364258 True False
11671.731 0.6199672222137451 -1.8790976009764613 -1.6296899318695068 -1.2404527825168152 1.5600132942199707 0.23025734722614288 True False
11671.751 0.6199760437011719 -1.8796144924559535 -1.6298350095748901 -1.24022530139003 1.5599970817565918 0.23015856742858887 True False
11671.770999999999 0.6199581623077393 -1.880012651483053 -1.6298627853393555 -1.2400333446315308 1.560001015663147 0.23008212447166443 True False
11671.791 0.6200286149978638 -1.8799778423705042 -1.629866361618042 -1.2401133638671418 1.5600172281265259 0.23008504509925842 True False
11671.811 0.6199959516525269 -1.879897256890768 -1.6299121379852295 -1.2400933665088196 1.5600053071975708 0.23011963069438934 True False
11671.831 0.6200242042541504 -1.879930158654684 -1.629850149154663 -1.2400933367064972 1.5599970817565918 0.23009395599365234 True False
11671.850999999999 0.6200242042541504 -1.879982133904928 -1.6299508810043335 -1.2401055854609986 1.5599454641342163 0.23004603385925293 True False
11671.871 0.6200122237205505 -1.879909177819723 -1.6299060583114624 -1.2400615972331543 1.5600128173828125 0.2299772948026657 True False
11671.891 0.6200827956199646 -1.8800035915770472 -1.629966378211975 -1.2400455933860322 1.5599851608276367 0.22999517619609833 True False
11671.911 0.619949460029602 -1.879913946191305 -1.629922866821289 -1.2400059264949341 1.5599653720855713 0.23001934587955475 True False
11671.930999999999 0.6200745701789856 -1.8798662624754847 -1.6299909353256226 -1.2400333446315308 1.5599007606506348 0.2299833595752716 True False
11671.951 0.620019793510437 -1.8799573383727015 -1.629997730255127 -1.2400457125953217 1.559989094734192 0.22995026409626007 True False
11671.971 0.6200650334358215 -1.8799954853453578 -1.6299705505371094 -1.2400620144656678 1.5599812269210815 0.22995911538600922 True False
11671.991 0.619966447353363 -1.87998690227651 -1.6299943923950195 -1.24002559602771 1.5600088834762573 0.22995470464229584 True False
11672.010999999999 0.6200516819953918 -1.8799377880492152 -1.6299943923950195 -1.2400260430625458 1.560001015663147 0.22996097803115845 True False
11672.030999999999 0.6199796199798584 -1.879982133904928 -1.6299705505371094 -1.2399936777404328 1.5599175691604614 0.22995471954345703 True False
11672.051 0.6200436353683472 -1.8799993000426234 -1.630018711090088 -1.2399854224971314 1.560001015663147 0.22994855046272278 True False
11672.071 0.6199620962142944 -1.8799735508360804 -1.629957914352417 -1.2399813395789643 1.5599851608276367 0.22997108101844788 True False
11672.091 0.6199827790260315 -1.879982133904928 -1.629974126815796 -1.2399813395789643 1.5600171089172363 0.22992047667503357 True False
11672.110999999999 0.6199902296066284 -1.8799778423705042 -1.6299943923950195 -1.239957557325699 1.5600132942199707 0.22993679344654083 True False
11672.131 0.6200693249702454 -1.8799644909300746 -1.6299824714660645 -1.239985392694809 1.5599851608276367 0.22999517619609833 True False
11672.151 0.6200516223907471 -1.8799778423705042 -1.6299866437911987 -1.2399534446052094 1.5599769353866577 0.2299862802028656 True False
11672.171 0.6200284957885742 -1.8800097904601039 -1.6300146579742432 -1.2400296789458771 1.5599651336669922 0.22994862496852875 True False
11672.190999999999 0.6200004816055298 -1.8800112209715785 -1.6300348043441772 -1.2400214833072205 1.5599970817565918 0.2300070971250534 True False
11672.211 0.6199946999549866 -1.8799687824644984 -1.629969596862793 -1.240013675098755 1.560001015663147 0.2300836443901062 True False
11672.231 0.6200240850448608 -1.8799931011595667 -1.6300019025802612 -1.2399653655341645 1.5600134134292603 0.22998172044754028 True False
11672.251 0.6199871897697449 -1.8800260029234828 -1.6300272941589355 -1.2399772864631196 1.5600295066833496 0.22998471558094025 True False
11672.270999999999 0.6200197339057922 -1.8800770244994105 -1.6300030946731567 -1.2399776738933106 1.5599887371063232 0.23002827167510986 True False
11672.291 0.6200153827667236 -1.8800140819945277 -1.6300482749938965 -1.2400260132602234 1.5599888563156128 0.23006553947925568 True False
11672.311 0.6199871897697449 -1.8799597225584925 -1.6299781799316406 -1.2400296789458771 1.5600618124008179 0.2300267219543457 True False
11672.331 0.6200316548347473 -1.8799902401366175 -1.629978060722351 -1.2399772268584748 1.559981107711792 0.23001933097839355 True False
11672.350999999999 0.6200034618377686 -1.8800469837584437 -1.6300143003463745 -1.240017758016922 1.5599769353866577 0.22996988892555237 True False
11672.371 0.6199871897697449 -1.87998690227651 -1.6300674676895142 -1.2400255662253876 1.5600252151489258 0.22995196282863617 True False
11672.391 0.6200167536735535 -1.8797594509520472 -1.630043864250183 -1.240205095415451 1.5599929094314575 0.23003709316253662 True False
11672.411 0.6199796199798584 -1.8791290722289027 -1.6298866271972656 -1.240465210085251 1.5599970817565918 0.23017340898513794 True False
11672.430999999999 0.6200077533721924 -1.8783332310118617 -1.6296547651290894 -1.2408603590777894 1.5599892139434814 0.2305000275373459 True False
11672.451 0.6199672222137451 -1.877206941644186 -1.6294268369674683 -1.2414678198150177 1.560009241104126 0.23068569600582123 True False
11672.471 0.6199958920478821 -1.8757859669127406 -1.629090428352356 -1.242186651831009 1.5600011348724365 0.2310991734266281 True False
11672.491 0.6199509501457214 -1.8739825687804164 -1.6286927461624146 -1.243053452377655 1.559981107711792 0.23152178525924683 True False
11672.510999999999 0.6199596524238586 -1.872054239312643 -1.6281120777130127 -1.2440200609019776 1.5600011348724365 0.23205038905143738 True False
11672.530999999999 0.6199032664299011 -1.869758745233053 -1.6276410818099976 -1.2450619798949738 1.560009241104126 0.23259691894054413 True False
11672.551 0.619835615158081 -1.8671628437437953 -1.6269418001174927 -1.246408150797226 1.559944987297058 0.23321262001991272 True False
11672.571 0.6197662353515625 -1.864349981347555 -1.6261591911315918 -1.2478979092887421 1.5600135326385498 0.23389862477779388 True False
11672.591 0.6197530627250671 -1.861277242700094 -1.6253262758255005 -1.2494395238212128 1.560017466545105 0.23471513390541077 True False
11672.610999999999 0.6197067499160767 -1.8578936062254847 -1.6244035959243774 -1.2509568196586152 1.559969186782837 0.23553602397441864 True False
11672.631 0.6196779608726501 -1.8542248211302699 -1.6235615015029907 -1.25283436596904 1.5599368810653687 0.23647354543209076 True False
11672.651 0.6196553707122803 -1.8502584896483363 -1.6226131916046143 -1.2549915474704285 1.5599970817565918 0.23741404712200165 True False
11672.671 0.6195709705352783 -1.8460551700987757 -1.6216752529144287 -1.2569967073253174 1.559960961341858 0.2385091632604599 True False
11672.690999999999 0.6195547580718994 -1.8414889774718226 -1.6204917430877686 -1.2592130166343232 1.56002938747406 0.2396029233932495 True False
11672.770999999999 0.6192873120307922 -1.8207041225829066 -1.615295171737671 -1.2696763140014191 1.5599687099456787 0.2447839230298996 True False
11672.911 0.6187481880187988 -1.777355810204977 -1.604280710220337 -1.291323499088623 1.5600051879882812 0.2556866705417633 True False
11672.930999999999 0.618687093257904 -1.7717887363829554 -1.6027657985687256 -1.2939179104617615 1.559960961341858 0.25699374079704285 True False
11672.951 0.6185645461082458 -1.7666846714415492 -1.6015901565551758 -1.2967635256103058 1.559981107711792 0.25834426283836365 True False
11672.971 0.6185548901557922 -1.7618290386595667 -1.6005241870880127 -1.2992272239974518 1.56002938747406 0.25956588983535767 True False
11672.991 0.6185110211372375 -1.7570458851256312 -1.5992733240127563 -1.3014025551131745 1.5600134134292603 0.26073160767555237 True False
11673.010999999999 0.6184166073799133 -1.7525435886778773 -1.597995638847351 -1.3037386697581788 1.5600011348724365 0.26187196373939514 True False
11673.030999999999 0.618427574634552 -1.7484308681883753 -1.5970174074172974 -1.3057876986316224 1.5600053071975708 0.2628776431083679 True False
11673.051 0.6183671951293945 -1.7445680103697718 -1.5961785316467285 -1.307676987057068 1.5600411891937256 0.2638602554798126 True False
11673.071 0.6182701587677002 -1.7410198650755824 -1.5952322483062744 -1.3094266516021271 1.559969186782837 0.26478058099746704 True False
11673.091 0.6181888580322266 -1.7377950153746546 -1.5944734811782837 -1.311132476930954 1.5599969625473022 0.26555055379867554 True False
11673.110999999999 0.6181607246398926 -1.7348376713194789 -1.5938308238983154 -1.3126546305469056 1.5599929094314575 0.2663458287715912 True False
11673.131 0.6181900501251221 -1.732114931146139 -1.5930984020233154 -1.3138986986926575 1.56002938747406 0.26703333854675293 True False
11673.151 0.6181017756462097 -1.7295690975584925 -1.592464804649353 -1.3151658934405823 1.5599490404129028 0.26761022210121155 True False
11673.171 0.6180769205093384 -1.7274438343443812 -1.5918980836868286 -1.3164411944201966 1.5599846839904785 0.26817813515663147 True False
11673.190999999999 0.6180855631828308 -1.725600381890768 -1.5914247035980225 -1.3172577780536194 1.5600252151489258 0.2686169147491455 True False
11673.211 0.618057906627655 -1.723969121972555 -1.5909767150878906 -1.318083868627884 1.5599929094314575 0.26900315284729004 True False
11673.231 0.6180460453033447 -1.7225920162596644 -1.5906306505203247 -1.318646327858307 1.5600011348724365 0.2693389356136322 True False
11673.251 0.618066668510437 -1.7215615711607875 -1.590372085571289 -1.3192291122725983 1.5599888563156128 0.26967287063598633 True False
11673.270999999999 0.6180834174156189 -1.7207771740355433 -1.5901789665222168 -1.3196562987617035 1.5600252151489258 0.2697567939758301 True False
11673.291 0.6180341243743896 -1.7202383480467738 -1.5901530981063843 -1.3199000221541901 1.5600053071975708 0.2698797285556793 True False
11673.311 0.6179940700531006 -1.7200256786742152 -1.5900959968566895 -1.3198876839927216 1.5600134134292603 0.26984667778015137 True False
11673.331 0.6180179715156555 -1.720067640344137 -1.5901203155517578 -1.31985558689151 1.5600330829620361 0.2698827087879181 False False
11673.350999999999 0.6180179119110107 -1.7200585804381312 -1.5901039838790894 -1.319883571272232 1.5600374937057495 0.26985859870910645 False False
11673.371 0.6180202960968018 -1.720071931878561 -1.5900765657424927 -1.319887713795044 1.560009241104126 0.2699097990989685 False False
11673.391 0.6180191040039062 -1.7200848064818324 -1.5900558233261108 -1.319915847187378 1.5600495338439941 0.2700202465057373 False False
11673.411 0.6180102825164795 -1.7200380764403285 -1.5900572538375854 -1.3198917371085663 1.56002938747406 0.2699696123600006 False False
11673.430999999999 0.6180028319358826 -1.7200232944884242 -1.5900616645812988 -1.3199245792678376 1.5600134134292603 0.2700023651123047 False False
11673.451 0.617952823638916 -1.7200480900206507 -1.5900779962539673 -1.3199635607055207 1.5600134134292603 0.2699650824069977 False False
11673.471 0.6180191040039062 -1.720037122766012 -1.5900288820266724 -1.319939063196518 1.560009241104126 0.26999783515930176 False False
11673.491 0.6179602742195129 -1.7200151882567347 -1.5900081396102905 -1.319999710922577 1.5599769353866577 0.26999783515930176 False False
11673.510999999999 0.618030846118927 -1.720037122766012 -1.5900408029556274 -1.3200519543937226 1.5599929094314575 0.269972562789917 False False
11673.530999999999 0.6180145740509033 -1.7200290165343226 -1.5899838209152222 -1.3200603288463135 1.5599970817565918 0.27000564336776733 False False
11673.551 0.617981493473053 -1.720041414300436 -1.5899882316589355 -1.319978491669037 1.5600216388702393 0.26999783515930176 False False
11673.571 0.6179859638214111 -1.719957014123434 -1.590004563331604 -1.3200158339789887 1.560001015663147 0.27000564336776733 False False
11673.591 0.6180073618888855 -1.7200290165343226 -1.5900408029556274 -1.320011631851532 1.5600252151489258 0.2700220048427582 False False
11673.610999999999 0.6180440187454224 -1.7200123272337855 -1.5899910926818848 -1.320060358648636 1.5600050687789917 0.2699948847293854 False False
11673.631 0.6179973483085632 -1.7201234302916468 -1.590012550354004 -1.3200925451568146 1.560017466545105 0.27003541588783264 False False
11673.651 0.6180191040039062 -1.7199918232359828 -1.5900216102600098 -1.320019320850708 1.559960961341858 0.2700308859348297 False False
11673.671 0.6179729104042053 -1.719982763329977 -1.5900171995162964 -1.3199827832034607 1.5599727630615234 0.2700518071651459 False False
11673.690999999999 0.6180307865142822 -1.7199708424010218 -1.5900216102600098 -1.3200560969165345 1.5600134134292603 0.26998892426490784 False False
11673.711 0.6179983615875244 -1.7200037441649378 -1.5899838209152222 -1.3200637263110657 1.56002938747406 0.2699948847293854 False False
11673.731 0.6180102825164795 -1.720041414300436 -1.5899955034255981 -1.3199992340854187 1.5599727630615234 0.2700651288032532 False False
11673.751 0.618067741394043 -1.7200037441649378 -1.5900081396102905 -1.320019320850708 1.5599929094314575 0.2700023651123047 True False
11673.770999999999 0.6180028319358826 -1.7200080356993617 -1.590012550354004 -1.3200476330569764 1.5599851608276367 0.2700023651123047 True False
11673.791 0.6180167198181152 -1.7200366459288539 -1.5900378227233887 -1.3199828130057831 1.5599970817565918 0.2700279653072357 True False
11673.811 0.6180834174156189 -1.7199889622130335 -1.5900200605392456 -1.3199992042830964 1.56002938747406 0.2699814736843109 True False
11673.831 0.6181943416595459 -1.7200151882567347 -1.5900216102600098 -1.3200274270823975 1.5600134134292603 0.2699814736843109 True False
11673.850999999999 0.6183779239654541 -1.7199932537474574 -1.5900423526763916 -1.3200151783278962 1.5599970817565918 0.26998600363731384 True False
11673.871 0.6186788082122803 -1.719874998132223 -1.5900001525878906 -1.3199632626822968 1.5600134134292603 0.2700023651123047 True False
11673.891 0.6189587116241455 -1.7198058567442835 -1.590024471282959 -1.3200273972800751 1.5600334405899048 0.27001455426216125 True False
11673.911 0.6193549633026123 -1.7197944126524867 -1.5900721549987793 -1.320003167991974 1.5599851608276367 0.27004608511924744 True False
11673.930999999999 0.6200012564659119 -1.719696661035055 -1.5901427268981934 -1.32008712113414 1.5599970817565918 0.27019253373146057 True False
11673.951 0.6207454800605774 -1.719590803185934 -1.590271234512329 -1.320127324467041 1.5600051879882812 0.27027493715286255 True False
11673.971 0.6217663884162903 -1.7194467983641566 -1.5904510021209717 -1.3201913994601746 1.5599929094314575 0.2703261375427246 True False
11673.991 0.6229345798492432 -1.719217916528219 -1.590687870979309 -1.3202833992293854 1.5600453615188599 0.27041754126548767 True False
11674.010999999999 0.624487578868866 -1.7189651928343714 -1.5908945798873901 -1.3203180593303223 1.5600372552871704 0.2705416679382324 True False
11674.030999999999 0.6261791586875916 -1.7187582455077113 -1.5911965370178223 -1.3204349440387269 1.5600892305374146 0.27066895365715027 True False
11674.051 0.6282700300216675 -1.7185131512083949 -1.591459035873413 -1.3204859358123322 1.5600773096084595 0.27087292075157166 True False
11674.071 0.6308055520057678 -1.718156477014059 -1.591738224029541 -1.3206745845130463 1.5601578950881958 0.27106156945228577 True False
11674.091 0.6335753798484802 -1.7177316151061 -1.5922188758850098 -1.3207941812327881 1.5601692199707031 0.2713099420070648 True False
11674.110999999999 0.6366510391235352 -1.7172957859435023 -1.5925889015197754 -1.3209617894938965 1.5601974725723267 0.2715330719947815 True False
11674.350999999999 0.6954306364059448 -1.7087632618346156 -1.6013351678848267 -1.3238874238780518 1.560697078704834 0.2762935161590576 True False
11674.371 0.7021823525428772 -1.707740922967428 -1.6022266149520874 -1.324211211209633 1.5607811212539673 0.2768777906894684 True False
11674.391 0.7091014981269836 -1.7067262134947718 -1.603242039680481 -1.3245627147010346 1.560800552368164 0.27746501564979553 True False
11674.411 0.7163473963737488 -1.705759187737936 -1.6043931245803833 -1.3249209982207795 1.5608488321304321 0.2780478000640869 True False
11674.430999999999 0.7239745259284973 -1.7047015629210414 -1.6054699420928955 -1.3252808165601273 1.5609967708587646 0.27866771817207336 True False
11674.451 0.7318896055221558 -1.703479906121725 -1.6065917015075684 -1.3256520342877884 1.5610411167144775 0.27931150794029236 True False
11674.471 0.739812433719635 -1.702284952203268 -1.6078888177871704 -1.3261354577592392 1.5610644817352295 0.27995747327804565 True False
11674.491 0.7482516765594482 -1.7011033497252406 -1.6090662479400635 -1.3265783947757264 1.5611608028411865 0.2806702256202698 True False
11674.510999999999 0.7570458650588989 -1.6998816929259242 -1.6102333068847656 -1.3269058179906388 1.5612850189208984 0.2813848555088043 True False
11674.530999999999 0.7659480571746826 -1.6985413036742152 -1.6115036010742188 -1.32732446611438 1.5612841844558716 0.28203344345092773 True False
11674.551 0.7750342488288879 -1.6971870861449183 -1.612966775894165 -1.3277713817409058 1.5613927841186523 0.2828752100467682 True False
11674.571 0.7846472263336182 -1.6958304844298304 -1.6143608093261719 -1.328290955429413 1.561501145362854 0.2836422026157379 True False
11674.591 0.7944619059562683 -1.6943546734251917 -1.6156867742538452 -1.3287576150945206 1.5616570711135864 0.28440290689468384 True False
11674.610999999999 0.8044319152832031 -1.6928464374937953 -1.617007851600647 -1.329332874422409 1.5616446733474731 0.2852419912815094 True False
11674.631 0.8147635459899902 -1.6913472614684046 -1.6185592412948608 -1.3298835915378113 1.5617647171020508 0.2861456274986267 True False
11674.651 0.8255606293678284 -1.6899095974364222 -1.6201139688491821 -1.330402211552002 1.5619447231292725 0.28691959381103516 True False
11674.671 0.8363128304481506 -1.6882864437498988 -1.621691107749939 -1.3308972132257004 1.561956524848938 0.28781336545944214 True False
11674.690999999999 0.8474252223968506 -1.6866709194579066 -1.623382329940796 -1.3314643067172547 1.5620449781417847 0.2887335419654846 True False
11674.711 0.8590764403343201 -1.6849662266173304 -1.6248868703842163 -1.3319915992072602 1.562272548675537 0.2896871566772461 True False
11674.731 0.8707354068756104 -1.683291574517721 -1.6266530752182007 -1.3325740706971665 1.562288522720337 0.29065564274787903 True False
11674.751 0.8827378749847412 -1.6814905605711878 -1.6286031007766724 -1.3333008897355576 1.562333106994629 0.2916223406791687 True False
