Andreas691667/Digital_Twin_UR/src/controller_monitor/test_results/robot_output.csv
timestamp actual_q_0 actual_q_1 actual_q_2 actual_q_3 actual_q_4 actual_q_5 output_bit_register_65 output_bit_register_66
803.73 3.7120578289031982 -0.8255127829364319 0.8430083433734339 -1.588245531121725 -1.5707886854754847 2.1412720680236816 False False
803.75 3.7120816707611084 -0.8255128425410767 0.8429887930499476 -1.5883175335326136 -1.5707767645465296 2.14127516746521 False False
803.77 3.7120578289031982 -0.8254957360080262 0.842992130910055 -1.5882774792113246 -1.5708087126361292 2.141291618347168 False False
803.79 3.7120578289031982 -0.8254706424525757 0.8430169264422815 -1.588268896142477 -1.5707643667804163 2.141333818435669 False False
803.81 3.7120368480682373 -0.8255083721927186 0.8430126349078577 -1.5882288418211878 -1.5707810560809534 2.141263484954834 False False
803.8299999999999 3.7120816707611084 -0.8254497212222596 0.8430007139789026 -1.5882412395873011 -1.5708125273333948 2.141313076019287 False False
803.8499999999999 3.7120578289031982 -0.8254993718913575 0.8429887930499476 -1.588269372979635 -1.5707491079913538 2.141254425048828 False False
803.87 3.7120413780212402 -0.8255127829364319 0.8430007139789026 -1.588269372979635 -1.5707810560809534 2.141308546066284 False False
803.89 3.712062358856201 -0.8255246442607422 0.8430126349078577 -1.588245531121725 -1.5707724730121058 2.141263484954834 False False
803.91 3.712095022201538 -0.8254869741252442 0.8429759184466761 -1.5882412395873011 -1.5707967917071741 2.1412720680236816 False False
803.93 3.7120580673217773 -0.8255083721927186 0.8430169264422815 -1.5882898769774378 -1.5707886854754847 2.141247034072876 False False
803.9499999999999 3.712071180343628 -0.8255290550044556 0.8429716269122522 -1.5883013210692347 -1.5707610289203089 2.141270637512207 False False
803.9699999999999 3.712099552154541 -0.8254246276668091 0.8430255095111292 -1.5883013210692347 -1.5707886854754847 2.141279697418213 False False
803.99 3.712071180343628 -0.8254543107799073 0.8429678122149866 -1.5882412395873011 -1.5708125273333948 2.1412501335144043 False False
804.01 3.712071180343628 -0.8254869741252442 0.8429845015155237 -1.5882731876769007 -1.5708168188678187 2.141270875930786 False False
804.03 3.7120742797851562 -0.8254556220820923 0.8429878393756312 -1.5882731876769007 -1.5707929770099085 2.14132022857666 False False
804.05 3.7120535373687744 -0.8254869741252442 0.8429887930499476 -1.5882650814452113 -1.5707610289203089 2.141312837600708 False False
804.0699999999999 3.712062358856201 -0.8255089682391663 0.8430212179767054 -1.5882932148375453 -1.570756737385885 2.141312837600708 False False
804.0899999999999 3.7120697498321533 -0.8255127233317872 0.8429477850543421 -1.588245531121725 -1.5708335081683558 2.141230821609497 False False
804.11 3.712003707885742 -0.825463132267334 0.8429845015155237 -1.5882731876769007 -1.5708006064044397 2.1413004398345947 False False
804.13 3.712062358856201 -0.8255232137492676 0.8430450598346155 -1.5882731876769007 -1.5707843939410608 2.141275405883789 False False
804.15 3.712062358856201 -0.8255246442607422 0.8430050055133265 -1.5882731876769007 -1.5708206335650843 2.141317367553711 False False
804.17 3.7120697498321533 -0.8254468005946656 0.8429678122149866 -1.5882846317686976 -1.5707929770099085 2.141287088394165 False False
804.1899999999999 3.7120742797851562 -0.8254587215236207 0.8429878393756312 -1.588285585443014 -1.5708172957049769 2.1413259506225586 False False
804.2099999999999 3.712062358856201 -0.8254869145205994 0.8430331389056605 -1.588268896142477 -1.5708125273333948 2.141329288482666 False False
804.23 3.7120862007141113 -0.8254171174815674 0.8429635206805628 -1.5882569752135218 -1.5708168188678187 2.141329288482666 False False
804.25 3.71207857131958 -0.8254913848689576 0.8429606596576136 -1.5883094273009242 -1.570784870778219 2.141263484954834 False False
804.27 3.712120294570923 -0.8254706424525757 0.8429802099810999 -1.5883289776244105 -1.5708006064044397 2.141275405883789 False False
804.29 3.7121024131774902 -0.8255127233317872 0.8429802099810999 -1.5882607899107875 -1.570824925099508 2.1412665843963623 False False
804.31 3.712132215499878 -0.8254750531962891 0.8430007139789026 -1.5882774792113246 -1.5708168188678187 2.141247034072876 False False
804.3299999999999 3.7120490074157715 -0.8254882854274292 0.842992130910055 -1.588285585443014 -1.570772949849264 2.1413216590881348 False False
804.3499999999999 3.712078809738159 -0.825495795612671 0.8429964224444788 -1.5883413753905238 -1.5708206335650843 2.141279697418213 False False
804.37 3.7120742797851562 -0.8254082363894959 0.8429721037494105 -1.5882650814452113 -1.570829216633932 2.1413090229034424 False False
804.39 3.712045669555664 -0.8254675430110474 0.8429635206805628 -1.588285585443014 -1.5707967917071741 2.141267776489258 False False
804.41 3.712123394012451 -0.8254453104785462 0.8430007139789026 -1.5882569752135218 -1.5708373228656214 2.1413047313690186 False False
804.43 3.7121200561523438 -0.825511173611023 0.8429678122149866 -1.5882498226561488 -1.570768181477682 2.141317129135132 False False
804.4499999999999 3.712106943130493 -0.8254838150790711 0.8430212179767054 -1.5882774792113246 -1.5707724730121058 2.141270875930786 False False
804.4699999999999 3.7120697498321533 -0.8254380387118836 0.8430255095111292 -1.5882607899107875 -1.5707724730121058 2.141263484954834 False False
804.49 3.712050199508667 -0.8254171174815674 0.8429678122149866 -1.588245531121725 -1.5707810560809534 2.141282796859741 False False
804.51 3.712045669555664 -0.8254913848689576 0.8430092970477503 -1.588313718835348 -1.570784870778219 2.1412429809570312 False False
804.53 3.7120862007141113 -0.8254706424525757 0.8430083433734339 -1.588292738000387 -1.5707967917071741 2.141279697418213 False False
804.55 3.7120413780212402 -0.8255039614490052 0.8430007139789026 -1.588292738000387 -1.5707610289203089 2.1412720680236816 False False
804.5699999999999 3.712090492248535 -0.8254543107799073 0.8429973761187952 -1.5882889233031214 -1.5708006064044397 2.141295909881592 False False
804.5899999999999 3.7121024131774902 -0.8254794639400025 0.8430050055133265 -1.5882894001402796 -1.570772949849264 2.141275405883789 False False
804.61 3.7120819091796875 -0.825463132267334 0.8429721037494105 -1.5883008442320765 -1.5708211104022425 2.141267776489258 False False
804.63 3.7120935916900635 -0.8255156439593812 0.8429964224444788 -1.5882774792113246 -1.5707967917071741 2.141329050064087 False False
804.65 3.7120697498321533 -0.8254497212222596 0.8429802099810999 -1.5883051357665003 -1.5708211104022425 2.141312837600708 False False
804.67 3.7121188640594482 -0.8254957360080262 0.8430169264422815 -1.5883008442320765 -1.5707967917071741 2.141275405883789 False False
804.6899999999999 3.7120654582977295 -0.8255002063563843 0.8429845015155237 -1.5883132419981898 -1.5707691351519983 2.141251564025879 False False
804.7099999999999 3.712062358856201 -0.8254823845675965 0.8429477850543421 -1.5882851086058558 -1.5708168188678187 2.141317129135132 False False
804.73 3.7120819091796875 -0.8254587215236207 0.8429802099810999 -1.58825745205068 -1.5708211104022425 2.1413002014160156 False False
804.75 3.7120580673217773 -0.8255068820765992 0.8430050055133265 -1.5883213482298792 -1.570813004170553 2.141295909881592 False False
804.77 3.7120208740234375 -0.8254587215236207 0.8430083433734339 -1.5882569752135218 -1.5707767645465296 2.1412546634674072 False False
804.79 3.712045669555664 -0.8255001467517395 0.8429434935199183 -1.588229318658346 -1.5708015600787562 2.141295909881592 False False
804.81 3.712095022201538 -0.8254587215236207 0.8429802099810999 -1.588245531121725 -1.570784870778219 2.1413300037384033 False False
804.8299999999999 3.7120773792266846 -0.825463132267334 0.8429716269122522 -1.5882617435851039 -1.5707805792437952 2.1413440704345703 False False
804.8499999999999 3.7120535373687744 -0.8254707020572205 0.8429678122149866 -1.5882774792113246 -1.5707810560809534 2.1413333415985107 False False
804.87 3.7121024131774902 -0.8254838746837159 0.842992130910055 -1.588292738000387 -1.5707524458514612 2.141251564025879 False False
804.89 3.7120699882507324 -0.825463132267334 0.8429396788226526 -1.5883051357665003 -1.5707891623126429 2.141275405883789 False False
804.91 3.7120819091796875 -0.8254823845675965 0.8429802099810999 -1.588245531121725 -1.570784870778219 2.1413333415985107 False False
804.93 3.7120862007141113 -0.825495795612671 0.8429268042193812 -1.5882612667479457 -1.5707772413836878 2.1413040161132812 False False
804.9499999999999 3.7120654582977295 -0.825495795612671 0.8430040518390101 -1.5882932148375453 -1.5707886854754847 2.141263484954834 False False
804.9699999999999 3.712106943130493 -0.8254423898509522 0.8429759184466761 -1.5882607899107875 -1.5707724730121058 2.1412720680236816 False False
804.99 3.7120742797851562 -0.8255202931216736 0.8430050055133265 -1.588297029534811 -1.5707605520831507 2.1412839889526367 False False
805.01 3.712090492248535 -0.8254246276668091 0.8429845015155237 -1.5882250271239222 -1.5707886854754847 2.141267776489258 False False
805.03 3.712095022201538 -0.8254869741252442 0.8429759184466761 -1.5883170566954554 -1.57074481645693 2.1412839889526367 False False
805.05 3.7120862007141113 -0.8254913848689576 0.8430169264422815 -1.5882650814452113 -1.5707486311541956 2.14125919342041 False False
805.0699999999999 3.712106704711914 -0.8254913848689576 0.8430050055133265 -1.588285585443014 -1.570813004170553 2.141275405883789 False False
805.0899999999999 3.7120862007141113 -0.8254913848689576 0.8429759184466761 -1.5883251629271449 -1.5707686583148401 2.1412839889526367 False False
805.11 3.712062358856201 -0.8254957360080262 0.8429635206805628 -1.588313718835348 -1.5707967917071741 2.1412925720214844 False False
805.13 3.7120656967163086 -0.8255291146091004 0.8429721037494105 -1.5882774792113246 -1.5707686583148401 2.1412925720214844 False False
805.15 3.7120871543884277 -0.8254949611476441 0.8429845015155237 -1.5882774792113246 -1.5707925001727503 2.14132022857666 False False
805.17 3.7120494842529297 -0.825445370083191 0.8429678122149866 -1.5883094273009242 -1.5707805792437952 2.1413002014160156 False False
805.1899999999999 3.7120742797851562 -0.825463132267334 0.8429845015155237 -1.5882412395873011 -1.5707925001727503 2.1413333415985107 False False
805.2099999999999 3.7121152877807617 -0.8254587811282654 0.8430212179767054 -1.5882817707457484 -1.5708211104022425 2.141291618347168 False False
805.23 3.7120776176452637 -0.8254543107799073 0.8429887930499476 -1.5882731876769007 -1.5708211104022425 2.1412839889526367 False False
805.25 3.7120296955108643 -0.8254993718913575 0.8430007139789026 -1.5882889233031214 -1.5707605520831507 2.1412384510040283 False False
805.27 3.712062358856201 -0.8254869741252442 0.8430007139789026 -1.588297029534811 -1.5708048979388636 2.141312837600708 False False
805.29 3.7120494842529297 -0.8255290550044556 0.8430460135089319 -1.5882207355894984 -1.570801083241598 2.1412839889526367 False False
805.31 3.712106704711914 -0.8254543107799073 0.8429878393756312 -1.588285585443014 -1.5707686583148401 2.141317129135132 False False
805.3299999999999 3.712110996246338 -0.8254913848689576 0.8429845015155237 -1.5882846317686976 -1.570813004170553 2.1412546634674072 False False
805.3499999999999 3.7120537757873535 -0.8255039614490052 0.8429845015155237 -1.5883251629271449 -1.5708168188678187 2.1412839889526367 False False
805.37 3.7120862007141113 -0.8254779738238831 0.8429930845843714 -1.5882731876769007 -1.57074481645693 2.141275405883789 False False
805.39 3.7120981216430664 -0.8254913252643128 0.8430126349078577 -1.5882932148375453 -1.570853058491842 2.141287088394165 False False
805.41 3.7120981216430664 -0.8254751128009339 0.8430092970477503 -1.5882889233031214 -1.570824925099508 2.141295909881592 False False
805.43 3.71207857131958 -0.8254380387118836 0.8429635206805628 -1.5882812939085902 -1.5708254019366663 2.1412222385406494 False False
805.4499999999999 3.7121024131774902 -0.8254348796657105 0.8429845015155237 -1.5883094273009242 -1.5707805792437952 2.141251564025879 False False
805.4699999999999 3.7120254039764404 -0.8254380387118836 0.8429802099810999 -1.5883251629271449 -1.5707562605487269 2.1413002014160156 False False
805.49 3.712094783782959 -0.8255202335170289 0.8429887930499476 -1.5882774792113246 -1.570784870778219 2.1413002014160156 False False
805.51 3.712099313735962 -0.8254334491542359 0.8429845015155237 -1.588285585443014 -1.5707605520831507 2.1413214206695557 False False
805.53 3.712062358856201 -0.8254543107799073 0.8429353872882288 -1.5882846317686976 -1.5708006064044397 2.141312837600708 False False
805.55 3.7121198177337646 -0.8255039614490052 0.8429563681231897 -1.5882774792113246 -1.5707805792437952 2.141317129135132 False False
805.5699999999999 3.712066650390625 -0.825437919502594 0.8429964224444788 -1.5883051357665003 -1.5707405249225062 2.141329050064087 False False
805.5899999999999 3.712094783782959 -0.8254587215236207 0.8429802099810999 -1.5882889233031214 -1.5707886854754847 2.1412839889526367 False False
805.61 3.712050199508667 -0.8254304689219971 0.8429964224444788 -1.5882536373534144 -1.570784870778219 2.141295909881592 False False
805.63 3.712101459503174 -0.8254869145205994 0.8429964224444788 -1.588269372979635 -1.5707529226886194 2.141251564025879 False False
805.65 3.7120449542999268 -0.8254423898509522 0.8429887930499476 -1.5882650814452113 -1.570784870778219 2.1412341594696045 False False
805.67 3.712106704711914 -0.8255039614490052 0.8430212179767054 -1.5882932148375453 -1.5707925001727503 2.141258955001831 False False
805.6899999999999 3.712052583694458 -0.8254993718913575 0.8429845015155237 -1.5882774792113246 -1.5708416144000452 2.141263246536255 False False
805.7099999999999 3.71207857131958 -0.8254423898509522 0.8429930845843714 -1.5882889233031214 -1.5707686583148401 2.141242504119873 False False
805.73 3.712090492248535 -0.8254869741252442 0.842992130910055 -1.5883413753905238 -1.570772949849264 2.141284227371216 False False
805.75 3.712066650390625 -0.8255172532847901 0.8429635206805628 -1.588280817071432 -1.5707767645465296 2.141263246536255 False False
805.77 3.7120819091796875 -0.8254869741252442 0.8429930845843714 -1.5883056126036585 -1.5707724730121058 2.141258955001831 False False
805.81 3.7120537757873535 -0.8254838746837159 0.8429721037494105 -1.5882288418211878 -1.570801083241598 2.141284227371216 False False
805.8299999999999 3.7120537757873535 -0.8254659932902833 0.8430007139789026 -1.5882774792113246 -1.5707967917071741 2.141279697418213 False False
805.8499999999999 3.7120537757873535 -0.825425998573639 0.8429635206805628 -1.5882569752135218 -1.5707891623126429 2.141247034072876 False False
805.87 3.7120862007141113 -0.8255090874484559 0.8429434935199183 -1.588245531121725 -1.570784870778219 2.141329526901245 False False
805.89 3.7120742797851562 -0.8254543107799073 0.8429930845843714 -1.5882774792113246 -1.5707925001727503 2.14127516746521 False False
805.91 3.7120742797851562 -0.8254392904094239 0.8429845015155237 -1.588285585443014 -1.5707486311541956 2.141313076019287 False False
805.93 3.7120537757873535 -0.8255172532847901 0.8429678122149866 -1.588268896142477 -1.5708048979388636 2.141249895095825 False False
805.9499999999999 3.71207857131958 -0.8254838746837159 0.8429196516620081 -1.5882412395873011 -1.570829216633932 2.141313076019287 False False
805.9699999999999 3.7120862007141113 -0.8254408997348328 0.8429845015155237 -1.5882817707457484 -1.5707686583148401 2.141279697418213 False False
805.99 3.7120819091796875 -0.825488345032074 0.8430050055133265 -1.5882731876769007 -1.5708211104022425 2.141279697418213 False False
806.01 3.7120871543884277 -0.8254838746837159 0.8430083433734339 -1.5882650814452113 -1.570784870778219 2.141308546066284 False False
806.03 3.7120699882507324 -0.8254913848689576 0.8429759184466761 -1.5882650814452113 -1.570829216633932 2.14127516746521 False False
806.05 3.712090492248535 -0.8254543107799073 0.8429845015155237 -1.588245531121725 -1.5707805792437952 2.1412527561187744 False False
806.0699999999999 3.712062358856201 -0.825495795612671 0.8429964224444788 -1.588297029534811 -1.570801083241598 2.14123797416687 False False
806.0899999999999 3.712106704711914 -0.8254543107799073 0.842959229146139 -1.5883175335326136 -1.5708168188678187 2.141270637512207 False False
806.11 3.71207857131958 -0.8254379791072388 0.8429759184466761 -1.5883013210692347 -1.5707605520831507 2.141308546066284 False False
806.13 3.7120580673217773 -0.8255171936801453 0.8429763952838343 -1.5882579288878382 -1.5708211104022425 2.141296148300171 False False
806.15 3.712050199508667 -0.8254587215236207 0.8429754416095179 -1.5882731876769007 -1.5707686583148401 2.141284227371216 False False
806.17 3.71207857131958 -0.8254913848689576 0.8430083433734339 -1.5882369480528773 -1.5707929770099085 2.141258955001831 False False
806.1899999999999 3.7120494842529297 -0.8254913848689576 0.8429515997516077 -1.588285585443014 -1.570784870778219 2.141258955001831 True False
806.2099999999999 3.7120211124420166 -0.8254468005946656 0.8429515997516077 -1.5882607899107875 -1.5707886854754847 2.1412572860717773 True False
806.23 3.712082862854004 -0.825495795612671 0.8429845015155237 -1.5882774792113246 -1.5708654562579554 2.1412723064422607 True False
806.25 3.712045907974243 -0.8255291742137452 0.8429802099810999 -1.5882817707457484 -1.57074481645693 2.141279697418213 True False
806.27 3.7120254039764404 -0.8254720729640503 0.8430126349078577 -1.5882569752135218 -1.570801083241598 2.14131760597229 True False
806.29 3.71207857131958 -0.8254348796657105 0.8429802099810999 -1.588297029534811 -1.570756737385885 2.141279697418213 True False
806.31 3.712062358856201 -0.8254423898509522 0.8430126349078577 -1.5882817707457484 -1.5707648436175745 2.1412930488586426 True False
806.3299999999999 3.7120862007141113 -0.8255157035640259 0.8430379072772425 -1.588381906548971 -1.570801083241598 2.141284227371216 True False
806.3499999999999 3.712223768234253 -0.8254904907992859 0.8430684248553675 -1.5883013210692347 -1.5708048979388636 2.1413681507110596 True False
806.37 3.712402105331421 -0.8256146472743531 0.8432963530169886 -1.5883451900877894 -1.5708168188678187 2.1416444778442383 True False
806.39 3.712745189666748 -0.8258107465556641 0.843579117451803 -1.5883923969664515 -1.5708048979388636 2.141878604888916 True False
806.41 3.713047504425049 -0.8260923785022278 0.8438995520221155 -1.588600297967428 -1.5707805792437952 2.1421520709991455 True False
806.43 3.7134294509887695 -0.8264334958842774 0.8442662397967737 -1.5887681446471156 -1.5708325544940394 2.142554521560669 True False
806.4499999999999 3.713853120803833 -0.8267973822406312 0.8448894659625452 -1.588879724542135 -1.5708044211017054 2.142963171005249 True False
806.4699999999999 3.714399814605713 -0.8271970313838501 0.8454569021808069 -1.58905090908193 -1.570813004170553 2.143596649169922 True False
806.49 3.7150256633758545 -0.827749566440918 0.8462131659137171 -1.5892144642271937 -1.5707967917071741 2.144247055053711 True False
806.51 3.715756416320801 -0.8283371490291138 0.8470967451678675 -1.5893813572325648 -1.5708087126361292 2.144925594329834 True False
806.53 3.716499090194702 -0.829011933212616 0.847945515309469 -1.5897451839842738 -1.5707805792437952 2.14571213722229 True False
806.55 3.717376708984375 -0.8297384542277833 0.8490093390094202 -1.5899564228453578 -1.5707805792437952 2.146493434906006 True False
806.5699999999999 3.7182705402374268 -0.830467478638031 0.8501008192645472 -1.5902825794615687 -1.5707972685443323 2.147446870803833 True False
806.5899999999999 3.7192065715789795 -0.8312981289676209 0.8511880079852503 -1.5905786953368128 -1.5707686583148401 2.148420572280884 True False
806.61 3.7203309535980225 -0.8322433990291138 0.8523781935321253 -1.5909606419005335 -1.5708211104022425 2.1494932174682617 True False
806.63 3.7214243412017822 -0.833179311161377 0.8536899725543421 -1.591395994225973 -1.5707843939410608 2.150684356689453 True False
806.65 3.7226295471191406 -0.8342730563930054 0.8550766150103968 -1.5917474232115687 -1.5707967917071741 2.1519017219543457 True False
806.67 3.7239322662353516 -0.8352657717517395 0.856549088154928 -1.5920974216856898 -1.5708048979388636 2.1531243324279785 True False
806.6899999999999 3.7253024578094482 -0.8363273304751893 0.8581145445453089 -1.5925594768919886 -1.5708335081683558 2.154522657394409 True False
806.7099999999999 3.7268178462982178 -0.8374654811671753 0.8597191015826624 -1.592966218987936 -1.570784870778219 2.1559834480285645 True False
806.73 3.728281021118164 -0.838737503891327 0.8614533583270472 -1.5934697590269984 -1.5708048979388636 2.15750789642334 True False
806.75 3.7298755645751953 -0.8400554221919556 0.8633220831500452 -1.5939680538573207 -1.5707925001727503 2.159071683883667 True False
806.77 3.731519937515259 -0.8414780658534546 0.8653038183795374 -1.5945059261717738 -1.5707967917071741 2.160806179046631 True False
806.79 3.733264446258545 -0.8428891462138672 0.8671372572528284 -1.5950800381102503 -1.5707686583148401 2.162492513656616 True False
806.81 3.735032796859741 -0.8444180649570008 0.86920673051943 -1.5956336460509242 -1.5707648436175745 2.1642673015594482 True False
806.8299999999999 3.7370078563690186 -0.8459133070758362 0.871380631123678 -1.5961843929686488 -1.5707891623126429 2.1661345958709717 True False
806.8499999999999 3.7390449047088623 -0.8474483054927369 0.8736932913409632 -1.5968266926207484 -1.5707805792437952 2.168152332305908 True False
806.87 3.7410404682159424 -0.8491735023311158 0.8760235945331019 -1.597476144830221 -1.5707767645465296 2.1701509952545166 True False
806.89 3.743117570877075 -0.8510005635074158 0.8784249464618128 -1.5982333622374476 -1.5708568731891077 2.172269582748413 True False
806.91 3.7452738285064697 -0.8527921599200745 0.8809798399554651 -1.598915239373678 -1.5708048979388636 2.174406051635742 True False
806.93 3.747572183609009 -0.8547150653651734 0.8835457007037562 -1.5996457539000453 -1.5707772413836878 2.1767022609710693 True False
806.9499999999999 3.7498421669006348 -0.8567131918719788 0.8861387411700647 -1.6003152332701625 -1.5708048979388636 2.1790363788604736 True False
806.9699999999999 3.7522354125976562 -0.8586347860148926 0.8888133207904261 -1.6011325321593226 -1.570784870778219 2.1813979148864746 True False
806.99 3.7546732425689697 -0.8606355947307129 0.8917196432696741 -1.601865907708639 -1.5708487669574183 2.183974504470825 True False
807.01 3.7572388648986816 -0.8626155418208619 0.8946808020221155 -1.602703710595602 -1.5708368460284632 2.186485767364502 True False
807.03 3.759892463684082 -0.8648318213275452 0.8977621237384241 -1.6035009823241175 -1.5707648436175745 2.1891539096832275 True False
807.05 3.7626399993896484 -0.867072657947876 0.9007356802569788 -1.6044017277159632 -1.5707605520831507 2.191854476928711 True False
807.0699999999999 3.7654449939727783 -0.8694091600230713 0.9039014021502894 -1.6053902111449183 -1.5707805792437952 2.194601535797119 True False
807.0899999999999 3.768296241760254 -0.8717493575862427 0.9072797934161585 -1.6062761745848597 -1.5708048979388636 2.1974291801452637 True False
807.11 3.7712221145629883 -0.8741058272174378 0.9106009642230433 -1.6072012386717738 -1.5707967917071741 2.2003657817840576 True False
807.13 3.774221420288086 -0.8766139906695862 0.9140828291522425 -1.6080461941161097 -1.570813004170553 2.2033300399780273 True False
807.15 3.777223587036133 -0.8791440290263672 0.9174912611590784 -1.6090427837767542 -1.570784870778219 2.206397771835327 True False
807.17 3.7803969383239746 -0.8817842763713379 0.9210494200335901 -1.6100074253477992 -1.5708254019366663 2.209620237350464 True False
807.1899999999999 3.7835803031921387 -0.8844307225993653 0.9247077147113245 -1.6111122570433558 -1.5707929770099085 2.2128758430480957 True False
807.2099999999999 3.7869045734405518 -0.8871258062175293 0.9285491148578089 -1.6122366390623988 -1.5708416144000452 2.216130495071411 True False
807.23 3.790269136428833 -0.8898542088321229 0.9323399702655237 -1.6133128605284632 -1.570801083241598 2.2195427417755127 True False
807.25 3.7937891483306885 -0.8927788895419617 0.9362600485431116 -1.614366193810934 -1.5708006064044397 2.2230191230773926 True False
807.27 3.797342538833618 -0.8956187528422852 0.9403508345233362 -1.6154457531371058 -1.570784870778219 2.226475238800049 True False
807.29 3.800915479660034 -0.8986396354487916 0.9444931189166468 -1.6165830097594203 -1.5707886854754847 2.2300384044647217 True False
807.31 3.8045806884765625 -0.9016685646823426 0.9487398306476038 -1.617763181725973 -1.5708368460284632 2.233757495880127 True False
807.3299999999999 3.8082869052886963 -0.9046058815768738 0.9529441038714808 -1.6190434894957484 -1.5707805792437952 2.2374563217163086 True False
807.3499999999999 3.812039852142334 -0.9078377050212403 0.9572637716876429 -1.6203390560545863 -1.5708211104022425 2.241241931915283 True False
807.37 3.815955638885498 -0.9110591572574158 0.9617012182818812 -1.6214624843993128 -1.5707686583148401 2.2452239990234375 True False
807.39 3.8199169635772705 -0.9142736953547974 0.9662311712848108 -1.6227060757079066 -1.5708087126361292 2.2491886615753174 True False
807.41 3.8239989280700684 -0.9175791305354615 0.9709256331073206 -1.6239620647826136 -1.570829216633932 2.2532806396484375 True False
807.43 3.828219413757324 -0.9209939998439332 0.9756754080401819 -1.6253229580321253 -1.570801083241598 2.2573845386505127 True False
807.4499999999999 3.832369565963745 -0.9244796198657532 0.9804032484637659 -1.6267696819701136 -1.5707767645465296 2.2615017890930176 True False
807.4699999999999 3.8367042541503906 -0.9280129236033936 0.9852202574359339 -1.6280695400633753 -1.5708654562579554 2.2657253742218018 True False
807.49 3.8409409523010254 -0.9316084545901795 0.9901178518878382 -1.6294094524779261 -1.5707810560809534 2.2700283527374268 True False
807.51 3.845205068588257 -0.9352459472468873 0.9951742331134241 -1.6307856045165003 -1.5708335081683558 2.2745344638824463 True False
807.53 3.8496878147125244 -0.9389527601054688 1.0004022757159632 -1.6322132549681605 -1.5707724730121058 2.279060125350952 True False
807.55 3.854372024536133 -0.9426269692233582 1.0057171026812952 -1.6338125667967738 -1.5707443396197718 2.2836294174194336 True False
807.5699999999999 3.859133720397949 -0.9464022082141419 1.0110200087176722 -1.6352111301817835 -1.570772949849264 2.2882943153381348 True False
807.5899999999999 3.8639016151428223 -0.9502705496600647 1.0163300673114222 -1.6366507015623988 -1.5708335081683558 2.2928824424743652 True False
807.61 3.868659019470215 -0.9543193143657227 1.0217002073871058 -1.63812317470693 -1.5708211104022425 2.297713041305542 True False
807.63 3.873520851135254 -0.9583387535861512 1.0272725264178675 -1.639750143090719 -1.5707967917071741 2.3026368618011475 True False
807.65 3.878277063369751 -0.9623299402049561 1.03294545808901 -1.6414090595641078 -1.5707967917071741 2.307544231414795 True False
807.67 3.8831636905670166 -0.9665209811976929 1.0387304464923304 -1.6429158649840296 -1.5708335081683558 2.312603712081909 True False
807.6899999999999 3.8884084224700928 -0.9705910247615357 1.0445464293109339 -1.6445518932738246 -1.5708487669574183 2.317660093307495 True False
807.7099999999999 3.8936660289764404 -0.9748426240733643 1.050434414540426 -1.646130224267477 -1.5707648436175745 2.3227715492248535 True False
807.73 3.8988847732543945 -0.979161874657013 1.0562828222857874 -1.6480332813658656 -1.5707929770099085 2.3279812335968018 True False
807.75 3.904168128967285 -0.9835956257632752 1.0623295942889612 -1.649572034875387 -1.570784870778219 2.333265542984009 True False
807.77 3.9094302654266357 -0.9880161446383973 1.0686176458941858 -1.6512910328307093 -1.570829216633932 2.3387081623077393 True False
807.79 3.914931535720825 -0.9924760621837159 1.0748994986163538 -1.6530186138548792 -1.570813004170553 2.344200849533081 True False
807.81 3.9204659461975098 -0.997041181927063 1.0810959974872034 -1.654980321923727 -1.5707324186908167 2.349780321121216 True False
807.8299999999999 3.926117420196533 -1.0017146629146119 1.0873759428607386 -1.6566101513304652 -1.570801083241598 2.3553194999694824 True False
807.8499999999999 3.9318552017211914 -1.0063786071589966 1.0938728491412562 -1.6585012874998988 -1.5707686583148401 2.3608815670013428 True False
807.87 3.93756103515625 -1.011074499492981 1.1006434599505823 -1.6601997814574183 -1.5707767645465296 2.3666937351226807 True False
807.89 3.943270444869995 -1.0158198040774842 1.1072796026812952 -1.662133356133932 -1.5707362333880823 2.372573137283325 True False
807.91 3.949209451675415 -1.0206945699504395 1.1139605681048792 -1.663964410821432 -1.570801083241598 2.378509283065796 True False
807.93 3.9552292823791504 -1.025690571670868 1.1207674185382288 -1.665915151635641 -1.5707925001727503 2.3844661712646484 True False
807.9499999999999 3.961347818374634 -1.0307583969882508 1.1276820341693323 -1.667868276635641 -1.570801083241598 2.3903932571411133 True False
807.9699999999999 3.9673514366149902 -1.0356986087611695 1.1348097960101526 -1.6698352299132289 -1.570829216633932 2.396543025970459 True False
807.99 3.9735474586486816 -1.0406945508769532 1.1418374220477503 -1.671765466729635 -1.570784870778219 2.402846097946167 True False
808.01 3.9798431396484375 -1.0459285539439698 1.1489484945880335 -1.6737472019591273 -1.5707686583148401 2.409167766571045 True False
808.03 3.9862747192382812 -1.0511348408511658 1.1561511198626917 -1.675948282281393 -1.570824925099508 2.415438175201416 True False
808.05 3.992751121520996 -1.0564815563014527 1.1636408011065882 -1.6778580150999964 -1.5707967917071741 2.421840190887451 True False
808.0699999999999 3.9992477893829346 -1.0617205065539856 1.1710813681231897 -1.6798202000060023 -1.570784870778219 2.4282679557800293 True False
808.0899999999999 4.00566291809082 -1.0671658676913758 1.1785491148578089 -1.682089468041891 -1.5708044211017054 2.4349658489227295 True False
808.11 4.012265682220459 -1.0727924865535279 1.1859396139727991 -1.6842228374876917 -1.5707724730121058 2.4415781497955322 True False
808.13 4.019180774688721 -1.078237609272339 1.1937692801104944 -1.6862560711302699 -1.5708335081683558 2.448317766189575 True False
808.15 4.0259857177734375 -1.083745465879776 1.201700512562887 -1.6884666881956996 -1.570784870778219 2.454922676086426 True False
808.17 4.032714366912842 -1.0893554550460358 1.2094104925738733 -1.690775533715719 -1.570784870778219 2.4619545936584473 True False
808.1899999999999 4.03956413269043 -1.0952670139125367 1.2171490828143519 -1.6928774319090785 -1.5707805792437952 2.468930721282959 True False
808.2099999999999 4.04671049118042 -1.1011107128909607 1.2253153959857386 -1.6951433620848597 -1.570784870778219 2.4759714603424072 True False
808.23 4.0538787841796875 -1.1067154866508027 1.2335055510150355 -1.6974646053709925 -1.570824925099508 2.482952833175659 True False
808.25 4.060975551605225 -1.1126012963107605 1.2416389624225062 -1.699634691277975 -1.570772949849264 2.4901347160339355 True False
808.27 4.067968368530273 -1.1186161202243348 1.2497041861163538 -1.7019039593138636 -1.570829216633932 2.4973347187042236 True False
808.29 4.075097560882568 -1.124609337454178 1.2579224745379847 -1.704329629937643 -1.5707925001727503 2.5044524669647217 True False
808.31 4.082450866699219 -1.1304113429835816 1.2662318388568323 -1.706388612786764 -1.5707767645465296 2.511547327041626 True False
808.3299999999999 4.089649677276611 -1.1361873608878632 1.2743924299823206 -1.7087542019286097 -1.5707967917071741 2.5185835361480713 True False
808.3499999999999 4.096633434295654 -1.1420914393714447 1.2822397390948694 -1.711175104180807 -1.5707767645465296 2.5259194374084473 True False
808.37 4.103662967681885 -1.148147926931717 1.290607754384176 -1.7132727108397425 -1.570857350026266 2.5331013202667236 True False
808.39 4.11099910736084 -1.1538862448981781 1.2988513151751917 -1.7154871426024378 -1.570801083241598 2.5402488708496094 True False
808.41 4.118292331695557 -1.1597489279559632 1.3069198767291468 -1.7180644474425257 -1.5707805792437952 2.547264337539673 True False
808.43 4.125265121459961 -1.165737972860672 1.3148768583880823 -1.7202660046019496 -1.5707891623126429 2.5544707775115967 True False
808.4499999999999 4.132326602935791 -1.171649770145752 1.3233373800860804 -1.7224518261351527 -1.5707605520831507 2.561643123626709 True False
808.4699999999999 4.139492511749268 -1.1771823030761261 1.3315122763263147 -1.724717756310934 -1.570784870778219 2.568887948989868 True False
808.49 4.146731853485107 -1.1832395952991028 1.339653793965475 -1.7270075283446253 -1.5707805792437952 2.575892686843872 True False
808.51 4.153933048248291 -1.1893508595279236 1.3475812117206019 -1.7294370136656703 -1.5708487669574183 2.582902431488037 True False
808.53 4.160947799682617 -1.1951659482768555 1.3559492270099085 -1.731654783288473 -1.5708487669574183 2.590263843536377 True False
808.55 4.1680684089660645 -1.2008035641959687 1.3641064802752894 -1.733788629571432 -1.570841137562887 2.597468376159668 True False
808.5699999999999 4.175334930419922 -1.2067624491504212 1.3722928206073206 -1.7360378704466761 -1.570784870778219 2.6045608520507812 True False
808.5899999999999 4.1826171875 -1.212860719566681 1.3802922407733362 -1.738687654534811 -1.5708087126361292 2.6115634441375732 True False
808.61 4.189558982849121 -1.2187976998141785 1.3887127081500452 -1.7407175503172816 -1.5707925001727503 2.618804931640625 True False
808.63 4.19659423828125 -1.2244481903365632 1.3968351523028772 -1.7429114780821742 -1.5708449522601526 2.6259570121765137 True False
808.65 4.203916549682617 -1.2303169530681153 1.404860798512594 -1.74538054088735 -1.5707925001727503 2.633197546005249 True False
808.67 4.211180686950684 -1.236275778417923 1.4129579702960413 -1.7476941547789515 -1.5708091894732874 2.6402227878570557 True False
808.6899999999999 4.218268871307373 -1.2421933871558686 1.4213984648333948 -1.7496959171690882 -1.5708368460284632 2.647367000579834 True False
808.7099999999999 4.225227355957031 -1.247961239223816 1.4294613043414515 -1.7522417507567347 -1.5707934538470667 2.6546318531036377 True False
808.73 4.232429027557373 -1.2540284556201478 1.4374187628375452 -1.7544180355467738 -1.5708168188678187 2.661738872528076 True False
808.75 4.23976469039917 -1.2599343222430726 1.4457853476153772 -1.75671448330068 -1.5707925001727503 2.668872833251953 True False
808.77 4.246901035308838 -1.2656966906837006 1.454085652028219 -1.759019514123434 -1.570784870778219 2.675976276397705 True False
808.79 4.253962993621826 -1.2714941960624238 1.4621790091144007 -1.7612878284850062 -1.5707600752459925 2.683148145675659 True False
808.81 4.260993003845215 -1.2775107783130188 1.470076862965719 -1.7635365925230921 -1.5707767645465296 2.6903433799743652 True False
808.8299999999999 4.268247127532959 -1.283513919716217 1.478452507649557 -1.7659808597960414 -1.5708211104022425 2.6974809169769287 True False
808.8499999999999 4.27549934387207 -1.2892357271960755 1.4867752234088343 -1.768034120599264 -1.570801083241598 2.7045140266418457 True False
808.87 4.282492160797119 -1.295076147919037 1.4948504606830042 -1.7703906498351039 -1.5708172957049769 2.711738348007202 True False
808.89 4.289616107940674 -1.300964133148529 1.5027063528644007 -1.7728454075255335 -1.5708006064044397 2.7189714908599854 True False
808.91 4.296875476837158 -1.306924508219101 1.5111396948443812 -1.7749554119505824 -1.5708377997027796 2.726161241531372 True False
808.93 4.304086685180664 -1.312745140199997 1.519411865864889 -1.7771407566466273 -1.570801083241598 2.7331550121307373 True False
808.9499999999999 4.311192512512207 -1.3187154096416016 1.5273798147784632 -1.7796560726561488 -1.5708087126361292 2.7402899265289307 True False
808.9699999999999 4.318231582641602 -1.324695886378624 1.5354021231280726 -1.7818957767882289 -1.5707925001727503 2.747497797012329 True False
808.99 4.325418472290039 -1.3304235947183152 1.5439160505877894 -1.7840224705138148 -1.5707767645465296 2.7546653747558594 True False
809.01 4.3326029777526855 -1.3361807030490418 1.5520880858050745 -1.7863356075682582 -1.570772949849264 2.761772632598877 True False
809.03 4.33967924118042 -1.342298911218979 1.5599272886859339 -1.7887402973570765 -1.5708406607257288 2.7688403129577637 True False
809.05 4.346646308898926 -1.3481447857669373 1.5678418318377894 -1.7909394703307093 -1.5708420912372034 2.7759547233581543 True False
809.0699999999999 4.353573322296143 -1.3536344927600403 1.5761693159686487 -1.793089052239889 -1.5707276503192347 2.78290057182312 True False
809.0899999999999 4.36055326461792 -1.359153078203537 1.583973232899801 -1.7952376804747523 -1.5708335081683558 2.789918899536133 True False
809.11 4.36737060546875 -1.364902288918831 1.5914986769305628 -1.7974029980101527 -1.5707886854754847 2.796459674835205 True False
809.13 4.374025821685791 -1.3705124718001862 1.5991581122027796 -1.7997456989684046 -1.5707929770099085 2.8031792640686035 True False
809.15 4.38057279586792 -1.375937045817711 1.6070779005633753 -1.8016554317870082 -1.5707967917071741 2.8098812103271484 True False
809.17 4.387213706970215 -1.3811850410750885 1.61442739168276 -1.8037897549071253 -1.5708091894732874 2.816526412963867 True False
809.1899999999999 4.393820285797119 -1.3868226569942017 1.6217458883868616 -1.805946489373678 -1.5707610289203089 2.8229854106903076 True False
809.2099999999999 4.400254726409912 -1.392066554432251 1.6289141813861292 -1.808087011376852 -1.5707691351519983 2.8292853832244873 True False
809.23 4.40653657913208 -1.397231252198555 1.6365950743304651 -1.8098451099791468 -1.570784870778219 2.83565616607666 True False
809.25 4.412731170654297 -1.402288095360138 1.6437872091876429 -1.811850210229391 -1.5708325544940394 2.8420331478118896 True False
809.27 4.4189348220825195 -1.4075070780566712 1.6506074110614222 -1.8141828976073207 -1.5707810560809534 2.8483362197875977 True False
809.29 4.425218105316162 -1.4126417201808472 1.657433811818258 -1.8159152470030726 -1.5707967917071741 2.854351758956909 True False
809.31 4.431258201599121 -1.4174794119647522 1.664656941090719 -1.8177648983397425 -1.5707929770099085 2.8603272438049316 True False
809.3299999999999 4.437200546264648 -1.4222457718900223 1.6716392675982874 -1.8197657070555628 -1.5707929770099085 2.8663363456726074 True False
809.3499999999999 4.442966461181641 -1.4273170989802857 1.6780956427203577 -1.8217641315855921 -1.5708087126361292 2.8722920417785645 True False
809.37 4.448811054229736 -1.4322074514678498 1.684659783040182 -1.8235732517638148 -1.5708368460284632 2.8781607151031494 True False
809.39 4.454686164855957 -1.4368310284665604 1.6914132277118128 -1.8253189525999964 -1.570813004170553 2.8839144706726074 True False
809.41 4.460348129272461 -1.4415202003768464 1.6981423536883753 -1.8272034130492152 -1.5707805792437952 2.8894734382629395 True False
809.43 4.466025352478027 -1.446117789750435 1.7044037024127405 -1.8289562664427699 -1.5707767645465296 2.894993543624878 True False
809.4499999999999 4.471443176269531 -1.4506861355951806 1.7105382124530237 -1.8307129345335902 -1.570772949849264 2.900653600692749 True False
809.4699999999999 4.476835250854492 -1.4551022139242669 1.7167394796954554 -1.8324185810484828 -1.5707686583148401 2.9061648845672607 True False
809.49 4.4823222160339355 -1.4595315170339127 1.7228973547564905 -1.8342834911742152 -1.5707767645465296 2.9115986824035645 True False
809.51 4.4876708984375 -1.464044139986374 1.7291353384601038 -1.8359290562071742 -1.5708254019366663 2.9168760776519775 True False
809.53 4.492910861968994 -1.4683054772070427 1.7351468245135706 -1.837447305718893 -1.5707886854754847 2.922004222869873 True False
809.55 4.498067378997803 -1.472509243791439 1.7409785429583948 -1.839137693444723 -1.570784870778219 2.9272074699401855 True False
809.5699999999999 4.503083229064941 -1.47675974786792 1.74669057527651 -1.8409463367857875 -1.5707967917071741 2.9323971271514893 True False
809.5899999999999 4.508002281188965 -1.480895609860756 1.7522953192340296 -1.8425327740111292 -1.5707929770099085 2.9373679161071777 True False
809.61 4.512995719909668 -1.4848981288126488 1.758167568837301 -1.844043870965475 -1.5708168188678187 2.942321538925171 True False
809.63 4.517938613891602 -1.4888861563852807 1.763852898274557 -1.8455177746214808 -1.5707805792437952 2.947180986404419 True False
809.65 4.522695064544678 -1.4928601396134873 1.7691410223590296 -1.8471204243102015 -1.5708125273333948 2.9518210887908936 True False
809.67 4.5274786949157715 -1.4967787277749558 1.7743819395648401 -1.848734041253561 -1.5707529226886194 2.9565341472625732 True False
809.6899999999999 4.53201961517334 -1.5005606797388573 1.779799763356344 -1.8499905071654261 -1.570772949849264 2.9612832069396973 True False
809.7099999999999 4.536532878875732 -1.5043178063682099 1.7850678602801722 -1.8514896831908167 -1.5707367102252405 2.965855598449707 True False
809.73 4.5410990715026855 -1.508085661833622 1.7902477423297327 -1.8529559574522914 -1.5707805792437952 2.970319986343384 True False
809.75 4.545566082000732 -1.5116659638336678 1.7953460852252405 -1.8544155559935511 -1.5707767645465296 2.9747979640960693 True False
809.77 4.549828052520752 -1.5152058464339753 1.8002279440509241 -1.85577454189443 -1.5707529226886194 2.9791100025177 True False
809.79 4.554166793823242 -1.5187549528530617 1.8049476782428187 -1.8571745357909144 -1.5708330313311976 2.983309030532837 True False
809.81 4.558399200439453 -1.5221935895136376 1.809833828602926 -1.8583947620787562 -1.570784870778219 2.987421751022339 True False
809.8299999999999 4.562489032745361 -1.5255630810609837 1.8145411650287073 -1.859671255151266 -1.570772949849264 2.9916493892669678 True False
809.8499999999999 4.566403865814209 -1.528943994348385 1.8192055861102503 -1.861161848107809 -1.5707967917071741 2.9957497119903564 True False
809.87 4.570436954498291 -1.5322380822947999 1.8238547484027308 -1.8623372517027796 -1.5708211104022425 2.999696731567383 True False
809.89 4.574350833892822 -1.5353990954211731 1.8283222357379358 -1.8635512791075648 -1.5707491079913538 3.0036284923553467 True False
809.91 4.578200817108154 -1.538524755542614 1.8325799147235315 -1.8648067913451136 -1.5707767645465296 3.00738525390625 True False
809.93 4.581963539123535 -1.5416588497212906 1.8366926352130335 -1.8660279713072718 -1.570784870778219 3.011052131652832 True False
809.9499999999999 4.585592269897461 -1.5446111795357247 1.8410361448871058 -1.8671251736082972 -1.5707925001727503 3.0147910118103027 True False
809.9699999999999 4.589226245880127 -1.5474968061647196 1.8450802008258265 -1.8684007130064906 -1.570829216633932 3.0183441638946533 True False
809.99 4.592741966247559 -1.5505235616913815 1.849053684865133 -1.869537969628805 -1.570768181477682 3.0218758583068848 True False
810.01 4.596167087554932 -1.553380687986948 1.8531530539142054 -1.8705045185484828 -1.5708406607257288 3.0254199504852295 True False
810.03 4.599524974822998 -1.5561110920137544 1.857210938130514 -1.8715139828123988 -1.5707805792437952 3.028782367706299 True False
810.05 4.6028313636779785 -1.5588746036267658 1.8607824484454554 -1.8726912937560023 -1.5708335081683558 3.032151222229004 True False
810.0699999999999 4.606092929840088 -1.5615917391008516 1.8643158117877405 -1.873688360253805 -1.5707967917071741 3.035275459289551 True False
810.0899999999999 4.609291076660156 -1.5640853143161912 1.8680723349200647 -1.8747621975340785 -1.5707648436175745 3.0385611057281494 True False
810.11 4.612361907958984 -1.5666352419978757 1.871516529713766 -1.8757521114745082 -1.570772949849264 3.041477680206299 True False
810.13 4.615371227264404 -1.5691486003673454 1.8749292532550257 -1.8767196140685023 -1.570784870778219 3.044529438018799 True False
810.15 4.618300437927246 -1.5715505085387171 1.878284756337301 -1.8775493107237757 -1.5708487669574183 3.047431230545044 True False
810.17 4.621181011199951 -1.5738674602904261 1.8817198912249964 -1.8784238300719203 -1.570829216633932 3.0502519607543945 True False
810.1899999999999 4.623906135559082 -1.5761710606017054 1.884864632283346 -1.8793140850462855 -1.5707724730121058 3.0531017780303955 True False
810.2099999999999 4.626625061035156 -1.5784183941283167 1.8880093733416956 -1.8803087673582972 -1.5707562605487269 3.055788993835449 True False
810.23 4.629230499267578 -1.580576559106344 1.8908980528460901 -1.8811265430846156 -1.5707486311541956 3.0584495067596436 True False
810.25 4.631711006164551 -1.5826708279051722 1.893733326588766 -1.8819967708983363 -1.5707967917071741 3.0609476566314697 True False
810.27 4.634305953979492 -1.5847450695433558 1.896477524434225 -1.882759233514303 -1.5708211104022425 3.063485860824585 True False
810.29 4.636699676513672 -1.586719652215475 1.8993194738971155 -1.8835169277586878 -1.5708048979388636 3.0658910274505615 True False
810.31 4.6390252113342285 -1.588633199731344 1.902064625416891 -1.8842317066588343 -1.570784870778219 3.0682621002197266 True False
810.3299999999999 4.641302585601807 -1.5904766521849574 1.9045441786395472 -1.8849622211852015 -1.570813004170553 3.0704920291900635 True False
810.3499999999999 4.6434125900268555 -1.592327734033102 1.9070962111102503 -1.8856007061400355 -1.5707843939410608 3.0726711750030518 True False
810.37 4.645547389984131 -1.5940705738463343 1.9095161596881312 -1.8862792454161585 -1.5707925001727503 3.074753761291504 True False
810.39 4.64765739440918 -1.5957046947874964 1.911961857472555 -1.8869177303709925 -1.5707967917071741 3.0767762660980225 True False
810.41 4.649616718292236 -1.5973268947997035 1.9141910711871546 -1.887620588342184 -1.5707891623126429 3.0787932872772217 True False
810.43 4.651422023773193 -1.598943372766012 1.916394058858053 -1.88820280651235 -1.5707967917071741 3.080658197402954 True False
810.4499999999999 4.653318881988525 -1.60032381633901 1.9184353987323206 -1.8887816868224085 -1.5707724730121058 3.0824763774871826 True False
810.4699999999999 4.655046463012695 -1.6018077335753382 1.9204171339618128 -1.889376779595846 -1.5707724730121058 3.0842323303222656 True False
810.49 4.656677722930908 -1.6031948528685511 1.9222920576678675 -1.8898230991759242 -1.5708406607257288 3.08589243888855 True False
810.51 4.658256530761719 -1.6045109234251917 1.9240711371051233 -1.8903709850706996 -1.5707805792437952 3.0874414443969727 True False
810.53 4.659785747528076 -1.6057688198485316 1.9257023970233362 -1.8908378086485804 -1.5707686583148401 3.088967800140381 True False
810.55 4.661237716674805 -1.6068507633604945 1.927443806325094 -1.8912965259947718 -1.570784870778219 3.0904347896575928 True False
810.5699999999999 4.662582874298096 -1.608028074304098 1.9290836493121546 -1.891735693017477 -1.570813004170553 3.091754674911499 True False
810.5899999999999 4.663869380950928 -1.6091190777220667 1.9305084387408655 -1.892186780969137 -1.5707486311541956 3.0931105613708496 True False
810.61 4.665114879608154 -1.610117574731344 1.9318674246417444 -1.892562051812643 -1.5707767645465296 3.0943667888641357 True False
810.63 4.666239261627197 -1.6109963856139125 1.9331844488727015 -1.892921587029928 -1.5708087126361292 3.095508337020874 True False
810.65 4.667372703552246 -1.6119238338866175 1.9343846479998987 -1.8932119808592738 -1.5708048979388636 3.0965633392333984 True False
810.67 4.668313026428223 -1.6127845249571742 1.9355509916888636 -1.8935753307738246 -1.5708654562579554 3.0975327491760254 True False
810.6899999999999 4.669246673583984 -1.613506933251852 1.936575714741842 -1.8938342533507289 -1.5708168188678187 3.0984997749328613 True False
810.7099999999999 4.670063495635986 -1.6141773662962855 1.9375136534320276 -1.8941308460631312 -1.5707967917071741 3.09934663772583 True False
810.73 4.670869827270508 -1.614927431146139 1.9383752981769007 -1.8944016895689906 -1.5708487669574183 3.1001389026641846 True False
810.75 4.67160177230835 -1.6154586277403773 1.9392178694354456 -1.8946291408934535 -1.570801083241598 3.100795269012451 True False
810.77 4.672194004058838 -1.6159206829466761 1.9399917761432093 -1.8947926960387171 -1.570829216633932 3.1014111042022705 True False
810.79 4.672773361206055 -1.6163274250426234 1.9405768553363245 -1.8949562511839808 -1.570784870778219 3.1019740104675293 True False
810.81 4.67323112487793 -1.6168118915953578 1.9411514441119593 -1.895172735253805 -1.5707486311541956 3.1023995876312256 True False
810.8299999999999 4.673651695251465 -1.6170946560301722 1.9416049162494105 -1.8952156505980433 -1.570801083241598 3.10282039642334 True False
810.8499999999999 4.673925399780273 -1.6173793278136195 1.9420135656939905 -1.895299573937887 -1.570801083241598 3.103163480758667 True False
810.87 4.674212455749512 -1.6176444492735804 1.942256275807516 -1.8953710995116175 -1.5707891623126429 3.10337495803833 True False
810.89 4.674363613128662 -1.6177150211729945 1.9424923102008265 -1.8954631290831507 -1.5707805792437952 3.1035711765289307 True False
810.91 4.6744160652160645 -1.6177312336363734 1.9425552527057093 -1.8954478702940882 -1.5707967917071741 3.1035830974578857 True False
810.93 4.674420356750488 -1.6177627048888148 1.94255239168276 -1.8955074749388636 -1.5707891623126429 3.1035332679748535 True False
810.9499999999999 4.674437046051025 -1.6176825962462367 1.942580525075094 -1.8956195316710414 -1.5707929770099085 3.1035830974578857 True False
810.9699999999999 4.67442512512207 -1.6177107296385707 1.942667309437887 -1.8960186443724574 -1.570784870778219 3.103611469268799 True False
810.99 4.674398422241211 -1.6176701984801234 1.9428513685809534 -1.8963338337340296 -1.5707886854754847 3.1036460399627686 True False
811.01 4.67441463470459 -1.617626806298727 1.9430788199054163 -1.8963734112181605 -1.570784870778219 3.103681802749634 True False
811.03 4.67446231842041 -1.6175228557982386 1.9433868567096155 -1.8966366253294886 -1.5708168188678187 3.103705644607544 True False
811.05 4.674471378326416 -1.617261072198385 1.9436457792865198 -1.8971511326231898 -1.5707724730121058 3.103710174560547 True False
811.0699999999999 4.67452335357666 -1.6171313724913539 1.9439323584186 -1.897731443444723 -1.5707891623126429 3.103710174560547 True False
811.0899999999999 4.674511909484863 -1.6168223820128382 1.94435960451235 -1.8982693157591761 -1.5707805792437952 3.103752613067627 True False
811.11 4.674535751342773 -1.6165343723692835 1.9448145071612757 -1.8990875683226527 -1.5707925001727503 3.103755474090576 True False
811.13 4.674490928649902 -1.6162878475584925 1.9452412764178675 -1.8999024830260218 -1.5707686583148401 3.103755474090576 True False
811.15 4.6744866371154785 -1.6159445248045863 1.9459226767169397 -1.900736471215719 -1.5707605520831507 3.1037418842315674 True False
811.17 4.674540042877197 -1.6155315838255824 1.9465068022357386 -1.9017907581725062 -1.5707929770099085 3.103710174560547 True False
811.1899999999999 4.67452335357666 -1.6150995693602503 1.9471343199359339 -1.902964254418844 -1.5707925001727503 3.103748083114624 True False
811.2099999999999 4.674544811248779 -1.6147009334959925 1.9478848616229456 -1.904126306573385 -1.570784870778219 3.1037375926971436 True False
811.23 4.674499988555908 -1.6142498455443324 1.9486616293536585 -1.9051867924132289 -1.5707648436175745 3.1037344932556152 True False
811.25 4.674527645111084 -1.6136275730528773 1.949500862752096 -1.9065567455687464 -1.570801083241598 3.1037373542785645 True False
811.27 4.6745686531066895 -1.6131006679930628 1.9503186384784144 -1.9079700909056605 -1.5707843939410608 3.103705644607544 True False
811.29 4.674532413482666 -1.6125532589354457 1.9511964956866663 -1.9094816646971644 -1.5707967917071741 3.103717565536499 True False
811.31 4.674502849578857 -1.6119820080199183 1.9520929495440882 -1.9110986195006312 -1.570768181477682 3.1037344932556152 True False
811.3299999999999 4.674519062042236 -1.6113015613951625 1.9531553427325647 -1.9126912556090296 -1.5708211104022425 3.1037418842315674 True False
811.3499999999999 4.674570083618164 -1.6106354198851527 1.954223934804098 -1.9143759212889613 -1.5707805792437952 3.1037211418151855 True False
811.37 4.674559593200684 -1.609903474847311 1.9554060141192835 -1.9163400135436 -1.5707805792437952 3.1037344932556152 True False
811.39 4.674532413482666 -1.6092239818968714 1.9565847555743616 -1.9182917080321253 -1.5708373228656214 3.103708505630493 True False
811.41 4.674511909484863 -1.6084042988219203 1.9578092733966272 -1.9200874767699183 -1.5707967917071741 3.103760004043579 True False
811.43 4.674479007720947 -1.607565542260641 1.9590790907489222 -1.9221989117064417 -1.5708335081683558 3.1037673950195312 True False
811.4499999999999 4.674516201019287 -1.606729646722311 1.960395638142721 -1.9245521030821742 -1.5707886854754847 3.103713035583496 True False
811.4699999999999 4.6745686531066895 -1.605938573876852 1.9617469946490687 -1.9267903767027796 -1.5707886854754847 3.103776454925537 True False
811.49 4.67452335357666 -1.6049658260741175 1.9633358160602015 -1.9289738140501917 -1.5707648436175745 3.103764533996582 True False
811.51 4.674556732177734 -1.603985448876852 1.9648249785052698 -1.93153776744985 -1.5707605520831507 3.1037299633026123 True False
811.53 4.674500942230225 -1.6031319103636683 1.9661529699908655 -1.9340511761107386 -1.570801083241598 3.103717565536499 True False
811.55 4.674572944641113 -1.6021419964232386 1.967870060597555 -1.9365703068175257 -1.5707686583148401 3.103705644607544 True False
811.5699999999999 4.674514293670654 -1.6010214291014613 1.9696338812457483 -1.939343114892477 -1.5707886854754847 3.103748083114624 True False
811.5899999999999 4.674511909484863 -1.5999404392638148 1.9712212721454065 -1.9420706234373988 -1.570801083241598 3.103760004043579 True False
811.61 4.674540042877197 -1.5988694630064906 1.973055664693014 -1.9449855289854945 -1.5707529226886194 3.103764533996582 True False
811.63 4.674495697021484 -1.597783704797262 1.9748953024493616 -1.9478808842101039 -1.5707686583148401 3.1037254333496094 True False
811.65 4.6745100021362305 -1.5965925655760707 1.976839844380514 -1.9508964023985804 -1.5707486311541956 3.103710174560547 True False
811.67 4.674519062042236 -1.5954066715636195 1.9788277784930628 -1.9540029964842738 -1.5708087126361292 3.10371732711792 True False
811.6899999999999 4.674556732177734 -1.5942026577391566 1.9807122389422815 -1.957104345361227 -1.5707686583148401 3.1037166118621826 True False
811.7099999999999 4.674540042877197 -1.5929719410338343 1.9826315085040491 -1.9604984722533167 -1.5708168188678187 3.103701114654541 True False
811.73 4.674466609954834 -1.591591020623678 1.9848063627826136 -1.9637366733946742 -1.5707925001727503 3.103693723678589 True False
811.75 4.674561023712158 -1.5902520618834437 1.9868128935443323 -1.967386385003561 -1.570772949849264 3.10381817817688 True False
811.77 4.67456579208374 -1.589029451409811 1.9888580481158655 -1.9708425007262171 -1.5707843939410608 3.103743553161621 True False
811.79 4.674561023712158 -1.5875894031920375 1.9910767714129847 -1.9745069942870082 -1.5707648436175745 3.103701114654541 True False
811.81 4.674530982971191 -1.5860840282835902 1.9935115019427698 -1.9780522785582484 -1.5708044211017054 3.103726625442505 True False
811.8299999999999 4.674596786499023 -1.5846387348570765 1.9957264105426233 -1.9819594822325648 -1.570836369191305 3.1037189960479736 True False
811.8499999999999 4.674502849578857 -1.5832253895201625 1.9980996290790003 -1.9858013592162074 -1.5707562605487269 3.1037344932556152 True False
811.87 4.674540042877197 -1.581674715081686 2.0005224386798304 -1.9897719822325648 -1.5707362333880823 3.103726625442505 True False
811.89 4.674502849578857 -1.5801574192442835 2.0030787626849573 -1.9938680134215296 -1.570784870778219 3.103743553161621 True False
811.91 4.674519062042236 -1.5785414181151332 2.005655590687887 -1.997918268243307 -1.5707805792437952 3.103717565536499 True False
811.93 4.674532413482666 -1.5769335232176722 2.0083516279803675 -2.002157827416891 -1.5708406607257288 3.103698253631592 True False
811.9499999999999 4.6745076179504395 -1.5752579174437464 2.011115376149313 -2.006406446496481 -1.5707843939410608 3.103705644607544 True False
811.9699999999999 4.674499988555908 -1.5736566982665003 2.0137012640582483 -2.0108448467650355 -1.5708211104022425 3.103760004043579 True False
811.99 4.674541473388672 -1.5718361339964808 2.0163610617267054 -2.0153562031187953 -1.570768181477682 3.103710174560547 True False
812.01 4.674598217010498 -1.570093852791917 2.019122902547018 -2.0197984180846156 -1.5708044211017054 3.103748083114624 True False
812.03 4.674544811248779 -1.568261635289975 2.0219414869891565 -2.0245138607420863 -1.5707724730121058 3.1037344932556152 True False
812.05 4.674519062042236 -1.566517689065524 2.024869743977682 -2.0292488537230433 -1.5707929770099085 3.103713035583496 True False
812.0699999999999 4.674535751342773 -1.5647358044846733 2.027764622365133 -2.033807416955465 -1.5708377997027796 3.103705644607544 True False
812.0899999999999 4.674527645111084 -1.5629544027945776 2.030487362538473 -2.038342615167135 -1.5707686583148401 3.103755474090576 True False
812.11 4.674514293670654 -1.5612788063338776 2.033304993306295 -2.0428291759886683 -1.5707767645465296 3.103760004043579 True False
812.13 4.674514293670654 -1.559565963489451 2.035882298146383 -2.0470363102354945 -1.570784870778219 3.103684663772583 True False
812.15 4.674490928649902 -1.558028058414795 2.0386789480792444 -2.051415582696432 -1.570784870778219 3.103748083114624 True False
812.17 4.674544811248779 -1.5563907616636534 2.041306797658102 -2.0556241474547328 -1.5707724730121058 3.103652000427246 True False
812.1899999999999 4.6744866371154785 -1.5548304368606587 2.043764893208639 -2.059728284875387 -1.5707891623126429 3.103713035583496 True False
812.2099999999999 4.6745076179504395 -1.5532352433404704 2.0462611357318323 -2.063789506951803 -1.570829216633932 3.103717565536499 True False
812.23 4.674586296081543 -1.551750949849822 2.048584763203756 -2.0676046810545863 -1.5707772413836878 3.1036922931671143 True False
812.25 4.674499988555908 -1.5502400261214753 2.0509045759784144 -2.0716029606261195 -1.5707925001727503 3.103717565536499 True False
812.27 4.674565315246582 -1.5488838267377396 2.053256336842672 -2.0752154789366664 -1.5708168188678187 3.103747844696045 True False
812.29 4.6744866371154785 -1.547378461142518 2.0555642286883753 -2.07900395015859 -1.570784870778219 3.1037299633026123 True False
812.31 4.67456579208374 -1.5461092510125418 2.0577362219439905 -2.082583566705221 -1.5707967917071741 3.103701114654541 True False
812.3299999999999 4.674473285675049 -1.5446381767145176 2.059854332600729 -2.0861641369261683 -1.5708335081683558 3.1037299633026123 True False
812.3499999999999 4.674565315246582 -1.5433824111572285 2.0620554129229944 -2.0894819698729457 -1.570813004170553 3.103767156600952 True False
812.37 4.674572944641113 -1.5420951166054984 2.0640462080584925 -2.0930668316283167 -1.57074481645693 3.1037309169769287 True False
812.39 4.674561023712158 -1.5408155371299763 2.0660293737994593 -2.096189161340231 -1.5708168188678187 3.1037344932556152 True False
812.41 4.674495697021484 -1.5395503857037802 2.0681336561786097 -2.0993124447264613 -1.570780102406637 3.103788137435913 True False
812.43 4.67452335357666 -1.5384289261749764 2.070012871419088 -2.1023360691466273 -1.5708048979388636 3.1037464141845703 True False
812.4499999999999 4.6745100021362305 -1.5372627538493653 2.0718615690814417 -2.1054989300169886 -1.5707805792437952 3.103717565536499 True False
812.4699999999999 4.6745524406433105 -1.5360845451107998 2.0738137404071253 -2.108199735681051 -1.570784870778219 3.103705883026123 True False
812.49 4.674535751342773 -1.5349243444255372 2.0756104628192347 -2.111148019830221 -1.5707805792437952 3.103717565536499 True False
812.51 4.67452335357666 -1.5339055892876168 2.0770886580096644 -2.113976617852682 -1.5707886854754847 3.103743553161621 True False
812.53 4.6745076179504395 -1.5329318393817921 2.07876426378359 -2.116531034509176 -1.5708211104022425 3.1037087440490723 True False
812.55 4.674490928649902 -1.531855234210827 2.0803983847247522 -2.119160314599508 -1.570857350026266 3.1037302017211914 True False
812.5699999999999 4.67452335357666 -1.530942891990282 2.0819085280047815 -2.121594568292135 -1.5707724730121058 3.1037302017211914 True False
812.5899999999999 4.674519062042236 -1.5300810498050232 2.0833399931537073 -2.124117990533346 -1.5707767645465296 3.103722095489502 True False
812.61 4.674490928649902 -1.5291802746108552 2.084694210683004 -2.1264478168883265 -1.5707686583148401 3.103705883026123 True False
812.63 4.67453670501709 -1.5283594963005562 2.0861433188067835 -2.128575464288229 -1.5707648436175745 3.103717565536499 True False
812.65 4.674535751342773 -1.5274512854269524 2.087501827870504 -2.1307794056334437 -1.5707967917071741 3.103705883026123 True False
812.67 4.674516201019287 -1.5267330792597313 2.0887258688556116 -2.1329437694945277 -1.57074481645693 3.103693962097168 True False
812.6899999999999 4.674516201019287 -1.5260086816600342 2.0899389425860804 -2.134831567803854 -1.570813004170553 3.103722095489502 True False
812.7099999999999 4.674514293670654 -1.525199507629015 2.0911343733416956 -2.1366569004454554 -1.570756737385885 3.103764057159424 True False
812.73 4.674482345581055 -1.524444894199707 2.092238251362936 -2.1386128864684046 -1.570813004170553 3.10370135307312 True False
812.75 4.674514293670654 -1.5238656190088768 2.0932286421405237 -2.1402770481505335 -1.5708611647235315 3.103713274002075 True False
812.77 4.674490928649902 -1.5231787723353882 2.094336811696188 -2.1418987713255824 -1.570784870778219 3.103684902191162 True False
812.79 4.674532413482666 -1.522585992967226 2.095332447682516 -2.143411775628561 -1.5707967917071741 3.103743314743042 True False
812.81 4.674530982971191 -1.5220408973148842 2.0961607138263147 -2.1450849972166957 -1.5707767645465296 3.103743314743042 True False
812.8299999999999 4.674556732177734 -1.5215344589999695 2.0970118681537073 -2.146398206750387 -1.5708335081683558 3.103705883026123 True False
812.8499999999999 4.6745076179504395 -1.520973091279604 2.097894016896383 -2.1476274929442347 -1.5707686583148401 3.1037344932556152 True False
812.87 4.674527645111084 -1.5204904799214383 2.098673168812887 -2.148797174493307 -1.5708048979388636 3.103739023208618 True False
812.89 4.674572944641113 -1.5200487089208146 2.099307362233297 -2.149999280969137 -1.570829216633932 3.1036925315856934 True False
812.91 4.674511909484863 -1.5197276410511513 2.100046459828512 -2.151041646996969 -1.5707724730121058 3.103743314743042 True False
812.93 4.674498558044434 -1.519328848724701 2.10065204301943 -2.152123590508932 -1.5708335081683558 3.103685140609741 True False
812.9499999999999 4.6744704246521 -1.5189988178065796 2.101175610219137 -2.1529699764647425 -1.570784870778219 3.10370135307312 True False
812.9699999999999 4.674490928649902 -1.5187078949860116 2.1016419569598597 -2.153700967828268 -1.570813004170553 3.103739023208618 True False
812.99 4.6745076179504395 -1.5184418235770245 2.1020849386798304 -2.154351373712057 -1.5708377997027796 3.103717565536499 True False
813.01 4.674502849578857 -1.518195466404297 2.1024449507342737 -2.1550384960570277 -1.5707486311541956 3.103775978088379 True False
813.03 4.674532413482666 -1.5180415597609063 2.102743927632467 -2.1555692158141078 -1.570813004170553 3.103726387023926 True False
813.05 4.6745476722717285 -1.5177593578449269 2.1031158606158655 -2.15590824703359 -1.5707891623126429 3.103693962097168 True False
813.0699999999999 4.674502849578857 -1.517721914952137 2.103307549153463 -2.156323572198385 -1.5707772413836878 3.103685140609741 True False
813.0899999999999 4.674498558044434 -1.5175607365420838 2.1034110228167933 -2.1566268406310023 -1.5708168188678187 3.103766918182373 True False
813.11 4.674565315246582 -1.5175085750273247 2.1035307089435022 -2.1568385563292445 -1.5707929770099085 3.103689670562744 True False
813.13 4.674502849578857 -1.5174398694983502 2.1035383383380335 -2.156919141808981 -1.5708335081683558 3.103743314743042 True False
813.15 4.6744704246521 -1.5175068166903039 2.1035502592669886 -2.1568385563292445 -1.5707405249225062 3.103713274002075 True False
813.17 4.674544811248779 -1.5175279726139088 2.103558365498678 -2.156887193719381 -1.5707724730121058 3.103705883026123 True False
813.1899999999999 4.674561023712158 -1.5174517047456284 2.103590790425436 -2.1568662128844203 -1.5708091894732874 3.10370135307312 True False
813.2099999999999 4.674543380737305 -1.5174472381225605 2.10361892381777 -2.156914373437399 -1.570801083241598 3.10370135307312 True False
813.23 4.674516201019287 -1.5174234856716176 2.1036017576800745 -2.156954427758688 -1.5707805792437952 3.103693962097168 True False
813.25 4.674519062042236 -1.5173993159881611 2.1036704222308558 -2.156962057153219 -1.5707524458514612 3.103677749633789 True False
813.27 4.674502849578857 -1.5174844537726422 2.103658978139059 -2.1570383510985316 -1.5707605520831507 3.1037306785583496 True False
813.29 4.6745076179504395 -1.517353420411684 2.1036985556231897 -2.1570502720274867 -1.5707767645465296 3.103739023208618 True False
813.31 4.6745476722717285 -1.517385845338442 2.1036747137652796 -2.157030244866842 -1.5707929770099085 3.103747606277466 True False
813.3299999999999 4.674514293670654 -1.5174112071147938 2.1036575476275843 -2.1570621929564417 -1.5707767645465296 3.1037344932556152 True False
813.3499999999999 4.674527645111084 -1.517399289911129 2.103661839162008 -2.1570221386351527 -1.5708048979388636 3.1036808490753174 True False
813.37 4.674593925476074 -1.5174022552422066 2.103661839162008 -2.1570664844908656 -1.5708168188678187 3.1036734580993652 True False
813.39 4.67449426651001 -1.5173694279840966 2.103661839162008 -2.157070299188131 -1.5707891623126429 3.103693962097168 True False
813.41 4.674499988555908 -1.5173322793892403 2.1036623159991663 -2.157045980493063 -1.5707886854754847 3.103677749633789 True False
813.43 4.674540042877197 -1.5174235601774235 2.103666130696432 -2.1570664844908656 -1.5707281271563929 3.103726387023926 True False
813.4499999999999 4.67452335357666 -1.517406777744629 2.1036418120013636 -2.157086034814352 -1.5708168188678187 3.1036765575408936 True False
813.4699999999999 4.674589157104492 -1.5173758019557972 2.1037028471576136 -2.1570340595641078 -1.570784870778219 3.103722095489502 True False
813.49 4.674519062042236 -1.5173873242786904 2.103689972554342 -2.1570426426329554 -1.570772949849264 3.103689670562744 True False
813.51 4.674556732177734 -1.5174036596766491 2.1036704222308558 -2.1570383510985316 -1.5708168188678187 3.103726387023926 True False
813.53 4.674503326416016 -1.517387331729271 2.103661839162008 -2.157045980493063 -1.5707648436175745 3.103710174560547 True False
813.55 4.674514293670654 -1.5173993159881611 2.1036818663226526 -2.157098432580465 -1.5708335081683558 3.103755235671997 True False
813.5699999999999 4.674553394317627 -1.5173948568156739 2.103649441395895 -2.1570664844908656 -1.570813004170553 3.103677749633789 True False
813.5899999999999 4.674606800079346 -1.517456305479147 2.1036532560931605 -2.157030244866842 -1.5707925001727503 3.1037302017211914 True False
813.61 4.6744914054870605 -1.5173859049430867 2.103694740925924 -2.1570621929564417 -1.5708087126361292 3.103766918182373 True False
813.63 4.674487113952637 -1.5173544858447094 2.1036818663226526 -2.157045980493063 -1.570813004170553 3.103710174560547 True False
813.65 4.674531936645508 -1.5173624505153676 2.1037028471576136 -2.1570140324034632 -1.570801083241598 3.103677749633789 True False
813.67 4.67452335357666 -1.5173948568156739 2.1037352720843714 -2.1570822201170863 -1.5707891623126429 3.103717565536499 True False
813.6899999999999 4.674540042877197 -1.5173992861858387 2.1036856810199183 -2.1570779285826625 -1.5707891623126429 3.103755235671997 True False
813.7099999999999 4.6745076179504395 -1.5174235713532944 2.1036856810199183 -2.1570502720274867 -1.5707891623126429 3.103726387023926 True False
813.73 4.674540996551514 -1.5173948568156739 2.1036985556231897 -2.157005926171774 -1.570801083241598 3.103739023208618 True False
813.75 4.6744866371154785 -1.517376886015274 2.103649441395895 -2.157098432580465 -1.5707891623126429 3.103755235671997 True False
813.77 4.674535751342773 -1.5173948568156739 2.1037071386920374 -2.1570340595641078 -1.5707529226886194 3.1037306785583496 True False
813.79 4.6745076179504395 -1.5173669096878548 2.1036704222308558 -2.15708651165151 -1.5707929770099085 3.103705883026123 True False
813.81 4.674514293670654 -1.5174189370921631 2.103619400654928 -2.157102247277731 -1.5707772413836878 3.103750705718994 True False
813.8299999999999 4.674540042877197 -1.517415703540184 2.1036861578570765 -2.1570383510985316 -1.5707405249225062 3.103693962097168 True True
813.8499999999999 4.67453145980835 -1.5174201254597683 2.1037076155291956 -2.1570664844908656 -1.5707529226886194 3.103759527206421 True True
813.87 4.6745147705078125 -1.51736934602771 2.1036327520953577 -2.1570383510985316 -1.570801083241598 3.103705883026123 True True
813.89 4.674544334411621 -1.517421917324402 2.1035731474505823 -2.1568180523314417 -1.570813004170553 3.103747606277466 True True
813.91 4.67452335357666 -1.517481443738081 2.1034544149981897 -2.156553884545797 -1.5708087126361292 3.1037302017211914 True True
813.93 4.67452335357666 -1.5176504974118252 2.1032350699054163 -2.156259676019186 -1.570801083241598 3.103710174560547 True True
813.9499999999999 4.674516201019287 -1.517805603598692 2.102975670491354 -2.1558429203429164 -1.570813004170553 3.1036927700042725 True True
813.9699999999999 4.674572944641113 -1.5180731241456051 2.1026719252215784 -2.155379911462301 -1.5707967917071741 3.103685140609741 True True
813.99 4.674516201019287 -1.51831620306287 2.1023886839496058 -2.1548453770079554 -1.570813004170553 3.1037757396698 True True
814.01 4.6745147705078125 -1.5184897233596821 2.1019161383258265 -2.1541339359679164 -1.570813004170553 3.103713274002075 True True
814.03 4.674540042877197 -1.518745021229126 2.1014636198626917 -2.1533476314940394 -1.5707686583148401 3.1037089824676514 True True
814.05 4.674548625946045 -1.5190762367895623 2.1009648481952112 -2.1524931393065394 -1.5707925001727503 3.1037518978118896 True True
814.0699999999999 4.674540042877197 -1.519496039753296 2.100351158772604 -2.151663442651266 -1.5708087126361292 3.1037518978118896 True True
814.0899999999999 4.6745147705078125 -1.5198605147055169 2.099696938191549 -2.150602003137106 -1.5707925001727503 3.1037302017211914 True True
814.11 4.674475193023682 -1.520281733279564 2.0990217367755335 -2.1493784389891566 -1.5708258787738245 3.1036808490753174 True True
814.13 4.6745147705078125 -1.5206683811596413 2.0982025305377405 -2.1483127079405726 -1.5708540121661585 3.103726387023926 True True
814.15 4.674499034881592 -1.5211866323700924 2.0974486509906214 -2.1471477947630824 -1.570801083241598 3.1036970615386963 True True
814.17 4.674544334411621 -1.5217358519187947 2.0966504255877894 -2.1457253895201625 -1.570768181477682 3.103766918182373 True True
814.1899999999999 4.674511909484863 -1.5223111298731347 2.0958269278155726 -2.144332548181051 -1.570784870778219 3.103682041168213 True True
814.2099999999999 4.674516201019287 -1.5228516843966027 2.094869915639059 -2.142730852166647 -1.5707805792437952 3.103771448135376 True True
814.23 4.674511909484863 -1.5235028725913544 2.0939906279193323 -2.141146322289938 -1.570801083241598 3.10369610786438 True True
814.25 4.6745076179504395 -1.5240702529302617 2.092917267476217 -2.1394926510252894 -1.5708373228656214 3.10370135307312 True True
814.27 4.674462795257568 -1.5248631846955796 2.0917261282550257 -2.1377998791136683 -1.5707886854754847 3.103750705718994 True True
814.29 4.674540042877197 -1.525528000002243 2.090574089680807 -2.135787149468893 -1.5708406607257288 3.103755235671997 True True
814.31 4.674520492553711 -1.5262413781932374 2.089491669331686 -2.133906980554098 -1.5707925001727503 3.103771448135376 True True
814.3299999999999 4.674511909484863 -1.5270777505687256 2.0881899038897913 -2.131925722161764 -1.5707724730121058 3.103722095489502 True True
814.3499999999999 4.674516201019287 -1.5279228960028668 2.086921040211813 -2.129805704156393 -1.5707767645465296 3.1037306785583496 True True
814.37 4.674520492553711 -1.5287432757071038 2.08558160463442 -2.127446313897604 -1.5707719961749476 3.1037302017211914 True True
814.39 4.674483776092529 -1.5295941171101113 2.0840776602374476 -2.125394483605856 -1.5707605520831507 3.1037540435791016 True True
814.41 4.674470901489258 -1.5305441220155735 2.082619015370504 -2.123108049432272 -1.5707805792437952 3.103713274002075 True True
814.43 4.674487113952637 -1.5314909902266045 2.081154171620504 -2.120450635949606 -1.5707967917071741 3.1037259101867676 True True
814.4499999999999 4.674531936645508 -1.5324108314565201 2.079747502003805 -2.11796297649526 -1.5707805792437952 3.103717565536499 True True
814.4699999999999 4.6744585037231445 -1.5334800866297265 2.0780237356769007 -2.1153294048705042 -1.5708053747760218 3.103759527206421 True True
814.49 4.674511909484863 -1.5344773542932053 2.0762746969806116 -2.112664361993307 -1.570813004170553 3.1037757396698 True True
814.51 4.674560546875 -1.5354988177171727 2.0746329466449183 -2.1098953686156214 -1.5707724730121058 3.103766918182373 True True
814.53 4.67457389831543 -1.5367174123278637 2.072839085255758 -2.106875558892721 -1.5707724730121058 3.103726625442505 True True
814.55 4.674499988555908 -1.5377506774714966 2.0710271040545862 -2.104035039941305 -1.570784870778219 3.103743553161621 True True
814.5699999999999 4.674540042877197 -1.5389781606248398 2.0689638296710413 -2.1009794674315394 -1.570784870778219 3.1037309169769287 True True
814.5899999999999 4.674540042877197 -1.5401148361018677 2.067099396382467 -2.0979086361327113 -1.5708578268634241 3.103739023208618 True True
814.61 4.674531936645508 -1.5413828951171418 2.0652201811419886 -2.0945779285826625 -1.5707762877093714 3.103713035583496 True True
814.63 4.6745076179504395 -1.5425936740687867 2.063183132802145 -2.0912848911681117 -1.5707605520831507 3.103696584701538 True True
814.65 4.674475193023682 -1.5440021318248291 2.061010185872213 -2.0880257091917933 -1.570784870778219 3.103713035583496 True True
814.67 4.674503326416016 -1.5453431357494374 2.0590408484088343 -2.0844532452025355 -1.5708001295672815 3.103717565536499 True True
814.6899999999999 4.6744914054870605 -1.5465958577445527 2.056913201008932 -2.0808807812132777 -1.5707967917071741 3.103705644607544 True True
814.7099999999999 4.674483776092529 -1.5480013855597754 2.0545280615436 -2.077344080010885 -1.570813004170553 3.10371470451355 True True
814.73 4.674508571624756 -1.5495036796531458 2.0522316137896937 -2.0736595592894496 -1.5708296934710901 3.1037256717681885 True True
814.75 4.6745076179504395 -1.5509536408684035 2.050004784260885 -2.0698048077025355 -1.5707929770099085 3.103701114654541 True True
814.77 4.6745076179504395 -1.552364758481719 2.0475195089923304 -2.065890451470846 -1.5707886854754847 3.103705644607544 True True
814.79 4.674531936645508 -1.553999976520874 2.04517108598818 -2.0619288883604945 -1.5708525816546839 3.1037344932556152 True True
814.81 4.674470901489258 -1.5554933885908504 2.0426252524005335 -2.0577131710448207 -1.5707886854754847 3.103717565536499 True True
814.8299999999999 4.674564838409424 -1.5570808688974758 2.0399864355670374 -2.053704401055807 -1.5707762877093714 3.103696584701538 True True
814.8499999999999 4.674540042877197 -1.5588070827401062 2.037377659474508 -2.049465318719381 -1.5708211104022425 3.103722095489502 True True
814.87 4.674540042877197 -1.5603889387897034 2.0347426573382776 -2.045073171655172 -1.570784870778219 3.103722095489502 True True
814.89 4.6744914054870605 -1.562089429502823 2.0320380369769495 -2.040814062158102 -1.570801083241598 3.1037344932556152 True True
814.91 4.674487113952637 -1.5637248319438477 2.0293033758746546 -2.0362712345519007 -1.5707648436175745 3.103705644607544 True True
814.93 4.674527645111084 -1.5655943614295502 2.02645713487734 -2.0316277943053187 -1.5708335081683558 3.103739023208618 True True
814.9499999999999 4.674569606781006 -1.5673895038529118 2.0236852804767054 -2.027088781396383 -1.5707767645465296 3.103705644607544 True True
814.9699999999999 4.67452335357666 -1.5691604775241395 2.0207160154925745 -2.022250314752096 -1.570772949849264 3.103739023208618 True True
814.99 4.674527645111084 -1.5709272823729457 2.0179031530963343 -2.0177322826781214 -1.5708048979388636 3.103701114654541 True True
815.01 4.674505710601807 -1.5726572475829066 2.015244785939352 -2.013240953485006 -1.5708048979388636 3.103705644607544 True True
815.03 4.674522876739502 -1.5743376217284144 2.012383762990133 -2.0088612041869105 -1.5708048979388636 3.1037211418151855 True True
815.05 4.674527645111084 -1.5760060749449671 2.009712044392721 -2.0045253239073695 -1.5707929770099085 3.103717565536499 True True
815.0699999999999 4.674540042877197 -1.5776249370970667 2.0070722738849085 -2.000118394891256 -1.5707891623126429 3.103743553161621 True True
815.0899999999999 4.674504280090332 -1.5792657337584437 2.0043914953814905 -1.9960037670531214 -1.5707772413836878 3.103760004043579 True True
815.11 4.674535751342773 -1.580832143823141 2.00199538866152 -1.9919196567931117 -1.570784870778219 3.103668212890625 True True
815.13 4.6745076179504395 -1.5823666057982386 1.9995082060443323 -1.9878326855101527 -1.5708006064044397 3.103739023208618 True True
815.15 4.6745476722717285 -1.583921571771139 1.9971211592303675 -1.9840642414488734 -1.5708125273333948 3.103684663772583 True True
815.17 4.674519062042236 -1.5853530369200648 1.9948504606830042 -1.9801165066161097 -1.5708487669574183 3.103722095489502 True True
815.1899999999999 4.674499034881592 -1.5867840252318324 1.9924481550799769 -1.9764758549132289 -1.5707810560809534 3.1037344932556152 True True
815.2099999999999 4.6744914054870605 -1.5882626972594203 1.9902551809894007 -1.9728390179076136 -1.5707767645465296 3.1037509441375732 True True
815.23 4.674519062042236 -1.589597841302389 1.9880297819720667 -1.9690829716124476 -1.570824925099508 3.103722095489502 True True
815.25 4.6744914054870605 -1.5908705196776332 1.9858382383929651 -1.965649267236227 -1.570857350026266 3.103767156600952 True True
815.27 4.674495697021484 -1.592276235620016 1.9837539831744593 -1.9622756443419398 -1.570784870778219 3.103672981262207 True True
815.29 4.674564838409424 -1.5935164890685023 1.981769863759176 -1.9588786564269007 -1.5708330313311976 3.103726625442505 True True
815.31 4.674499034881592 -1.5947052441039027 1.979673210774557 -1.9556642971434535 -1.5707810560809534 3.1037354469299316 True True
815.3299999999999 4.674519062042236 -1.595976015130514 1.9776237646686 -1.9526339970030726 -1.5707810560809534 3.103756904602051 True True
815.3499999999999 4.674535751342773 -1.5971929035582484 1.9758365789996546 -1.949535985986227 -1.5707925001727503 3.103726625442505 True True
815.37 4.6744914054870605 -1.5982047520079554 1.9739959875689905 -1.946477552453512 -1.5707810560809534 3.1037392616271973 True True
815.39 4.6744914054870605 -1.599450250665182 1.9720881620990198 -1.9436537228026332 -1.5708368460284632 3.103717565536499 True True
815.41 4.6745524406433105 -1.600504060784811 1.9703944365130823 -1.9407550297179164 -1.5707886854754847 3.103713035583496 True True
815.43 4.6745686531066895 -1.6015502415099085 1.96893817583193 -1.9380160770811976 -1.5707724730121058 3.1037344932556152 True True
815.4499999999999 4.674570083618164 -1.602548738519186 1.9672086874591272 -1.935357233087057 -1.5707843939410608 3.103743553161621 True True
815.4699999999999 4.674544811248779 -1.6035734615721644 1.9655445257769983 -1.9329501591124476 -1.5708416144000452 3.1037509441375732 True True
815.49 4.674556732177734 -1.6044780216612757 1.9640896956073206 -1.930427690545553 -1.570784870778219 3.1037673950195312 True True
815.51 4.6744914054870605 -1.605356355706686 1.96277362505068 -1.927920480767721 -1.5707972685443323 3.103760004043579 True True
815.53 4.674519062042236 -1.6062408886351527 1.961299244557516 -1.9256779156126917 -1.5708125273333948 3.1037256717681885 True True
815.55 4.674514293670654 -1.6071282825865687 1.9598029295550745 -1.9235507450499476 -1.5708006064044397 3.103684663772583 True True
815.5699999999999 4.6744866371154785 -1.6079961262144984 1.958454434071676 -1.9212795696654261 -1.5707452932940882 3.1037309169769287 True True
815.5899999999999 4.674500942230225 -1.6087185345091761 1.9573667685138147 -1.9192682705321253 -1.5707767645465296 3.103717565536499 True True
815.61 4.674527645111084 -1.6095196209349574 1.9561436812030237 -1.9173556766905726 -1.5707767645465296 3.1037354469299316 True True
815.63 4.674556732177734 -1.610237260858053 1.9549468199359339 -1.915459772149557 -1.570784870778219 3.103748083114624 True True
815.65 4.674474716186523 -1.6108347378172816 1.9538186232196253 -1.9136363468565882 -1.5708168188678187 3.1037299633026123 True True
815.67 4.674561023712158 -1.6115652523436488 1.9527528921710413 -1.9120036564269007 -1.5707529226886194 3.1037344932556152 True True
815.6899999999999 4.67453670501709 -1.6121889553465785 1.9516833464251917 -1.910414835015768 -1.570784870778219 3.103717565536499 True True
815.7099999999999 4.674490928649902 -1.6127716503539027 1.9507735411273401 -1.9087783298888148 -1.570756737385885 3.1037299633026123 True True
815.73 4.6744914054870605 -1.613298078576559 1.949907128010885 -1.9072419605650843 -1.5708373228656214 3.103739023208618 True True
815.75 4.674556732177734 -1.613826414147848 1.9491918722735804 -1.9059764347472132 -1.5708211104022425 3.1037299633026123 True True
815.77 4.674540042877197 -1.6143437824644984 1.9482758680926722 -1.9046627483763636 -1.570756737385885 3.103713035583496 True True
815.79 4.6744489669799805 -1.6148292026915492 1.9475143591510218 -1.9034816227354945 -1.570784870778219 3.103693723678589 True True
815.81 4.674582004547119 -1.6151844463744105 1.9467976729022425 -1.9023682079710902 -1.5708254019366663 3.103713035583496 True True
815.8299999999999 4.6744866371154785 -1.6156116924681605 1.946130100880758 -1.901222368279928 -1.570824925099508 3.103722095489502 True True
815.8499999999999 4.674577236175537 -1.6159926853575648 1.9455464521991175 -1.9002930126585902 -1.5708044211017054 3.103755474090576 True True
815.87 4.674502849578857 -1.6162911854186 1.945033375416891 -1.8994776211180628 -1.5708087126361292 3.103726625442505 True True
815.89 4.674511909484863 -1.6166354618468226 1.9445455710040491 -1.8987399540343226 -1.5708048979388636 3.1037509441375732 True True
815.91 4.674511909484863 -1.6169282398619593 1.944183651600973 -1.8980337582030238 -1.570801083241598 3.103701114654541 True True
815.93 4.674572944641113 -1.617140909234518 1.9437630812274378 -1.8974348507323207 -1.5707524458514612 3.103668212890625 True True
815.9499999999999 4.674511909484863 -1.6172977886595667 1.9434602896319788 -1.8969799480833949 -1.5708044211017054 3.10371470451355 True True
815.9699999999999 4.674563884735107 -1.61747469524526 1.9432299772845667 -1.8965527019896449 -1.5707891623126429 3.1037309169769287 True True
815.99 4.674535751342773 -1.6176120243468226 1.9430134932147425 -1.896097799340719 -1.5707648436175745 3.103739023208618 True True
816.01 4.674498558044434 -1.6176639995970667 1.942965332661764 -1.8958784542479457 -1.5707891623126429 3.103743553161621 True True
816.03 4.6745076179504395 -1.6177150211729945 1.9428351561175745 -1.895743032495016 -1.5707767645465296 3.103692054748535 True True
816.05 4.674540042877197 -1.617709299127096 1.9427903334247034 -1.8957025013365687 -1.5707886854754847 3.103693723678589 True True
816.0699999999999 4.6745100021362305 -1.6177765331664027 1.942824665700094 -1.8957792721190394 -1.5707891623126429 3.1037211418151855 True True
816.0899999999999 4.674484729766846 -1.6177708111205042 1.942829434071676 -1.8957792721190394 -1.5708335081683558 3.103649139404297 True True
816.11 4.674299240112305 -1.6177755794920863 1.9426706472979944 -1.8957554302611292 -1.5707805792437952 3.103478193283081 True True
816.13 4.67401647567749 -1.617791315118307 1.9425700346576136 -1.8956948719420375 -1.570801083241598 3.1032309532165527 True True
816.15 4.673717498779297 -1.6177507839598597 1.9425042311297815 -1.8956157169737757 -1.5707767645465296 3.102898120880127 True True
816.17 4.673322677612305 -1.617742200891012 1.9424322287188929 -1.8955513439574183 -1.5707967917071741 3.1025147438049316 True True
816.1899999999999 4.672834873199463 -1.6177059612669886 1.94230825105776 -1.8955594501891078 -1.5707891623126429 3.102065324783325 True True
816.2099999999999 4.672292709350586 -1.6175533733763636 1.942214314137594 -1.8955232105650843 -1.570813004170553 3.1014723777770996 True True
816.23 4.6716179847717285 -1.6175199947752894 1.942035977040426 -1.8954831562437953 -1.5707967917071741 3.1007471084594727 True True
816.25 4.670856952667236 -1.617343088189596 1.941925350819723 -1.8954912624754847 -1.570772949849264 3.0999770164489746 True True
816.27 4.669986248016357 -1.6170836887755335 1.9417441526996058 -1.8954469166197718 -1.5707686583148401 3.0991501808166504 True True
816.29 4.669048309326172 -1.6170150242247523 1.9416425863849085 -1.895414491693014 -1.5707967917071741 3.0982038974761963 True True
816.31 4.668006896972656 -1.616830965081686 1.9414013067828577 -1.8954268894591273 -1.570784870778219 3.0972466468811035 True True
816.3299999999999 4.6669416427612305 -1.616584917108053 1.941176716481344 -1.8954030476012171 -1.5707891623126429 3.0961263179779053 True True
816.3499999999999 4.66580057144165 -1.6164304218687953 1.9410079161273401 -1.8954030476012171 -1.5708168188678187 3.094963550567627 True True
816.37 4.664416313171387 -1.616218706170553 1.9407127539264124 -1.895355840722555 -1.570829216633932 3.0936806201934814 True True
816.39 4.663138389587402 -1.6160155735411585 1.9404824415790003 -1.8953520260252894 -1.570813004170553 3.092303991317749 True True
816.41 4.661693096160889 -1.6158329449095667 1.940249268208639 -1.895348688165182 -1.5707805792437952 3.0908620357513428 True True
816.43 4.660232067108154 -1.6155177555479945 1.940009895955221 -1.8952747784056605 -1.5708048979388636 3.089385747909546 True True
816.4499999999999 4.658588886260986 -1.6152340374388636 1.9397466818438929 -1.8952843151488246 -1.5708168188678187 3.087796211242676 True True
816.4699999999999 4.6569108963012695 -1.6150175533690394 1.9393933455096644 -1.8952237568297328 -1.5707605520831507 3.0860960483551025 True True
816.49 4.655171871185303 -1.6146828136839808 1.9391401449786585 -1.8951999149718226 -1.5708168188678187 3.084359645843506 True True
816.51 4.653261661529541 -1.6144114933409632 1.938838307057516 -1.8952003918089808 -1.570784870778219 3.082484245300293 True True
816.53 4.651322841644287 -1.6140934429564417 1.9384296576129358 -1.895156045953268 -1.57074481645693 3.080505847930908 True True
816.55 4.649252414703369 -1.6137100658812464 1.9380138556109827 -1.8951245747008265 -1.5707772413836878 3.078578472137451 True True
816.5699999999999 4.647197246551514 -1.6133424244322718 1.9376872221576136 -1.8950687847533167 -1.5707805792437952 3.0763885974884033 True True
816.5899999999999 4.644898414611816 -1.6130296192564906 1.9373000303851526 -1.895008226434225 -1.5708006064044397 3.074202060699463 True True
816.61 4.642702102661133 -1.6126676998534144 1.936857048665182 -1.8949972591795863 -1.5708087126361292 3.0718984603881836 True True
816.63 4.640413284301758 -1.6123563251891078 1.936484162007467 -1.8949643574156703 -1.5708087126361292 3.06958270072937 True True
816.65 4.637866020202637 -1.6118198833861292 1.9360550085650843 -1.8948961697020472 -1.5708087126361292 3.0670413970947266 True True
816.67 4.63538122177124 -1.611417909661764 1.9356372992144983 -1.8948847256102503 -1.5707529226886194 3.064521074295044 True True
816.6899999999999 4.6328020095825195 -1.6109653911986292 1.935052220021383 -1.8948165378966273 -1.5707805792437952 3.061919927597046 True True
816.7099999999999 4.630109786987305 -1.6106025181212367 1.934577767048971 -1.894740720788473 -1.5708449522601526 3.0592122077941895 True True
816.73 4.627291202545166 -1.6101395092406214 1.934030834828512 -1.8947164020934046 -1.570801083241598 3.056378126144409 True True
816.75 4.6243743896484375 -1.609647890130514 1.9334753195392054 -1.8946405849852503 -1.5707562605487269 3.0535759925842285 True True
816.77 4.6213555335998535 -1.6091262302794398 1.9329426924334925 -1.894710203210348 -1.5708254019366663 3.050614833831787 True True
816.79 4.618296146392822 -1.608689924279684 1.9324200789081019 -1.8945571384825648 -1.5707886854754847 3.047616720199585 True True
816.81 4.615131378173828 -1.6080500088133753 1.9318965117083948 -1.8944694004454554 -1.5707805792437952 3.0444283485412598 True True
816.8299999999999 4.611883163452148 -1.6075316868224085 1.9312546888934534 -1.8944417438902796 -1.5707805792437952 3.0412113666534424 True True
816.8499999999999 4.60869836807251 -1.6070848904051722 1.9306767622577112 -1.8944016895689906 -1.5708087126361292 3.037890911102295 True True
816.87 4.60527229309082 -1.6065145931639613 1.9300368467914026 -1.8943702183165492 -1.5707929770099085 3.0344669818878174 True True
816.89 4.601904392242432 -1.6058961353697718 1.929408375416891 -1.8942705593504847 -1.5708168188678187 3.0310404300689697 True True
816.91 4.598315238952637 -1.6053549251952113 1.9288690725909632 -1.8942343197264613 -1.5707648436175745 3.0274817943573 True True
816.93 4.594662189483643 -1.6047717533507289 1.928140942250387 -1.8941055736937464 -1.5708087126361292 3.0238707065582275 True True
816.9499999999999 4.590824604034424 -1.6041346989073695 1.9274266401873987 -1.8940941296019496 -1.570813004170553 3.020186424255371 True True
816.9699999999999 4.587095737457275 -1.603572507897848 1.926711384450094 -1.8939782581725062 -1.5707686583148401 3.016310453414917 True True
816.99 4.583109378814697 -1.6028796635069789 1.925981346760885 -1.89398254970693 -1.5708087126361292 3.0124404430389404 True True
817.01 4.5791754722595215 -1.6022173366942347 1.9252970854388636 -1.8939105472960414 -1.5707724730121058 3.0084376335144043 True True
817.03 4.575267314910889 -1.6015774212279261 1.9245389143573206 -1.8938313923277796 -1.5707929770099085 3.00435733795166 True True
817.05 4.571047782897949 -1.6008068523802699 1.923795525227682 -1.893754621545309 -1.5707967917071741 3.000232696533203 True True
817.0699999999999 4.566877365112305 -1.6001416645445765 1.9230783621417444 -1.8936549625792445 -1.5707362333880823 2.9959466457366943 True True
817.0899999999999 4.5625319480896 -1.5994955501952113 1.9223106543170374 -1.8936158619322718 -1.5708044211017054 2.9916749000549316 True True
817.11 4.558061122894287 -1.598757883111471 1.9215200583087366 -1.8935195408263148 -1.5707443396197718 2.9872395992279053 True True
817.13 4.553542137145996 -1.598032613793844 1.9207022825824183 -1.8934680424132289 -1.570829216633932 2.9828150272369385 True True
817.15 4.548891544342041 -1.597236772576803 1.9198091665851038 -1.8933917484679164 -1.5708373228656214 2.9781785011291504 True True
817.17 4.544328689575195 -1.5965053043761195 1.9189065138446253 -1.8932601414122523 -1.5708168188678187 2.973477840423584 True True
817.1899999999999 4.539588451385498 -1.595739027062887 1.918086353932516 -1.893228670159811 -1.5707967917071741 2.968674421310425 True True
817.2099999999999 4.534758567810059 -1.5949069462218226 1.9171794096576136 -1.8931404552855433 -1.5708335081683558 2.963948965072632 True True
817.23 4.529904842376709 -1.5940824947752894 1.9162805716144007 -1.8929764233031214 -1.5708168188678187 2.9590988159179688 True True
817.25 4.524805545806885 -1.5932446918883265 1.9154484907733362 -1.8929287395873011 -1.5707925001727503 2.954047918319702 True True
817.27 4.519650936126709 -1.592419286767477 1.9145625273333948 -1.892797132531637 -1.5707891623126429 2.949007749557495 True True
817.29 4.514554977416992 -1.5915662250914515 1.9135835806476038 -1.8927489719786585 -1.570756737385885 2.94378399848938 True True
817.31 4.5093255043029785 -1.590747972527975 1.9125106970416468 -1.8926249943175257 -1.570784870778219 2.938445806503296 True True
817.3299999999999 4.503975868225098 -1.5898753605284632 1.9114802519427698 -1.892569204370016 -1.5707967917071741 2.9331398010253906 True True
817.3499999999999 4.498634338378906 -1.5890208683409632 1.9105537573443812 -1.8924056492247523 -1.5708091894732874 2.9277637004852295 True True
817.37 4.493067741394043 -1.5881349049010218 1.9095643202411097 -1.8923779926695765 -1.5707767645465296 2.922276258468628 True True
817.39 4.487346172332764 -1.5871545277037562 1.9085963408099573 -1.8922740421690882 -1.570801083241598 2.9166460037231445 True True
817.41 4.481740951538086 -1.586191316644186 1.907642666493551 -1.8921576939024867 -1.5708048979388636 2.910869598388672 True True
817.43 4.4760050773620605 -1.5852509937682093 1.9066575209247034 -1.8919903240599574 -1.5708368460284632 2.9051361083984375 True True
817.4499999999999 4.470191955566406 -1.5843574009337367 1.9055126349078577 -1.891930719415182 -1.5707925001727503 2.899311065673828 True True
817.4699999999999 4.464257717132568 -1.583414693871969 1.9043315092669886 -1.8918868503966273 -1.5707843939410608 2.893494129180908 True True
817.49 4.45815896987915 -1.5823623142638148 1.9032462278949183 -1.8917962513365687 -1.5707805792437952 2.8874294757843018 True True
817.51 4.452058792114258 -1.581353326837057 1.9022205511676233 -1.8915912113585414 -1.5708406607257288 2.8812742233276367 True True
817.53 4.445949554443359 -1.5803991756834925 1.9011271635638636 -1.891519685784811 -1.5707805792437952 2.875086545944214 True True
817.55 4.439688682556152 -1.579273363152975 1.9000509420977991 -1.8914033375182093 -1.5708006064044397 2.86873722076416 True True
817.5699999999999 4.433335781097412 -1.5782958469786585 1.898832146321432 -1.8912927112975062 -1.570784870778219 2.8624939918518066 True True
817.5899999999999 4.426756381988525 -1.5772649250426234 1.897552792225973 -1.891224046746725 -1.5707767645465296 2.8561112880706787 True True
817.61 4.4201579093933105 -1.5761710606017054 1.8963277975665491 -1.8911286793150843 -1.5708087126361292 2.8494226932525635 True True
817.63 4.413712501525879 -1.575048109094137 1.8952506224261683 -1.890853067437643 -1.5707610289203089 2.842839002609253 True True
817.65 4.407038688659668 -1.5739757023253382 1.8941023985492151 -1.8908211193480433 -1.5707805792437952 2.8361430168151855 True True
817.67 4.4002790451049805 -1.5728479824461878 1.8928611914264124 -1.8906852207579554 -1.5708048979388636 2.8295066356658936 True True
817.6899999999999 4.3932695388793945 -1.5716997585692347 1.8916500250445765 -1.8905774555602015 -1.5707891623126429 2.8225700855255127 True True
817.7099999999999 4.38631534576416 -1.5705694448300456 1.8902877012835901 -1.8904615841307582 -1.5708697477923792 2.8154568672180176 True True
817.73 4.3793840408325195 -1.5694416414811094 1.8889949957477015 -1.8903786144652308 -1.5707529226886194 2.8084359169006348 True True
817.75 4.372311115264893 -1.568202332859375 1.8877342383014124 -1.8901859722533167 -1.5707529226886194 2.8014018535614014 True True
817.77 4.3650312423706055 -1.5671504063396533 1.8865416685687464 -1.8900348148741664 -1.5707686583148401 2.7942941188812256 True True
817.79 4.3575968742370605 -1.5658618177152057 1.8850114981280726 -1.8899671039977015 -1.570829216633932 2.786823034286499 True True
817.81 4.350316524505615 -1.564658598308899 1.8836372534381312 -1.8898712597289027 -1.5707529226886194 2.779435873031616 True True
817.8299999999999 4.342849254608154 -1.5634370034425338 1.8822763601886194 -1.8897119961180628 -1.5708087126361292 2.7720282077789307 True True
817.8499999999999 4.33529806137085 -1.5621795843220134 1.8809683958636683 -1.8895274601378382 -1.570772949849264 2.7645652294158936 True True
817.87 4.327573776245117 -1.560917930012085 1.8795431295977991 -1.8893958530821742 -1.5707967917071741 2.756925106048584 True True
817.89 4.319957256317139 -1.559640752417483 1.8781707922564905 -1.889280458489889 -1.5708087126361292 2.749136209487915 True True
817.91 4.312249660491943 -1.558521911767759 1.8766868750201624 -1.8891445598998011 -1.5708373228656214 2.7413320541381836 True True
817.93 4.3042378425598145 -1.5571888380548735 1.8752225081073206 -1.889024396935934 -1.5707772413836878 2.733523368835449 True True
817.9499999999999 4.2962799072265625 -1.5558103931001206 1.87382680574526 -1.8888937435545863 -1.5708487669574183 2.725515842437744 True True
817.9699999999999 4.28822660446167 -1.5544764467379828 1.872497860585348 -1.8886977634825648 -1.5708087126361292 2.717406749725342 True True
817.99 4.280139923095703 -1.5531580199352284 1.870981518422262 -1.888545652429098 -1.570801083241598 2.709273099899292 True True
818.01 4.27191686630249 -1.5518187687597056 1.8694384733783167 -1.8884302578368128 -1.570824925099508 2.7012524604797363 True True
818.03 4.2637224197387695 -1.550535525461175 1.8679421583758753 -1.8883468113341273 -1.5708368460284632 2.692929744720459 True True
818.05 4.255642414093018 -1.5491619792631646 1.866570297871725 -1.8881074390807093 -1.570829216633932 2.6847217082977295 True True
818.0699999999999 4.247548580169678 -1.5477749419263382 1.8650849501239222 -1.8879715404906214 -1.5707929770099085 2.676591634750366 True True
818.0899999999999 4.239205837249756 -1.5465113942376156 1.8634846846209925 -1.8878194294371546 -1.5708487669574183 2.66853666305542 True True
818.11 4.230910778045654 -1.5451315951398392 1.8619697729693812 -1.887724062005514 -1.5708044211017054 2.6601715087890625 True True
818.13 4.222999572753906 -1.5437945307097216 1.860532585774557 -1.8875113926329554 -1.5708087126361292 2.6520488262176514 True True
818.15 4.214906692504883 -1.5424003221890707 1.8591936270343226 -1.8874131641783656 -1.5707929770099085 2.6439788341522217 True True
818.17 4.206479072570801 -1.5410828471979876 1.8576443831073206 -1.887308736840719 -1.5708325544940394 2.6358346939086914 True True
818.1899999999999 4.198315620422363 -1.5397329212031146 1.856053654347555 -1.8871528110899867 -1.5707810560809534 2.627559185028076 True True
818.2099999999999 4.190312385559082 -1.5385005374303837 1.8545482794391077 -1.8869534931578578 -1.5708006064044397 2.6193764209747314 True True
