Andreas691667/Digital_Twin_UR/src/controller_monitor/test_results/robot_output.csv
timestamp actual_q_0 actual_q_1 actual_q_2 actual_q_3 actual_q_4 actual_q_5 output_bit_register_65 output_bit_register_66
13617.073999999999 2.99877667427063 -1.342980222111084 1.6381028334247034 -1.8658558330931605 -1.5707967917071741 1.4279975891113281 False False
13617.094 2.9987852573394775 -1.342980222111084 1.6380522886859339 -1.865823885003561 -1.5708492437945765 1.4280098676681519 False False
13617.114 2.998809337615967 -1.3429640096477051 1.638068977986471 -1.8659278355040492 -1.570801083241598 1.4279817342758179 False False
13617.134 2.99877667427063 -1.342944235806801 1.6381014029132288 -1.8658887348570765 -1.570829216633932 1.4279687404632568 False False
13617.153999999999 2.9988255500793457 -1.3429268312505265 1.6380823294269007 -1.8658763370909632 -1.570801083241598 1.4279890060424805 False False
13617.173999999999 2.9988224506378174 -1.3430213642171402 1.638007942830221 -1.8659445248045863 -1.570829216633932 1.428005576133728 False False
13617.194 2.9987690448760986 -1.342914880519249 1.6380451361285608 -1.8659116230406703 -1.5707929770099085 1.4279968738555908 False False
13617.214 2.9987852573394775 -1.3429269057563324 1.6380522886859339 -1.8658558330931605 -1.5707891623126429 1.4279686212539673 False False
13617.233999999999 2.998810291290283 -1.3429759007743378 1.6380522886859339 -1.865847726861471 -1.570756737385885 1.4280250072479248 False False
13617.253999999999 2.998847246170044 -1.3429802072099228 1.6380522886859339 -1.86588778118276 -1.5707767645465296 1.4280303716659546 False False
13617.274 2.9987852573394775 -1.3429802519134064 1.6380522886859339 -1.865915914575094 -1.5707805792437952 1.4279643297195435 False False
13617.294 2.9987733364105225 -1.342963994746544 1.638057057057516 -1.865892072717184 -1.570813004170553 1.4280141592025757 False False
13617.313999999998 2.9987852573394775 -1.3429920834353943 1.6381223837481897 -1.8658400974669398 -1.5708335081683558 1.427919626235962 False False
13617.333999999999 2.9987895488739014 -1.3429312270930787 1.638057057057516 -1.8659082851805628 -1.5708168188678187 1.4279968738555908 False False
13617.354 2.9987895488739014 -1.3429149252227326 1.638043228779928 -1.8658720455565394 -1.5707891623126429 1.4279967546463013 False False
13617.374 2.9987528324127197 -1.3429474544576188 1.6380823294269007 -1.8658720455565394 -1.5708006064044397 1.4280098676681519 False False
13617.394 2.9987971782684326 -1.342947394852974 1.6380704084979456 -1.8658443890013636 -1.5707929770099085 1.427984595298767 False False
13617.413999999999 2.9988179206848145 -1.3429684203914185 1.6380823294269007 -1.8659240208067835 -1.5707686583148401 1.4279861450195312 False False
13617.434 2.998792886734009 -1.3429149699262162 1.638064209614889 -1.865847726861471 -1.5708087126361292 1.4279890060424805 False False
13617.454 2.998756170272827 -1.3429486167481919 1.638068977986471 -1.8659082851805628 -1.5708091894732874 1.4280381202697754 False False
13617.474 2.998809337615967 -1.34292687595401 1.638080898915426 -1.8658834896483363 -1.5707967917071741 1.4279524087905884 False False
13617.493999999999 2.998809337615967 -1.3429474544576188 1.638080898915426 -1.8658558330931605 -1.5707891623126429 1.4279611110687256 False False
13617.514 2.998792886734009 -1.3429312121919175 1.63808519044985 -1.8658997021117152 -1.570813004170553 1.4279977083206177 False False
13617.534 2.9987733364105225 -1.3429225844195862 1.6380866209613245 -1.8658596477904261 -1.5707686583148401 1.4279730319976807 False False
13617.554 2.998760223388672 -1.3429149252227326 1.6380775610553187 -1.865915914575094 -1.5707643667804163 1.4280173778533936 False False
13617.573999999999 2.998838424682617 -1.3429465603879471 1.63808519044985 -1.8658720455565394 -1.570801083241598 1.4280011653900146 False False
13617.594 2.9987971782684326 -1.3430008602193375 1.6380732695208948 -1.8658720455565394 -1.5707767645465296 1.4279932975769043 False False
13617.614 2.998732328414917 -1.3429727268270035 1.638068977986471 -1.8658844433226527 -1.5707967917071741 1.4280260801315308 False False
13617.634 2.998788595199585 -1.3429759305766602 1.6380985418902796 -1.86586393932485 -1.5708087126361292 1.4279731512069702 False False
13617.653999999999 2.9988179206848145 -1.342959688310959 1.638097111378805 -1.8659001789488734 -1.5708254019366663 1.4279801845550537 False False
13617.673999999999 2.998809337615967 -1.3429356080344697 1.63808519044985 -1.8658276997008265 -1.5707405249225062 1.4279967546463013 False False
13617.694 2.9987971782684326 -1.3429399293712159 1.638076130543844 -1.8659278355040492 -1.5707891623126429 1.4280381202697754 False False
13617.714 2.9987895488739014 -1.3429932755282898 1.6381014029132288 -1.8658720455565394 -1.5707925001727503 1.4279730319976807 False False
13617.733999999999 2.998826742172241 -1.3429194253734131 1.63808519044985 -1.8659035168089808 -1.5708091894732874 1.428039312362671 False False
13617.753999999999 2.9987971782684326 -1.342944250707962 1.6380894819842737 -1.8658439121642054 -1.5707767645465296 1.4279611110687256 False False
13617.774 2.9987809658050537 -1.3429561716369172 1.638068977986471 -1.8659116230406703 -1.5707805792437952 1.4280141592025757 False False
13617.794 2.998792886734009 -1.3429399293712159 1.6380451361285608 -1.865903993646139 -1.5708254019366663 1.4279556274414062 False False
13617.813999999998 2.99877667427063 -1.3428908747485657 1.638118092213766 -1.8658520183958949 -1.5707891623126429 1.4280292987823486 False False
13617.833999999999 2.9988224506378174 -1.3429268908551713 1.6381223837481897 -1.865944047967428 -1.5707891623126429 1.428008794784546 False False
13617.854 2.99877667427063 -1.3429312121919175 1.638068977986471 -1.8659001789488734 -1.5708087126361292 1.4280219078063965 False False
13617.874 2.998739719390869 -1.3429149699262162 1.6380732695208948 -1.865915914575094 -1.5708048979388636 1.4280011653900146 False False
13617.894 2.998826742172241 -1.3429684054902573 1.6380866209613245 -1.8659001789488734 -1.570784870778219 1.4279686212539673 False False
13617.913999999999 2.9987733364105225 -1.3429604780725022 1.638076130543844 -1.8658558330931605 -1.5707805792437952 1.4280292987823486 False False
13617.934 2.9988224506378174 -1.3429846328547974 1.638068977986471 -1.8658887348570765 -1.5707724730121058 1.4279968738555908 False False
13617.954 2.99878191947937 -1.3429106634906312 1.6380403677569788 -1.865915914575094 -1.5707686583148401 1.4280011653900146 False False
13617.974 2.998792886734009 -1.3429561269334336 1.6380732695208948 -1.865915914575094 -1.5708048979388636 1.427988052368164 False False
13617.993999999999 2.998760461807251 -1.3429727268270035 1.6380732695208948 -1.8658763370909632 -1.5707929770099085 1.4279890060424805 False False
13618.014 2.9988014698028564 -1.3429225844195862 1.6380656401263636 -1.8659001789488734 -1.5707605520831507 1.4279757738113403 False False
13618.034 2.998744010925293 -1.3429149848273774 1.63808519044985 -1.8658558330931605 -1.5707925001727503 1.427947998046875 False False
13618.054 2.9988136291503906 -1.3429561716369172 1.6381061712848108 -1.8658162556090296 -1.5707648436175745 1.4280173778533936 False False
13618.073999999999 2.9987809658050537 -1.3429138672402878 1.6381147543536585 -1.86586393932485 -1.5707724730121058 1.4279975891113281 False False
13618.094 2.998739719390869 -1.342951850300171 1.638057057057516 -1.865972181359762 -1.5707686583148401 1.4279999732971191 False False
13618.114 2.998809337615967 -1.3429031384042283 1.6380894819842737 -1.8658844433226527 -1.570784870778219 1.4279686212539673 False False
13618.134 2.998784303665161 -1.3429236871055146 1.6380894819842737 -1.8658958874144496 -1.5708048979388636 1.4279890060424805 False False
13618.153999999999 2.9987852573394775 -1.3429846477559586 1.6380451361285608 -1.865903993646139 -1.5708258787738245 1.4279817342758179 False False
13618.173999999999 2.9987809658050537 -1.3429312121919175 1.6380732695208948 -1.8658954105772914 -1.570801083241598 1.428005576133728 False False
13618.194 2.9988179206848145 -1.3429684054902573 1.6380775610553187 -1.8658558330931605 -1.5707886854754847 1.428018569946289 False False
13618.214 2.998809337615967 -1.3429431331208725 1.6381223837481897 -1.8658558330931605 -1.5707891623126429 1.4280381202697754 False False
13618.233999999999 2.9988179206848145 -1.342948557143547 1.6380327383624476 -1.865835805932516 -1.570829216633932 1.427984595298767 False False
13618.253999999999 2.9988179206848145 -1.3429878515056153 1.6380732695208948 -1.865920206109518 -1.5708087126361292 1.4279890060424805 False False
13618.274 2.9987852573394775 -1.342959688310959 1.6380775610553187 -1.8658725223936976 -1.5707967917071741 1.428045630455017 False False
13618.294 2.998810052871704 -1.3429160875133057 1.6380656401263636 -1.865847726861471 -1.5707805792437952 1.427964210510254 False False
13618.313999999998 2.998792886734009 -1.3429474246552964 1.638052765523092 -1.8659116230406703 -1.570833985005514 1.428002119064331 False False
13618.333999999999 2.9987852573394775 -1.3429770034602662 1.638068977986471 -1.8658439121642054 -1.5707648436175745 1.4279801845550537 False False
13618.354 2.9988136291503906 -1.342972756629326 1.6380451361285608 -1.865892072717184 -1.5707481543170374 1.4280381202697754 False False
13618.374 2.9988014698028564 -1.3430009347251435 1.638057057057516 -1.8659359417357386 -1.5707767645465296 1.4279890060424805 False False
13618.394 2.9987809658050537 -1.3429356080344697 1.6380236784564417 -1.865903993646139 -1.5707925001727503 1.4280098676681519 False False
13618.413999999999 2.9987971782684326 -1.342906342153885 1.6380451361285608 -1.86586393932485 -1.5708211104022425 1.4279817342758179 False False
13618.434 2.998810052871704 -1.3429356080344697 1.6381028334247034 -1.865932127038473 -1.5707648436175745 1.427984595298767 False False
13618.454 2.9988298416137695 -1.3429312121919175 1.6381056944476526 -1.8658205471434535 -1.5707929770099085 1.4280043840408325 False False
13618.474 2.9988298416137695 -1.3429474544576188 1.6380236784564417 -1.8658677540221156 -1.5708048979388636 1.4280065298080444 False False
13618.493999999999 2.9988136291503906 -1.3429813545993348 1.638007942830221 -1.8658958874144496 -1.5707886854754847 1.4280056953430176 False False
13618.514 2.998809337615967 -1.3429846477559586 1.63798696199526 -1.8658720455565394 -1.5707691351519983 1.4279975891113281 False False
13618.534 2.9987895488739014 -1.3429312121919175 1.6380766073810022 -1.8658958874144496 -1.5707805792437952 1.427984595298767 False False
13618.554 2.9987809658050537 -1.3429312270930787 1.6380599180804651 -1.8658400974669398 -1.5708335081683558 1.4280142784118652 False False
13618.573999999999 2.9988222122192383 -1.3429064464620133 1.6380241552936 -1.8658844433226527 -1.5707529226886194 1.4279568195343018 False False
13618.594 2.998816967010498 -1.3429685097983857 1.6380613485919397 -1.86586393932485 -1.5707243124591272 1.4279568195343018 True False
13618.614 2.998748540878296 -1.3429312121919175 1.6380494276629847 -1.8658596477904261 -1.570756737385885 1.4280294179916382 True False
13618.634 2.9988057613372803 -1.3428988021663208 1.6380861441241663 -1.8658677540221156 -1.570772949849264 1.4279967546463013 True False
13618.653999999999 2.9987971782684326 -1.3429106634906312 1.6380646864520472 -1.8658887348570765 -1.570801083241598 1.4280130863189697 True False
13618.673999999999 2.998913526535034 -1.3430171769908448 1.6380451361285608 -1.8659078083434046 -1.5708087126361292 1.4280520677566528 True False
13618.694 2.9991161823272705 -1.3429964792779465 1.638080898915426 -1.865920206109518 -1.5707925001727503 1.4283279180526733 True False
13618.714 2.9995076656341553 -1.3430566650680085 1.638097111378805 -1.8658520183958949 -1.5708335081683558 1.4286781549453735 True False
13618.733999999999 2.9999983310699463 -1.3431895834258576 1.638200585042135 -1.86588778118276 -1.5707648436175745 1.4292685985565186 True False
13618.753999999999 3.000789165496826 -1.3432629120400925 1.6383431593524378 -1.8658801517882289 -1.5707925001727503 1.4300999641418457 True False
13618.774 3.0018341541290283 -1.343508170252182 1.6386359373675745 -1.8658958874144496 -1.5708168188678187 1.4310969114303589 True False
13618.794 3.0033316612243652 -1.343694658284523 1.6388228575335901 -1.865955492059225 -1.570801083241598 1.4325629472732544 True False
13618.813999999998 3.0052406787872314 -1.3440032464316864 1.6391175428973597 -1.8659073315062464 -1.5707891623126429 1.4344098567962646 True False
13618.833999999999 3.007556200027466 -1.344411702161171 1.639543358479635 -1.8660551510252894 -1.5708492437945765 1.4367167949676514 True False
13618.854 3.0103440284729004 -1.3448678714087983 1.6400259176837366 -1.8660670719542445 -1.5707691351519983 1.439611792564392 True False
13618.874 3.013719320297241 -1.3454686564258118 1.6406148115741175 -1.8661219082274378 -1.5707886854754847 1.44298255443573 True False
13618.894 3.017939805984497 -1.346075789337494 1.6413605848895472 -1.8662058315672816 -1.5707767645465296 1.4470653533935547 True False
13618.913999999999 3.0228219032287598 -1.3468578320792695 1.6423309485064905 -1.8662969074644984 -1.5708168188678187 1.4519375562667847 True False
13618.934 3.028149127960205 -1.347811521296837 1.6433585325824183 -1.8664332828917445 -1.5707648436175745 1.4573456048965454 True False
13618.954 3.0341432094573975 -1.3487254095128556 1.6445024649249476 -1.866483827630514 -1.5707886854754847 1.4633662700653076 True False
13618.974 3.0407822132110596 -1.3498591941646119 1.6457369963275355 -1.866643568078512 -1.5707762877093714 1.4699269533157349 True False
13618.993999999999 3.0478382110595703 -1.3509281289628525 1.6470206419574183 -1.8667623005309046 -1.5708168188678187 1.4770411252975464 True False
13619.014 3.055525064468384 -1.3523052793792267 1.6483929792987269 -1.8669454059996546 -1.570813004170553 1.48468816280365 True False
13619.034 3.0637776851654053 -1.353630231027939 1.649832550679342 -1.8670884571471156 -1.5707967917071741 1.4930033683776855 True False
13619.054 3.072526216506958 -1.3549711865237732 1.6515024344073694 -1.8672400913634242 -1.5708172957049769 1.5018259286880493 True False
13619.073999999999 3.082024335861206 -1.3565925073674698 1.6531675497638147 -1.8673469028868617 -1.5708296934710901 1.5111254453659058 True False
13619.094 3.091932535171509 -1.3582261216691514 1.6549237410174769 -1.867589613000387 -1.570801083241598 1.521032452583313 True False
13619.114 3.1022403240203857 -1.3599991214326401 1.656790558491842 -1.8678208790221156 -1.5708211104022425 1.5315537452697754 True False
13619.134 3.1133718490600586 -1.3618099552444 1.6589091459857386 -1.8679233990111292 -1.570768181477682 1.542506217956543 True False
13619.153999999999 3.1250176429748535 -1.363672436480858 1.6610730330096644 -1.8681265316405238 -1.5708377997027796 1.5541616678237915 True False
13619.173999999999 3.136863946914673 -1.3657683742097397 1.663236443196432 -1.868420740167135 -1.5708373228656214 1.566266655921936 True False
13619.194 3.149786949157715 -1.3677627456239243 1.6655753294574183 -1.8685671291747035 -1.570824925099508 1.5789273977279663 True False
13619.214 3.1631295680999756 -1.3699062776616593 1.6681259314166468 -1.8686868153014125 -1.5707524458514612 1.592307209968567 True False
13619.233999999999 3.17679500579834 -1.3720805060914536 1.6704676787005823 -1.8690844974913539 -1.5708730856524866 1.6060748100280762 True False
13619.253999999999 3.1912636756896973 -1.374568910603859 1.6730364004718226 -1.8693276844420375 -1.570756737385885 1.620428204536438 True False
13619.274 3.2062418460845947 -1.3769873094609757 1.6756814161883753 -1.86952604869985 -1.5708296934710901 1.6354366540908813 True False
13619.294 3.2217397689819336 -1.379489542250969 1.6785367170916956 -1.869859357873434 -1.5707891623126429 1.6508976221084595 True False
13619.313999999998 3.237761974334717 -1.3821857285550614 1.6815570036517542 -1.8700863323607386 -1.5707925001727503 1.667000412940979 True False
13619.333999999999 3.2543623447418213 -1.3848809760859986 1.6845486799823206 -1.8704282246031703 -1.5707891623126429 1.6836148500442505 True False
13619.354 3.2715132236480713 -1.387740434413292 1.6876290480243128 -1.8707624874510707 -1.5708044211017054 1.7006925344467163 True False
13619.374 3.2893173694610596 -1.3906483066133042 1.6909392515765589 -1.8710328541197718 -1.5707324186908167 1.7184944152832031 True False
13619.394 3.307560920715332 -1.3936343801072617 1.6943500677691858 -1.8713990650572718 -1.5708087126361292 1.7367976903915405 True False
13619.413999999999 3.3264036178588867 -1.396727205520012 1.6978066603290003 -1.8717409572997035 -1.570833985005514 1.7556859254837036 True False
13619.434 3.3458592891693115 -1.399917261009552 1.7012432257281702 -1.8719951115050257 -1.5707357565509241 1.7748724222183228 True False
13619.454 3.3657777309417725 -1.4031772923520585 1.7047956625567835 -1.8723837337889613 -1.5708254019366663 1.7949939966201782 True False
13619.474 3.386348247528076 -1.4066037249616166 1.7084601561175745 -1.8727499447264613 -1.570784870778219 1.8155585527420044 True False
13619.493999999999 3.40729022026062 -1.4100119483521958 1.7122953573810022 -1.8730956516661585 -1.5707691351519983 1.8364084959030151 True False
13619.514 3.428218126296997 -1.4133587938598176 1.7160466353045862 -1.8734656773009242 -1.5708296934710901 1.857383370399475 True False
13619.534 3.449044942855835 -1.4167502236417313 1.719778839741842 -1.8738957844176234 -1.5707529226886194 1.8783899545669556 True False
13619.554 3.4701156616210938 -1.42032045245681 1.7236951033221644 -1.8743249378600062 -1.5707929770099085 1.899208426475525 True False
13619.573999999999 3.490994691848755 -1.4236195993474503 1.727593723927633 -1.8746987781920375 -1.5707967917071741 1.9202686548233032 True False
13619.594 3.5119338035583496 -1.4270838660052796 1.7315433661090296 -1.8749286137022914 -1.5707772413836878 1.941206693649292 True False
13619.614 3.5328917503356934 -1.4306248736432572 1.7351811567889612 -1.87538542369985 -1.5707925001727503 1.962001919746399 True False
13619.634 3.5538711547851562 -1.4340280157378693 1.7388909498797815 -1.875852724114889 -1.5708087126361292 1.98306143283844 True False
13619.653999999999 3.5747625827789307 -1.437472016816475 1.742753807698385 -1.8760739765562953 -1.5707610289203089 2.0040688514709473 True False
13619.673999999999 3.5957705974578857 -1.4408865732005616 1.746601406727926 -1.876460691491598 -1.5707929770099085 2.0248193740844727 True False
13619.694 3.616720199584961 -1.4442523282817383 1.750211540852682 -1.8768764934935511 -1.5707805792437952 2.045926094055176 True False
13619.714 3.637575149536133 -1.4477671843818207 1.7540877501117151 -1.8771702251830042 -1.5707810560809534 2.066838026046753 True False
13619.733999999999 3.6585288047790527 -1.4510829162648697 1.7580741087542933 -1.8775259457030238 -1.5708048979388636 2.087677001953125 True False
13619.753999999999 3.679588794708252 -1.454604522590973 1.7618525663958948 -1.8779860935606898 -1.5708048979388636 2.1086795330047607 True False
13619.774 3.700439214706421 -1.4580544021776696 1.7656438986407679 -1.8782688579955042 -1.5707891623126429 2.129754066467285 True False
13619.794 3.7213590145111084 -1.4615561676076432 1.7692869345294397 -1.8787723980345667 -1.5707605520831507 2.1505048274993896 True False
13619.813999999998 3.7423689365386963 -1.4649657693556328 1.7730892340289515 -1.8790065250792445 -1.570841137562887 2.171577215194702 True False
13619.833999999999 3.763298273086548 -1.4683706623366852 1.7770169417010706 -1.879362245599264 -1.5707810560809534 2.1925911903381348 True False
13619.854 3.7841956615448 -1.4718037706664582 1.7807562986956995 -1.8797608814635218 -1.5707925001727503 2.213306188583374 True False
13619.874 3.805215835571289 -1.475231149499752 1.7845476309405726 -1.8802043400206507 -1.570801083241598 2.2344436645507812 True False
13619.894 3.826157808303833 -1.4787271109274407 1.788473908101217 -1.8805080852904261 -1.5707762877093714 2.255380868911743 True False
13619.913999999999 3.8470208644866943 -1.482094870214798 1.7924020926104944 -1.880829473535055 -1.5707805792437952 2.2761993408203125 True False
13619.934 3.8680825233459473 -1.4855121460608025 1.7960532347308558 -1.8813420734801234 -1.570784870778219 2.2972123622894287 True False
13619.954 3.888988733291626 -1.489024133687355 1.799802605305807 -1.8817368946471156 -1.5708006064044397 2.318202495574951 True False
13619.974 3.9098689556121826 -1.4924211663058777 1.803568188344137 -1.8821331463255824 -1.5707686583148401 2.339017629623413 True False
13619.993999999999 3.930914878845215 -1.4958831009319802 1.8073914686786097 -1.882383485833639 -1.5707886854754847 2.3600375652313232 True False
13620.014 3.951756477355957 -1.4992154848626633 1.8112476507769983 -1.8827220402159632 -1.570784870778219 2.381122350692749 True False
13620.034 3.972606897354126 -1.5027131673744698 1.8150413672076624 -1.8832065067686976 -1.5707362333880823 2.401796817779541 True False
13620.054 3.993809700012207 -1.506198802297451 1.8188484350787562 -1.8834887943663539 -1.5708487669574183 2.4228878021240234 True False
13620.073999999999 4.0146331787109375 -1.5095615585199376 1.8228972593890589 -1.8838373623290003 -1.5708172957049769 2.443881034851074 True False
13620.094 4.035543918609619 -1.5129743863693257 1.8267353216754358 -1.8842841587462367 -1.5707724730121058 2.4646661281585693 True False
13620.114 4.05654764175415 -1.5164694164744397 1.8302519957171839 -1.8846312961974085 -1.5707767645465296 2.485705614089966 True False
13620.134 4.077398300170898 -1.5199199852398415 1.8340337912188929 -1.8849865398802699 -1.5708087126361292 2.506695508956909 True False
13620.153999999999 4.098315238952637 -1.5233824488571663 1.837947193776266 -1.8853455982603968 -1.5707686583148401 2.5275871753692627 True False
13620.173999999999 4.119490623474121 -1.5268027049354096 1.841654125844137 -1.8856398067870082 -1.5707724730121058 2.5484700202941895 True False
13620.194 4.1402177810668945 -1.5302460578135033 1.8453581968890589 -1.8860870800414027 -1.5708377997027796 2.569572925567627 True False
13620.214 4.161269664764404 -1.5337403056076546 1.8493135611163538 -1.8864428005614222 -1.570784870778219 2.590346574783325 True False
13620.233999999999 4.182301044464111 -1.5370832879892369 1.8532350699054163 -1.886745115319723 -1.5707967917071741 2.6113839149475098 True False
13620.253999999999 4.203080177307129 -1.5405293808183451 1.857093636189596 -1.887193342248434 -1.5708368460284632 2.632390260696411 True False
13620.274 4.224067211151123 -1.5439580784044047 1.8607662359820765 -1.8876286945738734 -1.5707486311541956 2.6531882286071777 True False
13620.294 4.245064735412598 -1.5473097164979954 1.864497486745016 -1.8879548511900843 -1.5708048979388636 2.6741783618927 True False
13620.313999999998 4.265967845916748 -1.5507797107896586 1.8683918158160608 -1.888390680352682 -1.5708211104022425 2.695250988006592 True False
13620.333999999999 4.286870956420898 -1.554223333751299 1.8722189108477991 -1.8886743984618128 -1.5707605520831507 2.7159645557403564 True False
13620.354 4.307483673095703 -1.5576077050394197 1.8758600393878382 -1.8891293011107386 -1.5708296934710901 2.736607313156128 True False
13620.374 4.327313423156738 -1.560978897181787 1.8795087973224085 -1.8894368610777796 -1.5707691351519983 2.75661563873291 True False
13620.394 4.346778392791748 -1.5640560009381552 1.8832033316241663 -1.8897038898863734 -1.5707605520831507 2.775883674621582 True False
13620.413999999999 4.365634441375732 -1.5671246552704652 1.8866246382342737 -1.8901478252806605 -1.570784870778219 2.794872999191284 True False
13620.434 4.383831024169922 -1.5702293159887013 1.889853302632467 -1.890430589715475 -1.5707886854754847 2.813100576400757 True False
13620.454 4.40167760848999 -1.5730816326537074 1.8929694334613245 -1.8907181225218714 -1.570829216633932 2.830742359161377 True False
13620.474 4.418827533721924 -1.5758096180357875 1.8960769812213343 -1.8909808597960414 -1.5707929770099085 2.848083019256592 True False
13620.493999999999 4.435473442077637 -1.5785700283446253 1.8991316000567835 -1.8913647137083949 -1.5708325544940394 2.864572525024414 True False
13620.514 4.451553821563721 -1.5812889538206996 1.9020445982562464 -1.8915869198241175 -1.570845905934469 2.8808321952819824 True False
13620.534 4.466928005218506 -1.5837370357909144 1.9047978560077112 -1.891919275323385 -1.5708368460284632 2.8960092067718506 True False
13620.554 4.482022762298584 -1.5864340267577113 1.907557789479391 -1.8921700916686 -1.5707810560809534 2.911212205886841 True False
13620.573999999999 4.496325969696045 -1.5886618099608363 1.910215202962057 -1.8924137554564417 -1.5708168188678187 2.9255151748657227 True False
13620.594 4.5101237297058105 -1.5908404789366664 1.9128368536578577 -1.892585893670553 -1.5707362333880823 2.9394147396087646 True False
13620.614 4.523397922515869 -1.593090673486227 1.9153021017657679 -1.8928729496397914 -1.570784870778219 2.9526565074920654 True False
13620.634 4.536149024963379 -1.5952097378172816 1.9176576773272913 -1.8931247196593226 -1.5707486311541956 2.9653618335723877 True False
13620.653999999999 4.548251152038574 -1.5971600017943324 1.919731918965475 -1.893304010430807 -1.5707886854754847 2.977613925933838 True False
13620.673999999999 4.5600266456604 -1.599009176293844 1.921835724507467 -1.8935276470580042 -1.570801083241598 2.9890501499176025 True False
13620.694 4.570901870727539 -1.6008688412108363 1.9238651434527796 -1.8936549625792445 -1.5707772413836878 3.0002222061157227 True False
13620.714 4.581258773803711 -1.6024862728514613 1.9255951086627405 -1.8940192661681117 -1.57084829012026 3.010683059692383 True False
13620.733999999999 4.591516971588135 -1.604218145410055 1.927483860646383 -1.8940383396544398 -1.570756737385885 3.020331621170044 True False
13620.753999999999 4.600617408752441 -1.6057340107359828 1.9292271772967737 -1.8942142925658167 -1.5707929770099085 3.0298802852630615 True False
13620.774 4.6093854904174805 -1.6071163616576136 1.9307997862445276 -1.8944694004454554 -1.5708854834186 3.0387957096099854 True False
13620.794 4.617856025695801 -1.6085392437376917 1.9323003927813929 -1.894541402856344 -1.5707562605487269 3.0469319820404053 True False
13620.813999999998 4.62540864944458 -1.6097566090025843 1.9337347189532679 -1.8947373829283656 -1.5707529226886194 3.0545613765716553 True False
13620.833999999999 4.632505893707275 -1.6109215221800746 1.9349926153766077 -1.8948279819884242 -1.5708449522601526 3.061750888824463 True False
13620.854 4.6390299797058105 -1.6119824848570765 1.9361851851092737 -1.8949243030943812 -1.570829216633932 3.068380832672119 True False
13620.874 4.645157337188721 -1.6130019627013148 1.937225643788473 -1.8950044117369593 -1.5707886854754847 3.074296712875366 True False
13620.894 4.6506452560424805 -1.6139265499510707 1.9382274786578577 -1.8951722584166468 -1.5708048979388636 3.0797128677368164 True False
13620.913999999999 4.655531406402588 -1.6147376499571742 1.9391210714923304 -1.8952518902220667 -1.5708087126361292 3.0846164226531982 True False
13620.934 4.659816265106201 -1.6154495678343714 1.9399321714984339 -1.8952557049193324 -1.570784870778219 3.089005947113037 True False
13620.954 4.6635518074035645 -1.6159826717772425 1.9406335989581507 -1.8953710995116175 -1.570784870778219 3.0928127765655518 True False
13620.974 4.666747093200684 -1.616575380364889 1.941261116658346 -1.8954116306700648 -1.5708168188678187 3.0959722995758057 True False
13620.993999999999 4.669467449188232 -1.6169663868346156 1.9417427221881312 -1.8954550228514613 -1.5707686583148401 3.0987014770507812 True False
13621.014 4.671563148498535 -1.6173950634398402 1.942068878804342 -1.8955441914000453 -1.5707967917071741 3.1007978916168213 True False
13621.034 4.673151969909668 -1.617598672906393 1.9423802534686487 -1.8955151043333949 -1.5708563963519495 3.1023261547088623 True False
13621.054 4.674077987670898 -1.6177498302855433 1.9425776640521448 -1.8955594501891078 -1.5707967917071741 3.1032681465148926 True False
13621.073999999999 4.674471378326416 -1.6177836857237757 1.9425461927997034 -1.8955308399596156 -1.5708087126361292 3.1036908626556396 True False
13621.094 4.674421787261963 -1.6176454029478968 1.9426582495318812 -1.8959270916380824 -1.570784870778219 3.1036994457244873 True False
13621.114 4.6744160652160645 -1.617453237573141 1.9431288878070276 -1.8967167339720667 -1.570829216633932 3.1036386489868164 True False
13621.134 4.674473285675049 -1.6170503101744593 1.9439576307879847 -1.8976713619627894 -1.5708211104022425 3.103661298751831 True False
13621.153999999999 4.674465179443359 -1.6163402996458949 1.9450481573687952 -1.899515291253561 -1.5708611647235315 3.10367751121521 True False
13621.173999999999 4.674464225769043 -1.6156021557249964 1.946514908467428 -1.9018274746336878 -1.5707686583148401 3.103710174560547 True False
13621.194 4.67447566986084 -1.6144472561278285 1.9484036604510706 -1.9049369297423304 -1.5707886854754847 3.103668451309204 True False
13621.214 4.6744890213012695 -1.6130925617613734 1.9505489508258265 -1.9082256756224574 -1.5707886854754847 3.103759765625 True False
13621.233999999999 4.674511909484863 -1.6115895710387171 1.9530046621905726 -1.9123174152769984 -1.5707967917071741 3.103739023208618 True False
13621.253999999999 4.67453670501709 -1.6097775898375453 1.955743137990133 -1.9168716869749964 -1.5707843939410608 3.103722095489502 True False
13621.274 4.674532413482666 -1.6077662907042445 1.958918873463766 -1.9219724140562953 -1.5708006064044397 3.103705644607544 True False
13621.294 4.674516201019287 -1.6054593525328578 1.9624722639666956 -1.9278212986388148 -1.570772949849264 3.10371470451355 True False
13621.313999999998 4.674511909484863 -1.6031180820860804 1.9663541952716272 -1.9340726337828578 -1.570801083241598 3.103739023208618 True False
13621.333999999999 4.674532413482666 -1.6004353962340296 1.9705093542682093 -1.941043039361471 -1.570772949849264 3.103743553161621 True False
13621.354 4.674495697021484 -1.597522874871725 1.9752352873431605 -1.948393007318014 -1.5707929770099085 3.103764295578003 True False
13621.374 4.674526691436768 -1.594454904595846 1.9802735487567347 -1.9562565288939417 -1.5708048979388636 3.103705644607544 True False
13621.394 4.674514293670654 -1.5911694965758265 1.9854567686664026 -1.9647461376585902 -1.5708087126361292 3.103767156600952 True False
13621.413999999999 4.674556732177734 -1.5877982578673304 1.990739647542135 -1.9739190540709437 -1.5708125273333948 3.103767156600952 True False
13621.434 4.6745686531066895 -1.5840918026366175 1.9965980688678187 -1.983408590356344 -1.5708368460284632 3.1037344932556152 True False
13621.454 4.674535751342773 -1.5801440678038539 2.003029171620504 -1.9936024151244105 -1.5707686583148401 3.1037509441375732 True False
13621.474 4.674516201019287 -1.5760499439635218 2.009704891835348 -2.004378458062643 -1.5707925001727503 3.1037087440490723 True False
13621.493999999999 4.67455530166626 -1.5717750988402308 2.016761604939596 -2.015721460381979 -1.570772949849264 3.103743553161621 True False
13621.514 4.6745076179504395 -1.567088031243049 2.023987118397848 -2.0275961361327113 -1.5707925001727503 3.1037256717681885 True False
13621.534 4.674544811248779 -1.5626064224964757 2.0311344305621546 -2.039262434045309 -1.570784870778219 3.103684902191162 True False
13621.554 4.674499988555908 -1.558311629374959 2.037980381642477 -2.0504380665221156 -1.570784870778219 3.103713035583496 True False
13621.573999999999 4.674502849578857 -1.5542719916305323 2.044661347066061 -2.0610887012877406 -1.5707686583148401 3.103681802749634 True False
13621.594 4.674549102783203 -1.550375272785761 2.050727192555563 -2.0711251697936 -1.5707967917071741 3.103710174560547 True False
13621.614 4.674561023712158 -1.5468909491649647 2.056484047566549 -2.080740591088766 -1.570772949849264 3.1037299633026123 True False
13621.634 4.674519062042236 -1.5434273977628727 2.061955277119772 -2.0896393261351527 -1.5708048979388636 3.1037344932556152 True False
13621.653999999999 4.674516201019287 -1.5400498651764174 2.067237679158346 -2.0980612240233363 -1.5707886854754847 3.103759765625 True False
13621.673999999999 4.674535751342773 -1.537060012375452 2.0722740332232874 -2.1058556042113246 -1.5707405249225062 3.1037509441375732 True False
13621.694 4.6744866371154785 -1.5341732923737545 2.0767791906939905 -2.1131488285460414 -1.5708206335650843 3.103681802749634 True False
13621.714 4.6745686531066895 -1.5316121478429814 2.080784622822897 -2.119963308373922 -1.570784870778219 3.103726625442505 True False
13621.733999999999 4.674540042877197 -1.5292909269085904 2.0844715277301233 -2.126054903069967 -1.5707767645465296 3.103780508041382 True False
13621.753999999999 4.674535751342773 -1.5270918247154732 2.0879605452166956 -2.1316400967040003 -1.5707452932940882 3.103743553161621 True False
13621.774 4.6745476722717285 -1.5252016608468075 2.091099564229147 -2.1366502247252406 -1.5707691351519983 3.1037583351135254 True False
13621.794 4.674490928649902 -1.5235057894936581 2.093748394642965 -2.141273637811178 -1.5707886854754847 3.103743553161621 True False
13621.813999999998 4.674519062042236 -1.5219728250852604 2.0962241331683558 -2.1451178989806117 -1.5707691351519983 3.1037344932556152 True False
13621.833999999999 4.6745524406433105 -1.5206337359598656 2.098389450703756 -2.1484552822508753 -1.5707810560809534 3.103743553161621 True False
13621.854 4.67452335357666 -1.5196237948587914 2.1001609007464808 -2.151274343530172 -1.5708368460284632 3.103739023208618 True False
13621.874 4.6745076179504395 -1.5187797260335465 2.1015847365008753 -2.153637548486227 -1.5708125273333948 3.103684902191162 True False
13621.894 4.674556732177734 -1.518115059738495 2.102605644856588 -2.155290742913717 -1.5707810560809534 3.1037299633026123 True False
13621.913999999999 4.674563884735107 -1.5176525574973603 2.1032589117633265 -2.156304021874899 -1.5708487669574183 3.1036906242370605 True False
13621.934 4.674490928649902 -1.5174341958812256 2.1036551634417933 -2.156914373437399 -1.5707810560809534 3.103747844696045 True False
13621.954 4.674482345581055 -1.5174913828125973 2.103654686604635 -2.156950613061422 -1.5708330313311976 3.1037344932556152 True False
13621.974 4.674526691436768 -1.517479495411255 2.1036503950702112 -2.1569348774352015 -1.570784870778219 3.103743553161621 True False
13621.993999999999 4.674593925476074 -1.5174016591957589 2.1036580244647425 -2.156938692132467 -1.570772949849264 3.103755474090576 True False
13622.014 4.674540042877197 -1.5174947914532204 2.1036370436297815 -2.1569863758482875 -1.5707810560809534 3.103743553161621 True False
13622.034 4.674572944641113 -1.517390539204218 2.1036794821368616 -2.156978746453756 -1.570824925099508 3.1037344932556152 True False
13622.054 4.6745076179504395 -1.5173851151815434 2.103638474141256 -2.1569344005980433 -1.570772949849264 3.10371470451355 True False
13622.073999999999 4.674527645111084 -1.5174600791982193 2.1036341826068323 -2.156978269616598 -1.570784870778219 3.103672981262207 True False
13622.094 4.67452335357666 -1.517472044830658 2.10366660753359 -2.1570145092406214 -1.5707610289203089 3.103717565536499 True False
13622.114 4.674511909484863 -1.5173979972353955 2.10366660753359 -2.157022615472311 -1.5707805792437952 3.103768825531006 True False
13622.134 4.674527645111084 -1.517451362018921 2.1036790052997034 -2.157058378259176 -1.5708254019366663 3.103780508041382 True False
13622.153999999999 4.674498558044434 -1.51736272991214 2.1036623159991663 -2.1570822201170863 -1.5708006064044397 3.103698253631592 True False
13622.173999999999 4.6745524406433105 -1.5174562160721798 2.1036952177630823 -2.157030244866842 -1.5707605520831507 3.103743553161621 True False
13622.194 4.674495697021484 -1.5173818332007905 2.1036375204669397 -2.1570502720274867 -1.5708044211017054 3.103726625442505 True False
13622.214 4.674535751342773 -1.5174686101130028 2.1036861578570765 -2.1570340595641078 -1.5707967917071741 3.103717565536499 True False
13622.233999999999 4.674530982971191 -1.5174110692790528 2.10366136232485 -2.1570502720274867 -1.570768181477682 3.103705644607544 True False
13622.253999999999 4.674527645111084 -1.5174067851952096 2.1037028471576136 -2.1570621929564417 -1.5707805792437952 3.103722095489502 True False
13622.274 4.67452335357666 -1.5173818592778225 2.103671375905172 -2.1570621929564417 -1.5708335081683558 3.103726625442505 True False
13622.294 4.67450475692749 -1.5174103316715737 2.103649441395895 -2.1570621929564417 -1.570853058491842 3.103739023208618 True False
13622.313999999998 4.674527645111084 -1.5173905615559597 2.1036136786090296 -2.1570822201170863 -1.5707686583148401 3.1037344932556152 True False
13622.333999999999 4.674519062042236 -1.5173699495247384 2.1036623159991663 -2.1570784054198207 -1.5707648436175745 3.1037464141845703 True False
13622.354 4.6745076179504395 -1.517406777744629 2.103673283253805 -2.1570221386351527 -1.570801083241598 3.103705644607544 True False
13622.374 4.674516201019287 -1.5174481098404904 2.1036418120013636 -2.1570340595641078 -1.5707929770099085 3.103726625442505 True False
13622.394 4.674495697021484 -1.517378644352295 2.1036985556231897 -2.157005926171774 -1.570784870778219 3.103739023208618 True False
13622.413999999999 4.674519062042236 -1.5174102944186707 2.1036375204669397 -2.1570545635619105 -1.5707772413836878 3.1037309169769287 True False
13622.434 4.6745100021362305 -1.5174189557186146 2.1037357489215296 -2.1570664844908656 -1.5708091894732874 3.1037628650665283 True False
13622.454 4.674474716186523 -1.5173712533763428 2.103661839162008 -2.157058378259176 -1.570784870778219 3.1037087440490723 True False
13622.474 4.674511909484863 -1.5173829358867188 2.103621308003561 -2.157098432580465 -1.5707805792437952 3.1037299633026123 True False
13622.493999999999 4.674532413482666 -1.5174196001938363 2.1037071386920374 -2.157098432580465 -1.5707767645465296 3.103722095489502 True False
13622.514 4.674530982971191 -1.5173743528178711 2.1036832968341272 -2.1570340595641078 -1.5707648436175745 3.103710174560547 True False
13622.534 4.674516201019287 -1.5173861880651494 2.1036747137652796 -2.1571065388121546 -1.5708254019366663 3.103696584701538 True False
13622.554 4.674561023712158 -1.5175515201738854 2.103490654622213 -2.1572300396361292 -1.5707891623126429 3.1037495136260986 True False
13622.573999999999 4.6744866371154785 -1.5175158020905037 2.1035025755511683 -2.1572138271727503 -1.570801083241598 3.1037211418151855 True False
13622.594 4.674525260925293 -1.5174256314388295 2.1035307089435022 -2.1572257481017054 -1.570801083241598 3.103701114654541 True False
13622.614 4.674482345581055 -1.5175145429423829 2.1035102049456995 -2.1572381458678187 -1.5707290808307093 3.103776216506958 True False
13622.634 4.674530982971191 -1.517475539152958 2.10353929201235 -2.1572419605650843 -1.5707610289203089 3.103739023208618 True False
13622.653999999999 4.6744866371154785 -1.5174294051579018 2.103551212941305 -2.157218118707174 -1.5707810560809534 3.103739023208618 True True
13622.673999999999 4.674527645111084 -1.5175309118679543 2.1034587065326136 -2.156898637811178 -1.5707529226886194 3.1037309169769287 True True
13622.694 4.674527645111084 -1.5177323569408436 2.103186909352438 -2.155975481072897 -1.5707648436175745 3.103726625442505 True True
13622.714 4.674527645111084 -1.5180384416929265 2.1027401129352015 -2.1545220814146937 -1.5707805792437952 3.103726625442505 True True
13622.733999999999 4.674519062042236 -1.518720844095089 2.1015799681292933 -2.152848859826559 -1.5708282629596155 3.103722095489502 True True
13622.753999999999 4.674530029296875 -1.5197679859450837 2.099757496510641 -2.1504842243590296 -1.5708335081683558 3.103739023208618 True True
13622.774 4.674516201019287 -1.5209745702198525 2.0978506247149866 -2.1473661861815394 -1.5708087126361292 3.103693723678589 True True
13622.794 4.674519062042236 -1.5223617006889363 2.095646683369772 -2.1438924274840296 -1.5708254019366663 3.1037583351135254 True True
13622.813999999998 4.674525260925293 -1.5239871901324769 2.0930851141559046 -2.1397320232787074 -1.5707886854754847 3.103701114654541 True True
13622.833999999999 4.6745076179504395 -1.5257761564901848 2.090146843587057 -2.135088106194967 -1.570801083241598 3.103701114654541 True True
13622.854 4.674479007720947 -1.5279053089073678 2.086963478718893 -2.130033155480856 -1.5707767645465296 3.1036593914031982 True True
13622.874 4.674535751342773 -1.5300464791110535 2.0833423773394983 -2.1240693531432093 -1.5708335081683558 3.103663921356201 True True
13622.894 4.674479007720947 -1.53252516061578 2.0795005003558558 -2.117723127404684 -1.5708087126361292 3.103710174560547 True True
13622.913999999999 4.674511909484863 -1.5350866963020344 2.075146023427145 -2.1107408008971156 -1.5707724730121058 3.103743553161621 True True
13622.934 4.67456579208374 -1.538036124115326 2.070514980946676 -2.1033412418761195 -1.5707648436175745 3.103748083114624 True True
13622.954 4.674502849578857 -1.5411449943533917 2.0655043760882776 -2.0954719982542933 -1.570772949849264 3.103680372238159 True True
13622.974 4.674499988555908 -1.544473612015583 2.060267750416891 -2.086731096307272 -1.5708048979388636 3.103743553161621 True True
13622.993999999999 4.674549102783203 -1.547844336634018 2.054732147847311 -2.077547689477438 -1.570801083241598 3.103726625442505 True True
13623.014 4.674483299255371 -1.5515806351653119 2.0487030188189905 -2.0680514774718226 -1.5707767645465296 3.103726625442505 True True
13623.034 4.674511909484863 -1.5556596278077741 2.042457882558004 -2.057594438592428 -1.5708211104022425 3.103708505630493 True True
13623.054 4.674490928649902 -1.5597564487582822 2.035806957875387 -2.0468741856017054 -1.5707929770099085 3.1037344932556152 True True
13623.073999999999 4.674535751342773 -1.5641602820581575 2.028816525136129 -2.035586019555563 -1.5708091894732874 3.103743553161621 True True
13623.094 4.674432754516602 -1.568643864510097 2.021435085927145 -2.0235501728453578 -1.5707686583148401 3.103726625442505 True True
13623.114 4.674532413482666 -1.5731507740416468 2.014381233845846 -2.0118776760497035 -1.5707362333880823 3.103701114654541 True True
13623.134 4.674490928649902 -1.5774241886534632 2.0074122587787073 -2.0008613071837367 -1.570784870778219 3.103739023208618 True True
13623.153999999999 4.674499988555908 -1.5814224682249964 2.0007651487933558 -1.9902264080443324 -1.570824925099508 3.103764533996582 True True
13623.173999999999 4.67452335357666 -1.585421701470846 1.9948104063617151 -1.980173727075094 -1.5707925001727503 3.103743553161621 True True
13623.194 4.674532413482666 -1.5889936886229457 1.9890778700457972 -1.9708706341185511 -1.570857350026266 3.103693723678589 True True
13623.214 4.6744866371154785 -1.5924564800658167 1.9835994879352015 -1.9619032345213832 -1.5707653204547327 3.103696584701538 True True
13623.233999999999 4.674570083618164 -1.5955993137755335 1.978450123463766 -1.9535004101195277 -1.5708406607257288 3.103717565536499 True True
13623.253999999999 4.67452335357666 -1.5986081562437953 1.973530117665426 -1.94580139736318 -1.570784870778219 3.103705644607544 True True
13623.274 4.674544811248779 -1.6013313732542933 1.9690263907061976 -1.9386030636229457 -1.5707967917071741 3.103705644607544 True True
13623.294 4.674527645111084 -1.6038643322386683 1.9650633970843714 -1.9318748913206996 -1.5707686583148401 3.1037418842315674 True True
13623.313999999998 4.67453670501709 -1.6061951122679652 1.9613855520831507 -1.9258119068541468 -1.5708091894732874 3.103701114654541 True True
13623.333999999999 4.674540042877197 -1.6082998714842738 1.9579289595233362 -1.9202195606627406 -1.570801083241598 3.1037583351135254 True True
13623.354 4.674490928649902 -1.610260625878805 1.954914395009176 -1.9154225788512171 -1.570813004170553 3.1037509441375732 True True
13623.374 4.6745524406433105 -1.6118527851500453 1.9522207419024866 -1.9109202824034632 -1.5708168188678187 3.103726625442505 True True
13623.394 4.6745476722717285 -1.6133605442442835 1.9497793356524866 -1.9070202312865199 -1.570801083241598 3.103767156600952 True True
13623.413999999999 4.674519062042236 -1.6147920093932093 1.9477880636798304 -1.9037968120970667 -1.5707605520831507 3.10371732711792 True True
13623.434 4.67452335357666 -1.6157824001707972 1.94598895708193 -1.9009982548155726 -1.5708416144000452 3.1037344932556152 True True
13623.454 4.674540042877197 -1.616605897943014 1.9446848074542444 -1.8988033733763636 -1.5707967917071741 3.103692054748535 True True
13623.474 4.674532413482666 -1.6173001728453578 1.943631951008932 -1.8972188434996546 -1.5708211104022425 3.103705644607544 True True
13623.493999999999 4.674489498138428 -1.6176344356932582 1.9430258909808558 -1.8961731396117152 -1.5708168188678187 3.103713035583496 True True
13623.514 4.674532413482666 -1.6178142033019007 1.942758862172262 -1.8956066570677699 -1.5708168188678187 3.103771924972534 True True
13623.534 4.674423694610596 -1.6177369556822718 1.942742649708883 -1.8956033192076625 -1.5707529226886194 3.103621482849121 True True
13623.554 4.673861026763916 -1.6176830730833949 1.9427078405963343 -1.8955828152098597 -1.5707686583148401 3.103090286254883 True True
13623.573999999999 4.672697067260742 -1.6174613438048304 1.9423158804522913 -1.895635267297262 -1.570829216633932 3.1018810272216797 True True
13623.594 4.671000957489014 -1.6172462902464808 1.9419363180743616 -1.8955513439574183 -1.5707405249225062 3.100184440612793 True True
13623.614 4.668709754943848 -1.6169516048827113 1.9416139761554163 -1.8954669437804164 -1.5707610289203089 3.097825050354004 True True
13623.634 4.665825843811035 -1.6164847813048304 1.9410865942584437 -1.8953873119749964 -1.5707805792437952 3.094930648803711 True True
13623.653999999999 4.662428379058838 -1.6159421406187953 1.94041616121401 -1.895311018029684 -1.5707686583148401 3.0915820598602295 True True
13623.673999999999 4.6584906578063965 -1.6152826748290003 1.9396322409259241 -1.8952270946898402 -1.5707772413836878 3.0876317024230957 True True
13623.694 4.653928756713867 -1.6145926914610804 1.938875977193014 -1.8951479397215785 -1.5708254019366663 3.0831780433654785 True True
13623.714 4.648789882659912 -1.613661905328268 1.9379485289203089 -1.8950959644713343 -1.570801083241598 3.078097343444824 True True
13623.733999999999 4.643061637878418 -1.6127506695189417 1.9369519392596644 -1.8949395618834437 -1.570756737385885 3.072456121444702 True True
13623.753999999999 4.636973857879639 -1.6117807827391566 1.9358909765826624 -1.894860406915182 -1.5707524458514612 3.066190004348755 True True
13623.774 4.630289077758789 -1.6105638943114222 1.9346964995013636 -1.8946925602354945 -1.570824925099508 3.0594019889831543 True True
13623.794 4.623033046722412 -1.6094380817809046 1.9332755247699183 -1.8946052990355433 -1.5707686583148401 3.0521669387817383 True True
13623.813999999998 4.615067005157471 -1.6082188091673792 1.9317644278155726 -1.8945452175536097 -1.5707648436175745 3.0444250106811523 True True
13623.833999999999 4.606551170349121 -1.606760641137594 1.9302590529071253 -1.894357820550436 -1.5707886854754847 3.035776376724243 True True
13623.854 4.597721099853516 -1.6051989994444789 1.9287427107440394 -1.8941828213133753 -1.5707724730121058 3.026782512664795 True True
13623.874 4.588198661804199 -1.6037179432311 1.9269583860980433 -1.8940469227232875 -1.570829216633932 3.017387628555298 True True
13623.894 4.577884197235107 -1.601964613000387 1.9249828497516077 -1.8939110241331996 -1.570829216633932 3.0072169303894043 True True
13623.913999999999 4.5673675537109375 -1.6001540623106898 1.9230955282794397 -1.8936220608153285 -1.5708168188678187 2.9964308738708496 True True
13623.934 4.556264400482178 -1.5984250507750453 1.9211848417865198 -1.893435617486471 -1.5707529226886194 2.985358238220215 True True
13623.954 4.544132709503174 -1.596358438531393 1.919030491505758 -1.8932997188963832 -1.570784870778219 2.9734320640563965 True True
13623.974 4.532037734985352 -1.5944587192931117 1.916614834462301 -1.8931008778014125 -1.570784870778219 2.961129665374756 True True
13623.993999999999 4.519254207611084 -1.5923921070494593 1.9143736998187464 -1.8927799663939417 -1.5707405249225062 2.9483935832977295 True True
13624.014 4.505518436431885 -1.5900098286070765 1.9118412176715296 -1.8925773106017054 -1.570796314870016 2.9347856044769287 True True
13624.034 4.49175500869751 -1.5878368816771449 1.9092605749713343 -1.8922845325865687 -1.5707648436175745 2.9209227561950684 True True
13624.054 4.4770355224609375 -1.5855299435057582 1.9065950552569788 -1.8921505413451136 -1.5707886854754847 2.9061508178710938 True True
13624.073999999999 4.4619669914245605 -1.5828525028624476 1.90395433107485 -1.8917838535704554 -1.5707843939410608 2.891272783279419 True True
13624.094 4.446303844451904 -1.5804110966124476 1.9011572043048304 -1.8914958439269007 -1.5707362333880823 2.875424385070801 True True
13624.114 4.429885387420654 -1.5778004131712855 1.8981321493731897 -1.89137663463735 -1.5708492437945765 2.8592300415039062 True True
13624.134 4.4131598472595215 -1.5749975643553675 1.8951323668109339 -1.890909334222311 -1.5707529226886194 2.8423233032226562 True True
13624.153999999999 4.395864963531494 -1.5721022091307582 1.8920801321612757 -1.8906494579710902 -1.5707805792437952 2.8251326084136963 True True
13624.173999999999 4.377872943878174 -1.5691608422533427 1.8888152281390589 -1.890350957910055 -1.5708416144000452 2.8070709705352783 True True
13624.194 4.359463214874268 -1.566199659170099 1.8854382673846644 -1.8899980984129847 -1.570772949849264 2.788759469985962 True True
13624.214 4.340453624725342 -1.5628917145407577 1.881894890462057 -1.8897162876524867 -1.5707724730121058 2.769597291946411 True True
13624.233999999999 4.320759296417236 -1.5597989729470392 1.8783023993121546 -1.8893362484373988 -1.5707925001727503 2.7500112056732178 True True
13624.253999999999 4.300599098205566 -1.5565333266607304 1.8745501677142542 -1.8889523945250453 -1.570784870778219 2.72993803024292 True True
13624.274 4.279964923858643 -1.5531579361161967 1.8708403746234339 -1.888540884057516 -1.5707967917071741 2.709002733230591 True True
13624.294 4.2589921951293945 -1.5497157734683533 1.8671353499041956 -1.8882185421385707 -1.5708168188678187 2.688164234161377 True True
13624.313999999998 4.238058090209961 -1.5463466358235856 1.8633115927325647 -1.8878199062743128 -1.570784870778219 2.6673083305358887 True True
13624.333999999999 4.217218399047852 -1.5428491339883585 1.8593857924090784 -1.8874594173827113 -1.5707600752459925 2.6462206840515137 True True
13624.354 4.196094989776611 -1.5393610012582322 1.855687443410055 -1.886956354180807 -1.5708335081683558 2.625349521636963 True True
13624.374 4.175224781036377 -1.5358652000180264 1.8518698851214808 -1.886749883691305 -1.5707648436175745 2.6045479774475098 True True
13624.394 4.15425968170166 -1.5323987652412434 1.8480055967914026 -1.886362215081686 -1.5708044211017054 2.5833921432495117 True True
13624.413999999999 4.133344650268555 -1.529023991232254 1.8442037741290491 -1.8860513172545375 -1.570829216633932 2.5624423027038574 True True
13624.434 4.112367153167725 -1.525604211991169 1.8405516783343714 -1.885575910607809 -1.5707529226886194 2.541698694229126 True True
13624.454 4.091414451599121 -1.5221974824419995 1.836715046559469 -1.8853455982603968 -1.5708211104022425 2.520556688308716 True True
13624.474 4.070487976074219 -1.5187897135368367 1.8328517119037073 -1.8849011860289515 -1.5708335081683558 2.4996790885925293 True True
13624.493999999999 4.049560070037842 -1.5153273430517693 1.829146687184469 -1.8844901523985804 -1.570723835621969 2.478855848312378 True True
13624.514 4.028621673583984 -1.5119485643557091 1.8252537886248987 -1.8841711483397425 -1.5707843939410608 2.457712411880493 True True
13624.534 4.007636547088623 -1.5084415090135117 1.8214052359210413 -1.8837486706175746 -1.5707805792437952 2.436866283416748 True True
13624.554 3.986659526824951 -1.5049860563925286 1.817524258290426 -1.8834206066527308 -1.570784870778219 2.4160101413726807 True True
13624.573999999999 3.9658048152923584 -1.5015720066479226 1.813692871724264 -1.8830176792540492 -1.570869270955221 2.394912004470825 True True
13624.594 3.944882392883301 -1.4981175375035782 1.809932057057516 -1.8826900921263636 -1.5707891623126429 2.373962163925171 True True
13624.614 3.9238853454589844 -1.4947258544019242 1.8061755339251917 -1.8822070560851039 -1.570756737385885 2.353215217590332 True True
13624.634 3.9029276371002197 -1.491237961953022 1.8023789564715784 -1.8819157085814417 -1.5708649794207972 2.332075595855713 True True
13624.653999999999 3.8819730281829834 -1.487882414167263 1.7985828558551233 -1.88151278118276 -1.5708211104022425 2.3111376762390137 True True
13624.673999999999 3.8610117435455322 -1.4844578889063378 1.794889275227682 -1.8810330830016078 -1.5707891623126429 2.290339708328247 True True
13624.694 3.8401691913604736 -1.4810377073339005 1.7910106817828577 -1.8807503185667933 -1.5708325544940394 2.2692129611968994 True True
13624.714 3.819199323654175 -1.4775905472091218 1.787152115498678 -1.880338808099264 -1.570784870778219 2.248318672180176 True True
13624.733999999999 3.798191785812378 -1.474044845705368 1.7833250204669397 -1.8800198040404261 -1.570824925099508 2.2275145053863525 True True
13624.753999999999 3.777345895767212 -1.4706155595234414 1.7795560995685022 -1.8796559772887171 -1.5707686583148401 2.206418991088867 True True
13624.774 3.756263494491577 -1.4671966072968026 1.7757990995990198 -1.879284997979635 -1.5708048979388636 2.1855249404907227 True True
13624.794 3.735297918319702 -1.463727169936039 1.7719696203814905 -1.8788696728148402 -1.5707925001727503 2.1646080017089844 True True
13624.813999999998 3.7145025730133057 -1.460372732286789 1.7681596914874476 -1.8786102734007777 -1.5707886854754847 2.1436638832092285 True True
13624.833999999999 3.6934609413146973 -1.4569499355605622 1.7642925421344202 -1.878183504144186 -1.5707810560809534 2.12268328666687 True True
13624.854 3.6725218296051025 -1.4535326820662995 1.760592285786764 -1.8778492412962855 -1.5707686583148401 2.101767063140869 True True
13624.874 3.6516475677490234 -1.4501099300435563 1.7566493193255823 -1.8774696789183558 -1.5708087126361292 2.0807578563690186 True True
13624.894 3.6306755542755127 -1.4466629561832924 1.7528203169452112 -1.8771220646300257 -1.5708087126361292 2.0598278045654297 True True
13624.913999999999 3.6096646785736084 -1.4431446355632325 1.7490924040423792 -1.8767272434630335 -1.5707486311541956 2.038975477218628 True True
13624.934 3.5888967514038086 -1.4396699678948899 1.745417896901266 -1.876331468621725 -1.5707805792437952 2.017975091934204 True True
13624.954 3.567758321762085 -1.436233327989914 1.7415407339679163 -1.8760339222350062 -1.5707724730121058 1.9969719648361206 True True
13624.974 3.5467441082000732 -1.4328418535045166 1.7377350966082972 -1.87559237102651 -1.570813004170553 1.976082682609558 True True
13624.993999999999 3.526008129119873 -1.4294544470361252 1.7339499632464808 -1.8752466640868128 -1.5708168188678187 1.9552245140075684 True True
13625.014 3.504970073699951 -1.4260294747403641 1.7300317923175257 -1.8748413525023402 -1.5707605520831507 1.9341468811035156 True True
13625.034 3.4839770793914795 -1.4226082128337403 1.726241413746969 -1.874519487420553 -1.5708048979388636 1.9133150577545166 True True
13625.054 3.4632511138916016 -1.4192285549691697 1.722346607838766 -1.8740979633727015 -1.5708335081683558 1.89232337474823 True True
13625.073999999999 3.4421112537384033 -1.4156699192574997 1.7185915152179163 -1.8736878834166468 -1.5708087126361292 1.8713558912277222 True True
13625.094 3.4211504459381104 -1.4122153979590912 1.714839283620016 -1.8733297787108363 -1.5707686583148401 1.8504562377929688 True True
13625.114 3.4003653526306152 -1.4088340562633057 1.711201016102926 -1.872899671594137 -1.5708335081683558 1.8294605016708374 True True
13625.134 3.3793842792510986 -1.405344383125641 1.7073186079608362 -1.872686048547262 -1.5708254019366663 1.8085687160491943 True True
13625.153999999999 3.3590002059936523 -1.4020400059274216 1.7036083380328577 -1.8722721538939417 -1.5708006064044397 1.7883397340774536 True True
13625.173999999999 3.3394722938537598 -1.3987969619086762 1.7000802198993128 -1.8719226322569789 -1.5708449522601526 1.7685633897781372 True True
13625.194 3.3201136589050293 -1.395703451042511 1.6965110937701624 -1.8716212711729945 -1.5708091894732874 1.7493613958358765 True True
13625.214 3.30137300491333 -1.3925938320210953 1.6930421034442347 -1.871282239953512 -1.5707886854754847 1.730597734451294 True True
13625.233999999999 3.2833938598632812 -1.3896736663630982 1.6897605101214808 -1.8709212742247523 -1.5707929770099085 1.7124065160751343 True True
13625.253999999999 3.265730381011963 -1.3868426096490403 1.6864946524249476 -1.8706027470030726 -1.570829216633932 1.6950392723083496 True True
13625.274 3.2486765384674072 -1.383956955080368 1.6834595839129847 -1.8703042469420375 -1.5708006064044397 1.6780208349227905 True True
13625.294 3.23236346244812 -1.3812559109977265 1.680476490651266 -1.869974752465719 -1.5707929770099085 1.661565899848938 True True
13625.313999999998 3.2165727615356445 -1.3786369276097794 1.677634064351217 -1.8697964153685511 -1.5708254019366663 1.6456836462020874 True True
13625.333999999999 3.2010514736175537 -1.3761493426612397 1.6747773329364222 -1.8694941006102503 -1.570801083241598 1.6304163932800293 True True
13625.354 3.186420202255249 -1.3736670178226014 1.672173325215475 -1.8692876301207484 -1.5707767645465296 1.6156514883041382 True True
13625.374 3.1722793579101562 -1.3713909101537247 1.6696093718158167 -1.8688847027220667 -1.5707724730121058 1.6014933586120605 True True
13625.394 3.1585693359375 -1.3691463631442566 1.6671770254718226 -1.868798395196432 -1.5707886854754847 1.5877444744110107 True True
13625.413999999999 3.145561456680298 -1.3670262557319184 1.6647523085223597 -1.8684917889037074 -1.570813004170553 1.574731469154358 True True
13625.434 3.13299822807312 -1.3649391394904633 1.662438694630758 -1.868213792840475 -1.5708377997027796 1.5621932744979858 True True
13625.454 3.121032476425171 -1.3630111527493973 1.66028339067568 -1.8680502376952113 -1.5707886854754847 1.5502123832702637 True True
13625.474 3.109628200531006 -1.3611865651658555 1.6582306067096155 -1.8678437672057093 -1.5707648436175745 1.5388809442520142 True True
13625.493999999999 3.098712921142578 -1.3593722742846985 1.6562536398517054 -1.8676172695555628 -1.5708282629596155 1.5279488563537598 True True
13625.514 3.088524341583252 -1.3576855969480057 1.654332462941305 -1.867458005944723 -1.5708616415606897 1.5176929235458374 True True
13625.534 3.0788347721099854 -1.356220619087555 1.652637783681051 -1.8673159084715785 -1.5707610289203089 1.508003830909729 True True
13625.554 3.0694503784179688 -1.3544773769429703 1.6510527769671839 -1.8671523533263148 -1.5708492437945765 1.4987637996673584 True True
13625.573999999999 3.0609853267669678 -1.3531083476594468 1.6495869795428675 -1.8669454059996546 -1.5707886854754847 1.4901695251464844 True True
13625.594 3.0531039237976074 -1.3519103539041062 1.6479390303241175 -1.866833826104635 -1.5707810560809534 1.482061743736267 True True
13625.614 3.0453684329986572 -1.350658358340599 1.6464856306659144 -1.8668061695494593 -1.5707843939410608 1.4746229648590088 True True
13625.634 3.0384795665740967 -1.3494560581496735 1.6453588644610804 -1.8665954075255335 -1.5707605520831507 1.4675990343093872 True True
13625.653999999999 3.0322251319885254 -1.3483642649701615 1.644254509602682 -1.86643709758901 -1.5707324186908167 1.4613111019134521 True True
13625.673999999999 3.0263350009918213 -1.347436473970749 1.643122975026266 -1.8663283787169398 -1.5708044211017054 1.4555621147155762 True True
13625.694 3.0210154056549072 -1.3465759319118042 1.641993824635641 -1.8663293323912562 -1.5708368460284632 1.4502370357513428 True True
13625.714 3.016329288482666 -1.345812590127327 1.6412261168109339 -1.8661695919432582 -1.5707925001727503 1.445574164390564 True True
13625.733999999999 3.012131452560425 -1.3451228898814698 1.6405790487872522 -1.8661419353880824 -1.5708335081683558 1.4413703680038452 True True
13625.753999999999 3.0086495876312256 -1.3445396286300202 1.6399286429034632 -1.8660584888853968 -1.5708168188678187 1.4377690553665161 True True
13625.774 3.005641222000122 -1.3441123974374314 1.6393030325519007 -1.8660508594908656 -1.5707686583148401 1.4347714185714722 True True
13625.794 3.003077983856201 -1.3436387044242402 1.638876740132467 -1.865995546380514 -1.5708211104022425 1.432297706604004 True True
13625.813999999998 3.0011842250823975 -1.3433222037604828 1.638623062764303 -1.8659435711302699 -1.5707686583148401 1.4304301738739014 True True
13625.833999999999 2.9998440742492676 -1.3431948882392426 1.6383431593524378 -1.8659364185728968 -1.5707891623126429 1.4290740489959717 True True
13625.854 2.998987913131714 -1.3430357736400147 1.6381853262530726 -1.8658682308592738 -1.5708168188678187 1.42824125289917 True True
13625.874 2.998748302459717 -1.3430565905622025 1.6381867567645472 -1.86588778118276 -1.57074481645693 1.4280116558074951 True True
13625.894 2.9989211559295654 -1.342932478790619 1.6382883230792444 -1.866138597527975 -1.5707891623126429 1.428048849105835 True True
13625.913999999999 2.998861312866211 -1.342508153324463 1.6387289206134241 -1.8669945202269496 -1.5708087126361292 1.4280532598495483 True True
13625.934 2.9988853931427 -1.341948763733246 1.6396015326129358 -1.8685327968993128 -1.5707972685443323 1.428048849105835 True True
13625.954 2.9989264011383057 -1.3413327497294922 1.6407941023456019 -1.8706041775145472 -1.570784870778219 1.4280041456222534 True True
13625.974 2.998861312866211 -1.3403388273767014 1.6423571745501917 -1.8730446300902308 -1.5708168188678187 1.4280577898025513 True True
13625.993999999999 2.9988865852355957 -1.3391994696906586 1.6444609800921839 -1.876214166680807 -1.5707891623126429 1.4279967546463013 True True
13626.014 2.9988255500793457 -1.3378544759801407 1.6468794981585901 -1.8798300228514613 -1.57074481645693 1.4279476404190063 True True
13626.034 2.998796224594116 -1.3363882911256333 1.6496723333941858 -1.8841420612730921 -1.5707767645465296 1.4279683828353882 True True
13626.054 2.998821258544922 -1.3347013753703614 1.652811352406637 -1.8888598881163539 -1.570801083241598 1.4280041456222534 True True
13626.073999999999 2.998800754547119 -1.3326473546079178 1.6560567061053675 -1.8942610226073207 -1.5707767645465296 1.4280472993850708 True True
13626.094 2.9988136291503906 -1.3305976551822205 1.659982983266012 -1.9002281628050746 -1.5707891623126429 1.427935242652893 True True
13626.114 2.998821258544922 -1.328288586144783 1.6642563978778284 -1.9067865810790003 -1.5707810560809534 1.4279799461364746 True True
13626.134 2.9988057613372803 -1.325786055331566 1.6687896887408655 -1.9136492214598597 -1.5708044211017054 1.4280309677124023 True True
13626.153999999999 2.9987809658050537 -1.3230313223651429 1.6735618750201624 -1.9212609730162562 -1.5707648436175745 1.4280176162719727 True True
13626.173999999999 2.998744010925293 -1.320052133207657 1.678589169179098 -1.929436822930807 -1.570801083241598 1.4279844760894775 True True
13626.194 2.9987895488739014 -1.3168891233256836 1.6841853300677698 -1.9380856953062953 -1.5708487669574183 1.4279978275299072 True True
13626.214 2.9987895488739014 -1.3134318751147767 1.6901753584491175 -1.947458406487936 -1.570824925099508 1.4280503988265991 True True
13626.233999999999 2.998748540878296 -1.3099516195109864 1.6966126600848597 -1.957170148889059 -1.5708211104022425 1.4279441833496094 True True
13626.253999999999 2.998805046081543 -1.3061526876739045 1.7032459417926233 -1.967520376245016 -1.5707767645465296 1.4280011653900146 True True
13626.274 2.9987409114837646 -1.3023392123034974 1.7100728193866175 -1.978530069390768 -1.5708006064044397 1.4279967546463013 True True
13626.294 2.998760461807251 -1.2983551782420655 1.7170127073871058 -1.9895321331419886 -1.5708087126361292 1.427983283996582 True True
13626.313999999998 2.9987776279449463 -1.294560269718506 1.7238205114947718 -2.000070711175436 -1.5708373228656214 1.4279967546463013 True True
13626.333999999999 2.9988014698028564 -1.290953890686371 1.730335537587301 -2.0101338825621546 -1.5707605520831507 1.4279729127883911 True True
13626.354 2.9987733364105225 -1.2874987882426758 1.7364080587970179 -2.019585748712057 -1.570772949849264 1.4279890060424805 True True
13626.374 2.9987409114837646 -1.2842942637256165 1.7418549696551722 -2.028459688226217 -1.5708044211017054 1.4279773235321045 True True
13626.394 2.9988014698028564 -1.2812565130046387 1.7471726576434534 -2.0368038616576136 -1.5708211104022425 1.4279475212097168 True True
13626.413999999999 2.9987895488739014 -1.2784572106650849 1.7521017233477991 -2.0445567570128382 -1.5708254019366663 1.4279683828353882 True True
13626.434 2.9988341331481934 -1.2758925718120118 1.7568467299090784 -2.051765104333395 -1.5707805792437952 1.428026556968689 True True
13626.454 2.9988014698028564 -1.2735234957984467 1.7611406485186976 -2.0584455929198207 -1.570813004170553 1.4280011653900146 True True
13626.474 2.9988224506378174 -1.2713148456862946 1.7649982611285608 -2.0645905933775843 -1.570813004170553 1.427935242652893 True True
13626.493999999999 2.9987776279449463 -1.269272343521454 1.768388573323385 -2.0700398884215296 -1.570784870778219 1.4280221462249756 True True
13626.514 2.9987363815307617 -1.2675254207900544 1.7715981642352503 -2.0749012432494105 -1.570784870778219 1.4279729127883911 True True
13626.534 2.99884295463562 -1.2659146946719666 1.7744692007647913 -2.079393049279684 -1.570813004170553 1.4279729127883911 True True
13626.554 2.9987354278564453 -1.2645793718150635 1.7769683043109339 -2.0832959614195765 -1.5707724730121058 1.4279683828353882 True True
13626.573999999999 2.9987690448760986 -1.2633871001056214 1.779041592274801 -2.086557527581686 -1.5707686583148401 1.4279799461364746 True True
13626.594 2.9987528324127197 -1.2624147993377228 1.7807300726519983 -2.0892421207823695 -1.5707767645465296 1.4279844760894775 True True
13626.614 2.998826742172241 -1.2615626913360138 1.782208267842428 -2.0915614567198695 -1.5707648436175745 1.4280190467834473 True True
13626.634 2.9987571239471436 -1.2609547239593049 1.783297363911764 -2.0931250057616175 -1.5707925001727503 1.4279699325561523 True True
13626.653999999999 2.9987852573394775 -1.260690526371338 1.7837908903705042 -2.094226976434225 -1.5708211104022425 1.4279639720916748 True True
13626.673999999999 2.998788595199585 -1.2606476110270997 1.7839096228228968 -2.0947796307005824 -1.5707805792437952 1.4280011653900146 True True
13626.694 2.9988014698028564 -1.260630802517273 1.7839792410479944 -2.0947872600951136 -1.5707724730121058 1.4279890060424805 True True
13626.714 2.998736619949341 -1.2605780226043244 1.7839391867267054 -2.094795366326803 -1.570784870778219 1.4280056953430176 True True
13626.733999999999 2.9987528324127197 -1.2605974239161988 1.7840202490436 -2.0948311291136683 -1.5708406607257288 1.4279565811157227 True True
13626.753999999999 2.998814582824707 -1.2605984669974823 1.7840068976031702 -2.094794889489645 -1.5708211104022425 1.4280309677124023 True True
13626.774 2.99878191947937 -1.2604999107173462 1.7840350309955042 -2.094874998132223 -1.570853058491842 1.4280130863189697 True True
13626.794 2.9987776279449463 -1.2604590517333527 1.784142796193258 -2.094842573205465 -1.5707653204547327 1.4280056953430176 True True
13626.813999999998 2.998788595199585 -1.2601948839477082 1.7847612539874476 -2.094560285607809 -1.570813004170553 1.4279799461364746 True True
13626.833999999999 2.9988298416137695 -1.2600290042212983 1.7847722212420862 -2.094389577905172 -1.5707967917071741 1.4279890060424805 True False
13626.854 2.998792886734009 -1.2601770919612427 1.784598175679342 -2.0945126018919886 -1.5707886854754847 1.427929401397705 True False
13626.874 2.9988014698028564 -1.2601425808719178 1.7846759001361292 -2.0944887600340785 -1.5708087126361292 1.4279755353927612 True False
13626.894 2.9988014698028564 -1.2601826351932068 1.784570042287008 -2.094504495660299 -1.5707891623126429 1.428010106086731 True False
13626.913999999999 2.998816967010498 -1.2601760190776368 1.7844818274127405 -2.0945965252318324 -1.5708048979388636 1.4279744625091553 True False
13626.934 2.998826742172241 -1.2602665585330506 1.7845142523394983 -2.0946160755553187 -1.5707648436175745 1.428038477897644 True False
13626.954 2.998805046081543 -1.260319636469223 1.784466568623678 -2.0946203670897425 -1.5707767645465296 1.4279844760894775 True False
13626.974 2.998760461807251 -1.2603543263724823 1.7843826452838343 -2.094631334344381 -1.5707724730121058 1.4279844760894775 True False
13626.993999999999 2.998744249343872 -1.2603753072074433 1.784358326588766 -2.094663759271139 -1.5707805792437952 1.4280130863189697 True False
13627.014 2.9987614154815674 -1.2603695553592225 1.784302059804098 -2.094731946984762 -1.5707767645465296 1.4279683828353882 True False
13627.034 2.9987971782684326 -1.2603620153716584 1.7843225638019007 -2.0947114429869593 -1.570756737385885 1.4280548095703125 True False
13627.054 2.9987809658050537 -1.2603663367084046 1.7843268553363245 -2.0946995220580042 -1.570801083241598 1.428022027015686 True False
13627.073999999999 2.9987971782684326 -1.2603618961623688 1.784313980733053 -2.094675680200094 -1.5707648436175745 1.427939772605896 True False
13627.094 2.998764753341675 -1.2606134575656434 1.783917252217428 -2.094329973260397 -1.570853058491842 1.4279476404190063 True False
13627.114 2.998816967010498 -1.261062429552414 1.7832101027118128 -2.093278547326559 -1.570801083241598 1.4279890060424805 True False
13627.134 2.998764753341675 -1.261543945675232 1.7823036352740687 -2.091576238671774 -1.5708211104022425 1.4280353784561157 True False
13627.153999999999 2.99877667427063 -1.2622357171824952 1.7809961477862757 -2.0893436870970667 -1.57074481645693 1.4279862642288208 True False
13627.173999999999 2.9988505840301514 -1.2632319194129487 1.779106918965475 -2.0865146122374476 -1.5707772413836878 1.4280308485031128 True False
13627.194 2.998792886734009 -1.2644288104823609 1.7769926230060022 -2.0833312473692835 -1.570784870778219 1.4279520511627197 True False
13627.214 2.998792886734009 -1.2658708554557343 1.7746179739581507 -2.079348703423971 -1.5708168188678187 1.4280011653900146 True False
13627.233999999999 2.9987680912017822 -1.2673835319331666 1.7717745939837855 -2.075115819970602 -1.570784870778219 1.4279967546463013 True False
13627.253999999999 2.9988179206848145 -1.2693094176105042 1.7684853712665003 -2.0701939068236292 -1.5707967917071741 1.4280023574829102 True False
13627.274 2.998821258544922 -1.2712584000876923 1.7649410406695765 -2.0644241772093714 -1.5708048979388636 1.4279565811157227 True False
13627.294 2.9988057613372803 -1.2734649342349549 1.7611725966082972 -2.058338781396383 -1.5707405249225062 1.4279890060424805 True False
13627.313999999998 2.99877667427063 -1.275804654960968 1.7568181196795862 -2.0518018207945765 -1.570829216633932 1.4279755353927612 True False
13627.333999999999 2.9987809658050537 -1.2784808737090607 1.7521689573871058 -2.044572969476217 -1.5707767645465296 1.427960991859436 True False
13627.354 2.9987680912017822 -1.281325564985611 1.7472823301898401 -2.036895891229147 -1.5707648436175745 1.4279934167861938 True False
13627.374 2.9988057613372803 -1.2842540007880707 1.742056671773092 -2.028447290460104 -1.5708006064044397 1.4280145168304443 True False
13627.394 2.9987690448760986 -1.2875202161124726 1.7363680044757288 -2.019548078576559 -1.570813004170553 1.428038477897644 True False
13627.413999999999 2.9987690448760986 -1.2909091275981446 1.7302349249469202 -2.010219236413473 -1.5707967917071741 1.4279978275299072 True False
13627.434 2.9987776279449463 -1.2943978172591706 1.723804775868551 -2.0002628765501917 -1.570801083241598 1.4279398918151855 True False
13627.454 2.9987971782684326 -1.2983052891543885 1.7170608679400843 -1.989648004571432 -1.5708168188678187 1.4279967546463013 True False
13627.474 2.9988460540771484 -1.3022950750640412 1.7100957075702112 -1.9785219631590785 -1.5707648436175745 1.4279978275299072 True False
13627.493999999999 2.9987733364105225 -1.306255654697754 1.7030990759478968 -1.9676672420897425 -1.5707843939410608 1.428022027015686 True False
13627.514 2.9988341331481934 -1.310078815822937 1.6965034643756312 -1.9572249851622523 -1.5708091894732874 1.4280622005462646 True False
13627.534 2.9987895488739014 -1.3136083644679566 1.6901643911944788 -1.9474345646300257 -1.5707891623126429 1.427944302558899 True False
13627.554 2.9988222122192383 -1.3168750268271943 1.6841581503497522 -1.9381395779051722 -1.5708087126361292 1.4280471801757812 True False
13627.573999999999 2.9987809658050537 -1.3200819951346894 1.6787164847003382 -1.9294873676695765 -1.5707767645465296 1.4279978275299072 True False
13627.594 2.9987614154815674 -1.3229099077037354 1.6734502951251429 -1.9213086567320765 -1.570824925099508 1.4279922246932983 True False
13627.614 2.998792886734009 -1.3256752651980896 1.668739144002096 -1.9136964283385218 -1.5708373228656214 1.4280011653900146 True False
13627.634 2.9988298416137695 -1.3281933081201096 1.6641367117511194 -1.9068323574461878 -1.5707686583148401 1.4279531240463257 True False
13627.653999999999 2.998760461807251 -1.3305467528155823 1.659940544758932 -1.9002138576903285 -1.5707967917071741 1.4280056953430176 True False
13627.673999999999 2.998866558074951 -1.3327344071916123 1.6562278906451624 -1.894311090508932 -1.5708048979388636 1.4279934167861938 True False
13627.694 2.998809337615967 -1.3346575510552903 1.6528671423541468 -1.8889514408507289 -1.5707805792437952 1.4279934167861938 True False
13627.714 2.998792886734009 -1.336344764833786 1.649863068257467 -1.8841482601561488 -1.5707925001727503 1.4279683828353882 True False
13627.733999999999 2.9987809658050537 -1.337801755671837 1.6470969359027308 -1.8799778423705042 -1.570716683064596 1.4279800653457642 True False
13627.753999999999 2.9987776279449463 -1.3392189008048554 1.6448200384723108 -1.8763147793211878 -1.5707767645465296 1.428022027015686 True False
13627.774 2.9988255500793457 -1.3403762739947815 1.6428568998919886 -1.8730775318541468 -1.5707686583148401 1.4280056953430176 True False
13627.794 2.998756170272827 -1.3412668120912095 1.6410940329181116 -1.870594163934225 -1.5707967917071741 1.4279817342758179 True False
13627.813999999998 2.9988417625427246 -1.3420149844935914 1.639813248311178 -1.8685780964293421 -1.5708044211017054 1.4280145168304443 True False
13627.833999999999 2.998772382736206 -1.3424931031516572 1.6389134565936487 -1.8671204052367152 -1.570801083241598 1.4279353618621826 True False
13627.854 2.998810052871704 -1.342869595890381 1.6384113470660608 -1.8661581478514613 -1.5708168188678187 1.4279683828353882 True False
13627.874 2.998788595199585 -1.3428740811399003 1.6381967703448694 -1.86586393932485 -1.5708168188678187 1.4279685020446777 True False
13627.894 2.9988179206848145 -1.3428681802800675 1.6382816473590296 -1.865920206109518 -1.5708335081683558 1.4280145168304443 False False
13627.913999999999 2.9988460540771484 -1.3428560060313721 1.638176743184225 -1.8658844433226527 -1.5707967917071741 1.4280056953430176 False False
13627.934 2.998756170272827 -1.3428592544845124 1.638177220021383 -1.8659278355040492 -1.5707405249225062 1.4280130863189697 False False
13627.954 2.9988014698028564 -1.3428935718587418 1.6381524244891565 -1.865903993646139 -1.570801083241598 1.4279398918151855 False False
13627.974 2.9988136291503906 -1.3428261590055008 1.638125244771139 -1.8659001789488734 -1.5708487669574183 1.4279639720916748 False False
13627.993999999999 2.9987571239471436 -1.3428875517896195 1.6380885283099573 -1.8658997021117152 -1.570801083241598 1.428022027015686 False False
13628.014 2.9988014698028564 -1.3429206323674698 1.6380775610553187 -1.8658887348570765 -1.5707805792437952 1.4279565811157227 False False
13628.034 2.998854637145996 -1.3430221539786835 1.638068977986471 -1.8658997021117152 -1.5708492437945765 1.4280591011047363 False False
13628.054 2.998756170272827 -1.3429774802974244 1.6380580107318323 -1.8659078083434046 -1.570801083241598 1.4280056953430176 False False
13628.073999999999 2.9987690448760986 -1.3428785365870972 1.6380656401263636 -1.865932127038473 -1.5707886854754847 1.4280339479446411 False False
13628.094 2.9987895488739014 -1.3429370087436219 1.638012711201803 -1.865932127038473 -1.5708087126361292 1.4279264211654663 False False
13628.114 2.9987518787384033 -1.3429819357446213 1.6380537191974085 -1.8659240208067835 -1.5708091894732874 1.4280383586883545 False False
13628.134 2.998764753341675 -1.3429145377925416 1.6380646864520472 -1.8658763370909632 -1.570784870778219 1.428008794784546 False False
13628.153999999999 2.9988062381744385 -1.3429685545018692 1.6380494276629847 -1.8659116230406703 -1.5708091894732874 1.428022027015686 False False
13628.173999999999 2.9987852573394775 -1.342951850300171 1.6380775610553187 -1.8658958874144496 -1.5707772413836878 1.4279967546463013 False False
13628.194 2.9988138675689697 -1.3429864805987854 1.638052765523092 -1.8658958874144496 -1.570784870778219 1.4280294179916382 False False
13628.214 2.9987986087799072 -1.3429027062705536 1.6380284468280237 -1.865847726861471 -1.5707925001727503 1.4279800653457642 False False
13628.233999999999 2.9987807273864746 -1.3429145228913804 1.638040844594137 -1.865932127038473 -1.570756737385885 1.428027868270874 False False
13628.253999999999 2.9987688064575195 -1.3430013221553345 1.6380861441241663 -1.8658276997008265 -1.570801083241598 1.4279922246932983 False False
13628.274 2.9987361431121826 -1.3429355186275025 1.63812762895693 -1.8658958874144496 -1.5708406607257288 1.42799973487854 False False
13628.294 2.9987897872924805 -1.342951850300171 1.6380413214312952 -1.8658801517882289 -1.5707605520831507 1.4279667139053345 False False
13628.313999999998 2.9987897872924805 -1.3429640096477051 1.6380494276629847 -1.8659640751280726 -1.5707529226886194 1.4279755353927612 False False
13628.333999999999 2.9987807273864746 -1.3429595542005082 1.6380494276629847 -1.865875860253805 -1.570784870778219 1.4280413389205933 False False
13628.354 2.9987852573394775 -1.3429562759450455 1.6380818525897425 -1.8659082851805628 -1.570784870778219 1.4280041456222534 False False
13628.374 2.9987645149230957 -1.3430146139911194 1.6380904356585901 -1.865915914575094 -1.5707886854754847 1.4280250072479248 False False
13628.394 2.9987807273864746 -1.3429428499988099 1.6380284468280237 -1.86588778118276 -1.5708406607257288 1.4279890060424805 False False
13628.413999999999 2.998804807662964 -1.342853159909584 1.6380170027362269 -1.8658958874144496 -1.5707686583148401 1.4279967546463013 False False
13628.434 2.9988105297088623 -1.343022198682167 1.6380451361285608 -1.865875860253805 -1.5707281271563929 1.427987813949585 False False
13628.454 2.99875545501709 -1.342939869766571 1.6380656401263636 -1.8658844433226527 -1.570784870778219 1.4279773235321045 False False
13628.474 2.998809337615967 -1.3429595840028306 1.6380046049701136 -1.8658915958800257 -1.5707362333880823 1.4280056953430176 False False
13628.493999999999 2.9987478256225586 -1.342989371424057 1.6380537191974085 -1.8658844433226527 -1.5708168188678187 1.4280011653900146 False False
13628.514 2.9987776279449463 -1.3429864358953019 1.638012711201803 -1.8658958874144496 -1.570801083241598 1.4279890060424805 False False
13628.534 2.9988272190093994 -1.3429518353990098 1.63808519044985 -1.8658844433226527 -1.5708168188678187 1.4279729127883911 False False
13628.554 2.9987986087799072 -1.3429939460805436 1.638040844594137 -1.8659278355040492 -1.5707805792437952 1.4280503988265991 False False
13628.573999999999 2.9987971782684326 -1.3429640096477051 1.6380537191974085 -1.8659078083434046 -1.5707281271563929 1.4280011653900146 False False
13628.594 2.9988226890563965 -1.342947320347168 1.638057057057516 -1.86586393932485 -1.5708211104022425 1.428017497062683 False False
13628.614 2.998771905899048 -1.3429595243981858 1.638007942830221 -1.8658844433226527 -1.570801083241598 1.4279639720916748 False False
13628.634 2.9987926483154297 -1.3429265034249802 1.6380537191974085 -1.86588778118276 -1.570784870778219 1.427992343902588 False False
13628.653999999999 2.9987645149230957 -1.3429443550160904 1.6380279699908655 -1.8658844433226527 -1.570801083241598 1.4279978275299072 False False
13628.673999999999 2.9987807273864746 -1.342957766061165 1.6380823294269007 -1.8659278355040492 -1.5707605520831507 1.4279639720916748 False False
13628.694 2.9987614154815674 -1.342944325213768 1.6380866209613245 -1.8658763370909632 -1.5708611647235315 1.4280130863189697 False False
13628.714 2.9987435340881348 -1.342898206119873 1.6380451361285608 -1.8658720455565394 -1.5707529226886194 1.4279353618621826 False False
13628.733999999999 2.9988017082214355 -1.342893735771515 1.6380212942706507 -1.86586393932485 -1.5707925001727503 1.4279476404190063 False False
13628.753999999999 2.9988391399383545 -1.3429607462934037 1.6380732695208948 -1.8658677540221156 -1.5708048979388636 1.4279978275299072 False False
13628.774 2.9987807273864746 -1.342938409452774 1.638036076222555 -1.8658520183958949 -1.5707967917071741 1.4279978275299072 False False
13628.794 2.9988105297088623 -1.3429595542005082 1.6380656401263636 -1.865903993646139 -1.570829216633932 1.4280264377593994 False False
13628.813999999998 2.998776435852051 -1.3429685545018692 1.638057057057516 -1.86586393932485 -1.5707686583148401 1.428022027015686 False False
13628.833999999999 2.9988017082214355 -1.3429607462934037 1.6380656401263636 -1.8658958874144496 -1.5707967917071741 1.4279799461364746 False False
13628.854 2.9988226890563965 -1.342923567896225 1.6381061712848108 -1.8658677540221156 -1.5707281271563929 1.4279683828353882 False False
13628.874 2.9987435340881348 -1.342968539600708 1.6380522886859339 -1.8658930263915003 -1.5707362333880823 1.428017497062683 False False
13628.894 2.9988138675689697 -1.3429472905448456 1.6380494276629847 -1.8658958874144496 -1.5707891623126429 1.427943229675293 False False
13628.913999999999 2.9987852573394775 -1.3429399144700547 1.6381014029132288 -1.8659082851805628 -1.5707767645465296 1.4280023574829102 False False
13628.934 2.9987568855285645 -1.34293548882518 1.6380189100848597 -1.8658844433226527 -1.570813004170553 1.4279729127883911 False False
13628.954 2.998809337615967 -1.342947320347168 1.6381223837481897 -1.8658725223936976 -1.5707891623126429 1.4279755353927612 False False
13628.974 2.9988346099853516 -1.3429473054460068 1.63808519044985 -1.8659197292723597 -1.5707767645465296 1.4279520511627197 False False
13628.993999999999 2.9988017082214355 -1.3429640096477051 1.638064209614889 -1.8658844433226527 -1.570813004170553 1.4280011653900146 False False
13629.014 2.9987852573394775 -1.3429145824960251 1.638057057057516 -1.8659316502013148 -1.5707686583148401 1.4280308485031128 False False
13629.034 2.9988183975219727 -1.3429759305766602 1.6380494276629847 -1.8658958874144496 -1.570801083241598 1.4280428886413574 False False
13629.054 2.9987361431121826 -1.3429774057916184 1.6380451361285608 -1.8658915958800257 -1.570829216633932 1.4280264377593994 False False
13629.073999999999 2.998771905899048 -1.3429967624000092 1.638076130543844 -1.8659078083434046 -1.570813004170553 1.4280427694320679 False False
13629.094 2.9987852573394775 -1.3429774802974244 1.6380732695208948 -1.86594881633901 -1.5708416144000452 1.4279934167861938 False False
13629.114 2.9987852573394775 -1.3429026913693924 1.6380522886859339 -1.86588778118276 -1.5707929770099085 1.4280056953430176 False False
13629.134 2.998739242553711 -1.3430030059865494 1.6380451361285608 -1.8659078083434046 -1.5707405249225062 1.4280338287353516 False False
13629.153999999999 2.9987688064575195 -1.3429145377925416 1.6380656401263636 -1.8659197292723597 -1.570784870778219 1.4279966354370117 False False
13629.173999999999 2.9987852573394775 -1.3429730099490662 1.6380942503558558 -1.8658367596068324 -1.5707605520831507 1.4279967546463013 False False
13629.194 2.9988138675689697 -1.3430102330497284 1.6380823294269007 -1.865915914575094 -1.570772949849264 1.4280338287353516 False False
13629.214 2.9987852573394775 -1.3429354441216965 1.6380894819842737 -1.865880628625387 -1.5707891623126429 1.4279654026031494 False False
13629.233999999999 2.9987688064575195 -1.342972995047905 1.6380537191974085 -1.865847726861471 -1.570784870778219 1.428017497062683 False False
13629.253999999999 2.9988391399383545 -1.342973069553711 1.638057057057516 -1.8659197292723597 -1.5707767645465296 1.4279683828353882 False False
13629.274 2.9988105297088623 -1.342914493089058 1.638007942830221 -1.8658720455565394 -1.5708168188678187 1.4280622005462646 False False
13629.294 2.998825788497925 -1.3428935569575806 1.6380985418902796 -1.8659235439696253 -1.5707529226886194 1.4279608726501465 False False
13629.313999999998 2.9988272190093994 -1.3429804009250184 1.6380732695208948 -1.8658434353270472 -1.570801083241598 1.428066611289978 False False
13629.333999999999 2.9988017082214355 -1.3429338496974488 1.6380146185504358 -1.8658958874144496 -1.5707891623126429 1.4280472993850708 False False
13629.354 2.9988017082214355 -1.3429308545640488 1.6380823294269007 -1.8658677540221156 -1.570768181477682 1.4280056953430176 False False
13629.374 2.9987986087799072 -1.3430042576840897 1.6380718390094202 -1.865944047967428 -1.5707686583148401 1.4279730319976807 False False
13629.394 2.9987568855285645 -1.342939944272377 1.6380522886859339 -1.8658887348570765 -1.5708168188678187 1.4280308485031128 False False
13629.413999999999 2.9988138675689697 -1.3429235231927414 1.6380656401263636 -1.8658997021117152 -1.5707891623126429 1.427944302558899 False False
13629.434 2.998825788497925 -1.3429234784892579 1.6380522886859339 -1.8658677540221156 -1.5707767645465296 1.4279639720916748 False False
13629.454 2.9987852573394775 -1.342923567896225 1.6380866209613245 -1.8658720455565394 -1.5707805792437952 1.4279967546463013 False False
13629.474 2.9987733364105225 -1.3429983717254181 1.6380894819842737 -1.8658958874144496 -1.570784870778219 1.428017497062683 False False
13629.493999999999 2.9987733364105225 -1.3429354292205353 1.6380370298968714 -1.865892072717184 -1.5708211104022425 1.427960991859436 False False
13629.514 2.9987852573394775 -1.3429399293712159 1.6380656401263636 -1.865927358666891 -1.5707648436175745 1.4279967546463013 False False
13629.534 2.9987761974334717 -1.342951775794365 1.6380894819842737 -1.8658958874144496 -1.5707529226886194 1.4280011653900146 False False
13629.554 2.998783826828003 -1.3429263842156907 1.6380403677569788 -1.8659635982909144 -1.5708168188678187 1.4280308485031128 False False
13629.573999999999 2.9987926483154297 -1.3429730844548722 1.638036076222555 -1.8658768139281214 -1.5708373228656214 1.428010106086731 False False
13629.594 2.9987852573394775 -1.342919023042061 1.638118092213766 -1.865903993646139 -1.570784870778219 1.4280339479446411 False False
13629.614 2.998809337615967 -1.3430013817599793 1.6380823294269007 -1.8659116230406703 -1.5708168188678187 1.4280353784561157 False False
13629.634 2.9988181591033936 -1.34295508385215 1.6379988829242151 -1.865903993646139 -1.570801083241598 1.4279800653457642 False False
13629.653999999999 2.9987568855285645 -1.343013198380806 1.638068977986471 -1.865915437737936 -1.5707925001727503 1.427943229675293 False False
13629.673999999999 2.9988062381744385 -1.3430058819106598 1.6381357351886194 -1.86586393932485 -1.5707891623126429 1.428022027015686 False False
13629.694 2.998833179473877 -1.342919023042061 1.638057057057516 -1.8658682308592738 -1.570813004170553 1.4279978275299072 False False
13629.714 2.9987807273864746 -1.3429145228913804 1.6381033102618616 -1.8658682308592738 -1.570829216633932 1.4280518293380737 False False
13629.733999999999 2.9988272190093994 -1.3429354292205353 1.6380732695208948 -1.8659197292723597 -1.57074481645693 1.4279476404190063 False False
13629.753999999999 2.9987807273864746 -1.3429518353990098 1.638068977986471 -1.8658601246275843 -1.5707967917071741 1.4280130863189697 False False
13629.774 2.9987568855285645 -1.3429686737111588 1.6380894819842737 -1.8659116230406703 -1.5707524458514612 1.427943229675293 False False
13629.794 2.9987852573394775 -1.342898116712906 1.6380656401263636 -1.8658997021117152 -1.5707605520831507 1.4279654026031494 False False
13629.813999999998 2.9987852573394775 -1.3429472905448456 1.6381314436541956 -1.8659240208067835 -1.5708048979388636 1.4280145168304443 False False
13629.833999999999 2.9987761974334717 -1.3429894310287018 1.6380656401263636 -1.8658763370909632 -1.5707648436175745 1.428010106086731 False False
13629.854 2.9987926483154297 -1.342956320648529 1.63804799715151 -1.8658925495543421 -1.5707891623126429 1.4280295372009277 False False
13629.874 2.9987270832061768 -1.342921958570816 1.6381223837481897 -1.865932127038473 -1.5707891623126429 1.4279565811157227 False False
13629.894 2.9987480640411377 -1.3429100227406998 1.6381014029132288 -1.8658958874144496 -1.5707686583148401 1.427992343902588 False False
13629.913999999999 2.9987943172454834 -1.3429071468165894 1.6380775610553187 -1.8659116230406703 -1.5708091894732874 1.4279817342758179 False False
13629.934 2.9987435340881348 -1.342956320648529 1.6381061712848108 -1.8658958874144496 -1.5707443396197718 1.4280099868774414 False False
13629.954 2.9988017082214355 -1.3429804009250184 1.638057057057516 -1.8658596477904261 -1.5708373228656214 1.4279773235321045 False False
13629.974 2.998809337615967 -1.3429895353368302 1.6381152311908167 -1.865892072717184 -1.570801083241598 1.4279932975769043 False False
13629.993999999999 2.9987480640411377 -1.3429685545018692 1.638031307850973 -1.8658958874144496 -1.570824925099508 1.4280353784561157 False False
13630.014 2.9987778663635254 -1.342956320648529 1.6380403677569788 -1.8658887348570765 -1.5708087126361292 1.4279652833938599 False False
13630.034 2.9988105297088623 -1.3428993386081238 1.6380656401263636 -1.8658925495543421 -1.5708168188678187 1.4279800653457642 False False
13630.054 2.9987478256225586 -1.343008742933609 1.6380613485919397 -1.865835805932516 -1.5707767645465296 1.4280353784561157 False False
13630.073999999999 2.9987688064575195 -1.3429071468165894 1.6380775610553187 -1.8658763370909632 -1.5708044211017054 1.4280011653900146 False False
13630.094 2.9987688064575195 -1.343005822306015 1.638031307850973 -1.8658558330931605 -1.570829216633932 1.4280056953430176 False False
13630.114 2.9988346099853516 -1.3429026764682312 1.6380894819842737 -1.8659278355040492 -1.5707610289203089 1.4279755353927612 False False
13630.134 2.998809337615967 -1.3429937970689316 1.6380775610553187 -1.8658958874144496 -1.570784870778219 1.4279654026031494 True False
13630.153999999999 2.9987807273864746 -1.3429775100997468 1.6380732695208948 -1.8659316502013148 -1.5708044211017054 1.4280099868774414 True False
13630.173999999999 2.9988183975219727 -1.342881516819336 1.63808519044985 -1.8658958874144496 -1.5707891623126429 1.4279742240905762 True False
13630.194 2.9988017082214355 -1.3429190528443833 1.6380522886859339 -1.865847726861471 -1.5707529226886194 1.4279844760894775 True False
13630.214 2.9988059997558594 -1.3429279190352936 1.638057057057516 -1.8659078083434046 -1.570813004170553 1.4279565811157227 True False
13630.233999999999 2.9987642765045166 -1.342960776095726 1.6380894819842737 -1.8658081493773402 -1.5707405249225062 1.4280295372009277 True False
13630.253999999999 2.9988183975219727 -1.3429038983634491 1.6380732695208948 -1.8658925495543421 -1.5708168188678187 1.4280502796173096 True False
13630.274 2.9987926483154297 -1.3429730248502274 1.6380270163165491 -1.8659283123412074 -1.5707686583148401 1.4279532432556152 True False
13630.294 2.9988138675689697 -1.342914493089058 1.6380985418902796 -1.8658958874144496 -1.5707362333880823 1.4279729127883911 True False
13630.313999999998 2.9987943172454834 -1.3429518652013321 1.6380522886859339 -1.8658677540221156 -1.5707767645465296 1.4279773235321045 True False
13630.333999999999 2.9987926483154297 -1.342973069553711 1.6380451361285608 -1.8659445248045863 -1.5708335081683558 1.4280502796173096 True False
13630.354 2.9988017082214355 -1.3429608357003708 1.6380656401263636 -1.86586393932485 -1.5707324186908167 1.4279476404190063 True False
13630.374 2.9988062381744385 -1.3429473054460068 1.6380403677569788 -1.865920206109518 -1.5707925001727503 1.428022027015686 True False
13630.394 2.998804807662964 -1.3429472905448456 1.638064209614889 -1.86586393932485 -1.5707925001727503 1.428017497062683 True False
13630.413999999999 2.9987523555755615 -1.3429144483855744 1.6379988829242151 -1.8658558330931605 -1.5708487669574183 1.428010106086731 True False
13630.434 2.998842239379883 -1.3429354441216965 1.6381104628192347 -1.865903993646139 -1.5707925001727503 1.4279565811157227 True False
13630.454 2.9987807273864746 -1.3429640096477051 1.6380522886859339 -1.865920206109518 -1.5707405249225062 1.4279711246490479 True False
13630.474 2.9987761974334717 -1.3429640096477051 1.6380732695208948 -1.8658925495543421 -1.5708091894732874 1.427987813949585 True False
13630.493999999999 2.9987852573394775 -1.3429444146207352 1.6380613485919397 -1.865835805932516 -1.5707891623126429 1.4279323816299438 True False
13630.514 2.998804807662964 -1.3429730248502274 1.638118092213766 -1.8658887348570765 -1.5707362333880823 1.4280145168304443 True False
13630.534 2.9988226890563965 -1.342916102414467 1.63808519044985 -1.865932127038473 -1.5707772413836878 1.4280145168304443 True False
13630.554 2.9987926483154297 -1.3429263991168519 1.638064209614889 -1.865892072717184 -1.5707967917071741 1.4279922246932983 True False
13630.573999999999 2.9987778663635254 -1.3429399889758606 1.6381061712848108 -1.8659240208067835 -1.5707085768329065 1.4279520511627197 True False
13630.594 2.998783826828003 -1.3429293048432847 1.6380656401263636 -1.8658796749510707 -1.570784870778219 1.4279817342758179 True False
13630.614 2.9987926483154297 -1.342960850601532 1.6380451361285608 -1.8659120998778285 -1.5708168188678187 1.4279978275299072 True False
13630.634 2.9987971782684326 -1.3429775100997468 1.6380599180804651 -1.8658801517882289 -1.570784870778219 1.4279844760894775 True False
13630.653999999999 2.9988017082214355 -1.3429145377925416 1.6380732695208948 -1.865847726861471 -1.5707805792437952 1.427923560142517 True False
13630.673999999999 2.998842239379883 -1.3429923218539734 1.6380732695208948 -1.8658601246275843 -1.5707772413836878 1.4279967546463013 True False
13630.694 2.9987688064575195 -1.342977525000908 1.638057057057516 -1.8659035168089808 -1.5707967917071741 1.428004264831543 True False
13630.714 2.998783826828003 -1.3429354590228577 1.6380613485919397 -1.8658720455565394 -1.5708373228656214 1.4279922246932983 True False
13630.733999999999 2.9988391399383545 -1.3429398995688935 1.6380942503558558 -1.865915914575094 -1.5707686583148401 1.4280011653900146 True False
13630.753999999999 2.9988138675689697 -1.3429562908462067 1.638068977986471 -1.8658720455565394 -1.570801083241598 1.4280369281768799 True False
13630.774 2.9987761974334717 -1.3429849457791825 1.6380775610553187 -1.8658520183958949 -1.5707925001727503 1.428010106086731 True False
13630.794 2.9988017082214355 -1.3429398846677323 1.6380732695208948 -1.865892072717184 -1.5708044211017054 1.4279683828353882 True False
13630.813999999998 2.9988138675689697 -1.342944399719574 1.6380704084979456 -1.86586393932485 -1.5707891623126429 1.4280145168304443 True False
13630.833999999999 2.9987599849700928 -1.3429428201964875 1.6380732695208948 -1.865932127038473 -1.5707891623126429 1.4279844760894775 True False
13630.854 2.9988348484039307 -1.3429849606803437 1.6380894819842737 -1.865896841088766 -1.5708254019366663 1.4279683828353882 True False
13630.874 2.9988183975219727 -1.3429083836129685 1.6381567160235804 -1.8660875759520472 -1.5707443396197718 1.428017497062683 True False
13630.894 2.9988183975219727 -1.3426804852536698 1.6385968367206019 -1.866723199883932 -1.570813004170553 1.4279639720916748 True False
13630.913999999999 2.9988017082214355 -1.3422638338855286 1.6393001715289515 -1.8680798015990199 -1.570772949849264 1.4279800653457642 True False
13630.934 2.998783826828003 -1.3416428875974198 1.6404126326190394 -1.8699919186034144 -1.5707486311541956 1.4279844760894775 True False
13630.954 2.9987926483154297 -1.340773270731308 1.641865078602926 -1.8722263775267542 -1.5708211104022425 1.4279862642288208 True False
13630.974 2.9987480640411377 -1.3396821779063721 1.643857781087057 -1.875176569024557 -1.5707805792437952 1.4279595613479614 True False
13630.993999999999 2.998809337615967 -1.3384688955596467 1.6461127440081995 -1.878732820550436 -1.5707891623126429 1.4280130863189697 True False
13631.014 2.998842239379883 -1.33694280803714 1.6488240400897425 -1.882756849328512 -1.570801083241598 1.4279844760894775 True False
13631.034 2.9987761974334717 -1.3351779890111466 1.6517732779132288 -1.887378831902975 -1.5708048979388636 1.4280056953430176 True False
13631.054 2.998809337615967 -1.3333562773517151 1.655104939137594 -1.8925239048399867 -1.570801083241598 1.4280308485031128 True False
13631.073999999999 2.998854160308838 -1.3312957447818299 1.6587417761432093 -1.8984281025328578 -1.5708087126361292 1.428022027015686 True False
13631.094 2.9988601207733154 -1.3290379357388993 1.6629918257342737 -1.9046112499632777 -1.5708406607257288 1.4280011653900146 True False
13631.114 2.9987852573394775 -1.3265322905829926 1.6674354712115687 -1.9115015468993128 -1.5707843939410608 1.4279729127883911 True False
13631.134 2.9987852573394775 -1.3239211750081559 1.67204457918276 -1.9188572369017542 -1.5707925001727503 1.4280011653900146 True False
13631.153999999999 2.998809337615967 -1.3210339856198807 1.6770461241351526 -1.926863809625143 -1.5707529226886194 1.4279844760894775 True False
13631.173999999999 2.9987926483154297 -1.317939357166626 1.682533089314596 -1.9354106388487757 -1.570813004170553 1.4279756546020508 True False
13631.194 2.9988138675689697 -1.3144663733294983 1.6883118788348597 -1.9445425472655238 -1.5708377997027796 1.428022027015686 True False
