Andreas691667/Digital_Twin_UR/src/controller_monitor/test_results/robot_output.csv
timestamp actual_q_0 actual_q_1 actual_q_2 actual_q_3 actual_q_4 actual_q_5 output_bit_register_65 output_bit_register_66
27417.94 -2.4513917605029505 -0.7607816618731995 0.962294880543844 -1.7723146877684535 -1.5708087126361292 2.2609212398529053 False False
27417.96 -2.4514036814319056 -0.7607730788043519 0.962254826222555 -1.772294660607809 -1.570813004170553 2.2609715461730957 False False
27417.98 -2.4514320532428187 -0.7607110303691407 0.9622381369220179 -1.7723304233946742 -1.570784870778219 2.260991096496582 False False
27418.0 -2.451383177434103 -0.7606948179057618 0.9622753302203577 -1.7723022900023402 -1.5707805792437952 2.260995626449585 False False
27418.02 -2.451461378728048 -0.7607078117183228 0.9622872511493128 -1.7722627125182093 -1.5707891623126429 2.261003017425537 False False
27418.039999999997 -2.451362196599142 -0.7607476872256775 0.9622581640826624 -1.7723471126952113 -1.570784870778219 2.261003017425537 False False
27418.059999999998 -2.451411549245016 -0.7607605022243042 0.9622505346881312 -1.7722751102843226 -1.5707967917071741 2.2609777450561523 False False
27418.079999999998 -2.4513960520373743 -0.760715202694275 0.9622381369220179 -1.772334714929098 -1.5707891623126429 2.2609450817108154 False False
27418.1 -2.4514079729663294 -0.7607433956912537 0.9622295538531702 -1.772271295587057 -1.570801083241598 2.2610208988189697 False False
27418.12 -2.4513960520373743 -0.7607562702945252 0.9622667471515101 -1.7723027668394984 -1.5707529226886194 2.260986566543579 False False
27418.14 -2.451362196599142 -0.7607485812953492 0.9622376600848597 -1.7722426853575648 -1.5708087126361292 2.260953903198242 False False
27418.16 -2.4513993898974817 -0.7607520383647461 0.9622905890094202 -1.7723146877684535 -1.5707891623126429 2.260934591293335 False False
27418.18 -2.4513917605029505 -0.7607120436481019 0.9622624556170862 -1.7722708187498988 -1.5708048979388636 2.260999917984009 False False
27418.199999999997 -2.4513710180865687 -0.7607647937587281 0.9622786680804651 -1.7723146877684535 -1.5707362333880823 2.260986566543579 False False
27418.219999999998 -2.4514036814319056 -0.7607520383647461 0.9622581640826624 -1.7722751102843226 -1.5707605520831507 2.260953903198242 False False
27418.239999999998 -2.4513874689685267 -0.7607433360866089 0.962254826222555 -1.7722627125182093 -1.5707967917071741 2.260962724685669 False False
27418.26 -2.4513874689685267 -0.7607324880412598 0.9622786680804651 -1.772299428979391 -1.570813004170553 2.261019468307495 False False
27418.28 -2.451350275670187 -0.7607562702945252 0.9622505346881312 -1.7722507915892542 -1.5707648436175745 2.260991096496582 False False
27418.3 -2.4513960520373743 -0.760760561828949 0.9622872511493128 -1.7722870312132777 -1.5707686583148401 2.2609987258911133 False False
27418.32 -2.4513753096209925 -0.7606905859759827 0.9622381369220179 -1.772318502465719 -1.570772949849264 2.2609822750091553 False False
27418.34 -2.4514036814319056 -0.7607078117183228 0.9623239676104944 -1.772306581536764 -1.5707925001727503 2.260986566543579 False False
27418.359999999997 -2.451400343571798 -0.7607443493655701 0.9622615019427698 -1.7722913227477015 -1.570784870778219 2.26100754737854 False False
27418.379999999997 -2.4514079729663294 -0.76072050750766 0.962226692830221 -1.7722794018187464 -1.5707686583148401 2.26104474067688 False False
27418.399999999998 -2.4514158407794397 -0.7607562702945252 0.9622295538531702 -1.7723266086974085 -1.570813004170553 2.261040210723877 False False
27418.42 -2.4513874689685267 -0.7607732576182862 0.962233845387594 -1.7722584209837855 -1.5707686583148401 2.2609703540802 False False
27418.44 -2.451433245335714 -0.7607120436481019 0.9622376600848597 -1.7722865543761195 -1.5708254019366663 2.26094651222229 False False
27418.46 -2.4514287153827112 -0.7607443493655701 0.9622753302203577 -1.772306581536764 -1.5708211104022425 2.260971784591675 False False
27418.48 -2.4513917605029505 -0.7607401174357911 0.9622667471515101 -1.7722865543761195 -1.5707767645465296 2.260967254638672 False False
27418.5 -2.4513917605029505 -0.7607731384089966 0.9622591177569788 -1.772271295587057 -1.5707724730121058 2.260971784591675 False False
27418.52 -2.4514079729663294 -0.7607688468745728 0.9622700850116175 -1.7722984753050746 -1.5707486311541956 2.260950803756714 False False
27418.539999999997 -2.451350275670187 -0.7606948179057618 0.9622667471515101 -1.7722751102843226 -1.570853058491842 2.261003017425537 False False
27418.559999999998 -2.4514122645007532 -0.7607647937587281 0.962254826222555 -1.7722789249815882 -1.5708168188678187 2.261012077331543 False False
27418.579999999998 -2.4514122645007532 -0.760732428436615 0.9622710386859339 -1.7722627125182093 -1.5707605520831507 2.261049270629883 False False
27418.6 -2.4513917605029505 -0.7607486408999939 0.9622710386859339 -1.772283216516012 -1.5708168188678187 2.2609879970550537 False False
27418.62 -2.451416556035177 -0.7607401174357911 0.9622181097613733 -1.7722870312132777 -1.5708368460284632 2.261011838912964 False False
27418.64 -2.4513960520373743 -0.7607485812953492 0.9622667471515101 -1.772318502465719 -1.5707486311541956 2.260974645614624 False False
27418.66 -2.4514244238482874 -0.7607197326472779 0.962282959614889 -1.7723304233946742 -1.5708048979388636 2.260971784591675 False False
27418.68 -2.4514320532428187 -0.7607688468745728 0.9622424284564417 -1.7722794018187464 -1.570801083241598 2.260986566543579 False False
27418.699999999997 -2.4513796011554163 -0.7607271832278748 0.9623034636126917 -1.7723027668394984 -1.5707891623126429 2.260979175567627 False False
27418.719999999998 -2.4514406363116663 -0.7607773107341309 0.9622376600848597 -1.7722984753050746 -1.5707805792437952 2.260979175567627 False False
27418.739999999998 -2.451400343571798 -0.7607486408999939 0.9622872511493128 -1.7722226581969203 -1.5707805792437952 2.261023759841919 False False
27418.76 -2.4513874689685267 -0.7607121032527466 0.962254826222555 -1.7722588978209437 -1.5707929770099085 2.260995626449585 False False
27418.78 -2.4514158407794397 -0.7607562702945252 0.962233845387594 -1.7722822628416957 -1.5707362333880823 2.26098370552063 False False
27418.8 -2.4514036814319056 -0.760793463592865 0.9622753302203577 -1.772271295587057 -1.5707891623126429 2.260999917984009 False False
27418.82 -2.4514287153827112 -0.7607239645770569 0.962233845387594 -1.7722870312132777 -1.5707967917071741 2.2609760761260986 False False
27418.84 -2.4513710180865687 -0.7607605022243042 0.9622624556170862 -1.7722670040526332 -1.5707362333880823 2.2610089778900146 False False
27418.859999999997 -2.4513590971576136 -0.7606916588595887 0.9622753302203577 -1.7722984753050746 -1.5708211104022425 2.260995626449585 False False
27418.879999999997 -2.4513796011554163 -0.7607367795756836 0.9623034636126917 -1.7722951374449671 -1.5707886854754847 2.260962724685669 False False
27418.899999999998 -2.4513917605029505 -0.7607314747622986 0.9622295538531702 -1.7723390064635218 -1.5708048979388636 2.260986566543579 False False
27418.92 -2.4514082113849085 -0.7607520383647461 0.962311093007223 -1.7722507915892542 -1.5707686583148401 2.26098370552063 False False
27418.94 -2.4513631502734583 -0.7607849997333069 0.9622181097613733 -1.7723146877684535 -1.570772949849264 2.2609703540802 False False
27418.96 -2.4514125029193323 -0.7607043546489258 0.9622381369220179 -1.7722350559630335 -1.5708335081683558 2.260999917984009 False False
27418.98 -2.4513750712024134 -0.7607571643641968 0.962233845387594 -1.7722670040526332 -1.5707805792437952 2.260955333709717 False False
27419.0 -2.4513841311084192 -0.760735885506012 0.9622862974749964 -1.772283216516012 -1.5707648436175745 2.260991096496582 False False
27419.02 -2.4513543287860315 -0.7607520383647461 0.962282959614889 -1.7722755871214808 -1.5707486311541956 2.2609703540802 False False
27419.039999999997 -2.4514532724963587 -0.7607730788043519 0.9622591177569788 -1.7723027668394984 -1.570756737385885 2.261019468307495 False False
27419.059999999998 -2.4513872305499476 -0.760735885506012 0.9622624556170862 -1.7722908459105433 -1.5707767645465296 2.260998487472534 False False
27419.079999999998 -2.4514125029193323 -0.76075632989917 0.9622295538531702 -1.772271295587057 -1.5707767645465296 2.260962724685669 False False
27419.1 -2.4514036814319056 -0.760703520183899 0.9622591177569788 -1.7723266086974085 -1.570813004170553 2.26100754737854 False False
27419.12 -2.4513872305499476 -0.7607153219035645 0.9622872511493128 -1.7722507915892542 -1.5708416144000452 2.2609703540802 False False
27419.14 -2.4513917605029505 -0.760735885506012 0.9622872511493128 -1.7723027668394984 -1.5708211104022425 2.2609212398529053 False False
27419.16 -2.4513962904559534 -0.7607391637614747 0.9623153845416468 -1.7723103962340296 -1.5708254019366663 2.2609331607818604 False False
27419.18 -2.451411310826437 -0.7607602042010804 0.9623001257525843 -1.772322794000143 -1.570801083241598 2.261023759841919 False False
27419.199999999997 -2.4514036814319056 -0.7607120436481019 0.9622209707843226 -1.7722627125182093 -1.5707967917071741 2.2610528469085693 False False
27419.219999999998 -2.4513872305499476 -0.7607324880412598 0.962311093007223 -1.7722908459105433 -1.5707767645465296 2.261003017425537 False False
27419.239999999998 -2.4514291922198694 -0.7607892912677308 0.962282959614889 -1.7723103962340296 -1.5707686583148401 2.260995626449585 False False
27419.26 -2.4513424078570765 -0.7607443493655701 0.9622462431537073 -1.7722984753050746 -1.5707529226886194 2.260958433151245 False False
27419.28 -2.4513707796679896 -0.7607562702945252 0.9622667471515101 -1.7722507915892542 -1.5708335081683558 2.260962724685669 False False
27419.3 -2.4514158407794397 -0.7607282561114808 0.9623120466815394 -1.7722984753050746 -1.5708048979388636 2.260995626449585 False False
27419.32 -2.4514127413379114 -0.7607647937587281 0.962254826222555 -1.772255083123678 -1.5707886854754847 2.2609331607818604 False False
27419.34 -2.4513829390155237 -0.7607605022243042 0.9622920195208948 -1.7722984753050746 -1.570801083241598 2.260958433151245 False False
27419.359999999997 -2.4514246622668665 -0.7607773703387757 0.9622667471515101 -1.7723103962340296 -1.5708254019366663 2.261011838912964 False False
27419.379999999997 -2.4513617197619837 -0.7607078117183228 0.9622758070575159 -1.772318502465719 -1.5707886854754847 2.260979175567627 False False
27419.399999999998 -2.4514246622668665 -0.7606585186770936 0.9622505346881312 -1.7722708187498988 -1.5708406607257288 2.260974645614624 False False
27419.42 -2.4513827005969446 -0.7607644361308594 0.962282959614889 -1.7723027668394984 -1.5707843939410608 2.260979175567627 False False
27419.44 -2.4513917605029505 -0.7606985133937378 0.9622624556170862 -1.772283216516012 -1.570784870778219 2.260986566543579 False False
27419.46 -2.4514158407794397 -0.7606955331614991 0.9622862974749964 -1.7722789249815882 -1.5707925001727503 2.260986566543579 False False
27419.48 -2.4513586203204554 -0.7607326072505494 0.9623039404498499 -1.7722584209837855 -1.570801083241598 2.26100754737854 False False
27419.5 -2.4513617197619837 -0.7607311767390748 0.9622457663165491 -1.772306581536764 -1.5707605520831507 2.2609658241271973 False False
27419.52 -2.451378409062521 -0.7607897085002442 0.9623039404498499 -1.7723146877684535 -1.570784870778219 2.2609658241271973 False False
27419.539999999997 -2.451411310826437 -0.7607644361308594 0.9622333685504358 -1.7722751102843226 -1.5708168188678187 2.260974645614624 False False
27419.559999999998 -2.4514158407794397 -0.7607118648341675 0.9622786680804651 -1.772226472894186 -1.570784870778219 2.261016368865967 False False
27419.579999999998 -2.4513962904559534 -0.7607237857631226 0.9622743765460413 -1.7722708187498988 -1.5707686583148401 2.260991096496582 False False
27419.6 -2.4514337221728724 -0.7607564491084595 0.9622667471515101 -1.7722507915892542 -1.5707524458514612 2.260962724685669 False False
27419.62 -2.4513962904559534 -0.7607357066920777 0.962294880543844 -1.772283216516012 -1.570813004170553 2.260962724685669 False False
27419.64 -2.4514456431018274 -0.7607401174357911 0.9622624556170862 -1.7722989521422328 -1.5708406607257288 2.2609987258911133 False False
27419.66 -2.4514036814319056 -0.7607643765262146 0.9622333685504358 -1.7722789249815882 -1.570824925099508 2.2609822750091553 False False
27419.68 -2.4513917605029505 -0.7607031029513855 0.962229077016012 -1.7722908459105433 -1.5708048979388636 2.26100754737854 False False
27419.699999999997 -2.4514082113849085 -0.760728196506836 0.9622963110553187 -1.772287508050436 -1.570801083241598 2.260986566543579 False False
27419.719999999998 -2.4513497988330286 -0.7607267659953614 0.9622457663165491 -1.7723266086974085 -1.570801083241598 2.2609703540802 False False
27419.739999999998 -2.4514036814319056 -0.760760025387146 0.9622624556170862 -1.7722989521422328 -1.570784870778219 2.261011838912964 False False
27419.76 -2.451378409062521 -0.7607162755778809 0.9622247854815882 -1.7723146877684535 -1.5707529226886194 2.2609658241271973 False False
27419.78 -2.4514203707324427 -0.7607104343226929 0.9622333685504358 -1.772283216516012 -1.570813004170553 2.260979175567627 False False
27419.8 -2.4513705412494105 -0.7607031029513855 0.9622800985919397 -1.7723108730711878 -1.5707929770099085 2.261016368865967 False False
27419.82 -2.4513872305499476 -0.7607643765262146 0.962341610585348 -1.7722989521422328 -1.5708449522601526 2.260991096496582 False False
27419.84 -2.4513571898089808 -0.7607104343226929 0.962229077016012 -1.772283216516012 -1.5707281271563929 2.260979175567627 False False
27419.859999999997 -2.4513660112964075 -0.7607074540904541 0.9623039404498499 -1.7723471126952113 -1.570801083241598 2.260991096496582 False False
27419.879999999997 -2.4513917605029505 -0.7607118648341675 0.9621966520892542 -1.772266527215475 -1.5707886854754847 2.260991096496582 False False
27419.899999999998 -2.451378409062521 -0.7607564491084595 0.9622371832477015 -1.7722584209837855 -1.570853058491842 2.26098370552063 False False
27419.92 -2.4513421694384974 -0.760810450916626 0.962250057850973 -1.7722627125182093 -1.5707891623126429 2.261023759841919 False False
27419.94 -2.4513705412494105 -0.7607533496669312 0.962254826222555 -1.772306581536764 -1.5707925001727503 2.26098370552063 False False
27419.96 -2.4514170328723353 -0.7607147854617615 0.962254826222555 -1.7723103962340296 -1.5707648436175745 2.260967254638672 False False
27419.98 -2.4514125029193323 -0.7607941192439576 0.962254826222555 -1.7722751102843226 -1.5707605520831507 2.260999917984009 False False
27420.0 -2.4513917605029505 -0.7607533496669312 0.9622247854815882 -1.7722989521422328 -1.5707843939410608 2.260974645614624 False False
27420.02 -2.4514082113849085 -0.7607608598521729 0.9622758070575159 -1.772294660607809 -1.5707767645465296 2.260962724685669 False False
27420.039999999997 -2.4514249006854456 -0.7607940596393128 0.9622786680804651 -1.7722751102843226 -1.5707686583148401 2.2610089778900146 False False
27420.059999999998 -2.4513991514789026 -0.7607193750194092 0.9622533957110804 -1.7723471126952113 -1.5708168188678187 2.260979175567627 False False
27420.079999999998 -2.4513796011554163 -0.7607193750194092 0.962320629750387 -1.772283216516012 -1.5707967917071741 2.260979175567627 False False
27420.1 -2.4513452688800257 -0.7607689660838624 0.962254826222555 -1.7723103962340296 -1.570784870778219 2.260974884033203 False False
27420.12 -2.4514413515674036 -0.7607031029513855 0.9622200171100062 -1.7723432979979457 -1.5708168188678187 2.260979175567627 False False
27420.14 -2.4514158407794397 -0.7608028811267395 0.962254826222555 -1.772318502465719 -1.570784870778219 2.260962724685669 False False
27420.16 -2.4514082113849085 -0.7607222956470032 0.9622920195208948 -1.772294660607809 -1.5707610289203089 2.261023759841919 False False
27420.18 -2.451411310826437 -0.7607357066920777 0.96222430864443 -1.7722989521422328 -1.5707805792437952 2.26100754737854 False False
27420.199999999997 -2.4514125029193323 -0.7607148450664063 0.962254826222555 -1.7722913227477015 -1.570784870778219 2.26103138923645 False False
27420.219999999998 -2.451369349156515 -0.7607016128352662 0.9622624556170862 -1.7723103962340296 -1.5708168188678187 2.2609496116638184 False False
27420.239999999998 -2.4514382521258753 -0.7607148450664063 0.9622996489154261 -1.7722670040526332 -1.5707648436175745 2.261032819747925 False False
27420.26 -2.4514623324023646 -0.7607867282680054 0.9623087088214319 -1.772306581536764 -1.5707805792437952 2.261032819747925 False False
27420.28 -2.451460663472311 -0.7606941026500245 0.962254826222555 -1.7722989521422328 -1.5708168188678187 2.260971784591675 False False
27420.3 -2.451373879109518 -0.7607282561114808 0.9622424284564417 -1.772287508050436 -1.570768181477682 2.2610044479370117 False False
27420.32 -2.451378409062521 -0.7606911820224305 0.962320629750387 -1.7722908459105433 -1.570784870778219 2.260995626449585 False False
27420.34 -2.4513617197619837 -0.7607074540904541 0.9622996489154261 -1.7722588978209437 -1.5708368460284632 2.2609777450561523 False False
27420.359999999997 -2.4514413515674036 -0.7607326668551941 0.962250057850973 -1.7723390064635218 -1.5707648436175745 2.260925531387329 False False
27420.399999999998 -2.4514203707324427 -0.7607520383647461 0.9622638861285608 -1.772306581536764 -1.570784870778219 2.26104474067688 False False
27420.42 -2.4513378779040735 -0.7607193750194092 0.9622667471515101 -1.772294660607809 -1.5707967917071741 2.260974645614624 False False
27420.44 -2.4514203707324427 -0.7606940430453797 0.962282959614889 -1.7723266086974085 -1.570801083241598 2.260941982269287 False False
27420.46 -2.4514456431018274 -0.7607563895038147 0.962294880543844 -1.7722865543761195 -1.5707805792437952 2.260971784591675 False False
27420.48 -2.451411549245016 -0.7607341569713135 0.9622758070575159 -1.772306581536764 -1.570772949849264 2.261011838912964 False False
27420.5 -2.4513962904559534 -0.7607778471759339 0.9622457663165491 -1.7722789249815882 -1.5707648436175745 2.260991096496582 False False
27420.52 -2.451406780873434 -0.7607652705958863 0.962250057850973 -1.7723309002318324 -1.5707967917071741 2.260986566543579 False False
27420.539999999997 -2.4513827005969446 -0.7606940430453797 0.96222430864443 -1.7722708187498988 -1.570813004170553 2.26100754737854 False False
27420.559999999998 -2.451373879109518 -0.7607104343226929 0.9622486273394983 -1.7722670040526332 -1.5708368460284632 2.260974645614624 False False
27420.579999999998 -2.4514082113849085 -0.7607652109912415 0.9622457663165491 -1.7723270855345667 -1.570784870778219 2.260971784591675 False False
27420.6 -2.4514158407794397 -0.7607941192439576 0.9622624556170862 -1.7722426853575648 -1.5707967917071741 2.26094651222229 False False
27420.62 -2.4513540903674524 -0.7607401174357911 0.9622815291034144 -1.772322794000143 -1.5707767645465296 2.261011838912964 False False
27420.64 -2.4514575640307825 -0.7607696217349549 0.9622715155230921 -1.7722751102843226 -1.5708487669574183 2.261019468307495 False False
27420.66 -2.4513872305499476 -0.760728196506836 0.962315861378805 -1.772287508050436 -1.5707805792437952 2.261016368865967 False False
27420.68 -2.4513378779040735 -0.7607520383647461 0.962282959614889 -1.7723266086974085 -1.5708449522601526 2.260958433151245 True False
27420.699999999997 -2.4513991514789026 -0.7606955927661438 0.9623115698443812 -1.7722989521422328 -1.5708044211017054 2.260986566543579 True False
27420.719999999998 -2.4513705412494105 -0.7607357066920777 0.962229077016012 -1.7722913227477015 -1.5707967917071741 2.260991096496582 True False
27420.739999999998 -2.4513421694384974 -0.7607148450664063 0.9622758070575159 -1.7722465000548304 -1.5708416144000452 2.2610528469085693 True False
27420.76 -2.4513917605029505 -0.7608001989177247 0.9623282591449183 -1.772334714929098 -1.5708449522601526 2.261028289794922 True False
27420.78 -2.451468292866842 -0.7609902781299134 0.9624555746661585 -1.7723103962340296 -1.570756737385885 2.2609310150146484 True False
27420.8 -2.4516001383410853 -0.7612114709666749 0.9627264181720179 -1.7722989521422328 -1.5707886854754847 2.2608351707458496 True False
27420.82 -2.451912228261129 -0.761785165672638 0.9631527105914515 -1.7722584209837855 -1.5708492437945765 2.2605578899383545 True False
27420.84 -2.45231277147402 -0.7624550622752686 0.963844124470846 -1.772294660607809 -1.5708048979388636 2.2602927684783936 True False
27420.859999999997 -2.4526847044574183 -0.7633234423450013 0.9648659865008753 -1.7722751102843226 -1.5708087126361292 2.259814977645874 True False
27420.879999999997 -2.4531646410571497 -0.764617995624878 0.9662206808673304 -1.7722546062865199 -1.5707195440875452 2.25931715965271 True False
27420.899999999998 -2.4538572470294397 -0.7662443083575745 0.9678719679461878 -1.7723146877684535 -1.5707767645465296 2.2585442066192627 True False
27420.92 -2.4548473993884485 -0.768458680515625 0.9700496832477015 -1.7722302875914515 -1.5707805792437952 2.2576143741607666 True False
27420.94 -2.4559555689441126 -0.7711485785296937 0.9726374785052698 -1.7722469768919886 -1.5708048979388636 2.2564146518707275 True False
27420.96 -2.4574061075793665 -0.7742747825435181 0.9757879416095179 -1.7721744976439417 -1.5707805792437952 2.2550103664398193 True False
27420.98 -2.459018055592672 -0.778062717323639 0.9795730749713343 -1.7721272907652796 -1.5708254019366663 2.253290891647339 True False
27421.0 -2.461050335560934 -0.7825942200473328 0.9840229193316858 -1.7721158466734828 -1.5707200209247034 2.251371383666992 True False
27421.02 -2.4633711020099085 -0.7878499788096924 0.9891498724566858 -1.772027154962057 -1.5707929770099085 2.249042510986328 True False
27421.039999999997 -2.4658635298358362 -0.7936811012080689 0.9948375860797327 -1.771947523156637 -1.5707686583148401 2.2465200424194336 True False
27421.059999999998 -2.468546454106466 -0.8000405591777344 1.0010979811297815 -1.7719289265074671 -1.570756737385885 2.2436954975128174 True False
27421.079999999998 -2.4716690222369593 -0.806994156246521 1.0080578962909144 -1.7717639408507289 -1.5707891623126429 2.2407591342926025 True False
27421.1 -2.4749565760241907 -0.8144432467273255 1.015341583882467 -1.7716924152769984 -1.5707967917071741 2.2374765872955322 True False
27421.12 -2.4784908930407923 -0.8224790853312989 1.0232637564288538 -1.7716652355589808 -1.57074481645693 2.2339184284210205 True False
27421.14 -2.4823299090014856 -0.8309577864459534 1.0316527525531214 -1.7715774975218714 -1.5708168188678187 2.2302346229553223 True False
27421.16 -2.4863467852221888 -0.8400262755206604 1.0409048239337366 -1.7713257275023402 -1.570813004170553 2.226144552230835 True False
27421.18 -2.4905951658831995 -0.8497711581042786 1.0504439512835901 -1.7712460956969203 -1.5708449522601526 2.221796751022339 True False
27421.199999999997 -2.4950197378741663 -0.8600340646556397 1.060394589100973 -1.77122225383901 -1.570829216633932 2.2173516750335693 True False
27421.219999999998 -2.4997130076037806 -0.8709246677211304 1.0712664763080042 -1.7710987530150355 -1.570813004170553 2.2126352787017822 True False
27421.239999999998 -2.504688088093893 -0.8821907204440613 1.082456413899557 -1.7708550892271937 -1.5708254019366663 2.2076938152313232 True False
27421.26 -2.5099723974811 -0.8941045564464112 1.09413987794985 -1.770815988580221 -1.5707886854754847 2.2024035453796387 True False
27421.28 -2.515524927769796 -0.9067289990237732 1.106589142476217 -1.7706033192076625 -1.570829216633932 2.1969082355499268 True False
27421.3 -2.521348539982931 -0.9196121257594605 1.1193884054767054 -1.7705608807005824 -1.5708449522601526 2.1911723613739014 True False
27421.32 -2.5272484461413782 -0.9332190913013001 1.132904354725973 -1.770416875878805 -1.5707486311541956 2.1851718425750732 True False
27421.34 -2.5330517927752894 -0.9466017645648499 1.1460593382464808 -1.770181795159811 -1.5708449522601526 2.179349422454834 True False
27421.359999999997 -2.538612667714254 -0.9594084781459351 1.1586325804339808 -1.7701016865172328 -1.5707805792437952 2.173738718032837 True False
27421.379999999997 -2.544168535863058 -0.9717844885638733 1.1710384527789515 -1.7698584995665492 -1.5708168188678187 2.168290853500366 True False
27421.399999999998 -2.5493653456317347 -0.9833262723735352 1.182413403187887 -1.769850870172018 -1.5708368460284632 2.1631650924682617 True False
27421.42 -2.554230038319723 -0.9946159285357972 1.1934483687030237 -1.7697392902769984 -1.5707767645465296 2.158137083053589 True False
27421.44 -2.558772865925924 -1.0052494567683716 1.2039864698993128 -1.769559999505514 -1.5708773771869105 2.1535000801086426 True False
27421.46 -2.563148323689596 -1.015261010532715 1.2138317267047327 -1.7695113621153773 -1.570813004170553 2.1491198539733887 True False
27421.48 -2.567364756261007 -1.024703637962677 1.2232187430011194 -1.769440313378805 -1.570801083241598 2.1450464725494385 True False
27421.5 -2.571306053792135 -1.0336748522571106 1.2322352568255823 -1.7691885433592738 -1.5708087126361292 2.1411008834838867 True False
27421.52 -2.5750766436206263 -1.0420252841762085 1.2403472105609339 -1.769189020196432 -1.5707925001727503 2.137385129928589 True False
27421.539999999997 -2.5784834066974085 -1.0497436088374634 1.2480505148517054 -1.7691570721068324 -1.5707925001727503 2.133946657180786 True False
27421.559999999998 -2.581658426915304 -1.0570027393153687 1.2552807966815394 -1.7690416775145472 -1.5707886854754847 2.1307592391967773 True False
27421.579999999998 -2.5845404306994837 -1.0638359946063538 1.261988941823141 -1.7688905201353968 -1.5707891623126429 2.1277716159820557 True False
27421.6 -2.5872235933886927 -1.06992860258136 1.2680133024798792 -1.768846174279684 -1.570768181477682 2.12507700920105 True False
27421.62 -2.5897229353534144 -1.0755074483207245 1.2733901182757776 -1.768858095208639 -1.5707929770099085 2.1225907802581787 True False
27421.64 -2.5918636957751673 -1.080467478638031 1.278374497090475 -1.7687622509398402 -1.5708211104022425 2.1204793453216553 True False
27421.66 -2.593799654637472 -1.084970311527588 1.2827718893634241 -1.7686625919737757 -1.5707967917071741 2.118511199951172 True False
27421.68 -2.5955591837512415 -1.0888701540282746 1.2867077032672327 -1.7686664066710414 -1.5708168188678187 2.1167590618133545 True False
27421.699999999997 -2.5970688501941126 -1.0922362965396424 1.290145222340719 -1.7685910664000453 -1.5708048979388636 2.1153125762939453 True False
27421.719999999998 -2.5982843081103724 -1.0950498145869751 1.2929113546954554 -1.768578668633932 -1.570801083241598 2.114132881164551 True False
27421.739999999998 -2.5993040243731897 -1.097188488846161 1.295018498097555 -1.7685347996153773 -1.5707767645465296 2.1131019592285156 True False
27421.76 -2.600063149129049 -1.0988400143435975 1.2966583410846155 -1.7685510120787562 -1.5707405249225062 2.1123483180999756 True False
27421.78 -2.6005049387561243 -1.1000888806632538 1.297736946736471 -1.7685471973814906 -1.5707362333880823 2.111952781677246 True False
27421.8 -2.6007593313800257 -1.1006274682334443 1.298302952443258 -1.7685147724547328 -1.5707686583148401 2.1116771697998047 True False
27421.82 -2.600717608128683 -1.1006124180606385 1.2983787695514124 -1.7686311207213343 -1.5707724730121058 2.111663818359375 True False
27421.84 -2.60068923631777 -1.1004813474467774 1.2988970915423792 -1.769022127191061 -1.5707967917071741 2.111659288406372 True False
27421.859999999997 -2.6006980578051966 -1.1001844567111512 1.2996590773211878 -1.7702270946898402 -1.5708654562579554 2.11161470413208 True False
27421.879999999997 -2.6006935278521937 -1.0997180205634614 1.3008688131915491 -1.771980424920553 -1.5708168188678187 2.111668109893799 True False
27421.899999999998 -2.600729529057638 -1.0992046755603333 1.3023412863360804 -1.7742372951903285 -1.570801083241598 2.111668348312378 True False
27421.92 -2.600701157246725 -1.0983419579318543 1.3043649832354944 -1.7769047222533167 -1.5708048979388636 2.1116325855255127 True False
27421.94 -2.6007514635669153 -1.0972525042346497 1.3068445364581507 -1.7804061375060023 -1.570784870778219 2.1116087436676025 True False
27421.96 -2.600708786641256 -1.0960716766170044 1.3095358053790491 -1.7842256031432093 -1.5708168188678187 2.111534357070923 True False
27421.98 -2.600741688405172 -1.0947268170169373 1.3125737349139612 -1.7887989483275355 -1.5707891623126429 2.1116206645965576 True False
27422.0 -2.6006835142718714 -1.0931826394847413 1.3162153402911585 -1.7937866650023402 -1.570801083241598 2.1116456985473633 True False
27422.02 -2.6007984320269983 -1.091478483085968 1.3202722708331507 -1.7992807827391566 -1.570853058491842 2.1116161346435547 True False
27422.039999999997 -2.600802723561422 -1.0896341663650055 1.3246315161334437 -1.805476804772848 -1.5707443396197718 2.1116459369659424 True False
27422.059999999998 -2.600786272679464 -1.0877080422690888 1.329188648854391 -1.812286993066305 -1.5708335081683558 2.1116325855255127 True False
27422.079999999998 -2.6007285753833216 -1.0855944019607087 1.334163014088766 -1.8195253811278285 -1.570784870778219 2.1116652488708496 True False
27422.1 -2.6007655302630823 -1.0832657378963013 1.3397987524615687 -1.8272458515562953 -1.5707967917071741 2.1115968227386475 True False
27422.12 -2.6007984320269983 -1.0806952875903626 1.3456881682025355 -1.8357063732542933 -1.5707967917071741 2.1115834712982178 True False
27422.14 -2.600743595753805 -1.0781086546233674 1.3520634810077112 -1.8447753391661585 -1.5708168188678187 2.1116249561309814 True False
27422.16 -2.600790564213888 -1.0753286343863984 1.3586819807635706 -1.8540698490538539 -1.5708091894732874 2.1116206645965576 True False
27422.18 -2.600813690816061 -1.072294072513916 1.3656871954547327 -1.8641554317870082 -1.5707805792437952 2.1116042137145996 True False
27422.199999999997 -2.600743595753805 -1.0692315262607117 1.3731234709369105 -1.874827047387594 -1.5708616415606897 2.1115758419036865 True False
27422.219999999998 -2.6007524172412317 -1.0659215611270447 1.3805387655841272 -1.8852950535216273 -1.5708254019366663 2.1116206645965576 True False
27422.239999999998 -2.6007686297046106 -1.062933163051941 1.3876898924456995 -1.89516081432485 -1.5708254019366663 2.1116368770599365 True False
27422.26 -2.6007984320269983 -1.0601521295360108 1.3941400686847132 -1.904605051080221 -1.5708335081683558 2.1116249561309814 True False
27422.28 -2.6008058230029505 -1.0576292437366028 1.4001620451556605 -1.9134861431517542 -1.5707843939410608 2.111546277999878 True False
27422.3 -2.6007896105395716 -1.0551809233478089 1.4058821837054651 -1.921591421166891 -1.5708048979388636 2.1116116046905518 True False
27422.32 -2.6008146444903772 -1.0529755514911194 1.4114893118487757 -1.9293509922423304 -1.570756737385885 2.1115550994873047 True False
27422.34 -2.6007731596576136 -1.0508007568171998 1.4165313879596155 -1.9364878139891566 -1.570813004170553 2.1116368770599365 True False
27422.359999999997 -2.6007731596576136 -1.0488130015185853 1.4210785071002405 -1.943080564538473 -1.5707967917071741 2.111578941345215 True False
27422.379999999997 -2.6007395426379603 -1.047021047478058 1.425326172505514 -1.9491459331908167 -1.5708006064044397 2.1116087436676025 True False
27422.399999999998 -2.6007939020739954 -1.0454427760890503 1.4290784041034144 -1.95460905651235 -1.5707767645465296 2.1115877628326416 True False
27422.42 -2.6007493177997034 -1.043986276989319 1.4326584974872034 -1.959452291528219 -1.570813004170553 2.1116206645965576 True False
27422.44 -2.6007688681231897 -1.0426764649203797 1.4355672041522425 -1.963731428185934 -1.570801083241598 2.1116323471069336 True False
27422.46 -2.6007896105395716 -1.0415957135013123 1.438300911580221 -1.9677306614317835 -1.5707362333880823 2.1115996837615967 True False
27422.48 -2.6007774511920374 -1.0406142634204407 1.440665070210592 -1.9708367786803187 -1.5708168188678187 2.1116161346435547 True False
27422.5 -2.6007939020739954 -1.0396872919848938 1.4425318876849573 -1.9736200771727503 -1.5708087126361292 2.111602783203125 True False
27422.52 -2.6007939020739954 -1.0391311806491395 1.4440491835223597 -1.9756294689574183 -1.570772949849264 2.111595392227173 True False
27422.539999999997 -2.6007612387286585 -1.038647786980011 1.4451468626605433 -1.9771443806090296 -1.5707686583148401 2.111595392227173 True False
27422.559999999998 -2.6008015314685267 -1.038313404922821 1.4458211104022425 -1.9782129726805628 -1.5707925001727503 2.1116116046905518 True False
27422.579999999998 -2.6007567087756556 -1.0382870000651856 1.4461286703692835 -1.978743692437643 -1.5707805792437952 2.1116487979888916 True False
27422.6 -2.6007404963122767 -1.038297490482666 1.4461010138141077 -1.9787036381163539 -1.5707648436175745 2.111607313156128 True False
27422.62 -2.600797239934103 -1.0383098882487793 1.4461091200457972 -1.978682657281393 -1.5707891623126429 2.1116576194763184 True False
27422.64 -2.6008101145373743 -1.0382483762553711 1.4461610952960413 -1.9786187611021937 -1.5708168188678187 2.111583709716797 True False
27422.66 -2.6008146444903772 -1.0383178752711792 1.4460609594928187 -1.9787270031371058 -1.5707529226886194 2.1115760803222656 True False
27422.68 -2.6007731596576136 -1.0382647675326844 1.446120564137594 -1.9786793194212855 -1.5707605520831507 2.1116042137145996 True False
27422.699999999997 -2.600769821797506 -1.0383404058269043 1.446120564137594 -1.9786669216551722 -1.570829216633932 2.1115684509277344 True False
27422.719999999998 -2.6007774511920374 -1.038335995083191 1.4461010138141077 -1.978715559045309 -1.570801083241598 2.1116247177124023 True False
27422.739999999998 -2.6007493177997034 -1.0382320445827027 1.4461401144610804 -1.9786788425841273 -1.5707891623126429 2.1116280555725098 True False
27422.76 -2.6007896105395716 -1.038310782318451 1.4461033979998987 -1.9786507091917933 -1.570813004170553 2.1116323471069336 True False
27422.78 -2.6007731596576136 -1.0382483762553711 1.4461048285113733 -1.9787193737425746 -1.5707648436175745 2.1116366386413574 True False
27422.8 -2.6007774511920374 -1.0382811588099976 1.446148697529928 -1.978682657281393 -1.5707648436175745 2.1116604804992676 True False
27422.82 -2.6007939020739954 -1.0382527869990845 1.4461005369769495 -1.9786950550475062 -1.5707925001727503 2.111583709716797 True False
27422.84 -2.6007404963122767 -1.0382320445827027 1.446113411580221 -1.978682657281393 -1.5708168188678187 2.1116280555725098 True False
27422.859999999997 -2.6007569471942347 -1.0382617276958008 1.4461048285113733 -1.9787074528136195 -1.570801083241598 2.111599922180176 True False
27422.879999999997 -2.600802723561422 -1.0382228654674073 1.4461162726031702 -1.9786468944945277 -1.5707925001727503 2.111611843109131 True False
27422.899999999998 -2.600786272679464 -1.0382409256747742 1.4461444059955042 -1.9786349735655726 -1.5707805792437952 2.1116485595703125 True False
27422.92 -2.6007774511920374 -1.0382825297168274 1.4461372534381312 -1.9787475071349085 -1.570801083241598 2.1116151809692383 True False
27422.94 -2.6007688681231897 -1.0382320445827027 1.4461525122271937 -1.9786912403502406 -1.570829216633932 2.111673355102539 True False
27422.96 -2.600786272679464 -1.038237826233246 1.4460881392108362 -1.978711267510885 -1.570824925099508 2.11165189743042 True False
27422.98 -2.6007655302630823 -1.0382290047458191 1.4461444059955042 -1.9786511860289515 -1.570845905934469 2.1116127967834473 True False
27423.0 -2.6007404963122767 -1.0382408660701294 1.4461773077594202 -1.978643079797262 -1.570784870778219 2.111623764038086 True False
27423.02 -2.6007896105395716 -1.0382617276958008 1.4461687246905726 -1.9786950550475062 -1.5708416144000452 2.111665725708008 True False
27423.039999999997 -2.6007536093341272 -1.0382127326777955 1.4461482206927698 -1.978682657281393 -1.5708168188678187 2.1116366386413574 True False
27423.059999999998 -2.600786034260885 -1.038249747162201 1.4461401144610804 -1.9786831341185511 -1.5708048979388636 2.1116280555725098 True False
27423.079999999998 -2.6007373968707483 -1.0382245940021058 1.4461568037616175 -1.9787036381163539 -1.5707324186908167 2.1116280555725098 True False
27423.1 -2.6007536093341272 -1.0382215541652222 1.4461482206927698 -1.978711267510885 -1.5707481543170374 2.1116161346435547 True False
27423.12 -2.6007896105395716 -1.0382215541652222 1.4461076895343226 -1.9786869488158167 -1.57074481645693 2.1116366386413574 True False
27423.14 -2.6007090250598353 -1.0382259649089356 1.4461935202227991 -1.978739400903219 -1.57074481645693 2.111607551574707 True False
27423.16 -2.6007896105395716 -1.038274959926941 1.4461773077594202 -1.9787193737425746 -1.570784870778219 2.111595630645752 True False
27423.18 -2.600769821797506 -1.0382617276958008 1.4461653868304651 -1.9787074528136195 -1.5707925001727503 2.1116042137145996 True False
27423.199999999997 -2.6008058230029505 -1.038401798611023 1.4460251967059534 -1.978734632531637 -1.570813004170553 2.1116433143615723 True False
27423.219999999998 -2.6007524172412317 -1.038393811588623 1.4459760824786585 -1.978762765923971 -1.570813004170553 2.111575126647949 True False
27423.239999999998 -2.6008058230029505 -1.0383090537837525 1.446017090474264 -1.9788228474059046 -1.5708168188678187 2.1116409301757812 True False
27423.26 -2.6008058230029505 -1.0383052986911316 1.4460209051715296 -1.978819032708639 -1.57090932527651 2.111563205718994 True False
27423.28 -2.600790564213888 -1.0383624595454712 1.446017090474264 -1.978802343408102 -1.5708168188678187 2.111595630645752 True True
27423.3 -2.6007939020739954 -1.0383982223323365 1.4458416144000452 -1.978284021417135 -1.5707805792437952 2.111575126647949 True True
27423.32 -2.6007536093341272 -1.0384797018817444 1.4454248587237757 -1.976999898950094 -1.5708134810077112 2.111595630645752 True True
27423.34 -2.6007984320269983 -1.0386783641627808 1.444573704396383 -1.9754325352110804 -1.5707648436175745 2.111619472503662 True True
27423.359999999997 -2.6007612387286585 -1.0393173855594178 1.442862335835592 -1.9736062488951625 -1.5707891623126429 2.1115760803222656 True True
27423.379999999997 -2.6007373968707483 -1.0403524798205872 1.4406426588641565 -1.9709364376463832 -1.5707686583148401 2.1116409301757812 True True
27423.399999999998 -2.600802723561422 -1.0414016407779236 1.4382618109332483 -1.9675098858275355 -1.5708211104022425 2.111591339111328 True True
27423.42 -2.6007493177997034 -1.0424559873393555 1.4357388655291956 -1.9637042484679164 -1.5708087126361292 2.1116204261779785 True True
27423.44 -2.6007655302630823 -1.0437770646861573 1.4326136747943323 -1.9592615566649378 -1.5707605520831507 2.1116724014282227 True True
27423.46 -2.6007407347308558 -1.0453601044467469 1.429089371358053 -1.9544993839659632 -1.5708335081683558 2.1116366386413574 True True
27423.48 -2.6007991472827356 -1.0470491212657471 1.4252045790301722 -1.9490767918028773 -1.5707772413836878 2.1116204261779785 True True
27423.5 -2.6007981936084192 -1.0488224786571045 1.4210765997516077 -1.942970415154928 -1.5708449522601526 2.111603260040283 True True
27423.52 -2.60077411333193 -1.0506989520839234 1.4164674917804163 -1.9363657436766566 -1.5708211104022425 2.111563205718994 True True
27423.539999999997 -2.600786034260885 -1.0528817933848877 1.4112942854510706 -1.929155012170309 -1.570829216633932 2.1116127967834473 True True
27423.559999999998 -2.6007450262652796 -1.0552461308291932 1.405787769948141 -1.9214588604369105 -1.5708406607257288 2.1115880012512207 True True
27423.579999999998 -2.6007981936084192 -1.0576726359179993 1.4000509420977991 -1.9132887325682582 -1.5708044211017054 2.111611843109131 True True
27423.6 -2.6007896105395716 -1.0602447551539917 1.393973175679342 -1.9043871364989222 -1.5707605520831507 2.1116127967834473 True True
27423.62 -2.600786034260885 -1.0630420607379456 1.387329403554098 -1.8949171505370082 -1.5708377997027796 2.111583709716797 True True
27423.64 -2.600814406071798 -1.0661264222911377 1.3802803198443812 -1.8850718937315882 -1.5707767645465296 2.1116323471069336 True True
27423.66 -2.6007731596576136 -1.0693178933909913 1.372711483632223 -1.8746348820128382 -1.5707767645465296 2.1115760803222656 True True
27423.68 -2.6007288138019007 -1.0725744825652619 1.3653190771686 -1.8639852009215296 -1.5707529226886194 2.1116366386413574 True True
27423.699999999997 -2.6007655302630823 -1.0753690761378785 1.3584240118609827 -1.8539396725096644 -1.5707967917071741 2.1116528511047363 True True
27423.719999999998 -2.6007817427264612 -1.0780692559531708 1.351985279713766 -1.844438215295309 -1.5707891623126429 2.111599922180176 True True
27423.739999999998 -2.6007655302630823 -1.080739901666977 1.345532242451803 -1.8355151615538539 -1.5708087126361292 2.11163330078125 True True
27423.76 -2.6007939020739954 -1.0832549792579194 1.3395937124835413 -1.8271852932372035 -1.5708087126361292 2.1116442680358887 True True
27423.78 -2.6007817427264612 -1.0856165450862427 1.3342168966876429 -1.8192907772459925 -1.570784870778219 2.1116323471069336 True True
27423.8 -2.6007896105395716 -1.0877172511867066 1.3292654196368616 -1.812061449090475 -1.5708449522601526 2.1115708351135254 True True
27423.82 -2.6007817427264612 -1.0897455376437684 1.3244789282428187 -1.8054162464537562 -1.5708254019366663 2.111599922180176 True True
27423.84 -2.6007536093341272 -1.0916278225234528 1.3201215902911585 -1.7992288074889125 -1.5707886854754847 2.111607551574707 True True
27423.859999999997 -2.6007612387286585 -1.0932486218265076 1.3161285559283655 -1.793600698510641 -1.5707767645465296 2.1115760803222656 True True
27423.879999999997 -2.6007941404925745 -1.0946611028960724 1.3125718275653284 -1.7886516056456507 -1.5707362333880823 2.1116042137145996 True True
27423.899999999998 -2.6007729212390345 -1.0960740011981507 1.3094518820392054 -1.7842751942076625 -1.5708168188678187 2.111629009246826 True True
27423.92 -2.6007655302630823 -1.0972356659225007 1.306692902241842 -1.7802816830077113 -1.5708168188678187 2.1116204261779785 True True
27423.94 -2.6007521788226526 -1.09822832167659 1.3044498602496546 -1.776928564111227 -1.5708211104022425 2.1115708351135254 True True
27423.96 -2.6007610003100794 -1.099021391277649 1.3025215307818812 -1.7740222416319789 -1.5708611647235315 2.1115922927856445 True True
27423.98 -2.600741688405172 -1.0997403127006073 1.3008831183062952 -1.772006174127096 -1.5707724730121058 2.1116366386413574 True True
27424.0 -2.6007896105395716 -1.1001991492560883 1.2997291723834437 -1.7702962360777796 -1.5707443396197718 2.111611843109131 True True
27424.02 -2.6007774511920374 -1.1004857581904908 1.2990053335772913 -1.7690206966795863 -1.5707925001727503 2.1116323471069336 True True
27424.039999999997 -2.6007655302630823 -1.1005524557879944 1.298581902180807 -1.7685862980284632 -1.570801083241598 2.1116280555725098 True True
27424.059999999998 -2.6007266680346888 -1.1005856853774567 1.2985308806048792 -1.7685781917967738 -1.5708773771869105 2.111575126647949 True True
27424.079999999998 -2.600219790135519 -1.100590781574585 1.2986109892474573 -1.768538614312643 -1.570853058491842 2.1115190982818604 True True
27424.1 -2.5990992228137415 -1.1006019872478028 1.298535172139303 -1.7686306438841761 -1.5708487669574183 2.1113264560699463 True True
27424.12 -2.597485605870382 -1.100597695713379 1.2984979788409632 -1.7686511478819789 -1.5707524458514612 2.111237049102783 True True
27424.14 -2.595276657735006 -1.1006301802447815 1.2985265890704554 -1.7685424290099085 -1.5708406607257288 2.110997200012207 True True
27424.16 -2.5922909418689173 -1.1006859105876465 1.2985509077655237 -1.7685347996153773 -1.5708087126361292 2.110757350921631 True True
27424.18 -2.588888470326559 -1.1007423859885712 1.298535172139303 -1.7686120472350062 -1.5708048979388636 2.110475778579712 True True
27424.199999999997 -2.5850141684161585 -1.100769357090332 1.2985308806048792 -1.7685791454710902 -1.5708377997027796 2.110039234161377 True True
27424.219999999998 -2.5805752913104456 -1.100826309328415 1.298563305531637 -1.7686158619322718 -1.5708487669574183 2.1095638275146484 True True
27424.239999999998 -2.575409237538473 -1.1008492571166535 1.2985547224627894 -1.7685748539366664 -1.5707562605487269 2.109121799468994 True True
27424.26 -2.569770161305563 -1.1008198422244568 1.2986725012408655 -1.7685462437071742 -1.5707925001727503 2.1085715293884277 True True
27424.28 -2.563767973576681 -1.1009019178203125 1.2986658255206507 -1.7685748539366664 -1.570784870778219 2.107886552810669 True True
27424.3 -2.5571237246142786 -1.1009287697127839 1.2987640539752405 -1.7686592541136683 -1.5708044211017054 2.1071670055389404 True True
27424.32 -2.5497868696795862 -1.1010378760150452 1.2988269964801233 -1.7685982189574183 -1.570857350026266 2.1065423488616943 True True
27424.34 -2.5418856779681605 -1.1010415715030213 1.2988904158221644 -1.768674989739889 -1.5708492437945765 2.1057918071746826 True True
27424.359999999997 -2.5334633032428187 -1.1010883909514924 1.2989938894854944 -1.7687145672240199 -1.5707767645465296 2.1049306392669678 True True
27424.379999999997 -2.524552885686056 -1.1011780363372345 1.2990377585040491 -1.7686778507628382 -1.5708211104022425 2.1040334701538086 True True
27424.399999999998 -2.51510459581484 -1.1012306970408936 1.2991498152362269 -1.7688023052611292 -1.5708087126361292 2.103090524673462 True True
27424.42 -2.504895273839132 -1.1012737911990662 1.299269978200094 -1.7688023052611292 -1.5707357565509241 2.102077007293701 True True
27424.44 -2.4944801966296595 -1.1013545852950593 1.299410645161764 -1.7688380680479945 -1.570784870778219 2.1010477542877197 True True
27424.46 -2.4833641687976282 -1.1013815861991425 1.2994988600360315 -1.7688819370665492 -1.5708492437945765 2.09991455078125 True True
27424.48 -2.471330229436056 -1.1014421743205567 1.299614731465475 -1.7689057789244593 -1.5707762877093714 2.098830223083496 True True
27424.5 -2.4591074625598353 -1.1015737515738984 1.2997539679156702 -1.7690025768675746 -1.5707486311541956 2.097564458847046 True True
27424.52 -2.446494166051046 -1.1016262930682679 1.299887482319967 -1.7690097294249476 -1.570815388356344 2.0962376594543457 True True
27424.539999999997 -2.4328771273242396 -1.1017551583102723 1.3000152746783655 -1.7690698109068812 -1.5707653204547327 2.094947338104248 True True
27424.559999999998 -2.4188600222217005 -1.1018108886531373 1.3000567595111292 -1.7690407238402308 -1.5707891623126429 2.0935909748077393 True True
27424.579999999998 -2.4044650236712855 -1.1018741887858887 1.3001812140094202 -1.7691174946227015 -1.5707925001727503 2.092154026031494 True True
27424.6 -2.389381472264425 -1.1020030540278931 1.3003419081317347 -1.7691246471800746 -1.570784870778219 2.0907182693481445 True True
27424.62 -2.3737626711474817 -1.102020726805069 1.300535027180807 -1.7692128620543421 -1.5707967917071741 2.0890350341796875 True True
27424.64 -2.3575361410724085 -1.102178470497467 1.300612751637594 -1.769280572930807 -1.570801083241598 2.087510108947754 True True
27424.66 -2.3407350222217005 -1.1023148459247132 1.3008187452899378 -1.7693120441832484 -1.5707891623126429 2.085784435272217 True True
27424.68 -2.3234804312335413 -1.1024601024440308 1.300967041646139 -1.769384046594137 -1.5707772413836878 2.0841434001922607 True True
27424.699999999997 -2.3055954615222376 -1.1024770897677918 1.3011258284198206 -1.7694646320738734 -1.5708172957049769 2.0824005603790283 True True
27424.719999999998 -2.286991898213522 -1.1025484961322327 1.3013089338885706 -1.7695123157896937 -1.5708172957049769 2.0805516242980957 True True
27424.739999999998 -2.2681224981891077 -1.1027338665774842 1.30151874223818 -1.7695962391295375 -1.5708454290973108 2.078624963760376 True True
27424.76 -2.2485535780536097 -1.102887050514557 1.3017075697528284 -1.7696720562376917 -1.570784870778219 2.076704502105713 True True
27424.78 -2.2283857504474085 -1.1029861134341736 1.3018773237811487 -1.7696787319579066 -1.5708172957049769 2.074723482131958 True True
27424.8 -2.207742516194479 -1.1031106275371094 1.3019936720477503 -1.7697278461852015 -1.5707357565509241 2.0726335048675537 True True
27424.82 -2.1868980566607874 -1.1032396715930481 1.3022649923907679 -1.7697535953917445 -1.570756737385885 2.070589780807495 True True
27424.84 -2.1657584349261683 -1.1032853883555909 1.3023837248431605 -1.7698742351927699 -1.5707967917071741 2.068532705307007 True True
27424.859999999997 -2.1449692885028284 -1.103442446594574 1.3026912848102015 -1.7699266872801722 -1.5707977453814905 2.0664165019989014 True True
27424.879999999997 -2.123974148427145 -1.1036233466914673 1.3028729597674769 -1.7699939213194789 -1.570772949849264 2.064331531524658 True True
27424.899999999998 -2.103046242390768 -1.103731558924057 1.3030827681170862 -1.770130296746725 -1.5707686583148401 2.0622386932373047 True True
27424.92 -2.082128349934713 -1.1038994056037446 1.303244415913717 -1.7701899013915003 -1.5708096663104456 2.060202121734619 True True
27424.94 -2.0611746946917933 -1.1040358406356354 1.3034151236163538 -1.7701894245543421 -1.5707925001727503 2.058157444000244 True True
27424.96 -2.040157143269674 -1.1041429799846192 1.3035910765277308 -1.7703625164427699 -1.5707762877093714 2.0560193061828613 True True
27424.98 -2.0192554632769983 -1.1042349499515076 1.3038442770587366 -1.770341535607809 -1.570728603993551 2.053934097290039 True True
27425.0 -1.99841815630068 -1.1043828588775177 1.3040373961078089 -1.7703925571837367 -1.5707805792437952 2.0519258975982666 True True
27425.02 -1.977391544972555 -1.1044941407493134 1.30420428911318 -1.770489355126852 -1.5708044211017054 2.0498046875 True True
27425.039999999997 -1.9563820997821253 -1.1046756666949769 1.3044379393206995 -1.7705122433104457 -1.5707815329181116 2.047776460647583 True True
27425.059999999998 -1.9355204741107386 -1.1048029226115723 1.3046782652484339 -1.7706324062743128 -1.5708087126361292 2.0456955432891846 True True
27425.079999999998 -1.9145410696612757 -1.1048797529986878 1.3047917524920862 -1.7707163296141566 -1.5707524458514612 2.0436887741088867 True True
27425.1 -1.8936460653888147 -1.1050156515887757 1.3050568739520472 -1.77075256923818 -1.5707524458514612 2.0414931774139404 True True
27425.12 -1.8726633230792444 -1.1051720541766663 1.30519944826235 -1.7707835636534632 -1.570801083241598 2.0394177436828613 True True
27425.14 -1.851715389882223 -1.1052874785712739 1.3053749243365687 -1.7708631954588832 -1.5707925001727503 2.0373194217681885 True True
27425.16 -1.8306945005999964 -1.105422006254532 1.3055756727801722 -1.7709595165648402 -1.570756737385885 2.035230875015259 True True
27425.18 -1.8098934332477015 -1.1055515867522736 1.3057592550860804 -1.771034379998678 -1.5707925001727503 2.033158302307129 True True
27425.199999999997 -1.7888830343829554 -1.1057405036738892 1.3059595266925257 -1.7710792026915492 -1.5708001295672815 2.0311386585235596 True True
27425.219999999998 -1.768031422291891 -1.1057614547065278 1.3061683813678187 -1.7711225948729457 -1.5707967917071741 2.0290687084198 True True
27425.239999999998 -1.7470949331866663 -1.1059647363475342 1.3063347975360315 -1.7712341747679652 -1.5708335081683558 2.0270164012908936 True True
27425.26 -1.7259777227984827 -1.106022523050644 1.306577507649557 -1.7712298832335414 -1.5708087126361292 2.0248947143554688 True True
27425.28 -1.7051575819598597 -1.1061345797828217 1.3067801634417933 -1.7713223896422328 -1.570772949849264 2.02282452583313 True True
27425.3 -1.6841838995562952 -1.106327847843506 1.306971851979391 -1.7713901005186976 -1.570784870778219 2.020732879638672 True True
27425.32 -1.6632192770587366 -1.1064806145480652 1.3070858160602015 -1.771517892877096 -1.5707443396197718 2.0186827182769775 True True
27425.34 -1.6422761122332972 -1.106586442594864 1.3073080221759241 -1.7715660534300746 -1.5708087126361292 2.016542911529541 True True
27425.359999999997 -1.6213238875018519 -1.106687919502594 1.3075040022479456 -1.7716084919371546 -1.5708053747760218 2.014545202255249 True True
27425.379999999997 -1.6003740469561976 -1.1067749124816437 1.3077200094806116 -1.7716566524901332 -1.5708172957049769 2.0124754905700684 True True
27425.399999999998 -1.5794833342181605 -1.1069845122149964 1.3079236189471644 -1.7717205486693324 -1.5707891623126429 2.010375738143921 True True
27425.42 -1.5585206190692347 -1.1070797902396698 1.3080499807940882 -1.7718116245665492 -1.570772949849264 2.0082242488861084 True True
27425.44 -1.5375402609454554 -1.1072205168059845 1.308282200490133 -1.7719007931151332 -1.5707967917071741 2.006255865097046 True True
27425.46 -1.5166495482074183 -1.1073813003352662 1.3085148970233362 -1.7719041309752406 -1.570784870778219 2.0040838718414307 True True
27425.48 -1.4957707563983362 -1.107493595486023 1.3086994330035608 -1.7719794712462367 -1.5708206335650843 2.0020666122436523 True True
27425.5 -1.4747689406024378 -1.1076206129840394 1.3089030424701136 -1.7720872364439906 -1.570813004170553 1.99993097782135 True True
27425.52 -1.453855339680807 -1.1077619653991242 1.3090780417071741 -1.7721315822997035 -1.5707233587848108 1.9978514909744263 True True
27425.539999999997 -1.4328621069537562 -1.1078566175750275 1.3092988173114222 -1.7721992931761683 -1.5708296934710901 1.995825171470642 True True
27425.559999999998 -1.4118817488299769 -1.107922540312149 1.3094576040851038 -1.772283216516012 -1.5708368460284632 1.9936728477478027 True True
27425.579999999998 -1.3909719626056116 -1.1081252557090302 1.3097150961505335 -1.772318502465719 -1.5707886854754847 1.9916642904281616 True True
27425.6 -1.3699496428119105 -1.108289287691452 1.3098610083209437 -1.7723905048766078 -1.5707648436175745 1.9895395040512085 True True
27425.62 -1.349034611378805 -1.1084044736674805 1.3101065794574183 -1.7725311718382777 -1.5707925001727503 1.9874933958053589 True True
27425.64 -1.3280928770648401 -1.10847960532222 1.3102453390704554 -1.77252258876943 -1.5707529226886194 1.9854230880737305 True True
27425.66 -1.3072136084186 -1.1086172026446839 1.3104575316058558 -1.7725984058775843 -1.5707925001727503 1.9833554029464722 True True
27425.68 -1.2862218062030237 -1.1087820094874878 1.3106253782855433 -1.7726694546141566 -1.570784870778219 1.9813101291656494 True True
27425.699999999997 -1.2653120199786585 -1.1089534324458619 1.3108118216144007 -1.7727257213988246 -1.5708296934710901 1.9792187213897705 True True
27425.719999999998 -1.2443388144122522 -1.1090535086444397 1.311033074055807 -1.7728249035277308 -1.5708211104022425 1.9771203994750977 True True
27425.739999999998 -1.2234280745135706 -1.1091401737979432 1.311232868825094 -1.772869726220602 -1.5708172957049769 1.9750128984451294 True True
27425.76 -1.2024882475482386 -1.1092262131026764 1.3114636580096644 -1.7729011974730433 -1.5707967917071741 1.9729945659637451 True True
27425.78 -1.1815531889544886 -1.1094302398017426 1.3116539160357874 -1.7729603252806605 -1.5707686583148401 1.970847249031067 True True
27425.8 -1.1605451742755335 -1.109479473238327 1.3118284384356897 -1.7730490169920863 -1.5708125273333948 1.968793272972107 True True
27425.82 -1.1396754423724573 -1.1096609097770234 1.3120573202716272 -1.7731086216368617 -1.5707891623126429 1.9667211771011353 True True
27425.84 -1.1187174955951136 -1.1098174017718812 1.312265698109762 -1.7731877766051234 -1.5707843939410608 1.9646755456924438 True True
27425.859999999997 -1.0977099577533167 -1.109982655649521 1.3124082724200647 -1.7732559643187464 -1.570784870778219 1.9625834226608276 True True
27425.879999999997 -1.0768526236163538 -1.110053376560547 1.312587086354391 -1.7732793293394984 -1.570772949849264 1.9605484008789062 True True
27425.899999999998 -1.0558708349811 -1.110181139116623 1.3128622213946741 -1.7733146152892054 -1.5708568731891077 1.9584497213363647 True True
27425.92 -1.034950081502096 -1.1103056532195588 1.3129962126361292 -1.773419042626852 -1.5707443396197718 1.9564485549926758 True True
27425.94 -1.0140655676471155 -1.1103949409774323 1.313216511403219 -1.7735277614989222 -1.570841137562887 1.9542659521102905 True True
27425.96 -0.9929707686053675 -1.1106141966632386 1.3134411017047327 -1.7736035786070765 -1.5708091894732874 1.9522082805633545 True True
27425.98 -0.972055737172262 -1.1106839937022706 1.3135960737811487 -1.7736226520934046 -1.5707648436175745 1.9501557350158691 True True
27426.0 -0.9511078039752405 -1.1108871859363099 1.3137276808368128 -1.7736898861327113 -1.5707882086383265 1.9480992555618286 True True
27426.02 -0.9302399794207972 -1.110977516775467 1.3139599005328577 -1.7738262615599574 -1.570784870778219 1.945968747138977 True True
27426.039999999997 -0.9092395941363733 -1.1110775929740448 1.3141773382769983 -1.773813863793844 -1.5708254019366663 1.9438756704330444 True True
27426.059999999998 -0.888289753590719 -1.1112048786929627 1.314385716115133 -1.7738782368102015 -1.5707967917071741 1.941818118095398 True True
27426.079999999998 -0.8673704306231897 -1.1113493901542206 1.3145926634417933 -1.77394499401235 -1.5707929770099085 1.9397132396697998 True True
27426.1 -0.8464110533343714 -1.1114657682231446 1.314723316823141 -1.7740169964232386 -1.570772949849264 1.9376592636108398 True True
27426.12 -0.8254826704608362 -1.1115898352912446 1.3149035612689417 -1.7740932903685511 -1.5707772413836878 1.935577154159546 True True
27426.14 -0.8044655958758753 -1.1117580992034455 1.3151071707354944 -1.7741648159422816 -1.570772949849264 1.9335358142852783 True True
27426.16 -0.7835901419269007 -1.1118658644011994 1.3153036276446741 -1.774168153802389 -1.5707967917071741 1.9314618110656738 True True
27426.18 -0.7626350561725062 -1.1119941037944336 1.3155611197101038 -1.7743083439269007 -1.5707605520831507 1.929374098777771 True True
27426.199999999997 -0.7417119185077112 -1.1121094685843964 1.3156994024859827 -1.7743798695006312 -1.5707767645465296 1.9272993803024292 True True
27426.219999999998 -0.7208054701434534 -1.1123038691333313 1.3158910910235804 -1.7744161091246546 -1.570796314870016 1.9252136945724487 True True
27426.239999999998 -0.6998708883868616 -1.112385557298996 1.3161113897906702 -1.7745238743224085 -1.570813004170553 1.9230906963348389 True True
27426.26 -0.6788213888751429 -1.1125474733165284 1.3162959257708948 -1.774611612359518 -1.5707934538470667 1.9210755825042725 True True
27426.28 -0.6579445044146937 -1.1126507681659241 1.3164780775653284 -1.7746316395201625 -1.5707967917071741 1.9189889430999756 True True
27426.3 -0.6369670073138636 -1.1127904814532776 1.316747013722555 -1.7746430836119593 -1.5707810560809534 1.9168787002563477 True True
27426.32 -0.6160667578326624 -1.1129593712142487 1.3169272581683558 -1.7747465572752894 -1.5708492437945765 1.9147976636886597 True True
27426.34 -0.5951402823077601 -1.1130671364120026 1.3171027342425745 -1.7748147449889125 -1.570784870778219 1.9127247333526611 True True
27426.359999999997 -0.5741737524615687 -1.1131704610637208 1.3173483053790491 -1.7748781643309535 -1.5707767645465296 1.9106552600860596 True True
27426.379999999997 -0.5531929175006312 -1.1132987898639222 1.3174999395953577 -1.774954458276266 -1.570845905934469 1.9086190462112427 True True
27426.399999999998 -0.5321939627276819 -1.113410310154297 1.3177064100848597 -1.7749859295287074 -1.5707610289203089 1.9065377712249756 True True
27426.42 -0.5113175551043909 -1.1135586363128205 1.3178899923907679 -1.77508606533193 -1.5708087126361292 1.904443621635437 True True
27426.44 -0.49035483995546514 -1.1137314301780243 1.3180416266070765 -1.7751289806761683 -1.570784870778219 1.9023501873016357 True True
27426.46 -0.46942311922182256 -1.113815353517868 1.3182414213763636 -1.7751528225340785 -1.5707605520831507 1.9003089666366577 True True
27426.48 -0.44847423235048467 -1.1139955979636689 1.3184784094439905 -1.7753049335875453 -1.5707886854754847 1.8981738090515137 True True
27426.5 -0.42750674882997686 -1.1140752297690888 1.3186991850482386 -1.7753612003722132 -1.5707925001727503 1.8961442708969116 True True
27426.52 -0.40657121339906865 -1.1142647129348298 1.3188779989825647 -1.7753845653929652 -1.5707529226886194 1.8940870761871338 True True
27426.539999999997 -0.3856743017779749 -1.1143148404410859 1.3190458456622522 -1.7754479847350062 -1.570829216633932 1.8920279741287231 True True
27426.559999999998 -0.3647363821612757 -1.1144588750651856 1.319233242665426 -1.7755643330016078 -1.5707929770099085 1.889926791191101 True True
27426.579999999998 -0.3437560240374964 -1.1146029096892853 1.31948167482485 -1.7755919895567835 -1.5707843939410608 1.8878692388534546 True True
27426.6 -0.32289344469179326 -1.1147068005851288 1.3196333090411585 -1.7756601772704066 -1.5707967917071741 1.8857917785644531 True True
27426.62 -0.3017967383014124 -1.1149131518653412 1.3197768370257776 -1.7757517300047816 -1.5707529226886194 1.883701205253601 True True
27426.64 -0.2809065024005335 -1.1149580639651795 1.3199933210956019 -1.775755067864889 -1.5707843939410608 1.881571888923645 True True
27426.66 -0.26001245180238897 -1.1151204866221924 1.3202417532550257 -1.775919576684469 -1.5707967917071741 1.8794937133789062 True True
27426.68 -0.23908692995180303 -1.1151771706393738 1.3204205671893519 -1.775999208489889 -1.570801083241598 1.877383828163147 True True
27426.699999999997 -0.21804935136903936 -1.1153686207583924 1.3206289450274866 -1.7759868107237757 -1.5708254019366663 1.875391960144043 True True
27426.719999999998 -0.19720775285829717 -1.1154793363860627 1.3208048979388636 -1.7761389217772425 -1.5708211104022425 1.8732378482818604 True True
27426.739999999998 -0.17617875734438115 -1.1156270963004609 1.3209322134601038 -1.7761427364745082 -1.5707643667804163 1.871241569519043 True True
27426.76 -0.155158821736471 -1.1157704454711457 1.321160141621725 -1.7761622867979945 -1.5707891623126429 1.869153380393982 True True
27426.78 -0.1343625227557581 -1.1159237784198304 1.3213489691363733 -1.7762495479979457 -1.5708006064044397 1.867074728012085 True True
27426.8 -0.11347467104067022 -1.1160282653621216 1.321512524281637 -1.7763620815672816 -1.5708044211017054 1.8649842739105225 True True
27426.82 -0.09235269228090459 -1.1160948735526581 1.3217151800738733 -1.776421686212057 -1.5707925001727503 1.8629553318023682 True True
27426.84 -0.07153302827943975 -1.1162599188140412 1.3219688574420374 -1.7764526806273402 -1.5707767645465296 1.860801100730896 True True
27426.859999999997 -0.0505598227130335 -1.1164001387408753 1.3221610228167933 -1.7765289745726527 -1.5707967917071741 1.858738660812378 True True
27426.879999999997 -0.029604736958638966 -1.1165035229972382 1.3223732153521937 -1.776536603967184 -1.5708335081683558 1.8567177057266235 True True
27426.899999999998 -0.00865489641298467 -1.1166470509818573 1.3225362936602991 -1.7766367397704066 -1.5707929770099085 1.8546234369277954 True True
27426.92 0.012310169637203217 -1.116783933048584 1.3227399031268519 -1.7767201862730921 -1.5707810560809534 1.8525211811065674 True True
27426.94 0.03327934816479683 -1.1169274610332032 1.3229239622699183 -1.7767678699889125 -1.570784870778219 1.8504759073257446 True True
27426.96 0.05406936630606651 -1.1170733135989686 1.3231280485736292 -1.7768355808653773 -1.5707805792437952 1.84837007522583 True True
27426.98 0.07514863461256027 -1.117188350563385 1.3233159224139612 -1.7769719562926234 -1.570772949849264 1.8462520837783813 True True
27427.0 0.09606996178627014 -1.1172755521586915 1.323463265095846 -1.7769514522948207 -1.57084829012026 1.8442102670669556 True True
27427.02 0.11704029887914658 -1.1174000364593049 1.323723618184225 -1.7770749531187953 -1.5707929770099085 1.842149019241333 True True
27427.039999999997 0.13796353340148926 -1.1175397497466584 1.3239195982562464 -1.7771545849242152 -1.5708091894732874 1.8400627374649048 True True
27427.059999999998 0.1588260978460312 -1.1176598829082032 1.3241117636310022 -1.7772065601744593 -1.5708449522601526 1.8379815816879272 True True
27427.079999999998 0.17983272671699524 -1.117825673227646 1.324271027241842 -1.777250429193014 -1.570772949849264 1.8358843326568604 True True
27427.1 0.2008407562971115 -1.1179820460132142 1.3244589010821741 -1.7773143253722132 -1.570796314870016 1.8338743448257446 True True
27427.12 0.22172333300113678 -1.1180487138083954 1.3246915976153772 -1.777382036248678 -1.5707891623126429 1.831787109375 True True
27427.14 0.24265927076339722 -1.1182294946959992 1.3248751799212855 -1.7774907551207484 -1.570801083241598 1.8297364711761475 True True
27427.16 0.26364079117774963 -1.1183527571013947 1.3250744978534144 -1.7775098286070765 -1.570857350026266 1.8276036977767944 True True
27427.18 0.28457868099212646 -1.1184556943229218 1.3252423445331019 -1.7775570354857386 -1.5707967917071741 1.8255988359451294 True True
27427.199999999997 0.30544313788414 -1.1185878080180665 1.3254464308368128 -1.7776690922179164 -1.5707891623126429 1.8234694004058838 True True
27427.219999999998 0.3264365792274475 -1.1187334519675751 1.3256867567645472 -1.7777534923949183 -1.570784870778219 1.821384310722351 True True
27427.239999999998 0.3474154770374298 -1.118895248775818 1.3258665243731897 -1.7778412304320277 -1.5707967917071741 1.819311261177063 True True
27427.26 0.3682691156864166 -1.1189964574626465 1.3260343710528772 -1.7778927288451136 -1.570813004170553 1.8172475099563599 True True
27427.28 0.389303058385849 -1.1190636915019532 1.3262141386615198 -1.7779604397215785 -1.570784870778219 1.8151220083236694 True True
27427.3 0.4102635085582733 -1.1191991728595276 1.3264511267291468 -1.7779718838133753 -1.570801083241598 1.8130208253860474 True True
27427.32 0.431204617023468 -1.119345025425293 1.3266337553607386 -1.778043886224264 -1.5708048979388636 1.811040997505188 True True
27427.34 0.45207348465919495 -1.1194928151420136 1.3268573919879358 -1.7781273327269496 -1.5708168188678187 1.8088761568069458 True True
27427.359999999997 0.4731059670448303 -1.1195880335620423 1.3270099798785608 -1.7781549892821253 -1.5708168188678187 1.8068480491638184 True True
27427.379999999997 0.49389365315437317 -1.1197202962687989 1.3272188345538538 -1.778271814385885 -1.5708168188678187 1.8047508001327515 True True
27427.399999999998 0.5148800611495972 -1.119844303732254 1.3274419943438929 -1.7783156834044398 -1.5708168188678187 1.8026831150054932 True True
27427.42 0.5358577370643616 -1.119997338657715 1.3276236693011683 -1.7783624134459437 -1.5708168188678187 1.8006227016448975 True True
27427.44 0.5567508935928345 -1.1201446813395997 1.3277776877032679 -1.7784463367857875 -1.5708048979388636 1.798541784286499 True True
27427.46 0.5777599811553955 -1.1202378135970612 1.3279131094561976 -1.778513570825094 -1.5708373228656214 1.7964199781417847 True True
27427.48 0.598640501499176 -1.120414213543274 1.3281453291522425 -1.7785784206786097 -1.5708416144000452 1.7944228649139404 True True
27427.5 0.6196805238723755 -1.120586172943451 1.3283370176898401 -1.778665681878561 -1.5708335081683558 1.7922981977462769 True True
27427.52 0.6406549215316772 -1.1206486982158204 1.328583065663473 -1.7787376842894496 -1.570784870778219 1.790237307548523 True True
27427.539999999997 0.6616179347038269 -1.1206946831992646 1.328778092061178 -1.778797288934225 -1.5707925001727503 1.7881758213043213 True True
27427.559999999998 0.6824356317520142 -1.1209663909724732 1.3289206663714808 -1.7788297138609828 -1.5708168188678187 1.7860420942306519 True True
27427.579999999998 0.7034878134727478 -1.1210325819304963 1.3291710058795374 -1.7789250812926234 -1.5707767645465296 1.7839256525039673 True True
27427.6 0.7243977189064026 -1.121217743759491 1.3293541113482874 -1.778964181939596 -1.5707648436175745 1.7819136381149292 True True
27427.62 0.745281994342804 -1.121353880768158 1.329562012349264 -1.779036661187643 -1.570813004170553 1.7798082828521729 True True
27427.64 0.7662534117698669 -1.1214292806437989 1.3297589460956019 -1.7790848217406214 -1.570824925099508 1.7778151035308838 True True
27427.66 0.7872435450553894 -1.121532754307129 1.3299339453326624 -1.7791601620116175 -1.570784870778219 1.7756816148757935 True True
27427.68 0.8081168532371521 -1.121689186697342 1.3301284948932093 -1.7792521915831507 -1.5708487669574183 1.773608922958374 True True
27427.699999999997 0.8290535807609558 -1.1218785804561158 1.3303373495685022 -1.7792960606017054 -1.570772949849264 1.7715052366256714 True True
27427.719999999998 0.8500420451164246 -1.1219337743571778 1.330475155507223 -1.7793837986388148 -1.5707486311541956 1.7694777250289917 True True
27427.739999999998 0.8708817958831787 -1.122077302341797 1.330684010182516 -1.779459615746969 -1.5707767645465296 1.7674028873443604 True True
27427.76 0.8919594287872314 -1.1221736532500763 1.3309534231769007 -1.7794510326781214 -1.570772949849264 1.7652558088302612 True True
27427.78 0.9128492474555969 -1.122338430290558 1.3311260382281702 -1.7796150646605433 -1.5707843939410608 1.7632607221603394 True True
27427.8 0.9337598085403442 -1.1224587720683594 1.331291977559225 -1.779590745965475 -1.5707767645465296 1.7611581087112427 True True
27427.82 0.9547642469406128 -1.1225411158851166 1.3315427939044397 -1.7796899280943812 -1.5707767645465296 1.7590774297714233 True True
27427.84 0.9757034778594971 -1.1226940017989655 1.3316548506366175 -1.779762407342428 -1.5708048979388636 1.7570692300796509 True True
27427.859999999997 0.996648371219635 -1.1228550535491486 1.3319295088397425 -1.779825349847311 -1.5707805792437952 1.7548942565917969 True True
27427.879999999997 1.0176103115081787 -1.1229492586902161 1.3320768515216272 -1.779882093469137 -1.5707805792437952 1.752821922302246 True True
27427.899999999998 1.038532018661499 -1.1231066149524231 1.3322895208941858 -1.779973646203512 -1.5707967917071741 1.7507604360580444 True True
27427.92 1.0593647956848145 -1.1231681269458313 1.3324545065509241 -1.7800380192198695 -1.570772949849264 1.748676061630249 True True
27427.94 1.080430030822754 -1.1233707827380677 1.332728687916891 -1.7800733051695765 -1.5707925001727503 1.7466285228729248 True True
27427.96 1.1013991832733154 -1.123500035410263 1.3328669706927698 -1.7801529369749964 -1.5708044211017054 1.744539737701416 True True
27427.98 1.122299075126648 -1.1236468714526673 1.3330629507647913 -1.7802211246886195 -1.5708373228656214 1.7424860000610352 True True
27428.0 1.1433424949645996 -1.1238044065288086 1.333276096974508 -1.7802769146361292 -1.5708087126361292 1.7404229640960693 True True
27428.02 1.1642279624938965 -1.12392012894664 1.3334348837481897 -1.7803641758360804 -1.5707925001727503 1.738342523574829 True True
27428.039999999997 1.1850318908691406 -1.1239889425090333 1.3336389700519007 -1.7803999386229457 -1.5707891623126429 1.7362120151519775 True True
27428.059999999998 1.2060997486114502 -1.1240982872298737 1.3338306585894983 -1.780407568017477 -1.570784870778219 1.7341512441635132 True True
27428.079999999998 1.2270619869232178 -1.124241368179657 1.3340438047992151 -1.7805434666075648 -1.5707648436175745 1.7321054935455322 True True
27428.1 1.2479057312011719 -1.124425397520401 1.3342474142657679 -1.7806240520873011 -1.5707767645465296 1.7300403118133545 True True
27428.12 1.2689180374145508 -1.1244636339000245 1.334475342427389 -1.780755182305807 -1.5708168188678187 1.7279175519943237 True True
27428.14 1.2899497747421265 -1.1246286791614075 1.3345969359027308 -1.7807632885374964 -1.5708087126361292 1.7258846759796143 True True
27428.16 1.3107750415802002 -1.1247785848430176 1.3348024527179163 -1.7808109722533167 -1.5707967917071741 1.7237746715545654 True True
27428.18 1.3317259550094604 -1.1249688428691407 1.334961239491598 -1.7808338604369105 -1.570784870778219 1.7216520309448242 True True
27428.199999999997 1.352643370628357 -1.124980406170227 1.3351863066302698 -1.7809468708434046 -1.5707610289203089 1.7195795774459839 True True
27428.219999999998 1.3736661672592163 -1.125126675968506 1.3353942076312464 -1.7809740505614222 -1.5708211104022425 1.7175339460372925 True True
27428.239999999998 1.3945939540863037 -1.1252879959395905 1.3355696837054651 -1.7810660801329554 -1.5708048979388636 1.7154605388641357 True True
27428.26 1.4155417680740356 -1.1253835421851655 1.3357709089862269 -1.7811018429198207 -1.5708449522601526 1.7133824825286865 True True
27428.28 1.4364948272705078 -1.1254986089519043 1.3359525839435022 -1.7811933956541957 -1.5707524458514612 1.7112727165222168 True True
27428.3 1.4574278593063354 -1.1256877344897767 1.3361738363849085 -1.7813135586180628 -1.570784870778219 1.7092193365097046 True True
27428.32 1.4783174991607666 -1.1257954996875306 1.3363373915301722 -1.781337400475973 -1.5707767645465296 1.7071956396102905 True True
27428.34 1.4992903470993042 -1.1259021323970337 1.3365653196917933 -1.7814213238158167 -1.5708087126361292 1.705068588256836 True True
27428.359999999997 1.5201902389526367 -1.126040295963623 1.3367484251605433 -1.7814609012999476 -1.570772949849264 1.7029764652252197 True True
27428.379999999997 1.5412230491638184 -1.1261997085860749 1.3369091192828577 -1.7815281353392542 -1.570829216633932 1.7009122371673584 True True
27428.399999999998 1.5621932744979858 -1.1263721746257325 1.3371427694903772 -1.781628747979635 -1.5707929770099085 1.6988259553909302 True True
27428.42 1.5830872058868408 -1.1264921885779877 1.3373330275165003 -1.781680246392721 -1.570801083241598 1.6967703104019165 True True
27428.44 1.6041263341903687 -1.1265716415694733 1.3375714460956019 -1.7817517719664515 -1.570801083241598 1.6947298049926758 True True
27428.46 1.624969482421875 -1.1266925793937226 1.337674919758932 -1.781783243218893 -1.5707929770099085 1.6925641298294067 True True
27428.48 1.6458147764205933 -1.126868562107422 1.3379634062396448 -1.7818790874876917 -1.5707967917071741 1.690475583076477 True True
27428.5 1.6668905019760132 -1.1270178419402619 1.3380768934832972 -1.7818991146483363 -1.5708044211017054 1.6884185075759888 True True
27428.52 1.6877995729446411 -1.1271045965007325 1.338297192250387 -1.7819510898985804 -1.5708168188678187 1.6863653659820557 True True
27428.539999999997 1.7087030410766602 -1.1272598964026947 1.338527027760641 -1.7820712528624476 -1.5708335081683558 1.68429434299469 True True
27428.559999999998 1.7296562194824219 -1.1273353558829804 1.3387005964862269 -1.7821341953673304 -1.5708168188678187 1.6822149753570557 True True
27428.579999999998 1.7506768703460693 -1.1274765592864533 1.3389137426959437 -1.7821904621519984 -1.5707810560809534 1.6801660060882568 True True
27428.6 1.771462082862854 -1.1275832217982789 1.3390844503985804 -1.7822700939574183 -1.5707967917071741 1.678079605102539 True True
27428.62 1.7925608158111572 -1.1276909571937104 1.3393214384662073 -1.7823134861388148 -1.5707529226886194 1.6760241985321045 True True
27428.64 1.813486933708191 -1.1278518301299592 1.339492146168844 -1.7823292217650355 -1.5707529226886194 1.6738876104354858 True True
27428.66 1.8344203233718872 -1.1279834073833008 1.3397472540484827 -1.782433649102682 -1.5707967917071741 1.671805500984192 True True
27428.68 1.855345606803894 -1.1280701917460938 1.3398430983172815 -1.7824770412840785 -1.5707967917071741 1.6697890758514404 True True
27428.699999999997 1.87626314163208 -1.1282765132239838 1.3400724569903772 -1.7825452289977015 -1.570784870778219 1.6677254438400269 True True
27428.719999999998 1.8972547054290771 -1.1282943052104493 1.3402794043170374 -1.7826482258238734 -1.5708044211017054 1.6656311750411987 True True
27428.739999999998 1.9181640148162842 -1.1284715098193665 1.3404892126666468 -1.7827211819090785 -1.5708254019366663 1.6635874509811401 True True
27428.76 1.939123272895813 -1.1286646586707612 1.3406155745135706 -1.7827602825560511 -1.5707648436175745 1.6614004373550415 True True
27428.78 1.9601471424102783 -1.128778801565506 1.3408568541156214 -1.7828360996642054 -1.5707805792437952 1.6593482494354248 True True
27428.8 1.9810131788253784 -1.1288880568793793 1.3410771528827112 -1.7829114399352015 -1.5708335081683558 1.6573030948638916 True True
27428.82 2.0019497871398926 -1.1289611023715516 1.3412345091449183 -1.783044000665182 -1.570801083241598 1.6552464962005615 True True
27428.84 2.022857189178467 -1.129194514160492 1.341480557118551 -1.7830072842040003 -1.5707929770099085 1.6531249284744263 True True
27428.859999999997 2.0438477993011475 -1.129281536941864 1.341607395802633 -1.783090730706686 -1.5707925001727503 1.6510953903198242 True True
27428.879999999997 2.0648398399353027 -1.1294751030257721 1.341825310383932 -1.7831345997252406 -1.5707891623126429 1.6489615440368652 True True
27428.899999999998 2.085688352584839 -1.1295847755721589 1.3420050779925745 -1.7832309208311976 -1.5708087126361292 1.6469782590866089 True True
27428.92 2.10671067237854 -1.1296850603869935 1.3421838919269007 -1.7833229504027308 -1.5707925001727503 1.6448768377304077 True True
27428.94 2.1276450157165527 -1.1298654836467286 1.3423827330218714 -1.7833792171873988 -1.5707891623126429 1.6428065299987793 True True
27428.96 2.1485202312469482 -1.1299239856055756 1.3425911108600062 -1.7835070095457972 -1.5708048979388636 1.6407411098480225 True True
27428.98 2.1694796085357666 -1.130150483255722 1.3427589575396937 -1.7835751972594203 -1.5708368460284632 1.638588547706604 True True
27429.0 2.190469980239868 -1.130216435795166 1.3430231253253382 -1.7835380039610804 -1.570784870778219 1.6365768909454346 True True
27429.02 2.211376428604126 -1.1303003591350098 1.3432477156268519 -1.7836619816222132 -1.5708211104022425 1.6344724893569946 True True
27429.039999999997 2.2323191165924072 -1.1304748517325898 1.3434203306781214 -1.7837096653380335 -1.5707605520831507 1.63239586353302 True True
27429.059999999998 2.253349781036377 -1.1305645269206543 1.3435676733600062 -1.7837935886778773 -1.570756737385885 1.6303645372390747 True True
27429.079999999998 2.2742862701416016 -1.1306422811797638 1.3437874952899378 -1.7838202915587367 -1.5707443396197718 1.6282726526260376 True True
27429.1 2.295105457305908 -1.1308139127543946 1.3438928763019007 -1.783912797967428 -1.5707362333880823 1.6261522769927979 True True
27429.12 2.3160958290100098 -1.130920098429062 1.3441627661334437 -1.783964296380514 -1.5707443396197718 1.6240864992141724 True True
27429.14 2.337080478668213 -1.131085382109024 1.3443873564349573 -1.7840196094908656 -1.5708492437945765 1.6220476627349854 True True
27429.16 2.3580539226531982 -1.131154553299286 1.3445990721331995 -1.7840835056700648 -1.5707772413836878 1.6199393272399902 True True
27429.18 2.3789467811584473 -1.131340668802597 1.3447249571429651 -1.7842122517027796 -1.570801083241598 1.617867112159729 True True
27429.199999999997 2.39984393119812 -1.131525771026947 1.344950024281637 -1.7842360935606898 -1.5707925001727503 1.6157822608947754 True True
27429.219999999998 2.4207842350006104 -1.1315788489631196 1.3451460043536585 -1.7843152485289515 -1.5708254019366663 1.6137640476226807 True True
27429.239999999998 2.4418091773986816 -1.1316791635802765 1.3453424612628382 -1.7843381367125453 -1.5707891623126429 1.6115972995758057 True True
27429.26 2.4626615047454834 -1.1318491262248536 1.345513645802633 -1.7844144306578578 -1.5708335081683558 1.6095625162124634 True True
27429.28 2.4836769104003906 -1.1319478315166016 1.345717732106344 -1.784462114373678 -1.5707805792437952 1.6074812412261963 True True
27429.3 2.50460147857666 -1.1320829850486298 1.345954720173971 -1.7845708332457484 -1.570784870778219 1.6053566932678223 True True
27429.32 2.525502920150757 -1.1321898263743897 1.3461254278766077 -1.7846795521178187 -1.5707886854754847 1.6033176183700562 True True
27429.34 2.5464906692504883 -1.132426695232727 1.3463080565081995 -1.7847668133177699 -1.5707767645465296 1.6012935638427734 True True
27429.359999999997 2.567453384399414 -1.1325090688518067 1.3465254942523401 -1.784762521783346 -1.570772949849264 1.599141001701355 True True
27429.379999999997 2.588421106338501 -1.1326990884593506 1.3467381636248987 -1.784837385217184 -1.570813004170553 1.5970443487167358 True True
27429.399999999998 2.609311819076538 -1.1326913398555298 1.3469184080706995 -1.7849012813963832 -1.5708449522601526 1.5950214862823486 True True
27429.42 2.6303727626800537 -1.1329142314246674 1.3471248785602015 -1.7849770985045375 -1.5707967917071741 1.5929208993911743 True True
27429.44 2.651240825653076 -1.1329883199981232 1.3472755591021937 -1.7850529156126917 -1.570784870778219 1.5908318758010864 True True
27429.46 2.6721394062042236 -1.1331502956203003 1.3475139776812952 -1.7850805721678675 -1.5707805792437952 1.5887750387191772 True True
27429.48 2.693152666091919 -1.133227900867798 1.3476818243609827 -1.7851611576476039 -1.5707529226886194 1.5867234468460083 True True
27429.5 2.7139992713928223 -1.1333765548518677 1.3478925863849085 -1.785220285455221 -1.5707767645465296 1.5846651792526245 True True
27429.52 2.734954833984375 -1.1335503321937104 1.3481553236590784 -1.7852794132628382 -1.570801083241598 1.5825848579406738 True True
27429.539999999997 2.7551941871643066 -1.1336585444263 1.3482726255999964 -1.7853285274901332 -1.5707405249225062 1.580548644065857 True True
27429.559999999998 2.774897813796997 -1.1337908071330567 1.3484118620501917 -1.7854482136168421 -1.570813004170553 1.5786371231079102 True True
27429.579999999998 2.794314384460449 -1.1338765782168885 1.3485677878009241 -1.7854553661742152 -1.5707529226886194 1.5767016410827637 True True
27429.6 2.812896251678467 -1.134030507212021 1.3487523237811487 -1.78552307705068 -1.570784870778219 1.574797511100769 True True
27429.62 2.830979824066162 -1.1341163677028199 1.3489120642291468 -1.7856279812254847 -1.570845905934469 1.5730539560317993 True True
27429.64 2.8485021591186523 -1.134209321146347 1.3490508238421839 -1.7855826816954554 -1.570784870778219 1.5713176727294922 True True
27429.66 2.8656344413757324 -1.134272353058197 1.349269215260641 -1.78562655071401 -1.5708254019366663 1.5696414709091187 True True
27429.68 2.881990671157837 -1.134400652056076 1.3494041601764124 -1.7857510052123011 -1.5707686583148401 1.5680540800094604 True True
27429.699999999997 2.8978188037872314 -1.134489045744278 1.3495572249041956 -1.7857700786986292 -1.5707843939410608 1.5664130449295044 True True
27429.719999999998 2.9132091999053955 -1.1346426469138642 1.3497040907489222 -1.7857939205565394 -1.5707929770099085 1.564844012260437 True True
27429.739999999998 2.927995204925537 -1.1347107154181977 1.3498237768756312 -1.7858897648253382 -1.5707724730121058 1.5634111166000366 True True
27429.76 2.9421398639678955 -1.1347845953753968 1.349917236958639 -1.785962244073385 -1.5707805792437952 1.5619736909866333 True True
27429.78 2.955698251724243 -1.1348485809615632 1.3500998655902308 -1.7860142193236292 -1.570829216633932 1.5606621503829956 True True
27429.8 2.9689714908599854 -1.1349873405746003 1.35020620027651 -1.7860375843443812 -1.5707810560809534 1.5593602657318115 True True
27429.82 2.981374502182007 -1.1350697439960022 1.350339714680807 -1.786081453362936 -1.570813004170553 1.5581434965133667 True True
27429.84 2.993342399597168 -1.135113076572754 1.3503864447223108 -1.7861300907530726 -1.5708211104022425 1.556929588317871 True True
27429.859999999997 3.0047972202301025 -1.1352246862700959 1.3505094687091272 -1.786081930200094 -1.570772949849264 1.5557388067245483 True True
27429.879999999997 3.015576124191284 -1.1353011590293427 1.3506348768817347 -1.786156793633932 -1.5707724730121058 1.5547425746917725 True True
27429.899999999998 3.025960922241211 -1.1352996987155457 1.350750748311178 -1.7861648998656214 -1.5708211104022425 1.5536803007125854 True True
27429.92 3.035710334777832 -1.135446773176529 1.3508146444903772 -1.7862216434874476 -1.5707772413836878 1.552739143371582 True True
27429.94 3.0446858406066895 -1.135408030157425 1.35087758699526 -1.7862445316710414 -1.570784870778219 1.5518537759780884 True True
27429.96 3.0534708499908447 -1.1355317395976563 1.3509329001056116 -1.7862678966917933 -1.5707767645465296 1.5509841442108154 True True
27429.98 3.0614888668060303 -1.135561303501465 1.351069752370016 -1.7863007984557093 -1.5707648436175745 1.5500916242599487 True True
27430.0 3.0688397884368896 -1.1356052321246644 1.3511622587787073 -1.7863160572447718 -1.5707767645465296 1.5494024753570557 True True
27430.02 3.0758819580078125 -1.1356482964805146 1.3512175718890589 -1.7863408527769984 -1.570801083241598 1.5487645864486694 True True
27430.039999999997 3.0823707580566406 -1.1357010167888184 1.351274315510885 -1.7863851986327113 -1.57074481645693 1.5480930805206299 True True
27430.059999999998 3.088167190551758 -1.1356832844069977 1.3513625303851526 -1.7863718471922816 -1.5708048979388636 1.5475640296936035 True True
27430.079999999998 3.0932834148406982 -1.1357397598079224 1.351382080708639 -1.7863923511900843 -1.5708335081683558 1.5470209121704102 True True
27430.1 3.0979831218719482 -1.1358365279487153 1.3514702955829065 -1.7864610157408656 -1.570813004170553 1.546574592590332 True True
27430.12 3.1021809577941895 -1.1357534688762208 1.3515108267413538 -1.7864400349059046 -1.5707967917071741 1.5461468696594238 True True
27430.14 3.1057369709014893 -1.135836438541748 1.3514898459063929 -1.786476274529928 -1.5708044211017054 1.5457875728607178 True True
27430.16 3.1087770462036133 -1.1358967286399384 1.3514917532550257 -1.7864443264403285 -1.5707805792437952 1.5455414056777954 True True
27430.18 3.111290693283081 -1.1358935099891205 1.351537052785055 -1.7864767513670863 -1.5707767645465296 1.5452606678009033 True True
27430.199999999997 3.113239049911499 -1.135838047867157 1.3515704313861292 -1.7864324055113734 -1.570829216633932 1.5450866222381592 True True
27430.219999999998 3.1145365238189697 -1.135892317896225 1.3515737692462366 -1.7865120373167933 -1.5708211104022425 1.5450068712234497 True True
27430.239999999998 3.115356922149658 -1.1358713668635865 1.351565186177389 -1.786527772943014 -1.5707805792437952 1.544946312904358 True True
27430.26 3.1155834197998047 -1.135812835102417 1.351593319569723 -1.7864724598326625 -1.5707648436175745 1.5448731184005737 True True
27430.28 3.1154873371124268 -1.135883317594864 1.3518927733050745 -1.787119051019186 -1.570869270955221 1.5449135303497314 True True
27430.3 3.115478277206421 -1.1356757444194336 1.3525202910052698 -1.7877074680724085 -1.5708168188678187 1.5448294878005981 True True
27430.32 3.115577220916748 -1.1353628200343628 1.353539768849508 -1.7891365490355433 -1.5708168188678187 1.5448468923568726 True True
27430.34 3.115478277206421 -1.1348008078387757 1.3548172155963343 -1.7910658321776332 -1.5708335081683558 1.5448468923568726 True True
27430.359999999997 3.115515947341919 -1.1339182716659089 1.3566320578204554 -1.7937380276122035 -1.5708211104022425 1.5448014736175537 True True
27430.379999999997 3.1155428886413574 -1.1329294604114075 1.3587897459613245 -1.7967530689635218 -1.5708335081683558 1.544761061668396 True True
27430.399999999998 3.1155879497528076 -1.1316989225200196 1.3613293806659144 -1.8006226025023402 -1.5707443396197718 1.544867753982544 True True
27430.42 3.1155879497528076 -1.1304329198649903 1.3641579786883753 -1.804639001885885 -1.5707767645465296 1.5447697639465332 True True
27430.44 3.1155788898468018 -1.1288520854762574 1.367492977772848 -1.8094803295531214 -1.5708487669574183 1.5447697639465332 True True
27430.46 3.1155879497528076 -1.1271162194064637 1.3713200728045862 -1.814817567864889 -1.570813004170553 1.5447851419448853 True True
27430.48 3.1156208515167236 -1.1252635282329102 1.375345532094137 -1.8207694492735804 -1.570829216633932 1.5448381900787354 True True
27430.5 3.1155998706817627 -1.1233185094645997 1.37974721590151 -1.8273054562010707 -1.5708406607257288 1.544790267944336 True True
27430.52 3.1155953407287598 -1.1210585695556183 1.3847549597369593 -1.8342472515501917 -1.5707805792437952 1.5448143482208252 True True
27430.539999999997 3.115590810775757 -1.1186710757068177 1.390052620564596 -1.8418017826476039 -1.5707891623126429 1.5447895526885986 True True
27430.559999999998 3.115626811981201 -1.1162420076182862 1.3954427878009241 -1.8500472507872523 -1.5707405249225062 1.5448100566864014 True True
27430.579999999998 3.115644693374634 -1.1136571031859894 1.4014022986041468 -1.8587380848326625 -1.5707886854754847 1.544774055480957 True True
27430.6 3.1156222820281982 -1.110703007583954 1.407825771962301 -1.8679219684996546 -1.5707886854754847 1.5448417663574219 True True
27430.62 3.11564040184021 -1.1076231759837647 1.4148791472064417 -1.877723833123678 -1.5708087126361292 1.5448721647262573 True True
27430.64 3.115607261657715 -1.1044354003718873 1.4219353834735315 -1.8880778751769007 -1.5707891623126429 1.5447895526885986 True True
27430.66 3.11558198928833 -1.1011963051608582 1.429089371358053 -1.8990351162352503 -1.570772949849264 1.5448219776153564 True True
27430.68 3.1155834197998047 -1.0979417127421875 1.4363091627704065 -1.909081598321432 -1.570801083241598 1.5448025465011597 True True
27430.699999999997 3.115577459335327 -1.094848946934082 1.443080250416891 -1.91876282314443 -1.570801083241598 1.5447653532028198 True True
27430.719999999998 3.1155459880828857 -1.091996209030487 1.4495328108416956 -1.9278713665404261 -1.5707967917071741 1.5448143482208252 True True
27430.739999999998 3.115647792816162 -1.089401291017868 1.4552624861346644 -1.9366208515562953 -1.5708335081683558 1.5448262691497803 True True
27430.76 3.1155953407287598 -1.0870101016810914 1.4605916182147425 -1.9446288547911585 -1.5708487669574183 1.5448424816131592 True True
27430.78 3.115640163421631 -1.0847032529166718 1.4658392111407679 -1.9519850216307582 -1.570784870778219 1.544851303100586 True True
27430.8 3.115607261657715 -1.0825346571258088 1.470630947743551 -1.9589926205077113 -1.570801083241598 1.5448100566864014 True True
27430.82 3.1155879497528076 -1.080602691774704 1.4750459829913538 -1.9653402767577113 -1.5707686583148401 1.5447895526885986 True True
27430.84 3.115644693374634 -1.078763262634613 1.4791901747332972 -1.9712096653380335 -1.570801083241598 1.5448187589645386 True True
27430.859999999997 3.115565538406372 -1.0771022003940125 1.482760254536764 -1.9763289890685023 -1.5707805792437952 1.5447981357574463 True True
27430.879999999997 3.1156160831451416 -1.0756552082351227 1.4859469572650355 -1.9811822376646937 -1.570756737385885 1.5448230504989624 True True
27430.899999999998 3.1155788898468018 -1.0744730693152924 1.4887259642230433 -1.985088964501852 -1.570784870778219 1.5447369813919067 True True
27430.92 3.11558198928833 -1.0733413261226197 1.4911955038653772 -1.9888369045653285 -1.570829216633932 1.5448721647262573 True True
27430.94 3.1156086921691895 -1.0723372262767334 1.4933913389789026 -1.9917198620238246 -1.5708449522601526 1.5447815656661987 True True
27430.96 3.115647792816162 -1.0715401333621521 1.4950440565692347 -1.994244237939352 -1.5708168188678187 1.5448143482208252 True True
27430.98 3.115577459335327 -1.0709661704352875 1.4962318579303187 -1.9961701832213343 -1.5707686583148401 1.5448014736175537 True True
27431.0 3.1156117916107178 -1.0705486697009583 1.4971540609942835 -1.997413774529928 -1.570784870778219 1.5447566509246826 True True
27431.02 3.1156160831451416 -1.0703499478152771 1.497716252003805 -1.99815096477651 -1.5707772413836878 1.5447981357574463 True True
27431.039999999997 3.11558198928833 -1.0703545969775696 1.4978025595294397 -1.9984661541380824 -1.5707891623126429 1.5447479486465454 True True
27431.059999999998 3.115590810775757 -1.070361928348877 1.4978402296649378 -1.9984260998167933 -1.570829216633932 1.5447980165481567 True True
27431.079999999998 3.115598440170288 -1.0703933996013184 1.4978588263141077 -1.9984141788878382 -1.570829216633932 1.5448424816131592 True True
27431.1 3.115590810775757 -1.0703709882548829 1.4978306929217737 -1.9984461269774378 -1.5707891623126429 1.544777274131775 True True
27431.12 3.115656614303589 -1.0703183573535462 1.4979847113238733 -1.998385568658346 -1.570784870778219 1.5448294878005981 True True
27431.14 3.115590810775757 -1.0703392189792176 1.4979642073260706 -1.9984499416747035 -1.5707929770099085 1.544850468635559 True True
27431.16 3.115598440170288 -1.0702675145915528 1.4979308287249964 -1.9984456501402796 -1.570801083241598 1.5448122024536133 True True
27431.18 3.11558198928833 -1.0703302782825013 1.4979751745807093 -1.9983774624266566 -1.5708211104022425 1.544777274131775 True True
27431.199999999997 3.1156654357910156 -1.0703329604915162 1.4979589621173304 -1.99841370205068 -1.570784870778219 1.5448609590530396 True False
27431.219999999998 3.1156489849090576 -1.070355550651886 1.4979308287249964 -1.9984623394408167 -1.5707686583148401 1.5447697639465332 True False
27431.239999999998 3.115640163421631 -1.070277528171875 1.4979785124408167 -1.9984380207457484 -1.5707886854754847 1.5447238683700562 True False
27431.26 3.1155941486358643 -1.0703408283046265 1.4979870955096644 -1.9984179935851039 -1.5707925001727503 1.5447499752044678 True False
27431.28 3.1155714988708496 -1.070273057823517 1.4980080763446253 -1.9984098873534144 -1.570784870778219 1.5447697639465332 True False
27431.3 3.1156489849090576 -1.0702989858439942 1.4980195204364222 -1.998429914514059 -1.5708254019366663 1.544830560684204 True False
27431.32 3.115562677383423 -1.0702954691699524 1.4979503790484827 -1.9984938106932582 -1.5707805792437952 1.5448262691497803 True False
27431.34 3.1156489849090576 -1.0702989858439942 1.4979870955096644 -1.9984013042845667 -1.5708368460284632 1.5448460578918457 True False
27431.359999999997 3.1155776977539062 -1.0703153771213074 1.4979546705829065 -1.9984780750670375 -1.5708211104022425 1.544830560684204 True False
27431.379999999997 3.115631341934204 -1.0702866476825257 1.4979870955096644 -1.9984499416747035 -1.5708211104022425 1.5448338985443115 True False
27431.399999999998 3.1156041622161865 -1.0703124564937134 1.4979828039752405 -1.9984899959959925 -1.5708211104022425 1.5448219776153564 True False
27431.42 3.115565776824951 -1.070286588077881 1.4979708830462855 -1.9984375439085902 -1.5707767645465296 1.5448230504989624 True False
27431.44 3.115640163421631 -1.0703880351832886 1.4977110067950647 -1.998110910455221 -1.5708048979388636 1.5447938442230225 True False
27431.46 3.1156489849090576 -1.0706141156009217 1.4971030394183558 -1.9970175228514613 -1.5707886854754847 1.5448057651519775 True False
27431.48 3.1156041622161865 -1.0709767800620575 1.4961140791522425 -1.9954773388304652 -1.5707686583148401 1.5448338985443115 True False
27431.5 3.1156489849090576 -1.0716425639441987 1.494671646748678 -1.993328710595602 -1.5708168188678187 1.5448014736175537 True False
27431.52 3.115558385848999 -1.07254113376651 1.4927776495562952 -1.9905373058714808 -1.570813004170553 1.5447895526885986 True False
27431.539999999997 3.1155776977539062 -1.073495702152588 1.490521256123678 -1.9873353443541468 -1.570756737385885 1.5447938442230225 True False
27431.559999999998 3.115598440170288 -1.0748115342906495 1.4876444975482386 -1.9835378132262171 -1.570784870778219 1.5448511838912964 True False
27431.579999999998 3.1155996322631836 -1.0762473207763215 1.4846294561969202 -1.979251047173971 -1.5708087126361292 1.5448392629623413 True False
27431.6 3.1156554222106934 -1.0776997667602082 1.4812362829791468 -1.974246164361471 -1.5707524458514612 1.5448230504989624 True False
27431.62 3.1156115531921387 -1.0793473583510895 1.4775188604937952 -1.9687749348082484 -1.5708168188678187 1.5448338985443115 True False
27431.64 3.11566424369812 -1.0812851351550599 1.4732149283038538 -1.9627896747984828 -1.5707724730121058 1.5448349714279175 True False
27431.66 3.1156115531921387 -1.0834382337382813 1.468625847493307 -1.9561377964415492 -1.570801083241598 1.5448435544967651 True False
27431.68 3.1156487464904785 -1.0855515164187928 1.4638412634478968 -1.9491030178465785 -1.57074481645693 1.5447981357574463 True False
27431.699999999997 3.115640163421631 -1.087968574171402 1.4584992567645472 -1.9412862263121546 -1.5708416144000452 1.5447938442230225 True False
27431.719999999998 3.115607261657715 -1.0904995065978547 1.452834431325094 -1.9328628979124964 -1.5708168188678187 1.544859766960144 True False
27431.739999999998 3.1155660152435303 -1.0932684701732178 1.4466493765460413 -1.924016614953512 -1.5708044211017054 1.5447686910629272 True False
27431.76 3.115558385848999 -1.096218929891922 1.4400456587420862 -1.91477694133901 -1.5708168188678187 1.5448219776153564 True False
27431.78 3.1156246662139893 -1.0994011920741578 1.433141056691305 -1.904797693292135 -1.5708373228656214 1.5448057651519775 True False
27431.8 3.115631341934204 -1.102621392612793 1.426004711781637 -1.8942319355406703 -1.5708168188678187 1.5448424816131592 True False
27431.82 3.1156270503997803 -1.1058522027781983 1.418692413960592 -1.883622785607809 -1.5707529226886194 1.5447437763214111 True False
27431.84 3.115640163421631 -1.1089669627002259 1.4115713278399866 -1.873523851434225 -1.5708368460284632 1.5448025465011597 True False
27431.859999999997 3.1156041622161865 -1.1118900340846558 1.4050195852862757 -1.8639189205565394 -1.5707405249225062 1.544777274131775 True False
27431.879999999997 3.115640163421631 -1.1147154730609437 1.3988478819476526 -1.8549066982665003 -1.570784870778219 1.5448014736175537 True False
27431.899999999998 3.1155779361724854 -1.1174200934222718 1.3931639830218714 -1.8465219936766566 -1.5708168188678187 1.5447852611541748 True False
27431.92 3.115582227706909 -1.1198041302016755 1.387672249470846 -1.8385521374144496 -1.570784870778219 1.544830560684204 True False
27431.94 3.115579128265381 -1.1220619839480896 1.3825462500201624 -1.8312493763365687 -1.5707891623126429 1.5448176860809326 True False
27431.96 3.1155877113342285 -1.1241704386523743 1.377737824116842 -1.82446350673818 -1.5708449522601526 1.5448349714279175 True False
27431.98 3.115591049194336 -1.1261150401881714 1.3734167257892054 -1.8182655773558558 -1.5708091894732874 1.5448100566864014 True False
27432.0 3.1156115531921387 -1.1279103320888062 1.3696125189410608 -1.8125440082945765 -1.5707724730121058 1.544777274131775 True False
27432.02 3.115607261657715 -1.1293897789767762 1.3661540190326136 -1.8073770008482875 -1.5708087126361292 1.5448219776153564 True False
27432.039999999997 3.1156158447265625 -1.1307746332934876 1.3629124800311487 -1.8028441868224085 -1.5707967917071741 1.5448349714279175 True False
27432.059999999998 3.1156649589538574 -1.1321202677539368 1.3602283636676233 -1.7988573513426722 -1.570801083241598 1.5448100566864014 True False
27432.079999999998 3.115631341934204 -1.1331362587264557 1.3578031698810022 -1.7952972851195277 -1.5707805792437952 1.5448349714279175 True False
27432.1 3.1156115531921387 -1.134012685423233 1.3558829466449183 -1.7926341495909632 -1.570784870778219 1.5448424816131592 True False
