Andreas691667/Digital_Twin_UR/src/controller_monitor/test_results/robot_output.csv
timestamp actual_q_0 actual_q_1 actual_q_2 actual_q_3 actual_q_4 actual_q_5 output_bit_register_65 output_bit_register_66
1352.1299999999999 0.6299907565116882 -1.740023752252096 -1.4600183963775635 -1.4900018361261864 1.5600216388702393 0.28998351097106934 False False
1352.1499999999999 0.6300445795059204 -1.740016599694723 -1.460005283355713 -1.4900304612568398 1.5599846839904785 0.29000067710876465 False False
1352.1699999999998 0.6299420595169067 -1.7400042019286097 -1.4600214958190918 -1.4899783965996285 1.5599491596221924 0.2899841368198395 False False
1352.1899999999998 0.6299831867218018 -1.7400537929930628 -1.4599889516830444 -1.4900424417904397 1.5600413084030151 0.2900407314300537 False False
1352.21 0.6299582719802856 -1.7399622402586878 -1.4599846601486206 -1.4899823528579255 1.5599727630615234 0.2900245189666748 False False
1352.23 0.6299626231193542 -1.7400146923460902 -1.460002064704895 -1.4899824199131508 1.5599929094314575 0.2899910509586334 False False
1352.25 0.6300156712532043 -1.7400042019286097 -1.4599641561508179 -1.4900989097407837 1.560009241104126 0.28995969891548157 False False
1352.27 0.6300238966941833 -1.7400042019286097 -1.4599846601486206 -1.4900141072324296 1.5599608421325684 0.2900083065032959 False False
1352.29 0.6300238966941833 -1.740044733087057 -1.460005283355713 -1.4899984312108536 1.5599929094314575 0.2899995744228363 False False
1352.31 0.6299420595169067 -1.740016599694723 -1.460017204284668 -1.4900181976011773 1.5599929094314575 0.2900010049343109 False False
1352.33 0.6300356388092041 -1.740021368066305 -1.459989070892334 -1.4899864432266732 1.559981107711792 0.29002484679222107 False False
1352.35 0.629962682723999 -1.7399965725340785 -1.460000991821289 -1.490010106270649 1.5600011348724365 0.28995493054389954 False False
1352.37 0.6299993991851807 -1.7399994335570277 -1.4600344896316528 -1.4900059264949341 1.559972882270813 0.29000845551490784 False False
1352.3899999999999 0.6299788951873779 -1.7399994335570277 -1.460017204284668 -1.4899783965996285 1.56002938747406 0.2899876534938812 False False
1352.4099999999999 0.6300113201141357 -1.7399846516051234 -1.4599965810775757 -1.4899704840830346 1.5599970817565918 0.289992094039917 False False
1352.4299999999998 0.6300325393676758 -1.7400957546629847 -1.460017204284668 -1.4900546234897156 1.560017466545105 0.2899966239929199 False False
1352.45 0.6300356984138489 -1.7400461635985316 -1.460058331489563 -1.4899624672583123 1.560017466545105 0.29001298546791077 False False
1352.47 0.6300238966941833 -1.7399879894652308 -1.460005283355713 -1.489986167555191 1.5599651336669922 0.28992965817451477 False False
1352.49 0.6300070285797119 -1.73999085048818 -1.460017204284668 -1.4899824050119896 1.5599970817565918 0.2899665832519531 False False
1352.51 0.6299831867218018 -1.740018983880514 -1.4600334167480469 -1.4899701860598107 1.5600011348724365 0.28998318314552307 False False
1352.53 0.6300037503242493 -1.7400032482542933 -1.460030198097229 -1.4900222656181832 1.5600051879882812 0.29002484679222107 False False
1352.55 0.629990816116333 -1.7400299511351527 -1.4600095748901367 -1.4899783965996285 1.56002938747406 0.2899842858314514 False False
1352.57 0.6300113201141357 -1.7399593792357386 -1.460000991821289 -1.4899582129767914 1.5600011348724365 0.2899876534938812 False False
1352.59 0.6299583315849304 -1.7399760685362757 -1.4600095748901367 -1.490002491777279 1.5599970817565918 0.29003825783729553 False False
1352.61 0.6300239562988281 -1.7400537929930628 -1.4600409269332886 -1.4900584456375618 1.5599732398986816 0.289992094039917 False False
1352.6299999999999 0.6299626231193542 -1.739953180352682 -1.4600257873535156 -1.4900222805193444 1.5599970817565918 0.289992094039917 False False
1352.6499999999999 0.6299951076507568 -1.740021368066305 -1.460000991821289 -1.4900140774301072 1.5600252151489258 0.29004573822021484 False False
1352.6699999999998 0.6300037503242493 -1.7400123081602992 -1.4599933624267578 -1.4900706347874184 1.5600292682647705 0.2899549901485443 False False
1352.6899999999998 0.629990816116333 -1.7400461635985316 -1.4599847793579102 -1.4899977532080193 1.5600173473358154 0.2899860739707947 False False
1352.71 0.6300070285797119 -1.7400132618346156 -1.4600540399551392 -1.490002529030182 1.5599889755249023 0.2899639308452606 False False
1352.73 0.630032479763031 -1.7399803600706996 -1.460017204284668 -1.489961863761284 1.5600132942199707 0.289992094039917 False False
1352.75 0.6300080418586731 -1.7400347195067347 -1.4599814414978027 -1.489990235572197 1.560009241104126 0.28994297981262207 False False
1352.77 0.6300241947174072 -1.7400084934630335 -1.4600095748901367 -1.4900464725545426 1.5600254535675049 0.29000845551490784 False False
1352.79 0.6300355792045593 -1.7400084934630335 -1.4599847793579102 -1.49003008872781 1.5599452257156372 0.28996825218200684 False False
1352.81 0.6300113201141357 -1.7399593792357386 -1.460017204284668 -1.4899984163096924 1.5600173473358154 0.28996390104293823 False False
1352.83 0.6299700736999512 -1.73999085048818 -1.4599847793579102 -1.4900100988200684 1.5600132942199707 0.29001742601394653 False False
1352.85 0.6299831867218018 -1.7400866947569789 -1.460017204284668 -1.489954025750496 1.559993028640747 0.29000845551490784 False False
1352.87 0.6300199031829834 -1.7400280437865199 -1.460017204284668 -1.4900222805193444 1.559993028640747 0.2899799644947052 False False
1352.8899999999999 0.6299712657928467 -1.739978929559225 -1.4599642753601074 -1.4900382694653054 1.560009241104126 0.2900039553642273 False False
1352.9099999999999 0.6300150156021118 -1.7399713001646937 -1.4599924087524414 -1.4899943706444283 1.5600050687789917 0.289992094039917 False False
1352.9299999999998 0.6300025582313538 -1.740016599694723 -1.4599642753601074 -1.4900059264949341 1.560009241104126 0.2900337278842926 False False
1352.95 0.6300156712532043 -1.7400280437865199 -1.460017204284668 -1.4900100988200684 1.5600132942199707 0.29001596570014954 False False
1352.97 0.6299862861633301 -1.739974161187643 -1.4599933624267578 -1.4900222730687638 1.5599652528762817 0.2899548411369324 False False
1352.99 0.6300199627876282 -1.7399713001646937 -1.4600334167480469 -1.4900100988200684 1.5600173473358154 0.29002487659454346 False False
1353.01 0.6299863457679749 -1.7399922809996546 -1.4599847793579102 -1.4900100913694878 1.5599970817565918 0.28997090458869934 False False
1353.03 0.6299951076507568 -1.7399832210936488 -1.4600257873535156 -1.490018130545952 1.559993028640747 0.290033757686615 False False
1353.05 0.6300199627876282 -1.7400223217406214 -1.4600837230682373 -1.4899942812374611 1.5600371360778809 0.2899831533432007 False False
1353.07 0.629990816116333 -1.7400132618346156 -1.4600181579589844 -1.4899978202632447 1.5599812269210815 0.289992094039917 False False
1353.09 0.6299863457679749 -1.7399879894652308 -1.4599933624267578 -1.4899784487536927 1.560029149055481 0.29000401496887207 False False
1353.33 0.6299579739570618 -1.7399760685362757 -1.4599522352218628 -1.4900100988200684 1.559993028640747 0.2899996042251587 False False
1353.35 0.6299951076507568 -1.7400456867613734 -1.4600214958190918 -1.4899740156582375 1.5600132942199707 0.28996825218200684 False False
1353.37 0.6300194263458252 -1.7399803600706996 -1.460030198097229 -1.490014025276043 1.5600049495697021 0.29006990790367126 False False
1353.3899999999999 0.6300024390220642 -1.7400299511351527 -1.4600334167480469 -1.490014025276043 1.5599970817565918 0.29001304507255554 False False
1353.4099999999999 0.630014955997467 -1.7399879894652308 -1.4600334167480469 -1.4900060159019013 1.5600330829620361 0.28999507427215576 False False
1353.4299999999998 0.6300284266471863 -1.7400580845274867 -1.4600095748901367 -1.489998036330082 1.559989094734192 0.2900203764438629 False False
1353.45 0.6300240755081177 -1.739969869653219 -1.4600138664245605 -1.4900023874691506 1.5599888563156128 0.2899754047393799 False False
1353.47 0.629997968673706 -1.7399713001646937 -1.4600257873535156 -1.4900060159019013 1.560009241104126 0.29001590609550476 False False
1353.49 0.6299668550491333 -1.73999085048818 -1.460042119026184 -1.490026318734028 1.559981107711792 0.2900084853172302 False False
1353.51 0.6300240159034729 -1.739971777001852 -1.460017204284668 -1.4900341939977189 1.5600134134292603 0.28998762369155884 False False
1353.53 0.6299951076507568 -1.740044733087057 -1.4600334167480469 -1.4900620442679902 1.560009241104126 0.2899921238422394 False False
1353.55 0.6300040483474731 -1.739999910394186 -1.4599847793579102 -1.4899627354792138 1.560017466545105 0.29002484679222107 False False
1353.57 0.6299488544464111 -1.7400132618346156 -1.4600335359573364 -1.4900460851243515 1.5599892139434814 0.28998762369155884 False False
1353.59 0.6300159096717834 -1.7400084934630335 -1.4599933624267578 -1.4899666246822854 1.559972882270813 0.28998762369155884 False False
1353.61 0.6299906373023987 -1.739950796166891 -1.460017204284668 -1.4900060606053849 1.5599650144577026 0.29001742601394653 False False
1353.6299999999999 0.6299667954444885 -1.7400208912291468 -1.4599878787994385 -1.490013950770237 1.560017466545105 0.29001304507255554 False False
1353.6499999999999 0.6299875974655151 -1.7399832210936488 -1.459972858428955 -1.4900380832007905 1.559972882270813 0.28998759388923645 False False
1353.6699999999998 0.630028486251831 -1.7400537929930628 -1.460000991821289 -1.4899786797216912 1.5600053071975708 0.28995487093925476 False False
1353.6899999999998 0.6300448775291443 -1.7399879894652308 -1.4600334167480469 -1.4899746564081688 1.5600134134292603 0.28999507427215576 False False
1353.71 0.6299623847007751 -1.739999910394186 -1.460017204284668 -1.4899308916977425 1.5600011348724365 0.289974182844162 False False
1353.73 0.6300159096717834 -1.7400123081602992 -1.4600664377212524 -1.4900345218232651 1.5600495338439941 0.2899876534938812 False False
1353.75 0.6299906969070435 -1.7399746380248011 -1.4599924087524414 -1.4900222209146996 1.5599651336669922 0.289992094039917 False False
1353.77 0.630028486251831 -1.7400218449034632 -1.4599565267562866 -1.4900264155915757 1.5599970817565918 0.28998759388923645 False False
1353.79 0.6299668550491333 -1.7400413952269496 -1.459977149963379 -1.4899742317250748 1.5600454807281494 0.2900294363498688 False False
1353.81 0.6300404071807861 -1.7400342426695765 -1.4600214958190918 -1.4900059264949341 1.5600411891937256 0.29002487659454346 False False
1353.83 0.6299624443054199 -1.7399951420226039 -1.4600095748901367 -1.490022250717022 1.560017466545105 0.28997087478637695 False False
1353.85 0.6300023794174194 -1.739999910394186 -1.4600214958190918 -1.4900181677988549 1.5599769353866577 0.29001593589782715 False False
1353.87 0.6299951076507568 -1.7400580845274867 -1.4600588083267212 -1.4900504511645813 1.560009241104126 0.2900294363498688 False False
1353.8899999999999 0.6300159096717834 -1.73999085048818 -1.4599964618682861 -1.4899823826602479 1.5600411891937256 0.29001304507255554 False False
1353.9099999999999 0.6300159692764282 -1.739978929559225 -1.459968090057373 -1.4900065970471879 1.5600334405899048 0.2899831533432007 False False
1353.9299999999998 0.6299742460250854 -1.7400256596007289 -1.4600187540054321 -1.4900025364807625 1.5599769353866577 0.28998318314552307 False False
1353.95 0.629996657371521 -1.739978929559225 -1.4599889516830444 -1.4900464427522202 1.560009241104126 0.28996387124061584 False False
1353.97 0.6299859881401062 -1.73999085048818 -1.4600543975830078 -1.4900665444186707 1.56002938747406 0.29001304507255554 False False
1353.99 0.630033016204834 -1.740065713922018 -1.460017204284668 -1.489974283879139 1.5600053071975708 0.2899753749370575 False False
1354.01 0.6299906373023987 -1.7400056324400843 -1.4600714445114136 -1.490054265861847 1.559981107711792 0.2900218963623047 False False
1354.03 0.6299951076507568 -1.7400280437865199 -1.460017204284668 -1.4900222581676026 1.5600374937057495 0.28995487093925476 False False
1354.05 0.6299548745155334 -1.7400084934630335 -1.459972620010376 -1.4900461000255127 1.559960961341858 0.29000401496887207 False False
1354.07 0.6300357580184937 -1.7399670086302699 -1.4599889516830444 -1.4900100988200684 1.5600616931915283 0.29001593589782715 False False
1354.09 0.6299906373023987 -1.7399670086302699 -1.4600142240524292 -1.489998423760273 1.5599929094314575 0.2900323271751404 False False
1354.11 0.6299712657928467 -1.7399670086302699 -1.460005283355713 -1.4900065970471879 1.5600411891937256 0.28998318314552307 False False
1354.1299999999999 0.6299921274185181 -1.739999910394186 -1.4599977731704712 -1.489986577337124 1.5599970817565918 0.29003676772117615 False False
1354.1499999999999 0.6299787163734436 -1.7400042019286097 -1.4600008726119995 -1.4900141295841713 1.5600134134292603 0.28999513387680054 False False
1354.1699999999998 0.629997968673706 -1.7400537929930628 -1.460029125213623 -1.4900140774301072 1.5599769353866577 0.2900203466415405 False False
1354.1899999999998 0.6299548745155334 -1.739971777001852 -1.4599636793136597 -1.489990235572197 1.560017466545105 0.29000845551490784 False False
1354.21 0.6300194263458252 -1.740016599694723 -1.4600008726119995 -1.4899978351644059 1.5599888563156128 0.29000401496887207 False False
1354.23 0.6299770474433899 -1.7399965725340785 -1.4600186347961426 -1.490005948846676 1.5600051879882812 0.29002171754837036 False False
1354.25 0.6299951076507568 -1.740054269830221 -1.4600424766540527 -1.48999838650737 1.5600334405899048 0.289992094039917 False False
1354.27 0.6299950480461121 -1.7400299511351527 -1.4600335359573364 -1.490010106270649 1.5599929094314575 0.2899966239929199 False False
1354.29 0.6299951672554016 -1.7400623760619105 -1.460005283355713 -1.4900065448931237 1.56002938747406 0.2900203764438629 False False
1354.31 0.629999577999115 -1.7399951420226039 -1.4600216150283813 -1.490005948846676 1.5600334405899048 0.2900009751319885 False False
1354.33 0.6299667954444885 -1.7400323353209437 -1.460017204284668 -1.4900018361261864 1.5600134134292603 0.290012925863266 False False
1354.35 0.6299742460250854 -1.739971777001852 -1.4599844217300415 -1.4900382694653054 1.5599929094314575 0.2900247871875763 False False
1354.53 0.6300023794174194 -1.7399584255614222 -1.4600216150283813 -1.4900100988200684 1.560009241104126 0.29000842571258545 False False
1354.6299999999999 0.6300159692764282 -1.7400490246214808 -1.4600216150283813 -1.4900181603482743 1.5599888563156128 0.28999075293540955 False False
1354.6499999999999 0.6300114989280701 -1.7399670086302699 -1.460017204284668 -1.4900025141290207 1.560021162033081 0.289983332157135 False False
1354.6699999999998 0.6299743056297302 -1.7400537929930628 -1.460017204284668 -1.4899783965996285 1.5600011348724365 0.2899952530860901 False False
1354.6899999999998 0.6300240755081177 -1.7400123081602992 -1.460017204284668 -1.4899701562574883 1.5599929094314575 0.290000855922699 False False
1354.71 0.6299831867218018 -1.73999085048818 -1.460029125213623 -1.4899541226080437 1.5599892139434814 0.2899388074874878 False False
1354.73 0.6299340128898621 -1.7399703464903773 -1.460017204284668 -1.4900140774301072 1.56002938747406 0.2900203466415405 False False
1354.75 0.6299921870231628 -1.7400280437865199 -1.46000075340271 -1.4900100839189072 1.5600134134292603 0.29001593589782715 False False
1354.77 0.6300040483474731 -1.7400294742979945 -1.4599770307540894 -1.4899664235166092 1.5599970817565918 0.28996673226356506 False False
1354.79 0.6299713253974915 -1.7400366268553675 -1.4599888324737549 -1.4899337080172081 1.560017466545105 0.2899952530860901 False False
1354.81 0.6300114989280701 -1.7400294742979945 -1.4600589275360107 -1.4899984163096924 1.5599970817565918 0.29000401496887207 False False
1354.83 0.6300159692764282 -1.7400742969908656 -1.460005283355713 -1.489990198319294 1.5600454807281494 0.29002466797828674 False False
1354.85 0.6299623847007751 -1.7400623760619105 -1.460033655166626 -1.4900141072324296 1.559984803199768 0.2899833619594574 False False
1354.87 0.630028486251831 -1.7399879894652308 -1.4599933624267578 -1.489990235572197 1.5600051879882812 0.2899877429008484 False False
1354.8899999999999 0.6300114989280701 -1.740016599694723 -1.4599888324737549 -1.4899984163096924 1.5600051879882812 0.28997549414634705 False False
1354.9099999999999 0.6299578547477722 -1.7400208912291468 -1.4600589275360107 -1.4900181976011773 1.5599970817565918 0.28997549414634705 False False
1354.9299999999998 0.6299742460250854 -1.740016599694723 -1.4599844217300415 -1.4900059264949341 1.560009241104126 0.28999966382980347 False False
1354.95 0.629969596862793 -1.739934583703512 -1.4599725008010864 -1.4899820622852822 1.559953212738037 0.289992094039917 False False
1354.97 0.6299951076507568 -1.7399660549559535 -1.4600380659103394 -1.4899742317250748 1.559960961341858 0.28995513916015625 False False
1354.99 0.6300285458564758 -1.7400366268553675 -1.4600008726119995 -1.4900222581676026 1.5599970817565918 0.2899877429008484 False False
1355.01 0.6300240755081177 -1.7399879894652308 -1.460033655166626 -1.4899623927525063 1.5599846839904785 0.28997549414634705 False False
1355.03 0.6300040483474731 -1.7400452099242152 -1.4600096940994263 -1.4899944078973313 1.5600252151489258 0.28997543454170227 False False
1355.05 0.6299623847007751 -1.7400409183897914 -1.4600261449813843 -1.48998615265403 1.559981107711792 0.2900488078594208 False False
1355.07 0.6299743056297302 -1.7399794063963832 -1.4600008726119995 -1.4900141072324296 1.5599769353866577 0.28998419642448425 False False
1355.09 0.6300373673439026 -1.7400323353209437 -1.4600096940994263 -1.4900181677988549 1.560009241104126 0.28998422622680664 False False
1355.11 0.6300039887428284 -1.7400623760619105 -1.4599517583847046 -1.4900264304927369 1.5600252151489258 0.29002028703689575 False False
1355.1299999999999 0.6299906373023987 -1.7400042019286097 -1.4600589275360107 -1.4900059637478371 1.5599572658538818 0.29003334045410156 False False
1355.1499999999999 0.6300114393234253 -1.7400409183897914 -1.4600082635879517 -1.490018182700016 1.5599846839904785 0.2900245785713196 False False
1355.1699999999998 0.6299920082092285 -1.7399922809996546 -1.4599977731704712 -1.4899944078973313 1.5599970817565918 0.2899640202522278 False False
1355.1899999999998 0.6299252510070801 -1.7400123081602992 -1.4600499868392944 -1.4900341790965577 1.5599888563156128 0.2899640202522278 False False
1355.21 0.6300328969955444 -1.7400042019286097 -1.460029125213623 -1.4900059562972565 1.560021162033081 0.2900159955024719 False False
1355.23 0.6300404071807861 -1.740016599694723 -1.460005283355713 -1.4900059264949341 1.56002938747406 0.2899755537509918 False False
1355.25 0.6299906969070435 -1.7400280437865199 -1.4599679708480835 -1.4899783965996285 1.560021162033081 0.289962500333786 False False
1355.27 0.6300070285797119 -1.7399913273253382 -1.4600424766540527 -1.490054616039135 1.559981107711792 0.29001694917678833 False False
1355.51 0.6342419981956482 -1.7401896915831507 -1.4600216150283813 -1.489759476189949 1.5599732398986816 0.290849506855011 True False
1355.53 0.6356464624404907 -1.7401915989317835 -1.460005283355713 -1.489695669417717 1.5600454807281494 0.29095155000686646 True False
1355.55 0.6373153924942017 -1.7403837643065394 -1.4599933624267578 -1.4896040496281167 1.5600413084030151 0.29126688838005066 True False
1355.57 0.6393381357192993 -1.7403904400267542 -1.4599814414978027 -1.4894607824138184 1.5600452423095703 0.2916622757911682 True False
1355.59 0.641705334186554 -1.7406660519041957 -1.4599124193191528 -1.4893255990794678 1.560012936592102 0.2920885384082794 True False
1355.61 0.6446734666824341 -1.7407423458495082 -1.4598991870880127 -1.4891020593098183 1.5600650310516357 0.29265984892845154 True False
1355.6299999999999 0.6479876637458801 -1.740917821923727 -1.4598418474197388 -1.4889149975827713 1.560128927230835 0.2932305634021759 True False
1355.6499999999999 0.6517114639282227 -1.7411352596678675 -1.4597489833831787 -1.488727980559208 1.5601491928100586 0.2938791513442993 True False
1355.6699999999998 0.6557223200798035 -1.7413341007628382 -1.4596360921859741 -1.4885254290751 1.5601770877838135 0.29459235072135925 True False
1355.6899999999998 0.6601364016532898 -1.7415009937682093 -1.4595805406570435 -1.4882782113603135 1.5602054595947266 0.29535725712776184 True False
1355.71 0.6650065183639526 -1.7416721783080042 -1.4595375061035156 -1.4879384350827713 1.5602532625198364 0.29621052742004395 True False
1355.73 0.6699992418289185 -1.7419692478575648 -1.4594907760620117 -1.487704114322998 1.5602773427963257 0.29708993434906006 True False
1355.75 0.675439715385437 -1.742204328576559 -1.4593905210494995 -1.487374061053135 1.5603046417236328 0.29807525873184204 True False
1355.77 0.6812649965286255 -1.742528577844137 -1.4593065977096558 -1.4870592293194314 1.5602874755859375 0.2991199493408203 True False
1355.79 0.6874952912330627 -1.742826601068014 -1.4592560529708862 -1.4867730897716065 1.5603803396224976 0.30020689964294434 True False
1356.05 0.7993370294570923 -1.748479505578512 -1.4576231241226196 -1.4803186070970078 1.5612330436706543 0.3199921250343323 True False
1356.07 0.8102737069129944 -1.748932500878805 -1.4574772119522095 -1.4798014548471947 1.5612330436706543 0.3219968378543854 True False
1356.09 0.8217604160308838 -1.7494994602599085 -1.4573063850402832 -1.4790800747326394 1.5613775253295898 0.3240211606025696 True False
1356.11 0.8335457444190979 -1.750110765496725 -1.4570938348770142 -1.4784556564739724 1.5614886283874512 0.326028436422348 True False
1356.1299999999999 0.8454428911209106 -1.750742097894186 -1.4570517539978027 -1.4777823251536866 1.5614855289459229 0.3282187879085541 True False
1356.1499999999999 0.8580732941627502 -1.7513891659178675 -1.4568147659301758 -1.4770779398134728 1.5615681409835815 0.3304539620876312 True False
1356.1699999999998 0.8708500266075134 -1.7520681820311488 -1.4566230773925781 -1.476329283123352 1.561808705329895 0.33273833990097046 True False
1356.1899999999998 0.8839122653007507 -1.752667089501852 -1.4564785957336426 -1.4756766122630616 1.5617048740386963 0.33506500720977783 True False
1356.21 0.8974434733390808 -1.7532526455321253 -1.456235647201538 -1.474784293477871 1.5619531869888306 0.33745259046554565 True False
1356.23 0.9112770557403564 -1.7539621792235316 -1.4560543298721313 -1.4739838179996987 1.5619564056396484 0.33984068036079407 True False
1356.25 0.9255135655403137 -1.7547046146788539 -1.455817699432373 -1.4732155215791245 1.5620808601379395 0.34239235520362854 True False
1356.27 0.9399843215942383 -1.7554084263243617 -1.4555940628051758 -1.4724392604878922 1.562156081199646 0.3449445366859436 True False
1356.29 0.9548581838607788 -1.7560936413206996 -1.4553782939910889 -1.4715950202992936 1.562268853187561 0.3475284278392792 True False
1356.53 1.1560946702957153 -1.7660900555052699 -1.4525352716445923 -1.460096338098385 1.5636757612228394 0.3832899332046509 True False
1356.55 1.1735910177230835 -1.7668987713255824 -1.452268123626709 -1.4591125187328835 1.5638567209243774 0.3863527774810791 True False
1356.57 1.1909044981002808 -1.767825265923971 -1.4519747495651245 -1.458221235578396 1.5639922618865967 0.3894665837287903 True False
1356.59 1.208499550819397 -1.768726488152975 -1.4518038034439087 -1.4572136488607903 1.564124345779419 0.39257702231407166 True False
1356.61 1.2258812189102173 -1.769625803033346 -1.4516173601150513 -1.4561700907400628 1.5642523765563965 0.39569032192230225 True False
1356.6299999999999 1.2433326244354248 -1.7704650364317835 -1.4513330459594727 -1.4552144941738625 1.564396619796753 0.3987811803817749 True False
1356.6499999999999 1.2608619928359985 -1.7712885342040003 -1.4510393142700195 -1.4542551797679444 1.564468264579773 0.4018588066101074 True False
1356.6699999999998 1.2783329486846924 -1.772189279595846 -1.4508037567138672 -1.4531876158765336 1.5646040439605713 0.40491387248039246 True False
1356.6899999999998 1.2957385778427124 -1.7731148205199183 -1.4505891799926758 -1.4522126925042649 1.5646519660949707 0.40808242559432983 True False
1356.71 1.3131641149520874 -1.7739087543883265 -1.4503048658370972 -1.4512850579670449 1.5648963451385498 0.41110536456108093 True False
1356.73 1.3306100368499756 -1.7747050724425257 -1.4500688314437866 -1.4503131222775956 1.564988613128662 0.4142093360424042 True False
1356.75 1.3479572534561157 -1.7756434879698695 -1.4498577117919922 -1.4491856035641213 1.5650438070297241 0.41737157106399536 True False
1356.77 1.365682601928711 -1.7765370808043421 -1.449613094329834 -1.4483186540058632 1.5652521848678589 0.4204503893852234 True False
1356.79 1.3830384016036987 -1.77746643642568 -1.4493566751480103 -1.4472870764187356 1.5653481483459473 0.42358100414276123 True False
1356.81 1.4004559516906738 -1.7782660923399867 -1.449165940284729 -1.4461403799108048 1.5654804706573486 0.4266226291656494 True False
1356.83 1.4178866147994995 -1.7790972195067347 -1.4488370418548584 -1.445269138818123 1.5655720233917236 0.4297012686729431 True False
1356.85 1.4353837966918945 -1.7800327740111292 -1.448614239692688 -1.4442893427661438 1.5657198429107666 0.4328318238258362 True False
1356.87 1.4527997970581055 -1.780832429925436 -1.448365569114685 -1.4433974486640473 1.565755844116211 0.4359150230884552 True False
1356.8899999999999 1.470324993133545 -1.7817331753172816 -1.4481420516967773 -1.4423219126513978 1.565971851348877 0.438960462808609 True False
1356.9099999999999 1.4877231121063232 -1.782588621179098 -1.447853446006775 -1.4413417738727112 1.5660719871520996 0.4420231580734253 True False
1356.9299999999998 1.5051394701004028 -1.7834936581053675 -1.4476141929626465 -1.4403813493302842 1.5662362575531006 0.4451684057712555 True False
1356.95 1.5225830078125 -1.7843758068480433 -1.4473342895507812 -1.4393494886210938 1.566384196281433 0.4482762813568115 True False
1356.97 1.5400925874710083 -1.7852007351317347 -1.4470305442810059 -1.4383366268924256 1.5664681196212769 0.4513416588306427 True False
1356.99 1.557582974433899 -1.7860452137389125 -1.4467787742614746 -1.4373711359551926 1.5666236877441406 0.4544084072113037 True False
1357.01 1.5749963521957397 -1.7869302235045375 -1.4465620517730713 -1.4364385467818757 1.566696047782898 0.45751142501831055 True False
1357.03 1.5925005674362183 -1.7877880535521449 -1.4462909698486328 -1.4353698205998917 1.5668115615844727 0.4606257379055023 True False
1357.05 1.609902262687683 -1.7886811695494593 -1.446059226989746 -1.4344050747207184 1.5669357776641846 0.4637569189071655 True False
1357.07 1.6269956827163696 -1.7895366154112757 -1.445864200592041 -1.4334203910878678 1.5670957565307617 0.4667695164680481 True False
1357.09 1.643783450126648 -1.7903748951353968 -1.445631980895996 -1.4323999297669907 1.56716787815094 0.46971482038497925 True False
1357.11 1.660308837890625 -1.791220327416891 -1.4452788829803467 -1.4314108949950715 1.5672954320907593 0.47269824147224426 True False
1357.1299999999999 1.6764330863952637 -1.7919017277159632 -1.445152759552002 -1.430694342856743 1.5674760341644287 0.4754844307899475 True False
1357.1499999999999 1.692060947418213 -1.7926808796324671 -1.4449334144592285 -1.4297366452268143 1.5675321817398071 0.47834381461143494 True False
1357.1699999999998 1.7075892686843872 -1.793469568292135 -1.4447016716003418 -1.4288642567447205 1.567631483078003 0.48105940222740173 True False
1357.1899999999998 1.7226370573043823 -1.7942263088622035 -1.4444845914840698 -1.4280029100230713 1.5677754878997803 0.4837731719017029 True False
1357.21 1.7372794151306152 -1.7949615917601527 -1.4443503618240356 -1.4271778029254456 1.5678114891052246 0.48636648058891296 True False
1357.23 1.7517268657684326 -1.7956458530821742 -1.4441418647766113 -1.4263366919806977 1.5679914951324463 0.48888304829597473 True False
1357.25 1.765663981437683 -1.7963720760741175 -1.4439339637756348 -1.4254952383092423 1.5679913759231567 0.49139711260795593 True False
1357.27 1.7793684005737305 -1.797053953210348 -1.4437065124511719 -1.4247261744788666 1.5681679248809814 0.4937904477119446 True False
1357.29 1.7927446365356445 -1.7976871929564417 -1.4435148239135742 -1.424080492263176 1.5681993961334229 0.4961559772491455 True False
1357.31 1.8056730031967163 -1.798286577264303 -1.4433469772338867 -1.423314706688263 1.5684159994125366 0.4984228312969208 True False
1357.33 1.818159580230713 -1.798986097375387 -1.4432514905929565 -1.422705278997757 1.5684157609939575 0.5006390810012817 True False
1357.35 1.830549955368042 -1.7995850048460902 -1.4430104494094849 -1.4218592059663315 1.5685317516326904 0.502855122089386 True False
1357.37 1.8424609899520874 -1.8002430401244105 -1.4428757429122925 -1.4212301236442109 1.5686556100845337 0.5049286484718323 True False
1357.3899999999999 1.853988528251648 -1.80082430462026 -1.4427391290664673 -1.420655609374382 1.5686273574829102 0.5070251822471619 True False
1357.4099999999999 1.8652839660644531 -1.8013011417784632 -1.4425235986709595 -1.4199026238969346 1.568791389465332 0.5089901089668274 True False
1357.4299999999998 1.8760474920272827 -1.801765581170553 -1.4423795938491821 -1.4192206126502533 1.568803310394287 0.510974645614624 True False
1357.45 1.8865251541137695 -1.8023482761778773 -1.4422396421432495 -1.418706477885582 1.5688310861587524 0.5128282308578491 True False
1357.47 1.896942377090454 -1.802910944024557 -1.4420839548110962 -1.4180724334767838 1.5690115690231323 0.5146238803863525 True False
1357.49 1.9065663814544678 -1.8034502468504847 -1.4419645071029663 -1.4175543946078797 1.5690516233444214 0.5164012908935547 True False
1357.51 1.9159770011901855 -1.8038927517332972 -1.4418567419052124 -1.4170152109912415 1.5690516233444214 0.5180445909500122 True False
1357.53 1.9254087209701538 -1.8042737446227015 -1.441596508026123 -1.4165216994336625 1.5692477226257324 0.5196561813354492 True False
1357.59 1.9506621360778809 -1.805537839929098 -1.4412970542907715 -1.4150344145349045 1.569383144378662 0.5241028070449829 True False
1357.87 2.026949882507324 -1.8093029461302699 -1.4402509927749634 -1.410817266707756 1.5699191093444824 0.5375875234603882 True False
1357.8899999999999 2.0297932624816895 -1.8095046482481898 -1.440219521522522 -1.4105933618596573 1.5699268579483032 0.5381841659545898 True False
1357.9099999999999 2.0322425365448 -1.8095489941039027 -1.4401508569717407 -1.4104662996581574 1.5699268579483032 0.5386570692062378 True False
1357.9299999999998 2.034442663192749 -1.8096729717650355 -1.440098762512207 -1.4103911382010956 1.5699712038040161 0.5390192866325378 True False
1357.95 2.0361862182617188 -1.80973543743276 -1.4401030540466309 -1.4103036683848877 1.569962978363037 0.5393079519271851 True False
1357.97 2.0377073287963867 -1.8098327122130335 -1.4400831460952759 -1.4101868134788056 1.570007562637329 0.5395860075950623 True False
1357.99 2.0387892723083496 -1.8099256954588832 -1.4400506019592285 -1.4100913119367142 1.569978952407837 0.5397564768791199 True False
1358.01 2.0395166873931885 -1.8099733791747035 -1.4400635957717896 -1.4100393962911149 1.57003915309906 0.5398567914962769 True False
1358.03 2.039961099624634 -1.809918066064352 -1.4399985074996948 -1.4100839805654068 1.5700030326843262 0.5398600101470947 True False
1358.05 2.040010452270508 -1.8099600277342738 -1.4399899244308472 -1.4100068521550675 1.569991111755371 0.5398105382919312 True False
1358.07 2.0398855209350586 -1.8100644550719203 -1.4402031898498535 -1.4094819140485306 1.5699710845947266 0.5398540496826172 True False
1358.09 2.0399203300476074 -1.8101393185057582 -1.4407180547714233 -1.408878968363144 1.5698508024215698 0.539973258972168 True False
1358.11 2.0398857593536377 -1.8102981052794398 -1.4416779279708862 -1.4080496293357392 1.5695910453796387 0.5400917530059814 True False
1358.1299999999999 2.039917469024658 -1.8105298481383265 -1.4430088996887207 -1.4067326051047822 1.5693790912628174 0.5401065945625305 True False
1358.1499999999999 2.039961099624634 -1.8108345470824183 -1.444571614265442 -1.404886634354927 1.5691111087799072 0.5402083992958069 True False
1358.1699999999998 2.039973020553589 -1.8110348186888636 -1.4466264247894287 -1.4028347742608567 1.5686793327331543 0.5402560234069824 True False
1358.1899999999998 2.039984703063965 -1.811305662194723 -1.4491666555404663 -1.4005720627358933 1.5682471990585327 0.540310263633728 True False
1358.21 2.0399832725524902 -1.811650892297262 -1.4518773555755615 -1.3978501719287415 1.5676952600479126 0.5404192209243774 True False
1358.23 2.0399861335754395 -1.8119117222227992 -1.4548038244247437 -1.394688607459404 1.5670350790023804 0.5405240058898926 True False
1358.25 2.039943218231201 -1.8123604259886683 -1.4581351280212402 -1.391275556092598 1.5663797855377197 0.5406017303466797 True False
1358.27 2.0399668216705322 -1.8129250011839808 -1.4617421627044678 -1.3875804257443924 1.5656559467315674 0.5407302975654602 True False
1358.29 2.0400116443634033 -1.8134905300536097 -1.4657214879989624 -1.3834501814893265 1.5648354291915894 0.5408577919006348 True False
1358.31 2.0399997234344482 -1.814035554925436 -1.4699360132217407 -1.378847823744156 1.5640161037445068 0.541046142578125 True False
1358.33 2.040029525756836 -1.8146902523436488 -1.4747499227523804 -1.3740689766458054 1.563040018081665 0.5412434339523315 True False
1358.35 2.0400161743164062 -1.8153087101378382 -1.4799045324325562 -1.3688360166600724 1.5620805025100708 0.5413647890090942 True False
1358.37 2.0399832725524902 -1.8160020313658656 -1.4853066205978394 -1.3632343870452424 1.561008334159851 0.541532039642334 True False
1358.3899999999999 2.04002046585083 -1.8167973957457484 -1.490739345550537 -1.3573670399240036 1.5598362684249878 0.5417115688323975 True False
1358.4099999999999 2.0399625301361084 -1.8175822697081507 -1.496624231338501 -1.351167083983757 1.5586490631103516 0.5419554114341736 True False
1358.4299999999998 2.0399997234344482 -1.818369527856344 -1.5029387474060059 -1.3447240155986329 1.5573852062225342 0.5420812368392944 True False
1358.45 2.039992332458496 -1.819317480126852 -1.5099267959594727 -1.3377110225013276 1.5559487342834473 0.5423338413238525 True False
1358.47 2.0400280952453613 -1.8202783070006312 -1.5169856548309326 -1.3304211807302018 1.5546095371246338 0.5425633192062378 True False
1358.49 2.0399580001831055 -1.8213192425169886 -1.5242602825164795 -1.3227927398732682 1.5532139539718628 0.5428037643432617 True False
1358.51 2.0399580001831055 -1.8222924671568812 -1.5317538976669312 -1.31479765594516 1.551586389541626 0.543035626411438 True False
1358.53 2.039987802505493 -1.823310991326803 -1.5398961305618286 -1.3064839106849213 1.5500624179840088 0.5433226227760315 True False
1358.55 2.0399668216705322 -1.8244735203185023 -1.5485135316848755 -1.2977174681476136 1.5483230352401733 0.5436589121818542 True False
1358.57 2.0399670600891113 -1.82570280651235 -1.557130217552185 -1.288805143242218 1.5466585159301758 0.5439047813415527 True False
1358.59 2.0399997234344482 -1.8267494640746058 -1.565833568572998 -1.2793778640082856 1.54483163356781 0.5441679954528809 True False
1358.61 2.0399951934814453 -1.8279296360411585 -1.575376272201538 -1.2695735555938263 1.542944073677063 0.5445358157157898 True False
1358.6299999999999 2.0400116443634033 -1.8293982944884242 -1.5853382349014282 -1.2597088378718873 1.5409479141235352 0.5448633432388306 True False
1358.6499999999999 2.0399625301361084 -1.8307239017882289 -1.595009207725525 -1.2493576270392914 1.5390002727508545 0.5451862812042236 True False
1358.6699999999998 2.0399832725524902 -1.8318754635252894 -1.6046496629714966 -1.2391136151603241 1.5369929075241089 0.5454964637756348 True False
1358.6899999999998 2.0399997234344482 -1.8332263431944789 -1.6143107414245605 -1.2294478577426453 1.535141944885254 0.5458088517189026 True False
1358.71 2.0399789810180664 -1.834567209283346 -1.6232353448867798 -1.220224456196167 1.5333659648895264 0.5461037158966064 True False
1358.73 2.0399861335754395 -1.8355289898314417 -1.631758213043213 -1.2109470528415223 1.5316262245178223 0.5464192032814026 True False
1358.75 2.039992332458496 -1.8365942440428675 -1.6401673555374146 -1.2022610765746613 1.5299488306045532 0.5466570854187012 True False
1358.77 2.039980411529541 -1.837815900842184 -1.6484087705612183 -1.1942091149142762 1.5283476114273071 0.5469741225242615 True False
1358.79 2.0399789810180664 -1.8388601742186488 -1.6558583974838257 -1.186171219950058 1.5268465280532837 0.5472210049629211 True False
1358.81 2.0400161743164062 -1.8396526775755824 -1.6630377769470215 -1.1782894891551514 1.5253643989562988 0.5474634766578674 True False
1358.83 2.0399997234344482 -1.8407155476012171 -1.6703789234161377 -1.1712238949588318 1.5239074230194092 0.5476755499839783 True False
1358.85 2.0399861335754395 -1.8417955837645472 -1.6772594451904297 -1.16440765679393 1.5226892232894897 0.5479018688201904 True False
1358.87 2.0399580001831055 -1.8425475559630335 -1.6832664012908936 -1.1576542419246216 1.521284580230713 0.5481305122375488 True False
1358.8899999999999 2.039926052093506 -1.8431064091124476 -1.6890208721160889 -1.1513982278159638 1.5201469659805298 0.5482553839683533 True False
1358.9099999999999 2.0400569438934326 -1.8439675770201625 -1.6949100494384766 -1.1456156832030793 1.519060492515564 0.5485014915466309 True False
1358.9299999999998 2.040008544921875 -1.8448068104186 -1.7006490230560303 -1.1402724248221894 1.5179636478424072 0.5486636161804199 True False
1358.95 2.0399463176727295 -1.845412393609518 -1.7054600715637207 -1.134892926817276 1.5169259309768677 0.5487821102142334 True False
1359.21 2.0399909019470215 -1.849823614160055 -1.7396632432937622 -1.0992941123298188 1.5101642608642578 0.5500090718269348 True False
1359.23 2.0399951934814453 -1.849894186059469 -1.7399063110351562 -1.0990592998317261 1.510148286819458 0.549963653087616 True False
1359.25 2.039959669113159 -1.8498717747130335 -1.7398680448532104 -1.0990470808795472 1.510160207748413 0.5499560832977295 True False
1359.27 2.0399656295776367 -1.8499065838255824 -1.7398972511291504 -1.0990749460509797 1.5101641416549683 0.5500127077102661 True False
1359.29 2.040015935897827 -1.8499347172179164 -1.739884853363037 -1.0990589422038575 1.510108232498169 0.5499593019485474 True False
1359.31 2.0399954319000244 -1.8499366245665492 -1.7398838996887207 -1.0990269643119355 1.5101001262664795 0.5499799251556396 True False
1359.33 2.0400116443634033 -1.8499828777708949 -1.7399131059646606 -1.0990228813937684 1.510040283203125 0.5499972701072693 True False
1359.35 2.0400028228759766 -1.8499828777708949 -1.7399299144744873 -1.0989827078631897 1.5100404024124146 0.5500004887580872 True False
1359.37 2.0400073528289795 -1.8500219784178675 -1.739949345588684 -1.099026934509613 1.5099884271621704 0.5500039458274841 True False
1359.3899999999999 2.0399909019470215 -1.8500172100462855 -1.7399970293045044 -1.099074975853302 1.5100245475769043 0.5499430298805237 True False
1359.4099999999999 2.0399746894836426 -1.8500024280943812 -1.739990234375 -1.09904299796138 1.5099923610687256 0.5499679446220398 True False
1359.4299999999998 2.0399909019470215 -1.8500400982298792 -1.7400139570236206 -1.0990508061698456 1.5099685192108154 0.549963653087616 True False
1359.45 2.0399672985076904 -1.8500219784178675 -1.7399873733520508 -1.0990188282779236 1.5099684000015259 0.5500245094299316 True False
1359.47 2.0399954319000244 -1.8499633274474085 -1.740025281906128 -1.0990388852408906 1.5099884271621704 0.5499874353408813 True False
1359.49 2.0400073528289795 -1.8499676189818324 -1.7400094270706177 -1.09904299796138 1.5099684000015259 0.5499874353408813 True False
1359.51 2.0399389266967773 -1.8500310383238734 -1.7400251626968384 -1.0989905756763 1.5099843740463257 0.5500566959381104 True False
1359.53 2.0400116443634033 -1.8499723873534144 -1.7400288581848145 -1.0990548592856904 1.5099645853042603 0.550028920173645 True False
1359.55 2.0399844646453857 -1.8500472507872523 -1.7400288581848145 -1.0990789395621796 1.509932279586792 0.5500082969665527 True False
1359.57 2.039975881576538 -1.8500005207457484 -1.7399919033050537 -1.0990672570518036 1.5098809003829956 0.5500202178955078 True False
1359.59 2.0399792194366455 -1.8499814472594203 -1.7400075197219849 -1.0990831416896363 1.5099446773529053 0.5499711632728577 True False
1359.61 2.039959669113159 -1.8499604664244593 -1.7400120496749878 -1.098998324280121 1.5099327564239502 0.5500202178955078 True False
1359.6299999999999 2.040032148361206 -1.8500338993468226 -1.739992618560791 -1.0989787143519898 1.5100125074386597 0.5500679016113281 True False
1359.6499999999999 2.040107488632202 -1.849870344201559 -1.7398133277893066 -1.0986361664584656 1.5099999904632568 0.5500307679176331 True False
1359.6699999999998 2.0399539470672607 -1.849870344201559 -1.7397814989089966 -1.0985596936992188 1.510160207748413 0.550092875957489 True False
1359.6899999999998 2.0401055812835693 -1.8498794041075648 -1.73969566822052 -1.098539875154831 1.510068416595459 0.550085186958313 True False
1359.71 2.0399997234344482 -1.8498794041075648 -1.7397408485412598 -1.0985719126513978 1.5101202726364136 0.5500766634941101 True False
1359.73 2.040015935897827 -1.8498898945250453 -1.7397586107254028 -1.0986435872367402 1.510048508644104 0.5500116944313049 True False
1359.75 2.0400350093841553 -1.8499099216856898 -1.7397949695587158 -1.0986960095218201 1.5101287364959717 0.5500481724739075 True False
1359.77 2.0400278568267822 -1.8499185047545375 -1.7397541999816895 -1.0987075132182618 1.5100643634796143 0.5500438213348389 True False
1359.79 2.0399866104125977 -1.849828382531637 -1.739790439605713 -1.0987635415843506 1.510023832321167 0.5499916672706604 True False
1359.81 2.0400147438049316 -1.8498898945250453 -1.7397507429122925 -1.0988237422755738 1.510043978691101 0.550002932548523 True False
1359.83 2.0400521755218506 -1.8498898945250453 -1.7397418022155762 -1.0987749856761475 1.5100762844085693 0.5500819683074951 True False
1359.85 2.0400190353393555 -1.8499299488463343 -1.7397675514221191 -1.0988870126060029 1.5099999904632568 0.5500127077102661 True False
1359.87 2.0400447845458984 -1.8499108753600062 -1.7398288249969482 -1.0988393288901825 1.5100243091583252 0.550028920173645 True False
1359.8899999999999 2.0399911403656006 -1.8498898945250453 -1.7397418022155762 -1.0988951188376923 1.5100808143615723 0.5500523447990417 True False
1360.1499999999999 2.0177927017211914 -1.8483416042723597 -1.7384564876556396 -1.1025725168040772 1.5107711553573608 0.5456955432891846 True True
1360.1699999999998 2.013756275177002 -1.847743650475973 -1.7376959323883057 -1.1029954117587586 1.5109670162200928 0.5447471141815186 True True
1360.1899999999998 2.0092334747314453 -1.8472820721068324 -1.7369939088821411 -1.1038258534720917 1.5110619068145752 0.5439165830612183 True True
1360.21 2.0043864250183105 -1.846903463403219 -1.736440896987915 -1.1046045583537598 1.5112464427947998 0.5430297255516052 True True
1360.23 1.9993761777877808 -1.8462830982603968 -1.7358067035675049 -1.1053108733943482 1.5114656686782837 0.5419840216636658 True True
1360.25 1.993937611579895 -1.845806737939352 -1.7350703477859497 -1.1061335665038605 1.511605143547058 0.5409309267997742 True True
1360.27 1.9880704879760742 -1.8452602825560511 -1.7344937324523926 -1.1070476335338135 1.5118693113327026 0.5397235155105591 True True
1360.29 1.9817641973495483 -1.8447314701476039 -1.7338451147079468 -1.1080376964858552 1.5120525360107422 0.5385658144950867 True True
1360.31 1.9751694202423096 -1.8441459141173304 -1.7332208156585693 -1.1091598731330414 1.512332558631897 0.5372733473777771 True True
1360.33 1.9683140516281128 -1.8434020481505335 -1.7325125932693481 -1.110233799820282 1.5124914646148682 0.5359570980072021 True True
1360.35 1.9611197710037231 -1.842729230920309 -1.7317572832107544 -1.11128784835849 1.5127753019332886 0.5345117449760437 True True
1360.37 1.953555703163147 -1.842149396935934 -1.7309623956680298 -1.112393246298172 1.5130666494369507 0.5329751968383789 True True
1360.3899999999999 1.9455007314682007 -1.8414331875243128 -1.7300190925598145 -1.1136509937099 1.5133342742919922 0.5313864350318909 True True
1360.4099999999999 1.9372185468673706 -1.8406216106810511 -1.7290723323822021 -1.1149809223464509 1.5135459899902344 0.5297673344612122 True True
1360.4299999999998 1.928632378578186 -1.8398367367186488 -1.728116750717163 -1.116349683409073 1.513929009437561 0.5280755758285522 True True
1360.45 1.9197502136230469 -1.8390160999693812 -1.7271569967269897 -1.1177883607200165 1.5142403841018677 0.5263651013374329 True True
1360.47 1.910169005393982 -1.8381697140135707 -1.7263175249099731 -1.119147704248764 1.514487862586975 0.524430513381958 True True
1360.49 1.9005985260009766 -1.8372427425780238 -1.7253299951553345 -1.1206575495055695 1.5148429870605469 0.5225604176521301 True True
1360.51 1.8906567096710205 -1.8363362751402796 -1.7242465019226074 -1.1221880179694672 1.5153465270996094 0.5206151604652405 True True
1360.53 1.8801716566085815 -1.835416933099264 -1.7230472564697266 -1.1239271622947236 1.5156493186950684 0.5185145139694214 True True
1360.55 1.8693686723709106 -1.8344341717162074 -1.721988558769226 -1.1255413454822083 1.5158644914627075 0.5164822936058044 True True
1360.57 1.8584405183792114 -1.8333927593626917 -1.720725417137146 -1.1271335941604157 1.5164477825164795 0.5141996741294861 True True
1360.59 1.8469698429107666 -1.8323618374266566 -1.7195022106170654 -1.1288855534842988 1.5167988538742065 0.5119419693946838 True True
1360.61 1.835057020187378 -1.8312884769835414 -1.7185171842575073 -1.1310419303229828 1.5170546770095825 0.5097243189811707 True True
1360.6299999999999 1.82309091091156 -1.8302823505797328 -1.7172669172286987 -1.1327454012683411 1.5177175998687744 0.5072086453437805 True True
1360.6499999999999 1.8106240034103394 -1.829057355920309 -1.715856909751892 -1.1345336896232148 1.5180845260620117 0.5048359632492065 True True
1360.6699999999998 1.797658920288086 -1.8278447590269984 -1.7143610715866089 -1.1367248755744477 1.5183522701263428 0.5023419260978699 True True
1360.6899999999998 1.7845152616500854 -1.826665540734762 -1.7130391597747803 -1.1387837392142792 1.5191304683685303 0.49974146485328674 True True
1360.71 1.7709935903549194 -1.825564523736471 -1.7117551565170288 -1.1407990616611023 1.519430160522461 0.49708253145217896 True True
1360.73 1.7571394443511963 -1.824165483514303 -1.710341215133667 -1.142853395347931 1.5199450254440308 0.4942338466644287 True True
1360.75 1.7428841590881348 -1.8228384457030238 -1.7087352275848389 -1.1451852184585114 1.520467758178711 0.4914655387401581 True True
1360.77 1.7282600402832031 -1.8215257130064906 -1.707128643989563 -1.1474202436259766 1.5207672119140625 0.4886094927787781 True True
1360.79 1.7134344577789307 -1.8200856647887171 -1.7055997848510742 -1.1496871274760743 1.5215305089950562 0.4856308400630951 True True
1360.81 1.6980984210968018 -1.8187171421446742 -1.704020619392395 -1.1522320669940491 1.5218291282653809 0.4826560616493225 True True
1360.83 1.6824147701263428 -1.8174311123290003 -1.7023611068725586 -1.1545670193484803 1.5227601528167725 0.4795464277267456 True True
1360.85 1.6665878295898438 -1.8158742390074671 -1.7005693912506104 -1.1569504898837586 1.5230590105056763 0.47640877962112427 True True
1360.87 1.6500983238220215 -1.8143297634520472 -1.6986671686172485 -1.159571961765625 1.523897409439087 0.4732789099216461 True True
1360.8899999999999 1.6334909200668335 -1.8128673038878382 -1.6971386671066284 -1.1621931952289124 1.5240806341171265 0.4699360132217407 True True
1360.9099999999999 1.616571068763733 -1.8113113842406214 -1.69539213180542 -1.1649311941913147 1.5249665975570679 0.4666343033313751 True True
1360.9299999999998 1.5991519689559937 -1.8097182712950648 -1.6933523416519165 -1.16754566252742 1.5254422426223755 0.4632013440132141 True True
1360.95 1.58157217502594 -1.8079835377135218 -1.6914981603622437 -1.170167164211609 1.5260646343231201 0.45978260040283203 True True
1360.97 1.5642484426498413 -1.806413312951559 -1.6898066997528076 -1.1730123323253174 1.5268316268920898 0.45641380548477173 True True
1360.99 1.546790599822998 -1.804927488366598 -1.68809175491333 -1.1757145685008545 1.5272464752197266 0.4529232680797577 True True
1361.01 1.5291908979415894 -1.8033105335631312 -1.686153531074524 -1.1783159238151093 1.5279371738433838 0.4494052529335022 True True
1361.03 1.5119699239730835 -1.801619669000143 -1.6842432022094727 -1.1811340612224122 1.5284920930862427 0.44600528478622437 True True
1361.05 1.4944390058517456 -1.8000971279540003 -1.6825335025787354 -1.1837958258441468 1.529274582862854 0.4425569176673889 True True
1361.07 1.4769833087921143 -1.7986403904356898 -1.6807533502578735 -1.1866690081408997 1.5297658443450928 0.439155250787735 True True
1361.09 1.4595049619674683 -1.7969204388060511 -1.6787875890731812 -1.1890260738185425 1.5304323434829712 0.43571725487709045 True True
1361.11 1.4420053958892822 -1.7953735790648402 -1.6769330501556396 -1.191841111784317 1.5310194492340088 0.43227484822273254 True True
1361.1299999999999 1.42450749874115 -1.7938186130919398 -1.675247073173523 -1.1947546166232605 1.5316435098648071 0.42883849143981934 True True
1361.1499999999999 1.4071301221847534 -1.7922331295409144 -1.6733938455581665 -1.1973022383502503 1.5322959423065186 0.4253843128681183 True True
1361.1699999999998 1.3897349834442139 -1.790560861627096 -1.671287178993225 -1.2001016300967713 1.5328949689865112 0.42191818356513977 True True
1361.1899999999998 1.3722931146621704 -1.7889076671996058 -1.669541835784912 -1.202753798370697 1.533555269241333 0.4184916615486145 True True
1361.21 1.3547779321670532 -1.787506719628805 -1.6678351163864136 -1.2056216460517426 1.5340027809143066 0.4149971604347229 True True
1361.23 1.3373643159866333 -1.7858339748778285 -1.6658742427825928 -1.2082649928382416 1.5347434282302856 0.41159504652023315 True True
1361.25 1.319946050643921 -1.784140249291891 -1.663930058479309 -1.210805432205536 1.5352669954299927 0.4082506000995636 True True
1361.27 1.302456259727478 -1.7825423679747523 -1.662131905555725 -1.2136563521674653 1.5359505414962769 0.4048050343990326 True True
1361.29 1.2849444150924683 -1.780999322930807 -1.6604948043823242 -1.2164799135974427 1.5366066694259644 0.4013323485851288 True True
1361.31 1.267585039138794 -1.779487749139303 -1.6585513353347778 -1.2189322274974366 1.5372183322906494 0.39788302779197693 True True
1361.33 1.2499949932098389 -1.7776810131468714 -1.656492829322815 -1.2216598850539704 1.5378422737121582 0.39445558190345764 True True
1361.35 1.232637643814087 -1.7760812244811 -1.6548527479171753 -1.2244711381248017 1.538341760635376 0.39100271463394165 True True
1361.37 1.2152259349822998 -1.774679800073141 -1.6530473232269287 -1.2272752684405823 1.5390697717666626 0.3875676393508911 True True
1361.3899999999999 1.1977214813232422 -1.7729369602599085 -1.6511187553405762 -1.2299027007869263 1.5396381616592407 0.38421252369880676 True True
1361.4099999999999 1.1802420616149902 -1.7713891468443812 -1.6492499113082886 -1.2325755220702668 1.5402858257293701 0.38069602847099304 True True
1361.4299999999998 1.1628634929656982 -1.7697402439513148 -1.6475811004638672 -1.235434190636017 1.540881633758545 0.3773031532764435 True True
1361.45 1.145388126373291 -1.7683483562865199 -1.6458295583724976 -1.2380295854857941 1.541420817375183 0.37390387058258057 True True
1361.47 1.1278499364852905 -1.7666212520995082 -1.643725872039795 -1.2406419080546875 1.542041540145874 0.370417982339859 True True
1361.49 1.1104257106781006 -1.7649723492064417 -1.6419358253479004 -1.2434214514544983 1.5426572561264038 0.3669569194316864 True True
1361.51 1.0929286479949951 -1.763461252252096 -1.640248417854309 -1.246173308496811 1.5433452129364014 0.36351707577705383 True True
1361.53 1.0756316184997559 -1.7618948421873988 -1.6383031606674194 -1.24898915112529 1.543872594833374 0.3600509464740753 True True
1361.55 1.05807363986969 -1.7602125606932582 -1.636399745941162 -1.2514085334590455 1.5445846319198608 0.35663148760795593 True True
1361.57 1.04079008102417 -1.7585789165892542 -1.6345431804656982 -1.2542644304088135 1.5450845956802368 0.35321903228759766 True True
1361.59 1.023736834526062 -1.7571641407408656 -1.6329494714736938 -1.257073090677597 1.5457441806793213 0.34994208812713623 True True
1361.61 1.0070569515228271 -1.7555824718871058 -1.6310503482818604 -1.2595001322082062 1.5463569164276123 0.3467141091823578 True True
1361.6299999999999 0.9907388687133789 -1.7540604076781214 -1.6291887760162354 -1.2620709401420136 1.5469602346420288 0.3434157073497772 True True
1361.6499999999999 0.9748098850250244 -1.7525984249510707 -1.627680778503418 -1.2646699708751221 1.5474722385406494 0.3403061330318451 True True
1361.6699999999998 0.9592245817184448 -1.7512737713255824 -1.6260559558868408 -1.266957626943924 1.547987699508667 0.33718785643577576 True True
1361.6899999999998 0.9439803957939148 -1.749807973901266 -1.6243839263916016 -1.2693526309779664 1.548492193222046 0.33412113785743713 True True
1361.71 0.9291070699691772 -1.7483345470824183 -1.622665286064148 -1.2715848249248047 1.5490078926086426 0.3312579095363617 True True
1362.03 0.7377816438674927 -1.7308975658812464 -1.6025136709213257 -1.301319347029068 1.5555980205535889 0.2936350107192993 True True
1362.05 0.7291465997695923 -1.7300788364806117 -1.6016159057617188 -1.3028580707362671 1.5562434196472168 0.2919076085090637 True True
1362.07 0.7204251289367676 -1.7294384441771449 -1.6008738279342651 -1.3041327160647889 1.556474208831787 0.29015636444091797 True True
1362.09 0.711905837059021 -1.7286769352354945 -1.5999900102615356 -1.3054846686175843 1.5565391778945923 0.2884904742240906 True True
1362.11 0.7041935920715332 -1.7278367481627406 -1.5989972352981567 -1.3066322964480896 1.5570619106292725 0.28698834776878357 True True
1362.1299999999999 0.6966972351074219 -1.7272631130614222 -1.5981566905975342 -1.3076805931380768 1.557300090789795 0.28541886806488037 True True
1362.1499999999999 0.6891670823097229 -1.726565500298971 -1.5974613428115845 -1.3089196544936677 1.5574302673339844 0.2840885519981384 True True
1362.1699999999998 0.6822656393051147 -1.7258302174010218 -1.5967140197753906 -1.3101357382586976 1.557686686515808 0.28266146779060364 True True
1362.1899999999998 0.67608642578125 -1.7253443203368128 -1.5960639715194702 -1.3109560769847413 1.5581544637680054 0.2813628613948822 True True
1362.21 0.6698538661003113 -1.7247206173338832 -1.5954450368881226 -1.3119730216315766 1.5582151412963867 0.28022703528404236 True True
1362.23 0.663851797580719 -1.7242590389647425 -1.5948814153671265 -1.312881813650467 1.5582695007324219 0.27899765968322754 True True
1362.3899999999999 0.6297503709793091 -1.721114297906393 -1.5912303924560547 -1.3181916338256379 1.5595813989639282 0.2723257541656494 True True
1362.45 0.6227551698684692 -1.720511098901266 -1.590463638305664 -1.3192612391761322 1.559861421585083 0.27090755105018616 True True
1362.47 0.6211004853248596 -1.720330377618307 -1.5902870893478394 -1.3195206087878724 1.559877872467041 0.2706288993358612 True True
1362.49 0.6198577880859375 -1.7202464542784632 -1.590288758277893 -1.3197604280761261 1.5599253177642822 0.2703859806060791 True True
1362.51 0.6188441514968872 -1.720220228234762 -1.5902204513549805 -1.3198360663703461 1.55990469455719 0.27015694975852966 True True
1362.53 0.6182365417480469 -1.7201515636839808 -1.590144157409668 -1.3198443216136475 1.5599212646484375 0.2701508700847626 True True
1362.55 0.6180415749549866 -1.7201444111266078 -1.590116024017334 -1.3198082011989136 1.559997797012329 0.27014198899269104 True True
1362.57 0.6181507706642151 -1.7201229534544886 -1.590104103088379 -1.31977994859729 1.5600218772888184 0.27005961537361145 True True
1362.59 0.6181374192237854 -1.7204395733275355 -1.590157151222229 -1.3196876806071778 1.5600253343582153 0.2698752284049988 True True
1362.61 0.6181314587593079 -1.721090932885641 -1.590276837348938 -1.3193562489799042 1.559992790222168 0.26954591274261475 True True
1362.6299999999999 0.6180852651596069 -1.7222534618773402 -1.5905524492263794 -1.3188169461539765 1.5600252151489258 0.2693389654159546 True True
1362.6499999999999 0.6180852651596069 -1.723734041253561 -1.590855598449707 -1.3180914682200928 1.5599850416183472 0.26896312832832336 True True
1362.6699999999998 0.6181150674819946 -1.7257191143431605 -1.5913197994232178 -1.3171896797469635 1.5600051879882812 0.26852405071258545 True True
1362.6899999999998 0.6181091070175171 -1.728039403954977 -1.5918883085250854 -1.3159854871085663 1.5600336790084839 0.26799696683883667 True True
1362.71 0.6180479526519775 -1.730584283868307 -1.5925092697143555 -1.3146941822818299 1.5600050687789917 0.2673291563987732 True True
1362.73 0.6181463599205017 -1.7334066830077113 -1.5932445526123047 -1.3132308584502717 1.5599970817565918 0.2665935456752777 True True
1362.75 0.6181582808494568 -1.7364994488158167 -1.5939958095550537 -1.311704472904541 1.5600295066833496 0.26580291986465454 True True
1362.77 0.6181402206420898 -1.7401825390257777 -1.5948989391326904 -1.3098990482142945 1.5599693059921265 0.264898419380188 True True
1362.79 0.6182671785354614 -1.7441941700377406 -1.5959664583206177 -1.3078704637340088 1.559989094734192 0.2639455497264862 True True
1362.81 0.6183176636695862 -1.7486239872374476 -1.597077488899231 -1.3056888741305848 1.559993028640747 0.2628300189971924 True True
1362.83 0.6183956861495972 -1.7533761463561 -1.5982905626296997 -1.3034369212440033 1.560009241104126 0.26173630356788635 True True
1362.85 0.6184161305427551 -1.7582384548582972 -1.599618911743164 -1.3008066576770325 1.5599970817565918 0.2604663074016571 True True
1362.87 0.6185566782951355 -1.763512750665182 -1.600920557975769 -1.2981965702823182 1.559961199760437 0.2591155171394348 True True
1362.8899999999999 0.6185534596443176 -1.7690454922118128 -1.602378487586975 -1.2954693001559754 1.559993028640747 0.25770625472068787 True True
1362.9099999999999 0.6186791658401489 -1.7750970325865687 -1.6038036346435547 -1.2923087638667603 1.5599970817565918 0.2561984062194824 True True
1362.9299999999998 0.6188008189201355 -1.7816382847227992 -1.6053744554519653 -1.289220080976822 1.5600489377975464 0.2546299695968628 True True
1362.95 0.6188266277313232 -1.7885242901244105 -1.6073702573776245 -1.2858472925475617 1.5600172281265259 0.2529391944408417 True True
1363.1699999999998 0.6196969151496887 -1.8547545872130335 -1.6235157251358032 -1.2525194150260468 1.5599650144577026 0.23629605770111084 True True
1363.1899999999998 0.6197125315666199 -1.8586765728392542 -1.624494194984436 -1.2505225998214264 1.5599888563156128 0.23533512651920319 True True
1363.21 0.6197468042373657 -1.862352033654684 -1.6256448030471802 -1.248881534939148 1.560017466545105 0.23438642919063568 True True
1363.23 0.619737982749939 -1.865697523156637 -1.6264883279800415 -1.2471479040435334 1.5599929094314575 0.23352378606796265 True True
1363.25 0.6198610067367554 -1.868622442285055 -1.6271467208862305 -1.2455317241004487 1.5599769353866577 0.2328013926744461 True True
1363.27 0.6198503971099854 -1.8713752231993617 -1.6278337240219116 -1.2442124050906678 1.5600371360778809 0.2321915626525879 True True
1363.29 0.6198793649673462 -1.8736487827696742 -1.6285425424575806 -1.2432630223086854 1.5599650144577026 0.23157146573066711 True True
1363.53 0.6199796199798584 -1.879986425439352 -1.6299272775650024 -1.2399937075427552 1.5599970817565918 0.2300397902727127 True True
1363.55 0.6200153827667236 -1.8799630604186 -1.6299551725387573 -1.240009681587555 1.5599933862686157 0.22997097671031952 True False
1363.57 0.6200004816055298 -1.879913946191305 -1.6299186944961548 -1.2399934393218537 1.5599892139434814 0.22999070584774017 True False
1363.59 0.6200183629989624 -1.8799125156798304 -1.6300153732299805 -1.240037516956665 1.559981107711792 0.2299049198627472 True False
1363.61 0.620011031627655 -1.8799449406065882 -1.6300028562545776 -1.2400017541697999 1.5599892139434814 0.22995035350322723 True False
1363.6299999999999 0.6200034618377686 -1.8799463711180628 -1.6299985647201538 -1.2400178474238892 1.5600051879882812 0.22994600236415863 True False
1363.6499999999999 0.6199946999549866 -1.8799287281432093 -1.6300063133239746 -1.2400178176215668 1.5599567890167236 0.22998321056365967 True False
1363.6699999999998 0.6200404763221741 -1.8799663982787074 -1.6299902200698853 -1.2399897736362 1.559969186782837 0.22991789877414703 True False
1363.87 0.6199828386306763 -1.8799778423705042 -1.6299943923950195 -1.2399656933597107 1.5600011348724365 0.22995789349079132 True False
1363.8899999999999 0.6200780272483826 -1.8800274334349574 -1.6300272941589355 -1.2400498551181336 1.5599769353866577 0.23001918196678162 True False
1363.9099999999999 0.6199299693107605 -1.8799978695311488 -1.6300348043441772 -1.240013675098755 1.559984803199768 0.22997014224529266 True False
1363.9299999999998 0.6200230121612549 -1.8800245724120082 -1.6299858093261719 -1.240013675098755 1.5599970817565918 0.23000696301460266 True False
1363.95 0.6199796199798584 -1.8799902401366175 -1.6300272941589355 -1.2400017541697999 1.5599654912948608 0.23003104329109192 True False
1363.97 0.6200240850448608 -1.8800302944579066 -1.6300060749053955 -1.2400216323188324 1.560009241104126 0.23001126945018768 True False
1363.99 0.6199871897697449 -1.8800350628294886 -1.629997730255127 -1.2399978202632447 1.5600215196609497 0.23000188171863556 True False
1364.01 0.6200522184371948 -1.8800064525999964 -1.6300272941589355 -1.2400017541697999 1.5599892139434814 0.23002353310585022 True False
1364.03 0.6200153827667236 -1.879949232141012 -1.6300145387649536 -1.2400579315475007 1.5599490404129028 0.23001804947853088 True False
1364.05 0.6199752688407898 -1.8796535931029261 -1.6299740076065063 -1.2402936083129426 1.559981107711792 0.2300897240638733 True False
1364.07 0.620060920715332 -1.8790012798705042 -1.629826545715332 -1.2405605477145691 1.5600011348724365 0.23029367625713348 True False
1364.09 0.6199301481246948 -1.8779083691039027 -1.6295794248580933 -1.2410759192756196 1.5599732398986816 0.23060719668865204 True False
1364.11 0.6199346780776978 -1.876531263391012 -1.6292192935943604 -1.2418393057635804 1.5600053071975708 0.23094294965267181 True False
1364.1299999999999 0.6199626922607422 -1.8747011623778285 -1.6288435459136963 -1.2427384418300171 1.5600134134292603 0.23133739829063416 True False
1364.1499999999999 0.6199357509613037 -1.8724967441954554 -1.6282763481140137 -1.243804709320404 1.5599650144577026 0.23188582062721252 True False
1364.1699999999998 0.6199445128440857 -1.8699704609312953 -1.627657413482666 -1.2448702913573761 1.560017466545105 0.23252026736736298 True False
1364.1899999999998 0.6198388338088989 -1.8672272167601527 -1.6268919706344604 -1.2464250785163422 1.559969186782837 0.23317912220954895 True False
1364.21 0.6197913289070129 -1.8641072712340296 -1.626081109046936 -1.2480739516070862 1.5599727630615234 0.2339777946472168 True False
1364.23 0.6197824478149414 -1.8605262241759242 -1.6251392364501953 -1.2497871679118653 1.560001254081726 0.23484143614768982 True False
1364.25 0.6196991801261902 -1.8566705189146937 -1.6240899562835693 -1.251557008629181 1.5599809885025024 0.23586782813072205 True False
1364.27 0.6196467280387878 -1.8524567089476527 -1.6230850219726562 -1.253745124941208 1.5600053071975708 0.23689422011375427 True False
1364.29 0.619635820388794 -1.8479505978026332 -1.6220213174819946 -1.2561279398253937 1.560009241104126 0.2380281537771225 True False
1364.31 0.6195796132087708 -1.8429433308043421 -1.6208349466323853 -1.258543537264206 1.5600053071975708 0.23928406834602356 True False
1364.33 0.6195321083068848 -1.8376318416991175 -1.61945641040802 -1.261130617266037 1.5600011348724365 0.2405702769756317 True False
1364.35 0.6194188594818115 -1.8320557079710902 -1.6180109977722168 -1.2640443009189148 1.560009241104126 0.2419814020395279 True False
1364.37 0.6193549633026123 -1.8261705837645472 -1.616569995880127 -1.266862229709961 1.5600134134292603 0.24347928166389465 True False
1364.3899999999999 0.6192842125892639 -1.819836278954977 -1.6150254011154175 -1.2701506477645417 1.560009241104126 0.24504907429218292 True False
1364.49 0.618837296962738 -1.784764905969137 -1.6062238216400146 -1.2876363557628174 1.5600371360778809 0.25378331542015076 True False
1364.61 0.6184091567993164 -1.7505847416319789 -1.597540259361267 -1.3046266299537201 1.5599888563156128 0.2623382806777954 True False
1364.6299999999999 0.6183702945709229 -1.7460767231383265 -1.5964767932891846 -1.3069116038135071 1.5600134134292603 0.26342862844467163 True False
1364.6499999999999 0.6183426976203918 -1.7421337566771449 -1.5955078601837158 -1.308912770157196 1.5599892139434814 0.26441508531570435 True False
1364.6699999999998 0.6183188557624817 -1.738429685632223 -1.5946067571640015 -1.3109092575362702 1.560009241104126 0.26543989777565 True False
1364.6899999999998 0.6181900501251221 -1.735021253625387 -1.5938427448272705 -1.3125389379313965 1.5599727630615234 0.26625752449035645 True False
1364.71 0.6181900501251221 -1.7319618664183558 -1.5931206941604614 -1.313918100004532 1.559981107711792 0.26703643798828125 True False
1364.73 0.618100643157959 -1.7291885815062464 -1.592355489730835 -1.3153695327094574 1.5600413084030151 0.267719566822052 True False
1364.75 0.6180748343467712 -1.7268763981261195 -1.591658592224121 -1.316676602964737 1.5599929094314575 0.26827847957611084 True False
1364.77 0.6180911064147949 -1.7248169384398402 -1.5912048816680908 -1.3176613313010712 1.5600134134292603 0.2688382565975189 True False
1364.79 0.6180286407470703 -1.7231937847533167 -1.590801477432251 -1.3184069854072114 1.5599888563156128 0.26922938227653503 True False
1364.81 0.618029773235321 -1.7218548260130824 -1.5904345512390137 -1.319041685467102 1.5600011348724365 0.26960691809654236 True False
1364.83 0.618029773235321 -1.720903059045309 -1.5901952981948853 -1.3195689779571076 1.5599970817565918 0.2697746753692627 True False
1364.85 0.6180102825164795 -1.7203389606871546 -1.5901622772216797 -1.3199411195567627 1.5600535869598389 0.2698720395565033 True False
1364.87 0.6180678009986877 -1.7200962505736292 -1.5901367664337158 -1.3199438315681 1.56002938747406 0.2698422372341156 True False
1364.8899999999999 0.6179940700531006 -1.7201582394041957 -1.5901575088500977 -1.3199040752700348 1.5600134134292603 0.2698887288570404 False False
1364.9099999999999 0.6179940700531006 -1.7201491794981898 -1.590139627456665 -1.3199479144862671 1.5600134134292603 0.26984962821006775 False False
1364.9299999999998 0.6180665493011475 -1.7200890980162562 -1.5901049375534058 -1.319895790224411 1.5599448680877686 0.26990804076194763 False False
1364.95 0.6180102825164795 -1.7201367817320765 -1.5901174545288086 -1.319895790224411 1.5599608421325684 0.2699396312236786 False False
1364.97 0.6179771423339844 -1.7201158008971156 -1.5900884866714478 -1.3198474210551758 1.5599888563156128 0.2699621617794037 False False
1364.99 0.617981493473053 -1.720034738580221 -1.5900111198425293 -1.3199479144862671 1.5600011348724365 0.269969642162323 False False
1365.01 0.6179940700531006 -1.7200585804381312 -1.5900884866714478 -1.3198995155147095 1.559981107711792 0.2700280249118805 False False
1365.03 0.6179772019386292 -1.7200848064818324 -1.5899627208709717 -1.3199076813510437 1.5599970817565918 0.2699532210826874 False False
1365.05 0.6180028319358826 -1.7200080356993617 -1.590024471282959 -1.3199393910220643 1.5599608421325684 0.27000680565834045 False False
1365.07 0.617989718914032 -1.7200199566283167 -1.5900171995162964 -1.3199305993369599 1.5599851608276367 0.2699740529060364 False False
1365.09 0.6180427670478821 -1.719957014123434 -1.5900335311889648 -1.3199713987163086 1.560009241104126 0.2699532210826874 False False
1365.11 0.6180102825164795 -1.7200242481627406 -1.5899808406829834 -1.3199794751456757 1.5599769353866577 0.27005186676979065 False False
1365.1299999999999 0.6179482936859131 -1.7200080356993617 -1.590004563331604 -1.3199835282615204 1.5600134134292603 0.2700023651123047 False False
1365.1499999999999 0.6180222034454346 -1.7200571499266566 -1.589971899986267 -1.3200315994075318 1.5600011348724365 0.26999780535697937 False False
1365.1699999999998 0.6180059909820557 -1.720041414300436 -1.5899745225906372 -1.3199991446784516 1.5599650144577026 0.27001574635505676 False False
1365.1899999999998 0.6180059909820557 -1.7199918232359828 -1.590019941329956 -1.320067660217621 1.5599567890167236 0.2700158357620239 False False
1365.21 0.6180190443992615 -1.719982763329977 -1.5900425910949707 -1.3200234037688752 1.5599888563156128 0.2699948847293854 False False
1365.23 0.617981493473053 -1.7200242481627406 -1.5900001525878906 -1.3200033170035859 1.5600134134292603 0.2699904441833496 False False
1365.25 0.6180102825164795 -1.7200080356993617 -1.5900216102600098 -1.3200151485255738 1.5600411891937256 0.27000394463539124 False False
1365.27 0.6179940700531006 -1.720041414300436 -1.5900261402130127 -1.3200033170035859 1.5599929094314575 0.26996955275535583 False False
1365.29 0.6180102825164795 -1.7199961147704066 -1.5900288820266724 -1.3200234037688752 1.560009241104126 0.26998600363731384 False False
1365.31 0.6180307865142822 -1.7199589214720667 -1.5899763107299805 -1.3200033170035859 1.5599970817565918 0.2700248062610626 True False
1365.33 0.6179983615875244 -1.719961782495016 -1.5899673700332642 -1.3200234037688752 1.559981107711792 0.2700023651123047 True False
1365.35 0.6180058121681213 -1.7199918232359828 -1.5899747610092163 -1.320059822206833 1.5600252151489258 0.27002352476119995 True False
1365.37 0.6180958151817322 -1.7199722729124964 -1.5899807214736938 -1.3200273972800751 1.5599732398986816 0.27002352476119995 True False
1365.3899999999999 0.618287980556488 -1.7199675045409144 -1.5900036096572876 -1.3200110656074067 1.5599929094314575 0.2700518071651459 True False
1365.4099999999999 0.6185038089752197 -1.7199856243529261 -1.5900171995162964 -1.3200273972800751 1.5599732398986816 0.26998600363731384 True False
1365.4299999999998 0.6187754273414612 -1.719863077203268 -1.5900827646255493 -1.320051686172821 1.56002938747406 0.2700968086719513 True False
1365.45 0.6191569566726685 -1.719821115533346 -1.5900766849517822 -1.319998638038971 1.560009241104126 0.27005642652511597 True False
1365.47 0.6197349429130554 -1.7197162113585414 -1.5901038646697998 -1.3200670939734955 1.5600416660308838 0.2702033221721649 True False
1365.49 0.6204331517219543 -1.7195879421629847 -1.590263843536377 -1.3201835614493866 1.5599888563156128 0.27026018500328064 True False
1365.51 0.6213591694831848 -1.719466348687643 -1.5904271602630615 -1.3201587957194825 1.5599929094314575 0.270315557718277 True False
1365.53 0.6225643157958984 -1.7191997967162074 -1.590652346611023 -1.3202309769443055 1.560001254081726 0.2703606188297272 True False
1365.55 0.624091386795044 -1.7190805874266566 -1.590941309928894 -1.3203228873065491 1.560053825378418 0.27053865790367126 True False
1365.57 0.6259093284606934 -1.7187539539732875 -1.5911521911621094 -1.3204068106463929 1.5600452423095703 0.2706615626811981 True False
1365.59 0.6280299425125122 -1.7185131512083949 -1.591390609741211 -1.3205546599677582 1.5600605010986328 0.2708323299884796 True False
1365.61 0.6306752562522888 -1.7181850872435511 -1.5917426347732544 -1.3206498187831421 1.56010103225708 0.27108708024024963 True False
1365.83 0.683993399143219 -1.7103868923582972 -1.5996538400650024 -1.3232883524945755 1.5606374740600586 0.27542638778686523 True False
1365.85 0.690973162651062 -1.7093798122801722 -1.6006892919540405 -1.323675976400711 1.5606485605239868 0.2759477198123932 True False
1365.87 0.698293924331665 -1.7083107433714808 -1.6017765998840332 -1.32403119028125 1.5607168674468994 0.27653753757476807 True False
1365.8899999999999 0.7059587240219116 -1.7072187862791957 -1.6027824878692627 -1.3243989807418366 1.5608251094818115 0.2772177457809448 True False
1365.9099999999999 0.7138780951499939 -1.706010480920309 -1.6039642095565796 -1.3247815382531662 1.560849666595459 0.27785295248031616 True False
1365.9299999999998 0.7223399877548218 -1.7048865757384242 -1.6052627563476562 -1.3252423268607636 1.5609244108200073 0.27856457233428955 True False
1365.95 0.7310956716537476 -1.7035938702025355 -1.6065914630889893 -1.3256161373904725 1.5610404014587402 0.27924296259880066 True False
1365.97 0.7399742007255554 -1.7022811375060023 -1.6078195571899414 -1.3261280071786423 1.5611087083816528 0.28001153469085693 True False
1365.99 0.7494127154350281 -1.700968404809469 -1.6092435121536255 -1.3266057831100007 1.5611895322799683 0.2807425260543823 True False
1366.01 0.759320855140686 -1.6995264492430628 -1.6105070114135742 -1.3270507466844101 1.5612845420837402 0.2815510034561157 True False
1366.03 0.7693789005279541 -1.698012491265768 -1.6120107173919678 -1.3274843406728287 1.561385154724121 0.2822926342487335 True False
1366.05 0.7797064185142517 -1.6964999637999476 -1.613586187362671 -1.3280023050359269 1.5614128112792969 0.2832350432872772 True False
1366.07 0.7906443476676941 -1.694951673547262 -1.6151310205459595 -1.3286228787950058 1.5616250038146973 0.2841319143772125 True False
1366.09 0.8017486333847046 -1.6933156452574671 -1.6166983842849731 -1.3292300564101716 1.561729073524475 0.2850308120250702 True False
1366.11 0.8131306171417236 -1.6915856800475062 -1.618270993232727 -1.3298485291055222 1.5617210865020752 0.28597381711006165 True False
1366.1299999999999 0.8251693844795227 -1.6899124584593714 -1.620027780532837 -1.3303542894176026 1.5618808269500732 0.28693291544914246 True False
1366.1499999999999 0.8373357057571411 -1.6882525883116664 -1.621840000152588 -1.3310023111156006 1.5620367527008057 0.28783848881721497 True False
1366.1699999999998 0.8497130870819092 -1.686348100701803 -1.6237062215805054 -1.3316357892802735 1.5620245933532715 0.2889295220375061 True False
1366.1899999999998 0.8627623915672302 -1.6844655476012171 -1.6254185438156128 -1.3321273934892197 1.5623338222503662 0.28999075293540955 True False
1366.21 0.8759539127349854 -1.6824532947936 -1.6274820566177368 -1.3328456741622468 1.5623408555984497 0.29105737805366516 True False
1366.23 0.8895531892776489 -1.6805364094176234 -1.6295336484909058 -1.3336279106191178 1.5623887777328491 0.2922186553478241 True False
1366.25 0.903579592704773 -1.6784874401488246 -1.6315200328826904 -1.3341989380172272 1.5625959634780884 0.2933199405670166 True False
1366.27 0.9177709817886353 -1.6763860187926234 -1.6335865259170532 -1.3349703562310715 1.562644362449646 0.29452869296073914 True False
1366.29 0.9324477910995483 -1.6743437252440394 -1.635791301727295 -1.3355955642512818 1.5628966093063354 0.29564368724823 True False
1366.31 0.9474740624427795 -1.6721955738463343 -1.6380113363265991 -1.3365264546922226 1.5629243850708008 0.296931654214859 True False
1366.33 0.9627395272254944 -1.6700097523131312 -1.6401320695877075 -1.337240294819214 1.5631203651428223 0.2981675863265991 True False
1366.35 0.9784609079360962 -1.667633672753805 -1.642412781715393 -1.3380592924407502 1.5632646083831787 0.29949432611465454 True False
1366.37 0.9944744110107422 -1.6653701267638148 -1.644734263420105 -1.3388100576451798 1.5634608268737793 0.30078238248825073 True False
1366.3899999999999 1.0108892917633057 -1.6628924808897914 -1.6470608711242676 -1.3396157336286088 1.5635565519332886 0.3021409511566162 True False
1366.4099999999999 1.0275943279266357 -1.660454889337057 -1.649470329284668 -1.3404260885766526 1.563768982887268 0.30343955755233765 True False
1366.4299999999998 1.044697880744934 -1.6579328976073207 -1.6519794464111328 -1.3412560683539887 1.5638692378997803 0.30490684509277344 True False
1366.49 1.0968103408813477 -1.6503592930235804 -1.6595911979675293 -1.3440236163190384 1.564312219619751 0.30916574597358704 True False
1366.71 1.2889268398284912 -1.6224671802916468 -1.6874405145645142 -1.3535392594388505 1.5660679340362549 0.3248738944530487 True False
1366.75 1.3239461183547974 -1.6173855266966761 -1.6925947666168213 -1.3552115124515076 1.5664076805114746 0.3277203440666199 True False
1366.77 1.3413232564926147 -1.6149035892882289 -1.695157766342163 -1.3560941380313416 1.5665557384490967 0.32911771535873413 True False
1366.79 1.358820915222168 -1.6122800312437953 -1.6977239847183228 -1.357032225733139 1.5666837692260742 0.33053165674209595 True False
1366.81 1.376276969909668 -1.6099001369872035 -1.7003015279769897 -1.3579539817622681 1.5669276714324951 0.3319793939590454 True False
1366.83 1.3936609029769897 -1.6073323688902796 -1.7028822898864746 -1.3587761682322999 1.5670034885406494 0.3334064781665802 True False
1366.85 1.4111547470092773 -1.6047436199583949 -1.7053755521774292 -1.3595465135625382 1.5672316551208496 0.33480802178382874 True False
1366.87 1.4285846948623657 -1.6022330723204554 -1.707805871963501 -1.3604408514550705 1.5673232078552246 0.33627986907958984 True False
1366.8899999999999 1.4460375308990479 -1.5996700725951136 -1.7103323936462402 -1.3614074152759095 1.5675315856933594 0.3377363383769989 True False
1366.9099999999999 1.4635288715362549 -1.5970751247801722 -1.712846279144287 -1.3621900242618104 1.5677235126495361 0.339139848947525 True False
1366.9299999999998 1.480948567390442 -1.594515939752096 -1.7152585983276367 -1.3630355161479493 1.567827820777893 0.3405137360095978 True False
1366.95 1.4984936714172363 -1.5919658146300257 -1.7178270816802979 -1.3640063566020508 1.568023443222046 0.34198564291000366 True False
1366.97 1.5157958269119263 -1.5895430050291957 -1.7204265594482422 -1.3650399309447785 1.5681036710739136 0.3433542847633362 True False
1366.99 1.5333195924758911 -1.5869423351683558 -1.7229474782943726 -1.3657864791205903 1.568359613418579 0.34485557675361633 True False
1367.01 1.5509203672409058 -1.5843635998167933 -1.7254620790481567 -1.36656907320533 1.5684633255004883 0.3462619483470917 True False
1367.03 1.568203330039978 -1.5818993053831996 -1.728114128112793 -1.367502899175026 1.5685994625091553 0.3476472496986389 True False
1367.05 1.5856846570968628 -1.57938875774526 -1.730739712715149 -1.3683885496905823 1.5687997341156006 0.3490886390209198 True False
1367.25 1.7602522373199463 -1.553968147640564 -1.755955696105957 -1.3769470912269135 1.5703749656677246 0.3633537292480469 True False
1367.27 1.7776565551757812 -1.5514340636185189 -1.7586146593093872 -1.3779131931117554 1.5705673694610596 0.36479490995407104 True False
1367.29 1.7952134609222412 -1.5489696574262162 -1.7612364292144775 -1.3789029878428956 1.5707151889801025 0.3662079870700836 True False
1367.31 1.8125680685043335 -1.5464924697628994 -1.7637306451797485 -1.3797421914390107 1.5708909034729004 0.36762094497680664 True False
1367.33 1.829999566078186 -1.543856294160225 -1.7662169933319092 -1.3805347693017502 1.5709306001663208 0.3690776824951172 True False
1367.35 1.847459316253662 -1.5414178532413025 -1.7687519788742065 -1.3814283025315781 1.5712027549743652 0.37053194642066956 True False
1367.37 1.8649572134017944 -1.5388598305037995 -1.7712526321411133 -1.3822567772916337 1.571314811706543 0.3718874156475067 True False
1367.3899999999999 1.8823652267456055 -1.5362106685391446 -1.7736800909042358 -1.3830466282418747 1.5714706182479858 0.3733938932418823 True False
1367.4099999999999 1.8998310565948486 -1.5336580474725743 -1.7761881351470947 -1.3840189737132569 1.5716549158096313 0.3747580349445343 True False
1367.4299999999998 1.917276382446289 -1.5311540004662056 -1.7786718606948853 -1.384867863064148 1.5717785358428955 0.3761787414550781 True False
1367.45 1.934771180152893 -1.5286182177117844 -1.781266450881958 -1.3859133434346695 1.5719785690307617 0.377587229013443 True False
1367.47 1.952201008796692 -1.5260547821274777 -1.7837997674942017 -1.386750267153122 1.5720906257629395 0.3790494501590729 True False
1367.49 1.969636082649231 -1.5234905456057568 -1.7863507270812988 -1.3874871295741578 1.5723590850830078 0.3805188238620758 True False
1367.51 1.9871171712875366 -1.520987418746092 -1.788962721824646 -1.3883886647275467 1.57236647605896 0.38192275166511536 True False
1367.53 2.004551887512207 -1.5185513135841866 -1.7915587425231934 -1.3892658960870286 1.5726102590560913 0.3833562731742859 True False
1367.55 2.022059440612793 -1.5159823720208188 -1.7941298484802246 -1.3900871586850663 1.5727548599243164 0.3847522735595703 True False
1367.57 2.0394067764282227 -1.5135013473084946 -1.7966867685317993 -1.3909599643996735 1.572898268699646 0.3861894905567169 True False
1367.59 2.0569491386413574 -1.5108872291496773 -1.7991769313812256 -1.3918809604695817 1.5730783939361572 0.3876102566719055 True False
1367.61 2.0743064880371094 -1.5083669622293492 -1.8018012046813965 -1.3928619784167786 1.5732343196868896 0.38907966017723083 True False
1367.6299999999999 2.0917911529541016 -1.5058622074178238 -1.8042722940444946 -1.3936790090850373 1.5734226703643799 0.3905055820941925 True False
1367.6499999999999 2.10932993888855 -1.5033168357661744 -1.8066071271896362 -1.3944441837123414 1.5735301971435547 0.3918459713459015 True False
1367.6699999999998 2.1267080307006836 -1.5007097882083436 -1.8091835975646973 -1.3953490865281601 1.5737463235855103 0.3932860493659973 True False
1367.6899999999998 2.144240379333496 -1.4982811895063897 -1.8116836547851562 -1.3962620508721848 1.5738427639007568 0.3947874903678894 True False
1367.71 2.16160249710083 -1.4956488844803353 -1.8142307996749878 -1.3970232766917725 1.5740702152252197 0.39621007442474365 True False
1367.73 2.1791365146636963 -1.4930796486190339 -1.8167897462844849 -1.3979332608035584 1.5741665363311768 0.3976309299468994 True False
1367.75 2.1964845657348633 -1.4905946043184777 -1.8193823099136353 -1.398881734614708 1.574406385421753 0.3990100026130676 True False
1367.77 2.213914632797241 -1.488011212354042 -1.822029709815979 -1.3998308193734665 1.5744781494140625 0.4004722535610199 True False
1367.79 2.2314600944519043 -1.4855753418854256 -1.8246524333953857 -1.4006431859782715 1.5746783018112183 0.4018939733505249 True False
1367.81 2.248992919921875 -1.4830543038300057 -1.8270595073699951 -1.401405156855919 1.574821949005127 0.4032689332962036 True False
1367.83 2.2663638591766357 -1.4804347169450303 -1.8296751976013184 -1.402349592452385 1.5749140977859497 0.40472331643104553 True False
1367.85 2.2837910652160645 -1.47798157603059 -1.8321397304534912 -1.4032066029361268 1.575145959854126 0.40614789724349976 True False
1367.87 2.301320791244507 -1.475402609711029 -1.8346234560012817 -1.404012532239296 1.5751855373382568 0.4075765609741211 True False
1367.8899999999999 2.3187549114227295 -1.4727917921594162 -1.8371866941452026 -1.4049054396203537 1.5754497051239014 0.40900593996047974 True False
1367.9099999999999 2.336183547973633 -1.470263236468174 -1.8396188020706177 -1.405890093450882 1.5755822658538818 0.4104309380054474 True False
1367.9299999999998 2.353595018386841 -1.4677420792034646 -1.84213125705719 -1.4067388635924836 1.5758261680603027 0.4118903577327728 True False
1367.95 2.3710227012634277 -1.4651720088771363 -1.8447208404541016 -1.407600150709488 1.5758895874023438 0.4133428931236267 True False
1367.97 2.388533353805542 -1.4626346242478867 -1.847213864326477 -1.4083534491113205 1.576005220413208 0.4147932231426239 True False
1367.99 2.405665159225464 -1.4601776909879227 -1.849784255027771 -1.4092188489488144 1.5762536525726318 0.41614148020744324 True False
1368.01 2.422489643096924 -1.4577459406903763 -1.8523337841033936 -1.4101714801839371 1.5763137340545654 0.4175516664981842 True False
1368.03 2.438978910446167 -1.4553684380701561 -1.8546454906463623 -1.4108571273139496 1.5765939950942993 0.41884663701057434 True False
1368.05 2.455176591873169 -1.4529879701188584 -1.8570977449417114 -1.4117661875537415 1.5766136646270752 0.42018142342567444 True False
1368.07 2.470914840698242 -1.4508051586202164 -1.859360933303833 -1.4126152110150834 1.5768780708312988 0.42147955298423767 True False
1368.09 2.4864466190338135 -1.448535644715168 -1.861599087715149 -1.4133890730193635 1.5768976211547852 0.4228057265281677 True False
1368.11 2.50146484375 -1.4463418585113068 -1.8637079000473022 -1.4140748244575043 1.577121376991272 0.4239843785762787 True False
1368.1299999999999 2.5161309242248535 -1.444152520304062 -1.865877628326416 -1.4149840486100693 1.5771812200546265 0.425161212682724 True False
1368.1499999999999 2.530658006668091 -1.4420228910497208 -1.8678393363952637 -1.4154695284417649 1.5774292945861816 0.426322877407074 True False
1368.1699999999998 2.544576406478882 -1.4399606001428147 -1.8698095083236694 -1.4163316202214737 1.577473759651184 0.4275375008583069 True False
1368.1899999999998 2.5583155155181885 -1.4380699855140229 -1.871938943862915 -1.4169889998487015 1.5776616334915161 0.42858994007110596 True False
1368.21 2.571561098098755 -1.436120481496193 -1.8738174438476562 -1.4175749880126496 1.577689290046692 0.429668128490448 True False
1368.23 2.5846431255340576 -1.4341001820615311 -1.8756983280181885 -1.4182606500438233 1.5778454542160034 0.4307596981525421 True False
1368.25 2.59731388092041 -1.4323732417872925 -1.8775159120559692 -1.4188744735768815 1.5780131816864014 0.43181368708610535 True False
1368.27 2.609558343887329 -1.4305846256068726 -1.8794502019882202 -1.4196398121169587 1.5780131816864014 0.43276163935661316 True False
1368.29 2.6216115951538086 -1.4288783979466935 -1.8810073137283325 -1.4200786811164399 1.5782655477523804 0.4337198734283447 True False
1368.31 2.633002519607544 -1.4271385234645386 -1.8827897310256958 -1.420691804294922 1.578232765197754 0.4347483217716217 True False
1368.33 2.6444835662841797 -1.4255217176726838 -1.884604811668396 -1.4212899965098877 1.5783891677856445 0.43565598130226135 True False
1368.35 2.6552462577819824 -1.4240084749511261 -1.8861101865768433 -1.4217209678939362 1.5785738229751587 0.4365170896053314 True False
1368.37 2.665692090988159 -1.4224145424417038 -1.8875972032546997 -1.422247202401497 1.57853364944458 0.4373268485069275 True False
1368.61 2.765164375305176 -1.4079940629056473 -1.9019417762756348 -1.427293823366501 1.5794930458068848 0.44547897577285767 True False
1368.6299999999999 2.771270513534546 -1.4071045380881806 -1.9028722047805786 -1.4276089531234284 1.5795409679412842 0.44597864151000977 True False
1368.6499999999999 2.776813268661499 -1.4062811148217698 -1.9036647081375122 -1.4278889757445832 1.5795968770980835 0.4464617967605591 True False
1368.6699999999998 2.7821638584136963 -1.40550850451503 -1.9045512676239014 -1.4281266641667862 1.5796328783035278 0.446933388710022 True False
1368.6899999999998 2.787121534347534 -1.4048582178405304 -1.9051976203918457 -1.428378776913025 1.5796849727630615 0.44732895493507385 True False
1368.71 2.7917592525482178 -1.4040927302888413 -1.9058969020843506 -1.428569884305336 1.579761266708374 0.447696328163147 True False
1368.73 2.796025037765503 -1.4034443211606522 -1.9064693450927734 -1.428809033041336 1.5797243118286133 0.44805559515953064 True False
1368.75 2.799989938735962 -1.4029252988151093 -1.9070905447006226 -1.4289598923972626 1.5798208713531494 0.4483937621116638 True False
1368.77 2.8034543991088867 -1.4024212819388886 -1.9075655937194824 -1.4291153711131592 1.579824686050415 0.4486708641052246 True False
1368.79 2.8067030906677246 -1.4019532215646286 -1.9080517292022705 -1.4292340737632294 1.5798768997192383 0.44889381527900696 True False
1368.81 2.8095173835754395 -1.4015417856029053 -1.908453106880188 -1.4294268500855942 1.5799094438552856 0.4491739571094513 True False
1368.83 2.812105178833008 -1.4011251640370865 -1.9088771343231201 -1.4295620036176224 1.5799087285995483 0.4493444859981537 True False
1368.85 2.8142507076263428 -1.4008329075625916 -1.9091401100158691 -1.4296897512725373 1.5799531936645508 0.44948387145996094 True False
1368.87 2.8160791397094727 -1.4006385517171402 -1.9094325304031372 -1.4298255902579804 1.5799692869186401 0.449603796005249 True False
1368.8899999999999 2.8176088333129883 -1.40030790985141 -1.9096118211746216 -1.4298327577165146 1.5799769163131714 0.44980135560035706 True False
1369.1299999999999 2.819955348968506 -1.403663383131363 -1.9180431365966797 -1.4180275064757843 1.5803407430648804 0.4513736665248871 True False
1369.1499999999999 2.81998348236084 -1.404667393570282 -1.9200628995895386 -1.4149656009725113 1.580465316772461 0.45172855257987976 True False
1369.1699999999998 2.8199706077575684 -1.405787007217743 -1.922252893447876 -1.4116046887687226 1.5805732011795044 0.4521537125110626 True False
1369.1899999999998 2.81992506980896 -1.4069343370250245 -1.9246901273727417 -1.40784506619487 1.5807133913040161 0.45255932211875916 True False
1369.21 2.8199586868286133 -1.4082034838250657 -1.9274455308914185 -1.4037588846734543 1.5807931423187256 0.45294156670570374 True False
1369.23 2.8200066089630127 -1.4096870136312027 -1.9302152395248413 -1.3991574358991166 1.5809171199798584 0.4535506069660187 True False
1369.25 2.820035696029663 -1.4111436617425461 -1.9333302974700928 -1.3944413524917145 1.5810531377792358 0.454080730676651 True False
1369.27 2.8200273513793945 -1.412799597983696 -1.936657190322876 -1.389379010801651 1.5811727046966553 0.4546810984611511 True False
1369.29 2.8199658393859863 -1.4145983916572114 -1.9403358697891235 -1.3837806445411225 1.5813443660736084 0.45534470677375793 True False
1369.31 2.8199777603149414 -1.4163616758636017 -1.9441697597503662 -1.3779777151397248 1.5814803838729858 0.4559538960456848 True False
1369.33 2.8200154304504395 -1.4183133852532883 -1.948433756828308 -1.3717225951007386 1.581725001335144 0.45665162801742554 True False
1369.35 2.8199987411499023 -1.4204037201455613 -1.9527491331100464 -1.3651318711093445 1.5818690061569214 0.45745283365249634 True False
1369.37 2.8199658393859863 -1.4224785280278702 -1.957268238067627 -1.358214260344841 1.5820926427841187 0.45815232396125793 True False
1369.3899999999999 2.8200154304504395 -1.4247695815614243 -1.9619364738464355 -1.3509078335813065 1.5822405815124512 0.4591030478477478 True False
1369.4099999999999 2.8200228214263916 -1.4271980983069916 -1.9668523073196411 -1.3435146075538178 1.5825172662734985 0.4599114954471588 True False
1369.4299999999998 2.8200228214263916 -1.429768444304802 -1.9720503091812134 -1.3354525429061432 1.5827407836914062 0.4607785642147064 True False
1369.45 2.8200693130493164 -1.4323465538075943 -1.9775358438491821 -1.327068419461586 1.5828759670257568 0.46178048849105835 True False
1369.47 2.819974899291992 -1.4351075005582352 -1.9833930730819702 -1.3184818786433716 1.5831282138824463 0.46277907490730286 True False
1369.49 2.8199777603149414 -1.437942923312523 -1.989382266998291 -1.309583233003952 1.5833724737167358 0.46375539898872375 True False
1369.51 2.8200063705444336 -1.4408755463412781 -1.995440125465393 -1.3000745934299012 1.5836961269378662 0.46484366059303284 True False
1369.53 2.8200018405914307 -1.4439257842353364 -2.001603841781616 -1.2903443437865754 1.5839722156524658 0.466010183095932 True False
1369.55 2.8199615478515625 -1.447088510995247 -2.008284568786621 -1.2805837255767365 1.58430016040802 0.4670541286468506 True False
1369.57 2.8200032711029053 -1.450377309029438 -2.0153350830078125 -1.2699753803065796 1.5846283435821533 0.4682786464691162 True False
1369.59 2.8200228214263916 -1.45355777562175 -2.0223734378814697 -1.2592300933650513 1.5848519802093506 0.46950793266296387 True False
1369.61 2.8200316429138184 -1.456991085117199 -2.0293338298797607 -1.2483781439116974 1.5851798057556152 0.4707925319671631 True False
1369.6299999999999 2.8200480937957764 -1.4604900565794487 -2.0363080501556396 -1.2375989717296143 1.5854918956756592 0.4719501733779907 True False
1369.6499999999999 2.8200228214263916 -1.4637227368405838 -2.043203353881836 -1.227199451332428 1.5857796669006348 0.4731009304523468 True False
1369.6699999999998 2.8200480937957764 -1.4669009757092972 -2.04990816116333 -1.2175238889506836 1.5860555171966553 0.47429800033569336 True False
1369.6899999999998 2.820040702819824 -1.4699436885169526 -2.0561957359313965 -1.2077388328364869 1.5863475799560547 0.4754018783569336 True False
1369.71 2.8199853897094727 -1.4727466341904183 -2.062004804611206 -1.1984018844417115 1.586639404296875 0.4764045178890228 True False
1369.83 2.8200154304504395 -1.487867371445038 -2.093816041946411 -1.1501275461963196 1.588003158569336 0.4820256531238556 True False
1369.9299999999998 2.8199896812438965 -1.4976252776435395 -2.1140992641448975 -1.11948777854953 1.588887095451355 0.4854385256767273 True False
1369.95 2.8199987411499023 -1.49918236703191 -2.1173977851867676 -1.1144898992827912 1.5890355110168457 0.4860818088054657 True False
1369.97 2.8200392723083496 -1.5007260304740448 -2.120347261428833 -1.1096837383559723 1.5891754627227783 0.4866042733192444 True False
1369.99 2.8200032711029053 -1.502076619570591 -2.123260974884033 -1.105340526705124 1.5892671346664429 0.4870994985103607 True False
1370.01 2.8199450969696045 -1.503269576733448 -2.1258578300476074 -1.1013245743564148 1.5893309116363525 0.4875573217868805 True False
1370.03 2.820028781890869 -1.5044567075422783 -2.128349781036377 -1.0976639550975342 1.5894668102264404 0.48797956109046936 True False
1370.05 2.8199567794799805 -1.5055206280997773 -2.1305019855499268 -1.094282166366913 1.5895835161209106 0.48830699920654297 True False
1370.07 2.8200438022613525 -1.5064469438842316 -2.13248872756958 -1.0912687641433259 1.589618444442749 0.4886946678161621 True False
1370.09 2.8200063705444336 -1.5072728034904976 -2.1343114376068115 -1.0887057048133393 1.5897589921951294 0.4889965057373047 True False
1370.11 2.8199777603149414 -1.5079950404218216 -2.1358118057250977 -1.0863626462272187 1.5897585153579712 0.48920759558677673 True False
1370.1299999999999 2.8200063705444336 -1.508509700452425 -2.137080430984497 -1.0844149452498932 1.5898629426956177 0.4894844591617584 True False
1370.1499999999999 2.8199942111968994 -1.5090741154602547 -2.1381709575653076 -1.082934246664383 1.5899354219436646 0.489635705947876 True False
1370.1699999999998 2.8200364112854004 -1.509547298108675 -2.1390256881713867 -1.0816766184619446 1.5899628400802612 0.48972269892692566 True False
1370.1899999999998 2.819974899291992 -1.5098474000445385 -2.139638662338257 -1.0807587963393708 1.5899990797042847 0.48982131481170654 True False
1370.21 2.8200109004974365 -1.5099566553584118 -2.1398627758026123 -1.0801075857928772 1.5899951457977295 0.48987507820129395 True False
1370.23 2.8199987411499023 -1.5099204827896138 -2.1399900913238525 -1.0799841743758698 1.589950442314148 0.48989441990852356 True False
1370.25 2.8200228214263916 -1.5099311035922547 -2.140012264251709 -1.0800046485713501 1.5899786949157715 0.4899318814277649 True False
1370.27 2.81999135017395 -1.5099160906723519 -2.1400156021118164 -1.0800403517535706 1.58999502658844 0.48992297053337097 True False
1370.29 2.8200228214263916 -1.5099488657763978 -2.139970541000366 -1.0799763959697266 1.590023159980774 0.48992303013801575 True False
1370.31 2.8200273513793945 -1.5099699099412938 -2.1399528980255127 -1.0800324839404603 1.590015172958374 0.4900066554546356 True False
1370.33 2.8199942111968994 -1.509961077277996 -2.1399900913238525 -1.0800485175899048 1.5900027751922607 0.4899947941303253 True False
1370.35 2.8200364112854004 -1.509922319357731 -2.1399943828582764 -1.0799963933280488 1.5899745225906372 0.48998600244522095 True False
1370.37 2.8199450969696045 -1.5099715751460572 -2.139982223510742 -1.0800403517535706 1.5899786949157715 0.48999476432800293 True False
1370.3899999999999 2.8200154304504395 -1.5100011465004464 -2.139982223510742 -1.080036239033081 1.5899945497512817 0.4899737238883972 True False
1370.4099999999999 2.82004976272583 -1.509946421985962 -2.1399424076080322 -1.0800083142570038 1.5900108814239502 0.4899781048297882 True False
1370.4299999999998 2.8200318813323975 -1.5099878881922741 -2.139982223510742 -1.0800000590137024 1.590035080909729 0.4900515377521515 True False
1370.45 2.8199868202209473 -1.5099627536586304 -2.1400270462036133 -1.0800608557513733 1.590035080909729 0.49001553654670715 True False
1370.47 2.8199987411499023 -1.509992317562439 -2.139982223510742 -1.0800324839404603 1.590023159980774 0.4900142252445221 True False
1370.49 2.819995880126953 -1.5099790853312989 -2.140005111694336 -1.0799963933280488 1.5899666547775269 0.48998168110847473 True False
1370.51 2.8200154304504395 -1.5099910397878666 -2.140002489089966 -1.0800042313388367 1.5900309085845947 0.489997923374176 True False
1370.53 2.820007801055908 -1.5099389378777524 -2.139982223510742 -1.0800083142570038 1.5899903774261475 0.489978164434433 True False
1370.55 2.8199539184570312 -1.5100281064263363 -2.140031576156616 -1.080012397175171 1.5900068283081055 0.4899737536907196 True False
1370.57 2.8199567794799805 -1.5099627462080498 -2.1400067806243896 -1.0800566536239167 1.5899990797042847 0.4900186061859131 True False
1370.59 2.8199732303619385 -1.5100818996182461 -2.14005184173584 -1.080024318104126 1.589982509613037 0.4900709092617035 True False
1370.61 2.8200063705444336 -1.5100281548551102 -2.140031576156616 -1.080012397175171 1.590023159980774 0.4900514781475067 True False
1370.6299999999999 2.819974899291992 -1.509991006260254 -2.14005970954895 -1.080016480093338 1.589986801147461 0.48999354243278503 True False
1370.6499999999999 2.8199896812438965 -1.510035828953125 -2.1399900913238525 -1.0800444048694153 1.5900428295135498 0.490058958530426 True False
1370.6699999999998 2.8199539184570312 -1.510016133343317 -2.14005970954895 -1.0799963933280488 1.5900068283081055 0.4900229573249817 True False
1370.6899999999998 2.8199658393859863 -1.5100147140077134 -2.1399946212768555 -1.0800648492625733 1.5900510549545288 0.49005576968193054 True False
1370.71 2.8199868202209473 -1.5099135053208848 -2.1399989128112793 -1.0799883168986817 1.5900547504425049 0.49002179503440857 True False
1370.73 2.8200392723083496 -1.5100205478123208 -2.1400227546691895 -1.0799923104098816 1.5899986028671265 0.4900720417499542 True False
1370.75 2.8200199604034424 -1.5099953797510643 -2.1399989128112793 -1.079988257294037 1.590006709098816 0.4900261163711548 True False
1370.77 2.8199987411499023 -1.5099747006646176 -2.1400516033172607 -1.0800083142570038 1.5900226831436157 0.48998498916625977 True False
1370.79 2.8200273513793945 -1.5100535613349457 -2.1400558948516846 -1.080016480093338 1.5900027751922607 0.4900546073913574 True False
