Andreas691667/Digital_Twin_UR/src/controller_monitor/test_results/robot_output.csv
timestamp actual_q_0 actual_q_1 actual_q_2 actual_q_3 actual_q_4 actual_q_5 output_bit_register_65 output_bit_register_66
14545.604 2.857086658477783 -1.0066140455058594 1.1773079077350062 -1.7545968494811 -1.6561549345599573 2.8542404174804688 False False
14545.624 2.857123851776123 -1.00654490411792 1.177337948475973 -1.7546130619444789 -1.6561349073993128 2.8542518615722656 False False
14545.644 2.8570656776428223 -1.0065935415080567 1.1772931257831019 -1.7546168766417445 -1.6560905615436 2.8542332649230957 False False
14545.663999999999 2.8571059703826904 -1.0065491956523438 1.1773212591754358 -1.754665037194723 -1.6561630407916468 2.8542463779449463 False False
14545.684 2.857123851776123 -1.0065816205791016 1.177309815083639 -1.7545892200865687 -1.6560781637774866 2.8541953563690186 False False
14545.704 2.857135772705078 -1.0065534871867676 1.1773012320147913 -1.7546211681761683 -1.656147305165426 2.85429310798645 False False
14545.724 2.857123851776123 -1.0065816205791016 1.1772726217852991 -1.754608770410055 -1.6561349073993128 2.8542404174804688 False False
14545.743999999999 2.8570778369903564 -1.006626622085907 1.1772592703448694 -1.7546245060362757 -1.6561630407916468 2.854186534881592 False False
14545.764 2.857107400894165 -1.0066097539714356 1.177267853413717 -1.7545930347838343 -1.6561225096331995 2.8542449474334717 False False
14545.784 2.857135534286499 -1.0065740507892151 1.1773303190814417 -1.7546292744078578 -1.6561067740069788 2.8542680740356445 False False
14545.804 2.8571105003356934 -1.0066097539714356 1.1773012320147913 -1.7546168766417445 -1.656158749257223 2.8541994094848633 False False
14545.823999999999 2.857123851776123 -1.006605402832367 1.1772921721087855 -1.7545849285521449 -1.6561182180987757 2.85422420501709 False False
14545.844 2.8570778369903564 -1.006573037510254 1.1773212591754358 -1.7546292744078578 -1.6561067740069788 2.8541908264160156 False False
14545.864 2.857086658477783 -1.0066021841815491 1.1772931257831019 -1.7545849285521449 -1.6561268011676233 2.854247570037842 False False
14545.884 2.85711932182312 -1.006528691654541 1.1773212591754358 -1.754636903802389 -1.6561830679522913 2.8542449474334717 False False
14545.903999999999 2.857114791870117 -1.0065654081157227 1.1773293654071253 -1.754624982873434 -1.656142536793844 2.8542888164520264 False False
14545.923999999999 2.8570985794067383 -1.0065935415080567 1.177309815083639 -1.7546125851073207 -1.6560824553119105 2.85422420501709 False False
14545.944 2.8570823669433594 -1.0066140455058594 1.177267853413717 -1.754624982873434 -1.6561067740069788 2.8542680740356445 False False
14545.964 2.857086658477783 -1.0065902036479493 1.1773012320147913 -1.7546211681761683 -1.6561387220965784 2.854215621948242 False False
14545.983999999999 2.857069969177246 -1.0066223305514832 1.177337948475973 -1.7546450100340785 -1.656130615864889 2.854199171066284 False False
14546.003999999999 2.8570823669433594 -1.0065285724452515 1.1772516409503382 -1.7545730076231898 -1.6561225096331995 2.854207754135132 False False
14546.024 2.8570823669433594 -1.0066140455058594 1.177276913319723 -1.7545930347838343 -1.6560981909381312 2.854207992553711 False False
14546.044 2.8571105003356934 -1.0066183370402833 1.177337948475973 -1.7545772991576136 -1.6561268011676233 2.854199171066284 False False
14546.063999999998 2.857090950012207 -1.0065696996501465 1.1772926489459437 -1.7546006641783656 -1.656109635029928 2.8542802333831787 False False
14546.083999999999 2.8570823669433594 -1.0065739911845704 1.1772878805743616 -1.7546168766417445 -1.656119171773092 2.8542494773864746 False False
14546.104 2.8570656776428223 -1.0065761369517823 1.17735463777651 -1.7546168766417445 -1.6561391989337366 2.85422420501709 False False
14546.124 2.8570494651794434 -1.0066183370402833 1.1772635618792933 -1.7545730076231898 -1.6561349073993128 2.854199171066284 False False
14546.144 2.8570942878723145 -1.0065654081157227 1.177288834248678 -1.7546006641783656 -1.6561182180987757 2.854203462600708 False False
14546.163999999999 2.8571105003356934 -1.0065437120250245 1.17735463777651 -1.754636903802389 -1.656130615864889 2.8542404174804688 False False
14546.184 2.857090950012207 -1.0066223305514832 1.177337948475973 -1.7546330891051234 -1.6561349073993128 2.8542404174804688 False False
14546.204 2.8570656776428223 -1.0065244001201172 1.1773141066180628 -1.754653116265768 -1.6561511198626917 2.8541581630706787 False False
14546.224 2.8570613861083984 -1.0065816205791016 1.177276913319723 -1.754648824731344 -1.6561549345599573 2.8542404174804688 False False
14546.243999999999 2.8570656776428223 -1.006622628574707 1.1773250738727015 -1.754580637017721 -1.6561668554889124 2.8542232513427734 False False
14546.264 2.857074499130249 -1.0065935415080567 1.1772845427142542 -1.7546411953368128 -1.6561668554889124 2.85422420501709 False False
14546.284 2.8570690155029297 -1.0065935415080567 1.177316967641012 -1.754665037194723 -1.6561349073993128 2.8542726039886475 False False
14546.304 2.8570613861083984 -1.0065739911845704 1.1773746649371546 -1.7546006641783656 -1.6561225096331995 2.8542680740356445 False False
14546.323999999999 2.8570451736450195 -1.0065739911845704 1.1772845427142542 -1.7545849285521449 -1.6561597029315394 2.8542068004608154 False False
14546.344 2.857151985168457 -1.0065893095782776 1.177218262349264 -1.7546411953368128 -1.6561182180987757 2.854215621948242 False False
14546.364 2.857123613357544 -1.0065534275821229 1.1773508230792444 -1.754608770410055 -1.6561349073993128 2.854199171066284 False False
14546.384 2.857053756713867 -1.0066471856883545 1.1772969404803675 -1.75468172649526 -1.6561263243304651 2.854231834411621 False False
14546.403999999999 2.8570942878723145 -1.0065448445132752 1.1773012320147913 -1.7545968494811 -1.6561268011676233 2.8542284965515137 False False
14546.423999999999 2.8571279048919678 -1.0065816205791016 1.1773298422442835 -1.7545768223204554 -1.6560905615436 2.854203462600708 False False
14546.444 2.8570854663848877 -1.0066009920886536 1.177288834248678 -1.754608770410055 -1.6561711470233362 2.85422420501709 False False
14546.464 2.8570823669433594 -1.0065892499736329 1.177288834248678 -1.7545892200865687 -1.6561182180987757 2.854219913482666 False False
14546.483999999999 2.857131004333496 -1.006573037510254 1.1773212591754358 -1.7546049557127894 -1.65611440340151 2.8542404174804688 False False
14546.503999999999 2.857107162475586 -1.0065448445132752 1.1773055235492151 -1.754528661767477 -1.6561592260943812 2.8542518615722656 False False
14546.524 2.8570375442504883 -1.0065372747233887 1.177316967641012 -1.7546211681761683 -1.6561468283282679 2.8542582988739014 False False
14546.544 2.857095241546631 -1.0065978330424805 1.1773293654071253 -1.7546006641783656 -1.6561029593097132 2.854215621948242 False False
14546.563999999998 2.857114791870117 -1.0065847796252747 1.1772640387164515 -1.7546326122679652 -1.6561554113971155 2.85422420501709 False False
14546.583999999999 2.857135534286499 -1.0066097539714356 1.1772726217852991 -1.7546445331969203 -1.656130615864889 2.8542802333831787 False False
14546.604 2.8570823669433594 -1.0065611165812989 1.1773126761065882 -1.7545892200865687 -1.6561511198626917 2.85422420501709 False False
14546.624 2.8570737838745117 -1.006606475715973 1.1773212591754358 -1.754580637017721 -1.6561029593097132 2.8541908264160156 False False
14546.644 2.8571431636810303 -1.0065978926471253 1.1773255507098597 -1.7546287975706996 -1.6561391989337366 2.8542561531066895 False False
14546.663999999999 2.8570985794067383 -1.0065892499736329 1.1772845427142542 -1.7546168766417445 -1.6561511198626917 2.8542122840881348 False False
14546.684 2.8571279048919678 -1.0065816205791016 1.1773584524737757 -1.7546168766417445 -1.6561182180987757 2.854231834411621 False False
14546.704 2.8570735454559326 -1.0065935415080567 1.1773255507098597 -1.754653116265768 -1.6561554113971155 2.854170083999634 False False
14546.724 2.857070207595825 -1.006573037510254 1.1773250738727015 -1.7546168766417445 -1.656186882649557 2.8542404174804688 False False
14546.743999999999 2.857095241546631 -1.0066309136203309 1.1773055235492151 -1.7546569309630335 -1.6561511198626917 2.8542275428771973 False False
14546.764 2.8570823669433594 -1.0065816205791016 1.1772969404803675 -1.754585405389303 -1.6561182180987757 2.8542284965515137 False False
14546.784 2.857095241546631 -1.0065773886493226 1.177349869404928 -1.7546130619444789 -1.6561391989337366 2.854161500930786 False False
14546.804 2.8570985794067383 -1.0066226881793519 1.1772726217852991 -1.754608770410055 -1.656130615864889 2.8542284965515137 False False
14546.823999999999 2.857107400894165 -1.006536142235138 1.1773141066180628 -1.754608770410055 -1.6561668554889124 2.8542449474334717 False False
14546.844 2.857086658477783 -1.006573037510254 1.1773055235492151 -1.7546330891051234 -1.6561630407916468 2.8542404174804688 False False
14546.864 2.857074499130249 -1.006617860203125 1.1773250738727015 -1.754624982873434 -1.6561268011676233 2.8542230129241943 False False
14546.884 2.857111692428589 -1.0066097539714356 1.177337948475973 -1.754608770410055 -1.656109635029928 2.8542110919952393 False False
14546.903999999999 2.857074499130249 -1.0065654081157227 1.1772683302508753 -1.7545849285521449 -1.6561186949359339 2.854203462600708 False False
14546.923999999999 2.8570823669433594 -1.006626622085907 1.1773126761065882 -1.7546168766417445 -1.6561391989337366 2.8542404174804688 False False
14546.944 2.8570985794067383 -1.0065978330424805 1.1772931257831019 -1.754608770410055 -1.6561468283282679 2.854215621948242 False False
14546.964 2.8570985794067383 -1.0066352647593995 1.177309815083639 -1.754580637017721 -1.6561067740069788 2.8542726039886475 False False
14546.983999999999 2.857102870941162 -1.0065448445132752 1.1773126761065882 -1.754608770410055 -1.656130615864889 2.8542110919952393 False False
14547.003999999999 2.8570780754089355 -1.0065567654422303 1.1773627440081995 -1.7546006641783656 -1.6561067740069788 2.8542518615722656 False False
14547.024 2.8571159839630127 -1.0065815609744568 1.1773336569415491 -1.7545892200865687 -1.6561225096331995 2.8542518615722656 False False
14547.044 2.8570823669433594 -1.0065480035594483 1.1773255507098597 -1.7546006641783656 -1.656130615864889 2.8542518615722656 False False
14547.063999999998 2.8570659160614014 -1.0066009920886536 1.177316967641012 -1.7545973263182582 -1.6560776869403284 2.8542845249176025 False False
14547.083999999999 2.857114791870117 -1.0066150587848206 1.177316967641012 -1.7546211681761683 -1.6561711470233362 2.854247570037842 False False
14547.104 2.857070207595825 -1.0065577787211915 1.1773012320147913 -1.7546411953368128 -1.6561391989337366 2.8542888164520264 False False
14547.124 2.857114791870117 -1.006642834549286 1.177316967641012 -1.7546125851073207 -1.6561101118670862 2.854236125946045 False False
14547.144 2.857102870941162 -1.0066269797137757 1.1772802511798304 -1.7546168766417445 -1.656130615864889 2.854231834411621 False False
14547.163999999999 2.8570539951324463 -1.0065534275821229 1.1773255507098597 -1.7546211681761683 -1.656203571950094 2.8542332649230957 False False
14547.184 2.8570289611816406 -1.0065773290446778 1.1772640387164515 -1.7546411953368128 -1.6561668554889124 2.854166030883789 False False
14547.204 2.8570613861083984 -1.0066097539714356 1.1773212591754358 -1.7546211681761683 -1.6561225096331995 2.8542332649230957 False False
14547.224 2.8570659160614014 -1.0065654081157227 1.1773055235492151 -1.7545973263182582 -1.6561430136310022 2.85422420501709 False False
14547.243999999999 2.857102870941162 -1.0065902036479493 1.1773141066180628 -1.7545768223204554 -1.6561268011676233 2.854166030883789 False False
14547.264 2.857070207595825 -1.0066064161113282 1.1772931257831019 -1.7545725307860316 -1.6561554113971155 2.854243278503418 False False
14547.284 2.857099771499634 -1.0066140455058594 1.177288834248678 -1.7546130619444789 -1.6561268011676233 2.8541836738586426 False False
14547.304 2.857086658477783 -1.0066098135760804 1.1772969404803675 -1.754580637017721 -1.6561391989337366 2.854186534881592 False False
14547.323999999999 2.857102870941162 -1.0066098135760804 1.1773250738727015 -1.754580637017721 -1.6561062971698206 2.8542110919952393 False False
14547.344 2.857090950012207 -1.00654490411792 1.1773341337787073 -1.754653116265768 -1.656107250844137 2.85422420501709 False False
14547.364 2.857070207595825 -1.006617860203125 1.1772564093219202 -1.754580637017721 -1.6561668554889124 2.854199171066284 False False
14547.384 2.857095241546631 -1.0066471260837098 1.1773250738727015 -1.7546731434264125 -1.6561349073993128 2.854219913482666 False False
14547.403999999999 2.8570375442504883 -1.0066054624370118 1.177337948475973 -1.7546006641783656 -1.6561310927020472 2.854215621948242 False False
14547.423999999999 2.857070207595825 -1.0066021245769043 1.177337948475973 -1.7546049557127894 -1.6561349073993128 2.854259490966797 False False
14547.444 2.8570942878723145 -1.0066352051547547 1.177288834248678 -1.7546049557127894 -1.6561430136310022 2.8542561531066895 False False
14547.464 2.8570821285247803 -1.0065782231143494 1.1772802511798304 -1.7546168766417445 -1.656191651021139 2.8542275428771973 False False
14547.483999999999 2.8570539951324463 -1.0066140455058594 1.1773584524737757 -1.7545968494811 -1.65617543855776 2.854219913482666 False False
14547.503999999999 2.857078790664673 -1.0065362018397828 1.177288834248678 -1.7545925579466761 -1.65611440340151 2.85422420501709 False False
14547.524 2.857090950012207 -1.0065977734378357 1.177316967641012 -1.754608770410055 -1.6560900847064417 2.854219913482666 False False
14547.544 2.857024669647217 -1.0065816801837464 1.1773012320147913 -1.7545730076231898 -1.656158749257223 2.854219913482666 False False
14547.563999999998 2.8570659160614014 -1.0065362018397828 1.1773412863360804 -1.7546125851073207 -1.656158749257223 2.854236125946045 False False
14547.583999999999 2.857090950012207 -1.0065696996501465 1.1773126761065882 -1.7545768223204554 -1.6561349073993128 2.8542375564575195 False False
14547.604 2.8570005893707275 -1.0066063565066834 1.1772931257831019 -1.754665037194723 -1.6561387220965784 2.854186534881592 False False
14547.624 2.857070207595825 -1.006605402832367 1.1773336569415491 -1.7546612224974574 -1.6561749617206019 2.8541746139526367 False False
14547.644 2.857070207595825 -1.0066009920886536 1.1773346106158655 -1.754608770410055 -1.6561029593097132 2.8542449474334717 False False
14547.663999999999 2.85705828666687 -1.0065697592547913 1.1773260275470179 -1.7545925579466761 -1.6561186949359339 2.8541908264160156 False False
14547.684 2.857131004333496 -1.006675199871399 1.1773126761065882 -1.7546411953368128 -1.6561749617206019 2.85422420501709 False False
14547.704 2.857070207595825 -1.0066092771342774 1.1773012320147913 -1.7546287975706996 -1.6560986677752894 2.8542110919952393 False False
14547.724 2.8571224212646484 -1.0065816205791016 1.1773384253131312 -1.7546411953368128 -1.6561225096331995 2.8542680740356445 False False
14547.743999999999 2.857102870941162 -1.0065848392299195 1.1773055235492151 -1.7546168766417445 -1.656130615864889 2.8542068004608154 False False
14547.764 2.857070207595825 -1.0065892499736329 1.177309815083639 -1.7546693287291468 -1.6560991446124476 2.8542494773864746 False False
14547.784 2.8570780754089355 -1.0066097539714356 1.177272144948141 -1.7546006641783656 -1.6561029593097132 2.8542284965515137 False False
14547.804 2.857046365737915 -1.0065816205791016 1.177309815083639 -1.7545849285521449 -1.6561229864703577 2.8541789054870605 False False
14547.823999999999 2.857042074203491 -1.0066097539714356 1.1773260275470179 -1.7546049557127894 -1.6561349073993128 2.854199171066284 False False
14547.844 2.857107639312744 -1.0065816205791016 1.1773055235492151 -1.7545730076231898 -1.6561225096331995 2.8542375564575195 False False
14547.864 2.857095718383789 -1.0065611761859437 1.177288834248678 -1.7545849285521449 -1.656158749257223 2.8542404174804688 False False
14547.884 2.857065439224243 -1.006573037510254 1.1773303190814417 -1.754608770410055 -1.6561139265643519 2.8542404174804688 False False
14547.903999999999 2.857140302658081 -1.0066182774356385 1.1773455778705042 -1.7546330891051234 -1.6561668554889124 2.8542332649230957 False False
14547.923999999999 2.8570492267608643 -1.0065892499736329 1.1772931257831019 -1.7546292744078578 -1.6561186949359339 2.8542275428771973 False False
14547.944 2.857103109359741 -1.0065524143031617 1.177316967641012 -1.7545887432494105 -1.6561310927020472 2.854207754135132 False False
14547.964 2.8570446968078613 -1.0065568846515198 1.1772797743426722 -1.7546450100340785 -1.656147305165426 2.854219913482666 False False
14547.983999999999 2.857074499130249 -1.0065686267665406 1.1773250738727015 -1.7545925579466761 -1.6561225096331995 2.8541691303253174 False False
14548.003999999999 2.8570656776428223 -1.0066513580134888 1.1772964636432093 -1.7546211681761683 -1.6561506430255335 2.854247570037842 False False
14548.024 2.857103109359741 -1.0065859121135254 1.1773212591754358 -1.7545811138548792 -1.6561387220965784 2.8542561531066895 False False
14548.044 2.857107639312744 -1.0065816205791016 1.17735463777651 -1.7545768223204554 -1.6561310927020472 2.854203462600708 False False
14548.063999999998 2.857123851776123 -1.0066187542727967 1.1773126761065882 -1.7545486889281214 -1.6561549345599573 2.8542802333831787 False False
14548.083999999999 2.8570821285247803 -1.0065891307643433 1.1773384253131312 -1.754608770410055 -1.6561029593097132 2.854259490966797 False False
14548.104 2.857095718383789 -1.0066143435290833 1.1773589293109339 -1.7546049557127894 -1.6560986677752894 2.8541908264160156 False False
14548.124 2.857053518295288 -1.00657273948703 1.1773126761065882 -1.7545768223204554 -1.6561186949359339 2.8542606830596924 False False
14548.144 2.8570733070373535 -1.0065771502307435 1.1772812048541468 -1.7546168766417445 -1.6561225096331995 2.8542232513427734 False False
14548.163999999999 2.8570985794067383 -1.006617860203125 1.1772797743426722 -1.7546287975706996 -1.6561268011676233 2.8542606830596924 False False
14548.184 2.857086658477783 -1.006551818256714 1.1773384253131312 -1.7546330891051234 -1.6561391989337366 2.8542275428771973 False False
14548.204 2.857074499130249 -1.0065489572337647 1.177267853413717 -1.754556795159811 -1.6561554113971155 2.854247570037842 False False
14548.224 2.857119560241699 -1.0066268605044861 1.177314583455221 -1.7546168766417445 -1.6561468283282679 2.85422420501709 False False
14548.243999999999 2.8570821285247803 -1.0065816205791016 1.1772974173175257 -1.7545930347838343 -1.6561434904681605 2.854215621948242 False False
14548.264 2.8571150302886963 -1.006596402531006 1.177267853413717 -1.7545563183226527 -1.6561349073993128 2.8542518615722656 False False
14548.304 2.857103109359741 -1.0066024226001282 1.1772587935077112 -1.7545930347838343 -1.6561349073993128 2.8542726039886475 False False
14548.323999999999 2.857083320617676 -1.0065696996501465 1.177342716847555 -1.7545811138548792 -1.6560824553119105 2.854215621948242 False False
14548.344 2.857086658477783 -1.0065935415080567 1.1773126761065882 -1.7546006641783656 -1.6561229864703577 2.8542404174804688 False False
14548.364 2.8570520877838135 -1.0066341918757935 1.1772587935077112 -1.7546287975706996 -1.6561182180987757 2.854215621948242 False False
14548.384 2.8570821285247803 -1.0066520732692261 1.1773055235492151 -1.7546125851073207 -1.6561067740069788 2.854238748550415 False False
14548.403999999999 2.8570778369903564 -1.006575660114624 1.1772964636432093 -1.7545930347838343 -1.6561387220965784 2.854199171066284 False False
14548.423999999999 2.8571014404296875 -1.0066358012012024 1.1772750059710901 -1.7545968494811 -1.6561549345599573 2.854219913482666 False False
14548.444 2.857107639312744 -1.0065891307643433 1.1772964636432093 -1.7545725307860316 -1.6561787764178675 2.8542726039886475 False False
14548.464 2.85709547996521 -1.0065890711596985 1.177267853413717 -1.7546006641783656 -1.656158749257223 2.8542287349700928 False False
14548.483999999999 2.857086658477783 -1.006600872879364 1.1773079077350062 -1.7546287975706996 -1.6561225096331995 2.8542933464050293 False False
14548.503999999999 2.8570656776428223 -1.00654889762912 1.177309815083639 -1.7545930347838343 -1.656130615864889 2.854199171066284 False False
14548.524 2.8570897579193115 -1.0066143435290833 1.177309815083639 -1.754636903802389 -1.6561711470233362 2.85422420501709 False False
14548.544 2.8571524620056152 -1.0065891307643433 1.1773055235492151 -1.754648824731344 -1.6561906973468226 2.8542680740356445 False False
14548.563999999998 2.8570821285247803 -1.0066134494594117 1.1773303190814417 -1.7546407184996546 -1.656130615864889 2.854231834411621 False False
14548.583999999999 2.857119560241699 -1.0066596430591126 1.177359406148092 -1.7546450100340785 -1.6561549345599573 2.854219913482666 False False
14548.604 2.857065439224243 -1.0065652889064332 1.177309815083639 -1.754608770410055 -1.6560748259173792 2.8542726039886475 True False
14548.624 2.8570821285247803 -1.0065964621356507 1.17735463777651 -1.7545730076231898 -1.6561310927020472 2.854203462600708 True False
14548.644 2.857107639312744 -1.0066224497607728 1.17735463777651 -1.7546855411925257 -1.6561711470233362 2.8542933464050293 True False
14548.663999999999 2.857069969177246 -1.0065681499293824 1.1773336569415491 -1.7545649013915003 -1.656130615864889 2.8542845249176025 True False
14548.684 2.857053518295288 -1.0065577787211915 1.1772931257831019 -1.7545768223204554 -1.6561511198626917 2.8542168140411377 True False
14548.704 2.857103109359741 -1.0065844816020508 1.1772750059710901 -1.754608770410055 -1.6561387220965784 2.854215621948242 True False
14548.724 2.857107639312744 -1.00659795225177 1.177342716847555 -1.7546450100340785 -1.65617543855776 2.854236125946045 True False
14548.743999999999 2.857149362564087 -1.0065756005099793 1.1773055235492151 -1.7546168766417445 -1.6560867468463343 2.85422420501709 True False
14548.764 2.8570821285247803 -1.0065681499293824 1.1772931257831019 -1.7546049557127894 -1.6561906973468226 2.8542275428771973 True False
14548.784 2.857095718383789 -1.0066313308528443 1.1773012320147913 -1.7546125851073207 -1.6562064329730433 2.85422420501709 True False
14548.804 2.857011556625366 -1.0065935415080567 1.1772974173175257 -1.7545892200865687 -1.656130615864889 2.8541953563690186 True False
14548.823999999999 2.857100248336792 -1.0065608781627198 1.177342716847555 -1.7546245060362757 -1.6561787764178675 2.854212999343872 True False
14548.844 2.8570597171783447 -1.0065844816020508 1.1773212591754358 -1.754636903802389 -1.6561310927020472 2.8540022373199463 True False
14548.864 2.8570072650909424 -1.0066188138774415 1.1773036162005823 -1.7546731434264125 -1.6561225096331995 2.853835105895996 True False
14548.884 2.8568737506866455 -1.006613389854767 1.1773336569415491 -1.7545849285521449 -1.6561067740069788 2.853555679321289 True False
14548.903999999999 2.856801986694336 -1.0066552323153992 1.1773336569415491 -1.7546211681761683 -1.6560986677752894 2.8533082008361816 True False
14548.923999999999 2.8567075729370117 -1.0066372913173218 1.1773322264300745 -1.754580637017721 -1.656067196522848 2.8530702590942383 True False
14548.944 2.856574296951294 -1.0067791503718873 1.177448574696676 -1.7545834980406703 -1.6560352484332483 2.8527421951293945 True False
14548.964 2.8565175533294678 -1.0067525070956727 1.177614990864889 -1.7546130619444789 -1.6559670607196253 2.8523952960968018 True False
14548.983999999999 2.856367588043213 -1.0067843359759827 1.1776717344867151 -1.7546211681761683 -1.6558788458453577 2.8519954681396484 True False
14549.003999999999 2.856173038482666 -1.0069098633578797 1.177643124257223 -1.754665037194723 -1.6557701269732874 2.851547956466675 True False
14549.024 2.8560125827789307 -1.0069868725589295 1.1777809301959437 -1.7546407184996546 -1.6557920614825647 2.851113796234131 True False
14549.044 2.855849266052246 -1.0070330661586304 1.177847687398092 -1.7546407184996546 -1.6557276884662073 2.8505914211273193 True False
14549.063999999998 2.8556156158447266 -1.007130281334259 1.177948300038473 -1.754608770410055 -1.6556513945208948 2.8500125408172607 True False
14549.083999999999 2.8554511070251465 -1.0071858924678345 1.1780269781695765 -1.7546450100340785 -1.6556199232684534 2.849351644515991 True False
14549.104 2.855220079421997 -1.007257954483368 1.1781137625323694 -1.7546526394286097 -1.6555441061602991 2.848834991455078 True False
14549.124 2.8550209999084473 -1.007347123031952 1.1782563368426722 -1.7546888790526332 -1.6554320494281214 2.8482017517089844 True False
14549.144 2.8547933101654053 -1.00736756742511 1.1783574263202112 -1.7547484836974085 -1.6553638617144983 2.847506046295166 True False
14549.163999999999 2.854499578475952 -1.0075223010829468 1.1784518400775355 -1.7547527752318324 -1.6552842299090784 2.846730947494507 True False
14549.184 2.8542749881744385 -1.0076254171184083 1.178613011037008 -1.754751821557516 -1.6551640669452112 2.845973491668701 True False
14549.204 2.853950023651123 -1.007758454685547 1.1787164847003382 -1.7547842464842738 -1.6550973097430628 2.845183849334717 True False
14549.224 2.8536248207092285 -1.0078161519816895 1.1788881460772913 -1.7547923527159632 -1.654996697102682 2.8443405628204346 True False
14549.243999999999 2.853367328643799 -1.007978157406189 1.1790693441974085 -1.7547923527159632 -1.6549056212054651 2.843438148498535 True False
14549.264 2.8530795574188232 -1.008031503563263 1.1792200247394007 -1.7548123798766078 -1.6547535101519983 2.8425447940826416 True False
14549.284 2.8527307510375977 -1.0082221788218995 1.179354492818014 -1.7548166714110316 -1.6546905676471155 2.841583013534546 True False
14549.304 2.8524460792541504 -1.0083047312549134 1.179498020802633 -1.754876276055807 -1.6545704046832483 2.8405685424804688 True False
14549.323999999999 2.8520162105560303 -1.008490340118744 1.1796820799456995 -1.7549125156798304 -1.6544416586505335 2.839613676071167 True False
14549.344 2.851639986038208 -1.0085863035968323 1.1798284689532679 -1.7548753223814906 -1.65430194536318 2.8384997844696045 True False
14549.364 2.8512089252471924 -1.0087828201106568 1.180077854787008 -1.7549029789366664 -1.6542022863971155 2.8373804092407227 True False
14549.384 2.850858211517334 -1.0088823598674317 1.1801989714251917 -1.7549358807005824 -1.6540549437152308 2.8362438678741455 True False
14549.403999999999 2.8504552841186523 -1.0090509814075013 1.1804712454425257 -1.7549792728819789 -1.6539352575885218 2.8350868225097656 True False
14549.423999999999 2.8500478267669678 -1.009154037838318 1.1806624571429651 -1.754995962182516 -1.6537874380694788 2.8338565826416016 True False
14549.444 2.849625587463379 -1.0093738001636048 1.1808045546161097 -1.754995962182516 -1.6536157766925257 2.8326282501220703 True False
14549.464 2.849107027053833 -1.0095721644214173 1.1810572783099573 -1.7549945316710414 -1.653475586568014 2.8312880992889404 True False
14549.483999999999 2.84869384765625 -1.0097101491740723 1.1812470594989222 -1.755099435845846 -1.6533320585833948 2.8299739360809326 True False
14549.503999999999 2.848160743713379 -1.009860948925354 1.1814706961261194 -1.7551075420775355 -1.6531646887408655 2.8285741806030273 True False
14549.524 2.8477261066436768 -1.0100292724421998 1.1817429701434534 -1.7551189861693324 -1.6530287901507776 2.8272042274475098 True False
14549.544 2.8472440242767334 -1.0102620881846924 1.1819198767291468 -1.755179067651266 -1.6528657118426722 2.825709104537964 True False
14549.563999999998 2.8466928005218506 -1.0104101461223145 1.1821678320514124 -1.755219121972555 -1.6526535193072718 2.8241634368896484 True False
14549.583999999999 2.846205949783325 -1.0106128615191956 1.1824892202960413 -1.7552148304381312 -1.6525300184832972 2.8227152824401855 True False
14549.604 2.8456547260284424 -1.0108187955668946 1.182662312184469 -1.755259176293844 -1.6523140112506312 2.8210980892181396 True False
14549.624 2.845113754272461 -1.0110525053790589 1.1829269568072718 -1.755298753777975 -1.6521909872638147 2.8195245265960693 True False
14549.644 2.844616651535034 -1.0112415713122864 1.1832168737994593 -1.7553111515440882 -1.651999298726217 2.8178303241729736 True False
14549.663999999999 2.843954563140869 -1.0114706319621583 1.1834343115436 -1.7553345165648402 -1.651771370564596 2.816222906112671 True False
14549.684 2.843397378921509 -1.0116782945445557 1.1837547461139124 -1.7553464374937953 -1.6515758673297327 2.8144583702087402 True False
14549.704 2.8427622318267822 -1.0118243259242554 1.184058968220846 -1.7554179630675257 -1.6514166037188929 2.812809467315674 True False
14549.724 2.842101812362671 -1.012028233414032 1.1843741575824183 -1.7554103336729945 -1.6511643568622034 2.8109095096588135 True False
14549.743999999999 2.8415262699127197 -1.0123144549182435 1.1846769491778772 -1.75541414837026 -1.65094501176943 2.809126853942871 True False
14549.764 2.840916872024536 -1.01253958166156 1.1849435011493128 -1.7554856739439906 -1.6506927649127405 2.8072891235351562 True False
14549.784 2.840200662612915 -1.0127971333316346 1.1852615515338343 -1.7555262051024378 -1.6504939238177698 2.8054208755493164 True False
14549.804 2.8395702838897705 -1.0129416149905701 1.1856372992144983 -1.7555862865843714 -1.650222126637594 2.8034002780914307 True False
14549.823999999999 2.8389275074005127 -1.0133012098125 1.1859195868121546 -1.7555815182127894 -1.6500185171710413 2.8014140129089355 True False
14549.844 2.8381755352020264 -1.0135482114604493 1.1862471739398401 -1.7556411228575648 -1.6498354117022913 2.7994725704193115 True False
14549.864 2.8374643325805664 -1.013800935154297 1.1865490118609827 -1.755693098107809 -1.649571720753805 2.797386884689331 True False
14549.884 2.836745262145996 -1.0140549701503296 1.1869285742389124 -1.7556811771788539 -1.6493561903582972 2.7953062057495117 True False
14549.903999999999 2.836042642593384 -1.0142777127078553 1.1872947851764124 -1.755745073358053 -1.6490767637835901 2.7932052612304688 True False
14549.923999999999 2.835206985473633 -1.0145992201617737 1.1876490751849573 -1.7558089695372523 -1.6488850752459925 2.791008234024048 True False
14549.944 2.834501266479492 -1.0148609441569825 1.1880491415606897 -1.7558165989317835 -1.6486452261554163 2.7887940406799316 True False
14549.964 2.8337302207946777 -1.0152300757220765 1.1883681456195276 -1.7558766804137171 -1.648346249257223 2.7865166664123535 True False
14549.983999999999 2.832967519760132 -1.0154734414866944 1.1887343565570276 -1.7559253178038539 -1.6481431166278284 2.7842295169830322 True False
14550.003999999999 2.832214117050171 -1.015720621948578 1.1891735235797327 -1.755960603753561 -1.6478355566607874 2.7819881439208984 True False
14550.024 2.8313827514648438 -1.0160473150065918 1.189498249684469 -1.7560450039305628 -1.6475279966937464 2.779580593109131 True False
14550.044 2.8304944038391113 -1.0164030355266114 1.1898730436908167 -1.7560960255064906 -1.647280518208639 2.7771971225738525 True False
14550.063999999998 2.8296632766723633 -1.0166872304729004 1.1902440229998987 -1.7561241588988246 -1.6469562689410608 2.7747836112976074 True False
14550.083999999999 2.828829050064087 -1.016955093746521 1.190695587788717 -1.7561637363829554 -1.6466735045062464 2.7723283767700195 True False
14550.104 2.827918291091919 -1.0172855418971558 1.191171948109762 -1.756195684472555 -1.6464341322528284 2.769793748855591 True False
14550.124 2.8271002769470215 -1.0175395172885437 1.1915248076068323 -1.7562114200987757 -1.6461389700519007 2.7672858238220215 True False
14550.144 2.826197385787964 -1.0179788631251832 1.1919072310077112 -1.756275316277975 -1.6458147207843226 2.7646889686584473 True False
14550.163999999999 2.825298547744751 -1.0183317226222535 1.1923778692828577 -1.7563468418517054 -1.6455476919757288 2.762106418609619 True False
14550.184 2.824326753616333 -1.0186422032168885 1.1927297751056116 -1.75639071087026 -1.6452558676349085 2.7594492435455322 True False
14550.204 2.823481559753418 -1.0190020960620423 1.193275276814596 -1.7564946613707484 -1.644904915486471 2.756708860397339 True False
14550.224 2.8224551677703857 -1.0193106097033997 1.1936996618853968 -1.756475111047262 -1.6445816198932093 2.7539279460906982 True False
14550.243999999999 2.8215177059173584 -1.0196851652911683 1.19413930574526 -1.7565986118712367 -1.6443384329425257 2.7511463165283203 True False
14550.264 2.820596694946289 -1.0199985665133973 1.1946457068072718 -1.7566305599608363 -1.6439831892596644 2.7484326362609863 True False
14550.284 2.819690227508545 -1.020366982822754 1.1951740423785608 -1.7566219768919886 -1.6436365286456507 2.74556827545166 True False
14550.304 2.8185670375823975 -1.0207415980151673 1.195566479359762 -1.7567178211607875 -1.6432841459857386 2.7426629066467285 True False
14550.323999999999 2.8175244331359863 -1.0211144846728821 1.1959555784808558 -1.7568217716612757 -1.6429489294635218 2.739774703979492 True False
14550.344 2.816545009613037 -1.0215246242335816 1.1964786688434046 -1.7568255863585414 -1.6426380316363733 2.7368178367614746 True False
14550.364 2.815580368041992 -1.021912233238556 1.196960751210348 -1.756841321984762 -1.642310921345846 2.7338664531707764 True False
14550.384 2.8144187927246094 -1.0222478073886414 1.19741136232485 -1.756909032861227 -1.641959015523092 2.7307910919189453 True False
14550.403999999999 2.813361167907715 -1.0225874346545716 1.1979711691485804 -1.7569567165770472 -1.6416242758380335 2.7276904582977295 True False
14550.423999999999 2.812359571456909 -1.0230576556972046 1.1984437147723597 -1.7570649586119593 -1.6412375609027308 2.7245032787323 True False
14550.444 2.8112704753875732 -1.0234350127032776 1.198977295552389 -1.7571045360960902 -1.6408746878253382 2.7213990688323975 True False
14550.464 2.810128927230835 -1.0238741797259827 1.199496094380514 -1.7571479282774867 -1.6405242125140589 2.718209981918335 True False
14550.483999999999 2.809023380279541 -1.0242290061763306 1.1999614874469202 -1.75718416790151 -1.6401212851153772 2.7149457931518555 True False
14550.503999999999 2.807913303375244 -1.0246286553195496 1.2005651632892054 -1.7572556934752406 -1.639707390462057 2.711716413497925 True False
14550.524 2.8067057132720947 -1.0250049990466614 1.2010820547686976 -1.7573396168150843 -1.6393402258502405 2.708552360534668 True False
14550.544 2.8056015968322754 -1.025519923572876 1.2016366163836878 -1.7573791942992152 -1.6390135923968714 2.7051842212677 True False
14550.563999999998 2.8044943809509277 -1.025903896694519 1.2021940390216272 -1.7575036487975062 -1.6386235396014612 2.701746940612793 True False
14550.583999999999 2.8032586574554443 -1.0263095659068604 1.2028020063983362 -1.757559438745016 -1.6382444540606897 2.6983251571655273 True False
14550.604 2.8020524978637695 -1.0268734258464356 1.203371826802389 -1.757554670373434 -1.6378820578204554 2.6948740482330322 True False
14550.624 2.800961494445801 -1.0272473257831116 1.2038162390338343 -1.7576261959471644 -1.637463394795553 2.6913979053497314 True False
14550.644 2.7997238636016846 -1.027699665432312 1.2043784300433558 -1.7577067814269007 -1.637057129536764 2.6878421306610107 True False
14550.663999999999 2.7984068393707275 -1.0281087917140503 1.2050131003009241 -1.7577983341612757 -1.6365388075457972 2.6843159198760986 True False
14550.684 2.7972185611724854 -1.0286063116839905 1.205533806477682 -1.7578584156432093 -1.6361315886126917 2.680654525756836 True False
14550.704 2.7959747314453125 -1.029058651333191 1.2060993353473108 -1.7579180202879847 -1.6357901732074183 2.677089214324951 True False
14550.724 2.7946996688842773 -1.0295125407031556 1.2067621389972132 -1.7580019436278285 -1.6353347937213343 2.673455238342285 True False
14550.743999999999 2.793409585952759 -1.0298992556384583 1.2073915640460413 -1.758045335809225 -1.6349170843707483 2.6698057651519775 True False
14550.764 2.79207444190979 -1.0304429692080994 1.2080596129046839 -1.7581860027708949 -1.6344545523272913 2.665931224822998 True False
14550.784 2.790818452835083 -1.0309141439250489 1.2086933294879358 -1.758188863793844 -1.6340039412127894 2.662051200866699 True False
14550.804 2.7895445823669434 -1.0314021867564698 1.2092726866351526 -1.7582651577391566 -1.6335771719561976 2.658282518386841 True False
14550.823999999999 2.788161277770996 -1.031904713516571 1.2099159399615687 -1.7583490810790003 -1.633099381123678 2.654404640197754 True False
14550.844 2.7868170738220215 -1.032355324631073 1.21049672762026 -1.758416315118307 -1.6326611677752894 2.650554895401001 True False
14550.864 2.785421848297119 -1.0329355758479615 1.2110865751849573 -1.7585202656187953 -1.6322992483722132 2.6466798782348633 True False
14550.884 2.7840683460235596 -1.0333659213832398 1.2117365042315882 -1.7585512600340785 -1.6317957083331507 2.6425955295562744 True False
14550.903999999999 2.7826461791992188 -1.033872441654541 1.2124879995929163 -1.7586432896056117 -1.6313980261432093 2.638632297515869 True False
14550.923999999999 2.7812938690185547 -1.0343937438777466 1.213144604359762 -1.7586871586241664 -1.6309755484210413 2.634544610977173 True False
14550.944 2.7798912525177 -1.0348783892444153 1.213790241871969 -1.7588278255858363 -1.6304968039142054 2.630361795425415 True False
14550.964 2.778437376022339 -1.0354851645282288 1.214468781148092 -1.7589031658568324 -1.6299675146686 2.626333236694336 True False
14550.983999999999 2.7770040035247803 -1.0360731047442933 1.2151816526996058 -1.7589827976622523 -1.6294730345355433 2.622100591659546 True False
14551.003999999999 2.7755324840545654 -1.036521391277649 1.2158144156085413 -1.7590347729124964 -1.6289427916156214 2.6179535388946533 True False
14551.024 2.774050235748291 -1.0371270340732117 1.2166054884540003 -1.7590705356993617 -1.628505055104391 2.613694190979004 True False
14551.044 2.772617816925049 -1.037604884510376 1.2172372976886194 -1.7592183552184046 -1.6280067602740687 2.609506368637085 True False
14551.063999999998 2.7710742950439453 -1.038180486564972 1.2179234663592737 -1.759289880792135 -1.6274998823748987 2.6051573753356934 True False
14551.083999999999 2.769608497619629 -1.0386539858630677 1.2186663786517542 -1.7593289814391078 -1.6269977728473108 2.60079026222229 True False
14551.104 2.7680702209472656 -1.0392160576632996 1.219370190297262 -1.7594205341734828 -1.6264718214618128 2.596351146697998 True False
14551.124 2.766523599624634 -1.0397890371135254 1.2200964132892054 -1.75956453899526 -1.6260059515582483 2.591867446899414 True False
14551.144 2.7649943828582764 -1.0404253166965027 1.2208336035357874 -1.7595998249449671 -1.6254637877093714 2.5875003337860107 True False
14551.163999999999 2.763477087020874 -1.0409621757319947 1.221583668385641 -1.7597161732115687 -1.6249616781817835 2.583042621612549 True False
14551.184 2.761890172958374 -1.0415611428073426 1.2223776022540491 -1.7597881756224574 -1.6245077292071741 2.578498601913452 True False
14551.204 2.760267972946167 -1.0421068233302613 1.2231009642230433 -1.7598959408202113 -1.623965088521139 2.573852300643921 True False
14551.224 2.7587006092071533 -1.0426589411548157 1.223858658467428 -1.7599269352354945 -1.6234195868121546 2.5692286491394043 True False
14551.243999999999 2.7571473121643066 -1.0432884854129334 1.2245872656451624 -1.7600671253600062 -1.6228531042682093 2.564530372619629 True False
14551.264 2.7555205821990967 -1.0439345997622986 1.225252930318014 -1.7601386509337367 -1.622263256703512 2.5598151683807373 True False
14551.284 2.753875732421875 -1.0445182484439393 1.2260540167437952 -1.760174413720602 -1.6218093077289026 2.5551371574401855 True False
14551.304 2.7521445751190186 -1.045148567562439 1.2268808523761194 -1.7603222332396449 -1.6211875120746058 2.550450325012207 True False
14551.323999999999 2.7505905628204346 -1.0456490081599732 1.2276933828936976 -1.7604338131346644 -1.62062913576235 2.5456085205078125 True False
14551.344 2.748903751373291 -1.0462513130954285 1.228469196950094 -1.7605015240111292 -1.6200750509845179 2.5407304763793945 True False
14551.364 2.7471797466278076 -1.046912745838501 1.2292421499835413 -1.760585447350973 -1.6195457617389124 2.5357789993286133 True False
14551.384 2.745558261871338 -1.0475683373263855 1.2300503889666956 -1.760688921014303 -1.6189239660846155 2.5308632850646973 True False
14551.403999999999 2.7438149452209473 -1.0481769007495423 1.2309001127826136 -1.7607728443541468 -1.6184023062335413 2.5259549617767334 True False
14551.423999999999 2.7420506477355957 -1.0487937492183228 1.2316811720477503 -1.7608443699278773 -1.6178558508502405 2.5209333896636963 True False
14551.444 2.740327835083008 -1.0494469565204163 1.2324789206134241 -1.7609483204283656 -1.6172979513751429 2.5158896446228027 True False
14551.464 2.738539695739746 -1.050132767563202 1.2332709471331995 -1.7610036335387171 -1.6167281309710901 2.5108742713928223 True False
14551.483999999999 2.736788272857666 -1.0507731598666687 1.2341473738299769 -1.7611552677550257 -1.61609393755068 2.5057501792907715 True False
14551.503999999999 2.735037326812744 -1.051410750751831 1.2349923292743128 -1.7612558803954066 -1.6154606978045862 2.500525712966919 True False
14551.524 2.733215093612671 -1.0521265429309388 1.2358043829547327 -1.7613588772215785 -1.614882771168844 2.495358943939209 True False
14551.544 2.7314200401306152 -1.0527624052814026 1.2366984526263636 -1.76147522548818 -1.61428147951235 2.490166664123535 True False
14551.563999999998 2.729633092880249 -1.0534989398768921 1.2375667730914515 -1.761578222314352 -1.6136868635760706 2.4849801063537598 True False
14551.583999999999 2.7278218269348145 -1.0540904563716431 1.238471810017721 -1.761618276635641 -1.613049332295553 2.4796841144561768 True False
14551.604 2.7259857654571533 -1.0547271531871338 1.239293400441305 -1.76170076946401 -1.6124876181231897 2.4743175506591797 True False
14551.624 2.724255323410034 -1.055433289413788 1.2400911490069788 -1.76184143642568 -1.6118744055377405 2.469036817550659 True False
14551.644 2.722411632537842 -1.05605103195224 1.2410014311419886 -1.7618962726988734 -1.611340347920553 2.463937997817993 True False
14551.663999999999 2.7205634117126465 -1.0566911858371277 1.2418378035174769 -1.7620207271971644 -1.6107137838946741 2.4588205814361572 True False
14551.684 2.718898296356201 -1.0573979181102295 1.24266225496401 -1.7621237240233363 -1.6101887861834925 2.4538025856018066 True False
14551.704 2.7171056270599365 -1.0580311578563233 1.2434747854815882 -1.7622000179686488 -1.609586540852682 2.4486820697784424 True False
14551.724 2.715384006500244 -1.0586605829051514 1.2443049589740198 -1.7622910938658656 -1.6090644041644495 2.443655014038086 True False
14551.743999999999 2.7136154174804688 -1.0592394036105652 1.24510366121401 -1.7623793087401332 -1.6083434263812464 2.438565731048584 True False
14551.764 2.7119534015655518 -1.0598570269397278 1.2459014097796839 -1.7624713383116664 -1.6078012625323694 2.4336748123168945 True False
14551.784 2.7102577686309814 -1.0605191153338929 1.246645752583639 -1.7626186809935511 -1.6072834173785608 2.4287667274475098 True False
14551.804 2.7085015773773193 -1.0610647362521668 1.2474845091449183 -1.762674470941061 -1.6066930929767054 2.423933267593384 True False
14551.823999999999 2.7068593502044678 -1.0617635411075135 1.2482875029193323 -1.7627421818175257 -1.6060870329486292 2.419079065322876 True False
14551.844 2.7052805423736572 -1.0622895520976563 1.2490814367877405 -1.7628776035704554 -1.605525318776266 2.4142961502075195 True False
14551.864 2.7036545276641846 -1.0629570049098511 1.2498663107501429 -1.7629372082152308 -1.6049993673907679 2.4094388484954834 True False
14551.884 2.7019786834716797 -1.0635447067073365 1.2506683508502405 -1.7631055317320765 -1.6044653097735804 2.404736280441284 True False
14551.903999999999 2.7003791332244873 -1.0641126793674012 1.2514436880694788 -1.763132711450094 -1.6039956251727503 2.400104522705078 True False
14551.923999999999 2.698747396469116 -1.064640538101532 1.2521799246417444 -1.763188978234762 -1.6034048239337366 2.395475149154663 True False
14551.944 2.697111129760742 -1.065255121593811 1.2529318968402308 -1.7633205852904261 -1.6029027144061487 2.390881299972534 True False
14551.964 2.695575714111328 -1.0658236306956788 1.2536686102496546 -1.7633916340269984 -1.6023367086993616 2.386322259902954 True False
14551.983999999999 2.6940817832946777 -1.0664609235576172 1.2543919722186487 -1.7634598217406214 -1.6018555800067347 2.3817107677459717 True False
14552.003999999999 2.6924774646759033 -1.0669990938952942 1.2551072279559534 -1.7635637722411097 -1.6012652556048792 2.37715482711792 True False
14552.024 2.6908698081970215 -1.0676323932460328 1.255862061177389 -1.7636033497252406 -1.6008113066302698 2.3727171421051025 True False
14552.044 2.689419984817505 -1.0682408970645447 1.2565668264972132 -1.763743063012594 -1.6003292242633265 2.368368625640869 True False
14552.063999999998 2.687889814376831 -1.0687161845019837 1.2573860327350062 -1.7638308010497035 -1.5998027960406702 2.363999605178833 True False
14552.083999999999 2.6863670349121094 -1.069216565494873 1.2580836454974573 -1.7639066181578578 -1.599316422139303 2.359659433364868 True False
14552.104 2.684847831726074 -1.0698237580112 1.2587607542621058 -1.7639948330321253 -1.5987990538226526 2.355391025543213 True False
14552.124 2.6834230422973633 -1.0703770083240052 1.2593730131732386 -1.7639900646605433 -1.5982845465289515 2.3510549068450928 True False
14552.144 2.6819682121276855 -1.0708863896182557 1.2601202170001429 -1.7641450367369593 -1.597842041646139 2.3467535972595215 True False
14552.163999999999 2.680504322052002 -1.0713599783233185 1.2607806364642542 -1.7642132244505824 -1.5973718802081507 2.3425657749176025 True False
14552.184 2.67907452583313 -1.0719190400889893 1.2614291349994105 -1.7643171749510707 -1.5968573729144495 2.338494062423706 True False
14552.204 2.6775944232940674 -1.0724677306464692 1.2621343771563929 -1.7644053898253382 -1.5964234511004847 2.3342864513397217 True False
14552.224 2.6762452125549316 -1.073004887705185 1.2628052870379847 -1.7644568882384242 -1.595936123524801 2.33035945892334 True False
14552.243999999999 2.6748249530792236 -1.0735363525203248 1.2634413878070276 -1.7645327053465785 -1.5954344908343714 2.3262441158294678 True False
14552.264 2.6734495162963867 -1.0739715260318299 1.264106575642721 -1.7645918331541957 -1.5949972311602991 2.3222227096557617 True False
14552.284 2.6721203327178955 -1.0745752316764374 1.2647598425494593 -1.764684339562887 -1.5945022741900843 2.318216562271118 True False
14552.304 2.670729637145996 -1.0750130873969574 1.2653692404376429 -1.7646995983519496 -1.5940797964679163 2.31427264213562 True False
14552.323999999999 2.6693735122680664 -1.075557903652527 1.2659671942340296 -1.7648269138731898 -1.593621555958883 2.3103761672973633 True False
14552.344 2.6681039333343506 -1.0760004681399842 1.2665718237506312 -1.7648912868895472 -1.5932233969317835 2.3065638542175293 True False
14552.364 2.6667447090148926 -1.0764248830131073 1.267242733632223 -1.7649876079955042 -1.5927885214435022 2.3027145862579346 True False
14552.384 2.665409564971924 -1.0769339364818116 1.267855469380514 -1.7650147877135218 -1.5923545996295374 2.2989721298217773 True False
14552.403999999999 2.664158344268799 -1.0774340492537995 1.2684600988971155 -1.7651025257506312 -1.5918882528888147 2.2953009605407715 True False
14552.423999999999 2.6629085540771484 -1.077902303343155 1.2691000143634241 -1.765142103234762 -1.5914533774005335 2.291524648666382 True False
14552.444 2.661607503890991 -1.0783580106547852 1.2696259657489222 -1.7652422390379847 -1.5910280386554163 2.287853956222534 True False
14552.464 2.6603682041168213 -1.0788595837405701 1.2702863852130335 -1.7653380833067835 -1.590656582509176 2.284184694290161 True False
14552.483999999999 2.6591694355010986 -1.0792513948730011 1.2708986441241663 -1.7654057941832484 -1.5902422110186976 2.280545711517334 True False
14552.503999999999 2.6578686237335205 -1.0796452027610322 1.2715323607074183 -1.7653776607909144 -1.5898154417621058 2.2770590782165527 True False
14552.524 2.6566555500030518 -1.0801475209048768 1.2720840612994593 -1.765489240685934 -1.5894454161273401 2.273566246032715 True False
14552.544 2.655452251434326 -1.0805320602706452 1.2726038138019007 -1.7655650577940882 -1.5889986197101038 2.270106077194214 True False
14552.563999999998 2.6543047428131104 -1.0810464483550568 1.2730849424945276 -1.765592714349264 -1.588571850453512 2.266625165939331 True False
14552.583999999999 2.653125524520874 -1.081520603304245 1.2736809889422815 -1.7657090626158656 -1.5882294813739222 2.263282299041748 True False
14552.604 2.6519415378570557 -1.081922785644867 1.2742188612567347 -1.7657844028868617 -1.5877874533282679 2.2598743438720703 True False
14552.624 2.6508193016052246 -1.0822828275016327 1.2748258749591272 -1.7658006153502406 -1.5874164740191858 2.256516933441162 True False
14552.644 2.6497178077697754 -1.0827614826015015 1.2752693335162562 -1.7658716640868128 -1.5870979467975062 2.25321102142334 True False
14552.663999999999 2.6485698223114014 -1.0831800562194367 1.2758148352252405 -1.7659555874266566 -1.5866711775409144 2.2499678134918213 True False
14552.684 2.6474640369415283 -1.0835718673518677 1.2763827482806605 -1.765975137750143 -1.586336914693014 2.2467660903930664 True False
14552.704 2.6463654041290283 -1.0839964014342804 1.2768681685077112 -1.7660395107665003 -1.5859735647784632 2.243621349334717 True False
14552.724 2.645211696624756 -1.084397093658783 1.2774179617511194 -1.7661153278746546 -1.5855634848224085 2.240473747253418 True False
14552.743999999999 2.6442432403564453 -1.0847482246211548 1.2779186407672327 -1.7661024532713832 -1.5852206389056605 2.237447500228882 True False
14552.764 2.6431126594543457 -1.0851742190173645 1.2784994284259241 -1.7662350140013636 -1.5848944822894495 2.2343552112579346 True False
14552.784 2.6420934200286865 -1.0855702620795746 1.2789362112628382 -1.7662822208800257 -1.5845754782306116 2.2313241958618164 True False
14552.804 2.6410906314849854 -1.0859082502177735 1.279426399861471 -1.7663465938963832 -1.58417255083193 2.228283643722534 True False
14552.823999999999 2.6399857997894287 -1.0862978261760254 1.279860798512594 -1.7664300403990687 -1.5838783423053187 2.22540283203125 True False
14552.844 2.639040470123291 -1.086624340420105 1.280301872883932 -1.766409536401266 -1.5835393110858362 2.2224154472351074 True False
14552.864 2.6380534172058105 -1.0869812232306977 1.2808082739459437 -1.7664934597411097 -1.583184067402975 2.2195279598236084 True False
14552.884 2.637017250061035 -1.087397740488388 1.2813323179828089 -1.7665702305235804 -1.582865063344137 2.216644763946533 True False
14552.903999999999 2.6360297203063965 -1.087721900348999 1.2817495504962366 -1.7666179142394007 -1.5825985113727015 2.2139179706573486 True False
14552.923999999999 2.6351091861724854 -1.0880291622928162 1.282224480305807 -1.7666732273497523 -1.582259480153219 2.211190938949585 True False
14552.944 2.634228229522705 -1.0883815747550507 1.2826984564410608 -1.7667132816710414 -1.5818770567523401 2.2084715366363525 True False
14552.964 2.6332645416259766 -1.0887379807284852 1.2831199804889124 -1.7667933903136195 -1.5817020575152796 2.2057995796203613 True False
14552.983999999999 2.6323697566986084 -1.0890697699836274 1.2834842840777796 -1.766808649102682 -1.581322971974508 2.203104257583618 True False
14553.003999999999 2.631530523300171 -1.0894015592387696 1.2839754263507288 -1.7668725452818812 -1.5809763113604944 2.2005767822265625 True False
14553.024 2.630547523498535 -1.089708076124527 1.2844346205340784 -1.7668677769102992 -1.5806811491595667 2.1979000568389893 True False
14553.044 2.629624366760254 -1.0900456768325348 1.2848528067218226 -1.7669569454588832 -1.5804303328143519 2.19535493850708 True False
14553.063999999998 2.628833293914795 -1.0904232424548645 1.2852395216571253 -1.7670484981932582 -1.5801318327533167 2.1928977966308594 True False
14553.083999999999 2.6279850006103516 -1.0906654757312317 1.2856000105487269 -1.767019887963766 -1.5798643271075647 2.190460205078125 True False
14553.104 2.6271309852600098 -1.0910681945136567 1.2860363165484827 -1.7670437298216761 -1.5796054045306605 2.1879541873931885 True False
14553.124 2.6262917518615723 -1.0913354617408295 1.2863872686969202 -1.7671719990172328 -1.5792654196368616 2.1855759620666504 True False
14553.144 2.625558853149414 -1.0916071397117157 1.2867143789874476 -1.7672072849669398 -1.5790579954730433 2.183281898498535 True False
14553.163999999999 2.6247048377990723 -1.0918329817107697 1.2870939413653772 -1.7672106228270472 -1.5787704626666468 2.181000232696533 True False
14553.184 2.6239781379699707 -1.0922176402858277 1.287518326436178 -1.7671901188292445 -1.5785110632525843 2.1787331104278564 True False
14553.204 2.6231627464294434 -1.0924509328654786 1.2878811995135706 -1.7672625980772914 -1.5782435576068323 2.176576614379883 True False
14553.224 2.6223716735839844 -1.0927421015552063 1.288264576588766 -1.7673827610411585 -1.5779994169818323 2.1743080615997314 True False
14553.243999999999 2.621631622314453 -1.093022571211197 1.288600269948141 -1.767374654809469 -1.5777314344989222 2.1721367835998535 True False
14553.264 2.6209781169891357 -1.0932835799506684 1.2889931837665003 -1.7674428425230921 -1.5774720350848597 2.170063018798828 True False
14553.284 2.620128631591797 -1.0935170215419312 1.2892826239215296 -1.767498632470602 -1.5772884527789515 2.167975664138794 True False
14553.304 2.6194872856140137 -1.0938401085189362 1.2896812597857874 -1.7675305805602015 -1.5770366827594202 2.165884256362915 True False
14553.323999999999 2.6188595294952393 -1.0940134090236207 1.2899439970599573 -1.7675825558104457 -1.5767448584186 2.1638710498809814 True False
14553.344 2.618173122406006 -1.0943529468825837 1.2902753988849085 -1.767573972741598 -1.576613728200094 2.1619319915771484 True False
14553.364 2.617452383041382 -1.094546840792038 1.290600601826803 -1.7676259479918421 -1.5763376394854944 2.160032033920288 True False
14553.384 2.61684250831604 -1.0948156279376526 1.2908662001239222 -1.7676540813841761 -1.576197926198141 2.1580636501312256 True False
14553.403999999999 2.6161818504333496 -1.0950065118125458 1.291210953389303 -1.7676946125426234 -1.5759299437152308 2.156219720840454 True False
14553.423999999999 2.6155552864074707 -1.0952555996230622 1.2915361563311976 -1.767705579797262 -1.5757463614093226 2.154412269592285 True False
14553.444 2.6149110794067383 -1.0954803389361878 1.2918151060687464 -1.767745157281393 -1.5755427519427698 2.1526618003845215 True False
14553.464 2.6143851280212402 -1.0957342249206086 1.2920745054828089 -1.7677775822081507 -1.5753548781024378 2.150913715362549 True False
14553.483999999999 2.6137256622314453 -1.095866010790207 1.2923291365252894 -1.7678295574583949 -1.5751031080829065 2.1491734981536865 True False
14553.503999999999 2.61318039894104 -1.0960663718036194 1.2926142851458948 -1.7678891621031703 -1.5749509970294397 2.147526264190674 True False
14553.524 2.6125943660736084 -1.0963368576816102 1.2928903738604944 -1.7679492435851039 -1.5747717062579554 2.1459381580352783 True False
14553.544 2.612078905105591 -1.0965122443488617 1.2931492964373987 -1.7679053745665492 -1.5745719114886683 2.1443467140197754 True False
14553.563999999998 2.611530303955078 -1.0967362386039277 1.2933862845050257 -1.7679411373534144 -1.5744002501117151 2.1428604125976562 True False
14553.583999999999 2.6110165119171143 -1.0968803328326722 1.2935846487628382 -1.7679769001402796 -1.5741761366473597 2.1412484645843506 True False
14553.604 2.610491991043091 -1.097084329729416 1.293854061757223 -1.7679769001402796 -1.574024502431051 2.1397855281829834 True False
14553.624 2.6100215911865234 -1.0972852569869538 1.2940853277789515 -1.768041273156637 -1.5738847891436976 2.1383650302886963 True False
14553.644 2.609485387802124 -1.0974611204913636 1.2943056265460413 -1.7680450878539027 -1.573733154927389 2.136964797973633 True False
14553.663999999999 2.6089963912963867 -1.0976528090289612 1.2945287863360804 -1.768092771569723 -1.573517147694723 2.1355643272399902 True False
14553.684 2.6086161136627197 -1.0978080493262787 1.2947281042682093 -1.7680961094298304 -1.5733893553363245 2.1342718601226807 True False
14553.704 2.608170986175537 -1.0979763728431244 1.2949112097369593 -1.7681085071959437 -1.5732610861407679 2.1329216957092285 True False
14553.724 2.6076736450195312 -1.098166213636734 1.2951644102679651 -1.7681123218932093 -1.5731256643878382 2.1317222118377686 True False
14553.743999999999 2.6072583198547363 -1.0982702833465119 1.2953441778766077 -1.76818909267568 -1.5729978720294397 2.1305091381073 True False
14553.764 2.606937885284424 -1.0984441500953217 1.2954795996295374 -1.7681557140746058 -1.5728538672076624 2.12925386428833 True False
14553.784 2.606509208679199 -1.0986312192729493 1.295753304158346 -1.7682157955565394 -1.5727461020099085 2.1281938552856445 True False
14553.804 2.6061136722564697 -1.098721371298172 1.2959054152118128 -1.76820768932485 -1.5725706259356897 2.1271138191223145 True False
14553.823999999999 2.6057584285736084 -1.0988521736911316 1.296046559010641 -1.7681919536986292 -1.572503391896383 2.1259920597076416 True False
14553.844 2.6053566932678223 -1.0989887875369568 1.296232048665182 -1.7682520351805628 -1.5723713080035608 2.1249701976776123 True False
14553.864 2.6050302982330322 -1.099118248825409 1.2963703314410608 -1.768320699731344 -1.5722149054156702 2.1240084171295166 True False
14553.884 2.6047019958496094 -1.09923409045253 1.296563450490133 -1.7682630024352015 -1.572139088307516 2.1230382919311523 True False
14553.903999999999 2.6044023036956787 -1.0992755454829712 1.2966621557818812 -1.768344064752096 -1.572014633809225 2.1221044063568115 True False
14553.923999999999 2.604098081588745 -1.099421278839447 1.2968481222735804 -1.7683359585204066 -1.5718916098224085 2.1212501525878906 True False
14553.944 2.6038103103637695 -1.0995333951762696 1.2969802061664026 -1.7683640919127406 -1.5718477408038538 2.1203880310058594 True False
14553.964 2.603548288345337 -1.099666104917862 1.2971165815936487 -1.768367429772848 -1.5717476050006312 2.119652032852173 True False
14553.983999999999 2.6033174991607666 -1.0997374814799805 1.2972233931170862 -1.7684041462340296 -1.5716598669635218 2.1188278198242188 True False
14554.003999999999 2.6030750274658203 -1.0997964304736634 1.2973592917071741 -1.7683879337706507 -1.5715683142291468 2.1181018352508545 True False
14554.024 2.602797508239746 -1.0999698799899598 1.2974837462054651 -1.7683798275389613 -1.5715082327472132 2.1174771785736084 True False
14554.044 2.602602958679199 -1.1000835758498688 1.297579590474264 -1.7683912716307582 -1.5713956991778772 2.116892099380493 True False
14554.063999999998 2.6023330688476562 -1.1000574094108124 1.2976506392108362 -1.7684680424132289 -1.571331802998678 2.116162061691284 True False
14554.083999999999 2.6021997928619385 -1.1002151531032105 1.2977703253375452 -1.7684632740416468 -1.5712478796588343 2.1155877113342285 True False
14554.104 2.6020259857177734 -1.1001832646182557 1.2978170553790491 -1.76845182994985 -1.5712044874774378 2.1151397228240967 True False
14554.124 2.601787805557251 -1.1003102225116272 1.2979181448565882 -1.7684513531126917 -1.571188751851217 2.114647626876831 True False
14554.144 2.6017231941223145 -1.1002755028060456 1.2980354467975062 -1.7684828243651332 -1.5711248556720179 2.114198923110962 True False
14554.163999999999 2.6015539169311523 -1.1003898245147248 1.2980626265155237 -1.7684551678099574 -1.5710485617267054 2.1137869358062744 True False
14554.184 2.6014368534088135 -1.1004748207381745 1.2981303373919886 -1.7684594593443812 -1.5709393660174769 2.1133222579956055 True False
14554.204 2.601356267929077 -1.1005393129638215 1.298194710408346 -1.7684914074339808 -1.57098895708193 2.1129915714263916 True False
14554.224 2.601236343383789 -1.1005337995341797 1.298267666493551 -1.7684914074339808 -1.570892635975973 2.112708806991577 True False
14554.243999999999 2.6011643409729004 -1.1005657476237793 1.2982786337481897 -1.7684995136656703 -1.5709174315081995 2.112462043762207 True False
14554.264 2.6010429859161377 -1.1006387633136292 1.2983101050006312 -1.7685595951476039 -1.5708850065814417 2.1122429370880127 True False
14554.284 2.6009936332702637 -1.1006258589080353 1.2983430067645472 -1.7685071430602015 -1.57082444826235 2.112039566040039 True False
14554.304 2.6008734703063965 -1.1006615620902558 1.2983744780169886 -1.7685314617552699 -1.5708525816546839 2.1118903160095215 True False
14554.323999999999 2.600900650024414 -1.100657270555832 1.298398796712057 -1.7684952221312464 -1.5708492437945765 2.1118643283843994 True False
14554.344 2.6008481979370117 -1.100641058092453 1.298450771962301 -1.7685309849181117 -1.5708850065814417 2.1117775440216064 True False
14554.364 2.6008031368255615 -1.1006864172271271 1.2984302679644983 -1.7684952221312464 -1.570784870778219 2.111786365509033 True False
14554.384 2.6007792949676514 -1.1006735426238556 1.2984593550311487 -1.768503328362936 -1.5708406607257288 2.111708402633667 True False
14554.403999999999 2.6008048057556152 -1.1007066530040284 1.2984378973590296 -1.7685586414732875 -1.5707805792437952 2.111643075942993 True False
14554.423999999999 2.6008121967315674 -1.1006528300097962 1.2985098997699183 -1.7687307796873988 -1.5707767645465296 2.111668109893799 True False
14554.444 2.600752353668213 -1.1006858807853241 1.2986105124102991 -1.7688375912108363 -1.5708168188678187 2.11165189743042 True False
14554.464 2.600825786590576 -1.100636587744095 1.2986891905414026 -1.768961092034811 -1.570801083241598 2.1116325855255127 True False
14554.483999999999 2.6008121967315674 -1.1006484788707276 1.2988904158221644 -1.7691928348936976 -1.5707891623126429 2.1116249561309814 True False
14554.503999999999 2.6007299423217773 -1.1006334585002442 1.299051586781637 -1.7694245777525843 -1.5707805792437952 2.111558437347412 True False
14554.524 2.600768804550171 -1.1005814236453553 1.299218479787008 -1.7695838413634242 -1.5707610289203089 2.1115880012512207 True False
14554.544 2.6008002758026123 -1.100488768225052 1.299422566090719 -1.7698785267271937 -1.5707967917071741 2.1115715503692627 True False
14554.563999999998 2.600767135620117 -1.1003811818412323 1.2996776739703577 -1.7701941929259242 -1.5707486311541956 2.111623525619507 True False
14554.583999999999 2.6007747650146484 -1.1002658170512696 1.2999423185931605 -1.7706128559508265 -1.570784870778219 2.1115715503692627 True False
14554.604 2.600755214691162 -1.1001170140555878 1.3001540342914026 -1.7710916004576625 -1.5707686583148401 2.1115922927856445 True False
14554.624 2.600797414779663 -1.099927769308426 1.300467316304342 -1.7714811764159144 -1.570813004170553 2.111595392227173 True False
14554.644 2.600722074508667 -1.099728838806488 1.3008111158954065 -1.7720209560790003 -1.5708335081683558 2.1115760803222656 True False
14554.663999999999 2.6007792949676514 -1.0995540183833619 1.3011739889727991 -1.7724386654295863 -1.5707805792437952 2.1116325855255127 True False
14554.684 2.6007626056671143 -1.0994551640800019 1.3015654722796839 -1.7730094395079554 -1.5708048979388636 2.111599922180176 True False
14554.704 2.6007580757141113 -1.0992897909930726 1.3020265738116663 -1.7735668621458949 -1.5707967917071741 2.1115965843200684 True False
14554.724 2.6007297039031982 -1.0990488690188904 1.3024418989764612 -1.7742086849608363 -1.5708487669574183 2.11161732673645 True False
14554.743999999999 2.60079288482666 -1.0988417130759736 1.302908722554342 -1.7749115429320277 -1.570784870778219 2.1116085052490234 True False
14554.764 2.600738763809204 -1.0986006420901795 1.3033917585956019 -1.7755934200682582 -1.5708044211017054 2.1115760803222656 True False
14554.784 2.600776195526123 -1.098397122030594 1.3039563337909144 -1.776302000085348 -1.57074481645693 2.1116085052490234 True False
14554.804 2.6007838249206543 -1.0981486302665253 1.304516617451803 -1.7771078548827113 -1.5707362333880823 2.1116204261779785 True False
14554.823999999999 2.60077166557312 -1.097879098062851 1.30511981645693 -1.7780686817564906 -1.5708168188678187 2.1116204261779785 True False
14554.844 2.600767135620117 -1.0976690214923401 1.3057521025287073 -1.7789412937560023 -1.5708048979388636 2.11161732673645 True False
14554.864 2.600767135620117 -1.0973929327777405 1.3062790075885218 -1.7797872028746546 -1.5707767645465296 2.1116204261779785 True False
14554.884 2.600780725479126 -1.0971456629088898 1.3069952170001429 -1.7806397877135218 -1.57074481645693 2.1115880012512207 True False
14554.903999999999 2.6007792949676514 -1.096840189104416 1.307655159627096 -1.7817207775511683 -1.5707648436175745 2.1116695404052734 True False
14554.923999999999 2.6007583141326904 -1.0965565007976075 1.308359448109762 -1.7826773128905238 -1.570801083241598 2.111605405807495 True False
14554.944 2.60074782371521 -1.0962228339961548 1.309108082448141 -1.7836700878539027 -1.5708168188678187 2.111633777618408 True False
14554.964 2.6007299423217773 -1.0961044889739533 1.3093412558185022 -1.7840119800963343 -1.5708168188678187 2.1115846633911133 True False
14554.985999999999 2.600759744644165 -1.0961959821036835 1.3092907110797327 -1.783964296380514 -1.5708048979388636 2.1116411685943604 True False
14555.006 2.600776195526123 -1.0962459307960053 1.3092864195453089 -1.7839724026122035 -1.5707529226886194 2.111639976501465 True False
14555.026 2.6007463932037354 -1.0962264698794861 1.3093212286578577 -1.7839843235411585 -1.570772949849264 2.111558437347412 True False
14555.045999999998 2.6007838249206543 -1.0962447387031098 1.309282128010885 -1.7839962444701136 -1.570824925099508 2.1115803718566895 True False
14555.065999999999 2.600750684738159 -1.0961678189090271 1.3093178907977503 -1.783940931359762 -1.5707925001727503 2.111579179763794 True False
14555.086 2.600813627243042 -1.0959080320647736 1.3097103277789515 -1.783924242059225 -1.5708335081683558 2.111623764038086 True False
14555.106 2.6007883548736572 -1.095074163084366 1.3109305540667933 -1.7835294208922328 -1.5708373228656214 2.111635684967041 True False
14555.126 2.600767135620117 -1.0942477148822327 1.3125231901751917 -1.7824961147704066 -1.5707767645465296 2.111635684967041 True False
14555.145999999999 2.6007344722747803 -1.0943397146514435 1.3142698446856897 -1.7812806568541468 -1.570801083241598 2.111684560775757 True False
14555.166 2.600876569747925 -1.0942909878543396 1.3148277441607874 -1.7802120647826136 -1.5707891623126429 2.111647605895996 True False
14555.186 2.600874423980713 -1.0942940574935456 1.3149274031268519 -1.7791601620116175 -1.5708149115191858 2.1116580963134766 True False
14555.206 2.6008388996124268 -1.094443069105484 1.314681355153219 -1.7782989941039027 -1.5708144346820276 2.1116819381713867 True False
14555.225999999999 2.600867509841919 -1.094323681001999 1.3148306051837366 -1.7769104442992152 -1.5707843939410608 2.1116695404052734 True False
14555.246 2.600795269012451 -1.094317690735199 1.3148306051837366 -1.77539124111318 -1.5708077589618128 2.111699104309082 True False
14555.266 2.600867748260498 -1.0943660002997895 1.3147228399859827 -1.774435659448141 -1.5707672278033655 2.1117236614227295 True False
14555.286 2.600843667984009 -1.094305769806244 1.314819637929098 -1.773271223107809 -1.5708320776568812 2.1116819381713867 True False
14555.305999999999 2.6008920669555664 -1.0943115812591095 1.3147771994220179 -1.7720347843565882 -1.5707553068744105 2.1117103099823 True False
14555.326 2.600856065750122 -1.0943295818618317 1.3147590796100062 -1.7709905109801234 -1.5708025137530726 2.1116456985473633 True False
14555.346 2.6008617877960205 -1.0942877990058442 1.3148968855487269 -1.770578523675436 -1.5707853476153772 2.1116397380828857 True False
14555.366 2.6008493900299072 -1.0943721395782013 1.314789120350973 -1.7706085644164027 -1.5707672278033655 2.1116697788238525 True False
14555.385999999999 2.6008565425872803 -1.0944071871093293 1.3147895971881312 -1.7706271610655726 -1.570815388356344 2.1116690635681152 True False
14555.405999999999 2.600867748260498 -1.0943902295878907 1.3147957960711878 -1.770613809625143 -1.5708211104022425 2.111675500869751 True False
14555.426 2.600879669189453 -1.094341592197754 1.3147710005389612 -1.7705842457213343 -1.5707853476153772 2.111687421798706 True False
14555.446 2.6008501052856445 -1.0942878884128113 1.3148253599749964 -1.7706381283202113 -1.5707791487323206 2.1116394996643066 True False
14555.465999999999 2.600837469100952 -1.0942629736712952 1.3147652784930628 -1.7706433735289515 -1.5708330313311976 2.111663818359375 True False
14555.485999999999 2.6008312702178955 -1.0943721991828461 1.3147590796100062 -1.7706085644164027 -1.5708144346820276 2.111711025238037 True False
14555.506 2.600831985473633 -1.0943174225142975 1.3148191610919397 -1.7706200085081996 -1.570784870778219 2.1116697788238525 True False
14555.526 2.600856065750122 -1.0943114918521424 1.3148253599749964 -1.7706142864623011 -1.5708449522601526 2.1116998195648193 True False
14555.545999999998 2.600843667984009 -1.0943293136409302 1.3147771994220179 -1.7706152401366175 -1.5708025137530726 2.1116936206817627 True False
14555.565999999999 2.6008129119873047 -1.0943117898753663 1.3148072401629847 -1.7705542049803675 -1.5708025137530726 2.1116697788238525 True False
14555.586 2.6008315086364746 -1.0943537515452881 1.3147943655597132 -1.7705966434874476 -1.5707910696612757 2.111651659011841 True False
14555.606 2.600813388824463 -1.0943472248366852 1.3147533575641077 -1.7705728016295375 -1.5707724730121058 2.1117050647735596 True False
14555.626 2.600837469100952 -1.0943228167346497 1.3148191610919397 -1.7705728016295375 -1.5707553068744105 2.1117117404937744 True False
14555.645999999999 2.6008379459381104 -1.0942987662604828 1.3147648016559046 -1.7705961666502894 -1.5708144346820276 2.1117117404937744 True False
14555.666 2.6008617877960205 -1.0942936104587098 1.3148496786700647 -1.7706142864623011 -1.5708273092852991 2.1117053031921387 True False
14555.686 2.6008503437042236 -1.0943115514567872 1.3148253599749964 -1.7706386051573695 -1.5707791487323206 2.111663579940796 True False
14555.706 2.6008920669555664 -1.0943778318217774 1.3147719542132776 -1.7706085644164027 -1.5707972685443323 2.111651659011841 True False
14555.725999999999 2.6008074283599854 -1.0943536323359986 1.3148558775531214 -1.7705780468382777 -1.570803467427389 2.111711263656616 True False
14555.746 2.6008434295654297 -1.0943056505969544 1.314801041279928 -1.7706319294371546 -1.5708029905902308 2.1116573810577393 True False
14555.766 2.6008312702178955 -1.0943594437888642 1.3148744742022913 -1.7706147632994593 -1.570749584828512 2.1116394996643066 True False
14555.786 2.600825548171997 -1.0943057102015992 1.314843479787008 -1.7705360851683558 -1.5707734266864222 2.111693859100342 True False
14555.805999999999 2.6008493900299072 -1.0942886632731934 1.314831558858053 -1.7705961666502894 -1.5708149115191858 2.1116578578948975 True False
14555.826 2.600825786590576 -1.0942987662604828 1.314782444630758 -1.7705909214415492 -1.5708206335650843 2.1117303371429443 True False
14555.846 2.6009161472320557 -1.0943058294108887 1.3148253599749964 -1.7705723247923792 -1.5708029905902308 2.1116931438446045 True False
14555.866 2.6008198261260986 -1.0943658214858552 1.314789120350973 -1.770644327203268 -1.5708025137530726 2.111717939376831 True False
14555.885999999999 2.600825786590576 -1.0942935806563874 1.3148201147662562 -1.7705961666502894 -1.5707910696612757 2.111687183380127 True False
14555.905999999999 2.6008379459381104 -1.0942814511111756 1.3148496786700647 -1.7705966434874476 -1.5707381407367151 2.111663818359375 True False
14555.926 2.6008617877960205 -1.0943831962398072 1.314789120350973 -1.770609041253561 -1.570754353200094 2.111736297607422 True False
14555.946 2.6008920669555664 -1.0943294924548645 1.3148077170001429 -1.7705608807005824 -1.5708330313311976 2.111633539199829 True False
14555.965999999999 2.6009161472320557 -1.09435327470813 1.3148558775531214 -1.7706381283202113 -1.5707967917071741 2.111687660217285 True False
14555.985999999999 2.6008501052856445 -1.0942998689464112 1.3147948423968714 -1.7705775700011195 -1.5708149115191858 2.111729621887207 True False
14556.006 2.6008858680725098 -1.0942935806563874 1.314801041279928 -1.7705899677672328 -1.5708263556109827 2.111687660217285 True False
14556.026 2.6008193492889404 -1.094293550854065 1.3148134390460413 -1.7706262073912562 -1.5708096663104456 2.1116819381713867 True False
14556.045999999998 2.600874662399292 -1.0943527084640046 1.314831558858053 -1.7706433735289515 -1.5708273092852991 2.1117844581604004 True False
14556.065999999999 2.600825548171997 -1.0943295818618317 1.3148067633258265 -1.770555158654684 -1.5707858244525355 2.111693859100342 True False
14556.086 2.600843667984009 -1.0943234723857422 1.314747158681051 -1.770644327203268 -1.5707123915301722 2.1116702556610107 True False
14556.106 2.600844144821167 -1.0942705434611817 1.3148191610919397 -1.7705546818175257 -1.5707967917071741 2.111693859100342 True False
14556.126 2.600813388824463 -1.0943054419806977 1.3147762457477015 -1.770585676232809 -1.5707433859454554 2.111663579940796 True False
14556.145999999999 2.6008493900299072 -1.0942755502513428 1.3148191610919397 -1.7705842457213343 -1.5708206335650843 2.1117467880249023 True False
14556.166 2.6008384227752686 -1.09431807816539 1.3148310820208948 -1.770625730554098 -1.5708029905902308 2.1117117404937744 True False
14556.186 2.600867748260498 -1.0943722885898133 1.3148368040667933 -1.7706500492491664 -1.5707610289203089 2.111687660217285 True False
14556.206 2.6007955074310303 -1.0943418604186554 1.3147953192340296 -1.7705971203246058 -1.5707910696612757 2.111699104309082 True False
14556.225999999999 2.6008362770080566 -1.094352976684906 1.3148253599749964 -1.7705899677672328 -1.570761505757467 2.1116697788238525 True False
14556.246 2.600813388824463 -1.0943173331073304 1.314812962208883 -1.7705661259093226 -1.5708258787738245 2.111651659011841 True False
14556.266 2.600843667984009 -1.094293550854065 1.3148191610919397 -1.7706252537169398 -1.5707672278033655 2.1116936206817627 True False
14556.286 2.600843667984009 -1.0943646293929596 1.3148067633258265 -1.7705847225584925 -1.5707371870623987 2.1116933822631836 True False
14556.305999999999 2.6008493900299072 -1.0943234127810975 1.3148191610919397 -1.7705728016295375 -1.5707843939410608 2.111651659011841 True False
14556.326 2.600837469100952 -1.09431146204982 1.3148253599749964 -1.7706505260863246 -1.5708206335650843 2.111711263656616 True False
14556.346 2.6008851528167725 -1.0943056505969544 1.3148310820208948 -1.7705723247923792 -1.5708263556109827 2.111717462539673 True False
14556.366 2.6008071899414062 -1.0943778318217774 1.3147829214679163 -1.770625730554098 -1.5707905928241175 2.111651659011841 True False
14556.385999999999 2.600837469100952 -1.0943353337100525 1.3148134390460413 -1.770602365533346 -1.5707724730121058 2.1117353439331055 True False
14556.405999999999 2.6008245944976807 -1.0943287175944825 1.3147528807269495 -1.7706743679442347 -1.5707672278033655 2.1116816997528076 True False
14556.426 2.600837469100952 -1.0943115514567872 1.3147838751422327 -1.770567079583639 -1.570820156727926 2.111687660217285 True False
14556.446 2.600856065750122 -1.0943115812591095 1.3147829214679163 -1.770590444604391 -1.5708077589618128 2.1116530895233154 True False
14556.465999999999 2.6008126735687256 -1.0942698282054444 1.314862076436178 -1.7705966434874476 -1.5707910696612757 2.1117541790008545 True False
14556.485999999999 2.6008617877960205 -1.094287471180298 1.314812962208883 -1.770609041253561 -1.5707967917071741 2.1117422580718994 True False
14556.506 2.600813388824463 -1.0943234425834198 1.3147829214679163 -1.7706676922240199 -1.5708087126361292 2.1117284297943115 True False
14556.526 2.600794792175293 -1.0942593675902863 1.3148072401629847 -1.770571847955221 -1.5708025137530726 2.1116933822631836 True False
14556.545999999998 2.6008737087249756 -1.0942936104587098 1.3147710005389612 -1.7706567249693812 -1.5708149115191858 2.111645460128784 True False
14556.565999999999 2.6008431911468506 -1.0943238002112885 1.3147409597979944 -1.7706147632994593 -1.5708020369159144 2.1116528511047363 True False
14556.586 2.6008126735687256 -1.0942946535399933 1.3148191610919397 -1.7706381283202113 -1.570772949849264 2.111687660217285 True False
14556.606 2.600879669189453 -1.0943053525737305 1.3148382345782679 -1.7706204853453578 -1.5708382765399378 2.111651659011841 True False
14556.626 2.600879669189453 -1.0943238300136109 1.314831558858053 -1.7705847225584925 -1.5707958380328577 2.1116814613342285 True False
14556.645999999999 2.6008195877075195 -1.094322995548584 1.314831558858053 -1.7706262073912562 -1.5707791487323206 2.1117424964904785 True False
14556.666 2.6008498668670654 -1.0943112534335633 1.3147767225848597 -1.7706319294371546 -1.5708029905902308 2.1117236614227295 True False
14556.686 2.600856065750122 -1.0943176609328766 1.3148372809039515 -1.7706085644164027 -1.5707362333880823 2.1117172241210938 True False
14556.706 2.6008551120758057 -1.0942886036685486 1.314819637929098 -1.7706262073912562 -1.5708087126361292 2.1117115020751953 True False
14556.725999999999 2.6008317470550537 -1.0943054121783753 1.314793888722555 -1.7705966434874476 -1.5708025137530726 2.111663579940796 True False
14556.746 2.600837469100952 -1.0942873519710083 1.314789120350973 -1.7706080875792445 -1.5707972685443323 2.1116812229156494 True False
14556.766 2.6008381843566895 -1.0943000477603455 1.3148253599749964 -1.7705847225584925 -1.570784870778219 2.111663579940796 True False
14556.786 2.600855588912964 -1.094335750942566 1.3147771994220179 -1.770578523675436 -1.570838753377096 2.1116936206817627 True False
14556.805999999999 2.6008617877960205 -1.094299779539444 1.314831558858053 -1.7706133327879847 -1.5707724730121058 2.111741065979004 True False
14556.826 2.6008670330047607 -1.0943298202804108 1.3148191610919397 -1.770656248132223 -1.5707667509662073 2.1116995811462402 True False
14556.846 2.6008858680725098 -1.094311611061432 1.314819637929098 -1.7705842457213343 -1.5707791487323206 2.111729860305786 True False
14556.866 2.6009104251861572 -1.0942934912494202 1.314789120350973 -1.7706557712950648 -1.5707910696612757 2.111706018447876 True False
14556.885999999999 2.600837469100952 -1.0943293434432526 1.3148015181170862 -1.7705847225584925 -1.5708206335650843 2.111687660217285 True False
14556.905999999999 2.600843667984009 -1.0942997497371216 1.3147886435138147 -1.7706319294371546 -1.570772949849264 2.1116695404052734 True False
14556.926 2.600855588912964 -1.0943293136409302 1.3148496786700647 -1.770609041253561 -1.5707319418536585 2.111711263656616 True False
14556.946 2.600832223892212 -1.0943001371673127 1.3147590796100062 -1.7706152401366175 -1.5707553068744105 2.1116511821746826 True False
14556.965999999999 2.6008315086364746 -1.0943057400039216 1.3147895971881312 -1.7705966434874476 -1.5708025137530726 2.1117358207702637 True False
14556.985999999999 2.600879669189453 -1.0943057400039216 1.3147648016559046 -1.770602365533346 -1.5707605520831507 2.111699342727661 True False
14557.006 2.6007955074310303 -1.094382719402649 1.314801041279928 -1.7705441914000453 -1.5707781950580042 2.1116814613342285 True False
14557.026 2.600813388824463 -1.0942934614470978 1.3148568312274378 -1.7706734142699183 -1.5707967917071741 2.1116814613342285 True False
14557.045999999998 2.600879669189453 -1.0943173629096528 1.3148191610919397 -1.7706676922240199 -1.5708625952350062 2.1116878986358643 True False
14557.065999999999 2.6008622646331787 -1.094282792215683 1.31484300294985 -1.7706147632994593 -1.5707910696612757 2.111675500869751 True False
14557.086 2.6008193492889404 -1.0943414729884644 1.3147829214679163 -1.7706314525999964 -1.5707672278033655 2.11167573928833 True False
14557.106 2.600879669189453 -1.0942816001227875 1.3148000876056116 -1.7705546818175257 -1.570815388356344 2.1116762161254883 True False
14557.126 2.6008248329162598 -1.0942884248546143 1.314812962208883 -1.7705608807005824 -1.5707843939410608 2.1116816997528076 True False
14557.145999999999 2.600801706314087 -1.0943357211402436 1.3147714773761194 -1.7705837688841761 -1.570826832448141 2.111687660217285 True False
14557.166 2.600837469100952 -1.0943055015853425 1.3148015181170862 -1.7705961666502894 -1.570772949849264 2.111693859100342 True False
14557.186 2.600886583328247 -1.0943232339671631 1.3148253599749964 -1.7705675564207972 -1.5708025137530726 2.111621379852295 True False
14557.225999999999 2.6008617877960205 -1.094323531990387 1.3148310820208948 -1.77067293743276 -1.5708029905902308 2.1117281913757324 True False
14557.266 2.6008858680725098 -1.0943172735026856 1.3147905508624476 -1.770578523675436 -1.5707605520831507 2.111675500869751 True False
14557.286 2.6008071899414062 -1.0942935210517426 1.314836327229635 -1.7706200085081996 -1.570838753377096 2.111705780029297 True False
14557.305999999999 2.6008124351501465 -1.0943054121783753 1.3148487249957483 -1.7706204853453578 -1.5708325544940394 2.111705780029297 True False
14557.326 2.600825548171997 -1.0942693811706086 1.3148444334613245 -1.7706314525999964 -1.5708020369159144 2.1117055416107178 True False
14557.346 2.6008617877960205 -1.0942933124354859 1.314801041279928 -1.7705728016295375 -1.570815388356344 2.1116936206817627 True False
14557.366 2.600862503051758 -1.0942819875529786 1.3148911635028284 -1.7705728016295375 -1.5708501974688929 2.1116578578948975 True False
14557.385999999999 2.6009345054626465 -1.0942931336215516 1.3148134390460413 -1.7706142864623011 -1.570784870778219 2.111736297607422 True False
14557.405999999999 2.6008317470550537 -1.0943115216544648 1.314796272908346 -1.7706200085081996 -1.5707915464984339 2.1116878986358643 True False
14557.426 2.600848913192749 -1.0943293434432526 1.3148248831378382 -1.770620962182516 -1.5708501974688929 2.1117546558380127 True False
14557.446 2.600825548171997 -1.0943054121783753 1.3148425261126917 -1.7706438503661097 -1.5708449522601526 2.1117236614227295 True False
14557.465999999999 2.6008734703063965 -1.0943176311305542 1.31484300294985 -1.7706495724120082 -1.5707967917071741 2.1116583347320557 True False
14557.485999999999 2.6008803844451904 -1.0942938190749665 1.3148019949542444 -1.7706314525999964 -1.5707486311541956 2.1116816997528076 True False
14557.506 2.600825548171997 -1.0942693215659638 1.3148310820208948 -1.7705842457213343 -1.5708559195147913 2.1117238998413086 True False
14557.526 2.600879669189453 -1.09429423630748 1.3148492018329065 -1.7706147632994593 -1.5708029905902308 2.1116695404052734 True False
14557.545999999998 2.600843906402588 -1.0942879778197785 1.3148730436908167 -1.7706557712950648 -1.5707667509662073 2.1116936206817627 True False
14557.565999999999 2.600825548171997 -1.0943117898753663 1.3148077170001429 -1.7706085644164027 -1.570730988179342 2.1117358207702637 True False
14557.586 2.600832223892212 -1.09430547178302 1.3148258368121546 -1.770567079583639 -1.5708029905902308 2.111729621887207 True False
14557.606 2.6008918285369873 -1.0942408007434388 1.3147652784930628 -1.7706204853453578 -1.570808235798971 2.111736297607422 True False
14557.626 2.600813627243042 -1.094299630527832 1.3148015181170862 -1.7706567249693812 -1.5708020369159144 2.111645460128784 True False
14557.645999999999 2.600813388824463 -1.0943357211402436 1.3147953192340296 -1.7705608807005824 -1.5707972685443323 2.111675977706909 True False
14557.666 2.600836992263794 -1.094336138372757 1.3147833983050745 -1.7706319294371546 -1.570796314870016 2.1116816997528076 True False
14557.686 2.600861072540283 -1.0942757290652771 1.3148077170001429 -1.7706448040404261 -1.5707843939410608 2.1116814613342285 True False
14557.706 2.6008317470550537 -1.0943767589381714 1.3148134390460413 -1.770656248132223 -1.5708206335650843 2.111640691757202 True False
14557.725999999999 2.600862741470337 -1.0942650002292176 1.3148248831378382 -1.7706500492491664 -1.570808235798971 2.111693859100342 True False
14557.746 2.6008079051971436 -1.0942511421493073 1.3148186842547815 -1.770674844781393 -1.570838753377096 2.1116814613342285 True False
14557.766 2.600843667984009 -1.0942817491343995 1.3148253599749964 -1.7706085644164027 -1.5707438627826136 2.1117053031921387 True False
14557.786 2.6008262634277344 -1.0942277175239106 1.3148191610919397 -1.7706510029234828 -1.570772949849264 2.1117424964904785 True False
14557.805999999999 2.6008553504943848 -1.094276176100113 1.3147895971881312 -1.770625730554098 -1.570838753377096 2.1117236614227295 True False
14557.826 2.600856065750122 -1.0943185848048707 1.3148310820208948 -1.770656248132223 -1.5708497206317347 2.111675977706909 True False
14557.846 2.600825786590576 -1.0942824643901368 1.314812962208883 -1.7706495724120082 -1.5708144346820276 2.111736297607422 True False
14557.866 2.600844144821167 -1.0942937594703217 1.3148182074176233 -1.7705899677672328 -1.5707839171039026 2.1116509437561035 True False
14557.885999999999 2.6008317470550537 -1.0943828982165833 1.314801041279928 -1.7705713711180628 -1.5708335081683558 2.1117167472839355 True False
14557.905999999999 2.600825786590576 -1.0942894679358979 1.3148248831378382 -1.770579000512594 -1.5708144346820276 2.111736297607422 True False
14557.926 2.6008553504943848 -1.094293938284256 1.3147762457477015 -1.7705966434874476 -1.5707724730121058 2.1116690635681152 True False
14557.946 2.600862503051758 -1.094323919420578 1.3148072401629847 -1.7706314525999964 -1.5708025137530726 2.11173415184021 True False
14557.965999999999 2.6008856296539307 -1.0942761164954682 1.3148310820208948 -1.7705728016295375 -1.570784870778219 2.111717939376831 True False
14557.985999999999 2.6008200645446777 -1.0943533045104523 1.3148368040667933 -1.7706085644164027 -1.5707429091082972 2.111675500869751 True False
14558.006 2.600855827331543 -1.0943122071078797 1.3148320356952112 -1.7706080875792445 -1.5708325544940394 2.111722946166992 True False
14558.026 2.6008081436157227 -1.094282792215683 1.31482440630068 -1.7706018886961878 -1.5707486311541956 2.111687660217285 True False
14558.045999999998 2.6008141040802 -1.0943295520595093 1.3148258368121546 -1.7705604038634242 -1.570772949849264 2.1117424964904785 True False
14558.065999999999 2.600855588912964 -1.09432868779216 1.3148258368121546 -1.7706676922240199 -1.5708029905902308 2.1116995811462402 True False
