Andreas691667/Digital_Twin_UR/src/controller_monitor/test_results/robot_output.csv
timestamp actual_q_0 actual_q_1 actual_q_2 actual_q_3 actual_q_4 actual_q_5 output_bit_register_65 output_bit_register_66
16018.542 4.024860382080078 -1.074672595863678 1.2584036032306116 -1.7544414005675257 -1.5707767645465296 2.454041004180908 False False
16018.562 4.024877071380615 -1.0747007888606568 1.258444611226217 -1.754392763177389 -1.570784870778219 2.4540624618530273 False False
16018.581999999999 4.024832248687744 -1.0746829372695466 1.2584036032306116 -1.754465719262594 -1.5708168188678187 2.454029083251953 False False
16018.601999999999 4.024872779846191 -1.074684516792633 1.2583993116961878 -1.754449029962057 -1.5708254019366663 2.454033613204956 False False
16018.622 4.024861812591553 -1.0746429127505799 1.2583830992328089 -1.7544094524779261 -1.5707605520831507 2.454058885574341 False False
16018.642 4.024857521057129 -1.0746592742255707 1.2583959738360804 -1.7544251881041468 -1.5708335081683558 2.454041004180908 False False
16018.661999999998 4.024848937988281 -1.0746756058982392 1.2584155241595667 -1.7544576130309046 -1.570813004170553 2.4540786743164062 False False
16018.681999999999 4.024836540222168 -1.0746756058982392 1.2583711783038538 -1.7544852695860804 -1.5708449522601526 2.454050064086914 False False
16018.702 4.024832248687744 -1.074703888302185 1.258448902760641 -1.7544809780516566 -1.5708254019366663 2.4540367126464844 False False
16018.722 4.024857521057129 -1.0747127097896119 1.25836688676943 -1.754465242425436 -1.570813004170553 2.4540669918060303 False False
16018.741999999998 4.02483606338501 -1.0746769172004242 1.2583635489093226 -1.7545014820494593 -1.5708697477923792 2.454050064086914 False False
16018.761999999999 4.024832248687744 -1.07473777354274 1.2584036032306116 -1.7544576130309046 -1.5707967917071741 2.454045534133911 False False
16018.782 4.024807453155518 -1.0746770066073914 1.2583873907672327 -1.7544533214964808 -1.5707767645465296 2.454021692276001 False False
16018.802 4.024840354919434 -1.074684516792633 1.2583711783038538 -1.7544814548888148 -1.5708211104022425 2.4540669918060303 False False
16018.822 4.024877071380615 -1.0747127097896119 1.2583873907672327 -1.7544452152647914 -1.5707486311541956 2.4540669918060303 False False
16018.841999999999 4.024853229522705 -1.0746665459922333 1.258350674306051 -1.7545134029784144 -1.5707767645465296 2.454038143157959 False False
16018.862 4.024840354919434 -1.0746339124492188 1.2583830992328089 -1.754477163354391 -1.5708373228656214 2.454038143157959 False False
16018.882 4.024864673614502 -1.074680046444275 1.2583754698382776 -1.7545134029784144 -1.5707562605487269 2.454087972640991 False False
16018.902 4.024864673614502 -1.074737862949707 1.2584078947650355 -1.754465242425436 -1.5707967917071741 2.4540624618530273 False False
16018.921999999999 4.02482795715332 -1.0746562045863648 1.258378807698385 -1.7544895611205042 -1.5708168188678187 2.454017400741577 False False
16018.942 4.024857521057129 -1.0746681553176423 1.258354965840475 -1.754465719262594 -1.5707891623126429 2.45410418510437 False False
16018.962 4.024783611297607 -1.0746844571879883 1.2583711783038538 -1.754465719262594 -1.5708168188678187 2.454071521759033 False False
16018.982 4.02487325668335 -1.0747051996043702 1.258326832448141 -1.7544175587096156 -1.5708044211017054 2.454050064086914 False False
16019.001999999999 4.024840354919434 -1.07469196737323 1.2583797613727015 -1.7544733486571253 -1.5707529226886194 2.4540038108825684 False False
16019.021999999999 4.0248942375183105 -1.0746756058982392 1.2583873907672327 -1.754465719262594 -1.5707724730121058 2.454033613204956 False False
16019.042 4.024844646453857 -1.0747592908195038 1.2583830992328089 -1.75451721767568 -1.5707600752459925 2.4540083408355713 False False
16019.062 4.02482795715332 -1.074703888302185 1.258416477833883 -1.7544690571227015 -1.570801083241598 2.454038143157959 False False
16019.081999999999 4.024840831756592 -1.0747290712646027 1.2583916823016565 -1.754465242425436 -1.5707724730121058 2.454099655151367 False False
16019.101999999999 4.024868965148926 -1.0746963781169434 1.2584155241595667 -1.754437109033102 -1.5707891623126429 2.454045534133911 False False
16019.122 4.024864673614502 -1.074700729256012 1.2583840529071253 -1.7544933758177699 -1.5707719961749476 2.4540951251983643 False False
16019.142 4.024864673614502 -1.074721561079361 1.2584155241595667 -1.75443758587026 -1.5708044211017054 2.454045534133911 False False
16019.161999999998 4.024856090545654 -1.0747007590583344 1.2583873907672327 -1.7544213734068812 -1.5707891623126429 2.4540669918060303 False False
16019.181999999999 4.024836540222168 -1.0746593338302155 1.2584522406207483 -1.7544132671751917 -1.5707882086383265 2.45410418510437 False False
16019.202 4.0247955322265625 -1.0747051698020478 1.2583454290973108 -1.75443758587026 -1.570801083241598 2.4540536403656006 False False
16019.222 4.024816036224365 -1.0747096699527283 1.2583797613727015 -1.754477163354391 -1.570801083241598 2.4540669918060303 False False
16019.241999999998 4.024848937988281 -1.0746593338302155 1.2583754698382776 -1.754477163354391 -1.5707891623126429 2.454050064086914 False False
16019.261999999999 4.02482795715332 -1.0746888679317017 1.2583664099322718 -1.7544132671751917 -1.5707891623126429 2.45402455329895 False False
16019.282 4.024816036224365 -1.0747127097896119 1.2584126631366175 -1.7544332943358363 -1.5707605520831507 2.454021692276001 False False
16019.302 4.024857521057129 -1.0747127395919343 1.2584288755999964 -1.754465242425436 -1.5708492437945765 2.454050064086914 False False
16019.322 4.024840831756592 -1.0746442836574097 1.2583826223956507 -1.7544495067992152 -1.5708211104022425 2.454054594039917 False False
16019.341999999999 4.024853229522705 -1.074680046444275 1.2584527174579065 -1.7544414005675257 -1.5707925001727503 2.454050064086914 False False
16019.362 4.024828910827637 -1.0746637743762513 1.2583754698382776 -1.7544857464232386 -1.5708487669574183 2.454038143157959 False False
16019.382 4.024860382080078 -1.0746800762465973 1.2583945433246058 -1.7544414005675257 -1.5707805792437952 2.454041004180908 False False
16019.402 4.024856090545654 -1.0747202199748536 1.2583635489093226 -1.7545057735838832 -1.5707686583148401 2.454132556915283 False False
16019.421999999999 4.024864673614502 -1.0746919971755524 1.2583826223956507 -1.7544576130309046 -1.570801083241598 2.454041004180908 False False
16019.442 4.024844646453857 -1.074703888302185 1.2583959738360804 -1.7545134029784144 -1.570772949849264 2.4540579319000244 False False
16019.462 4.024857521057129 -1.0746725362590333 1.2583707014666956 -1.7544857464232386 -1.5707805792437952 2.4540364742279053 False False
16019.482 4.024901866912842 -1.0746919971755524 1.2583754698382776 -1.7544933758177699 -1.5707719961749476 2.4540624618530273 False False
16019.501999999999 4.0248236656188965 -1.074672595863678 1.2584336439715784 -1.7544971905150355 -1.5707925001727503 2.454017400741577 False False
16019.521999999999 4.024909496307373 -1.0746593934348603 1.2584078947650355 -1.7544733486571253 -1.570784870778219 2.454071521759033 False False
16019.542 4.024857521057129 -1.0746712249568482 1.2583501974688929 -1.7544695339598597 -1.570813004170553 2.454050064086914 False False
16019.562 4.024864673614502 -1.0746800762465973 1.2584407965289515 -1.7544452152647914 -1.5707686583148401 2.4540834426879883 False False
16019.581999999999 4.0248517990112305 -1.074672595863678 1.2583754698382776 -1.754510065118307 -1.5708406607257288 2.454071521759033 False False
16019.601999999999 4.02482795715332 -1.0746311408332367 1.2584288755999964 -1.7544690571227015 -1.570784870778219 2.4540863037109375 False False
16019.622 4.024832248687744 -1.0746888679317017 1.2584078947650355 -1.7544933758177699 -1.5708087126361292 2.4540624618530273 False False
16019.642 4.024881362915039 -1.0746932190707703 1.2583754698382776 -1.7544294796385707 -1.5707486311541956 2.454041004180908 False False
16019.661999999998 4.024844646453857 -1.0747170609286805 1.2583335081683558 -1.7545134029784144 -1.5707967917071741 2.4540834426879883 False False
16019.681999999999 4.024848937988281 -1.0747051399997254 1.2583959738360804 -1.7544733486571253 -1.5707925001727503 2.454021692276001 False False
16019.702 4.024853229522705 -1.0747051399997254 1.2584078947650355 -1.754437109033102 -1.5708492437945765 2.454038143157959 False False
16019.722 4.024853229522705 -1.0747170609286805 1.2583916823016565 -1.7544976673521937 -1.5707605520831507 2.454017400741577 False False
16019.741999999998 4.024864673614502 -1.0747126799872895 1.2584078947650355 -1.7544614277281703 -1.5707767645465296 2.454021692276001 False False
16019.761999999999 4.0248517990112305 -1.0747095507434388 1.2584078947650355 -1.7544695339598597 -1.570784870778219 2.454017400741577 False False
16019.782 4.024844646453857 -1.0747082990458985 1.2584007422076624 -1.7544933758177699 -1.570772949849264 2.454012632369995 False False
16019.802 4.024860382080078 -1.0747170609286805 1.2584288755999964 -1.7544576130309046 -1.570801083241598 2.4540669918060303 False False
16019.822 4.024864673614502 -1.0747257632068177 1.2583916823016565 -1.7544733486571253 -1.5707967917071741 2.454075813293457 False False
16019.841999999999 4.024816036224365 -1.0746431213668366 1.258357350026266 -1.7544614277281703 -1.5708053747760218 2.454058885574341 False False
16019.862 4.024853229522705 -1.0747007590583344 1.2583916823016565 -1.7544933758177699 -1.5708125273333948 2.45402455329895 False False
16019.882 4.024840354919434 -1.0747082096389313 1.2584407965289515 -1.754425664941305 -1.5708211104022425 2.454087972640991 False False
16019.902 4.024872779846191 -1.0746667248061677 1.2584050337420862 -1.7544576130309046 -1.5708330313311976 2.454092264175415 False False
16019.921999999999 4.024811744689941 -1.0746769470027466 1.2583635489093226 -1.7544852695860804 -1.5708125273333948 2.4540743827819824 False False
16019.942 4.02482795715332 -1.0746637743762513 1.2584155241595667 -1.7544814548888148 -1.5708206335650843 2.4540669918060303 False False
16019.962 4.024864673614502 -1.0747421246818085 1.2583945433246058 -1.7544814548888148 -1.5708087126361292 2.454050064086914 False False
16019.982 4.024856090545654 -1.0746919971755524 1.2584078947650355 -1.7545410595335902 -1.5708044211017054 2.454033613204956 False False
16020.001999999999 4.024885654449463 -1.0746920567801972 1.2584169546710413 -1.754505296746725 -1.5708487669574183 2.4540789127349854 False False
16020.021999999999 4.024864673614502 -1.0747083288482209 1.2583664099322718 -1.7545014820494593 -1.5708168188678187 2.454029083251953 False False
16020.042 4.024815082550049 -1.074712650184967 1.2583664099322718 -1.7544733486571253 -1.570784870778219 2.45402455329895 False False
16020.062 4.024816036224365 -1.0746963781169434 1.2584036032306116 -1.75443758587026 -1.570813004170553 2.454045534133911 False False
16020.081999999999 4.024832248687744 -1.074683056478836 1.2583993116961878 -1.7544456921019496 -1.5707805792437952 2.454116106033325 False False
16020.101999999999 4.024844646453857 -1.0746562343886872 1.2583707014666956 -1.7544971905150355 -1.570836369191305 2.4540624618530273 False False
16020.122 4.024820327758789 -1.0746887487224122 1.2584007422076624 -1.7545410595335902 -1.5707648436175745 2.4540669918060303 False False
16020.142 4.024901866912842 -1.0746844571879883 1.2583754698382776 -1.7545091114439906 -1.5708168188678187 2.454017400741577 False False
16020.161999999998 4.02482795715332 -1.0747170013240357 1.2583707014666956 -1.7544852695860804 -1.5708525816546839 2.4540698528289795 False False
16020.181999999999 4.024844646453857 -1.0746757251075287 1.2583330313311976 -1.754477163354391 -1.5708444754229944 2.4540536403656006 False False
16020.202 4.024811744689941 -1.0747502905181427 1.2584064642535608 -1.7544814548888148 -1.57074481645693 2.454092264175415 False False
16020.222 4.024868965148926 -1.0746713441661377 1.2584036032306116 -1.7544614277281703 -1.570813004170553 2.454092264175415 False False
16020.241999999998 4.024812698364258 -1.0746801060489197 1.2583544890033167 -1.7544614277281703 -1.5707767645465296 2.4540789127349854 False False
16020.261999999999 4.02480411529541 -1.0746888381293793 1.2583664099322718 -1.75441374401235 -1.5708006064044397 2.4540624618530273 False False
16020.282 4.024845123291016 -1.0747170609286805 1.2584365049945276 -1.7545253239073695 -1.5707767645465296 2.454042673110962 False False
16020.302 4.0247955322265625 -1.07469196737323 1.2583826223956507 -1.7545091114439906 -1.5708168188678187 2.453989028930664 False False
16020.322 4.024893283843994 -1.0747127097896119 1.2583664099322718 -1.754465242425436 -1.5707686583148401 2.454041004180908 False False
16020.341999999999 4.02482795715332 -1.0747289222529908 1.2584036032306116 -1.7545253239073695 -1.570784870778219 2.454045534133911 False False
16020.362 4.024836540222168 -1.0747301441482087 1.2583916823016565 -1.754465242425436 -1.5708087126361292 2.454033613204956 False False
16020.382 4.0248517990112305 -1.0746801060489197 1.2584198156939905 -1.7544456921019496 -1.5707767645465296 2.4540743827819824 False False
16020.402 4.024853229522705 -1.0746725660613556 1.2584036032306116 -1.7544895611205042 -1.5708125273333948 2.454038143157959 False False
16020.421999999999 4.024864673614502 -1.07464753211055 1.2584365049945276 -1.7544976673521937 -1.570784870778219 2.454029083251953 False False
16020.442 4.024816036224365 -1.0746474725059052 1.2583797613727015 -1.754425664941305 -1.5708444754229944 2.454041004180908 False False
16020.462 4.024868965148926 -1.074754611854889 1.2584198156939905 -1.754465242425436 -1.570784870778219 2.4540743827819824 False False
16020.482 4.024836540222168 -1.0747094613364716 1.2583873907672327 -1.7544571361937464 -1.5707886854754847 2.454050064086914 False False
16020.501999999999 4.024856090545654 -1.074655072098114 1.2584498564349573 -1.7544690571227015 -1.5707810560809534 2.4540364742279053 False False
16020.521999999999 4.024799823760986 -1.0746757251075287 1.2584450880633753 -1.754425664941305 -1.5707810560809534 2.4540579319000244 False False
16020.542 4.02487325668335 -1.0746801358512421 1.2583754698382776 -1.754465242425436 -1.5708420912372034 2.454092264175415 False False
16020.562 4.02483606338501 -1.074705110197403 1.2583587805377405 -1.7544294796385707 -1.570784870778219 2.454012632369995 False False
16020.581999999999 4.024799823760986 -1.0746606153300782 1.2583993116961878 -1.7544576130309046 -1.5707810560809534 2.454058885574341 False False
16020.601999999999 4.024824619293213 -1.074717031126358 1.2583754698382776 -1.754408975640768 -1.5708006064044397 2.454125165939331 False False
16020.622 4.02482795715332 -1.0746681255153199 1.2583916823016565 -1.7545091114439906 -1.5707610289203089 2.454041004180908 False False
16020.642 4.024864673614502 -1.074700729256012 1.2583826223956507 -1.7544414005675257 -1.570784870778219 2.454050064086914 False False
16020.661999999998 4.024839878082275 -1.0747213524631043 1.2584078947650355 -1.7544809780516566 -1.5707691351519983 2.453996419906616 False False
16020.681999999999 4.024820327758789 -1.0746919971755524 1.2583544890033167 -1.754477163354391 -1.5708487669574183 2.4540624618530273 False False
16020.702 4.024827480316162 -1.0746725362590333 1.2584288755999964 -1.7544576130309046 -1.5707886854754847 2.453996419906616 False False
16020.722 4.024815559387207 -1.0747170013240357 1.2583993116961878 -1.7544852695860804 -1.570772949849264 2.454092502593994 False False
16020.741999999998 4.024848937988281 -1.0746637743762513 1.2583826223956507 -1.7544456921019496 -1.5708172957049769 2.454017400741577 False False
16020.761999999999 4.0248188972473145 -1.0747213822654267 1.2584036032306116 -1.7545010052123011 -1.5707452932940882 2.454033613204956 False False
16020.782 4.024836540222168 -1.0747375947288056 1.2584198156939905 -1.7544814548888148 -1.5707886854754847 2.4540579319000244 False False
16020.802 4.024820327758789 -1.074712650184967 1.2583993116961878 -1.7545014820494593 -1.5708125273333948 2.454042673110962 False False
16020.822 4.024803638458252 -1.0746432107738038 1.2583873907672327 -1.7544576130309046 -1.5708048979388636 2.454041004180908 False False
16020.841999999999 4.024853229522705 -1.0747082990458985 1.2584126631366175 -1.7545014820494593 -1.570784870778219 2.4540624618530273 False False
16020.862 4.02490234375 -1.0746594828418274 1.2584126631366175 -1.7544933758177699 -1.5707724730121058 2.454050064086914 False False
16020.882 4.024844646453857 -1.0746920269778748 1.2583635489093226 -1.7544695339598597 -1.5707886854754847 2.454009771347046 False False
16020.902 4.024812698364258 -1.0746843975833436 1.2583783308612269 -1.7544576130309046 -1.5708087126361292 2.454041004180908 False False
16020.921999999999 4.02488899230957 -1.0747039479068299 1.2584155241595667 -1.7544809780516566 -1.5707648436175745 2.4540789127349854 False False
16020.942 4.024862289428711 -1.0747039479068299 1.2584155241595667 -1.75451721767568 -1.5707929770099085 2.4540669918060303 False False
16020.962 4.024857997894287 -1.0746844571879883 1.2583754698382776 -1.7545129261412562 -1.570801083241598 2.454029083251953 False False
16020.982 4.024828910827637 -1.0746801060489197 1.2583959738360804 -1.75451721767568 -1.5707967917071741 2.4540624618530273 False False
16021.001999999999 4.024806976318359 -1.0746920567801972 1.2583945433246058 -1.7544733486571253 -1.570772949849264 2.454050064086914 False False
16021.021999999999 4.024936676025391 -1.0746931296638031 1.2583707014666956 -1.7544895611205042 -1.570784870778219 2.454045534133911 False False
16021.042 4.024851322174072 -1.0746768873981019 1.2583721319781702 -1.7545010052123011 -1.5708254019366663 2.454076051712036 False False
16021.062 4.024823188781738 -1.0746725362590333 1.2584036032306116 -1.7544533214964808 -1.570772949849264 2.4539918899536133 False False
16021.081999999999 4.024873733520508 -1.074660674934723 1.2583873907672327 -1.7544533214964808 -1.5707967917071741 2.454041004180908 False False
16021.101999999999 4.024864673614502 -1.0747006994536896 1.2583959738360804 -1.7544332943358363 -1.570784870778219 2.4540536403656006 False False
16021.122 4.024848937988281 -1.0747544330409546 1.2584036032306116 -1.7544976673521937 -1.5707810560809534 2.454045295715332 False False
16021.142 4.024799346923828 -1.0747457903674622 1.2584212462054651 -1.7544294796385707 -1.57084829012026 2.454033613204956 False False
16021.161999999998 4.024848937988281 -1.0746831756881257 1.2583840529071253 -1.7544933758177699 -1.5707610289203089 2.454092264175415 False False
16021.181999999999 4.024877071380615 -1.074688808327057 1.2584036032306116 -1.7544852695860804 -1.5708006064044397 2.4540669918060303 False False
16021.202 4.024783134460449 -1.0746932190707703 1.2583797613727015 -1.7545095882811488 -1.5708368460284632 2.4540669918060303 False False
16021.222 4.024853229522705 -1.0746974808028718 1.2583664099322718 -1.7544452152647914 -1.570784870778219 2.454076051712036 False False
16021.241999999998 4.024831295013428 -1.0746920269778748 1.2583754698382776 -1.7544614277281703 -1.5707967917071741 2.454045534133911 False False
16021.261999999999 4.024803638458252 -1.074700729256012 1.2584036032306116 -1.7544247112669886 -1.5708125273333948 2.4540200233459473 False False
16021.282 4.024864673614502 -1.0746920269778748 1.2584241072284144 -1.7545176945128382 -1.5707810560809534 2.454058885574341 False False
16021.302 4.024815559387207 -1.0747050505927582 1.2584007422076624 -1.7544495067992152 -1.570801083241598 2.4540789127349854 False False
16021.322 4.024811267852783 -1.0746551913074036 1.2584331671344202 -1.7544738254942835 -1.5708006064044397 2.4540669918060303 False False
16021.341999999999 4.024848937988281 -1.074733243589737 1.258437458668844 -1.7544332943358363 -1.5708087126361292 2.4540038108825684 False False
16021.362 4.024832248687744 -1.074635611181595 1.2583711783038538 -1.7544576130309046 -1.5707886854754847 2.454038143157959 False False
16021.382 4.024799346923828 -1.0746443432620545 1.2584121862994593 -1.7544495067992152 -1.5707767645465296 2.4540669918060303 False False
16021.402 4.024864673614502 -1.074715719824173 1.2584365049945276 -1.7544971905150355 -1.570784870778219 2.4540998935699463 False False
16021.421999999999 4.024840831756592 -1.0747040075114747 1.2583993116961878 -1.7544852695860804 -1.570801083241598 2.454050064086914 False False
16021.442 4.024840831756592 -1.0746920269778748 1.2583959738360804 -1.7544452152647914 -1.5708048979388636 2.454045534133911 False False
16021.462 4.024848937988281 -1.0746757549098511 1.2584078947650355 -1.754505296746725 -1.570801083241598 2.4540698528289795 False False
16021.482 4.024869441986084 -1.074688808327057 1.2583959738360804 -1.7544533214964808 -1.5707281271563929 2.453996419906616 False False
16021.501999999999 4.024869441986084 -1.0747488302043458 1.258345905934469 -1.7544976673521937 -1.5707805792437952 2.454038143157959 False False
16021.521999999999 4.024827480316162 -1.0746844571879883 1.2584169546710413 -1.7544690571227015 -1.570801083241598 2.454071521759033 False False
16021.542 4.024864673614502 -1.074721322660782 1.2584121862994593 -1.7544809780516566 -1.570801083241598 2.454054594039917 False False
16021.562 4.024856090545654 -1.074721322660782 1.2583797613727015 -1.7544414005675257 -1.5708254019366663 2.4540743827819824 False False
16021.581999999999 4.024833679199219 -1.074770764713623 1.2584121862994593 -1.754477163354391 -1.5707886854754847 2.4540669918060303 False False
16021.601999999999 4.024866580963135 -1.074716941719391 1.2583916823016565 -1.754437109033102 -1.570824925099508 2.454045534133911 False False
16021.622 4.024820327758789 -1.0746594828418274 1.2583783308612269 -1.7545134029784144 -1.570801083241598 2.454050064086914 False False
16021.642 4.024853229522705 -1.0746757549098511 1.2584155241595667 -1.7544976673521937 -1.5708168188678187 2.4540669918060303 False False
16021.661999999998 4.024853229522705 -1.0747050207904358 1.2583797613727015 -1.7544895611205042 -1.5707605520831507 2.454041004180908 False False
16021.681999999999 4.024845600128174 -1.0747288924506684 1.2584036032306116 -1.7544452152647914 -1.570801083241598 2.4540469646453857 False False
16021.702 4.024787425994873 -1.0746681851199646 1.2583544890033167 -1.7544414005675257 -1.5708254019366663 2.454054594039917 False False
16021.722 4.024864673614502 -1.0747039479068299 1.2583711783038538 -1.7544127903380335 -1.5707967917071741 2.454029083251953 False False
16021.741999999998 4.024812698364258 -1.0747094017318268 1.2584198156939905 -1.7544976673521937 -1.570813004170553 2.454050064086914 False False
16021.761999999999 4.024869441986084 -1.0746519726565857 1.2584036032306116 -1.7544495067992152 -1.5707486311541956 2.454050064086914 False False
16021.782 4.024864673614502 -1.0746963781169434 1.2583754698382776 -1.7544614277281703 -1.570801083241598 2.454033613204956 False False
16021.802 4.024895191192627 -1.0746606153300782 1.2583916823016565 -1.7544814548888148 -1.5707805792437952 2.454045534133911 False False
16021.822 4.024862289428711 -1.074687735443451 1.2583993116961878 -1.7545176945128382 -1.5708254019366663 2.454092502593994 False False
16021.841999999999 4.024886131286621 -1.0746301275542756 1.2584078947650355 -1.7545014820494593 -1.570768181477682 2.454029083251953 False False
16021.862 4.024827480316162 -1.0747083586505433 1.2584169546710413 -1.754505296746725 -1.5707925001727503 2.454041004180908 False False
16021.882 4.024864673614502 -1.074656293993332 1.2583840529071253 -1.754529138604635 -1.570801083241598 2.454045534133911 False False
16021.902 4.024848937988281 -1.0746606153300782 1.2583993116961878 -1.7545014820494593 -1.5707805792437952 2.4540743827819824 False False
16021.921999999999 4.024820327758789 -1.074659602051117 1.2584493795977991 -1.754505296746725 -1.570801083241598 2.4540998935699463 False False
16021.942 4.024811267852783 -1.074671522980072 1.2584283987628382 -1.7544933758177699 -1.5707967917071741 2.4540834426879883 False False
16021.962 4.024864673614502 -1.0747039181045075 1.2584036032306116 -1.7544690571227015 -1.5708487669574183 2.454038143157959 False False
16021.982 4.024857997894287 -1.0747331839850922 1.2584331671344202 -1.7544452152647914 -1.5708368460284632 2.454041004180908 False False
16022.001999999999 4.024881839752197 -1.0746433299830933 1.2583993116961878 -1.7544690571227015 -1.570801083241598 2.454026222229004 False False
16022.021999999999 4.024869441986084 -1.074708269243576 1.2583959738360804 -1.7544251881041468 -1.5707686583148401 2.454050064086914 False False
16022.042 4.024848937988281 -1.074725554590561 1.2583993116961878 -1.754453798333639 -1.5707767645465296 2.4540579319000244 False False
16022.062 4.024836540222168 -1.0747331839850922 1.2583993116961878 -1.7544495067992152 -1.5707891623126429 2.454050064086914 False False
16022.081999999999 4.024898052215576 -1.0747082394412537 1.258350674306051 -1.7544895611205042 -1.5707967917071741 2.454033613204956 False False
16022.101999999999 4.024860382080078 -1.0746832650950928 1.258354965840475 -1.7544332943358363 -1.5708373228656214 2.454045534133911 False False
16022.122 4.024909973144531 -1.0746390384486695 1.2584002653705042 -1.7544614277281703 -1.570756737385885 2.4540536403656006 False False
16022.142 4.024790287017822 -1.074675814514496 1.2583993116961878 -1.754477163354391 -1.5707724730121058 2.454041004180908 False False
16022.161999999998 4.024848937988281 -1.074668214922287 1.2584493795977991 -1.7544533214964808 -1.570772949849264 2.454050064086914 False False
16022.181999999999 4.024881839752197 -1.0746887785247345 1.258444611226217 -1.7545215092101039 -1.5708048979388636 2.454071521759033 False False
16022.202 4.024802207946777 -1.074656293993332 1.258444611226217 -1.7545095882811488 -1.5707967917071741 2.454050064086914 False False
16022.222 4.024827480316162 -1.074655221109726 1.258460823689596 -1.754465719262594 -1.570801083241598 2.454076051712036 False False
16022.241999999998 4.024873733520508 -1.074687735443451 1.2584036032306116 -1.7544857464232386 -1.5707524458514612 2.454038143157959 False False
16022.261999999999 4.024832248687744 -1.0746638935855408 1.2583382765399378 -1.754437109033102 -1.5708335081683558 2.454017400741577 False False
16022.282 4.024815559387207 -1.0746963781169434 1.2583959738360804 -1.7544576130309046 -1.570756737385885 2.454054594039917 False False
16022.302 4.024827480316162 -1.0746844571879883 1.2584360281573694 -1.7544576130309046 -1.5708087126361292 2.454017400741577 False False
16022.322 4.024872779846191 -1.074671522980072 1.25836688676943 -1.7544781170287074 -1.5708211104022425 2.454017400741577 False False
16022.341999999999 4.024848937988281 -1.0746638935855408 1.2583797613727015 -1.7544895611205042 -1.5707610289203089 2.4540083408355713 False False
16022.362 4.024881839752197 -1.0747050207904358 1.258354965840475 -1.7544533214964808 -1.5708044211017054 2.4540202617645264 False False
16022.382 4.024839878082275 -1.074668214922287 1.2583959738360804 -1.754453798333639 -1.5708335081683558 2.4541163444519043 False False
16022.402 4.024832248687744 -1.0746920567801972 1.2584078947650355 -1.7544094524779261 -1.5708091894732874 2.4540951251983643 False False
16022.421999999999 4.024839878082275 -1.0747050207904358 1.2584522406207483 -1.7544690571227015 -1.5707648436175745 2.4540083408355713 False False
16022.442 4.024893760681152 -1.0747500520995636 1.2584403196917933 -1.754449029962057 -1.5707967917071741 2.454096794128418 False False
16022.462 4.024836540222168 -1.074675814514496 1.2584078947650355 -1.7545215092101039 -1.5707925001727503 2.4540786743164062 False False
16022.482 4.024864673614502 -1.0746844571879883 1.2583873907672327 -1.7544294796385707 -1.570772949849264 2.4540669918060303 False False
16022.501999999999 4.024860382080078 -1.074716941719391 1.258333985005514 -1.7544895611205042 -1.5708487669574183 2.45410418510437 False False
16022.521999999999 4.024839878082275 -1.0746596616557618 1.2583907286273401 -1.754477163354391 -1.5708254019366663 2.454087972640991 False False
16022.542 4.024836540222168 -1.0746725362590333 1.2583993116961878 -1.754477163354391 -1.5707724730121058 2.4540200233459473 False False
16022.562 4.024832248687744 -1.0746725362590333 1.2583754698382776 -1.7544452152647914 -1.5708048979388636 2.45408034324646 False False
16022.581999999999 4.024840831756592 -1.074644462471344 1.2583907286273401 -1.754477163354391 -1.570801083241598 2.454017400741577 False False
16022.601999999999 4.024836540222168 -1.074675814514496 1.2584078947650355 -1.7544695339598597 -1.5708168188678187 2.4540624618530273 False False
16022.622 4.024869441986084 -1.0747006994536896 1.2583959738360804 -1.7544857464232386 -1.5707486311541956 2.454005479812622 False False
16022.642 4.024783134460449 -1.0747049909881135 1.2584317366229456 -1.75443758587026 -1.570784870778219 2.4540789127349854 False False
16022.661999999998 4.024827480316162 -1.074656293993332 1.2584403196917933 -1.75443758587026 -1.5707767645465296 2.454092264175415 False False
16022.681999999999 4.024766445159912 -1.0746844571879883 1.2584078947650355 -1.754465719262594 -1.5708373228656214 2.4540743827819824 False False
16022.702 4.024832248687744 -1.0747006994536896 1.2584078947650355 -1.7544332943358363 -1.5707405249225062 2.4540669918060303 False False
16022.722 4.024881839752197 -1.0746638935855408 1.2584036032306116 -1.7544933758177699 -1.570784870778219 2.4540669918060303 False False
16022.741999999998 4.024864673614502 -1.0747298759273072 1.2583625952350062 -1.7544814548888148 -1.5707886854754847 2.454041004180908 False False
16022.761999999999 4.024844646453857 -1.0746811789325257 1.258432690297262 -1.7544576130309046 -1.5708091894732874 2.454071521759033 False False
16022.782 4.024844646453857 -1.0747254949859162 1.2584360281573694 -1.7544213734068812 -1.570784870778219 2.454054594039917 False False
16022.802 4.024857997894287 -1.0747039479068299 1.2583873907672327 -1.7544452152647914 -1.5707891623126429 2.454087972640991 False False
16022.822 4.024877071380615 -1.0747050207904358 1.2583993116961878 -1.7545176945128382 -1.5707686583148401 2.454045534133911 False False
16022.841999999999 4.024880409240723 -1.0747413498214264 1.2583711783038538 -1.7544094524779261 -1.5707605520831507 2.4540083408355713 False False
16022.862 4.02488899230957 -1.0747169119170685 1.2584317366229456 -1.7544857464232386 -1.5708449522601526 2.45402455329895 False False
16022.882 4.024869441986084 -1.0747288328460236 1.258392635975973 -1.7545134029784144 -1.570801083241598 2.453984498977661 False False
16022.902 4.024815559387207 -1.0746844571879883 1.2583463827716272 -1.754465719262594 -1.5707805792437952 2.454087972640991 False False
16022.921999999999 4.024872779846191 -1.0746920865825196 1.258333985005514 -1.7545134029784144 -1.5708211104022425 2.454041004180908 False False
16022.942 4.024848937988281 -1.0746833246997376 1.2583916823016565 -1.7544132671751917 -1.570853058491842 2.454012632369995 False False
16022.962 4.024827480316162 -1.0746844571879883 1.2583711783038538 -1.754477163354391 -1.5707967917071741 2.454050064086914 False False
16022.982 4.02484130859375 -1.074614630346634 1.2584078947650355 -1.754465242425436 -1.5707605520831507 2.454058885574341 False False
16023.001999999999 4.024873733520508 -1.0746844869903107 1.2583754698382776 -1.7544895611205042 -1.5708254019366663 2.454050064086914 False False
16023.021999999999 4.024803638458252 -1.0746390980533143 1.2584036032306116 -1.7544332943358363 -1.5707925001727503 2.4540669918060303 False False
16023.042 4.024835586547852 -1.0746920865825196 1.2584522406207483 -1.7544332943358363 -1.570813004170553 2.454080581665039 False False
16023.062 4.024840831756592 -1.0746887785247345 1.2583754698382776 -1.7544809780516566 -1.5707405249225062 2.454021692276001 False False
16023.081999999999 4.024848937988281 -1.0747169119170685 1.258378807698385 -1.7544852695860804 -1.5708211104022425 2.454041004180908 False False
16023.101999999999 4.024836540222168 -1.0746477407268067 1.2584155241595667 -1.754465719262594 -1.5708091894732874 2.4540364742279053 False False
16023.122 4.024827480316162 -1.0746758741191407 1.2584036032306116 -1.7544414005675257 -1.5707925001727503 2.454071521759033 False False
16023.142 4.024832248687744 -1.074648694401123 1.2584241072284144 -1.754505296746725 -1.5707805792437952 2.454026222229004 False False
16023.161999999998 4.024864673614502 -1.074663982992508 1.2583583037005823 -1.7545215092101039 -1.5708168188678187 2.4540624618530273 False False
16023.181999999999 4.024886131286621 -1.0746563834002991 1.258354965840475 -1.7544332943358363 -1.5708254019366663 2.454041004180908 False False
16023.202 4.024794578552246 -1.0747288030437012 1.258416477833883 -1.7545296154417933 -1.5708087126361292 2.454041004180908 False False
16023.222 4.024799346923828 -1.0746477407268067 1.2583993116961878 -1.7544452152647914 -1.570801083241598 2.453989028930664 False False
16023.241999999998 4.024848937988281 -1.0747125905803223 1.2584121862994593 -1.7544814548888148 -1.570801083241598 2.4540669918060303 False False
16023.261999999999 4.024832248687744 -1.0746520322612305 1.2583993116961878 -1.7544857464232386 -1.5708048979388636 2.4540669918060303 False False
16023.282 4.024869441986084 -1.0746520322612305 1.25836688676943 -1.754437109033102 -1.5707362333880823 2.4540672302246094 False False
16023.302 4.024839878082275 -1.0746758741191407 1.2583754698382776 -1.7545176945128382 -1.5707929770099085 2.454076051712036 False False
16023.322 4.024848937988281 -1.0746640127948304 1.2583840529071253 -1.754449029962057 -1.5707967917071741 2.4540491104125977 False False
16023.341999999999 4.024836540222168 -1.0747499626925965 1.2584121862994593 -1.7544332943358363 -1.5707886854754847 2.4540579319000244 False False
16023.362 4.024836540222168 -1.0747168523124238 1.2584241072284144 -1.75451721767568 -1.5707967917071741 2.454029083251953 False False
16023.382 4.024869441986084 -1.0746724766543885 1.2584283987628382 -1.7544332943358363 -1.5708211104022425 2.4540908336639404 False False
16023.402 4.024811267852783 -1.0746844571879883 1.2583916823016565 -1.754477163354391 -1.5708125273333948 2.454096794128418 False False
16023.421999999999 4.024815559387207 -1.074708269243576 1.2583797613727015 -1.7545296154417933 -1.570784870778219 2.4540743827819824 False False
16023.442 4.024878025054932 -1.0746887189200898 1.2584036032306116 -1.754477163354391 -1.5708335081683558 2.4540786743164062 False False
16023.462 4.024848937988281 -1.0746606153300782 1.2583711783038538 -1.7544533214964808 -1.5707767645465296 2.454087972640991 False False
16023.482 4.024893760681152 -1.0746801656535645 1.2583711783038538 -1.754477163354391 -1.570813004170553 2.454076051712036 False False
16023.501999999999 4.024848937988281 -1.0746682447246094 1.2584121862994593 -1.7544576130309046 -1.570801083241598 2.4540998935699463 False False
16023.521999999999 4.024848937988281 -1.0746920567801972 1.2583959738360804 -1.7544895611205042 -1.5708087126361292 2.454000949859619 False False
16023.542 4.024856090545654 -1.0746725660613556 1.2584036032306116 -1.7544170818724574 -1.570772949849264 2.4541163444519043 False False
16023.562 4.024832248687744 -1.074724481706955 1.2583840529071253 -1.7543970547118128 -1.570829216633932 2.4540789127349854 False False
16023.581999999999 4.024869441986084 -1.0747244519046326 1.258395020161764 -1.7544576130309046 -1.5707486311541956 2.454041004180908 False False
16023.601999999999 4.024893760681152 -1.0746272963336487 1.258416477833883 -1.7544495067992152 -1.5707767645465296 2.454045295715332 False False
16023.622 4.024827480316162 -1.07468335450206 1.2583830992328089 -1.7544733486571253 -1.5708211104022425 2.4540364742279053 False False
16023.642 4.024881839752197 -1.0746887487224122 1.2583945433246058 -1.7544332943358363 -1.5707967917071741 2.454054594039917 False False
16023.661999999998 4.024853229522705 -1.0746930104545136 1.2584365049945276 -1.7545095882811488 -1.570824925099508 2.454058885574341 False False
16023.681999999999 4.024877071380615 -1.0746844571879883 1.2583587805377405 -1.7544928989806117 -1.5707925001727503 2.454041004180908 False False
16023.702 4.024864673614502 -1.074675903921463 1.2583826223956507 -1.7544332943358363 -1.570813004170553 2.454017400741577 False False
16023.722 4.024811267852783 -1.0747082990458985 1.2583959738360804 -1.7544495067992152 -1.5707724730121058 2.4540579319000244 False False
16023.741999999998 4.024844646453857 -1.0747168523124238 1.2584155241595667 -1.7544533214964808 -1.5707925001727503 2.454012632369995 False False
16023.761999999999 4.024836540222168 -1.0747413498214264 1.2584198156939905 -1.754477163354391 -1.5707767645465296 2.4540789127349854 False False
16023.782 4.024824619293213 -1.074696348314621 1.2584126631366175 -1.7544933758177699 -1.5707529226886194 2.454045534133911 False False
16023.802 4.024864673614502 -1.074676827793457 1.2583377997027796 -1.7544814548888148 -1.5707967917071741 2.454029083251953 False False
16023.822 4.024839878082275 -1.0746554297259827 1.2584331671344202 -1.7544809780516566 -1.5708172957049769 2.454076051712036 False False
16023.841999999999 4.024848937988281 -1.0746995371631165 1.2584155241595667 -1.7544614277281703 -1.5708616415606897 2.4540669918060303 False False
16023.862 4.024848937988281 -1.0747125905803223 1.2584288755999964 -1.7544895611205042 -1.5708087126361292 2.454054594039917 False False
16023.882 4.024864673614502 -1.0747168523124238 1.2583707014666956 -1.7545014820494593 -1.570813004170553 2.4540579319000244 False False
16023.902 4.024844646453857 -1.0747049015811463 1.2583993116961878 -1.754477163354391 -1.570801083241598 2.454047203063965 False False
16023.921999999999 4.024911403656006 -1.074712560778 1.2583754698382776 -1.7544414005675257 -1.5708006064044397 2.454076051712036 False False
16023.942 4.024815559387207 -1.0747201603702088 1.2583916823016565 -1.7544976673521937 -1.5707805792437952 2.454076051712036 False False
16023.962 4.024878025054932 -1.0746478301337739 1.2584450880633753 -1.7545253239073695 -1.5708254019366663 2.454050064086914 False False
16023.982 4.02482795715332 -1.074728713636734 1.2583873907672327 -1.7544971905150355 -1.5708487669574183 2.454050064086914 False False
16024.001999999999 4.024881362915039 -1.0747049015811463 1.2584241072284144 -1.7544738254942835 -1.5707805792437952 2.454012632369995 False False
16024.021999999999 4.024803638458252 -1.074704037313797 1.258442227040426 -1.7544814548888148 -1.5707929770099085 2.454005479812622 False False
16024.042 4.024844646453857 -1.0746348363212128 1.2584036032306116 -1.7544690571227015 -1.5707767645465296 2.4540669918060303 False False
16024.062 4.02490234375 -1.0746725362590333 1.2583873907672327 -1.754437109033102 -1.570756737385885 2.45402455329895 False False
16024.081999999999 4.024840354919434 -1.0746358794024964 1.2583797613727015 -1.7545134029784144 -1.5707843939410608 2.4540364742279053 False False
16024.101999999999 4.024864673614502 -1.0746725362590333 1.2584078947650355 -1.7544533214964808 -1.5707843939410608 2.45410418510437 False False
16024.122 4.024823188781738 -1.074712560778 1.2584331671344202 -1.7544495067992152 -1.5708091894732874 2.454017400741577 False False
16024.142 4.024844646453857 -1.0747415584376832 1.2584064642535608 -1.7544332943358363 -1.5707967917071741 2.454108715057373 False False
16024.161999999998 4.024857997894287 -1.0746759337237854 1.2583587805377405 -1.7544733486571253 -1.5707724730121058 2.45402455329895 False False
16024.181999999999 4.024835586547852 -1.074692116384842 1.2583735624896448 -1.7544414005675257 -1.5707967917071741 2.454076051712036 False False
16024.202 4.024853229522705 -1.0746640127948304 1.2584365049945276 -1.754437109033102 -1.5707967917071741 2.4540491104125977 False False
16024.222 4.024868965148926 -1.0746767979911347 1.2583993116961878 -1.7545215092101039 -1.5707929770099085 2.4541027545928955 False False
16024.241999999998 4.024886131286621 -1.0746759337237854 1.2584036032306116 -1.7545014820494593 -1.570813004170553 2.4540579319000244 False False
16024.261999999999 4.02482795715332 -1.0746716421893616 1.2583420912372034 -1.7544533214964808 -1.570784870778219 2.454071521759033 False False
16024.282 4.024873733520508 -1.074724481706955 1.2583959738360804 -1.7544857464232386 -1.5707724730121058 2.454076051712036 False False
16024.302 4.024857521057129 -1.0747040671161194 1.2584169546710413 -1.7544852695860804 -1.570784870778219 2.4540789127349854 False False
16024.322 4.02488899230957 -1.0747211438468476 1.2583840529071253 -1.7544576130309046 -1.570772949849264 2.4540364742279053 False False
16024.341999999999 4.024848937988281 -1.0747082990458985 1.258357350026266 -1.7544933758177699 -1.5708006064044397 2.454012632369995 False False
16024.362 4.024881362915039 -1.0746640425971528 1.2584198156939905 -1.7544294796385707 -1.570796314870016 2.4540998935699463 False False
16024.382 4.024864673614502 -1.0746521216681977 1.2584078947650355 -1.7544533214964808 -1.5707610289203089 2.4539947509765625 False False
16024.402 4.024836540222168 -1.074712650184967 1.2583587805377405 -1.7544533214964808 -1.5707605520831507 2.454054594039917 False False
16024.421999999999 4.024836540222168 -1.074725405578949 1.2583873907672327 -1.7545014820494593 -1.5707925001727503 2.4540624618530273 False False
16024.442 4.024868965148926 -1.0747341972640534 1.2584198156939905 -1.7544814548888148 -1.5708335081683558 2.454054594039917 False False
16024.462 4.024820327758789 -1.0746920865825196 1.2584126631366175 -1.754533430139059 -1.5707762877093714 2.4540789127349854 False False
16024.482 4.024885654449463 -1.074713484649994 1.2583797613727015 -1.7544294796385707 -1.570801083241598 2.454030752182007 False False
16024.501999999999 4.024836540222168 -1.0747253459743042 1.2583993116961878 -1.7544976673521937 -1.5708168188678187 2.454000949859619 False False
16024.521999999999 4.024820327758789 -1.0746392768672486 1.2583707014666956 -1.754449029962057 -1.570784870778219 2.454050064086914 False False
16024.542 4.024886131286621 -1.074693040256836 1.2583873907672327 -1.754437109033102 -1.5708044211017054 2.454041004180908 False False
16024.562 4.024844646453857 -1.0746597212604065 1.2584036032306116 -1.7544733486571253 -1.570829216633932 2.454029083251953 False False
16024.581999999999 4.024877071380615 -1.074712560778 1.2583544890033167 -1.7544733486571253 -1.570813004170553 2.454017400741577 False False
16024.601999999999 4.024910926818848 -1.074720249777176 1.2583587805377405 -1.7544852695860804 -1.5707886854754847 2.454071521759033 False False
16024.622 4.02480411529541 -1.074635849600174 1.2584126631366175 -1.7544452152647914 -1.5707605520831507 2.454054594039917 False False
16024.642 4.024873733520508 -1.0746920567801972 1.2584365049945276 -1.754505296746725 -1.570853058491842 2.454092502593994 False False
16024.661999999998 4.024853229522705 -1.074693040256836 1.2584212462054651 -1.754437109033102 -1.5708335081683558 2.4540998935699463 False False
16024.681999999999 4.024832248687744 -1.0747040075114747 1.2584050337420862 -1.7544452152647914 -1.5707805792437952 2.454009771347046 False False
16024.702 4.024786472320557 -1.0746563834002991 1.2583797613727015 -1.7544852695860804 -1.5708335081683558 2.4540789127349854 False False
16024.722 4.0248236656188965 -1.0746596914580842 1.2584036032306116 -1.7544576130309046 -1.5708211104022425 2.454008102416992 False False
16024.741999999998 4.024894714355469 -1.0747211140445252 1.2583873907672327 -1.7544213734068812 -1.5707405249225062 2.454092502593994 False False
16024.761999999999 4.024856090545654 -1.0746682745269318 1.2584331671344202 -1.7544976673521937 -1.5707925001727503 2.454050064086914 False False
16024.782 4.024848937988281 -1.0746801656535645 1.2584450880633753 -1.7544576130309046 -1.5707967917071741 2.4540536403656006 False False
16024.802 4.024856090545654 -1.074692116384842 1.2584317366229456 -1.7545095882811488 -1.5707843939410608 2.4540669918060303 False False
16024.822 4.024811267852783 -1.074704037313797 1.2583664099322718 -1.7544533214964808 -1.5707886854754847 2.454042673110962 False False
16024.841999999999 4.024816036224365 -1.0746767979911347 1.2583916823016565 -1.7544495067992152 -1.5707886854754847 2.4540998935699463 False False
16024.862 4.024906635284424 -1.074704037313797 1.2584198156939905 -1.7544933758177699 -1.570772949849264 2.4540669918060303 False False
16024.882 4.024898052215576 -1.0746682745269318 1.2584245840655726 -1.75443758587026 -1.570801083241598 2.4540698528289795 False False
16024.902 4.024844646453857 -1.0746606153300782 1.2584036032306116 -1.7544814548888148 -1.5707972685443323 2.454054594039917 False False
16024.921999999999 4.024844646453857 -1.0747082990458985 1.2583664099322718 -1.7544452152647914 -1.570801083241598 2.454033851623535 False False
16024.942 4.024832248687744 -1.074679122572281 1.2584198156939905 -1.7544809780516566 -1.5707648436175745 2.454050064086914 False False
16024.962 4.024885654449463 -1.0747415584376832 1.2583916823016565 -1.7544852695860804 -1.570813004170553 2.454080581665039 False False
16024.982 4.024853229522705 -1.0747326177409668 1.2584245840655726 -1.754465242425436 -1.570772949849264 2.454071521759033 False False
16025.001999999999 4.024836540222168 -1.074712560778 1.2584198156939905 -1.7545129261412562 -1.570853058491842 2.454054594039917 False False
16025.021999999999 4.024824619293213 -1.0746682745269318 1.2583993116961878 -1.75443758587026 -1.5708168188678187 2.4540579319000244 False False
16025.042 4.024824619293213 -1.0747253757766266 1.2583797613727015 -1.7544452152647914 -1.5708335081683558 2.454050064086914 False False
16025.062 4.024893283843994 -1.0746725362590333 1.2584078947650355 -1.754477163354391 -1.570813004170553 2.454050064086914 False False
16025.081999999999 4.024844646453857 -1.0746597212604065 1.2583587805377405 -1.754449029962057 -1.5707605520831507 2.454054594039917 False False
16025.101999999999 4.024885654449463 -1.074652062063553 1.2583945433246058 -1.7544690571227015 -1.5708168188678187 2.4540834426879883 False False
16025.122 4.024840354919434 -1.0746810895255585 1.2583916823016565 -1.754465242425436 -1.5707886854754847 2.4540655612945557 False False
16025.142 4.024868965148926 -1.074741320019104 1.2583544890033167 -1.75443758587026 -1.5707648436175745 2.4540669918060303 False False
16025.161999999998 4.024864673614502 -1.0746725362590333 1.2583463827716272 -1.7545129261412562 -1.5707925001727503 2.454058885574341 False False
16025.181999999999 4.02480411529541 -1.074724481706955 1.2583754698382776 -1.754529138604635 -1.5708168188678187 2.454054594039917 False False
16025.202 4.024840831756592 -1.0747532111457367 1.2583754698382776 -1.7544576130309046 -1.5707648436175745 2.454080581665039 False False
16025.222 4.024864673614502 -1.074692116384842 1.2583873907672327 -1.7544576130309046 -1.5707967917071741 2.4540834426879883 False False
16025.241999999998 4.02483606338501 -1.0746478003314515 1.2584450880633753 -1.7544614277281703 -1.570813004170553 2.4540083408355713 False False
16025.261999999999 4.024860382080078 -1.0747006398490448 1.2584078947650355 -1.7544852695860804 -1.5707686583148401 2.454050064086914 False False
16025.282 4.024848937988281 -1.0746844571879883 1.2583797613727015 -1.7544414005675257 -1.5707925001727503 2.454050064086914 False False
16025.302 4.024860382080078 -1.0747049015811463 1.258357350026266 -1.7544533214964808 -1.570784870778219 2.4540624618530273 False False
16025.322 4.024848937988281 -1.074692116384842 1.2583587805377405 -1.7544132671751917 -1.5707805792437952 2.4540908336639404 False False
16025.341999999999 4.024853229522705 -1.0747253757766266 1.2584078947650355 -1.754465242425436 -1.5708211104022425 2.45402455329895 False False
16025.362 4.024840354919434 -1.0746759337237854 1.2584198156939905 -1.7544933758177699 -1.5708368460284632 2.4540579319000244 False False
16025.382 4.024856090545654 -1.074708269243576 1.2583916823016565 -1.7544576130309046 -1.5707648436175745 2.4540834426879883 False False
16025.402 4.024832248687744 -1.074712560778 1.2584198156939905 -1.7545253239073695 -1.5708168188678187 2.454108715057373 False False
16025.421999999999 4.02482795715332 -1.0747156900218506 1.2584393660174769 -1.7544971905150355 -1.5707805792437952 2.454026222229004 False False
16025.442 4.024853229522705 -1.0747006398490448 1.2584078947650355 -1.7544852695860804 -1.5707886854754847 2.454050064086914 False False
16025.462 4.024877548217773 -1.0746887189200898 1.2583678404437464 -1.7545010052123011 -1.5707605520831507 2.4539918899536133 False False
16025.482 4.0248236656188965 -1.0747540456107636 1.2583916823016565 -1.7544895611205042 -1.570801083241598 2.454054594039917 False False
16025.501999999999 4.0248236656188965 -1.0746759635261078 1.2584078947650355 -1.75443758587026 -1.5707886854754847 2.4540998935699463 False False
16025.521999999999 4.024844646453857 -1.0746877950480958 1.2584036032306116 -1.7544614277281703 -1.5707724730121058 2.454076051712036 False False
16025.542 4.024824619293213 -1.0747671586326142 1.2584288755999964 -1.7545253239073695 -1.5708449522601526 2.4540669918060303 False False
16025.562 4.02483606338501 -1.0747156900218506 1.2584498564349573 -1.7544495067992152 -1.5707967917071741 2.454017400741577 False False
16025.581999999999 4.024844646453857 -1.0746466678432007 1.2584288755999964 -1.7544495067992152 -1.5707925001727503 2.45402455329895 False False
16025.601999999999 4.024841785430908 -1.0746963781169434 1.2584379355060022 -1.754477163354391 -1.5708168188678187 2.4540834426879883 False False
16025.622 4.024845123291016 -1.074712560778 1.2584155241595667 -1.7544690571227015 -1.570813004170553 2.454042673110962 False False
16025.642 4.024816036224365 -1.074708269243576 1.2584078947650355 -1.7544690571227015 -1.5708168188678187 2.4540364742279053 False False
16025.661999999998 4.024782657623291 -1.074671671991684 1.2583840529071253 -1.7544614277281703 -1.570824925099508 2.454041004180908 False False
16025.681999999999 4.024844646453857 -1.0746802252582093 1.2584198156939905 -1.7544614277281703 -1.570784870778219 2.4540579319000244 False False
16025.702 4.02482795715332 -1.0746878248504181 1.2584126631366175 -1.7544452152647914 -1.570801083241598 2.4540624618530273 False False
16025.722 4.024848937988281 -1.0747413498214264 1.2584155241595667 -1.7544971905150355 -1.5707967917071741 2.4540624618530273 False False
16025.741999999998 4.024803161621094 -1.0747244519046326 1.2584007422076624 -1.7545210323729457 -1.5707610289203089 2.4540579319000244 False False
16025.761999999999 4.024828910827637 -1.0747499030879517 1.2583544890033167 -1.7544690571227015 -1.5707891623126429 2.4540789127349854 False False
16025.782 4.024840831756592 -1.0746887189200898 1.2583501974688929 -1.7545134029784144 -1.5707891623126429 2.4540698528289795 False False
16025.802 4.024853229522705 -1.0746682745269318 1.2583707014666956 -1.7544576130309046 -1.570813004170553 2.454054594039917 False False
16025.822 4.024832248687744 -1.0747168523124238 1.2584078947650355 -1.7544576130309046 -1.5708254019366663 2.454071521759033 False False
16025.841999999999 4.024832248687744 -1.0747330051711579 1.2584331671344202 -1.754465242425436 -1.570801083241598 2.454050064086914 False False
16025.862 4.024860382080078 -1.0746758741191407 1.2583783308612269 -1.7544809780516566 -1.5707648436175745 2.4540202617645264 False False
16025.882 4.0248517990112305 -1.074631707077362 1.2584126631366175 -1.75443758587026 -1.570784870778219 2.454041004180908 False False
16025.902 4.024853229522705 -1.074659751062729 1.2583826223956507 -1.75451721767568 -1.5707486311541956 2.454029083251953 False False
16025.921999999999 4.024857521057129 -1.0747244221023102 1.2584078947650355 -1.7544690571227015 -1.5707891623126429 2.454017400741577 False False
16025.942 4.024860382080078 -1.0747125905803223 1.2583754698382776 -1.7544294796385707 -1.5707925001727503 2.454054594039917 False False
16025.962 4.024857521057129 -1.0746758741191407 1.2584245840655726 -1.7544533214964808 -1.5707891623126429 2.454042673110962 False False
16025.982 4.024832248687744 -1.0747082394412537 1.2583959738360804 -1.7544456921019496 -1.570784870778219 2.454033613204956 False False
16026.001999999999 4.024856090545654 -1.074684427385666 1.2584036032306116 -1.7544733486571253 -1.5707686583148401 2.4540743827819824 False False
16026.021999999999 4.024885654449463 -1.074724481706955 1.2584198156939905 -1.7545014820494593 -1.5708168188678187 2.454033613204956 False False
16026.042 4.0248236656188965 -1.0746844571879883 1.2583873907672327 -1.7544576130309046 -1.5708168188678187 2.454017400741577 False False
16026.062 4.024893283843994 -1.0746563535979767 1.2584126631366175 -1.754505296746725 -1.5708254019366663 2.454026222229004 False False
16026.081999999999 4.024901866912842 -1.0746887189200898 1.2583993116961878 -1.7544852695860804 -1.5707767645465296 2.454042673110962 False False
16026.101999999999 4.024860382080078 -1.0747049015811463 1.2584078947650355 -1.7544576130309046 -1.5707610289203089 2.454054594039917 False False
16026.122 4.024803161621094 -1.0746392768672486 1.2583993116961878 -1.7544456921019496 -1.5707648436175745 2.4540669918060303 False False
16026.142 4.0248517990112305 -1.0747287434390564 1.2584036032306116 -1.7544695339598597 -1.570784870778219 2.454017400741577 False False
16026.161999999998 4.02482795715332 -1.0747049015811463 1.2583635489093226 -1.754477163354391 -1.5708044211017054 2.4540834426879883 False False
16026.181999999999 4.024844646453857 -1.0746963781169434 1.2583664099322718 -1.7544809780516566 -1.5707891623126429 2.454050064086914 False False
16026.202 4.024861812591553 -1.0747049313834687 1.2583754698382776 -1.754489084283346 -1.570784870778219 2.453996181488037 False False
16026.222 4.0248494148254395 -1.0746878546527405 1.2583916823016565 -1.7544695339598597 -1.5708168188678187 2.454054594039917 False False
16026.241999999998 4.024885654449463 -1.0747006398490448 1.2584169546710413 -1.754465242425436 -1.5707967917071741 2.454045534133911 False False
16026.261999999999 4.0248517990112305 -1.0747326177409668 1.2583945433246058 -1.7545367679991664 -1.5707929770099085 2.454045534133911 False False
16026.282 4.02480411529541 -1.0747134548476716 1.2583754698382776 -1.7544971905150355 -1.5708044211017054 2.454092264175415 False False
16026.302 4.024877071380615 -1.0747006398490448 1.2584078947650355 -1.754477163354391 -1.5707686583148401 2.4540579319000244 False False
16026.322 4.0248942375183105 -1.074650989179947 1.2583783308612269 -1.7544933758177699 -1.570813004170553 2.454054594039917 False False
16026.341999999999 4.02487325668335 -1.0746725660613556 1.2583797613727015 -1.754465242425436 -1.570772949849264 2.454045534133911 False False
16026.362 4.024844646453857 -1.0747006398490448 1.2583830992328089 -1.7544576130309046 -1.5707925001727503 2.4540469646453857 False False
16026.382 4.024872779846191 -1.0746996265700837 1.2584198156939905 -1.754477163354391 -1.5707805792437952 2.4540624618530273 False False
16026.402 4.024845123291016 -1.0747039777091523 1.25836688676943 -1.754465242425436 -1.5708044211017054 2.4540624618530273 False False
16026.421999999999 4.024868965148926 -1.0747370284846802 1.2583840529071253 -1.754505296746725 -1.57074481645693 2.454017400741577 False False
16026.442 4.024782657623291 -1.0747253757766266 1.2584212462054651 -1.7544576130309046 -1.5708091894732874 2.453996419906616 False False
16026.462 4.024860382080078 -1.0747253757766266 1.2583840529071253 -1.7544809780516566 -1.570813004170553 2.4540834426879883 False False
16026.482 4.024840354919434 -1.0746920865825196 1.2583873907672327 -1.7544571361937464 -1.5707648436175745 2.454033613204956 False False
16026.501999999999 4.024844646453857 -1.0746640127948304 1.2584078947650355 -1.75443758587026 -1.5707486311541956 2.454021692276001 False False
16026.521999999999 4.024856090545654 -1.074671671991684 1.2583635489093226 -1.7544895611205042 -1.570801083241598 2.4540579319000244 False False
16026.542 4.02482795715332 -1.0746142727187653 1.2583711783038538 -1.754453798333639 -1.5707686583148401 2.45402455329895 False False
16026.562 4.0248332023620605 -1.0746877950480958 1.2583664099322718 -1.7544332943358363 -1.5708449522601526 2.45402455329895 False False
16026.581999999999 4.024885654449463 -1.0746640127948304 1.2584036032306116 -1.7544452152647914 -1.5708168188678187 2.454000949859619 False False
16026.601999999999 4.024832248687744 -1.074728713636734 1.2584036032306116 -1.7544933758177699 -1.5708168188678187 2.454050064086914 False False
16026.622 4.024783611297607 -1.0747039777091523 1.2583993116961878 -1.7544852695860804 -1.5707925001727503 2.454033613204956 False False
16026.642 4.024811744689941 -1.0746716421893616 1.2583468596087855 -1.7544809780516566 -1.5708211104022425 2.454054594039917 False False
16026.661999999998 4.024832248687744 -1.074652062063553 1.2584198156939905 -1.7544852695860804 -1.5708254019366663 2.4540743827819824 False False
16026.681999999999 4.024864673614502 -1.0746716421893616 1.2583711783038538 -1.7544814548888148 -1.570824925099508 2.4540951251983643 False False
16026.702 4.024853229522705 -1.074741320019104 1.2584121862994593 -1.7545134029784144 -1.570801083241598 2.4540789127349854 False False
16026.722 4.024881362915039 -1.0747455221465607 1.2584078947650355 -1.75443758587026 -1.5708168188678187 2.454050064086914 False False
16026.741999999998 4.024840831756592 -1.0746929806521912 1.2583993116961878 -1.7544809780516566 -1.570813004170553 2.4540202617645264 False False
16026.761999999999 4.024872779846191 -1.074712560778 1.2583907286273401 -1.7544690571227015 -1.570813004170553 2.454050064086914 False False
16026.782 4.024853229522705 -1.0747287434390564 1.2583916823016565 -1.7545253239073695 -1.5707929770099085 2.454000949859619 False False
16026.802 4.024816036224365 -1.0746844571879883 1.258444611226217 -1.7544175587096156 -1.570772949849264 2.454054594039917 False False
16026.822 4.024853229522705 -1.0747091931155701 1.2584155241595667 -1.7545134029784144 -1.5707886854754847 2.454033613204956 False False
16026.841999999999 4.0248236656188965 -1.0747049313834687 1.2584403196917933 -1.7544976673521937 -1.5707805792437952 2.4540624618530273 False False
16026.862 4.024828910827637 -1.074713484649994 1.258324925099508 -1.7545215092101039 -1.5708168188678187 2.4540789127349854 False False
16026.882 4.024856090545654 -1.0747125011733552 1.2583797613727015 -1.7544533214964808 -1.5707686583148401 2.454041004180908 False False
16026.902 4.024832248687744 -1.0746930104545136 1.2583797613727015 -1.7544414005675257 -1.570723835621969 2.4540202617645264 False False
16026.921999999999 4.024860382080078 -1.0746878248504181 1.258444611226217 -1.7544175587096156 -1.5707925001727503 2.454008102416992 False False
16026.942 4.024853229522705 -1.0747083288482209 1.2583993116961878 -1.754460950891012 -1.5708335081683558 2.454101324081421 False False
16026.962 4.024799823760986 -1.074704037313797 1.2584198156939905 -1.7545129261412562 -1.5708048979388636 2.454092502593994 False False
16026.982 4.02482795715332 -1.0746725660613556 1.25836688676943 -1.7544414005675257 -1.5707648436175745 2.4540743827819824 False False
16027.001999999999 4.024848937988281 -1.07465215147052 1.2583873907672327 -1.7544933758177699 -1.5707925001727503 2.4540834426879883 False False
16027.021999999999 4.0249104499816895 -1.074692116384842 1.2583916823016565 -1.754465719262594 -1.570801083241598 2.454054594039917 False False
16027.042 4.024860382080078 -1.0747049015811463 1.2583592573748987 -1.7544294796385707 -1.5708048979388636 2.454045534133911 False False
16027.062 4.02482795715332 -1.0746802252582093 1.2583754698382776 -1.7544976673521937 -1.5707405249225062 2.4540679454803467 False False
16027.081999999999 4.024885654449463 -1.0746844571879883 1.25836688676943 -1.7544933758177699 -1.570756737385885 2.4540624618530273 False False
16027.101999999999 4.024803161621094 -1.0746844869903107 1.2584078947650355 -1.7544414005675257 -1.5707648436175745 2.4540364742279053 False False
16027.122 4.024848937988281 -1.074663982992508 1.2584155241595667 -1.7545134029784144 -1.5707967917071741 2.454054594039917 False False
16027.142 4.024836540222168 -1.074729637508728 1.2584155241595667 -1.754465242425436 -1.5707967917071741 2.4540634155273438 False False
16027.161999999998 4.024836540222168 -1.0747082990458985 1.2584403196917933 -1.7544614277281703 -1.5707724730121058 2.454054594039917 False False
16027.181999999999 4.024848937988281 -1.0746682745269318 1.2583711783038538 -1.7544733486571253 -1.5707843939410608 2.454042673110962 False False
16027.202 4.024844646453857 -1.0746305745891114 1.2583959738360804 -1.7544251881041468 -1.5707805792437952 2.454042673110962 False False
16027.222 4.024824619293213 -1.074712560778 1.2584078947650355 -1.754460950891012 -1.5708335081683558 2.454017400741577 False False
16027.241999999998 4.024853229522705 -1.0747330349734803 1.2583711783038538 -1.7544895611205042 -1.5707805792437952 2.454038143157959 False False
16027.261999999999 4.024844646453857 -1.0746606153300782 1.2584241072284144 -1.7544614277281703 -1.5708091894732874 2.4540579319000244 False False
16027.282 4.024857521057129 -1.0746597212604065 1.2583592573748987 -1.7544733486571253 -1.570813004170553 2.4540789127349854 False False
16027.302 4.024840354919434 -1.0747252863696595 1.2584036032306116 -1.7544733486571253 -1.5707886854754847 2.454017400741577 False False
16027.322 4.024853229522705 -1.0747330647758027 1.2583711783038538 -1.7544452152647914 -1.570784870778219 2.454058885574341 False False
16027.341999999999 4.024861812591553 -1.0746555191329499 1.2583797613727015 -1.7544852695860804 -1.570784870778219 2.454042673110962 False False
16027.362 4.024853229522705 -1.0746759635261078 1.2583797613727015 -1.7544414005675257 -1.5708044211017054 2.45402455329895 False False
16027.382 4.024872779846191 -1.0747082990458985 1.258395020161764 -1.754477163354391 -1.570784870778219 2.4540998935699463 False False
16027.402 4.024897575378418 -1.0746921461871644 1.2584121862994593 -1.7545253239073695 -1.5707529226886194 2.4540469646453857 False False
16027.421999999999 4.024856090545654 -1.074704037313797 1.2584360281573694 -1.7544614277281703 -1.5707686583148401 2.454058885574341 False False
16027.442 4.024779319763184 -1.0747040671161194 1.2583592573748987 -1.7544971905150355 -1.5708335081683558 2.454050064086914 False False
16027.462 4.024869441986084 -1.074724481706955 1.2584198156939905 -1.7544933758177699 -1.5707724730121058 2.454000949859619 False False
16027.482 4.024827480316162 -1.0747006696513672 1.2584360281573694 -1.7544733486571253 -1.570813004170553 2.454033613204956 False False
16027.501999999999 4.024824619293213 -1.0747244519046326 1.2584198156939905 -1.7544614277281703 -1.5707724730121058 2.4540579319000244 False False
16027.521999999999 4.024827480316162 -1.0746995371631165 1.2583635489093226 -1.7544814548888148 -1.5708449522601526 2.454012632369995 False False
16027.542 4.024844646453857 -1.0747091931155701 1.2584078947650355 -1.754477163354391 -1.5708087126361292 2.454050064086914 False False
16027.562 4.024848937988281 -1.0746725362590333 1.2584403196917933 -1.7545095882811488 -1.5707767645465296 2.4540634155273438 False False
16027.581999999999 4.024849891662598 -1.0747082990458985 1.2583993116961878 -1.7544976673521937 -1.5707925001727503 2.454050064086914 False False
16027.601999999999 4.024832248687744 -1.0747006398490448 1.2583830992328089 -1.754465719262594 -1.5707805792437952 2.4539918899536133 False False
16027.622 4.024898052215576 -1.074692116384842 1.2584078947650355 -1.7544928989806117 -1.5707891623126429 2.454012632369995 False False
16027.642 4.024827480316162 -1.0747082394412537 1.2583959738360804 -1.7545095882811488 -1.5708091894732874 2.454042673110962 False False
16027.661999999998 4.024873733520508 -1.0747330051711579 1.2583993116961878 -1.7545095882811488 -1.5707967917071741 2.454041004180908 False False
16027.681999999999 4.024878025054932 -1.074704037313797 1.2584198156939905 -1.7544733486571253 -1.5707443396197718 2.454050064086914 False False
16027.702 4.024857997894287 -1.0746887189200898 1.2584036032306116 -1.754437109033102 -1.570784870778219 2.454050064086914 False False
16027.722 4.024882793426514 -1.0747006398490448 1.2583830992328089 -1.7544452152647914 -1.5707805792437952 2.454033613204956 False False
16027.741999999998 4.024886131286621 -1.0746606451324006 1.2584002653705042 -1.7545134029784144 -1.5708449522601526 2.454041004180908 False False
16027.761999999999 4.024857997894287 -1.0747006398490448 1.2584036032306116 -1.7545014820494593 -1.570784870778219 2.454045534133911 False False
16027.782 4.024886131286621 -1.0746725362590333 1.25836688676943 -1.7544533214964808 -1.5708335081683558 2.454041004180908 False False
16027.802 4.024844646453857 -1.0746929806521912 1.2584078947650355 -1.7544452152647914 -1.5707524458514612 2.45402455329895 False False
16027.822 4.024853229522705 -1.0747125905803223 1.258416477833883 -1.7544533214964808 -1.570829216633932 2.4540669918060303 False False
16027.841999999999 4.024890422821045 -1.074712560778 1.2583840529071253 -1.7544614277281703 -1.570784870778219 2.453979969024658 False False
16027.862 4.024848937988281 -1.0747083288482209 1.2584121862994593 -1.7544933758177699 -1.5707925001727503 2.453996419906616 False False
16027.882 4.024844646453857 -1.0746877950480958 1.2584360281573694 -1.7544414005675257 -1.5707605520831507 2.4540834426879883 False False
16027.902 4.024823188781738 -1.0746963781169434 1.2583702246295374 -1.7544452152647914 -1.570813004170553 2.454033613204956 False False
16027.921999999999 4.024873733520508 -1.0746964079192658 1.2583425680743616 -1.7544533214964808 -1.5708087126361292 2.454033613204956 False False
16027.942 4.024848937988281 -1.0746640127948304 1.2584360281573694 -1.754505296746725 -1.5708211104022425 2.454041004180908 False False
16027.962 4.024836540222168 -1.0746855598739167 1.2583625952350062 -1.7544533214964808 -1.5708168188678187 2.454071521759033 False False
16027.982 4.024848937988281 -1.074724481706955 1.2584155241595667 -1.7544614277281703 -1.570813004170553 2.454012632369995 False False
16028.001999999999 4.024898052215576 -1.074724481706955 1.2584155241595667 -1.754477163354391 -1.5707686583148401 2.454033613204956 False False
16028.021999999999 4.024869441986084 -1.0746995967677613 1.2583830992328089 -1.7545095882811488 -1.5708087126361292 2.454087972640991 False False
16028.042 4.024864673614502 -1.0746963781169434 1.2583916823016565 -1.7544814548888148 -1.5708168188678187 2.4540951251983643 False False
16028.062 4.024814128875732 -1.0746649366668244 1.2584317366229456 -1.7544132671751917 -1.570813004170553 2.454054594039917 False False
16028.081999999999 4.024935245513916 -1.0747006398490448 1.2583873907672327 -1.7544895611205042 -1.5707605520831507 2.4540834426879883 False False
16028.101999999999 4.024873733520508 -1.074631617670395 1.2583830992328089 -1.7545095882811488 -1.570813004170553 2.4540834426879883 False False
16028.122 4.024795055389404 -1.0747415584376832 1.2583754698382776 -1.7544814548888148 -1.5707967917071741 2.454050064086914 False False
16028.142 4.024844646453857 -1.0746682745269318 1.2583993116961878 -1.7544614277281703 -1.5708335081683558 2.454045534133911 False False
16028.161999999998 4.024832248687744 -1.0746921461871644 1.2584155241595667 -1.7545095882811488 -1.5707805792437952 2.454033613204956 False False
16028.181999999999 4.024783134460449 -1.074729637508728 1.2583993116961878 -1.7545014820494593 -1.5707925001727503 2.454012870788574 False False
16028.202 4.024857997894287 -1.0747083288482209 1.258355442677633 -1.75443758587026 -1.5707929770099085 2.4540536403656006 False False
16028.222 4.024820327758789 -1.0746478003314515 1.2583635489093226 -1.7544814548888148 -1.5708168188678187 2.454033613204956 False False
16028.241999999998 4.024853229522705 -1.0746844571879883 1.2583873907672327 -1.7544933758177699 -1.570801083241598 2.4540321826934814 False False
16028.261999999999 4.024860382080078 -1.0747049015811463 1.2583797613727015 -1.754449029962057 -1.5707886854754847 2.4540743827819824 False False
16028.282 4.024853229522705 -1.0746921461871644 1.2584121862994593 -1.7544533214964808 -1.5707805792437952 2.454033613204956 False False
16028.302 4.024857997894287 -1.074704037313797 1.2583883444415491 -1.754465719262594 -1.5707886854754847 2.454017400741577 False False
16028.322 4.024844646453857 -1.0746920865825196 1.2584002653705042 -1.754453798333639 -1.5707724730121058 2.454045534133911 False False
16028.341999999999 4.024862289428711 -1.0746554297259827 1.2583797613727015 -1.754465242425436 -1.5707891623126429 2.454076051712036 False False
16028.362 4.024851322174072 -1.0746844571879883 1.2584036032306116 -1.7545339069762171 -1.5708168188678187 2.454045295715332 False False
16028.382 4.024811267852783 -1.0746963185122986 1.2584360281573694 -1.7544452152647914 -1.5708497206317347 2.454041004180908 False False
16028.402 4.024853229522705 -1.0747082990458985 1.2583993116961878 -1.754521986047262 -1.5708335081683558 2.454041004180908 False False
16028.421999999999 4.024857997894287 -1.0747168225101014 1.2583592573748987 -1.754437109033102 -1.5708215872394007 2.454096794128418 False False
16028.442 4.024864673614502 -1.0746759337237854 1.2583625952350062 -1.754465719262594 -1.5708416144000452 2.454054594039917 False False
16028.462 4.024815559387207 -1.0746725362590333 1.2584283987628382 -1.7544814548888148 -1.5707967917071741 2.4540669918060303 False False
16028.482 4.024853229522705 -1.074712560778 1.2583754698382776 -1.7544533214964808 -1.5707600752459925 2.454050064086914 False False
16028.501999999999 4.024864673614502 -1.0746716421893616 1.2583873907672327 -1.7544251881041468 -1.5707967917071741 2.454033613204956 False False
16028.521999999999 4.024873733520508 -1.0747134548476716 1.2584121862994593 -1.754453798333639 -1.5707724730121058 2.454041004180908 False False
16028.542 4.024811267852783 -1.0746478003314515 1.2583873907672327 -1.7544452152647914 -1.5707767645465296 2.4540083408355713 False False
16028.562 4.024848937988281 -1.0747211140445252 1.2583754698382776 -1.7544614277281703 -1.5707724730121058 2.4540579319000244 False False
16028.581999999999 4.024848937988281 -1.074685500269272 1.2583945433246058 -1.7544695339598597 -1.570801083241598 2.4540579319000244 False False
16028.601999999999 4.024827480316162 -1.0747498732856293 1.2584036032306116 -1.7544690571227015 -1.5708211104022425 2.454041004180908 False False
16028.622 4.024860382080078 -1.0746597212604065 1.2583916823016565 -1.7544614277281703 -1.5707925001727503 2.454033613204956 False False
16028.642 4.024881839752197 -1.0746844571879883 1.2583993116961878 -1.7544614277281703 -1.5707891623126429 2.454033613204956 False False
16028.661999999998 4.024873733520508 -1.074631617670395 1.2584155241595667 -1.7544533214964808 -1.5707886854754847 2.4540579319000244 False False
16028.681999999999 4.024827480316162 -1.074692116384842 1.2584245840655726 -1.7544976673521937 -1.570756737385885 2.454029083251953 False False
16028.702 4.024862289428711 -1.074708269243576 1.2583754698382776 -1.754477163354391 -1.5707724730121058 2.454075813293457 False False
16028.722 4.024824619293213 -1.0747168225101014 1.2583959738360804 -1.754465719262594 -1.5707767645465296 2.454108715057373 False False
16028.741999999998 4.024848937988281 -1.074663982992508 1.2583587805377405 -1.754437109033102 -1.5708254019366663 2.454058885574341 False False
16028.761999999999 4.024853229522705 -1.0746834439090271 1.2583754698382776 -1.75443758587026 -1.570784870778219 2.454058885574341 False False
16028.782 4.024836540222168 -1.0746359688094635 1.2584365049945276 -1.7544857464232386 -1.570829216633932 2.4540367126464844 False False
16028.802 4.024835586547852 -1.0746640425971528 1.2583873907672327 -1.754441877404684 -1.570813004170553 2.454042673110962 False False
16028.822 4.024853229522705 -1.0747049015811463 1.2584036032306116 -1.7544895611205042 -1.5708087126361292 2.454017400741577 False False
16028.841999999999 4.024795055389404 -1.0746554893306275 1.2583721319781702 -1.7544733486571253 -1.570813004170553 2.454041004180908 False False
16028.862 4.024856090545654 -1.0746435684016724 1.2584317366229456 -1.7544452152647914 -1.5707767645465296 2.454021692276001 False False
16028.882 4.024864673614502 -1.074639306669571 1.2583993116961878 -1.7544895611205042 -1.570801083241598 2.454071521759033 False False
16028.902 4.024881839752197 -1.0746717017940064 1.2584078947650355 -1.7544895611205042 -1.570801083241598 2.454050064086914 False False
16028.921999999999 4.024860382080078 -1.0747575920871277 1.2583797613727015 -1.7544576130309046 -1.5707686583148401 2.454071521759033 False False
16028.942 4.024862289428711 -1.074692116384842 1.2584484259234827 -1.7544533214964808 -1.5707805792437952 2.4540157318115234 False False
16028.962 4.024832248687744 -1.0747082990458985 1.2583959738360804 -1.7544533214964808 -1.5707967917071741 2.454045534133911 False False
16028.982 4.024844646453857 -1.0746929806521912 1.2584198156939905 -1.754437109033102 -1.5708416144000452 2.454041004180908 False False
16029.001999999999 4.024862289428711 -1.0747082990458985 1.2584288755999964 -1.7545134029784144 -1.570801083241598 2.4540789127349854 False False
16029.021999999999 4.0248188972473145 -1.0747287434390564 1.2584245840655726 -1.7544933758177699 -1.5708087126361292 2.4540743827819824 False False
16029.042 4.024869441986084 -1.0747210544398804 1.2583797613727015 -1.7545095882811488 -1.570801083241598 2.454045534133911 False False
16029.062 4.024864673614502 -1.074692116384842 1.2583754698382776 -1.7544132671751917 -1.5707362333880823 2.454099655151367 False False
16029.081999999999 4.024811267852783 -1.0746725362590333 1.2584198156939905 -1.7544776401915492 -1.5708168188678187 2.454041004180908 False False
16029.101999999999 4.024808406829834 -1.0746887189200898 1.2583587805377405 -1.7544533214964808 -1.5707648436175745 2.454038143157959 False False
16029.122 4.024856090545654 -1.0746520918658753 1.2584331671344202 -1.7544895611205042 -1.5707767645465296 2.454012632369995 False False
16029.142 4.024878025054932 -1.0747125309756775 1.2584126631366175 -1.7544576130309046 -1.5708048979388636 2.454050064086914 False False
16029.161999999998 4.024853229522705 -1.074712560778 1.2583916823016565 -1.7545134029784144 -1.5708006064044397 2.454076051712036 False False
16029.181999999999 4.024877071380615 -1.0747006398490448 1.2584331671344202 -1.7544576130309046 -1.5708001295672815 2.4540634155273438 False False
16029.202 4.024864673614502 -1.074708269243576 1.2583873907672327 -1.7544614277281703 -1.5708211104022425 2.454099655151367 False False
16029.222 4.024881839752197 -1.0746834439090271 1.2583664099322718 -1.7544614277281703 -1.5708172957049769 2.454033613204956 False False
16029.241999999998 4.024839878082275 -1.0746964079192658 1.2584245840655726 -1.7544976673521937 -1.5708044211017054 2.454041004180908 False False
16029.261999999999 4.024832248687744 -1.0747455221465607 1.2584155241595667 -1.7544857464232386 -1.5707486311541956 2.4540624618530273 False False
16029.282 4.024869441986084 -1.0747091931155701 1.2584365049945276 -1.7544414005675257 -1.5707648436175745 2.45402455329895 False False
16029.302 4.024848937988281 -1.0746963781169434 1.2584245840655726 -1.754437109033102 -1.570801083241598 2.454050064086914 False False
16029.322 4.024844646453857 -1.0746801954558869 1.2583993116961878 -1.7545095882811488 -1.5707967917071741 2.454050064086914 False False
16029.341999999999 4.024864673614502 -1.0747168225101014 1.2584036032306116 -1.754449029962057 -1.5707929770099085 2.454050064086914 False False
16029.362 4.024890422821045 -1.0747083288482209 1.2584198156939905 -1.7544690571227015 -1.5707648436175745 2.454087972640991 False False
16029.382 4.024860382080078 -1.074725256567337 1.2584126631366175 -1.754505296746725 -1.570768181477682 2.4540669918060303 False False
16029.402 4.024872779846191 -1.0746759635261078 1.2583463827716272 -1.7544976673521937 -1.5708006064044397 2.454029083251953 False False
16029.421999999999 4.024844646453857 -1.0747125309756775 1.2583797613727015 -1.7544971905150355 -1.5707810560809534 2.454108715057373 False False
16029.442 4.024869441986084 -1.0747006100467225 1.2584112326251429 -1.7544213734068812 -1.5708087126361292 2.454033613204956 False False
16029.462 4.024911403656006 -1.0746597808650513 1.2584126631366175 -1.7544290028014125 -1.570824925099508 2.45402455329895 False False
16029.482 4.024873733520508 -1.0747082990458985 1.2583754698382776 -1.7544414005675257 -1.570784870778219 2.454026222229004 False False
16029.501999999999 4.024836540222168 -1.0747177761844178 1.2583826223956507 -1.7544175587096156 -1.5707967917071741 2.4540083408355713 False False
16029.521999999999 4.024845600128174 -1.0746963781169434 1.2583783308612269 -1.754437109033102 -1.5707367102252405 2.454033613204956 False False
16029.542 4.024864673614502 -1.0746759933284302 1.2583993116961878 -1.754465719262594 -1.570824925099508 2.4540834426879883 False False
16029.562 4.024844646453857 -1.074712560778 1.2584331671344202 -1.7544533214964808 -1.570784870778219 2.454033851623535 False False
16029.581999999999 4.024767875671387 -1.074737237100937 1.2584036032306116 -1.7544690571227015 -1.5708087126361292 2.454050064086914 False False
16029.601999999999 4.024853229522705 -1.074724481706955 1.2584036032306116 -1.7544976673521937 -1.5707967917071741 2.4540579319000244 False False
16029.622 4.024881839752197 -1.0746801954558869 1.2584126631366175 -1.754477163354391 -1.5707810560809534 2.454054594039917 False False
16029.642 4.024893760681152 -1.0746964079192658 1.2584331671344202 -1.754437109033102 -1.5708296934710901 2.45408034324646 False False
16029.661999999998 4.024799346923828 -1.0747125309756775 1.2584336439715784 -1.754465242425436 -1.5707810560809534 2.4540743827819824 False False
16029.681999999999 4.024848937988281 -1.0747082990458985 1.2584155241595667 -1.7544895611205042 -1.5708125273333948 2.454005479812622 False False
16029.702 4.024877071380615 -1.0747329753688355 1.2584245840655726 -1.7545014820494593 -1.5708006064044397 2.4540951251983643 False False
16029.722 4.024836540222168 -1.0747049015811463 1.2583664099322718 -1.7544576130309046 -1.5707605520831507 2.454012870788574 False False
16029.741999999998 4.024864673614502 -1.0747006398490448 1.2584078947650355 -1.7544132671751917 -1.5707929770099085 2.4540321826934814 False False
16029.761999999999 4.024844646453857 -1.074684427385666 1.2583993116961878 -1.7544976673521937 -1.5707767645465296 2.4540789127349854 False False
16029.782 4.024860382080078 -1.0746921759894867 1.2584288755999964 -1.7544933758177699 -1.5707929770099085 2.4540624618530273 False False
16029.802 4.024873733520508 -1.0746801954558869 1.2584365049945276 -1.7544852695860804 -1.5708001295672815 2.4540951251983643 False False
16029.822 4.024832248687744 -1.0747168225101014 1.2583544890033167 -1.7545095882811488 -1.5708611647235315 2.454038143157959 False False
16029.841999999999 4.0247697830200195 -1.07465215147052 1.2584126631366175 -1.7544290028014125 -1.570824925099508 2.454054594039917 False False
16029.862 4.024898052215576 -1.0746521216681977 1.2584078947650355 -1.7544614277281703 -1.5708206335650843 2.4540789127349854 False False
16029.882 4.024808406829834 -1.074704871778824 1.2583945433246058 -1.754477163354391 -1.5708006064044397 2.4540624618530273 False False
16029.902 4.024864673614502 -1.0746759933284302 1.2583707014666956 -1.7545095882811488 -1.570772949849264 2.4540743827819824 False False
16029.921999999999 4.024877071380615 -1.0746921461871644 1.2584155241595667 -1.7544614277281703 -1.5707967917071741 2.453979969024658 False False
16029.942 4.024823188781738 -1.074745551948883 1.2583993116961878 -1.7544971905150355 -1.5707929770099085 2.454042673110962 False False
16029.962 4.024869441986084 -1.074737237100937 1.2584078947650355 -1.7544576130309046 -1.5708168188678187 2.4540581703186035 False False
16029.982 4.024844646453857 -1.0746759635261078 1.2583797613727015 -1.7544495067992152 -1.5707810560809534 2.454054594039917 False False
16030.001999999999 4.024881839752197 -1.0747244519046326 1.2583916823016565 -1.754465242425436 -1.5708006064044397 2.4540083408355713 False False
16030.021999999999 4.024873733520508 -1.0746640127948304 1.2583754698382776 -1.7544614277281703 -1.5708168188678187 2.454050064086914 False False
16030.042 4.024848937988281 -1.0747082990458985 1.2584078947650355 -1.7544614277281703 -1.5708168188678187 2.454054594039917 False False
16030.062 4.024877071380615 -1.0747251969626923 1.2583873907672327 -1.7545176945128382 -1.570824925099508 2.454087972640991 False False
16030.081999999999 4.024848937988281 -1.0746834141067048 1.2583797613727015 -1.7544528446593226 -1.5707691351519983 2.4540669918060303 False False
16030.101999999999 4.024832248687744 -1.0747125309756775 1.2583888212787073 -1.754449029962057 -1.5708449522601526 2.4540834426879883 False False
16030.122 4.024877071380615 -1.0747253459743042 1.2584198156939905 -1.7544294796385707 -1.5707767645465296 2.454021692276001 False False
16030.142 4.0248847007751465 -1.0746929806521912 1.2584078947650355 -1.7545057735838832 -1.5707529226886194 2.454026222229004 False False
16030.161999999998 4.024866580963135 -1.07465215147052 1.2583916823016565 -1.754465242425436 -1.5707886854754847 2.4540743827819824 False False
16030.181999999999 4.0248847007751465 -1.0746274155429383 1.2583916823016565 -1.754460950891012 -1.5707886854754847 2.4539847373962402 False False
16030.202 4.024862289428711 -1.0746479493430634 1.2583959738360804 -1.7544213734068812 -1.570841137562887 2.454033613204956 False False
16030.222 4.024806976318359 -1.074692116384842 1.2583916823016565 -1.754449029962057 -1.5708525816546839 2.454050064086914 False False
16030.241999999998 4.024795055389404 -1.0747039777091523 1.2583664099322718 -1.7544814548888148 -1.5707886854754847 2.454096794128418 False False
16030.261999999999 4.024844646453857 -1.0746683043292542 1.2584036032306116 -1.7544576130309046 -1.5707886854754847 2.4540743827819824 False False
16030.282 4.024815559387207 -1.074725256567337 1.2584407965289515 -1.7544895611205042 -1.5708330313311976 2.454045534133911 False False
16030.302 4.024844646453857 -1.074647919540741 1.2583754698382776 -1.7544414005675257 -1.5708687941180628 2.454054594039917 False False
16030.322 4.024844646453857 -1.0746801954558869 1.2584050337420862 -1.7544414005675257 -1.5708048979388636 2.454045534133911 False False
16030.341999999999 4.024881839752197 -1.0746598702720185 1.2584078947650355 -1.7544576130309046 -1.570829216633932 2.454076051712036 False False
16030.362 4.024844646453857 -1.0747372669032593 1.2584155241595667 -1.7545095882811488 -1.5707929770099085 2.4540669918060303 False False
16030.382 4.024823188781738 -1.0747082990458985 1.2584245840655726 -1.754505296746725 -1.5707767645465296 2.4540202617645264 False False
16030.402 4.024848937988281 -1.0746598106673737 1.2583959738360804 -1.7544895611205042 -1.5708048979388636 2.454029083251953 False False
16030.421999999999 4.024857521057129 -1.074692116384842 1.2584198156939905 -1.7544456921019496 -1.5708168188678187 2.454054594039917 False False
16030.442 4.024799346923828 -1.0746844571879883 1.2584036032306116 -1.7544533214964808 -1.570829216633932 2.4540789127349854 False False
16030.462 4.024799346923828 -1.0746064347079773 1.2584078947650355 -1.754465242425436 -1.5707529226886194 2.454038143157959 False False
16030.482 4.024872779846191 -1.0746478897384186 1.2584198156939905 -1.7544495067992152 -1.57074481645693 2.45410418510437 False False
16030.501999999999 4.024848937988281 -1.0746767681888123 1.2584198156939905 -1.7544337711729945 -1.5707929770099085 2.4540669918060303 False False
16030.521999999999 4.024894714355469 -1.074663982992508 1.2583783308612269 -1.75443758587026 -1.5707805792437952 2.4540789127349854 False False
16030.542 4.024840831756592 -1.0746640425971528 1.2584126631366175 -1.754465242425436 -1.570824925099508 2.4540786743164062 False False
16030.562 4.024868965148926 -1.0747455221465607 1.2584036032306116 -1.7544337711729945 -1.5707648436175745 2.454108715057373 False False
16030.581999999999 4.024864673614502 -1.074704871778824 1.2583826223956507 -1.7544814548888148 -1.5708525816546839 2.454033613204956 False False
16030.601999999999 4.024799346923828 -1.074684427385666 1.258362118397848 -1.7544614277281703 -1.5707767645465296 2.454041004180908 False False
16030.622 4.024848937988281 -1.0746640127948304 1.2583993116961878 -1.75451721767568 -1.570784870778219 2.454041004180908 False False
16030.642 4.024785995483398 -1.0747253161719819 1.2584078947650355 -1.7544452152647914 -1.570772949849264 2.4539594650268555 False False
16030.661999999998 4.024840831756592 -1.0747006100467225 1.2584274450885218 -1.7544814548888148 -1.5708206335650843 2.454054594039917 False False
16030.681999999999 4.024848937988281 -1.0747582477382203 1.2584155241595667 -1.7545134029784144 -1.5707929770099085 2.4540038108825684 False False
16030.702 4.024832248687744 -1.0747125309756775 1.2584007422076624 -1.75443758587026 -1.570772949849264 2.454076051712036 False False
16030.722 4.0248236656188965 -1.074704871778824 1.2583544890033167 -1.7544456921019496 -1.5708125273333948 2.454076051712036 False False
16030.741999999998 4.024864673614502 -1.0746349853328248 1.2584121862994593 -1.754505296746725 -1.5708006064044397 2.4540677070617676 False False
16030.761999999999 4.024844646453857 -1.0747372072986145 1.2584288755999964 -1.7544495067992152 -1.5707810560809534 2.454092264175415 False False
16030.782 4.024806976318359 -1.0746759337237854 1.2584036032306116 -1.7544571361937464 -1.5707967917071741 2.4540669918060303 False False
16030.802 4.024832248687744 -1.074744538669922 1.2584155241595667 -1.754505296746725 -1.5708048979388636 2.454092264175415 False False
16030.822 4.024906635284424 -1.0747540158084412 1.2583592573748987 -1.7544576130309046 -1.5708125273333948 2.4540579319000244 False False
16030.841999999999 4.024836540222168 -1.0746759337237854 1.2584660688983362 -1.754465242425436 -1.5707452932940882 2.4540469646453857 False False
16030.862 4.024836540222168 -1.0746953946403046 1.2584155241595667 -1.7545057735838832 -1.5708125273333948 2.45414137840271 False False
16030.882 4.024812698364258 -1.0747049015811463 1.2584036032306116 -1.7544690571227015 -1.5707767645465296 2.454033851623535 False False
16030.902 4.024848937988281 -1.0747456711581727 1.2584002653705042 -1.754425664941305 -1.5707767645465296 2.454042673110962 False False
16030.921999999999 4.024862289428711 -1.074692116384842 1.2584288755999964 -1.7544814548888148 -1.570772949849264 2.4540083408355713 False False
16030.942 4.024853229522705 -1.0746511679938813 1.2583873907672327 -1.75443758587026 -1.5707691351519983 2.4539847373962402 False False
16030.962 4.024811267852783 -1.0746394258788605 1.2583754698382776 -1.75443758587026 -1.570784870778219 2.454017400741577 False False
16030.982 4.024845123291016 -1.0746435982039948 1.2584169546710413 -1.754477163354391 -1.570721451436178 2.4540669918060303 False False
16031.001999999999 4.024848937988281 -1.0746887189200898 1.2584241072284144 -1.7544495067992152 -1.5708168188678187 2.454029083251953 False False
16031.021999999999 4.024840831756592 -1.074716792707779 1.2583959738360804 -1.7544614277281703 -1.570813004170553 2.4540908336639404 False False
16031.042 4.024914264678955 -1.074623243217804 1.258354965840475 -1.7544814548888148 -1.5708335081683558 2.454033613204956 False False
16031.062 4.024811744689941 -1.0746521216681977 1.2584112326251429 -1.7544733486571253 -1.570784870778219 2.4540669918060303 False False
16031.081999999999 4.02482795715332 -1.0746478897384186 1.2584241072284144 -1.7544733486571253 -1.570772949849264 2.4540579319000244 False False
16031.101999999999 4.024864673614502 -1.0746640425971528 1.2583959738360804 -1.7544294796385707 -1.5707562605487269 2.454054594039917 False False
16031.122 4.024811744689941 -1.074721024637558 1.2583959738360804 -1.7544733486571253 -1.5708168188678187 2.454050064086914 False False
16031.142 4.024853229522705 -1.0747244519046326 1.2584036032306116 -1.7544733486571253 -1.5707843939410608 2.4540364742279053 False False
16031.161999999998 4.024877071380615 -1.0746921461871644 1.2584121862994593 -1.7544456921019496 -1.5707247892962855 2.4540624618530273 False False
16031.181999999999 4.024844646453857 -1.0746887189200898 1.2584403196917933 -1.7544614277281703 -1.5707925001727503 2.454071521759033 False False
16031.202 4.024836540222168 -1.0746971827796479 1.2584283987628382 -1.754505296746725 -1.5708048979388636 2.454058885574341 False False
16031.222 4.024860382080078 -1.0746478599360962 1.2584036032306116 -1.7544614277281703 -1.5707648436175745 2.454038143157959 False False
16031.241999999998 4.024894714355469 -1.0746886891177674 1.2584198156939905 -1.754441877404684 -1.5708335081683558 2.454096794128418 False False
16031.261999999999 4.024844646453857 -1.0746725362590333 1.2584036032306116 -1.754465242425436 -1.5708006064044397 2.454050064086914 False False
16031.282 4.024881362915039 -1.0746712249568482 1.25836688676943 -1.754441877404684 -1.5707648436175745 2.454029083251953 False False
16031.302 4.024806976318359 -1.074721024637558 1.2583830992328089 -1.754477163354391 -1.5707686583148401 2.454042673110962 False False
16031.322 4.024820327758789 -1.0747007590583344 1.2584121862994593 -1.7544895611205042 -1.5708168188678187 2.454087972640991 False False
16031.341999999999 4.024860382080078 -1.0747334224036713 1.2583797613727015 -1.7544456921019496 -1.570784870778219 2.4540624618530273 False False
16031.362 4.024848937988281 -1.0746637445739289 1.2584155241595667 -1.754477163354391 -1.5707648436175745 2.4540579319000244 False False
16031.382 4.024856090545654 -1.074680046444275 1.258350674306051 -1.7544733486571253 -1.5708168188678187 2.454050064086914 False False
16031.402 4.02487325668335 -1.074680046444275 1.2584155241595667 -1.7544852695860804 -1.570784870778219 2.454038143157959 False False
16031.421999999999 4.024836540222168 -1.07475037992511 1.2583754698382776 -1.7544852695860804 -1.5708211104022425 2.454045534133911 False False
16031.442 4.0247955322265625 -1.0746518236449738 1.2584360281573694 -1.75443758587026 -1.5707967917071741 2.454050064086914 False False
16031.462 4.024844646453857 -1.074703888302185 1.2583754698382776 -1.7544576130309046 -1.570829216633932 2.454050064086914 False False
16031.482 4.02487325668335 -1.0746637445739289 1.2583873907672327 -1.7544614277281703 -1.5708168188678187 2.454092264175415 False False
16031.501999999999 4.024853229522705 -1.0746593040278931 1.25836688676943 -1.7545014820494593 -1.570801083241598 2.454038143157959 False False
16031.521999999999 4.024807453155518 -1.0747504395297547 1.2583907286273401 -1.7544175587096156 -1.5707772413836878 2.454050064086914 False False
16031.542 4.024868965148926 -1.0746311408332367 1.2584198156939905 -1.754505296746725 -1.5707529226886194 2.454076051712036 False False
16031.562 4.024816036224365 -1.0746769470027466 1.2584283987628382 -1.7544495067992152 -1.5708211104022425 2.454026222229004 False False
16031.581999999999 4.024881362915039 -1.07469196737323 1.2583993116961878 -1.7544733486571253 -1.5707891623126429 2.454076051712036 False False
16031.601999999999 4.024857521057129 -1.0746713143638154 1.2584412733661097 -1.754437109033102 -1.5708449522601526 2.454050064086914 False False
16031.622 4.024812698364258 -1.0746562045863648 1.2584078947650355 -1.7544495067992152 -1.5708254019366663 2.454045534133911 False False
16031.642 4.02487325668335 -1.074635462169983 1.2583754698382776 -1.7544933758177699 -1.570801083241598 2.4540624618530273 False False
16031.661999999998 4.024840354919434 -1.0747215312770386 1.2583993116961878 -1.7544733486571253 -1.570813004170553 2.4540834426879883 False False
16031.681999999999 4.024853229522705 -1.074737862949707 1.2584121862994593 -1.7544971905150355 -1.5708254019366663 2.454050064086914 False False
16031.702 4.024868488311768 -1.0747231108001252 1.2584360281573694 -1.7544576130309046 -1.5707967917071741 2.45402455329895 False False
16031.722 4.024824619293213 -1.0747127097896119 1.2584078947650355 -1.754453798333639 -1.570756737385885 2.454026222229004 False False
16031.741999999998 4.024848937988281 -1.074682967071869 1.258395020161764 -1.7544895611205042 -1.570813004170553 2.454071521759033 False False
16031.761999999999 4.024868965148926 -1.0747051698020478 1.2583745161639612 -1.7544852695860804 -1.5707891623126429 2.454050064086914 False False
16031.782 4.024816036224365 -1.0746637445739289 1.2583916823016565 -1.7544170818724574 -1.570801083241598 2.4540669918060303 False False
16031.802 4.02487325668335 -1.0747258824161072 1.2583916823016565 -1.754465719262594 -1.5707724730121058 2.454033613204956 False False
16031.822 4.024906158447266 -1.0747007590583344 1.2584241072284144 -1.7544576130309046 -1.570857350026266 2.454054594039917 False False
16031.841999999999 4.024844646453857 -1.0746548932841797 1.2584112326251429 -1.7544452152647914 -1.5708211104022425 2.454000949859619 False False
16031.862 4.024840831756592 -1.0746593338302155 1.2584036032306116 -1.754437109033102 -1.5707686583148401 2.4540579319000244 False False
16031.882 4.02482795715332 -1.074708269243576 1.2583711783038538 -1.7544576130309046 -1.5707486311541956 2.45402193069458 False False
16031.902 4.02482795715332 -1.074672595863678 1.2584036032306116 -1.7544733486571253 -1.5708048979388636 2.454050064086914 False False
16031.921999999999 4.0247955322265625 -1.0747302931598206 1.258444611226217 -1.7544132671751917 -1.5708254019366663 2.454054594039917 False False
16031.942 4.024864673614502 -1.074631707077362 1.258350674306051 -1.7545134029784144 -1.5707891623126429 2.4540669918060303 False False
16031.962 4.024853229522705 -1.0746562045863648 1.2584002653705042 -1.7544852695860804 -1.5707686583148401 2.454029083251953 False False
16031.982 4.024881362915039 -1.0746725362590333 1.2584036032306116 -1.7544933758177699 -1.570772949849264 2.454050064086914 False False
16032.001999999999 4.0247955322265625 -1.0746593338302155 1.2584155241595667 -1.7544814548888148 -1.5707524458514612 2.454050064086914 False False
16032.021999999999 4.024836540222168 -1.0747258824161072 1.2584121862994593 -1.7544976673521937 -1.570829216633932 2.454029083251953 False False
16032.042 4.024913787841797 -1.0747258824161072 1.2583916823016565 -1.7544733486571253 -1.5707529226886194 2.454017400741577 False False
16032.062 4.024897575378418 -1.0747422140887757 1.2584078947650355 -1.7544251881041468 -1.5707281271563929 2.454045534133911 False False
16032.081999999999 4.024889945983887 -1.0747460287860413 1.2584036032306116 -1.7544251881041468 -1.5707967917071741 2.454076051712036 False False
16032.101999999999 4.024877548217773 -1.0747415882400055 1.2583959738360804 -1.7544213734068812 -1.5707967917071741 2.4539995193481445 False False
16032.122 4.024799823760986 -1.0747126799872895 1.2583754698382776 -1.754437109033102 -1.570784870778219 2.454026222229004 False False
16032.142 4.024786949157715 -1.0747007888606568 1.258416477833883 -1.7544294796385707 -1.5707524458514612 2.4540367126464844 False False
16032.161999999998 4.024840831756592 -1.074663684969284 1.258350674306051 -1.7544414005675257 -1.570784870778219 2.454099655151367 False False
16032.181999999999 4.024848937988281 -1.07469196737323 1.2584241072284144 -1.7545014820494593 -1.5707362333880823 2.454000949859619 False False
16032.202 4.02480411529541 -1.0746637445739289 1.258432690297262 -1.7545134029784144 -1.5707805792437952 2.454012632369995 False False
16032.222 4.024885654449463 -1.0746844571879883 1.2583993116961878 -1.7544414005675257 -1.5707967917071741 2.454029083251953 False False
16032.241999999998 4.024844646453857 -1.0746769470027466 1.258395020161764 -1.7544933758177699 -1.5707724730121058 2.4540579319000244 False False
16032.261999999999 4.024844646453857 -1.074708269243576 1.2583993116961878 -1.754465719262594 -1.570756737385885 2.454017400741577 False False
16032.282 4.024808406829834 -1.0746829372695466 1.2583840529071253 -1.754453798333639 -1.5708048979388636 2.4540834426879883 False False
16032.302 4.024840354919434 -1.0746473532966156 1.2584036032306116 -1.7545134029784144 -1.5707805792437952 2.454050064086914 False False
16032.322 4.024848937988281 -1.0746932488730927 1.2583592573748987 -1.7544814548888148 -1.570784870778219 2.4540083408355713 False False
16032.341999999999 4.024864673614502 -1.0746844571879883 1.258354965840475 -1.7544728718199671 -1.5708449522601526 2.454009771347046 False False
16032.362 4.024861812591553 -1.0747051996043702 1.2583711783038538 -1.754465719262594 -1.5708168188678187 2.454054594039917 False False
16032.382 4.024877071380615 -1.074699268942215 1.2584036032306116 -1.7544933758177699 -1.570768181477682 2.45410418510437 False False
16032.402 4.024807453155518 -1.0747289520553132 1.2584651152240198 -1.7544895611205042 -1.570784870778219 2.454042673110962 False False
16032.421999999999 4.024860382080078 -1.0747170907310029 1.2584121862994593 -1.7545377216734828 -1.5707805792437952 2.454076051712036 False False
16032.442 4.024864673614502 -1.0747051698020478 1.2584036032306116 -1.7545134029784144 -1.5707805792437952 2.454054594039917 False False
16032.462 4.024840354919434 -1.07469196737323 1.2583873907672327 -1.7545095882811488 -1.570829216633932 2.454017400741577 False False
16032.482 4.024819374084473 -1.0746963781169434 1.2583993116961878 -1.7544614277281703 -1.570784870778219 2.4540834426879883 False False
16032.501999999999 4.024868965148926 -1.0747302931598206 1.258350674306051 -1.754437109033102 -1.5708044211017054 2.454087734222412 False False
16032.521999999999 4.024893283843994 -1.0746429723552247 1.2583797613727015 -1.7545258007445277 -1.5707967917071741 2.454045534133911 False False
16032.542 4.024857521057129 -1.0746844571879883 1.2584036032306116 -1.7544809780516566 -1.5707767645465296 2.454087972640991 False False
16032.562 4.024848937988281 -1.0746844571879883 1.2584002653705042 -1.7544733486571253 -1.5707891623126429 2.4540786743164062 False False
16032.581999999999 4.024897575378418 -1.0746429723552247 1.2584198156939905 -1.7545496426024378 -1.570801083241598 2.454087972640991 False False
