Andreas691667/Digital_Twin_UR/src/controller_monitor/test_results/robot_output.csv
timestamp actual_q_0 actual_q_1 actual_q_2 actual_q_3 actual_q_4 actual_q_5 output_bit_register_65 output_bit_register_66
5948.299 -2.4096651713000696 -1.120317505007126 1.2404378096209925 -1.6688085995116175 -1.5509546438800257 2.345609188079834 False False
5948.3189999999995 -2.4096439520465296 -1.1202681225589295 1.240380589162008 -1.6687966785826625 -1.5510152021991175 2.345649242401123 False False
5948.339 -2.4096394220935267 -1.1202887159636994 1.2404215971576136 -1.6688085995116175 -1.5509946982013147 2.345633029937744 False False
5948.3589999999995 -2.4096980730639856 -1.1203174752048035 1.2404583136187952 -1.6688014469542445 -1.5509627501117151 2.345641613006592 False False
5948.379 -2.4096317926989954 -1.1203217965415497 1.2404301802264612 -1.6688291035094203 -1.5510228315936487 2.3456783294677734 False False
5948.398999999999 -2.4096980730639856 -1.120268092756607 1.2404421011554163 -1.6688362560667933 -1.550934139882223 2.345625400543213 False False
5948.419 -2.4096770922290247 -1.120272473697998 1.2403772513019007 -1.6687890491881312 -1.5509908835040491 2.3456664085388184 False False
5948.438999999999 -2.4096651713000696 -1.1202724438956757 1.2404139677630823 -1.6688291035094203 -1.5509665648089808 2.3456296920776367 False False
5948.459 -2.4096484819995325 -1.1202268165401001 1.2404258886920374 -1.6688486538329066 -1.5509584585772913 2.345592975616455 False False
5948.478999999999 -2.4096363226519983 -1.1202767354300995 1.2404292265521448 -1.668800493279928 -1.550962273274557 2.3456168174743652 False False
5948.499 -2.4096606413470667 -1.120309279566147 1.2404378096209925 -1.6688209972777308 -1.5509746710406702 2.3456578254699707 False False
5948.518999999999 -2.4096606413470667 -1.120304898624756 1.2404421011554163 -1.6688324413695277 -1.5509627501117151 2.3456621170043945 False False
5948.539 -2.4096935431109827 -1.1203217965415497 1.240462605153219 -1.6688085995116175 -1.5509746710406702 2.3456296920776367 False False
5948.558999999999 -2.4096439520465296 -1.1202767354300995 1.2404139677630823 -1.6688128910460414 -1.5509946982013147 2.3456578254699707 False False
5948.579 -2.4096816221820276 -1.120339111690857 1.2404301802264612 -1.6688529453673304 -1.5509584585772913 2.3456339836120605 False False
5948.599 -2.4097097555743616 -1.120288686161377 1.2404292265521448 -1.6688171825804652 -1.5510066191302698 2.345609188079834 False False
5948.619 -2.4096244017230433 -1.120276765232422 1.2404864470111292 -1.6688529453673304 -1.5509584585772913 2.3456947803497314 False False
5948.639 -2.4096606413470667 -1.120301679973938 1.2404139677630823 -1.668804784814352 -1.5509908835040491 2.3456339836120605 False False
5948.659 -2.4096606413470667 -1.1202929776958008 1.2404301802264612 -1.6688362560667933 -1.5510109106646937 2.34560489654541 False False
5948.679 -2.4096530119525355 -1.1202756029418488 1.2403934637652796 -1.6687728367247523 -1.5509336630450647 2.345637321472168 False False
5948.699 -2.4096484819995325 -1.1202767354300995 1.240462605153219 -1.668800493279928 -1.5510066191302698 2.3456621170043945 False False
5948.719 -2.4096606413470667 -1.1202681821635743 1.2404258886920374 -1.668804784814352 -1.5510228315936487 2.345641613006592 False False
5948.739 -2.4096606413470667 -1.1203585428050538 1.2404463926898401 -1.6687971554198207 -1.5509908835040491 2.345625400543213 False False
5948.759 -2.4096697012530726 -1.120269165640213 1.2404096762286585 -1.668793340722555 -1.550934139882223 2.3456006050109863 False False
5948.7789999999995 -2.4096651713000696 -1.1203092497638245 1.240424935017721 -1.6687966785826625 -1.550978962575094 2.345633029937744 False False
5948.799 -2.4096227327929896 -1.1202897292426606 1.2403891722308558 -1.6688085995116175 -1.5509665648089808 2.3456740379333496 False False
5948.8189999999995 -2.4096439520465296 -1.1202918154052277 1.240478817616598 -1.6688291035094203 -1.5509823004352015 2.345625400543213 False False
5948.839 -2.4095855394946497 -1.120317892437317 1.2404215971576136 -1.668804784814352 -1.5509584585772913 2.3456740379333496 False False
5948.8589999999995 -2.4096651713000696 -1.120338038807251 1.2404258886920374 -1.6688529453673304 -1.5509703795062464 2.345633029937744 False False
5948.879 -2.4097142855273646 -1.1202593308738251 1.2404421011554163 -1.6688009701170863 -1.550962273274557 2.345641613006592 False False
5948.898999999999 -2.4096484819995325 -1.1203292173198243 1.2404421011554163 -1.668828626672262 -1.5510428587542933 2.345625400543213 False False
5948.919 -2.4096697012530726 -1.1202756029418488 1.2404707113849085 -1.668868204156393 -1.5510228315936487 2.345669746398926 False False
5948.938999999999 -2.4096697012530726 -1.1202930074981232 1.2404468695269983 -1.6688124142088832 -1.550978962575094 2.3456177711486816 False False
5948.959 -2.4096348921405237 -1.1203261476806183 1.2404335180865687 -1.6688085995116175 -1.551018540059225 2.345609188079834 False False
5948.978999999999 -2.4096108118640345 -1.1203542214683075 1.2404096762286585 -1.668840070764059 -1.5509908835040491 2.345681667327881 False False
5948.999 -2.4096816221820276 -1.1202399295619507 1.2404468695269983 -1.668828626672262 -1.5509503523456019 2.3456859588623047 False False
5949.018999999999 -2.4096484819995325 -1.1203499299338837 1.2404630819903772 -1.6688124142088832 -1.550978962575094 2.345649242401123 False False
5949.039 -2.4096980730639856 -1.1203217965415497 1.2404454390155237 -1.6688724956908167 -1.5509827772723597 2.345609188079834 False False
5949.058999999999 -2.4096606413470667 -1.1203347605517884 1.2403958479510706 -1.6688610515990199 -1.5509908835040491 2.345641613006592 False False
5949.079 -2.4096484819995325 -1.1203292173198243 1.2404139677630823 -1.6688014469542445 -1.5510066191302698 2.3456902503967285 False False
5949.099 -2.4096561113940638 -1.1202149254134675 1.2403810659991663 -1.6688610515990199 -1.5510109106646937 2.345637321472168 False False
5949.119 -2.4096317926989954 -1.1202961069396515 1.2404421011554163 -1.6688128910460414 -1.5510147253619593 2.345665454864502 False False
5949.139 -2.4096227327929896 -1.1203260284713288 1.2403977552997034 -1.6688362560667933 -1.5509908835040491 2.3456459045410156 False False
5949.159 -2.4096227327929896 -1.1202843648246308 1.2404258886920374 -1.6687928638853968 -1.5509503523456019 2.345625400543213 False False
5949.179 -2.4096530119525355 -1.1202636820128937 1.2404215971576136 -1.6688405476012171 -1.5509908835040491 2.345669746398926 False False
5949.199 -2.4096484819995325 -1.1202896994403382 1.2404335180865687 -1.6687804661192835 -1.5509942213641565 2.345649242401123 False False
5949.219 -2.4096484819995325 -1.120251939897873 1.2404215971576136 -1.6688043079771937 -1.550934139882223 2.345609188079834 False False
5949.239 -2.4096606413470667 -1.1202431482127686 1.2403929869281214 -1.668776651422018 -1.5509865919696253 2.3456220626831055 False False
5949.259 -2.4096530119525355 -1.120285378103592 1.2404421011554163 -1.6687928638853968 -1.5510390440570276 2.3456785678863525 False False
5949.2789999999995 -2.4096575419055384 -1.120276765232422 1.2404215971576136 -1.6688281498351039 -1.5509746710406702 2.345653533935547 False False
5949.299 -2.409651581441061 -1.1202594500831147 1.2404335180865687 -1.6687847576537074 -1.5509627501117151 2.345637321472168 False False
5949.3189999999995 -2.4096439520465296 -1.120288686161377 1.2404707113849085 -1.6688085995116175 -1.5510066191302698 2.345609188079834 False False
5949.339 -2.4096606413470667 -1.120345489387848 1.2404540220843714 -1.6688405476012171 -1.5510028044330042 2.3456740379333496 False False
5949.3589999999995 -2.4096651713000696 -1.1202724438956757 1.2404421011554163 -1.6687890491881312 -1.5509908835040491 2.3456501960754395 False False
5949.379 -2.4096770922290247 -1.120276765232422 1.2403753439532679 -1.6687971554198207 -1.5509546438800257 2.3456459045410156 False False
5949.398999999999 -2.409668032323019 -1.1203347605517884 1.2404168287860315 -1.6688572369017542 -1.5509627501117151 2.345633029937744 False False
5949.419 -2.409651581441061 -1.1203091901591797 1.2404215971576136 -1.6688362560667933 -1.5509751478778284 2.3456578254699707 False False
5949.438999999999 -2.4096439520465296 -1.1203217965415497 1.2404049078570765 -1.6687890491881312 -1.551018540059225 2.345669746398926 False False
5949.459 -2.4096651713000696 -1.120279924278595 1.240387264882223 -1.6688043079771937 -1.5509665648089808 2.345592975616455 False False
5949.478999999999 -2.409668032323019 -1.12024740994487 1.2404168287860315 -1.6687923870482386 -1.5509546438800257 2.345669746398926 False False
5949.499 -2.409668032323019 -1.1202724438956757 1.2403886953936976 -1.6687880955138148 -1.550978962575094 2.3456740379333496 False False
5949.518999999999 -2.4097026030169886 -1.1202810567668458 1.2404707113849085 -1.668748518029684 -1.5509627501117151 2.345637321472168 False False
5949.539 -2.4096742312060755 -1.120288686161377 1.2404378096209925 -1.6688486538329066 -1.5509746710406702 2.3456079959869385 False False
5949.558999999999 -2.4096317926989954 -1.1202443105033417 1.2404139677630823 -1.6688362560667933 -1.5509946982013147 2.345609188079834 False False
5949.579 -2.4096484819995325 -1.1202843946269532 1.2404468695269983 -1.668760438958639 -1.5509665648089808 2.3456168174743652 False False
5949.599 -2.4096606413470667 -1.1203304094127198 1.2404211203204554 -1.6688209972777308 -1.5509665648089808 2.345641613006592 False False
5949.619 -2.4096484819995325 -1.120296136741974 1.2403958479510706 -1.6688281498351039 -1.5509827772723597 2.3456168174743652 False False
5949.639 -2.409672562276022 -1.1202767950347443 1.2404378096209925 -1.6688362560667933 -1.5509665648089808 2.3456578254699707 False False
5949.659 -2.4096935431109827 -1.1203292173198243 1.2403720060931605 -1.6688085995116175 -1.5509908835040491 2.3456459045410156 False False
5949.679 -2.4097052256213587 -1.120276765232422 1.2404378096209925 -1.6687923870482386 -1.5509665648089808 2.3456578254699707 False False
5949.699 -2.4096275011645716 -1.1202356976321717 1.2404797712909144 -1.6688362560667933 -1.5509379545794886 2.3455917835235596 False False
5949.719 -2.4096697012530726 -1.1203465920737763 1.2404540220843714 -1.6688767872252406 -1.5509665648089808 2.345641613006592 False False
5949.739 -2.4097023645984095 -1.120260552769043 1.2404168287860315 -1.6688405476012171 -1.5510028044330042 2.345609188079834 False False
5949.759 -2.4096184412585657 -1.1203006368926545 1.2404096762286585 -1.6688128910460414 -1.5509985128985804 2.3456740379333496 False False
5949.7789999999995 -2.409668032323019 -1.1203091901591797 1.2404797712909144 -1.6688248119749964 -1.5509298483477991 2.3456015586853027 False False
5949.799 -2.4096770922290247 -1.1203379792026062 1.2404797712909144 -1.6688291035094203 -1.5509546438800257 2.3456459045410156 False False
5949.8189999999995 -2.4096651713000696 -1.1202594500831147 1.2403929869281214 -1.668776651422018 -1.5509503523456019 2.345641613006592 False False
5949.839 -2.409626309071676 -1.120321736936905 1.2404421011554163 -1.6688810787596644 -1.5509546438800257 2.3456296920776367 False False
5949.8589999999995 -2.4097023645984095 -1.1202756327441712 1.2403929869281214 -1.6688291035094203 -1.5509703795062464 2.345604419708252 False False
5949.879 -2.409635130559103 -1.1202551585486908 1.2404616514789026 -1.668800493279928 -1.5509665648089808 2.3455970287323 False False
5949.898999999999 -2.4096561113940638 -1.1203174752048035 1.2404468695269983 -1.668816705743307 -1.5509823004352015 2.345653533935547 False False
5949.919 -2.409672562276022 -1.120276765232422 1.2404215971576136 -1.6687642536559046 -1.5510109106646937 2.345592498779297 False False
5949.938999999999 -2.4096396605121058 -1.1202595096877594 1.2403958479510706 -1.6688372097411097 -1.5509703795062464 2.3456504344940186 False False
5949.959 -2.4096606413470667 -1.1203217667392273 1.2404287497149866 -1.6687566242613734 -1.5509422461139124 2.345649003982544 False False
5949.978999999999 -2.4097259680377405 -1.1202562910369416 1.2404797712909144 -1.6687804661192835 -1.5509989897357386 2.3456742763519287 False False
5950.018999999999 -2.4096606413470667 -1.120247558956482 1.2404468695269983 -1.6687962017455042 -1.5509703795062464 2.345604419708252 False False
5950.039 -2.4096439520465296 -1.120259479885437 1.240472141896383 -1.6688171825804652 -1.5510147253619593 2.345599889755249 False False
5950.058999999999 -2.4096606413470667 -1.120231257086136 1.2404468695269983 -1.668800493279928 -1.5509584585772913 2.345641613006592 False False
5950.079 -2.40965181985964 -1.1202843946269532 1.2404659430133265 -1.6688291035094203 -1.5509546438800257 2.345669984817505 False False
5950.099 -2.4096768538104456 -1.1202637118152161 1.2404168287860315 -1.668816705743307 -1.5509665648089808 2.345653533935547 False False
5950.119 -2.4097052256213587 -1.1202843946269532 1.2404497305499476 -1.6687809429564417 -1.550962273274557 2.3456461429595947 False False
5950.139 -2.4096396605121058 -1.1203260582736512 1.2403886953936976 -1.668816705743307 -1.550990406666891 2.3456714153289795 False False
5950.159 -2.409663740788595 -1.120330349808075 1.2403844038592737 -1.6688128910460414 -1.550978962575094 2.345604419708252 False False
5950.179 -2.4096933046924036 -1.120300607090332 1.2404630819903772 -1.668844839135641 -1.5509865919696253 2.345665454864502 False False
5950.199 -2.4096561113940638 -1.1202519697001954 1.2404540220843714 -1.6688085995116175 -1.550978962575094 2.345616340637207 False False
5950.219 -2.409647289906637 -1.120285378103592 1.2404020468341272 -1.668809553185934 -1.5509908835040491 2.3456876277923584 False False
5950.239 -2.4096606413470667 -1.1202843946269532 1.2404540220843714 -1.6688043079771937 -1.5509627501117151 2.3456952571868896 False False
5950.259 -2.4096112887011927 -1.1202810567668458 1.2404468695269983 -1.668776651422018 -1.5509985128985804 2.345686197280884 False False
5950.2789999999995 -2.409668270741598 -1.1202961665442963 1.2404421011554163 -1.6687566242613734 -1.5510266462909144 2.345637083053589 False False
5950.299 -2.4096606413470667 -1.120288686161377 1.2404587904559534 -1.6688486538329066 -1.5509699026690882 2.345637083053589 True False
5950.3189999999995 -2.4096606413470667 -1.1202313166907807 1.2404096762286585 -1.668776651422018 -1.5509784857379358 2.345616340637207 True False
5950.339 -2.4096396605121058 -1.1203345519355317 1.2404006163226526 -1.6687928638853968 -1.5509379545794886 2.345665454864502 True False
5950.3589999999995 -2.4096651713000696 -1.1203134816936036 1.2404168287860315 -1.668816705743307 -1.5509865919696253 2.3456177711486816 True False
5950.379 -2.409672562276022 -1.1202594500831147 1.2404454390155237 -1.668772359887594 -1.5510428587542933 2.345653533935547 True False
5950.398999999999 -2.4096229712115687 -1.120413140659668 1.2406023184405726 -1.6688686809935511 -1.5509546438800257 2.345669984817505 True False
5950.419 -2.409543577824728 -1.1206367772868653 1.240901295338766 -1.6689125500121058 -1.5509908835040491 2.3457181453704834 True False
5950.438999999999 -2.409363571797506 -1.1210354429534455 1.2412985006915491 -1.6690718136229457 -1.5509908835040491 2.345874547958374 True False
5950.459 -2.4091606775866907 -1.1214893621257325 1.241953198109762 -1.6692830524840296 -1.5510228315936487 2.3460934162139893 True False
5950.478999999999 -2.4088638464557093 -1.1222636562636872 1.2429330984698694 -1.6695462665953578 -1.550990406666891 2.34626841545105 True False
5950.499 -2.408560578023092 -1.1231622856906434 1.244274918233053 -1.6698538265623988 -1.5510299841510218 2.3465018272399902 True False
5950.518999999999 -2.4080942312823694 -1.124447838669159 1.2460077444659632 -1.6703368626036585 -1.5511825720416468 2.3469443321228027 True False
5950.539 -2.407530132924215 -1.1260897380164643 1.2481535116778772 -1.670915266076559 -1.5511582533465784 2.347381353378296 True False
5950.558999999999 -2.4068101088153284 -1.1281284552863617 1.2507222334491175 -1.6715651951231898 -1.551206413899557 2.347970962524414 True False
5950.579 -2.406050507222311 -1.1303494435599823 1.253700081502096 -1.672298093835348 -1.551293675099508 2.3485612869262695 True False
5950.599 -2.4052236715899866 -1.1327465337565918 1.257003132496969 -1.6731840572752894 -1.5513857046710413 2.349297285079956 True False
5950.619 -2.4041526953326624 -1.1354683500579377 1.2605803648578089 -1.6742521725096644 -1.5514496008502405 2.3500428199768066 True False
5950.639 -2.4030326048480433 -1.1384419065764924 1.2645323912249964 -1.6753536663451136 -1.55153733888735 2.3509247303009033 True False
5950.659 -2.401917044316427 -1.1416955453208466 1.2688129583941858 -1.6765099964537562 -1.5516651312457483 2.3518896102905273 True False
5950.679 -2.400644604359762 -1.145265356903412 1.2735078970538538 -1.6776987514891566 -1.5517972151385706 2.3528902530670166 True False
5950.699 -2.39919096628298 -1.1491213601878663 1.2784445921527308 -1.6790343723692835 -1.5519416967975062 2.354024887084961 True False
5950.719 -2.3977018038379114 -1.1531530183604737 1.283811394368307 -1.6804377041258753 -1.5520041624652308 2.355278253555298 True False
5950.739 -2.396076504384176 -1.157677785759308 1.289694611226217 -1.6822086773314417 -1.552237335835592 2.3564891815185547 True False
5950.759 -2.394404713307516 -1.1621810358813782 1.295875374470846 -1.6836639843382777 -1.5523927847491663 2.3578877449035645 True False
5950.7789999999995 -2.3926850000964563 -1.1671073001674195 1.3022425810443323 -1.685467382470602 -1.5525606314288538 2.3592796325683594 True False
5950.799 -2.390740935002462 -1.172243432407715 1.3089559713946741 -1.6872736416258753 -1.552748982106344 2.360795259475708 True False
5950.8189999999995 -2.3887465635882776 -1.1776746374419709 1.316162411366598 -1.6893631420531214 -1.55288011232485 2.362353563308716 True False
5950.839 -2.386742893849508 -1.1834581655314942 1.323885742818014 -1.691169878045553 -1.553091828023092 2.3640589714050293 True False
5950.8589999999995 -2.3845515886889856 -1.1894144874862214 1.331662956868307 -1.693319936791891 -1.5532434622394007 2.3657422065734863 True False
5950.879 -2.382336203251974 -1.1958170992187043 1.3398073355304163 -1.6956659756102503 -1.5534995237933558 2.367629289627075 True False
5950.898999999999 -2.3799997011767786 -1.2022996109775086 1.3483894507037562 -1.698083063165182 -1.5537193457232874 2.369475841522217 True False
5950.919 -2.3775346914874476 -1.2089803975871583 1.3575790564166468 -1.7002207241454066 -1.553979221974508 2.3714888095855713 True False
5950.938999999999 -2.374931875859396 -1.215920553808548 1.3668888250934046 -1.7028175793089808 -1.5541389624225062 2.3735709190368652 True False
5950.959 -2.372291628514425 -1.2234799426845093 1.3763082663165491 -1.7055593929686488 -1.5544102827655237 2.375762701034546 True False
5950.978999999999 -2.369523827229635 -1.2311369341662903 1.386538330708639 -1.7081715069212855 -1.554605786000387 2.3779876232147217 True False
5950.999 -2.3666253725634974 -1.2387572091868897 1.3969672361956995 -1.7109633884825648 -1.554849926625387 2.3802027702331543 True False
5951.018999999999 -2.3636649290667933 -1.2469210189631958 1.407663647328512 -1.7137843571104945 -1.555185619984762 2.382584810256958 True False
5951.039 -2.3605991045581263 -1.255640910272934 1.4187653700457972 -1.7170192203917445 -1.555384937916891 2.3850700855255127 True False
5951.058999999999 -2.357386652623312 -1.2642484468272706 1.4301536718951624 -1.7200309238829554 -1.5556562582599085 2.387575626373291 True False
5951.079 -2.3542187849627894 -1.2731346947005768 1.4421375433551233 -1.723142763177389 -1.55601674715151 2.3901970386505127 True False
5951.099 -2.3508601824389856 -1.2824250024608155 1.4543479124652308 -1.7264100513853968 -1.5562956968890589 2.3928472995758057 True False
5951.119 -2.347387138997213 -1.2919058066657563 1.466623608266012 -1.729823728600973 -1.5566075483905237 2.3956291675567627 True False
5951.139 -2.3438995520221155 -1.3017148834517975 1.4796345869647425 -1.7334147892394007 -1.5569146315204065 2.398510694503784 True False
5951.159 -2.34029204050173 -1.3116492492011567 1.49315053621401 -1.7366496525206507 -1.557258431111471 2.4013991355895996 True False
5951.179 -2.3364976088153284 -1.3220178496888657 1.5065138975726526 -1.740683218041891 -1.5576303640948694 2.4044599533081055 True False
5951.199 -2.3325632254229944 -1.3327519011548539 1.520423714314596 -1.7443162403502406 -1.5580175558673304 2.407560110092163 True False
5951.219 -2.328698460255758 -1.3433952045491715 1.5348199049579065 -1.7481423817076625 -1.5583379904376429 2.410747528076172 True False
5951.239 -2.324685875569479 -1.3547130835107346 1.5496552626239222 -1.7521473369994105 -1.5587571302997034 2.4139976501464844 True False
5951.259 -2.3204575220691126 -1.366052509551384 1.5644062201129358 -1.7562257252135218 -1.5589197317706507 2.41725492477417 True False
5951.2789999999995 -2.316306177769796 -1.377781243329384 1.5800884405719202 -1.7603360615172328 -1.559483830128805 2.4206185340881348 True False
5951.299 -2.312030617390768 -1.3895812642625351 1.5956977049456995 -1.7644931278624476 -1.5598238150226038 2.4241814613342285 True False
5951.3189999999995 -2.3075416723834437 -1.4019309741309662 1.61184007326235 -1.7688914738097132 -1.560234848652975 2.4276726245880127 True False
5951.339 -2.3029711882220667 -1.4144309622100373 1.6282637755023401 -1.7733484707274378 -1.560662094746725 2.431410074234009 True False
5951.3589999999995 -2.2983015219317835 -1.427088887696602 1.6450732390033167 -1.7777978382506312 -1.5610173384295862 2.4350192546844482 True False
5951.379 -2.2938676516162317 -1.4395626199296494 1.661516014729635 -1.7823425732054652 -1.5614813009845179 2.4387288093566895 True False
5951.398999999999 -2.2893644014941614 -1.4519196611693879 1.677727524434225 -1.7865792713561 -1.5618723074542444 2.442274808883667 True False
5951.419 -2.2850783506976526 -1.4637391877225419 1.6935184637652796 -1.7909184894957484 -1.5622161070453089 2.4457778930664062 True False
5951.438999999999 -2.2808526198016565 -1.4755463239601632 1.7090500036822718 -1.7948996029295863 -1.562655274068014 2.4491729736328125 True False
5951.459 -2.276700798665182 -1.486983784740307 1.7238038221942347 -1.799235006371969 -1.563007656727926 2.452500820159912 True False
5951.478999999999 -2.272625748311178 -1.498153918688633 1.738849941884176 -1.8030687771239222 -1.5633862654315394 2.4556808471679688 True False
5951.499 -2.2685893217669886 -1.5090209183147927 1.7530782858477991 -1.8070103130736292 -1.5638187567340296 2.4588260650634766 True False
5951.518999999999 -2.2647231260882776 -1.5197387871197243 1.7670581976519983 -1.8108350239195765 -1.5641701857196253 2.462033748626709 True False
5951.539 -2.2610190550433558 -1.5299902607551594 1.780762020741598 -1.8145152531065882 -1.564409081135885 2.4651222229003906 True False
5951.558999999999 -2.2574198881732386 -1.5402391490391274 1.7940967718707483 -1.818090101281637 -1.5648248831378382 2.4680733680725098 True False
5951.579 -2.2538092772113245 -1.5497829479030152 1.8069418112384241 -1.821672102014059 -1.565096680318014 2.47088360786438 True False
5951.599 -2.2504270712481897 -1.559368390855827 1.8196194807635706 -1.8249675236144007 -1.5654562155352991 2.473719596862793 True False
5951.619 -2.2470396200763147 -1.5687362319188942 1.831994358693258 -1.82818665126943 -1.565744702016012 2.476409673690796 True False
5951.639 -2.2437379995929163 -1.5777508221068324 1.8436172644244593 -1.8314582310118617 -1.565979305897848 2.479003667831421 True False
5951.659 -2.2406023184405726 -1.5865255794920863 1.8551934401141565 -1.834658762017721 -1.5664122740374964 2.481496810913086 True False
5951.679 -2.237429443989889 -1.5949021778502406 1.8665440718280237 -1.837365289727682 -1.5665629545794886 2.4839348793029785 True False
5951.699 -2.2345474402057093 -1.6031319103636683 1.8771498839007776 -1.8405238590636195 -1.5668819586383265 2.4864089488983154 True False
5951.719 -2.23165733018984 -1.6110741100706996 1.8874958197223108 -1.8434745273985804 -1.567146126423971 2.488659620285034 True False
5951.739 -2.2288029829608362 -1.61851229290151 1.8977397123919886 -1.845745702783102 -1.567362133656637 2.4908862113952637 True False
5951.759 -2.226283375416891 -1.6259948215880335 1.9073532263385218 -1.8486200771727503 -1.5676849524127405 2.493062734603882 True False
5951.7789999999995 -2.2236998716937464 -1.6333543262877406 1.916671101246969 -1.8513113460936488 -1.567880932484762 2.495133876800537 True False
5951.799 -2.221116367970602 -1.640022417108053 1.9260137716876429 -1.853342195550436 -1.5680487791644495 2.497077465057373 True False
5951.8189999999995 -2.218917194996969 -1.6464477978148402 1.9346306959735315 -1.8558784923949183 -1.5683005491839808 2.499084234237671 True False
5951.839 -2.2165821234332483 -1.6530024013915003 1.942514721547262 -1.8581882915892542 -1.568540398274557 2.5008978843688965 True False
5951.8589999999995 -2.21429950395693 -1.6589814625182093 1.950709644948141 -1.8602124653258265 -1.5686472097979944 2.502686023712158 True False
5951.879 -2.212257687245504 -1.6645575962462367 1.9584720770465296 -1.8622361622252406 -1.5688474814044397 2.5043089389801025 True False
5951.898999999999 -2.2102649847613733 -1.670131345788473 1.9653189818011683 -1.864406248132223 -1.5690234343158167 2.505892038345337 True False
5951.919 -2.208315674458639 -1.6753174267210902 1.9721186796771448 -1.8661710224547328 -1.569202725087301 2.507450580596924 True False
5951.938999999999 -2.2065404097186487 -1.6801535091795863 1.9791629950152796 -1.8677979908385218 -1.5693705717669886 2.5088837146759033 True False
5951.959 -2.2048662344561976 -1.684854646722311 1.9852221647845667 -1.8695785007872523 -1.5695231596576136 2.5101728439331055 True False
5951.978999999999 -2.203280750905172 -1.6893626652159632 1.9906991163836878 -1.8712321720519007 -1.5697148481952112 2.511446237564087 True False
5951.999 -2.2017863432513636 -1.6934687099852503 1.9961674849139612 -1.872552057305807 -1.5698469320880335 2.51267671585083 True False
5952.018999999999 -2.2003606001483362 -1.6972362003722132 2.0013187567340296 -1.8738442860045375 -1.5699828306781214 2.513791561126709 True False
5952.039 -2.199073139821188 -1.7008449039854945 2.0059831778155726 -1.8754269085326136 -1.5700538794146937 2.5148022174835205 True False
5952.058999999999 -2.1978915373431605 -1.704188962975973 2.010495964680807 -1.8764401874937953 -1.5701091925250452 2.515833616256714 True False
5952.079 -2.196811024342672 -1.7070933781065882 2.014646832142965 -1.8773752651610316 -1.5702369848834437 2.5166656970977783 True False
5952.099 -2.1957829634295862 -1.7100244961180628 2.0181434790240687 -1.878484388391012 -1.5703652540790003 2.5174732208251953 True False
5952.119 -2.1948421637164515 -1.7125121555724085 2.0211976210223597 -1.8793899021544398 -1.5704253355609339 2.5182716846466064 True False
5952.139 -2.194045368825094 -1.7147351704039515 2.024292771016256 -1.8801208935179652 -1.5705049673663538 2.518857479095459 True False
5952.159 -2.193399254475729 -1.71659578899526 2.0269764105426233 -1.8808194599547328 -1.5705812613116663 2.519411325454712 True False
5952.179 -2.1927459875689905 -1.718363424340719 2.029090229664938 -1.8815370998778285 -1.5706127325641077 2.5199244022369385 True False
5952.199 -2.192239586506979 -1.7197748623290003 2.030923668538229 -1.8820888004698695 -1.5706360975848597 2.5203588008880615 True False
5952.219 -2.1917946974383753 -1.7209168873228968 2.032545868550436 -1.8824039898314417 -1.5707529226886194 2.520636558532715 True False
5952.239 -2.191533867512838 -1.7217456303038539 2.0337098280536097 -1.8826753101744593 -1.570756737385885 2.52097749710083 True False
5952.259 -2.1912525335894983 -1.7223249874510707 2.034384075795309 -1.8829299412169398 -1.5707524458514612 2.5210459232330322 True False
5952.2789999999995 -2.1912177244769495 -1.7227512798705042 2.034844223652975 -1.8829904995360316 -1.5707853476153772 2.5210933685302734 True False
5952.299 -2.191270176564352 -1.7226644955077113 2.0349515120135706 -1.8829294643797816 -1.5707653204547327 2.5211312770843506 True False
5952.3189999999995 -2.191242043172018 -1.7226187191405238 2.035086456929342 -1.8833853207030238 -1.5707762877093714 2.521129846572876 True False
5952.339 -2.191237751637594 -1.7224279842772425 2.035546604787008 -1.8839637241759242 -1.570772949849264 2.5211827754974365 True False
5952.3589999999995 -2.191242043172018 -1.7220374546446742 2.036304775868551 -1.8848868809142054 -1.5707686583148401 2.5212087631225586 True False
5952.379 -2.191242043172018 -1.7216907940306605 2.037052933369772 -1.8863111935057582 -1.5707925001727503 2.5212624073028564 True False
5952.398999999999 -2.1912058035479944 -1.7209602795042933 2.0381363073932093 -1.8880006275572718 -1.570836369191305 2.5212042331695557 True False
5952.419 -2.191198174153463 -1.7202235660948695 2.0395200888263147 -1.8901401958861292 -1.570813004170553 2.5212340354919434 True False
5952.438999999999 -2.191212002431051 -1.7192956409850062 2.0409768263446253 -1.8924714527525843 -1.5707891623126429 2.5212414264678955 True False
5952.459 -2.1911328474627894 -1.7181669674315394 2.042652432118551 -1.8952886066832484 -1.5707605520831507 2.5212414264678955 True False
5952.478999999999 -2.19116717973818 -1.7169457874693812 2.0446317831622522 -1.8984629116454066 -1.570784870778219 2.5211925506591797 True False
5952.499 -2.191146198903219 -1.715686937371725 2.046802345906393 -1.9018470249571742 -1.570784870778219 2.5212295055389404 True False
5952.518999999999 -2.191179100667135 -1.7141338787474574 2.049086872731344 -1.9059397182860316 -1.570813004170553 2.5212326049804688 True False
5952.539 -2.191146198903219 -1.712597986260885 2.0516560713397425 -1.909982820550436 -1.5708087126361292 2.5212371349334717 True False
5952.558999999999 -2.191146198903219 -1.7107836208739222 2.054559055958883 -1.9145647488036097 -1.5708444754229944 2.5212371349334717 True False
5952.579 -2.1911380926715296 -1.7088829479613246 2.0575769583331507 -1.9194427929320277 -1.5708087126361292 2.5212340354919434 True False
5952.599 -2.191129509602682 -1.7069446049132289 2.0608466307269495 -1.9247924290099085 -1.5707967917071741 2.5212786197662354 True False
5952.619 -2.191141907368795 -1.7047773800291957 2.064270798360006 -1.9303719005980433 -1.5707934538470667 2.5212459564208984 True False
5952.639 -2.191129509602682 -1.702526708642477 2.068090263997213 -1.9363748035826625 -1.5707767645465296 2.5212743282318115 True False
5952.659 -2.191113297139303 -1.700045724908346 2.0720818678485315 -1.9427854023375453 -1.5708125273333948 2.5212414264678955 True False
5952.679 -2.191146198903219 -1.697482248345846 2.0763891378985804 -1.9495092831053675 -1.5708006064044397 2.521275758743286 True False
5952.699 -2.191118065510885 -1.6946855984129847 2.0806496779071253 -1.9565907917418421 -1.5707929770099085 2.5212414264678955 True False
5952.719 -2.191150490437643 -1.6919180355467738 2.0850651899920862 -1.9640242062010707 -1.5708125273333948 2.521285057067871 True False
5952.739 -2.191113297139303 -1.6889544926085414 2.0899294058429163 -1.9717885456480921 -1.5708087126361292 2.5212414264678955 True False
5952.759 -2.191179100667135 -1.6857663593687953 2.094978157673971 -1.979811807672018 -1.5707929770099085 2.5212295055389404 True False
5952.7789999999995 -2.1911924521075647 -1.6827050648131312 2.100309197102682 -1.9883982143797816 -1.5707967917071741 2.5212340354919434 True False
5952.799 -2.191158119832174 -1.6792775593199671 2.105891529713766 -1.997350355187887 -1.5708006064044397 2.5212697982788086 True False
5952.8189999999995 -2.191141907368795 -1.6756659946837367 2.1115973631488245 -2.006407400170797 -1.5708335081683558 2.5211968421936035 True False
5952.839 -2.191170040761129 -1.6721230945982875 2.1173699537860315 -2.016132970849508 -1.5707886854754847 2.52130389213562 True False
5952.8589999999995 -2.191113297139303 -1.6684729061522425 2.1233466307269495 -2.0260192356505335 -1.570772949849264 2.521292209625244 True False
5952.879 -2.191122357045309 -1.6647116146483363 2.129345242177145 -2.0353123150267542 -1.5707648436175745 2.5212295055389404 True False
5952.898999999999 -2.191096607838766 -1.6611606083311976 2.1350510756122034 -2.0445929966368617 -1.5707767645465296 2.5212056636810303 True False
5952.919 -2.191105667744772 -1.6578170261778773 2.1405141989337366 -2.053344865838522 -1.570772949849264 2.521275758743286 True False
5952.938999999999 -2.1911247412311 -1.6545692882933558 2.145724121724264 -2.061857362786764 -1.5708006064044397 2.521263837814331 True False
5952.959 -2.191162411366598 -1.6514975033202113 2.150522057210104 -2.0699264011778773 -1.570784870778219 2.5212249755859375 True False
5952.978999999999 -2.191120449696676 -1.6486245594420375 2.1553195158587855 -2.077615877191061 -1.5707367102252405 2.5212624073028564 True False
5952.999 -2.191155258809225 -1.645801683465475 2.159919563923971 -2.0849482021727503 -1.570784870778219 2.5211968421936035 True False
5953.018999999999 -2.1911380926715296 -1.6431991062560023 2.1643264929400843 -2.092161794702047 -1.5708048979388636 2.5212326049804688 True False
5953.039 -2.191141907368795 -1.6405922375121058 2.1685450712787073 -2.098786016503805 -1.5708048979388636 2.5212624073028564 True False
5953.058999999999 -2.191104237233297 -1.63818420986318 2.1725013891803187 -2.104987760583395 -1.570784870778219 2.5212371349334717 True False
5953.079 -2.191141907368795 -1.6358872852721156 2.176013771687643 -2.1109472713866175 -1.5707767645465296 2.5212624073028564 True False
5953.099 -2.191109005604879 -1.6338230572142542 2.179422680531637 -2.116551538506979 -1.5707810560809534 2.5212504863739014 True False
5953.119 -2.191118065510885 -1.6317821941771449 2.1827572027789515 -2.121672292748922 -1.5708006064044397 2.521210193634033 True False
5953.139 -2.1911380926715296 -1.6298653088011683 2.1857436339007776 -2.126619955102438 -1.5708211104022425 2.521271228790283 True False
5953.159 -2.191109005604879 -1.628167291680807 2.1884592215167444 -2.1311241588988246 -1.5707929770099085 2.5212669372558594 True False
5953.179 -2.191105667744772 -1.6266099415221156 2.1910527388202112 -2.1353513203062953 -1.5707886854754847 2.521247625350952 True False
5953.199 -2.191158119832174 -1.6251708469786585 2.193533245717184 -2.1390849552550257 -1.5708006064044397 2.5212578773498535 True False
5953.219 -2.191171471272604 -1.6237975559630335 2.1956055800067347 -2.142573972741598 -1.5707929770099085 2.5212669372558594 True False
5953.239 -2.191162411366598 -1.622714181939596 2.1975768248187464 -2.145680089990133 -1.5707929770099085 2.5212666988372803 True False
5953.259 -2.1911247412311 -1.6215955219664515 2.1993001143084925 -2.1482912502684535 -1.5708087126361292 2.5212414264678955 True False
5953.2789999999995 -2.191113297139303 -1.6207524738707484 2.2007253805743616 -2.1506711445250453 -1.5707610289203089 2.521226644515991 True False
5953.299 -2.191129509602682 -1.6200276813902796 2.2019203344928187 -2.152874609033102 -1.570801083241598 2.5212087631225586 True False
5953.3189999999995 -2.191176239644186 -1.619363924066061 2.2029650847064417 -2.1543919048705042 -1.5707529226886194 2.5212459564208984 True False
5953.339 -2.191179100667135 -1.618861814538473 2.203773323689596 -2.1557218037047328 -1.5707529226886194 2.5212252140045166 True False
5953.3589999999995 -2.191150490437643 -1.6185137234129847 2.204385582600729 -2.156623979608053 -1.5707686583148401 2.521193742752075 True False
5953.379 -2.191079918538229 -1.6182452640929164 2.204747025166647 -2.1571861706175746 -1.5707805792437952 2.5212504863739014 True False
5953.398999999999 -2.191162411366598 -1.6182261906065882 2.204860512410299 -2.1574136219420375 -1.5708048979388636 2.5212578773498535 True False
5953.419 -2.1911338011371058 -1.6182366810240687 2.2047956625567835 -2.157449861566061 -1.570756737385885 2.5211758613586426 True False
5953.438999999999 -2.191174332295553 -1.6183034382262171 2.2048032919513147 -2.1574579677977503 -1.570801083241598 2.5212056636810303 True False
5953.459 -2.1911380926715296 -1.6182247600951136 2.2048233191119593 -2.1574374637999476 -1.5707686583148401 2.5212340354919434 True False
5953.478999999999 -2.1911290327655237 -1.6182099781432093 2.204766098652975 -2.1574017010130824 -1.5707648436175745 2.5212175846099854 True False
5953.499 -2.1911380926715296 -1.6181813679137171 2.2048233191119593 -2.1574374637999476 -1.5707967917071741 2.5212013721466064 True False
5953.518999999999 -2.1911428610431116 -1.6182171307005824 2.204840962086813 -2.1574536762633265 -1.5707686583148401 2.5212295055389404 True False
5953.539 -2.1911290327655237 -1.6182142696776332 2.204806152974264 -2.1574255428709925 -1.5708335081683558 2.5212130546569824 True False
5953.558999999999 -2.1911099592791956 -1.6181680164732875 2.204827610646383 -2.1574818096556605 -1.5707767645465296 2.5212504863739014 True False
5953.579 -2.1911595503436487 -1.6181689701476039 2.204764191304342 -2.157461782495016 -1.5707925001727503 2.5212459564208984 True False
5953.599 -2.1911380926715296 -1.6181723080077113 2.204822842274801 -2.157421728173727 -1.5707967917071741 2.5212996006011963 True False
5953.619 -2.1911266485797327 -1.6181689701476039 2.204827610646383 -2.157405515710348 -1.5708168188678187 2.521210193634033 True False
5953.639 -2.191141907368795 -1.6181689701476039 2.2048304716693323 -2.1574212513365687 -1.570756737385885 2.521247386932373 True False
5953.659 -2.191146198903219 -1.6182605228819789 2.2048304716693323 -2.157485624352926 -1.570784870778219 2.5211877822875977 True False
5953.679 -2.191122357045309 -1.6181813679137171 2.2048471609698694 -2.157445570031637 -1.5707648436175745 2.5212087631225586 True False
5953.699 -2.191105667744772 -1.6182533703246058 2.2048304716693323 -2.1574775181212367 -1.570813004170553 2.5212459564208984 True False
5953.719 -2.191146198903219 -1.6181861362852992 2.2048752943622034 -2.1574255428709925 -1.5707805792437952 2.5212996006011963 True False
5953.739 -2.191118065510885 -1.6181689701476039 2.2048514525042933 -2.15748991588735 -1.5707686583148401 2.5211803913116455 True False
5953.759 -2.19119102159609 -1.6181408367552699 2.2048633734332483 -2.1574980221190394 -1.5708044211017054 2.5212414264678955 True False
5953.7789999999995 -2.191183392201559 -1.6181704006590785 2.2048843542682093 -2.1574212513365687 -1.5707805792437952 2.5212459564208984 True False
5953.799 -2.1911338011371058 -1.6180864773192347 2.2048633734332483 -2.15748991588735 -1.570784870778219 2.5212221145629883 True False
5953.8189999999995 -2.1911428610431116 -1.6181994877257289 2.2048752943622034 -2.1574374637999476 -1.5708087126361292 2.521193742752075 True False
5953.839 -2.191216293965475 -1.6181780300536097 2.2049081961261194 -2.1574412784972132 -1.5707724730121058 2.5212295055389404 True False
5953.8589999999995 -2.191091839467184 -1.6181994877257289 2.204867664967672 -2.157457490960592 -1.5708254019366663 2.5212504863739014 True False
5953.879 -2.191141907368795 -1.6181408367552699 2.2048586050616663 -2.1574412784972132 -1.5707648436175745 2.5211968421936035 True False
5953.898999999999 -2.191109005604879 -1.6181584797301234 2.204872433339254 -2.1574818096556605 -1.570784870778219 2.521259307861328 True False
5953.919 -2.191174332295553 -1.6182199917235316 2.2048543135272425 -2.1574374637999476 -1.570801083241598 2.5212252140045166 True False
5953.938999999999 -2.1911338011371058 -1.6181360683836878 2.2048710028277796 -2.1574374637999476 -1.5707805792437952 2.5212175846099854 True False
5953.959 -2.191129509602682 -1.6182152233519496 2.2048423925982874 -2.157469411889547 -1.5707686583148401 2.5212011337280273 True False
5953.978999999999 -2.191162411366598 -1.6181913814940394 2.2048471609698694 -2.157506128350729 -1.5707405249225062 2.52128005027771 True False
5953.999 -2.191199604664938 -1.6181861362852992 2.2048051992999476 -2.157473226586813 -1.5708168188678187 2.5212459564208984 True False
5954.018999999999 -2.191162411366598 -1.6182948551573695 2.204747978840963 -2.15759338955068 -1.570801083241598 2.5213077068328857 True False
5954.039 -2.191129509602682 -1.6182786426939906 2.2047598997699183 -2.1576091251769007 -1.5708048979388636 2.5212175846099854 True False
5954.058999999999 -2.191150490437643 -1.6182877025999964 2.2047274748431605 -2.1576692066588343 -1.5707686583148401 2.521226644515991 True False
5954.079 -2.191096607838766 -1.6182528934874476 2.2047317663775843 -2.157605310479635 -1.5707805792437952 2.5212743282318115 True False
5954.099 -2.191122357045309 -1.6183163128294886 2.204773728047506 -2.1576415501036585 -1.570772949849264 2.52124285697937 True True
5954.119 -2.1911338011371058 -1.6183206043639125 2.2047317663775843 -2.157637735406393 -1.570784870778219 2.5212504863739014 True True
5954.139 -2.191141907368795 -1.6182576618590296 2.204658333455221 -2.15737309078359 -1.5707772413836878 2.521263837814331 True True
5954.159 -2.191141907368795 -1.618399282495016 2.204575840626852 -2.156898637811178 -1.570756737385885 2.52124285697937 True True
5954.179 -2.191174332295553 -1.6185690365233363 2.2042792479144495 -2.155856271783346 -1.570813004170553 2.521226644515991 True True
5954.199 -2.19116717973818 -1.6189443073668421 2.2037842909442347 -2.154678007165426 -1.570801083241598 2.5212295055389404 True True
5954.219 -2.191129509602682 -1.619561334649557 2.2025683561908167 -2.1533361874022425 -1.5707767645465296 2.5212666988372803 True True
5954.239 -2.191141907368795 -1.6204267940916957 2.201186482106344 -2.1513992748656214 -1.5707886854754847 2.5212175846099854 True True
5954.259 -2.191109005604879 -1.6212960682311 2.1998303572284144 -2.148795267144674 -1.5707529226886194 2.5212013721466064 True True
5954.2789999999995 -2.191118065510885 -1.622204443017477 2.1982463041888636 -2.1463848553099574 -1.570784870778219 2.5212459564208984 True True
5954.299 -2.191166702901022 -1.623477121392721 2.1961310545550745 -2.1434976063170375 -1.570772949849264 2.5212595462799072 True True
5954.3189999999995 -2.191178623829977 -1.6247793636717738 2.1939809958087366 -2.14003910640859 -1.5708168188678187 2.5212368965148926 True True
5954.339 -2.1911657492267054 -1.6261588535704554 2.1917040983783167 -2.1363703213133753 -1.5708006064044397 2.5211803913116455 True True
5954.3589999999995 -2.191166702901022 -1.6277748546996058 2.189239803944723 -2.1323653660216273 -1.570813004170553 2.521247386932373 True True
5954.379 -2.19119102159609 -1.6294337711729945 2.1864569822894495 -2.127909322778219 -1.5708044211017054 2.5212042331695557 True True
5954.398999999999 -2.191199604664938 -1.6313988171019496 2.183542076741354 -2.1232267818846644 -1.5707648436175745 2.5212459564208984 True True
5954.419 -2.191129509602682 -1.633249898950094 2.180465046559469 -2.117978712121481 -1.5707967917071741 2.5212743282318115 True True
5954.438999999999 -2.1911538282977503 -1.6353517971434535 2.176986042653219 -2.1124211750426234 -1.5708416144000452 2.5212697982788086 True True
5954.459 -2.1911948362933558 -1.6375962696471156 2.1733482519732874 -2.1065765819945277 -1.5708048979388636 2.5212578773498535 True True
5954.478999999999 -2.1911161581622522 -1.6398784122862757 2.169576946889059 -2.1004649601378382 -1.5707686583148401 2.5212385654449463 True True
5954.499 -2.1911495367633265 -1.6424523792662562 2.1654518286334437 -2.0938011608519496 -1.5707886854754847 2.5212295055389404 True True
5954.518999999999 -2.191186253224508 -1.645097394982809 2.1611650625811976 -2.086949964562887 -1.5707967917071741 2.5211968421936035 True True
5954.539 -2.191162411366598 -1.6478554211058558 2.1566360632525843 -2.0796290836729945 -1.5708335081683558 2.5212206840515137 True True
5954.558999999999 -2.191162411366598 -1.650752683679098 2.1519835630999964 -2.071972509423727 -1.570853058491842 2.5212666988372803 True True
5954.579 -2.191150490437643 -1.6538216076292933 2.1470401922809046 -2.0640207729735316 -1.570784870778219 2.5212624073028564 True True
5954.599 -2.191162411366598 -1.657046457330221 2.1419065634356897 -2.0556775532164515 -1.5707925001727503 2.5212340354919434 True True
5954.619 -2.1911423842059534 -1.660384317437643 2.136541191731588 -2.0468932590880335 -1.5707686583148401 2.5211803913116455 True True
5954.639 -2.191129509602682 -1.6637665234007777 2.1307862440692347 -2.03789820293569 -1.5708373228656214 2.5212504863739014 True True
5954.659 -2.1911209265338343 -1.6673747501769007 2.124838177357809 -2.028525014916891 -1.5708406607257288 2.521271228790283 True True
5954.679 -2.191150490437643 -1.6710621319212855 2.1189268271075647 -2.018597265283102 -1.5708168188678187 2.521230936050415 True True
5954.699 -2.1911338011371058 -1.6746822796263636 2.113163773213522 -2.0089732609190882 -1.5707605520831507 2.5212326049804688 True True
5954.719 -2.1911547819720667 -1.6782547436156214 2.1073196570025843 -1.999796529809469 -1.570836369191305 2.5212504863739014 True True
5954.739 -2.1911099592791956 -1.6817451916136683 2.1017172972308558 -1.9907695255675257 -1.5708335081683558 2.5212175846099854 True True
5954.759 -2.191158119832174 -1.6850167713561 2.096311394368307 -1.982119699517721 -1.5707967917071741 2.5212578773498535 True True
5954.7789999999995 -2.191150490437643 -1.6881686649718226 2.0912750403033655 -1.9739448032774867 -1.5708087126361292 2.5212414264678955 True True
5954.799 -2.191150490437643 -1.691167493859762 2.0865190664874476 -1.9660231075682582 -1.5707648436175745 2.5212295055389404 True True
5954.8189999999995 -2.1911538282977503 -1.6940518818297328 2.0818503538714808 -1.9584423504271449 -1.5707886854754847 2.5212056636810303 True True
5954.839 -2.191162411366598 -1.6967951260008753 2.0773537794696253 -1.9513856373228968 -1.5708168188678187 2.5212132930755615 True True
5954.8589999999995 -2.191150490437643 -1.6992794475951136 2.07314378419985 -1.9446541271605433 -1.5707805792437952 2.5212013721466064 True True
5954.879 -2.1911137739764612 -1.7017470798888148 2.0690320173846644 -1.9380513630309046 -1.5708335081683558 2.5212459564208984 True True
5954.898999999999 -2.191125218068258 -1.7041307888426722 2.0652664343463343 -1.9319921932616175 -1.5707605520831507 2.5211803913116455 True True
5954.919 -2.191129509602682 -1.7062140903868617 2.0617478529559534 -1.9262167416014613 -1.570784870778219 2.5212414264678955 True True
5954.938999999999 -2.1911872068988245 -1.7083307705321253 2.058559242879049 -1.9208041630186976 -1.5707891623126429 2.521172285079956 True True
5954.959 -2.191162411366598 -1.7102443180479945 2.0554454962359827 -1.9159356556334437 -1.5708373228656214 2.5212132930755615 True True
5954.978999999999 -2.1911829153644007 -1.71209778408193 2.052480999623434 -1.911262651483053 -1.5707967917071741 2.5212578773498535 True True
5954.999 -2.191178623829977 -1.7137166462340296 2.0499194304095667 -1.906823297540182 -1.5708211104022425 2.5212340354919434 True True
5955.018999999999 -2.1911829153644007 -1.7152277431883753 2.0474498907672327 -1.9029003582396449 -1.5708048979388636 2.5212504863739014 True True
5955.039 -2.191186253224508 -1.7165938816466273 2.045215908681051 -1.8992968998351039 -1.5707925001727503 2.5212340354919434 True True
5955.058999999999 -2.191146198903219 -1.7177940807738246 2.043259922658102 -1.8961450062193812 -1.570784870778219 2.521259307861328 True True
5955.079 -2.191146198903219 -1.7189213238158167 2.0413320700274866 -1.8931261501707972 -1.5707772413836878 2.521275758743286 True True
5955.099 -2.191141907368795 -1.7199274502196253 2.0397923628436487 -1.89068665126943 -1.5708211104022425 2.5212950706481934 True True
5955.119 -2.191178623829977 -1.7206469974913539 2.038532082234518 -1.8885485134520472 -1.570813004170553 2.5212504863739014 True True
5955.139 -2.191158119832174 -1.7213341198363246 2.037426296864645 -1.8867045841612757 -1.5708254019366663 2.5212326049804688 True True
5955.159 -2.191118065510885 -1.7219163380064906 2.0363691488849085 -1.885308404962057 -1.570813004170553 2.5212161540985107 True True
5955.179 -2.1911209265338343 -1.7223297558226527 2.0357397238360804 -1.8843385181822718 -1.5707605520831507 2.521275758743286 True True
5955.199 -2.191101376210348 -1.7226063213744105 2.035294834767477 -1.8834887943663539 -1.570801083241598 2.5212385654449463 True True
5955.219 -2.191146198903219 -1.7227231464781703 2.035046402608053 -1.8831330738463343 -1.5708335081683558 2.521254777908325 True True
5955.239 -2.1911547819720667 -1.7227393589415492 2.0350711981402796 -1.883169790307516 -1.5707967917071741 2.5212326049804688 True True
5955.259 -2.1907222906695765 -1.7227078876891078 2.0350754896747034 -1.8831249676146449 -1.570784870778219 2.521198272705078 True True
5955.2789999999995 -2.190043274556295 -1.7226249180235804 2.0349348227130335 -1.8831092319884242 -1.570829216633932 2.521038293838501 True True
5955.299 -2.1889784971820276 -1.722574850121969 2.0348356405841272 -1.8831097088255824 -1.5707843939410608 2.5208067893981934 True True
5955.3189999999995 -2.1875723044024866 -1.7224427662291468 2.0346315542804163 -1.8830300770201625 -1.570784870778219 2.5205702781677246 True True
5955.339 -2.1857970396624964 -1.7222711048521937 2.0343626181231897 -1.8830024204649867 -1.5708087126361292 2.5201735496520996 True True
5955.3589999999995 -2.183704201375143 -1.722027441064352 2.0341556707965296 -1.8828894100584925 -1.5708406607257288 2.5197291374206543 True True
5955.379 -2.1812499205218714 -1.721779008904928 2.0338385740863245 -1.882918497125143 -1.5707967917071741 2.519217014312744 True True
5955.398999999999 -2.17835504213442 -1.7215081653990687 2.0334904829608362 -1.882862230340475 -1.5707805792437952 2.5186119079589844 True True
5955.419 -2.1751158873187464 -1.7212053738036097 2.033175293599264 -1.882794042626852 -1.5708254019366663 2.5179309844970703 True True
5955.438999999999 -2.1715953985797327 -1.720792909661764 2.032750908528463 -1.8827663860716761 -1.5707805792437952 2.5172054767608643 True True
5955.459 -2.167680088673727 -1.7204395733275355 2.0322936216937464 -1.8826710186400355 -1.5707891623126429 2.5163254737854004 True True
5955.478999999999 -2.16335899034609 -1.7199422321715296 2.031827751790182 -1.8826266727843226 -1.5707767645465296 2.515535354614258 True True
5955.499 -2.158827606831686 -1.7195269070067347 2.03126031557192 -1.8825427494444789 -1.5707967917071741 2.5145559310913086 True True
5955.518999999999 -2.1538613478290003 -1.7189423046507777 2.0305607954608362 -1.8824063740172328 -1.570784870778219 2.513521194458008 True True
5955.539 -2.1485536734210413 -1.7183381519713343 2.029938046132223 -1.8823749027647914 -1.570784870778219 2.512406349182129 True True
5955.558999999999 -2.14276630083193 -1.7177721462645472 2.0292299429522913 -1.8823510609068812 -1.5707724730121058 2.5111982822418213 True True
5955.579 -2.1366904417621058 -1.7171627483763636 2.028541390095846 -1.8821994266905726 -1.5707281271563929 2.50997257232666 True True
5955.599 -2.130233112965719 -1.7164784870543421 2.027777973805563 -1.8820954761900843 -1.5707886854754847 2.5086419582366943 True True
5955.619 -2.1235740820514124 -1.7156979046263636 2.0269697348224085 -1.8820363483824671 -1.5707967917071741 2.507199764251709 True True
5955.639 -2.116443459187643 -1.7149530849852503 2.0260799566852015 -1.8818956814207972 -1.570801083241598 2.5057194232940674 True True
5955.659 -2.108885113392965 -1.7142769298949183 2.025346104298727 -1.8817721805968226 -1.5707767645465296 2.504166603088379 True True
5955.679 -2.101037327443258 -1.7134167156615199 2.0243895689593714 -1.8817006550230921 -1.5708048979388636 2.502509355545044 True True
5955.699 -2.0929067770587366 -1.7125312290587367 2.0233219305621546 -1.881613393823141 -1.570801083241598 2.5008435249328613 True True
5955.719 -2.084446732197897 -1.7115923366942347 2.022233311329977 -1.8814012012877406 -1.570772949849264 2.4990670680999756 True True
5955.739 -2.0752790609942835 -1.7107387981810511 2.02118951479067 -1.8812371693053187 -1.5707805792437952 2.4972352981567383 True True
5955.759 -2.0660112539874476 -1.7097531757750453 2.020094696675436 -1.8810731373228968 -1.570813004170553 2.4953067302703857 True True
5955.7789999999995 -2.056575600300924 -1.708658834496969 2.0189383665667933 -1.8810702762999476 -1.5707925001727503 2.4933512210845947 True True
5955.799 -2.0465028921710413 -1.7076665363707484 2.017843548451559 -1.88090242962026 -1.5708406607257288 2.491252899169922 True True
5955.8189999999995 -2.0360267798053187 -1.7066198788084925 2.0166261831866663 -1.8806911907591761 -1.5707772413836878 2.4891483783721924 True True
5955.839 -2.025524441395895 -1.705454011956686 2.0152271429644983 -1.8806153736510218 -1.570813004170553 2.486950635910034 True True
5955.8589999999995 -2.014461342488424 -1.7043501339354457 2.0139082113849085 -1.8804432354369105 -1.5707886854754847 2.4846575260162354 True True
5955.879 -2.002847973500387 -1.7032209835448207 2.012610737477438 -1.880195756951803 -1.5707772413836878 2.482254981994629 True True
5955.898999999999 -1.9912665526019495 -1.7018476925291957 2.011188332234518 -1.8800841770567835 -1.5708492437945765 2.479811429977417 True True
5955.919 -1.979074780141012 -1.7005335293211878 2.009709183369772 -1.879864355126852 -1.5708377997027796 2.4773058891296387 True True
5955.938999999999 -1.9665010611163538 -1.6993361912169398 2.00812799135317 -1.8796726665892542 -1.5707772413836878 2.474691867828369 True True
5955.959 -1.9538763205157679 -1.6978498897948207 2.0064719359027308 -1.8795930347838343 -1.5708368460284632 2.4720118045806885 True True
5955.978999999999 -1.9404199759112757 -1.696648736993307 2.005049530659811 -1.8793055019774378 -1.5707686583148401 2.469313859939575 True True
5955.999 -1.9268654028521937 -1.6951190433897914 2.003495518361227 -1.8791505299010218 -1.570801083241598 2.466505765914917 True True
5956.018999999999 -1.913077179585592 -1.6936050854124964 2.001674000416891 -1.87901033977651 -1.5708325544940394 2.463622808456421 True True
5956.039 -1.89872914949526 -1.6922608814635218 2.0000556151019495 -1.8787108860411585 -1.5707247892962855 2.460632801055908 True True
5956.058999999999 -1.884148422871725 -1.6905819378294886 1.9982345739947718 -1.8785792789854945 -1.5708168188678187 2.457674264907837 True True
5956.079 -1.8690889517413538 -1.6890942058958949 1.9967120329486292 -1.8782435856261195 -1.5707042852984827 2.454589605331421 True True
5956.099 -1.8537920157061976 -1.6873942814269007 1.9948394934283655 -1.8780447445311488 -1.570853058491842 2.4514293670654297 True True
5956.119 -1.8380792776690882 -1.6857949695982875 1.9928234259234827 -1.8778726063170375 -1.5707772413836878 2.4481124877929688 True True
5956.139 -1.8219597975360315 -1.6841370067992152 1.991021458302633 -1.8776093922057093 -1.5707891623126429 2.444812059402466 True True
5956.159 -1.80556565919985 -1.6824718914427699 1.9891107718097132 -1.8772818050780238 -1.570756737385885 2.4412832260131836 True True
5956.179 -1.7888014952289026 -1.6807247600951136 1.9869845549212855 -1.87711824993276 -1.570784870778219 2.4378485679626465 True True
5956.199 -1.7722309271441858 -1.6789452038206996 1.9849942366229456 -1.8769027195372523 -1.5707929770099085 2.434427499771118 True True
5956.219 -1.7554052511798304 -1.6771394215025843 1.9831278959857386 -1.8765794239439906 -1.5708254019366663 2.4309747219085693 True True
5956.239 -1.7386563459979456 -1.675490518609518 1.9810708204852503 -1.876376291314596 -1.5707486311541956 2.4274587631225586 True True
5956.259 -1.7218030134784144 -1.6737233601012171 1.9789093176471155 -1.8761731586852015 -1.5708325544940394 2.4240386486053467 True True
5956.2789999999995 -1.7050555388080042 -1.6719962559142054 1.9768980185138147 -1.875918527642721 -1.5707772413836878 2.420581102371216 True True
5956.299 -1.6882575193988245 -1.670173784295553 1.9750059286700647 -1.875552316705221 -1.570768181477682 2.417076826095581 True True
5956.3189999999995 -1.6715863386737269 -1.6684209309019984 1.9728878180133265 -1.8754140339293421 -1.5707929770099085 2.413600444793701 True True
5956.339 -1.65480882326235 -1.6666938267149867 1.970804516469137 -1.8751832447447718 -1.5707843939410608 2.410048246383667 True True
5956.3589999999995 -1.6380732695208948 -1.6649018726744593 1.969013516102926 -1.8748847446837367 -1.5708335081683558 2.406555652618408 True True
5956.379 -1.6212909857379358 -1.6630145512022914 1.9670169989215296 -1.874559064904684 -1.570756737385885 2.4031591415405273 True True
5956.398999999999 -1.6045778433429163 -1.6613003216185511 1.9649413267718714 -1.8743554554381312 -1.570813004170553 2.399763822555542 True True
5956.419 -1.5878036657916468 -1.659647604028219 1.9629748503314417 -1.874169488946432 -1.570784870778219 2.3963124752044678 True True
5956.438999999999 -1.5710905233966272 -1.6577760181822718 1.9611108938800257 -1.8737479648985804 -1.5708168188678187 2.39290452003479 True True
5956.459 -1.5542786757098597 -1.6560427151122035 1.958987061177389 -1.8735724888243617 -1.570801083241598 2.3893115520477295 True True
5956.478999999999 -1.5374849478351038 -1.6543346844115199 1.9569175879107874 -1.8734175167479457 -1.5707925001727503 2.385824203491211 True True
5956.499 -1.520693604146139 -1.6525937519469203 1.955057446156637 -1.8730431995787562 -1.5707805792437952 2.382354736328125 True True
5956.518999999999 -1.504007641469137 -1.6507169208922328 1.953038517628805 -1.872857233087057 -1.5707886854754847 2.378816843032837 True True
5956.539 -1.4872334639178675 -1.6491333446898402 1.9509308973895472 -1.8727218113341273 -1.5707610289203089 2.375318765640259 True True
5956.558999999999 -1.47056752840151 -1.6473828754820765 1.948993984852926 -1.872439523736471 -1.5708325544940394 2.371899366378784 True True
5956.579 -1.4537137190448206 -1.645494123498434 1.9470832983600062 -1.8720694981017054 -1.5707925001727503 2.368455648422241 True True
5956.599 -1.4369548002826136 -1.643820425073141 1.944979492818014 -1.8719588718810023 -1.5707925001727503 2.3649661540985107 True True
5956.619 -1.4202130476581019 -1.642235895196432 1.9428513685809534 -1.8717247448363246 -1.5707805792437952 2.361538887023926 True True
5956.639 -1.403497044240133 -1.6403514347472132 1.9410150686847132 -1.8714219532408656 -1.5707605520831507 2.3580877780914307 True True
5956.659 -1.386695686970846 -1.6385709247984828 1.9389985243426722 -1.8711439571776332 -1.5707686583148401 2.3545994758605957 True True
5956.679 -1.3699525038348597 -1.6368314228453578 1.9368599096881312 -1.8710247478880824 -1.5707529226886194 2.3510379791259766 True True
5956.699 -1.353307072316305 -1.6350771389403285 1.9350269476519983 -1.8706942997374476 -1.5707805792437952 2.347543478012085 True True
5956.719 -1.3363950888263147 -1.6333009205260218 1.9330619017230433 -1.8703166447081507 -1.570824925099508 2.3440909385681152 True True
5956.739 -1.319735352193014 -1.631496091882223 1.930971924458639 -1.8701735935606898 -1.5708048979388636 2.3406643867492676 True True
5956.759 -1.3030040899859827 -1.6298157177367152 1.9289067427264612 -1.87001432994985 -1.5707886854754847 2.33723521232605 True True
5956.7789999999995 -1.2861335913287562 -1.6280824146666468 1.927004639302389 -1.8696204624571742 -1.5708449522601526 2.333742141723633 True True
5956.799 -1.2694338003741663 -1.6262222729124964 1.924981419240133 -1.869401594201559 -1.5708091894732874 2.3303275108337402 True True
5956.8189999999995 -1.2526305357562464 -1.62455477337026 1.9228866736041468 -1.869274755517477 -1.5708368460284632 2.326829195022583 True True
5956.839 -1.2359545866595667 -1.622812410394186 1.920941177998678 -1.8689571819701136 -1.5707767645465296 2.3233182430267334 True True
5956.8589999999995 -1.2192309538470667 -1.6209451160826625 1.9190462271319788 -1.8686758480467738 -1.5708368460284632 2.3198492527008057 True True
5956.879 -1.20245868364443 -1.619380613366598 1.9169624487506312 -1.8684679470457972 -1.5707610289203089 2.316284656524658 True True
5956.898999999999 -1.1856091658221644 -1.617624422112936 1.9148839155780237 -1.8683010540404261 -1.570784870778219 2.312819480895996 True True
5956.919 -1.1689065138446253 -1.61572327236318 1.912943188344137 -1.8679472408690394 -1.5707843939410608 2.309391736984253 True True
5956.938999999999 -1.1520841757403772 -1.614007135430807 1.9108660856830042 -1.8676687679686488 -1.5707686583148401 2.305971384048462 True True
5956.959 -1.1354296843158167 -1.6124092541136683 1.9087517897235315 -1.8674541912474574 -1.5708325544940394 2.3025331497192383 True True
5956.978999999999 -1.1186359564410608 -1.6105605564513148 1.9068997542010706 -1.8671556911864222 -1.5707648436175745 2.2990124225616455 True True
5956.999 -1.1018736998187464 -1.6087094746031703 1.9050148169146937 -1.8668142757811488 -1.570813004170553 2.2956106662750244 True True
5957.018999999999 -1.0851457754718226 -1.6070438824095667 1.9028695265399378 -1.8667065105833949 -1.5707925001727503 2.2920498847961426 True True
5957.039 -1.0684178511248987 -1.6053482494749964 1.9008782545672815 -1.86651672939443 -1.5708382765399378 2.2885351181030273 True True
5957.058999999999 -1.051537815724508 -1.6034742794432582 1.8990548292743128 -1.8662110767760218 -1.5707934538470667 2.2851200103759766 True True
5957.079 -1.0349534193622034 -1.6016341648497523 1.8969505468951624 -1.8659397564330042 -1.570833985005514 2.281599283218384 True True
5957.099 -1.0181992689715784 -1.6000415287413539 1.8948410193072718 -1.865800519982809 -1.5708254019366663 2.278169870376587 True True
5957.119 -1.001291577016012 -1.5982099972166957 1.8929818312274378 -1.8654419384398402 -1.5708373228656214 2.274711847305298 True True
5957.139 -0.9845755735980433 -1.5963298283019007 1.8911531607257288 -1.8651520214476527 -1.5707686583148401 2.271224021911621 True True
5957.159 -0.967877213154928 -1.5947004757323207 1.8889568487750452 -1.865021368066305 -1.5708125273333948 2.2678165435791016 True True
5957.179 -0.9510148207293909 -1.593029638329977 1.886970345173971 -1.864758630792135 -1.5707686583148401 2.264345407485962 True True
5957.199 -0.9343135992633265 -1.5911265812315882 1.8850539366351526 -1.8644725284972132 -1.5708258787738245 2.2608482837677 True True
5957.219 -0.9176142851458948 -1.5893846950926722 1.8829253355609339 -1.8642455540099085 -1.5708325544940394 2.257328987121582 True True
5957.239 -0.900769058858053 -1.5877772770323695 1.880709473286764 -1.8640591106810511 -1.570784870778219 2.2538464069366455 True True
5957.259 -0.8840668837176722 -1.5859290562071742 1.8789141813861292 -1.8637248478331507 -1.5708044211017054 2.2503631114959717 True True
5957.2789999999995 -0.8673885504352015 -1.5841571293272914 1.876925293599264 -1.86350741008901 -1.5707724730121058 2.246893882751465 True True
5957.299 -0.850555721913473 -1.5825048885741175 1.8748014608966272 -1.863279481927389 -1.57074481645693 2.2435073852539062 True True
5957.3189999999995 -0.8338850180255335 -1.5808145008482875 1.8728321234332483 -1.8630930385985316 -1.570813004170553 2.239985227584839 True True
5957.339 -0.8170512358294886 -1.5788656673827113 1.8710325399981897 -1.862739702264303 -1.5708053747760218 2.2365667819976807 True True
5957.3589999999995 -0.800262753163473 -1.5771848164000453 1.8689668814288538 -1.8625527820982875 -1.5707891623126429 2.2330820560455322 True True
5957.379 -0.7835863272296351 -1.5754896603026332 1.866835896168844 -1.8623539410033167 -1.5707886854754847 2.2296104431152344 True True
5957.398999999999 -0.766763989125387 -1.573679109612936 1.8649523893939417 -1.8619915447630824 -1.5707362333880823 2.2260868549346924 True True
5957.419 -0.7499755064593714 -1.5719214878477992 1.862976376210348 -1.8617016277708949 -1.570833985005514 2.2225732803344727 True True
5957.438999999999 -0.7333205381976526 -1.5701442330940445 1.860831085835592 -1.8615786037840785 -1.5707324186908167 2.2190651893615723 True True
5957.459 -0.7165330092059534 -1.5684417141931881 1.8589327971087855 -1.8613163433470667 -1.5708492437945765 2.2156801223754883 True True
5957.478999999999 -0.6997945944415491 -1.5665814250572403 1.8570612112628382 -1.860906263391012 -1.5708168188678187 2.212170124053955 True True
5957.499 -0.6830409208880823 -1.5649137476323922 1.8549154440509241 -1.8608108959593714 -1.5707925001727503 2.2087419033050537 True True
5957.518999999999 -0.6662848631488245 -1.5631315925023337 1.8528197447406214 -1.8605967960753382 -1.5708335081683558 2.205288887023926 True True
5957.539 -0.6494129339801233 -1.561369403531291 1.8509371916400355 -1.8601991138853968 -1.5707934538470667 2.2018678188323975 True True
5957.558999999999 -0.6328008810626429 -1.559597442192473 1.848922077809469 -1.859948297540182 -1.570813004170553 2.1983673572540283 True True
5957.579 -0.6160300413714808 -1.557981415917613 1.8467734495746058 -1.8598572216429652 -1.5707810560809534 2.19484806060791 True True
5957.599 -0.5992549101458948 -1.5562007420561095 1.8448923269854944 -1.859478612939352 -1.5707929770099085 2.1913681030273438 True True
5957.619 -0.582494084035055 -1.5543520220420142 1.8430121580706995 -1.8592006168761195 -1.5707929770099085 2.187869071960449 True True
5957.639 -0.5657065550433558 -1.552664029677846 1.8409269491778772 -1.8590785465636195 -1.5707405249225062 2.1843931674957275 True True
5957.659 -0.5489366690265101 -1.55094292507086 1.8388555685626429 -1.8589030704894007 -1.5707767645465296 2.180961847305298 True True
5957.679 -0.5321224371539515 -1.5491387260011216 1.8370268980609339 -1.8585297069945277 -1.5707562605487269 2.177535057067871 True True
5957.699 -0.5154703299151819 -1.5474084739438076 1.8349822203265589 -1.8583508930602015 -1.5707486311541956 2.174074649810791 True True
5957.719 -0.49867326418031865 -1.5457548417947073 1.8328216711627405 -1.858147760430807 -1.5708492437945765 2.170590400695801 True True
5957.739 -0.48199206987489873 -1.5439191006920119 1.8308747450457972 -1.8578969440855921 -1.5707405249225062 2.1671488285064697 True True
5957.759 -0.46518022218813115 -1.5420434449664135 1.829038445149557 -1.857579847375387 -1.5708239714251917 2.1636247634887695 True True
5957.7789999999995 -0.4484446684466761 -1.540357769732811 1.8268697897540491 -1.857335706750387 -1.5707648436175745 2.160083293914795 True True
5957.799 -0.431678597127096 -1.5386005614748974 1.8247764746295374 -1.857189794579977 -1.5708006064044397 2.15659499168396 True True
5957.8189999999995 -0.4149077574359339 -1.5367872205427666 1.8230269590960901 -1.856699129144186 -1.570772949849264 2.153168201446533 True True
5957.839 -0.3981555143939417 -1.5349578273347397 1.820930306111471 -1.8565603695311488 -1.570784870778219 2.1496734619140625 True True
5957.8589999999995 -0.38151532808412725 -1.5333733943155785 1.8187292257892054 -1.8563691578307093 -1.5707929770099085 2.146225690841675 True True
5957.879 -0.3646743933307093 -1.5314924877933045 1.8167360464679163 -1.8561107120909632 -1.5707529226886194 2.1428329944610596 True True
5957.898999999999 -0.3479378859149378 -1.529763140981533 1.8149445692645472 -1.85577454189443 -1.570801083241598 2.1393139362335205 True True
5957.919 -0.3312261740313929 -1.5280329969576378 1.8127439657794397 -1.8557030163206996 -1.5707929770099085 2.1359167098999023 True True
5957.938999999999 -0.3144419828998011 -1.5263846565834065 1.810772720967428 -1.8554049930968226 -1.5708206335650843 2.1323599815368652 True True
5957.959 -0.297614876423971 -1.524557852452137 1.8089574019061487 -1.85504212001943 -1.5707691351519983 2.1289379596710205 True True
5957.978999999999 -0.2809103170977991 -1.5227720153382798 1.806887451802389 -1.854778905908102 -1.5708168188678187 2.125393867492676 True True
5957.999 -0.2641184965716761 -1.521080320035555 1.8047669569598597 -1.8546716175475062 -1.5708006064044397 2.1218764781951904 True True
5958.018999999999 -0.2472904364215296 -1.519359567468502 1.8028906027423304 -1.854302545587057 -1.5707929770099085 2.118468761444092 True True
5958.039 -0.23069793382753545 -1.5175405901721497 1.8008702437030237 -1.8540755710997523 -1.5708168188678187 2.115006446838379 True True
5958.058999999999 -0.213813606892721 -1.5158030924252053 1.7988265196429651 -1.8538652859129847 -1.5708325544940394 2.1115622520446777 True True
5958.079 -0.19717389742006475 -1.5141438965550442 1.7968962828265589 -1.8535825214781703 -1.5707367102252405 2.1080715656280518 True True
5958.099 -0.1803682486163538 -1.5122248095325013 1.7949631849872034 -1.8533007107176722 -1.5707724730121058 2.104635715484619 True True
5958.119 -0.16349536577333623 -1.5104835529676457 1.7929580847369593 -1.8530341587462367 -1.5707691351519983 2.1011576652526855 True True
5958.139 -0.14683849016298467 -1.5088268753937264 1.79081899324526 -1.8530003033080042 -1.5707886854754847 2.097656488418579 True True
5958.159 -0.13011676469911748 -1.5070922312191506 1.7889016310321253 -1.852565427819723 -1.5708168188678187 2.0941379070281982 True True
5958.179 -0.11334830919374639 -1.505173647110798 1.7868989149676722 -1.8523594341673792 -1.57074481645693 2.0906596183776855 True True
5958.199 -0.09664613405336553 -1.5035059464028855 1.784799877797262 -1.8521644077696742 -1.5707648436175745 2.0871756076812744 True True
5958.219 -0.07984668413271123 -1.5017585542849083 1.7827327887164515 -1.8519851169981898 -1.5707967917071741 2.083756685256958 True True
5958.239 -0.06303388277162725 -1.4999733728221436 1.7809084097491663 -1.8515674076476039 -1.5707929770099085 2.0803933143615723 True True
5958.259 -0.04629975954164678 -1.49820630372081 1.778858486806051 -1.851412912408346 -1.5708168188678187 2.076824903488159 True True
5958.2789999999995 -0.029592816029683888 -1.4965180319598694 1.776707951222555 -1.8512054882445277 -1.570801083241598 2.0733444690704346 True True
5958.299 -0.012824837361470998 -1.4947491374662896 1.7749326864825647 -1.8509041271605433 -1.5708091894732874 2.069852113723755 True True
5958.3189999999995 0.003976176027208567 -1.4929224413684388 1.7729743162738245 -1.8506294689574183 -1.5708444754229944 2.0664143562316895 True True
5958.339 0.020725300535559654 -1.4912564691952248 1.7707532087909144 -1.85044588665151 -1.5708048979388636 2.0629029273986816 True True
5958.3589999999995 0.037477508187294006 -1.4895653885653992 1.768872086201803 -1.8502527676024378 -1.5708492437945765 2.059417486190796 True True
5958.379 0.05418652296066284 -1.4876885053566475 1.7670028845416468 -1.8498145542540492 -1.5708287397967737 2.055996894836426 True True
5958.398999999999 0.07104963809251785 -1.4859295275858422 1.7648771444903772 -1.8496514759459437 -1.5708168188678187 2.052560567855835 True True
5958.419 0.08771587908267975 -1.4842221301845093 1.7628234068499964 -1.8494488201537074 -1.5707929770099085 2.049079179763794 True True
5958.438999999999 0.10453005135059357 -1.48245474070821 1.7609580198871058 -1.8491751156248988 -1.5707925001727503 2.045572519302368 True True
5958.459 0.12123018503189087 -1.4807336342385788 1.758904282246725 -1.8489042721190394 -1.5708048979388636 2.0421206951141357 True True
5958.478999999999 0.13799099624156952 -1.4790021863630791 1.756707016621725 -1.848781248132223 -1.570813004170553 2.0385921001434326 True True
5958.499 0.15467089414596558 -1.4771937292865296 1.7547982374774378 -1.8484350643553675 -1.5707767645465296 2.0350918769836426 True True
5958.518999999999 0.1715274453163147 -1.4753614080003281 1.7528770605670374 -1.848156591454977 -1.570784870778219 2.0316333770751953 True True
5958.539 0.1882588416337967 -1.473643386071064 1.7507832686053675 -1.8479510746397914 -1.5708444754229944 2.02826189994812 True True
5958.558999999999 0.20506176352500916 -1.4719278302839776 1.7487972418414515 -1.8478080234923304 -1.5708449522601526 2.0247342586517334 True True
5958.579 0.22177919745445251 -1.470125363474228 1.7469318548785608 -1.8473903141417445 -1.5707929770099085 2.0212979316711426 True True
5958.599 0.23855461180210114 -1.4683635246804734 1.7449024359332483 -1.847114702264303 -1.5707648436175745 2.017918586730957 True True
5958.619 0.2552584707736969 -1.466700592344143 1.7428939978228968 -1.8469559154906214 -1.5708044211017054 2.0143179893493652 True True
5958.639 0.27203744649887085 -1.4649268847754975 1.740870777760641 -1.8466655216612757 -1.570801083241598 2.010805368423462 True True
5958.659 0.2888665497303009 -1.4631004196456452 1.7389586607562464 -1.8463527164854945 -1.5708168188678187 2.0073678493499756 True True
5958.679 0.3055095076560974 -1.4614473816803475 1.736788574849264 -1.8462487659850062 -1.5707324186908167 2.003878355026245 True True
5958.699 0.3222549855709076 -1.4597060990384598 1.734755818043844 -1.8460022411742152 -1.5708611647235315 2.000384569168091 True True
5958.719 0.3390943706035614 -1.4577985939434548 1.7329791227923792 -1.8456207714476527 -1.5707891623126429 1.9969006776809692 True True
5958.739 0.3558158874511719 -1.4561418381384392 1.730828587208883 -1.8455058536925257 -1.5707925001727503 1.993491291999817 True True
5958.759 0.37250611186027527 -1.4545203533819695 1.7286832968341272 -1.8452984295287074 -1.5707805792437952 1.9900197982788086 True True
5958.7789999999995 0.38937515020370483 -1.4526933965137978 1.726797882710592 -1.8449603519835414 -1.5708168188678187 1.9865648746490479 True True
5958.799 0.4060326814651489 -1.450927534406521 1.7248204390155237 -1.8446299038329066 -1.5707481543170374 1.9830372333526611 True True
5958.8189999999995 0.4228813648223877 -1.4492013838938256 1.7226422468768519 -1.8445354900755824 -1.570801083241598 1.9796501398086548 True True
5958.839 0.43959715962409973 -1.4474168431809922 1.720764462147848 -1.8442651234068812 -1.5707686583148401 1.9761680364608765 True True
5958.8589999999995 0.45634740591049194 -1.445516900425293 1.7188757101642054 -1.844010969201559 -1.570772949849264 1.9725873470306396 True True
5958.879 0.47314175963401794 -1.4438795459321518 1.7168243567096155 -1.8437406025328578 -1.5708087126361292 1.969128966331482 True True
5958.898999999999 0.4898435175418854 -1.4421306264451523 1.7147658506976526 -1.8435694179930628 -1.570784870778219 1.9657663106918335 True True
5958.919 0.5065476894378662 -1.4402878445437928 1.7129619757281702 -1.843215127984518 -1.5707686583148401 1.9622831344604492 True True
5958.938999999999 0.5234118103981018 -1.438548968439438 1.710928742085592 -1.84295715908193 -1.5707610289203089 1.958768606185913 True True
5958.959 0.5401535630226135 -1.4368570011905213 1.7087824980365198 -1.842785974542135 -1.5707967917071741 1.955348014831543 True True
5958.978999999999 0.5568141937255859 -1.4351123136333008 1.706782642995016 -1.8424750767149867 -1.5707362333880823 1.9518731832504272 True True
5958.999 0.5736483335494995 -1.4333139222911377 1.7049225012408655 -1.8422018490233363 -1.5708492437945765 1.9484344720840454 True True
5959.018999999999 0.5904125571250916 -1.431565062408783 1.702883545552389 -1.8419987163939417 -1.5707805792437952 1.9449342489242554 True True
5959.039 0.6071167588233948 -1.4298804265311738 1.7007845083819788 -1.841851373712057 -1.5707925001727503 1.9414252042770386 True True
5959.058999999999 0.6238586902618408 -1.4281296593001862 1.6988676230060022 -1.8415137730040492 -1.5708087126361292 1.9379082918167114 True True
5959.079 0.6406757235527039 -1.426225797539093 1.6968806425677698 -1.8412476978697718 -1.5707805792437952 1.9344419240951538 True True
5959.099 0.6574038863182068 -1.4245927196792145 1.6947296301471155 -1.8411127529540003 -1.5708697477923792 1.9310344457626343 True True
5959.119 0.6741269826889038 -1.422931657438614 1.6926973501788538 -1.8408099613585414 -1.5707443396197718 1.9275437593460083 True True
5959.139 0.6908885836601257 -1.4210761797479172 1.6907561461078089 -1.8404280147948207 -1.570801083241598 1.9240862131118774 True True
5959.159 0.7077102661132812 -1.4193688792041321 1.688702408467428 -1.8402286968626917 -1.5708048979388636 1.9205775260925293 True True
5959.179 0.7243836522102356 -1.417639137511589 1.686678711568014 -1.8400942287840785 -1.5707686583148401 1.9171886444091797 True True
5959.199 0.7411164045333862 -1.415746421819069 1.684791390095846 -1.8396884403624476 -1.5707610289203089 1.9136035442352295 True True
5959.219 0.7579686641693115 -1.414037586455681 1.682791535054342 -1.8394462070860804 -1.5708048979388636 1.9101256132125854 True True
5959.239 0.7747212052345276 -1.4123217326453705 1.6806357542621058 -1.8393832645811976 -1.5707724730121058 1.9066462516784668 True True
5959.259 0.7914440035820007 -1.410487101679184 1.6787775198565882 -1.838956972161764 -1.5708606878863733 1.903191089630127 True True
5959.2789999999995 0.8082541227340698 -1.4086462420276185 1.6768768469439905 -1.838578840295309 -1.570772949849264 1.899747371673584 True True
5959.299 0.8249724507331848 -1.4069738996079941 1.6747377554522913 -1.8386041126646937 -1.5708325544940394 1.8962600231170654 True True
5959.3189999999995 0.8416892290115356 -1.4052817535451432 1.6726468245135706 -1.8383852444090785 -1.5708335081683558 1.892879605293274 True True
5959.339 0.858447790145874 -1.4034500432065506 1.6709030310260218 -1.8379470310606898 -1.570784870778219 1.8893619775772095 True True
5959.3589999999995 0.8752124905586243 -1.4016797852567215 1.668886963521139 -1.8378130398192347 -1.570801083241598 1.8859487771987915 True True
5959.379 0.8919562697410583 -1.400115357046463 1.666783634816305 -1.8375617466368617 -1.5707929770099085 1.8823535442352295 True True
5959.398999999999 0.9087125658988953 -1.3983317178538819 1.66473895708193 -1.8373834095396937 -1.570801083241598 1.878933072090149 True True
5959.419 0.9255020022392273 -1.396490992312767 1.6627891699420374 -1.8370214901366175 -1.5708377997027796 1.8754732608795166 True True
5959.438999999999 0.9421936869621277 -1.394772083764412 1.6607292334186 -1.8368665180602015 -1.570784870778219 1.8720060586929321 True True
5959.459 0.9589650630950928 -1.393031657939293 1.658680264149801 -1.8366357288756312 -1.5708087126361292 1.8684580326080322 True True
5959.478999999999 0.975741446018219 -1.3912498217872162 1.6567962805377405 -1.8362776241698207 -1.5707967917071741 1.86500883102417 True True
5959.499 0.9924890995025635 -1.3894841086915513 1.6547506491290491 -1.8360511265196742 -1.570784870778219 1.8615230321884155 True True
5959.518999999999 1.009255290031433 -1.3877910685590287 1.6527560392962855 -1.8358241520323695 -1.5708406607257288 1.858078956604004 True True
5959.539 1.026011347770691 -1.3860354137471695 1.6508644262896937 -1.8355981312193812 -1.570772949849264 1.8546487092971802 True True
5959.558999999999 1.0427682399749756 -1.384199545984604 1.6489384810077112 -1.8353039226927699 -1.5708449522601526 1.8511558771133423 True True
5959.579 1.0594847202301025 -1.3824079495719452 1.6467974821673792 -1.8351489506163539 -1.5707805792437952 1.8476747274398804 True True
5959.599 1.0763083696365356 -1.3807628166726609 1.644747559224264 -1.8349343738951625 -1.5708406607257288 1.8441020250320435 True True
5959.619 1.0929994583129883 -1.3788467061570664 1.6427696386920374 -1.8344961605467738 -1.5707925001727503 1.8407384157180786 True True
5959.639 1.109889030456543 -1.37708035231147 1.6408346335040491 -1.834329744378561 -1.5707648436175745 1.8372889757156372 True True
5959.659 1.126512050628662 -1.3755014699748536 1.6387561003314417 -1.8341905079283656 -1.5708087126361292 1.833861231803894 True True
5959.679 1.1433185338974 -1.3737428200295945 1.6367562452899378 -1.8338285885252894 -1.5707605520831507 1.8303308486938477 True True
5959.699 1.1600080728530884 -1.3718294513276597 1.6348384062396448 -1.8335949383177699 -1.5707724730121058 1.826876163482666 True True
5959.719 1.176771640777588 -1.3701762867024918 1.6326702276812952 -1.8333713016905726 -1.570829216633932 1.8234552145004272 True True
5959.739 1.1934970617294312 -1.368483306174614 1.6306341330157679 -1.833189149896139 -1.570784870778219 1.8199846744537354 True True
5959.759 1.2103614807128906 -1.3666514170220871 1.628747288380758 -1.8328153095641078 -1.570801083241598 1.8164438009262085 True True
5959.7789999999995 1.2270748615264893 -1.3648567658713837 1.6267102400409144 -1.8325611553587855 -1.5708048979388636 1.8128591775894165 True True
5959.799 1.2437644004821777 -1.3631820243648072 1.6246050039874476 -1.8323456249632777 -1.5707805792437952 1.809474229812622 True True
5959.8189999999995 1.2606056928634644 -1.3614394527724762 1.6227377096759241 -1.8320957622923792 -1.570897404347555 1.8060141801834106 True True
5959.839 1.2773691415786743 -1.3596493762782593 1.6207669417010706 -1.8317891559996546 -1.5707362333880823 1.8025779724121094 True True
5959.8589999999995 1.2940809726715088 -1.357925222521164 1.6187318007098597 -1.831674715081686 -1.570829216633932 1.799080491065979 True True
5959.879 1.3109287023544312 -1.3561999809793015 1.6167729536639612 -1.8313914738097132 -1.570784870778219 1.7956321239471436 True True
5959.898999999999 1.3276265859603882 -1.3543823224357148 1.6148155371295374 -1.83109774212026 -1.5708006064044397 1.7921478748321533 True True
5959.919 1.3442871570587158 -1.352562503223755 1.6127803961383265 -1.8309666119017542 -1.5707767645465296 1.7886686325073242 True True
5959.938999999999 1.361204981803894 -1.3508714896491547 1.6107590834247034 -1.8306437931456507 -1.5708416144000452 1.7851923704147339 True True
5959.959 1.377929449081421 -1.3490933936885376 1.608809773121969 -1.830449720422262 -1.5707886854754847 1.781692385673523 True True
5959.978999999999 1.3945674896240234 -1.3473116767457505 1.6068475882159632 -1.830146928826803 -1.5707686583148401 1.77823007106781 True True
5959.999 1.4113645553588867 -1.3455547255328675 1.604727570210592 -1.829928537408346 -1.5707967917071741 1.774754524230957 True True
5960.018999999999 1.428187608718872 -1.3438380074552079 1.6027477423297327 -1.8296619854369105 -1.5707967917071741 1.7712966203689575 True True
5960.039 1.4448570013046265 -1.342019574051239 1.600781265889303 -1.829428335229391 -1.5708449522601526 1.767907977104187 True True
5960.058999999999 1.4616857767105103 -1.3403388124755402 1.5987046400653284 -1.8291856251158656 -1.5707648436175745 1.7643978595733643 True True
5960.079 1.4784029722213745 -1.3386147034219285 1.5966656843768519 -1.8289228878416957 -1.5708373228656214 1.7608917951583862 True True
5960.099 1.4951330423355103 -1.3368349087289353 1.59473163286318 -1.8286086521544398 -1.570716683064596 1.7574365139007568 True True
5960.119 1.5118887424468994 -1.3350685697845002 1.592747990285055 -1.8284460506834925 -1.5708044211017054 1.753968596458435 True True
5960.139 1.5286273956298828 -1.3333759617856522 1.5906665960894983 -1.8282109699644984 -1.5707767645465296 1.7504231929779053 True True
5960.159 1.5454984903335571 -1.331645743255951 1.5887849966632288 -1.827932973901266 -1.570829216633932 1.7470074892044067 True True
5960.179 1.5622903108596802 -1.3298273992589493 1.586853329335348 -1.8276072941222132 -1.5707967917071741 1.7435513734817505 True True
5960.199 1.5788723230361938 -1.328063966040947 1.5847929159747522 -1.8274280033507289 -1.5708335081683558 1.7400363683700562 True True
5960.219 1.5957826375961304 -1.32639433563266 1.582735840474264 -1.8272491894164027 -1.5708211104022425 1.7365515232086182 True True
5960.239 1.6125048398971558 -1.3246088784984131 1.5808103720294397 -1.826895376245016 -1.5707605520831507 1.7331602573394775 True True
5960.259 1.6290563344955444 -1.3227940809777756 1.5787294546710413 -1.8266602955260218 -1.5707805792437952 1.7296539545059204 True True
5960.2789999999995 1.6459238529205322 -1.3210744720748444 1.576716725026266 -1.8264500103392542 -1.5707967917071741 1.726111650466919 True True
5960.299 1.6627371311187744 -1.31929303825412 1.5747554937945765 -1.8261834583678187 -1.570784870778219 1.7226797342300415 True True
5960.3189999999995 1.679487705230713 -1.3174607020667572 1.5727747122394007 -1.8258816204466761 -1.5708335081683558 1.7191458940505981 True True
5960.339 1.6961607933044434 -1.3157365185073395 1.5707057158099573 -1.8256951771178187 -1.5707967917071741 1.7157084941864014 True True
5960.3589999999995 1.7129524946212769 -1.3140273255160828 1.568599049245016 -1.8253962002196253 -1.570824925099508 1.7122851610183716 True True
5960.379 1.7297035455703735 -1.3122143310359498 1.5666645208941858 -1.8251782856383265 -1.5708168188678187 1.7088019847869873 True True
5960.398999999999 1.7464842796325684 -1.31044493735347 1.5646236578570765 -1.8249360523619593 -1.5707767645465296 1.7053210735321045 True True
5960.419 1.763310194015503 -1.3086868983558197 1.5625994841205042 -1.8247000179686488 -1.5707925001727503 1.7018920183181763 True True
5960.438999999999 1.7799582481384277 -1.3070408564857026 1.5606663862811487 -1.8245026073851527 -1.570824925099508 1.6984424591064453 True True
5960.459 1.7968626022338867 -1.305264876489975 1.5586937109576624 -1.8241635761656703 -1.5708368460284632 1.694911241531372 True True
5960.478999999999 1.8135225772857666 -1.3035966616920014 1.5566723982440394 -1.8239971599974574 -1.570801083241598 1.6914799213409424 True True
5960.499 1.8301990032196045 -1.3017990452102204 1.5547288099872034 -1.8237625561156214 -1.5707767645465296 1.687957525253296 True True
5960.518999999999 1.847031593322754 -1.3000059586814423 1.5527704397784632 -1.8234359226622523 -1.5708044211017054 1.6844595670700073 True True
5960.539 1.863814115524292 -1.298257516031601 1.5507686773883265 -1.8232418499388636 -1.570772949849264 1.6810301542282104 True True
5960.558999999999 1.8804597854614258 -1.2966048878482361 1.5486987272845667 -1.8230592213072718 -1.5707805792437952 1.6776002645492554 True True
5960.579 1.8973125219345093 -1.2947900158217927 1.546732250844137 -1.8227492771544398 -1.5707405249225062 1.6741162538528442 True True
5960.599 1.9139788150787354 -1.2930118900588532 1.5447714964496058 -1.8224708042540492 -1.5708048979388636 1.6706383228302002 True True
5960.619 1.9308031797409058 -1.29122547925029 1.5426958242999476 -1.8222443066039027 -1.5708211104022425 1.6671502590179443 True True
5960.639 1.9475865364074707 -1.289521024828293 1.540734593068258 -1.8220368824400843 -1.5707529226886194 1.6636663675308228 True True
5960.659 1.9643031358718872 -1.287717656498291 1.5387385527240198 -1.8216830692686976 -1.570801083241598 1.660230040550232 True True
5960.679 1.9809826612472534 -1.2859046322158356 1.5365470091449183 -1.8215161762633265 -1.5708211104022425 1.6566581726074219 True True
5960.699 1.997786521911621 -1.2842327517322083 1.5346668402301233 -1.8213097057738246 -1.5707686583148401 1.6532495021820068 True True
5960.719 2.014561891555786 -1.282456712131836 1.532710377370016 -1.8209911785521449 -1.5708168188678187 1.6498010158538818 True True
5960.739 2.031313180923462 -1.2806300979903718 1.5306084791766565 -1.8207489452757777 -1.5707648436175745 1.6463301181793213 True True
5960.759 2.0481271743774414 -1.2789610487273713 1.528640095387594 -1.820554872552389 -1.5708168188678187 1.6429522037506104 True True
5960.7789999999995 2.064877510070801 -1.2772044402411957 1.5267389456378382 -1.8203002415099085 -1.570829216633932 1.6394253969192505 True True
5960.799 2.0815327167510986 -1.2753794652274628 1.5247581640826624 -1.8199979267516078 -1.570829216633932 1.6358760595321655 True True
5960.8189999999995 2.0984084606170654 -1.2736820739558716 1.5227225462542933 -1.8198071918883265 -1.5708368460284632 1.6324061155319214 True True
5960.839 2.1151254177093506 -1.2720301312259217 1.5207012335406702 -1.819528718987936 -1.5707925001727503 1.6289640665054321 True True
5960.8589999999995 2.131850004196167 -1.2702132922462006 1.5187414328204554 -1.8192626438536585 -1.5708087126361292 1.6254374980926514 True True
5960.879 2.1485867500305176 -1.268458978538849 1.5167611281024378 -1.8189965687193812 -1.5707967917071741 1.622014045715332 True True
5960.898999999999 2.1653382778167725 -1.2667327386191864 1.514698330556051 -1.818789621392721 -1.5707562605487269 1.6184895038604736 True True
5960.919 2.1821095943450928 -1.2649831038764496 1.5127552191363733 -1.818571229974264 -1.570813004170553 1.615062952041626 True True
5960.938999999999 2.198864221572876 -1.2632329028895875 1.5107539335833948 -1.8181687794127406 -1.5708211104022425 1.6116620302200317 True True
5960.959 2.215610980987549 -1.261435018186905 1.508686367665426 -1.8180824718871058 -1.5707605520831507 1.6081494092941284 True True
5960.978999999999 2.2323954105377197 -1.25972272575412 1.5066011587726038 -1.8178030453123988 -1.5707967917071741 1.6046422719955444 True True
5960.999 2.249201774597168 -1.2578961712173005 1.50466233888735 -1.8175212345519007 -1.5707405249225062 1.6011745929718018 True True
5961.018999999999 2.2658910751342773 -1.2560387712768097 1.5026128927813929 -1.8173061809935511 -1.5708449522601526 1.5976877212524414 True True
5961.039 2.282679796218872 -1.2543097299388428 1.5005939642535608 -1.8170720539488734 -1.5707891623126429 1.5942671298980713 True True
5961.058999999999 2.299443483352661 -1.25258822858844 1.4987133185016077 -1.8168374500670375 -1.5708006064044397 1.5907635688781738 True True
5961.079 2.3161325454711914 -1.2507434052279969 1.4967554251300257 -1.8165422878661097 -1.5707805792437952 1.5872929096221924 True True
5961.099 2.3329484462738037 -1.2490928632071991 1.4946582953082483 -1.8163935146727503 -1.570801083241598 1.5837904214859009 True True
5961.119 2.3497610092163086 -1.2473923128894349 1.492676083241598 -1.816129823724264 -1.5707605520831507 1.5804318189620972 True True
5961.139 2.3664541244506836 -1.2455178064158936 1.4907973448382776 -1.8157431087889613 -1.5707967917071741 1.5769104957580566 True True
5961.159 2.3831512928009033 -1.2438146036914368 1.4887045065509241 -1.8155728779234828 -1.5708211104022425 1.5733939409255981 True True
5961.179 2.3999407291412354 -1.2421696943095704 1.4865644613849085 -1.8152967892088832 -1.5707805792437952 1.5699741840362549 True True
5961.199 2.4167072772979736 -1.2404079896262665 1.4846456686602991 -1.8150764904417933 -1.57074481645693 1.566470742225647 True True
5961.219 2.4333884716033936 -1.2386614245227356 1.4827387968646448 -1.814805646935934 -1.5707967917071741 1.5629950761795044 True True
5961.239 2.4501729011535645 -1.236838088636734 1.48065692583193 -1.814582963983053 -1.5708254019366663 1.5595287084579468 True True
5961.259 2.4669177532196045 -1.2351541084102173 1.4786670843707483 -1.8143588505186976 -1.570784870778219 1.556060552597046 True True
5961.2789999999995 2.4837257862091064 -1.2333388787559052 1.476645294819967 -1.8140574894347132 -1.570784870778219 1.552559494972229 True True
5961.299 2.500476837158203 -1.231613205080368 1.4746235052691858 -1.8138333759703578 -1.570784870778219 1.5491118431091309 True True
5961.3189999999995 2.5171267986297607 -1.2299217742732544 1.4726155439959925 -1.81364168743276 -1.5708254019366663 1.5456234216690063 True True
5961.339 2.5340089797973633 -1.2281602186015625 1.470578972493307 -1.8133560619749964 -1.5707405249225062 1.5421630144119263 True True
5961.3589999999995 2.550764799118042 -1.226324902181961 1.4687007109271448 -1.813052316705221 -1.5707767645465296 1.53870689868927 True True
5961.379 2.5674681663513184 -1.2246214908412476 1.466574494038717 -1.8128448925414027 -1.5708335081683558 1.5351741313934326 True True
5961.398999999999 2.5842509269714355 -1.2228523653796692 1.4646590391742151 -1.812662263909811 -1.570829216633932 1.5316965579986572 True True
5961.419 2.601036310195923 -1.2209562224200745 1.4626753965960901 -1.8122793636717738 -1.570784870778219 1.5283180475234985 True True
5961.438999999999 2.617771863937378 -1.2191912096789856 1.460684601460592 -1.8120886288084925 -1.5707486311541956 1.5247273445129395 True True
5961.459 2.6343908309936523 -1.2176546317389985 1.4586933294879358 -1.8118607006468714 -1.570756737385885 1.5214020013809204 True True
5961.478999999999 2.6507036685943604 -1.2158014637282868 1.4567855040179651 -1.8115860424437464 -1.5708211104022425 1.5180318355560303 True True
5961.499 2.6665658950805664 -1.2141637963107605 1.4548419157611292 -1.8112861118712367 -1.570801083241598 1.514723777770996 True True
5961.518999999999 2.682180404663086 -1.2126135689071198 1.4529545942889612 -1.8111831150450648 -1.570784870778219 1.5114634037017822 True True
5961.539 2.6973860263824463 -1.2110459369472046 1.4512456099139612 -1.8109518490233363 -1.57074481645693 1.5083589553833008 True True
5961.558999999999 2.7122256755828857 -1.2094415587237854 1.449505631123678 -1.810671945611471 -1.5707967917071741 1.5051685571670532 True True
5961.579 2.726792097091675 -1.2078849238208313 1.4476268927203577 -1.810500284234518 -1.5707925001727503 1.5021963119506836 True True
5961.599 2.7408463954925537 -1.2064929765513916 1.445906941090719 -1.8103462658324183 -1.5708048979388636 1.49929940700531 True True
5961.619 2.7546072006225586 -1.2050319474986573 1.4443095366107386 -1.8100940189757289 -1.5708449522601526 1.4964576959609985 True True
5961.639 2.76800274848938 -1.2036046248725434 1.4427040258990687 -1.8098865948119105 -1.5708087126361292 1.4936788082122803 True True
5961.659 2.7812070846557617 -1.2022426289371033 1.4410551230060022 -1.809723516503805 -1.5707967917071741 1.4909025430679321 True True
5961.679 2.793931722640991 -1.2010014814189454 1.439481560383932 -1.8095361195006312 -1.5707529226886194 1.4882967472076416 True True
5961.699 2.8061769008636475 -1.1996967655471344 1.4380558172809046 -1.8093682728209437 -1.5707686583148401 1.4857416152954102 True True
5961.719 2.818164348602295 -1.1983224314502259 1.4367674032794397 -1.809089799920553 -1.5707925001727503 1.483319640159607 True True
5961.739 2.829883098602295 -1.1970814925483246 1.435324494038717 -1.8089782200255335 -1.5708335081683558 1.4808757305145264 True True
5961.759 2.8411285877227783 -1.1959369641593476 1.433948818837301 -1.8088823757567347 -1.570784870778219 1.4784902334213257 True True
5961.7789999999995 2.852001667022705 -1.1947676104358216 1.4325435797320765 -1.8086868725218714 -1.5707529226886194 1.4762625694274902 True True
5961.799 2.862624168395996 -1.193643258219101 1.4314187208758753 -1.808511873284811 -1.5708006064044397 1.4740712642669678 True True
5961.8189999999995 2.872894287109375 -1.1925347608378907 1.4302719275103968 -1.808239599267477 -1.570829216633932 1.4719421863555908 True True
5961.839 2.882662773132324 -1.1915145379355927 1.4290507475482386 -1.8082243404784144 -1.5707805792437952 1.469877004623413 True True
5961.8589999999995 2.8921239376068115 -1.1905287069133301 1.4278324286090296 -1.80812468151235 -1.5707886854754847 1.4679114818572998 True True
5961.879 2.901352643966675 -1.1896538895419617 1.4267461935626429 -1.8079458675780238 -1.5707967917071741 1.4659894704818726 True True
5961.898999999999 2.9101037979125977 -1.188690946703293 1.4257381598102015 -1.8078137836852015 -1.5707805792437952 1.464251160621643 True True
5961.919 2.9184582233428955 -1.1877890688231965 1.4247172514544886 -1.8076988659300746 -1.5707524458514612 1.4624814987182617 True True
5961.938999999999 2.9267077445983887 -1.1869680446437378 1.4238842169391077 -1.8075829945006312 -1.570784870778219 1.4608711004257202 True True
5961.959 2.9343361854553223 -1.1861590606025239 1.4229090849505823 -1.8074513874449671 -1.5708211104022425 1.4592101573944092 True True
5961.978999999999 2.941549777984619 -1.1853350859931489 1.4219840208636683 -1.8073235950865687 -1.5708254019366663 1.4576823711395264 True True
5961.999 2.9485347270965576 -1.1846704942039032 1.4211419264422815 -1.8072358570494593 -1.5707605520831507 1.4562638998031616 True True
5962.018999999999 2.955333948135376 -1.1839598578265687 1.4203460852252405 -1.8071567020811976 -1.5707891623126429 1.4549033641815186 True True
5962.039 2.9616036415100098 -1.1833861035159607 1.4195879141436976 -1.8070160351195277 -1.57074481645693 1.453540563583374 True True
5962.058999999999 2.9674525260925293 -1.1827057164958497 1.418823544179098 -1.8069449863829554 -1.5707967917071741 1.45233154296875 True True
5962.079 2.973029613494873 -1.1821441811374207 1.4182418028460901 -1.8069049320616664 -1.5707605520831507 1.4511617422103882 True True
5962.099 2.978208065032959 -1.1816662710956116 1.4176343123065394 -1.8067652187743128 -1.5707648436175745 1.4500888586044312 True True
5962.119 2.983107328414917 -1.1810525816730042 1.4170883337603968 -1.8067413769164027 -1.5708048979388636 1.4491469860076904 True True
5962.139 2.9875855445861816 -1.1806573432734986 1.416492764149801 -1.8066498241820277 -1.5707805792437952 1.4480904340744019 True True
5962.159 2.991736888885498 -1.180209444170334 1.4160011450396937 -1.8066336117186488 -1.5707767645465296 1.4472914934158325 True True
5962.179 2.9954781532287598 -1.1797560018352051 1.4155224005328577 -1.8065501652159632 -1.570813004170553 1.446487545967102 True True
5962.199 2.9988646507263184 -1.179472879772522 1.4150579611407679 -1.806514402429098 -1.5707925001727503 1.4458191394805908 True True
5962.219 3.001911163330078 -1.179082916384079 1.4146912733661097 -1.8064500294127406 -1.570829216633932 1.4452279806137085 True True
5962.239 3.0046708583831787 -1.1788288217834015 1.414335076008932 -1.8064428768553675 -1.5707805792437952 1.4446017742156982 True True
5962.259 3.0069894790649414 -1.1785685282996674 1.4141529242144983 -1.8063866100706996 -1.5707967917071741 1.4441534280776978 True True
5962.2789999999995 3.009011745452881 -1.178378389482834 1.4139140287982386 -1.8063470325865687 -1.5707886854754847 1.4437358379364014 True True
5962.299 3.0106241703033447 -1.1782063704780121 1.4137099424945276 -1.8063627682127894 -1.5708087126361292 1.4433172941207886 True True
5962.3189999999995 3.011829137802124 -1.1781152051738282 1.413652245198385 -1.806303163568014 -1.5708282629596155 1.4431517124176025 True True
5962.339 3.012812852859497 -1.178042159681656 1.4135473410235804 -1.8062917194762171 -1.5707891623126429 1.442955493927002 True True
5962.3589999999995 3.0134007930755615 -1.1779999893954773 1.4134700934039515 -1.8062793217101039 -1.5707805792437952 1.442897081375122 True True
5962.379 3.0135927200317383 -1.177983598118164 1.4134300390826624 -1.8063112697997035 -1.5707805792437952 1.4429216384887695 True True
5962.398999999999 3.0134713649749756 -1.1778837901404877 1.4134991804706019 -1.8064266643919886 -1.5708048979388636 1.442897081375122 True True
5962.419 3.0134925842285156 -1.1776935917190094 1.4137066046344202 -1.80680574993276 -1.5708335081683558 1.4428319931030273 True True
5962.438999999999 3.013532876968384 -1.1772853297046204 1.414326016102926 -1.8076635799803675 -1.5708211104022425 1.4428176879882812 True True
5962.459 3.0134387016296387 -1.1769188207438965 1.4151137510882776 -1.8089505634703578 -1.5707891623126429 1.44281005859375 True True
5962.478999999999 3.0135087966918945 -1.1764375132373353 1.4161408583270472 -1.8106261692442835 -1.5707767645465296 1.4428143501281738 True True
5962.499 3.01350736618042 -1.175827072267868 1.4174373785602015 -1.812495847741598 -1.5708087126361292 1.442822813987732 True True
5962.518999999999 3.0135152339935303 -1.1750658613494416 1.4190271536456507 -1.8149744472899378 -1.5707967917071741 1.4428391456604004 True True
