Andreas691667/Digital_Twin_UR/src/controller_monitor/test_results/robot_output.csv
timestamp actual_q_0 actual_q_1 actual_q_2 actual_q_3 actual_q_4 actual_q_5 output_bit_register_65 output_bit_register_66
17064.772999999997 2.8200161457061768 -1.4154952031425019 -1.942399263381958 -1.3806458723596116 1.5813764333724976 0.4556500315666199 False False
17064.792999999998 2.8199410438537598 -1.4155150067857285 -1.9424488544464111 -1.380670116548874 1.5814083814620972 0.45565590262413025 False False
17064.813 2.820035934448242 -1.4154902261546631 -1.9423993825912476 -1.3806618464044114 1.5813924074172974 0.4556202292442322 False False
17064.833 2.8199782371520996 -1.4155356150916596 -1.9423620700836182 -1.3807024520686646 1.5813764333724976 0.45561128854751587 False False
17064.853 2.82000732421875 -1.41554348290477 -1.9424488544464111 -1.3807065349868317 1.581388235092163 0.4556202292442322 False False
17064.873 2.8200066089630127 -1.415506438618042 -1.942399263381958 -1.3806458425572892 1.5813883543014526 0.4556618332862854 False False
17064.893 2.8199868202209473 -1.4154866349748154 -1.9424443244934082 -1.3806819480708619 1.5814288854599 0.4556291103363037 False False
17064.913 2.820035696029663 -1.4154779475978394 -1.9424532651901245 -1.38071063280616 1.581432580947876 0.45559605956077576 False False
17064.933 2.820011854171753 -1.415495218043663 -1.9423710107803345 -1.3806380343488236 1.5814166069030762 0.4556202292442322 False False
17064.952999999998 2.8200185298919678 -1.415466086273529 -1.942406177520752 -1.3806861203959961 1.5813846588134766 0.45559602975845337 False False
17064.972999999998 2.8199868202209473 -1.4154747289470215 -1.942457675933838 -1.3807266366532822 1.5814247131347656 0.455636590719223 False False
17064.993 2.8200109004974365 -1.415494517689087 -1.942399263381958 -1.3806819480708619 1.5814290046691895 0.4556276798248291 False False
17065.013 2.820047616958618 -1.4155269426158448 -1.942399263381958 -1.3807024520686646 1.5814207792282104 0.45565441250801086 False False
17065.033 2.8199944496154785 -1.4155031901649018 -1.9424080848693848 -1.3806462448886414 1.5813924074172974 0.4556124210357666 False False
17065.053 2.8199782371520996 -1.4155639869025727 -1.9424151182174683 -1.3806982797435303 1.5814247131347656 0.4556290805339813 False False
17065.073 2.8200066089630127 -1.415526957517006 -1.9424169063568115 -1.3807102006724854 1.5814125537872314 0.45559465885162354 False False
17065.093 2.820019483566284 -1.4154902261546631 -1.942423939704895 -1.3806499254754563 1.5813645124435425 0.45562466979026794 False False
17065.112999999998 2.8200066089630127 -1.4154902261546631 -1.9424363374710083 -1.3806455743363877 1.5814571380615234 0.4556123614311218 False False
17065.132999999998 2.8199987411499023 -1.4154574436000367 -1.9424036741256714 -1.3807024520686646 1.5813887119293213 0.4556124210357666 False False
17065.153 2.8199987411499023 -1.4155020874789734 -1.9424647092819214 -1.3806778651526947 1.5813806056976318 0.4556291103363037 False False
17065.173 2.820011615753174 -1.4154928189567109 -1.9424151182174683 -1.3807147157243271 1.5813804864883423 0.45561695098876953 False False
17065.193 2.82000732421875 -1.4154612135938187 -1.9424105882644653 -1.380666361456253 1.5814288854599 0.4556500017642975 False False
17065.213 2.820003032684326 -1.4155315172723313 -1.9424283504486084 -1.3807142984918137 1.5813965797424316 0.4556202292442322 False False
17065.233 2.820003032684326 -1.41550628960643 -1.9424080848693848 -1.3806861203959961 1.5813965797424316 0.4556752145290375 False False
17065.253 2.8199901580810547 -1.41555571675811 -1.9424363374710083 -1.3806982797435303 1.5814448595046997 0.45566490292549133 False False
17065.272999999997 2.820003032684326 -1.4155482065728684 -1.9424036741256714 -1.3806941968253632 1.5813924074172974 0.4556500315666199 False False
17065.292999999998 2.8199987411499023 -1.41550628960643 -1.9424080848693848 -1.3807184857181092 1.5814329385757446 0.45568278431892395 False False
17065.313 2.8199944496154785 -1.4155033093741913 -1.942453384399414 -1.3806982797435303 1.5813846588134766 0.45565298199653625 False False
17065.333 2.8199543952941895 -1.415477679376938 -1.942453384399414 -1.3806782823852082 1.5813846588134766 0.4556124210357666 False False
17065.553 2.8200151920318604 -1.4154988092235108 -1.9424036741256714 -1.3806942117265244 1.5813645124435425 0.4556094706058502 False False
17065.573 2.819991111755371 -1.4154820901206513 -1.942396640777588 -1.380642221575119 1.5813645124435425 0.45568719506263733 False False
17065.593 2.8199737071990967 -1.415522651081421 -1.942399263381958 -1.380621851687767 1.5813965797424316 0.45567381381988525 False False
17065.612999999998 2.8200063705444336 -1.415539340381958 -1.9424489736557007 -1.3806619209102173 1.581392765045166 0.45568275451660156 False False
17065.632999999998 2.8199987411499023 -1.4154988092235108 -1.9424151182174683 -1.3806137603572388 1.581356406211853 0.45560798048973083 False False
17065.653 2.8200109004974365 -1.4155315470746537 -1.942423939704895 -1.3806945097497483 1.5813764333724976 0.45567822456359863 False False
17065.673 2.8199868202209473 -1.4154809278300782 -1.9423902034759521 -1.380677954559662 1.5813727378845215 0.4556094706058502 False False
17065.693 2.820019483566284 -1.4155077946237107 -1.9424692392349243 -1.3806982797435303 1.5814369916915894 0.45563367009162903 False False
17065.713 2.8200151920318604 -1.415440486078598 -1.9423878192901611 -1.3807183665088196 1.5814448595046997 0.4556124210357666 False False
17065.733 2.8199987411499023 -1.41550628960643 -1.9424407482147217 -1.3806820076755066 1.5814166069030762 0.4556291103363037 False False
17065.753 2.8199825286865234 -1.4154731941274186 -1.942399263381958 -1.380661965613701 1.5813806056976318 0.4556707441806793 False False
17065.772999999997 2.8199620246887207 -1.4154988092235108 -1.942399263381958 -1.380694494848587 1.5814288854599 0.45566636323928833 False False
17065.792999999998 2.8199825286865234 -1.4154821199229737 -1.9424399137496948 -1.380654202108719 1.5813887119293213 0.4556380808353424 False False
17065.813 2.8199455738067627 -1.4154866349748154 -1.942423939704895 -1.3806820225766678 1.5814043283462524 0.4556291103363037 False False
17065.833 2.8200271129608154 -1.4155315321734925 -1.9424622058868408 -1.380661965613701 1.581420660018921 0.4555915892124176 False False
17066.073 2.8199868202209473 -1.415510745053627 -1.942396640777588 -1.3807182323983689 1.5814487934112549 0.4556752145290375 False False
17066.093 2.8199868202209473 -1.4154821199229737 -1.9424151182174683 -1.3807063412717362 1.5814085006713867 0.4556202292442322 False False
17066.112999999998 2.8200271129608154 -1.4154820901206513 -1.9423922300338745 -1.3806301367333909 1.5814125537872314 0.45565739274024963 False False
17066.132999999998 2.8199663162231445 -1.415551171903946 -1.942431926727295 -1.3806903672269364 1.581376552581787 0.45563215017318726 False False
17066.153 2.8199586868286133 -1.4155151706985016 -1.9423922300338745 -1.380690113907196 1.5813846588134766 0.45564255118370056 False False
17066.173 2.8199944496154785 -1.4155601573041459 -1.942423939704895 -1.3806982946446915 1.581420660018921 0.45562466979026794 False False
17066.193 2.820023775100708 -1.4154657435468216 -1.9423834085464478 -1.3806902480176468 1.5813885927200317 0.4556291103363037 False False
17066.213 2.8200271129608154 -1.4155270916274567 -1.9424363374710083 -1.3806982797435303 1.5814125537872314 0.45562466979026794 False False
17066.233 2.8200271129608154 -1.4155062598041077 -1.9424105882644653 -1.3807261300138016 1.5813887119293213 0.455612450838089 False False
17066.253 2.8200063705444336 -1.4155241411975403 -1.9424622058868408 -1.3807023626616974 1.5814006328582764 0.45562466979026794 False False
17066.272999999997 2.8199615478515625 -1.4155151706985016 -1.9424577951431274 -1.3807222706130524 1.5813807249069214 0.4556708335876465 False False
17066.292999999998 2.8200032711029053 -1.4155226361802598 -1.9424532651901245 -1.380650283103325 1.5814447402954102 0.45562466979026794 False False
17066.313 2.8199779987335205 -1.4155226659825821 -1.9423788785934448 -1.3806742143682023 1.5814125537872314 0.4556124210357666 False False
17066.333 2.8199779987335205 -1.4155196708491822 -1.942431926727295 -1.3806780737689515 1.5814085006713867 0.4555633068084717 False False
17066.353 2.8199570178985596 -1.4154539120248337 -1.942399263381958 -1.380706326370575 1.5814205408096313 0.4556124806404114 False False
17066.373 2.819974899291992 -1.4154899579337616 -1.9424195289611816 -1.380674273972847 1.5814205408096313 0.4556006193161011 False False
17066.393 2.8200273513793945 -1.4155360472253342 -1.942423939704895 -1.3806742590716858 1.5814006328582764 0.4556737542152405 False False
17066.413 2.8200390338897705 -1.415519730453827 -1.942431926727295 -1.3807141941836854 1.5814125537872314 0.45562463998794556 False False
17066.433 2.820028781890869 -1.415464238529541 -1.9424647092819214 -1.3807495397380372 1.5814526081085205 0.45566487312316895 False False
17066.452999999998 2.8199868202209473 -1.4154853832772751 -1.9424238204956055 -1.380650357609131 1.5814207792282104 0.4556080400943756 False False
17066.472999999998 2.8199868202209473 -1.4155572217753907 -1.942399263381958 -1.3807024520686646 1.5814485549926758 0.4556291103363037 False False
17066.493 2.8200032711029053 -1.415452317600586 -1.9424195289611816 -1.380674199467041 1.5813966989517212 0.4556663930416107 False False
17066.513 2.820028781890869 -1.4155270916274567 -1.9424195289611816 -1.380706251864769 1.5814247131347656 0.455636590719223 False False
17066.533 2.81999135017395 -1.415501744752266 -1.9423904418945312 -1.3807105881026764 1.5814247131347656 0.4556826651096344 False False
17066.553 2.820040702819824 -1.4154657435468216 -1.9424195289611816 -1.3807065200856705 1.5813966989517212 0.4556291103363037 False False
17066.573 2.8200318813323975 -1.415513665681221 -1.9423542022705078 -1.3806659442237397 1.5814207792282104 0.4556380808353424 False False
17066.593 2.8200438022613525 -1.4154686790755768 -1.9424575567245483 -1.380661816602089 1.581380844116211 0.4556290805339813 False False
17066.612999999998 2.8200032711029053 -1.4155405324748536 -1.9424363374710083 -1.3806902033141633 1.5813926458358765 0.45558270812034607 False False
17066.632999999998 2.8200018405914307 -1.4155151706985016 -1.9423879384994507 -1.3807020348361512 1.5814204216003418 0.4556291103363037 False False
17066.653 2.8200273513793945 -1.4155032944730301 -1.9424325227737427 -1.3806943458369751 1.5813926458358765 0.45564547181129456 False False
17066.673 2.8200435638427734 -1.4155315321734925 -1.9424195289611816 -1.380702481870987 1.5814045667648315 0.4556827247142792 False False
17066.693 2.8199779987335205 -1.4155241262963791 -1.9424662590026855 -1.3807184261134644 1.5813926458358765 0.4556410312652588 False False
17066.713 2.8199734687805176 -1.4154776197722931 -1.942416787147522 -1.3806982648423691 1.5813887119293213 0.45556631684303284 False False
17066.733 2.820007562637329 -1.4155166906169434 -1.9424362182617188 -1.3807184559157868 1.5814204216003418 0.455636590719223 False False
17066.753 2.8200109004974365 -1.415539340381958 -1.9424406290054321 -1.3807106775096436 1.5814287662506104 0.45562463998794556 False False
17066.772999999997 2.8199868202209473 -1.4155735832503815 -1.9424080848693848 -1.380722553735115 1.5814085006713867 0.4556500017642975 False False
17066.792999999998 2.8200109004974365 -1.4155360770276566 -1.9424238204956055 -1.3806982797435303 1.5814045667648315 0.45565444231033325 False False
17066.813 2.8200273513793945 -1.415522651081421 -1.9424195289611816 -1.3807102006724854 1.5813926458358765 0.4555872082710266 False False
17066.833 2.8199405670166016 -1.4155482959798356 -1.942444920539856 -1.380661816602089 1.5814327001571655 0.4556124210357666 False False
17066.853 2.8199942111968994 -1.415543795829155 -1.9424152374267578 -1.3807065349868317 1.5814006328582764 0.4555915892124176 False False
17066.873 2.8200318813323975 -1.4155240815928956 -1.9424325227737427 -1.3806742143682023 1.5814045667648315 0.4556500017642975 False False
17066.893 2.8199524879455566 -1.415560172205307 -1.9424406290054321 -1.3806422364762803 1.5814085006713867 0.4556366503238678 False False
17066.913 2.8199987411499023 -1.4155181360295792 -1.9424107074737549 -1.3807185155204316 1.5813847780227661 0.45560795068740845 False False
17066.933 2.8200199604034424 -1.4155062598041077 -1.942444920539856 -1.380678267484047 1.5814125537872314 0.45557963848114014 False False
17066.952999999998 2.8200273513793945 -1.4155151706985016 -1.9424282312393188 -1.3806901437095185 1.5814125537872314 0.45563364028930664 False False
17066.972999999998 2.8199868202209473 -1.4154821199229737 -1.942396640777588 -1.3806982350400467 1.5814247131347656 0.45565739274024963 False False
17066.993 2.820007801055908 -1.415536106829979 -1.942396640777588 -1.3806819778731843 1.5814166069030762 0.45561689138412476 False False
17067.013 2.8200197219848633 -1.4154821199229737 -1.9424492120742798 -1.3806660038283844 1.5814001560211182 0.45562463998794556 False False
17067.033 2.81999135017395 -1.415501744752266 -1.9424443244934082 -1.3806778651526947 1.5814530849456787 0.45566630363464355 False False
17067.053 2.8199899196624756 -1.4155151706985016 -1.9424195289611816 -1.380690188413002 1.5813924074172974 0.4556618630886078 False False
17067.073 2.81999135017395 -1.4154613328031083 -1.942403793334961 -1.3806618762067338 1.5813641548156738 0.45561689138412476 False False
17067.093 2.8200154304504395 -1.4155270916274567 -1.9424080848693848 -1.3807024669698258 1.581404685974121 0.4556291103363037 False False
17067.112999999998 2.8199868202209473 -1.4155404430678864 -1.9424152374267578 -1.3806942415288468 1.5814166069030762 0.45562466979026794 False False
17067.132999999998 2.8199822902679443 -1.4155404728702088 -1.9424166679382324 -1.3806697589210053 1.5814329385757446 0.45564547181129456 False False
17067.153 2.820024251937866 -1.4154732835343857 -1.9424232244491577 -1.3806823802045365 1.5813924074172974 0.4556124210357666 False False
17067.173 2.8200316429138184 -1.4155033391765137 -1.9423880577087402 -1.3806860905936738 1.5814083814620972 0.4556291103363037 False False
17067.193 2.8199942111968994 -1.4154910755208512 -1.942403793334961 -1.380714328294136 1.5813965797424316 0.45563358068466187 False False
17067.213 2.8199777603149414 -1.415563167338707 -1.942460060119629 -1.3806417149356385 1.5814288854599 0.455636590719223 False False
17067.233 2.8199987411499023 -1.4155482810786744 -1.942375659942627 -1.3806701463511963 1.5813806056976318 0.4556124210357666 False False
17067.253 2.8199868202209473 -1.4155242455056687 -1.942399501800537 -1.3806819331697007 1.5813645124435425 0.4555990397930145 False False
17067.272999999997 2.8199942111968994 -1.4155226808837433 -1.94247305393219 -1.380706564789154 1.5813686847686768 0.45560353994369507 False False
17067.292999999998 2.8199868202209473 -1.4155271512321015 -1.942403793334961 -1.380641908650734 1.5814125537872314 0.45569488406181335 False False
17067.313 2.8200199604034424 -1.4154702436975022 -1.942392349243164 -1.380674199467041 1.581376314163208 0.45560798048973083 False False
17067.333 2.8199570178985596 -1.4154567581466218 -1.9424644708633423 -1.3807105881026764 1.5813722610473633 0.45560798048973083 False False
17067.353 2.819995880126953 -1.415522651081421 -1.9424108266830444 -1.3807225090316315 1.581441044807434 0.4556380808353424 False False
17067.373 2.8199942111968994 -1.4154611837914963 -1.9424275159835815 -1.3807348322919388 1.5814166069030762 0.45560798048973083 False False
17067.393 2.8199987411499023 -1.4155062449029465 -1.9423950910568237 -1.380670116548874 1.5814247131347656 0.4556737542152405 False False
17067.413 2.8199896812438965 -1.4154656690410157 -1.9424195289611816 -1.3806983840516587 1.5814248323440552 0.4556035101413727 False False
17067.433 2.81999135017395 -1.4154898685267945 -1.9423713684082031 -1.3806823802045365 1.5814006328582764 0.45565295219421387 False False
17067.452999999998 2.8199732303619385 -1.4154732537320633 -1.942403793334961 -1.3806618762067338 1.5814048051834106 0.4556202292442322 False False
17067.472999999998 2.8199493885040283 -1.415494368677475 -1.9424108266830444 -1.380662278538086 1.5813846588134766 0.45563215017318726 False False
17067.493 2.8199896812438965 -1.4155078095248719 -1.9424195289611816 -1.3806982797435303 1.5814369916915894 0.4556500017642975 False False
17067.513 2.8199524879455566 -1.4155226659825821 -1.9424405097961426 -1.3806659442237397 1.581404685974121 0.45559161901474 False False
17067.533 2.8199777603149414 -1.4154943537763138 -1.9424729347229004 -1.3806943011334916 1.5813804864883423 0.4556935131549835 False False
17067.553 2.819951057434082 -1.4155151855996628 -1.942392349243164 -1.3806541127017518 1.5814530849456787 0.45564544200897217 False False
17067.573 2.8200318813323975 -1.4154702436975022 -1.9424275159835815 -1.3806943458369751 1.5814369916915894 0.4556291103363037 False False
17067.593 2.8200392723083496 -1.4155572813800354 -1.9423670768737793 -1.3806902033141633 1.5814043283462524 0.45560356974601746 False False
17067.612999999998 2.8200032711029053 -1.4155107301524659 -1.9424443244934082 -1.3807188433459778 1.5814489126205444 0.4556499719619751 False False
17067.632999999998 2.8199868202209473 -1.4155017298511048 -1.9424703121185303 -1.3806216430715104 1.5814125537872314 0.4556500017642975 False False
17067.653 2.8200032711029053 -1.4154943537763138 -1.9424123764038086 -1.3807065349868317 1.5814006328582764 0.4555959701538086 False False
17067.673 2.8200483322143555 -1.415522651081421 -1.9423714876174927 -1.3806458425572892 1.5814369916915894 0.45562025904655457 False False
17067.693 2.819974899291992 -1.4155151408961792 -1.9424400329589844 -1.3806779247573395 1.5814329385757446 0.45559602975845337 False False
17067.713 2.8199987411499023 -1.4154448968223114 -1.9424080848693848 -1.380666346555092 1.5814329385757446 0.455636590719223 False False
17067.733 2.8200199604034424 -1.4154568028501053 -1.9423671960830688 -1.3806663316539307 1.5814125537872314 0.455612450838089 False False
17067.753 2.8200244903564453 -1.4154899281314393 -1.9424859285354614 -1.3806659144214173 1.5813804864883423 0.4556290805339813 False False
17067.772999999997 2.8200032711029053 -1.4154943239739914 -1.9423880577087402 -1.3807024520686646 1.5814366340637207 0.45564547181129456 False False
17067.792999999998 2.8199868202209473 -1.415503354077675 -1.9424195289611816 -1.3806380492499848 1.5814207792282104 0.45566487312316895 False False
17067.813 2.8200154304504395 -1.415522651081421 -1.942431926727295 -1.3807147157243271 1.581420660018921 0.4556290805339813 False False
17067.833 2.8200318813323975 -1.4155197155526658 -1.9424152374267578 -1.3806941968253632 1.5814329385757446 0.45564547181129456 False False
17067.853 2.8199570178985596 -1.4155152154019852 -1.9424766302108765 -1.3807024520686646 1.5814006328582764 0.4556123614311218 False False
17067.873 2.8199868202209473 -1.4155360770276566 -1.942392349243164 -1.3806942415288468 1.5814207792282104 0.4556049704551697 False False
17067.893 2.8200244903564453 -1.4154988092235108 -1.942403793334961 -1.3806298536113282 1.5814125537872314 0.4556424915790558 False False
17067.913 2.8199658393859863 -1.4154898983291169 -1.9424039125442505 -1.3807258617929001 1.5813846588134766 0.45564547181129456 False False
17067.933 2.8199822902679443 -1.4154776197722931 -1.9424196481704712 -1.380722553735115 1.5814448595046997 0.45561695098876953 False False
17067.952999999998 2.8199779987335205 -1.415524200802185 -1.9424443244934082 -1.3806943011334916 1.5814288854599 0.4556618630886078 False False
17067.972999999998 2.8199822902679443 -1.4154358816197892 -1.9424195289611816 -1.3806943458369751 1.5813806056976318 0.4556080102920532 False False
17067.993 2.819995880126953 -1.4154731792262574 -1.9424195289611816 -1.3806458872607728 1.5814608335494995 0.4556618332862854 False False
17068.013 2.8199658393859863 -1.4154988092235108 -1.9423880577087402 -1.3806380939534684 1.5814329385757446 0.45560500025749207 False False
17068.033 2.8200228214263916 -1.415522651081421 -1.942403793334961 -1.3806499254754563 1.5814489126205444 0.45562466979026794 False False
17068.053 2.820007801055908 -1.41546122849498 -1.942431926727295 -1.3806982797435303 1.581404685974121 0.45566636323928833 False False
17068.073 2.8200318813323975 -1.4155151706985016 -1.9424108266830444 -1.3806782823852082 1.581404685974121 0.45563361048698425 False False
17068.093 2.820024251937866 -1.4155573409846802 -1.942431926727295 -1.3806819480708619 1.5813806056976318 0.4556410610675812 False False
17068.112999999998 2.8200199604034424 -1.415510745053627 -1.9424195289611816 -1.3806578379920502 1.5814083814620972 0.45564544200897217 False False
17068.132999999998 2.820012331008911 -1.4155316215804596 -1.942403793334961 -1.3807307195714493 1.5814448595046997 0.4555722177028656 False False
17068.153 2.8199777603149414 -1.4154866200736542 -1.942431926727295 -1.3806659442237397 1.5814329385757446 0.45563805103302 False False
17068.173 2.8200032711029053 -1.4154866498759766 -1.9424362182617188 -1.3807147604278107 1.5814043283462524 0.4556949734687805 False False
17068.193 2.8199987411499023 -1.415474758749344 -1.9423996210098267 -1.3806941968253632 1.5814329385757446 0.45559602975845337 False False
17068.213 2.8199703693389893 -1.4154568028501053 -1.9424573183059692 -1.3806943011334916 1.5814125537872314 0.45563805103302 False False
17068.233 2.8199493885040283 -1.415506274705269 -1.9424066543579102 -1.3806941968253632 1.5814125537872314 0.45561695098876953 False False
17068.253 2.8199570178985596 -1.4155361217311402 -1.9424079656600952 -1.3806861203959961 1.5813924074172974 0.4556202292442322 False False
17068.272999999997 2.8199822902679443 -1.4155107301524659 -1.94247305393219 -1.3806700867465516 1.5814366340637207 0.45564547181129456 False False
17068.292999999998 2.8199703693389893 -1.4155107301524659 -1.9424686431884766 -1.3807024520686646 1.5813603401184082 0.45562583208084106 False False
17068.313 2.81999135017395 -1.4154898834279557 -1.9424530267715454 -1.3807024371675034 1.5814448595046997 0.45564547181129456 False False
17068.333 2.8199896812438965 -1.4155180764249344 -1.9424123764038086 -1.380674199467041 1.5813804864883423 0.4556035101413727 False False
17068.353 2.8199450969696045 -1.4154656690410157 -1.9424108266830444 -1.3806499701789399 1.5814125537872314 0.45561695098876953 False False
17068.373 2.8199942111968994 -1.4155107301524659 -1.9424195289611816 -1.3806942862323304 1.5814247131347656 0.4556124210357666 False False
17068.393 2.8199942111968994 -1.4154821050218125 -1.9424614906311035 -1.3807258915952225 1.5814288854599 0.45564547181129456 True False
17068.413 2.8200032711029053 -1.4155361217311402 -1.9424446821212769 -1.3806778502515336 1.5814329385757446 0.455636590719223 True False
17068.433 2.819920778274536 -1.4155107301524659 -1.942403793334961 -1.3807423275760193 1.5814247131347656 0.4556158185005188 True False
17068.452999999998 2.8198580741882324 -1.4155438405326386 -1.942403793334961 -1.3806982946446915 1.5814125537872314 0.4556618332862854 True False
17068.472999999998 2.819699287414551 -1.4155496221831818 -1.9422950744628906 -1.3806175601533432 1.5814166069030762 0.4556202292442322 True False
17068.493 2.819495677947998 -1.4156743449023743 -1.9421472549438477 -1.3806983840516587 1.5814406871795654 0.4556737542152405 True False
17068.513 2.8192200660705566 -1.4159366351417084 -1.9420043230056763 -1.380665974026062 1.5813727378845215 0.4556979238986969 True False
17068.533 2.8188529014587402 -1.4161227357438584 -1.9417513608932495 -1.3806742143682023 1.5814247131347656 0.4557458460330963 True False
17068.553 2.8183226585388184 -1.416353852753975 -1.941349983215332 -1.380718470816948 1.581420660018921 0.45584312081336975 True False
17068.573 2.817587375640869 -1.4167437565377732 -1.940901517868042 -1.3807259064963837 1.5814083814620972 0.45590028166770935 True False
17068.593 2.816767930984497 -1.417151690726616 -1.9404244422912598 -1.3807537865689774 1.5814166069030762 0.45605000853538513 True False
17068.612999999998 2.8157105445861816 -1.4176979523948212 -1.9397832155227661 -1.3808176827481766 1.5814006328582764 0.45612773299217224 True False
17068.632999999998 2.814290761947632 -1.4183938068202515 -1.9389065504074097 -1.3808736068061371 1.5813809633255005 0.45628491044044495 True False
17068.653 2.8126838207244873 -1.4191349309733887 -1.9377562999725342 -1.3809812676957627 1.5813727378845215 0.4564226567745209 True False
17068.673 2.810824155807495 -1.4201253068498154 -1.9364885091781616 -1.3809445363334198 1.5812885761260986 0.4567054808139801 True False
17068.693 2.808532238006592 -1.4212335807136078 -1.9349945783615112 -1.3810843390277405 1.5812366008758545 0.45691680908203125 True False
17068.713 2.805931806564331 -1.422613875274994 -1.9332517385482788 -1.3811966639808197 1.5811845064163208 0.45717135071754456 True False
17068.733 2.802934169769287 -1.4241197568229218 -1.9315626621246338 -1.381376252775528 1.5811607837677002 0.4574737548828125 True False
17068.753 2.799694299697876 -1.4257279944470902 -1.9294551610946655 -1.3814874452403565 1.581148624420166 0.45785093307495117 True False
17068.772999999997 2.7962334156036377 -1.427544431095459 -1.9270373582839966 -1.381470964556076 1.5810725688934326 0.4581937789916992 True False
17068.792999999998 2.792398452758789 -1.4294288021377106 -1.9247608184814453 -1.3817831736854096 1.5810364484786987 0.4586075246334076 True False
17068.813 2.7883522510528564 -1.4316336524537583 -1.9220858812332153 -1.3818898809007187 1.5809047222137451 0.4590311050415039 True False
17068.833 2.784044027328491 -1.4336961072734375 -1.9191534519195557 -1.3819861125997086 1.5808883905410767 0.45945024490356445 True False
17068.853 2.779353141784668 -1.4360545140555878 -1.9161847829818726 -1.3821854305318375 1.580832839012146 0.46006399393081665 True False
17068.873 2.7745680809020996 -1.438634679918625 -1.912979245185852 -1.3824126434377213 1.5807487964630127 0.4605793058872223 True False
17068.893 2.7693936824798584 -1.4410919410041352 -1.9097663164138794 -1.382596419458725 1.580725073814392 0.4610718786716461 True False
17068.913 2.7638347148895264 -1.4439314168742676 -1.9062350988388062 -1.3827874821475525 1.58057701587677 0.461675226688385 True False
17068.933 2.7581398487091064 -1.4468257513693352 -1.9025648832321167 -1.382994459276535 1.5805127620697021 0.46232685446739197 True False
17068.952999999998 2.7521963119506836 -1.449870691900589 -1.8986711502075195 -1.3832496416619797 1.5804412364959717 0.4630003571510315 True False
17068.972999999998 2.745915174484253 -1.4529239249280472 -1.894631266593933 -1.3835138988545914 1.580352783203125 0.46368473768234253 True False
17068.993 2.739330768585205 -1.4562185120633622 -1.8903393745422363 -1.3836478006890793 1.5802247524261475 0.46437200903892517 True False
17069.013 2.7324492931365967 -1.4597930026105423 -1.886029601097107 -1.3839872789433976 1.5801690816879272 0.4651266038417816 True False
17069.033 2.7252840995788574 -1.4634197813323517 -1.881373643875122 -1.3842626524022599 1.5800127983093262 0.4659097492694855 True False
17069.053 2.7179274559020996 -1.4672813278487702 -1.8766088485717773 -1.3844808799079438 1.5799493789672852 0.4666629731655121 True False
17069.073 2.710200309753418 -1.4711067837527771 -1.871696949005127 -1.3848643463901062 1.5797803401947021 0.46756434440612793 True False
17069.093 2.702120304107666 -1.4751819533160706 -1.866594910621643 -1.3851769131473084 1.5797009468078613 0.4684087932109833 True False
17069.112999999998 2.6939430236816406 -1.4792901065996666 -1.86133873462677 -1.3854220670512696 1.579528570175171 0.4692547619342804 True False
17069.132999999998 2.685403823852539 -1.483539567594864 -1.855729341506958 -1.3857539159110566 1.5794451236724854 0.4701937735080719 True False
17069.153 2.6766648292541504 -1.487922841017582 -1.8499226570129395 -1.3860441011241456 1.5793532133102417 0.4711267352104187 True False
17069.173 2.667461633682251 -1.4926137191108246 -1.844090461730957 -1.3864029210856934 1.57918119430542 0.47217923402786255 True False
17069.193 2.6581263542175293 -1.497385525410511 -1.8382458686828613 -1.3867816042951127 1.579061508178711 0.4731425642967224 True False
17069.213 2.648637533187866 -1.5023463827422638 -1.8320752382278442 -1.3871375185302277 1.5788891315460205 0.47419753670692444 True False
17069.233 2.6385769844055176 -1.507277363245823 -1.8255212306976318 -1.3874801409295578 1.578733205795288 0.47529587149620056 True False
17069.253 2.628272294998169 -1.5123958003572007 -1.8188223838806152 -1.387879194026329 1.578565001487732 0.47631046175956726 True False
17069.272999999997 2.6179511547088623 -1.517613050793745 -1.812201738357544 -1.3882208627513428 1.5784971714019775 0.4775043725967407 True False
17069.292999999998 2.607116222381592 -1.5231500577977677 -1.8052949905395508 -1.38862760484729 1.57832932472229 0.47872647643089294 True False
17069.313 2.5960495471954346 -1.528768078689911 -1.7981855869293213 -1.3891024452498932 1.5780894756317139 0.4798756241798401 True False
17069.333 2.584847927093506 -1.53459012255583 -1.7908415794372559 -1.3894048047116776 1.578005313873291 0.4810638129711151 True False
17069.353 2.5731589794158936 -1.5404316590032359 -1.783308744430542 -1.3898633879474183 1.5778290033340454 0.48235318064689636 True False
17069.373 2.5612144470214844 -1.5463317775032301 -1.7758007049560547 -1.3903861355832596 1.5775576829910278 0.4835444688796997 True False
17069.393 2.5492072105407715 -1.5523650807193299 -1.7680044174194336 -1.390780286197998 1.5774656534194946 0.48487305641174316 True False
17069.413 2.536663055419922 -1.5587800362012167 -1.759814977645874 -1.3913309288075943 1.577196717262268 0.4862450063228607 True False
17069.433 2.523956060409546 -1.5652690690806885 -1.751579999923706 -1.391933412556984 1.577033519744873 0.4877052903175354 True False
17069.452999999998 2.5110349655151367 -1.5718947849669398 -1.7432732582092285 -1.392343358402588 1.5769455432891846 0.48901888728141785 True False
17069.472999999998 2.4977145195007324 -1.5785418949522914 -1.7349547147750854 -1.3929335933974762 1.576629638671875 0.49047061800956726 True False
17069.493 2.4841549396514893 -1.5852514706053675 -1.726017951965332 -1.3932557863048096 1.5765416622161865 0.4919353723526001 True False
17069.513 2.4702720642089844 -1.592313905755514 -1.7169616222381592 -1.39371112108741 1.576289176940918 0.49349427223205566 True False
17069.533 2.4563486576080322 -1.5996319256224574 -1.7084358930587769 -1.39443193495784 1.5760458707809448 0.4949604272842407 True False
17069.553 2.4424824714660645 -1.6067043743529261 -1.6993542909622192 -1.3948635321906586 1.5759737491607666 0.49648091197013855 True False
17069.573 2.4284331798553467 -1.6133767567076625 -1.6900367736816406 -1.3953497868827363 1.5756255388259888 0.497962087392807 True False
17069.593 2.4144492149353027 -1.6203648052611292 -1.6810353994369507 -1.3958321672729035 1.575501799583435 0.49941644072532654 True False
17069.612999999998 2.400546073913574 -1.627805849114889 -1.6723835468292236 -1.3965735745481034 1.5752899646759033 0.5010023713111877 True False
17069.632999999998 2.386556386947632 -1.6350461445250453 -1.6634342670440674 -1.3970030558160325 1.5750938653945923 0.5025389194488525 True False
17069.653 2.372729778289795 -1.641533990899557 -1.6541979312896729 -1.3972984117320557 1.5748783349990845 0.50400710105896 True False
17069.673 2.359323263168335 -1.6482235393919886 -1.6455786228179932 -1.3979005229524155 1.5746618509292603 0.5054618120193481 True False
17069.693 2.346073865890503 -1.6553379497923792 -1.637253999710083 -1.3985946786454697 1.5744657516479492 0.5068776607513428 True False
17069.713 2.333132743835449 -1.6619707546629847 -1.629001498222351 -1.3992047917893906 1.5743063688278198 0.5082937479019165 True False
17069.733 2.3204925060272217 -1.668192525903219 -1.6205614805221558 -1.3993957054666062 1.5741820335388184 0.5097374320030212 True False
17069.753 2.308039426803589 -1.674223085443014 -1.612736701965332 -1.3999295991710206 1.5738861560821533 0.5110042691230774 True False
17069.772999999997 2.296070098876953 -1.6804615459837855 -1.60496187210083 -1.4003995072892685 1.5737581253051758 0.5123409032821655 True False
17069.792999999998 2.2842090129852295 -1.6865364513792933 -1.5971373319625854 -1.4007671785405655 1.573586106300354 0.5136183500289917 True False
17069.813 2.2726380825042725 -1.6923610172667445 -1.589836597442627 -1.4011936497739335 1.57332181930542 0.5148620009422302 True False
17069.833 2.261420249938965 -1.698202749291891 -1.582767367362976 -1.4016643923572083 1.5732945203781128 0.5160603523254395 True False
17069.853 2.2504281997680664 -1.703672548333639 -1.5757198333740234 -1.4021141541055222 1.5730903148651123 0.5171676278114319 True False
17069.873 2.2396914958953857 -1.708822866479391 -1.5686366558074951 -1.4025219690850754 1.5729024410247803 0.5183766484260559 True False
17069.893 2.229304790496826 -1.714046140710348 -1.5617401599884033 -1.4028050315431138 1.5728026628494263 0.519522488117218 True False
17069.913 2.2190394401550293 -1.7194558582701625 -1.5554969310760498 -1.4033027601293107 1.5726103782653809 0.5206148624420166 True False
17069.933 2.209336519241333 -1.724556108514303 -1.5493108034133911 -1.403661088352539 1.5724663734436035 0.5216681957244873 True False
17069.952999999998 2.199827194213867 -1.7293249569334925 -1.5428791046142578 -1.403844491844513 1.5723984241485596 0.5226843357086182 True False
17069.972999999998 2.1903932094573975 -1.7338344059386195 -1.5368022918701172 -1.4042552423528214 1.5721256732940674 0.5237436294555664 True False
17070.013 2.172700881958008 -1.7428976498045863 -1.5254714488983154 -1.4049964261106034 1.5720146894454956 0.5256959199905396 True False
17070.033 2.164093255996704 -1.7472511730589808 -1.5200576782226562 -1.4053836476853867 1.5717943906784058 0.5265761017799377 True False
17070.053 2.1559205055236816 -1.751416345635885 -1.5148426294326782 -1.4057098788074036 1.57169508934021 0.5274600982666016 True False
17070.073 2.148185968399048 -1.7554823360838832 -1.5096243619918823 -1.4059212815812607 1.5716228485107422 0.5283040404319763 True False
17070.093 2.1404850482940674 -1.759224077264303 -1.5045709609985352 -1.4063046437552948 1.5714542865753174 0.5291419625282288 True False
17070.112999999998 2.1329472064971924 -1.7629505596556605 -1.4998621940612793 -1.4065396648696442 1.5713263750076294 0.5299410223960876 True False
17070.132999999998 2.12593936920166 -1.766477724114889 -1.4954780340194702 -1.4067828071168442 1.5712546110153198 0.5307188630104065 True False
17070.153 2.1192667484283447 -1.7698055706419886 -1.4911104440689087 -1.4070538592389603 1.5711872577667236 0.5314521789550781 True False
17070.173 2.1127524375915527 -1.773081441918844 -1.4870229959487915 -1.4072655451348801 1.571070671081543 0.5321836471557617 True False
17070.193 2.106496810913086 -1.7763868770995082 -1.4829493761062622 -1.407408134346344 1.5709583759307861 0.5328077673912048 True False
17070.213 2.100510597229004 -1.7794777355589808 -1.4790496826171875 -1.4078035217574616 1.5709348917007446 0.5333881974220276 True False
17070.233 2.094815969467163 -1.782356401483053 -1.475386381149292 -1.4079232823899765 1.5708271265029907 0.5340811014175415 True False
17070.253 2.089484691619873 -1.7850491009154261 -1.471760869026184 -1.4081664246371766 1.570734977722168 0.5346434116363525 True False
17070.272999999997 2.084329605102539 -1.7876273594298304 -1.4685521125793457 -1.4082738322070618 1.570666790008545 0.5352267622947693 True False
17070.292999999998 2.0795397758483887 -1.7900973759093226 -1.4654768705368042 -1.4085088980248948 1.570586919784546 0.5357281565666199 True False
17070.313 2.0749759674072266 -1.7923771343626917 -1.462611198425293 -1.408668429856636 1.5705440044403076 0.5362143516540527 True False
17070.333 2.070607900619507 -1.7944890461363734 -1.4598959684371948 -1.4088118535331269 1.570507287979126 0.5366480946540833 True False
17070.353 2.066676378250122 -1.796514173547262 -1.457294225692749 -1.409007580285408 1.5703630447387695 0.5371582508087158 True False
17070.373 2.0630123615264893 -1.798281808892721 -1.4549480676651 -1.409114660029747 1.5703791379928589 0.5374695062637329 True False
17070.393 2.0595085620880127 -1.8000689945616664 -1.4526361227035522 -1.4093106997064133 1.570294976234436 0.5378431677818298 True False
17070.413 2.0564212799072266 -1.8016401729979457 -1.4505387544631958 -1.40928968906913 1.5702149868011475 0.5381547808647156 True False
17070.433 2.053554058074951 -1.8030697307982386 -1.4486585855484009 -1.409469337468483 1.5702437162399292 0.5385491847991943 True False
17070.452999999998 2.0508196353912354 -1.8045064411559046 -1.4470425844192505 -1.4095812451890488 1.5701916217803955 0.5387887358665466 True False
17070.472999999998 2.048525094985962 -1.805704732934469 -1.4455019235610962 -1.4097130459598084 1.5701147317886353 0.53904128074646 True False
17070.513 2.044710636138916 -1.807565828362936 -1.4429819583892822 -1.409796656375267 1.57007896900177 0.5394441485404968 True False
17070.533 2.043182373046875 -1.8083368740477503 -1.4421876668930054 -1.4099003833583375 1.5700345039367676 0.5396159291267395 True False
17070.553 2.0420024394989014 -1.8090359173216761 -1.4414198398590088 -1.4099560689977189 1.5700349807739258 0.5397070050239563 True False
17070.573 2.0410819053649902 -1.809441705743307 -1.4407285451889038 -1.409976289873459 1.5700109004974365 0.5398494005203247 True False
17070.593 2.0404586791992188 -1.8098107777037562 -1.4402451515197754 -1.4099159997752686 1.570030927658081 0.5398478507995605 True False
17070.612999999998 2.0400891304016113 -1.8100015125670375 -1.4400386810302734 -1.4099799257567902 1.57001531124115 0.5398988127708435 True False
17070.632999999998 2.040010452270508 -1.8099094829955042 -1.4400639533996582 -1.4099635791829606 1.5700030326843262 0.5399360060691833 True False
17070.853 2.0400521755218506 -1.812221189538473 -1.456908106803894 -1.392668218617775 1.566623330116272 0.5406076908111572 True False
17070.873 2.040024518966675 -1.8127476177611292 -1.4600226879119873 -1.3892793220332642 1.5659592151641846 0.5406659841537476 True False
17070.893 2.0399954319000244 -1.8131300411620082 -1.4634555578231812 -1.3857547503760834 1.5653111934661865 0.5408262610435486 True False
17070.913 2.040015935897827 -1.8136221371092738 -1.4670183658599854 -1.381763906483986 1.564583659172058 0.5409083962440491 True False
17070.933 2.0399587154388428 -1.8141447506346644 -1.4710493087768555 -1.377878652220108 1.5638076066970825 0.5410611033439636 True False
17070.952999999998 2.0399672985076904 -1.814693113366598 -1.475327730178833 -1.3735166800073166 1.562895655632019 0.5412626266479492 True False
17070.972999999998 2.0399835109710693 -1.815313001672262 -1.4799046516418457 -1.3687490385821839 1.5621163845062256 0.541364848613739 True False
17070.993 2.0399835109710693 -1.8158828220763148 -1.4846628904342651 -1.3637671780637284 1.5611159801483154 0.541479766368866 True False
17071.013 2.0399672985076904 -1.8166328869261683 -1.4896352291107178 -1.358637661939003 1.5600841045379639 0.5416174530982971 True False
17071.033 2.0400006771087646 -1.8173066578307093 -1.494852900505066 -1.3531256777099152 1.5590287446975708 0.5418643951416016 True False
17071.053 2.0399997234344482 -1.81803621868276 -1.5003072023391724 -1.3473441165736695 1.5578923225402832 0.5420182943344116 True False
17071.073 2.0399911403656006 -1.818885942498678 -1.5063185691833496 -1.341412903075554 1.5566967725753784 0.5422101616859436 True False
17071.093 2.0399703979492188 -1.8197232685484828 -1.5125608444213867 -1.3350219887546082 1.5554370880126953 0.5424206256866455 True False
17071.112999999998 2.0399997234344482 -1.820648809472555 -1.5189480781555176 -1.3283911508372803 1.5542813539505005 0.5425837635993958 True False
17071.132999999998 2.0399715900421143 -1.8214932880797328 -1.5254768133163452 -1.3214250218919297 1.5528937578201294 0.5428353548049927 True False
17071.153 2.039996385574341 -1.8223267994322718 -1.532304048538208 -1.3143317562392731 1.5515387058258057 0.5430881381034851 True False
17071.173 2.0399997234344482 -1.8232914410033167 -1.5395264625549316 -1.30685047925029 1.550126075744629 0.5433272123336792 True False
17071.193 2.040015935897827 -1.8242598972716273 -1.5471603870391846 -1.2991029185107728 1.5485860109329224 0.5435366630554199 True False
17071.213 2.0400450229644775 -1.8253308735289515 -1.5548948049545288 -1.291074053650238 1.5471065044403076 0.5438584089279175 True False
17071.233 2.0399672985076904 -1.8263851604857386 -1.562665343284607 -1.282835678463318 1.545470952987671 0.5440559983253479 True False
17071.253 2.0400168895721436 -1.8274008236327113 -1.5708653926849365 -1.2741750341704865 1.5437476634979248 0.5443683862686157 True False
17071.272999999997 2.0399997234344482 -1.8285099468626917 -1.579622745513916 -1.2654892367175599 1.5421048402786255 0.5446631908416748 True False
17071.292999999998 2.0400617122650146 -1.8297845325865687 -1.5884321928024292 -1.2562976640513916 1.5403611660003662 0.5449236035346985 True False
17071.313 2.0399510860443115 -1.8309642277159632 -1.5970056056976318 -1.2471464735320588 1.5385417938232422 0.545207679271698 True False
17071.333 2.0399715900421143 -1.8319975338377894 -1.6057671308517456 -1.2380403739264985 1.536810040473938 0.5455366969108582 True False
17071.353 2.039952039718628 -1.8332559070982875 -1.6144206523895264 -1.2294654709151764 1.535082221031189 0.545779287815094 True False
17071.373 2.039980173110962 -1.8343411884703578 -1.6223560571670532 -1.2210916441730042 1.5335785150527954 0.5460919141769409 True False
17071.393 2.0400278568267822 -1.8352486095824183 -1.6299408674240112 -1.2128116947463532 1.5319907665252686 0.5463250279426575 True False
17071.413 2.0399672985076904 -1.8363315067686976 -1.637620449066162 -1.2050212186625977 1.5304203033447266 0.5465945601463318 True False
17071.433 2.040053367614746 -1.8373757801451625 -1.6451506614685059 -1.1976365011981507 1.5290542840957642 0.5468874573707581 True False
17071.452999999998 2.0399997234344482 -1.8383189640440882 -1.651929259300232 -1.1903024178794404 1.527589201927185 0.547061026096344 True False
17071.472999999998 2.039975881576538 -1.8390704594054164 -1.6584136486053467 -1.183199332361557 1.5263557434082031 0.5473334789276123 True False
17071.493 2.0400071144104004 -1.8399650059142054 -1.6644941568374634 -1.1771659714034577 1.5250496864318848 0.5475082397460938 True False
17071.513 2.0399909019470215 -1.840712686578268 -1.669558048248291 -1.1720697742751618 1.524127721786499 0.5475817322731018 True False
17071.533 2.0399997234344482 -1.8411265812315882 -1.6734870672225952 -1.1678881806186219 1.5233412981033325 0.5477506518363953 True False
17071.553 2.0400495529174805 -1.84153475383901 -1.6765106916427612 -1.1645963054946442 1.5226390361785889 0.5478405356407166 True False
17071.573 2.0399580001831055 -1.8418361149229945 -1.6788945198059082 -1.1621944469264527 1.5222281217575073 0.5479840040206909 True False
17071.593 2.0399861335754395 -1.8421651325621546 -1.680458426475525 -1.1605431598475953 1.5218734741210938 0.5480469465255737 True False
17071.612999999998 2.0400161743164062 -1.8421970806517542 -1.6813130378723145 -1.159605548982956 1.521757960319519 0.5480453372001648 True False
17071.632999999998 2.0399832725524902 -1.842128416100973 -1.6815322637557983 -1.159442053442337 1.521713376045227 0.5480706691741943 True False
17071.653 2.0400161743164062 -1.8422161541380824 -1.6815452575683594 -1.1594023567489167 1.5217173099517822 0.5480215549468994 True False
17071.673 2.0399832725524902 -1.8421327076353968 -1.6816184520721436 -1.159365789299347 1.521701455116272 0.5480453968048096 True False
17071.693 2.039987802505493 -1.842111726800436 -1.6816496849060059 -1.15944658339534 1.5217411518096924 0.5480453968048096 True False
17071.713 2.040008544921875 -1.8421651325621546 -1.6817255020141602 -1.1594261091998597 1.5217053890228271 0.5481038093566895 True False
17071.733 2.0399744510650635 -1.842217584649557 -1.6817455291748047 -1.1593821805766602 1.5217053890228271 0.5480261445045471 True False
17071.753 2.0399699211120605 -1.8421884975829066 -1.6817682981491089 -1.1594179731658478 1.521733283996582 0.5480543375015259 True False
17071.772999999997 2.04002046585083 -1.8422090015807093 -1.681829571723938 -1.1593941015056153 1.521645188331604 0.5480694770812988 True False
17071.792999999998 2.0400161743164062 -1.8422090015807093 -1.6817727088928223 -1.1593981844237824 1.5216574668884277 0.5480498671531677 True False
17071.813 2.0400407314300537 -1.8422404728331507 -1.6817476749420166 -1.159378097658493 1.5216293334960938 0.5480379462242126 True False
17071.833 2.0400612354278564 -1.8422533474364222 -1.681842565536499 -1.1593461495688935 1.5216373205184937 0.5480573177337646 True False
17071.853 2.040041446685791 -1.8422938785948695 -1.6818008422851562 -1.159374014740326 1.521645188331604 0.5480663180351257 True False
17071.873 2.0399580001831055 -1.8422290287413539 -1.6817725896835327 -1.1593904358199616 1.5217018127441406 0.5480483174324036 True False
17071.893 2.0399832725524902 -1.8422333202757777 -1.6818339824676514 -1.1593741041472931 1.5216656923294067 0.548093318939209 True False
17071.913 2.0400280952453613 -1.8422404728331507 -1.681821346282959 -1.15933449686084 1.5216411352157593 0.5480453968048096 True False
17071.933 2.0400338172912598 -1.842219968835348 -1.681842565536499 -1.159370021229126 1.5216333866119385 0.5480617880821228 True False
17071.952999999998 2.0400116443634033 -1.8422895870604457 -1.6818630695343018 -1.1593822103789826 1.5215932130813599 0.5480784773826599 True False
17071.972999999998 2.0400404930114746 -1.8422075710692347 -1.6818382740020752 -1.159410522585251 1.5216293334960938 0.5480769276618958 True False
17071.993 2.0399625301361084 -1.8422614536681117 -1.6818256378173828 -1.1593821805766602 1.5216779708862305 0.5480527877807617 True False
17072.013 2.039987802505493 -1.8422776661314906 -1.6817963123321533 -1.1593741041472931 1.5216659307479858 0.548024594783783 True False
17072.033 2.0399861335754395 -1.8423439464964808 -1.6818456649780273 -1.159358100300171 1.5216374397277832 0.5480858683586121 True False
17072.053 2.040036916732788 -1.8422533474364222 -1.6818008422851562 -1.1593380135348816 1.5216137170791626 0.5480813980102539 True False
17072.073 2.0400280952453613 -1.8422047100462855 -1.6817727088928223 -1.1593781870654603 1.5216333866119385 0.5480769276618958 True False
17072.093 2.039971351623535 -1.8423072300352992 -1.6818256378173828 -1.1593420964530488 1.5216214656829834 0.5480694770812988 True False
17072.213 2.0399580001831055 -1.8422614536681117 -1.6817595958709717 -1.1593420964530488 1.5215567350387573 0.548024594783783 True False
17072.292999999998 2.04002046585083 -1.8422156773009242 -1.6818339824676514 -1.1593182247928162 1.5216575860977173 0.5480364561080933 True False
17072.313 2.0399997234344482 -1.8422533474364222 -1.681821346282959 -1.1593305331519623 1.5216174125671387 0.5480527281761169 True False
17072.333 2.0399951934814453 -1.842191835443014 -1.6818082332611084 -1.15937031925235 1.5216574668884277 0.5480409860610962 True False
17072.353 2.0399789810180664 -1.8422571621336878 -1.6818294525146484 -1.1593264204314728 1.5215891599655151 0.5480126738548279 True False
17072.373 2.0399832725524902 -1.842236181298727 -1.6818125247955322 -1.1593904358199616 1.5215891599655151 0.5480363368988037 True False
17072.393 2.040008544921875 -1.8422776661314906 -1.6818007230758667 -1.1593543750098725 1.5216091871261597 0.5480363368988037 True False
17072.413 2.0400161743164062 -1.8422614536681117 -1.6818170547485352 -1.159322367315628 1.5216656923294067 0.548069417476654 True False
17072.433 2.0399997234344482 -1.842203279534811 -1.6817920207977295 -1.1593617659858246 1.5216493606567383 0.5480572581291199 True False
17072.452999999998 2.0399696826934814 -1.84222473720693 -1.6817800998687744 -1.1593662065318604 1.5215890407562256 0.5480527877807617 True False
17072.472999999998 2.0399744510650635 -1.842264791528219 -1.6818382740020752 -1.1594145160964509 1.5215930938720703 0.5480483174324036 True False
17072.493 2.0399997234344482 -1.8422733745970667 -1.681821346282959 -1.1593420666507264 1.5215768814086914 0.548090398311615 True False
17072.612999999998 2.0399789810180664 -1.8422447643675746 -1.68180513381958 -1.159349874859192 1.5216054916381836 0.5480694770812988 True False
17072.713 2.040024995803833 -1.842292924920553 -1.6818385124206543 -1.15933449686084 1.5216493606567383 0.5480409264564514 True False
17072.733 2.0399625301361084 -1.8422938785948695 -1.6818170547485352 -1.1593224567225953 1.5216214656829834 0.5480379462242126 True False
17072.753 2.040004253387451 -1.8422447643675746 -1.68180513381958 -1.159370021229126 1.5216333866119385 0.5480200052261353 True False
17072.772999999997 2.040041446685791 -1.8422290287413539 -1.6818170547485352 -1.1593863529017945 1.5216296911239624 0.548017144203186 True False
17072.792999999998 2.040004253387451 -1.8422461948790492 -1.6818124055862427 -1.1593461793712159 1.5216054916381836 0.5480784773826599 True False
17072.813 2.039992332458496 -1.84222473720693 -1.681851863861084 -1.1593621534160157 1.521653413772583 0.5480694770812988 True False
17072.833 2.0399951934814453 -1.8422533474364222 -1.68180513381958 -1.1593224865249177 1.5216656923294067 0.548066258430481 True False
17072.853 2.0399997234344482 -1.842252870599264 -1.6817960739135742 -1.1593660873225708 1.5216333866119385 0.5480363965034485 True False
17072.873 2.0399789810180664 -1.8422404728331507 -1.6818095445632935 -1.1594064694694062 1.5216091871261597 0.5480335354804993 True False
17072.893 2.0399951934814453 -1.8422614536681117 -1.6818140745162964 -1.1593779784492035 1.5216174125671387 0.5480483174324036 True False
17072.913 2.0399997234344482 -1.8422733745970667 -1.6817723512649536 -1.159358100300171 1.5215972661972046 0.548008143901825 True False
17072.933 2.0400116443634033 -1.842269083062643 -1.6818186044692993 -1.159334049826004 1.5216493606567383 0.5480200052261353 True False
17072.952999999998 2.04002046585083 -1.8422895870604457 -1.6818228960037231 -1.1593344670585175 1.5215649604797363 0.5480363965034485 True False
17072.972999999998 2.0399625301361084 -1.8422204456725062 -1.6817649602890015 -1.1593182247928162 1.521641492843628 0.5480483174324036 True False
17072.993 2.0400116443634033 -1.8422404728331507 -1.6818214654922485 -1.159350113277771 1.5216054916381836 0.5480694770812988 True False
17073.013 2.0400235652923584 -1.8422404728331507 -1.6818021535873413 -1.1593265396407624 1.5216333866119385 0.548003613948822 True False
17073.193 2.0399832725524902 -1.842297216454977 -1.6817842721939087 -1.159354106788971 1.5216293334960938 0.5480573177337646 True False
17073.213 2.0400071144104004 -1.8422790966429652 -1.68180513381958 -1.1593226951411744 1.5216374397277832 0.5480617880821228 True False
17073.233 2.040020704269409 -1.8422490559019984 -1.6818385124206543 -1.159334198837616 1.5215932130813599 0.5480829477310181 True False
17073.253 2.040036916732788 -1.8422614536681117 -1.6817752122879028 -1.1593461793712159 1.5216013193130493 0.548003613948822 True False
17073.272999999997 2.0400025844573975 -1.8423148594298304 -1.6818140745162964 -1.1593541663936158 1.5216054916381836 0.5480111241340637 True False
17073.292999999998 2.0399997234344482 -1.8422700367369593 -1.6817796230316162 -1.1593580704978486 1.5215930938720703 0.5479946732521057 True False
17073.313 2.040036916732788 -1.8422614536681117 -1.6818548440933228 -1.1593817633441468 1.5216493606567383 0.5480482578277588 True False
17073.333 2.0399506092071533 -1.8422910175719203 -1.6817976236343384 -1.1593422156623383 1.5216456651687622 0.548066258430481 True False
17073.353 2.0399997234344482 -1.842236181298727 -1.6817902326583862 -1.1593699318221589 1.5216493606567383 0.5480527877807617 True False
17073.373 2.0399997234344482 -1.842231889764303 -1.6817351579666138 -1.159398005609848 1.5216214656829834 0.5480498671531677 True False
17073.393 2.040013074874878 -1.8422447643675746 -1.681787133216858 -1.1593500536731263 1.521613359451294 0.5480904579162598 True False
17073.413 2.0399670600891113 -1.8422614536681117 -1.6818095445632935 -1.1593306225589295 1.5216575860977173 0.5480740070343018 True False
17073.433 2.0399789810180664 -1.842198988000387 -1.6818259954452515 -1.1593858164599915 1.5216535329818726 0.5480527877807617 True False
17073.452999999998 2.0400116443634033 -1.84222473720693 -1.6818021535873413 -1.1593306225589295 1.521661639213562 0.5480784773826599 True False
17073.472999999998 2.0400495529174805 -1.842281003991598 -1.681776762008667 -1.1593540769866486 1.5216293334960938 0.5480829477310181 True False
17073.493 2.0400280952453613 -1.8422867260374964 -1.6818170547485352 -1.1593658787063141 1.521669864654541 0.548087477684021 True False
17073.513 2.0399909019470215 -1.8422571621336878 -1.6817723512649536 -1.1593267184546967 1.5216174125671387 0.5481067895889282 True False
17073.533 2.0400071144104004 -1.8422290287413539 -1.6817752122879028 -1.1593141716769715 1.521669864654541 0.5480573177337646 True False
17073.553 2.0399909019470215 -1.8422485790648402 -1.6817485094070435 -1.1592903298190613 1.5216493606567383 0.5480409264564514 True False
17073.573 2.040032386779785 -1.8422571621336878 -1.6817632913589478 -1.1593904358199616 1.5216333866119385 0.5480694770812988 True False
17073.593 2.0400116443634033 -1.842278619805807 -1.6818021535873413 -1.1593345266631623 1.5216333866119385 0.5480617880821228 True False
17073.612999999998 2.040004253387451 -1.8421961269774378 -1.68178129196167 -1.159394459133484 1.5216251611709595 0.5480246543884277 True False
17073.873 2.0399789810180664 -1.8422895870604457 -1.6817679405212402 -1.1593420964530488 1.5216132402420044 0.5480319261550903 True False
17073.893 2.0400025844573975 -1.8422490559019984 -1.6817960739135742 -1.1592781108668824 1.5216656923294067 0.5480694770812988 True False
17073.913 2.040024995803833 -1.8422700367369593 -1.6818007230758667 -1.1593781870654603 1.5216293334960938 0.5480363965034485 True False
17073.933 2.0400450229644775 -1.8422123394408167 -1.6817439794540405 -1.159374163751938 1.5216333866119385 0.5480453968048096 True False
17073.952999999998 2.0400025844573975 -1.8422700367369593 -1.681821584701538 -1.159370021229126 1.5216174125671387 0.5480617880821228 True False
17073.972999999998 2.040032386779785 -1.842269083062643 -1.6818430423736572 -1.1593780380538483 1.5215930938720703 0.5480409264564514 True False
17073.993 2.040029287338257 -1.8422166309752406 -1.6818170547485352 -1.1593822103789826 1.5216251611709595 0.548024594783783 True False
17074.013 2.040024995803833 -1.8422614536681117 -1.6817888021469116 -1.1593658489039917 1.5216333866119385 0.5480573177337646 True False
17074.033 2.0400278568267822 -1.8422333202757777 -1.681809663772583 -1.1593944889358063 1.5216132402420044 0.5480573177337646 True False
17074.053 2.0399715900421143 -1.8422614536681117 -1.6818214654922485 -1.1593863529017945 1.521669864654541 0.5480740070343018 True False
17074.073 2.040032386779785 -1.842269083062643 -1.6818140745162964 -1.1593699616244812 1.521653413772583 0.5480036735534668 True False
17074.093 2.0399954319000244 -1.8422657452025355 -1.6817976236343384 -1.15933050334964 1.5216411352157593 0.5480573177337646 True False
17074.112999999998 2.0399909019470215 -1.8422614536681117 -1.6817796230316162 -1.1593420964530488 1.5216132402420044 0.5480740070343018 True False
17074.132999999998 2.040008544921875 -1.842290540734762 -1.6818474531173706 -1.159362183218338 1.5216816663742065 0.5480363965034485 True False
17074.153 2.0400073528289795 -1.8422614536681117 -1.6818386316299438 -1.159362183218338 1.5216411352157593 0.5480904579162598 True False
17074.173 2.0399909019470215 -1.8422123394408167 -1.6818504333496094 -1.159370021229126 1.5215890407562256 0.5480290651321411 True False
17074.193 2.0400116443634033 -1.8422004185118617 -1.6817649602890015 -1.159362183218338 1.5216251611709595 0.5480527877807617 True False
17074.213 2.040032386779785 -1.842252870599264 -1.6818474531173706 -1.1593821805766602 1.5216174125671387 0.5480740070343018 True False
17074.233 2.0400454998016357 -1.8422404728331507 -1.6817723512649536 -1.1593421262553711 1.5216493606567383 0.5480425953865051 True False
17074.253 2.0399909019470215 -1.8422447643675746 -1.681797742843628 -1.15933050334964 1.5216374397277832 0.5480363965034485 True False
17074.272999999997 2.0399997234344482 -1.8422447643675746 -1.6818170547485352 -1.1593264502337952 1.5216693878173828 0.5480200052261353 True False
17074.292999999998 2.040004014968872 -1.8422404728331507 -1.68178129196167 -1.1593501728824158 1.5216333866119385 0.5480290651321411 True False
17074.313 2.03999662399292 -1.8422662220396937 -1.6818095445632935 -1.15933050334964 1.5215972661972046 0.5480482578277588 True False
17074.333 2.0399863719940186 -1.8422943554320277 -1.68180513381958 -1.15933449686084 1.5216293334960938 0.5480291247367859 True False
17074.353 2.040004014968872 -1.8422161541380824 -1.6817914247512817 -1.15933050334964 1.5215972661972046 0.5480527877807617 True False
17074.373 2.0399997234344482 -1.8421985111632289 -1.6818294525146484 -1.1593461793712159 1.5217058658599854 0.5480454564094543 True False
17074.393 2.0399954319000244 -1.8422581158080042 -1.6818259954452515 -1.1593863529017945 1.5216293334960938 0.5480439066886902 True False
17074.413 2.0399463176727295 -1.842252870599264 -1.6818095445632935 -1.1593781870654603 1.5216293334960938 0.5480740070343018 True False
17074.433 2.040032386779785 -1.8422118626036585 -1.6818259954452515 -1.1593263906291504 1.5216132402420044 0.5480274558067322 True False
17074.452999999998 2.039987802505493 -1.8422538242735804 -1.6818021535873413 -1.1593264800361176 1.5215972661972046 0.5480694770812988 True False
17074.472999999998 2.040015935897827 -1.8422752819456996 -1.6817723512649536 -1.1593181651881714 1.5216214656829834 0.5480784773826599 True False
17074.493 2.0400116443634033 -1.8422161541380824 -1.681851863861084 -1.1593059462359925 1.5216251611709595 0.5481022596359253 True False
17074.513 2.0400493144989014 -1.842264791528219 -1.6817976236343384 -1.159362183218338 1.5216493606567383 0.5480694770812988 True False
17074.533 2.0399835109710693 -1.8422132931151332 -1.6818304061889648 -1.1593338412097474 1.5216255187988281 0.5480813980102539 True False
17074.553 2.0399866104125977 -1.8422423801817835 -1.6817960739135742 -1.15935434520755 1.5216898918151855 0.5480993390083313 True False
17074.573 2.0399954319000244 -1.8422662220396937 -1.6817768812179565 -1.1592944127372284 1.5216054916381836 0.5480784773826599 True False
17074.593 2.0399997234344482 -1.842248102227682 -1.6817723512649536 -1.1593021911433716 1.5216816663742065 0.5480065941810608 True False
17074.612999999998 2.0400147438049316 -1.8422118626036585 -1.6817976236343384 -1.1593182247928162 1.5216251611709595 0.5480527281761169 True False
17074.632999999998 2.0400278568267822 -1.8423358402647914 -1.6817960739135742 -1.1593822103789826 1.5216090679168701 0.5480170845985413 True False
17074.653 2.0399835109710693 -1.8422380886473597 -1.6817708015441895 -1.1593380135348816 1.5216333866119385 0.5479992032051086 True False
17074.673 2.0399584770202637 -1.8422748051085414 -1.6818020343780518 -1.1592981082252045 1.5216214656829834 0.5480409860610962 True False
17074.693 2.0400116443634033 -1.8422290287413539 -1.6818095445632935 -1.1593862932971497 1.5216656923294067 0.5480633974075317 True False
17074.713 2.0400116443634033 -1.8422943554320277 -1.6818304061889648 -1.1593264204314728 1.5216416120529175 0.5480319857597351 True False
17074.733 2.0399997234344482 -1.8422490559019984 -1.6817797422409058 -1.1593741339496155 1.521661639213562 0.548008143901825 True False
17074.753 2.0399703979492188 -1.8422404728331507 -1.6818170547485352 -1.1593501728824158 1.5216575860977173 0.5480740070343018 True False
17074.772999999997 2.0400278568267822 -1.8422705135741175 -1.6817888021469116 -1.1593264204314728 1.5216292142868042 0.5480319857597351 True False
17074.792999999998 2.0400116443634033 -1.8422242603697718 -1.6817960739135742 -1.1593461495688935 1.521661639213562 0.5480111241340637 True False
17074.813 2.0399584770202637 -1.8422824345030726 -1.681714415550232 -1.1593420666507264 1.5216251611709595 0.5480618476867676 True False
17074.833 2.0399749279022217 -1.8422404728331507 -1.6817561388015747 -1.1593741041472931 1.5216091871261597 0.548069417476654 True False
17074.853 2.040004014968872 -1.8422118626036585 -1.6818007230758667 -1.1593583983233948 1.5216251611709595 0.5480318665504456 True False
17074.873 2.040015935897827 -1.8422581158080042 -1.68180513381958 -1.1593380135348816 1.5216734409332275 0.547995924949646 True False
17074.893 2.04003643989563 -1.8422357044615687 -1.681793212890625 -1.1593421262553711 1.5216493606567383 0.5480453968048096 True False
17074.913 2.039992094039917 -1.842219968835348 -1.6818170547485352 -1.1593741041472931 1.5216493606567383 0.5481067895889282 True False
17074.933 2.0400073528289795 -1.8422118626036585 -1.6818339824676514 -1.1593263906291504 1.5216090679168701 0.5480111241340637 True False
17074.952999999998 2.039987802505493 -1.8422075710692347 -1.6817888021469116 -1.1592899721911927 1.5216214656829834 0.5480573177337646 True False
17074.972999999998 2.0400116443634033 -1.8422047100462855 -1.6818429231643677 -1.159362183218338 1.5216091871261597 0.5480617880821228 True False
17074.993 2.0399792194366455 -1.8422380886473597 -1.681839108467102 -1.1593420964530488 1.5216374397277832 0.548066258430481 True False
17075.013 2.040015935897827 -1.8422380886473597 -1.6818383932113647 -1.1594144862941285 1.5216251611709595 0.5480290055274963 True False
17075.033 2.040020227432251 -1.842219968835348 -1.6817517280578613 -1.15933050334964 1.5216453075408936 0.5479946732521057 True False
17075.053 2.03995418548584 -1.8422523937621058 -1.6818095445632935 -1.15933050334964 1.5216492414474487 0.5480409264564514 True False
17075.073 2.040020227432251 -1.8422900638976039 -1.6818301677703857 -1.1593457621387024 1.521689772605896 0.5480829477310181 True False
17075.093 2.0399997234344482 -1.8421956501402796 -1.6817888021469116 -1.1593741041472931 1.521641492843628 0.5480199456214905 True False
17075.112999999998 2.0399703979492188 -1.8422490559019984 -1.6818125247955322 -1.1593338710120697 1.5216453075408936 0.5480273962020874 True False
17075.132999999998 2.040032148361206 -1.8422943554320277 -1.681793212890625 -1.1593540173820038 1.5216251611709595 0.5480784773826599 True False
17075.153 2.040020227432251 -1.8422209225096644 -1.6818666458129883 -1.1593863529017945 1.5216214656829834 0.5480319261550903 True False
17075.173 2.0400404930114746 -1.8422380886473597 -1.6818503141403198 -1.1593617659858246 1.5216333866119385 0.5480694770812988 True False
17075.193 2.040015935897827 -1.8422957859435023 -1.6818008422851562 -1.1593584579280396 1.5216333866119385 0.5480740070343018 True False
17075.213 2.0399715900421143 -1.8422438106932582 -1.6818007230758667 -1.1593264204314728 1.5216054916381836 0.5480274558067322 True False
17075.233 2.040008306503296 -1.8422380886473597 -1.68178129196167 -1.1593501728824158 1.5216251611709595 0.548069417476654 True False
17075.253 2.040004014968872 -1.8423196278014125 -1.6818428039550781 -1.1593427521041413 1.5216656923294067 0.5480573177337646 True False
17075.272999999997 2.0399835109710693 -1.8422447643675746 -1.68180513381958 -1.1593864125064393 1.5216575860977173 0.548066258430481 True False
17075.292999999998 2.0399715900421143 -1.8422357044615687 -1.68180513381958 -1.159374014740326 1.5216333866119385 0.5480650067329407 True False
17075.313 2.0399703979492188 -1.8422662220396937 -1.681845784187317 -1.1594027143767853 1.5216333866119385 0.5480784773826599 True False
17075.333 2.0399587154388428 -1.8422523937621058 -1.6818007230758667 -1.1593461793712159 1.5216976404190063 0.5480617880821228 True False
17075.353 2.0399136543273926 -1.8422733745970667 -1.6818007230758667 -1.15933449686084 1.5216370820999146 0.5480527281761169 True False
17075.373 2.040015935897827 -1.8422523937621058 -1.6817857027053833 -1.15933449686084 1.5216453075408936 0.5480409264564514 True False
17075.393 2.04003643989563 -1.8422662220396937 -1.6818170547485352 -1.1593181651881714 1.5216251611709595 0.5480617880821228 True False
17075.413 2.0400116443634033 -1.8422404728331507 -1.6818170547485352 -1.1593501728824158 1.521605134010315 0.5481022596359253 True False
17075.433 2.040008306503296 -1.8422662220396937 -1.6818214654922485 -1.1593181651881714 1.5216697454452515 0.5481113195419312 True False
17075.452999999998 2.039992094039917 -1.8422662220396937 -1.6818344593048096 -1.1593984526446839 1.521613359451294 0.548024594783783 True False
17075.472999999998 2.0400125980377197 -1.8422571621336878 -1.6818300485610962 -1.159362183218338 1.5216574668884277 0.5480453968048096 True False
17075.493 2.03995418548584 -1.8422314129271449 -1.6818588972091675 -1.1593944889358063 1.5216976404190063 0.548090398311615 True False
17075.513 2.040024518966675 -1.8422614536681117 -1.681809425354004 -1.1593904358199616 1.521613359451294 0.5480874180793762 True False
17075.533 2.0399954319000244 -1.8422290287413539 -1.6818125247955322 -1.15933449686084 1.5216370820999146 0.5480948686599731 True False
17075.553 2.0399630069732666 -1.8422824345030726 -1.6818138360977173 -1.15933449686084 1.5216293334960938 0.5481202602386475 True False
17075.573 2.0399630069732666 -1.8422781429686488 -1.6817889213562012 -1.1593863529017945 1.5216736793518066 0.5480453968048096 True False
17075.593 2.040008306503296 -1.8422156773009242 -1.6818214654922485 -1.1593461793712159 1.521625280380249 0.5480740070343018 True False
17075.612999999998 2.04003643989563 -1.8422404728331507 -1.6817725896835327 -1.1593944889358063 1.5215973854064941 0.5480215549468994 True False
17075.632999999998 2.040024518966675 -1.8421656093993128 -1.6817855834960938 -1.1592736703208466 1.5216014385223389 0.5480527877807617 True False
17075.653 2.0399835109710693 -1.8422333202757777 -1.68180513381958 -1.1593944889358063 1.521661639213562 0.5480694770812988 True False
17075.673 2.0399835109710693 -1.8422399959959925 -1.68178129196167 -1.1593427819064637 1.5216453075408936 0.5480740070343018 True False
17075.693 2.040004014968872 -1.8421985111632289 -1.6817606687545776 -1.15933050334964 1.521669626235962 0.5480379462242126 True False
17075.713 2.0399954319000244 -1.8422781429686488 -1.681809425354004 -1.1594026547721406 1.5216174125671387 0.5480949282646179 True False
17075.733 2.0400125980377197 -1.842219968835348 -1.6818137168884277 -1.1593345564654847 1.521625280380249 0.5480785369873047 True False
17075.753 2.0399715900421143 -1.842215200463766 -1.6818300485610962 -1.159358100300171 1.5216615200042725 0.5480948090553284 True False
17075.772999999997 2.040015935897827 -1.842219968835348 -1.681793212890625 -1.159366176729538 1.5216293334960938 0.5480828881263733 True False
17075.792999999998 2.0399911403656006 -1.8421865902342738 -1.6817693710327148 -1.1593264204314728 1.5216174125671387 0.5480740070343018 True False
17075.813 2.0399997234344482 -1.8422075710692347 -1.6818257570266724 -1.1593181949904938 1.5216453075408936 0.5480453968048096 True False
17075.833 2.0399510860443115 -1.8422333202757777 -1.681809425354004 -1.1593420964530488 1.521673560142517 0.548075258731842 True False
17075.853 2.0399997234344482 -1.8422705135741175 -1.6817963123321533 -1.159366176729538 1.521625280380249 0.5479915738105774 True False
17075.873 2.040015935897827 -1.8423406086363734 -1.681793212890625 -1.1593263906291504 1.5216532945632935 0.5481157302856445 True False
17076.132999999998 2.0399997234344482 -1.8422357044615687 -1.6817693710327148 -1.1593580704978486 1.5216453075408936 0.5480363965034485 True False
17076.153 2.0400161743164062 -1.8422404728331507 -1.68180513381958 -1.1593702298453827 1.5216574668884277 0.5480409264564514 True False
17076.173 2.0399951934814453 -1.8421956501402796 -1.68178129196167 -1.1593461793712159 1.5216333866119385 0.5479914546012878 True False
17076.193 2.0400161743164062 -1.8422447643675746 -1.68180513381958 -1.1593660873225708 1.5216134786605835 0.5480617880821228 True False
17076.213 2.040008544921875 -1.8422447643675746 -1.6818170547485352 -1.1593659085086365 1.5216615200042725 0.5480200052261353 True False
17076.233 2.04002046585083 -1.8422404728331507 -1.6818338632583618 -1.159382091169693 1.5216294527053833 0.5480409264564514 True False
17076.253 2.0399670600891113 -1.8422662220396937 -1.6817595958709717 -1.1593421560576935 1.5216535329818726 0.5480605363845825 True False
17076.272999999997 2.04002046585083 -1.8422290287413539 -1.6817846298217773 -1.1593421560576935 1.5216412544250488 0.5480363368988037 True False
17076.292999999998 2.0399951934814453 -1.8422290287413539 -1.68180513381958 -1.1593224865249177 1.5216413736343384 0.5480363965034485 True False
17076.313 2.0400161743164062 -1.842269083062643 -1.6817727088928223 -1.159398303633072 1.5216492414474487 0.5480948090553284 True False
17076.333 2.0399951934814453 -1.8421908817686976 -1.6818017959594727 -1.1593540769866486 1.5216655731201172 0.5481037497520447 True False
17076.353 2.040024995803833 -1.842219968835348 -1.6818256378173828 -1.1593265396407624 1.521681308746338 0.5480082035064697 True False
17076.373 2.0399951934814453 -1.8423081837096156 -1.6817845106124878 -1.1593500834754487 1.5216453075408936 0.5480694770812988 True False
17076.393 2.0400404930114746 -1.8421908817686976 -1.6818170547485352 -1.159350113277771 1.5216572284698486 0.5480605363845825 True False
17076.413 2.0399980545043945 -1.8422466717162074 -1.6818429231643677 -1.159354106788971 1.5216615200042725 0.5480363965034485 True False
17076.433 2.040032386779785 -1.8422447643675746 -1.6818125247955322 -1.1593265694430848 1.5216654539108276 0.5480483174324036 True False
17076.452999999998 2.0399789810180664 -1.8423034153380335 -1.681821346282959 -1.1593621236136933 1.5216615200042725 0.5480650067329407 True False
17076.472999999998 2.0399625301361084 -1.8421956501402796 -1.68180513381958 -1.1593344670585175 1.5216134786605835 0.5480948686599731 True False
17076.493 2.0400025844573975 -1.8422538242735804 -1.68180513381958 -1.159330592756607 1.5216373205184937 0.5480813980102539 True False
17076.513 2.040008544921875 -1.842219968835348 -1.6817889213562012 -1.159370021229126 1.5216253995895386 0.5480573177337646 True False
17076.533 2.040004253387451 -1.842219968835348 -1.68178129196167 -1.159362093811371 1.5216175317764282 0.5480694770812988 True False
17076.553 2.0399832725524902 -1.8422290287413539 -1.6817963123321533 -1.1593500238708039 1.5216175317764282 0.5480409264564514 True False
17076.573 2.0400116443634033 -1.8422538242735804 -1.6818007230758667 -1.1593700510314484 1.5216373205184937 0.5480784773826599 True False
17076.593 2.039987802505493 -1.8421746693053187 -1.6818257570266724 -1.1593659979156037 1.5216294527053833 0.5480605363845825 True False
17076.612999999998 2.040004253387451 -1.842269083062643 -1.68180513381958 -1.159346119766571 1.5216294527053833 0.5480694770812988 True False
17076.632999999998 2.0400407314300537 -1.8422314129271449 -1.681777000427246 -1.1592863959125062 1.5216453075408936 0.5480126142501831 True False
17076.653 2.0400161743164062 -1.8422752819456996 -1.681793212890625 -1.159330592756607 1.5216175317764282 0.5480543375015259 True False
17076.673 2.04002046585083 -1.8422447643675746 -1.6817846298217773 -1.1594020885280152 1.5216175317764282 0.5480498671531677 True False
17076.693 2.0399997234344482 -1.8422447643675746 -1.68180513381958 -1.1592984956553956 1.5216333866119385 0.5480498671531677 True False
17076.713 2.0400161743164062 -1.8421999416747035 -1.6817846298217773 -1.1593305629542847 1.5216054916381836 0.5480527281761169 True False
17076.733 2.0399906635284424 -1.8422357044615687 -1.6817964315414429 -1.159350113277771 1.5216416120529175 0.5480363368988037 True False
17076.753 2.040041446685791 -1.8422314129271449 -1.6818008422851562 -1.1593779188445588 1.521661639213562 0.548003613948822 True False
17076.772999999997 2.0400583744049072 -1.842248102227682 -1.681809425354004 -1.159346119766571 1.5216293334960938 0.5480318665504456 True False
17076.792999999998 2.040008544921875 -1.8422447643675746 -1.681777000427246 -1.1594060224345704 1.5216333866119385 0.5480573177337646 True False
17076.813 2.0400450229644775 -1.8421880207457484 -1.6817888021469116 -1.159362093811371 1.5216374397277832 0.5480155348777771 True False
17076.833 2.0400116443634033 -1.842215200463766 -1.6817842721939087 -1.1593620342067261 1.5216453075408936 0.5480363965034485 True False
17076.853 2.040024995803833 -1.8422538242735804 -1.6818095445632935 -1.1593227249434968 1.5216453075408936 0.5480604767799377 True False
17076.873 2.0399506092071533 -1.842222353021139 -1.68180513381958 -1.1593778890422364 1.5216411352157593 0.5480573177337646 True False
17076.893 2.0399832725524902 -1.8421865902342738 -1.6818385124206543 -1.1593579810908814 1.5216293334960938 0.5480409860610962 True False
17076.913 2.0399787425994873 -1.8421956501402796 -1.6818294525146484 -1.1592708987048645 1.5216333866119385 0.5480363965034485 True False
17076.933 2.0399951934814453 -1.8422380886473597 -1.6817888021469116 -1.1593658787063141 1.521661639213562 0.5480903387069702 True False
17076.952999999998 2.0400495529174805 -1.842273851434225 -1.6817514896392822 -1.1593306225589295 1.5216251611709595 0.548090398311615 True False
17076.972999999998 2.0399951934814453 -1.842264314691061 -1.68180513381958 -1.159302518968918 1.5216574668884277 0.548090398311615 True False
17076.993 2.0399832725524902 -1.842219968835348 -1.6817469596862793 -1.1593264204314728 1.5216776132583618 0.5480740070343018 True False
17077.013 2.0400071144104004 -1.8422872028746546 -1.6818079948425293 -1.1592941147140046 1.5216816663742065 0.5480215549468994 True False
17077.033 2.0400359630584717 -1.8422423801817835 -1.6818348169326782 -1.1593781870654603 1.5215930938720703 0.5480126142501831 True False
17077.053 2.040020704269409 -1.8421985111632289 -1.6818065643310547 -1.159362183218338 1.5215809345245361 0.548087477684021 True False
17077.073 2.0400116443634033 -1.8422242603697718 -1.68180513381958 -1.159402297144272 1.5216737985610962 0.5480784773826599 True False
17077.093 2.0399832725524902 -1.8422752819456996 -1.6817976236343384 -1.1593181651881714 1.5216333866119385 0.5480363965034485 True False
17077.112999999998 2.039971351623535 -1.8422614536681117 -1.6817916631698608 -1.1593741041472931 1.5216535329818726 0.5480617880821228 True False
17077.132999999998 2.0399906635284424 -1.8422852955260218 -1.6817649602890015 -1.1593338710120697 1.5215972661972046 0.5480453968048096 True False
17077.153 2.0399625301361084 -1.8422538242735804 -1.6817649602890015 -1.1593621534160157 1.5216493606567383 0.5480200052261353 True False
17077.173 2.0399460792541504 -1.8422662220396937 -1.6818214654922485 -1.159366176729538 1.5216574668884277 0.5480740070343018 True False
17077.193 2.040041446685791 -1.8422333202757777 -1.6818214654922485 -1.1593703788569947 1.5216575860977173 0.5480948686599731 True False
17077.213 2.040041446685791 -1.842273851434225 -1.6817679405212402 -1.1593699616244812 1.5216493606567383 0.5480858087539673 True False
17077.233 2.0400116443634033 -1.8422705135741175 -1.68180513381958 -1.1593181949904938 1.5216493606567383 0.5481157898902893 True False
17077.253 2.0400540828704834 -1.8422252140440882 -1.681793212890625 -1.1593501728824158 1.5216174125671387 0.548066258430481 True False
17077.272999999997 2.0400161743164062 -1.8422380886473597 -1.681825876235962 -1.15933050334964 1.5216292142868042 0.5481067895889282 True False
17077.292999999998 2.0399460792541504 -1.8422404728331507 -1.68180513381958 -1.1593821507743378 1.5216251611709595 0.5480694770812988 True False
17077.313 2.0399951934814453 -1.8421956501402796 -1.6818140745162964 -1.1593661469272156 1.521613359451294 0.5480740070343018 True False
17077.333 2.0400116443634033 -1.8422118626036585 -1.68180513381958 -1.1593581301024933 1.5215973854064941 0.5480694770812988 True False
17077.353 2.040008783340454 -1.8422581158080042 -1.6818140745162964 -1.1593744617751618 1.5216251611709595 0.5480527877807617 True False
17077.373 2.0400071144104004 -1.8422242603697718 -1.6817976236343384 -1.159349874859192 1.5216054916381836 0.5480438470840454 True False
17077.393 2.0399951934814453 -1.8422824345030726 -1.6818007230758667 -1.1593863529017945 1.5216697454452515 0.5480572581291199 True False
17077.413 2.039987802505493 -1.8422209225096644 -1.6818259954452515 -1.1593781870654603 1.5216256380081177 0.5480784773826599 True False
17077.433 2.0400190353393555 -1.8422290287413539 -1.6817723512649536 -1.1593263906291504 1.5216697454452515 0.5480605363845825 True False
17077.452999999998 2.0399997234344482 -1.8422380886473597 -1.6818259954452515 -1.1592981976321717 1.5216091871261597 0.5480993390083313 True False
17077.472999999998 2.039987802505493 -1.8422161541380824 -1.6818170547485352 -1.1593821507743378 1.5216453075408936 0.5480948090553284 True False
17077.493 2.04002046585083 -1.8422290287413539 -1.681797742843628 -1.159366176729538 1.5216535329818726 0.5480707287788391 True False
17077.513 2.040036916732788 -1.8422161541380824 -1.6817960739135742 -1.1593264204314728 1.5216411352157593 0.5480527877807617 True False
17077.533 2.040024995803833 -1.842273851434225 -1.6818006038665771 -1.1593420964530488 1.5216816663742065 0.5480363965034485 True False
17077.553 2.040036916732788 -1.8422404728331507 -1.6817575693130493 -1.1593580704978486 1.5216816663742065 0.5480694770812988 True False
17077.573 2.0400025844573975 -1.8422914944090785 -1.6817976236343384 -1.15935434520755 1.5216374397277832 0.5480948686599731 True False
17077.593 2.0400116443634033 -1.8422614536681117 -1.6818413734436035 -1.1593741041472931 1.5216014385223389 0.5480319261550903 True False
17077.612999999998 2.040029525756836 -1.8422581158080042 -1.6818095445632935 -1.1593821805766602 1.5216013193130493 0.5480409264564514 True False
17077.632999999998 2.0400025844573975 -1.8422538242735804 -1.6817723512649536 -1.159362183218338 1.5216013193130493 0.548066258430481 True False
17077.653 2.040036916732788 -1.8422571621336878 -1.6817679405212402 -1.1593540471843262 1.5216333866119385 0.5480200052261353 True False
17077.673 2.0399534702301025 -1.8422705135741175 -1.681793212890625 -1.1593741041472931 1.5216493606567383 0.5480617880821228 True False
17077.693 2.039992332458496 -1.8422090015807093 -1.6817960739135742 -1.159298227434494 1.5216091871261597 0.5480858683586121 True False
17077.713 2.039992332458496 -1.8421985111632289 -1.681793212890625 -1.1593339008143921 1.5216453075408936 0.5480605363845825 True False
17077.733 2.040013074874878 -1.8422242603697718 -1.681776762008667 -1.1593021911433716 1.521681785583496 0.5480573177337646 True False
17077.753 2.0399951934814453 -1.8422962627806605 -1.6817723512649536 -1.159338579779007 1.5216293334960938 0.5480498671531677 True False
17077.772999999997 2.0400450229644775 -1.8422075710692347 -1.68174409866333 -1.1594023567489167 1.521641492843628 0.5480617880821228 True False
17077.792999999998 2.040008544921875 -1.8422380886473597 -1.6818124055862427 -1.159402297144272 1.5216090679168701 0.5480785369873047 True False
17077.813 2.0400280952453613 -1.8422118626036585 -1.681793212890625 -1.1593584281257172 1.5216697454452515 0.5480409264564514 True False
17077.833 2.0399835109710693 -1.84220614055776 -1.6818186044692993 -1.1593461793712159 1.5216174125671387 0.5480858683586121 True False
17077.853 2.039975881576538 -1.8422447643675746 -1.6818006038665771 -1.159338043337204 1.5216251611709595 0.5480035543441772 True False
17077.873 2.0400190353393555 -1.8422075710692347 -1.6818007230758667 -1.1593420964530488 1.521701455116272 0.5480363368988037 True False
17077.893 2.0399951934814453 -1.8422705135741175 -1.6818214654922485 -1.1593822103789826 1.5216255187988281 0.5480948686599731 True False
17077.913 2.040005683898926 -1.8422047100462855 -1.6818124055862427 -1.1593380135348816 1.5216255187988281 0.5479991436004639 True False
17077.933 2.0400025844573975 -1.8422242603697718 -1.681793212890625 -1.1593501728824158 1.521661639213562 0.5480949282646179 True False
17078.193 2.0399744510650635 -1.8422209225096644 -1.68180513381958 -1.1593821507743378 1.5216535329818726 0.5480126142501831 True False
17078.213 2.0399909019470215 -1.8422914944090785 -1.68180513381958 -1.1593580704978486 1.5216174125671387 0.5480244755744934 True False
17078.233 2.0399951934814453 -1.8421207867064417 -1.68180513381958 -1.1593622130206604 1.5216416120529175 0.5480993390083313 True False
17078.253 2.0399715900421143 -1.8422571621336878 -1.6818214654922485 -1.1593501728824158 1.521661639213562 0.5480829477310181 True False
17078.272999999997 2.039987802505493 -1.8422705135741175 -1.6818259954452515 -1.1593662065318604 1.5216697454452515 0.5480498671531677 True False
17078.292999999998 2.039987802505493 -1.8422523937621058 -1.6818006038665771 -1.15933449686084 1.5216535329818726 0.5480784773826599 True False
17078.313 2.040032386779785 -1.8422242603697718 -1.6817560195922852 -1.1593501728824158 1.5216453075408936 0.5480695366859436 True False
17078.333 2.0400235652923584 -1.8421985111632289 -1.6817959547042847 -1.1593263906291504 1.5216333866119385 0.5481202602386475 True False
17078.353 2.0400071144104004 -1.8422447643675746 -1.6818170547485352 -1.1593426924994965 1.5216574668884277 0.5480617880821228 True False
17078.373 2.040004253387451 -1.8422380886473597 -1.6818259954452515 -1.159362183218338 1.5216656923294067 0.5480318665504456 True False
17078.393 2.039975881576538 -1.8422438106932582 -1.6818474531173706 -1.159333811407425 1.5216091871261597 0.5480035543441772 True False
17078.413 2.0399909019470215 -1.8422748051085414 -1.6817888021469116 -1.159298138027527 1.5216293334960938 0.5480617880821228 True False
17078.433 2.0400450229644775 -1.8422447643675746 -1.681809663772583 -1.1593264204314728 1.5216333866119385 0.5481067895889282 True False
17078.452999999998 2.0399835109710693 -1.8422166309752406 -1.6818259954452515 -1.1594223839095612 1.5215930938720703 0.5480527281761169 True False
17078.472999999998 2.040041208267212 -1.8422252140440882 -1.68180513381958 -1.15933449686084 1.5216214656829834 0.5480573177337646 True False
17078.493 2.0399670600891113 -1.8422357044615687 -1.681856393814087 -1.1593420964530488 1.5216574668884277 0.5480215549468994 True False
17078.513 2.039992332458496 -1.8422075710692347 -1.6817514896392822 -1.1593379837325593 1.521661639213562 0.5480785369873047 True False
17078.533 2.0399997234344482 -1.8422571621336878 -1.681788682937622 -1.15935434520755 1.521661639213562 0.5480290055274963 True False
17078.553 2.0399835109710693 -1.8421746693053187 -1.6818184852600098 -1.1593380135348816 1.5216091871261597 0.5479958057403564 True False
17078.573 2.04002046585083 -1.8422333202757777 -1.6818124055862427 -1.1593822103789826 1.5216293334960938 0.5480859279632568 True False
17078.593 2.039943218231201 -1.8423034153380335 -1.6818214654922485 -1.1593822103789826 1.5216293334960938 0.5480527877807617 True False
17078.612999999998 2.0400612354278564 -1.8422028026976527 -1.6818385124206543 -1.1593461495688935 1.5216090679168701 0.5480527877807617 True False
17078.632999999998 2.040024757385254 -1.8423153362669886 -1.6817796230316162 -1.1593863529017945 1.5216095447540283 0.5480769872665405 True False
17078.653 2.040024757385254 -1.842219968835348 -1.6818214654922485 -1.159386323099472 1.5216091871261597 0.5480904579162598 True False
17078.673 2.040024757385254 -1.8422705135741175 -1.6818007230758667 -1.15933050334964 1.5216493606567383 0.5480245351791382 True False
17078.693 2.0399909019470215 -1.8421956501402796 -1.6818214654922485 -1.159362183218338 1.5216416120529175 0.5481038093566895 True False
17078.713 2.0400359630584717 -1.8422614536681117 -1.6818007230758667 -1.1593822103789826 1.521669864654541 0.5480573177337646 True False
17078.733 2.040036678314209 -1.8421999416747035 -1.6818429231643677 -1.15933050334964 1.521669864654541 0.5480035543441772 True False
17078.753 2.0399420261383057 -1.8422538242735804 -1.68180513381958 -1.1593380135348816 1.5217177867889404 0.5480707287788391 True False
17078.772999999997 2.040008544921875 -1.8422333202757777 -1.6818429231643677 -1.159370021229126 1.5216054916381836 0.5480785369873047 True False
17078.792999999998 2.040032386779785 -1.8421999416747035 -1.6818007230758667 -1.1593662065318604 1.52161705493927 0.5480694770812988 True False
17078.813 2.040032386779785 -1.842219968835348 -1.6818095445632935 -1.1593386691859742 1.521661639213562 0.548061728477478 True False
17078.833 2.0399997234344482 -1.8422733745970667 -1.6817960739135742 -1.159398542051651 1.5216457843780518 0.5481023192405701 True False
17078.853 2.0399835109710693 -1.8423034153380335 -1.6818170547485352 -1.1593420964530488 1.5216293334960938 0.5480318665504456 True False
17078.873 2.0399465560913086 -1.8422380886473597 -1.6817634105682373 -1.1593344670585175 1.5216214656829834 0.5480363368988037 True False
17078.893 2.0399465560913086 -1.8422852955260218 -1.6817842721939087 -1.159322367315628 1.5216293334960938 0.5480200052261353 True False
17078.913 2.040015935897827 -1.8421999416747035 -1.6818007230758667 -1.1593740743449708 1.5216214656829834 0.5480125546455383 True False
17078.933 2.0400404930114746 -1.842248102227682 -1.68178129196167 -1.159318135385849 1.5216739177703857 0.5480125546455383 True False
17078.952999999998 2.039992094039917 -1.8421794376769007 -1.6818214654922485 -1.1593741041472931 1.5216656923294067 0.5480695366859436 True False
17078.972999999998 2.0399539470672607 -1.8422662220396937 -1.6817560195922852 -1.1593904358199616 1.5216333866119385 0.5480170845985413 True False
17078.993 2.0399746894836426 -1.8422252140440882 -1.6817842721939087 -1.159358487730362 1.5216370820999146 0.5480453968048096 True False
17079.013 2.0399670600891113 -1.8422824345030726 -1.681793212890625 -1.159362183218338 1.521669864654541 0.5480573177337646 True False
17079.033 2.040053606033325 -1.8422914944090785 -1.6817888021469116 -1.1593059760383149 1.5216293334960938 0.5480290055274963 True False
17079.053 2.0400190353393555 -1.8422209225096644 -1.6817724704742432 -1.1593345266631623 1.5216411352157593 0.5480740666389465 True False
17079.073 2.040036678314209 -1.8422376118102015 -1.6818472146987915 -1.1593539875796814 1.5216333866119385 0.5480617880821228 True False
17079.093 2.0399997234344482 -1.8422538242735804 -1.681809663772583 -1.159394459133484 1.5216333866119385 0.5480785369873047 True False
17079.112999999998 2.0399911403656006 -1.8421999416747035 -1.6817888021469116 -1.1593822103789826 1.5216251611709595 0.5480605959892273 True False
17079.132999999998 2.0400490760803223 -1.8422490559019984 -1.6817768812179565 -1.1593580704978486 1.5216493606567383 0.5480290055274963 True False
17079.153 2.040032148361206 -1.8422404728331507 -1.6817888021469116 -1.1593904060176392 1.5216574668884277 0.548003613948822 True False
17079.173 2.0400567054748535 -1.842269083062643 -1.6818516254425049 -1.1593461793712159 1.5216014385223389 0.5480482578277588 True False
17079.193 2.039992094039917 -1.8422538242735804 -1.681793212890625 -1.1593420964530488 1.5216575860977173 0.5480379462242126 True False
17079.213 2.040015935897827 -1.8422075710692347 -1.6818428039550781 -1.1593264204314728 1.5216453075408936 0.5480785369873047 True False
17079.233 2.040020227432251 -1.8422824345030726 -1.6817649602890015 -1.15935434520755 1.521641492843628 0.5480290055274963 True False
17079.253 2.0399911403656006 -1.8422824345030726 -1.6817843914031982 -1.1593981248191376 1.5216288566589355 0.5480740070343018 True False
17079.272999999997 2.040015935897827 -1.8422914944090785 -1.6818095445632935 -1.1592821937850495 1.5216697454452515 0.5480829477310181 True False
17079.292999999998 2.0399584770202637 -1.8422118626036585 -1.6818095445632935 -1.1593863529017945 1.521661639213562 0.5480363965034485 True False
17079.313 2.0400404930114746 -1.8421956501402796 -1.6818095445632935 -1.159382240181305 1.5216293334960938 0.5480694770812988 True False
17079.333 2.03995943069458 -1.8422614536681117 -1.6817386150360107 -1.1593580406955262 1.5215809345245361 0.548049807548523 True False
17079.353 2.040008306503296 -1.8422943554320277 -1.68178129196167 -1.1593345266631623 1.5216453075408936 0.5480948686599731 True False
17079.373 2.0399911403656006 -1.8422290287413539 -1.6817768812179565 -1.1593501728824158 1.5216251611709595 0.5480858683586121 True False
17079.393 2.040015935897827 -1.8422571621336878 -1.6817961931228638 -1.1593062442592164 1.5216374397277832 0.5479947328567505 True False
17079.413 2.0399630069732666 -1.8423062763609828 -1.68180513381958 -1.1593985122493287 1.5216014385223389 0.5480573177337646 True False
17079.433 2.0399954319000244 -1.8422581158080042 -1.6818633079528809 -1.1593984824470063 1.521661639213562 0.5480573177337646 True False
17079.452999999998 2.040015935897827 -1.8422423801817835 -1.6818426847457886 -1.1593661469272156 1.5216174125671387 0.5480409264564514 True False
17079.472999999998 2.0399911403656006 -1.8422781429686488 -1.68180513381958 -1.1593904060176392 1.5216574668884277 0.5480409264564514 True False
17079.493 2.039942502975464 -1.8422867260374964 -1.6817888021469116 -1.159366176729538 1.521613359451294 0.5480948686599731 True False
17079.513 2.039937973022461 -1.8422824345030726 -1.68178129196167 -1.1593501430800934 1.5216898918151855 0.5480542778968811 True False
17079.533 2.0399749279022217 -1.8422867260374964 -1.68180513381958 -1.1593821805766602 1.5216333866119385 0.5480992794036865 True False
17079.553 2.0399587154388428 -1.8422376118102015 -1.681775689125061 -1.159398393040039 1.5216493606567383 0.5480126142501831 True False
17079.573 2.0399792194366455 -1.842264791528219 -1.6818300485610962 -1.1593142014792939 1.5216411352157593 0.5480334758758545 True False
17079.593 2.0400125980377197 -1.8422047100462855 -1.6818300485610962 -1.1593904060176392 1.5216617584228516 0.5479869246482849 True False
17079.612999999998 2.0400116443634033 -1.8422156773009242 -1.681777000427246 -1.15933449686084 1.5216293334960938 0.5480453968048096 True False
17079.632999999998 2.040020227432251 -1.8422118626036585 -1.68178129196167 -1.159358100300171 1.521653413772583 0.5479780435562134 True False
17079.653 2.0399792194366455 -1.8422867260374964 -1.6818095445632935 -1.1593903464129944 1.5216776132583618 0.5480707287788391 True False
17079.673 2.040024518966675 -1.842198988000387 -1.6817563772201538 -1.1593224567225953 1.5216054916381836 0.5480453968048096 True False
17079.693 2.0399835109710693 -1.8422123394408167 -1.681821346282959 -1.1593344670585175 1.5216411352157593 0.5480409264564514 True False
17079.713 2.0399630069732666 -1.8422075710692347 -1.6818125247955322 -1.159349964266159 1.521661639213562 0.5480948686599731 True False
17079.733 2.0399749279022217 -1.8422447643675746 -1.6818513870239258 -1.1593621534160157 1.5216251611709595 0.5480245351791382 True False
17079.753 2.0399954319000244 -1.8422166309752406 -1.6817976236343384 -1.1593821805766602 1.5216453075408936 0.5480498671531677 True False
17079.772999999997 2.0399467945098877 -1.842219968835348 -1.68180513381958 -1.1593264800361176 1.5216411352157593 0.5479869246482849 True False
17079.792999999998 2.0399303436279297 -1.8422867260374964 -1.6817963123321533 -1.159342185860016 1.5216697454452515 0.5480379462242126 True False
17079.813 2.0399587154388428 -1.8422733745970667 -1.681809425354004 -1.1593822103789826 1.5216091871261597 0.5480617880821228 True False
17079.833 2.0399954319000244 -1.8422824345030726 -1.6818008422851562 -1.1593660575202485 1.5216293334960938 0.5480573177337646 True False
17079.853 2.040020227432251 -1.8422290287413539 -1.68180513381958 -1.1593862634948273 1.5216493606567383 0.5480483174324036 True False
17079.873 2.040020227432251 -1.8422438106932582 -1.6818256378173828 -1.1593541961959382 1.5216411352157593 0.5480289459228516 True False
17079.893 2.0399587154388428 -1.8422075710692347 -1.6818008422851562 -1.159390316610672 1.5216574668884277 0.5480650067329407 True False
17079.913 2.040008306503296 -1.842227121392721 -1.68178129196167 -1.159374014740326 1.5217057466506958 0.5481067895889282 True False
17079.933 2.0400235652923584 -1.8422376118102015 -1.6818456649780273 -1.1593500834754487 1.5216411352157593 0.5480543375015259 True False
17079.952999999998 2.0399510860443115 -1.8422490559019984 -1.6818008422851562 -1.1593540769866486 1.5216091871261597 0.5480604767799377 True False
17079.972999999998 2.0400125980377197 -1.8422733745970667 -1.6818300485610962 -1.1594062012485047 1.5216453075408936 0.5480543375015259 True False
17079.993 2.0399911403656006 -1.8422290287413539 -1.681842565536499 -1.159346119766571 1.5216493606567383 0.5481067895889282 True False
17080.013 2.040015935897827 -1.842236181298727 -1.6818256378173828 -1.1593461793712159 1.5216455459594727 0.5480617880821228 True False
17080.033 2.0399911403656006 -1.842219968835348 -1.68180513381958 -1.159330592756607 1.5216411352157593 0.5480363965034485 True False
17080.053 2.040024518966675 -1.842262407342428 -1.68180513381958 -1.1592864257148285 1.5216251611709595 0.5480409264564514 True False
17080.073 2.039992094039917 -1.8422533474364222 -1.6818082332611084 -1.159358100300171 1.521625280380249 0.5480650067329407 True False
17080.093 2.040008306503296 -1.8422156773009242 -1.68180513381958 -1.159330592756607 1.521637201309204 0.5480573177337646 True False
17080.112999999998 2.0399954319000244 -1.8422447643675746 -1.6817195415496826 -1.1593500238708039 1.5216293334960938 0.5480694770812988 True False
17080.132999999998 2.0399997234344482 -1.8422357044615687 -1.68180513381958 -1.1593659979156037 1.521697759628296 0.5479992032051086 True False
17080.153 2.039975881576538 -1.84222473720693 -1.681821346282959 -1.1593226355365296 1.521661639213562 0.5480605959892273 True False
17080.173 2.0399835109710693 -1.842203279534811 -1.6817846298217773 -1.1593385201743622 1.5216453075408936 0.5480740070343018 True False
