Andreas691667/Digital_Twin_UR/src/controller_monitor/test_results/robot_output.csv
timestamp actual_q_0 actual_q_1 actual_q_2 actual_q_3 actual_q_4 actual_q_5 output_bit_register_65 output_bit_register_66
26341.025999999998 3.0255582332611084 -1.0038730067065735 1.1460579077350062 -1.7129441700377406 -1.5707767645465296 1.4547568559646606 False False
26341.046 3.0255420207977295 -1.0038936895183106 1.1460745970355433 -1.712928911248678 -1.5708006064044397 1.454765796661377 False False
26341.066 3.0255374908447266 -1.0039149087718506 1.1460416952716272 -1.7129408321776332 -1.5707805792437952 1.4547491073608398 False False
26341.086 3.0255374908447266 -1.0038817685893555 1.1460493246661585 -1.7129489384093226 -1.5707767645465296 1.4547417163848877 False False
26341.106 3.0255048274993896 -1.0038687151721497 1.1460960547076624 -1.7129093609251917 -1.5707929770099085 1.4547580480575562 False False
26341.126 3.0255048274993896 -1.0038980406573792 1.1460207144366663 -1.7129250965514125 -1.5708611647235315 1.454723834991455 False False
26341.145999999997 3.0255539417266846 -1.0039268297008057 1.1460493246661585 -1.7129603825011195 -1.5708044211017054 1.4547773599624634 False False
26341.165999999997 3.0255701541900635 -1.003844992523529 1.1460655371295374 -1.7129408321776332 -1.5707686583148401 1.4547982215881348 False False
26341.185999999998 3.0255701541900635 -1.0039483469775696 1.1460297743426722 -1.71295227626943 -1.5707362333880823 1.4547327756881714 False False
26341.206 3.0255539417266846 -1.0039522808841248 1.1460283438311976 -1.7128735981383265 -1.5707605520831507 1.4547401666641235 False False
26341.226 3.0255701541900635 -1.0038936895183106 1.1460698286639612 -1.7129012546935023 -1.5707967917071741 1.4547568559646606 False False
26341.246 3.0255539417266846 -1.0038698476604004 1.1460745970355433 -1.7129370174803675 -1.5708406607257288 1.4547580480575562 False False
26341.266 3.025538444519043 -1.0038774770549317 1.1460254828082483 -1.7129370174803675 -1.570772949849264 1.4547524452209473 False False
26341.286 3.0255701541900635 -1.0038817685893555 1.1460536162005823 -1.7129370174803675 -1.5707605520831507 1.4547773599624634 False False
26341.306 3.025567054748535 -1.003926770096161 1.146045986806051 -1.7129374943175257 -1.5708048979388636 1.454810380935669 False False
26341.325999999997 3.025545120239258 -1.0039106172374268 1.1460869948016565 -1.7128926716246546 -1.5708006064044397 1.454744577407837 False False
26341.345999999998 3.0255823135375977 -1.003910557632782 1.1460369269000452 -1.712928911248678 -1.5707805792437952 1.4547401666641235 False False
26341.365999999998 3.025583267211914 -1.0039060872844239 1.1460583845721644 -1.7129327259459437 -1.570784870778219 1.4547659158706665 False False
26341.386 3.025554895401001 -1.0038860601237793 1.146078888569967 -1.7129212818541468 -1.5708168188678187 1.4547936916351318 False False
26341.406 3.025554895401001 -1.0038600128940125 1.1460164229022425 -1.7129484615721644 -1.5707767645465296 1.4548060894012451 False False
26341.426 3.0255331993103027 -1.003918008213379 1.1460207144366663 -1.7128926716246546 -1.5707767645465296 1.4547892808914185 False False
26341.446 3.0255625247955322 -1.0039522808841248 1.1460493246661585 -1.7129975757994593 -1.5707805792437952 1.45477294921875 False False
26341.466 3.025578737258911 -1.0039109152606507 1.1460283438311976 -1.7128926716246546 -1.5707925001727503 1.454744577407837 False False
26341.485999999997 3.0255298614501953 -1.0038405817798157 1.1460536162005823 -1.7129327259459437 -1.5707967917071741 1.454744577407837 False False
26341.505999999998 3.0255420207977295 -1.003926770096161 1.1460869948016565 -1.7129494152464808 -1.5707724730121058 1.454765796661377 False False
26341.525999999998 3.0255420207977295 -1.0038362306407471 1.1460698286639612 -1.712916990319723 -1.5707648436175745 1.454761266708374 False False
26341.546 3.0255420207977295 -1.0039391678622742 1.1460960547076624 -1.712945123712057 -1.570829216633932 1.4547818899154663 False False
26341.566 3.0255744457244873 -1.003824309711792 1.146066967641012 -1.7128926716246546 -1.5708254019366663 1.4547311067581177 False False
26341.586 3.0255420207977295 -1.0039191407016297 1.1461032072650355 -1.7129370174803675 -1.5708406607257288 1.4547703266143799 False False
26341.606 3.0255463123321533 -1.0039222997478028 1.1460827032672327 -1.7129441700377406 -1.5707967917071741 1.4547773599624634 False False
26341.626 3.0255539417266846 -1.0039148491672059 1.1460626761065882 -1.712916990319723 -1.570801083241598 1.4547282457351685 False False
26341.645999999997 3.0255463123321533 -1.0038936895183106 1.1460445562945765 -1.7129088840880335 -1.570784870778219 1.4547252655029297 False False
26341.665999999997 3.0255701541900635 -1.0038730067065735 1.146078888569967 -1.7130171261229457 -1.5707843939410608 1.454765796661377 False False
26341.685999999998 3.0255582332611084 -1.0038892191699524 1.1460536162005823 -1.712900777856344 -1.570801083241598 1.4547747373580933 False False
26341.706 3.025550603866577 -1.0038698476604004 1.1460917631732386 -1.712973257104391 -1.5707929770099085 1.4547059535980225 False False
26341.726 3.0255210399627686 -1.0039148491672059 1.1460326353656214 -1.7129527531065882 -1.570723835621969 1.4548060894012451 False False
26341.746 3.0255420207977295 -1.0039352935603638 1.1460536162005823 -1.712973257104391 -1.5707486311541956 1.4547311067581177 False False
26341.766 3.0255463123321533 -1.003926770096161 1.1460912863360804 -1.712945123712057 -1.5707967917071741 1.4547982215881348 False False
26341.786 3.025545120239258 -1.0039060872844239 1.1460869948016565 -1.712945123712057 -1.570829216633932 1.4547491073608398 False False
26341.806 3.025559425354004 -1.003926770096161 1.1460536162005823 -1.712905069390768 -1.5707767645465296 1.4547936916351318 False False
26341.825999999997 3.025566816329956 -1.0038979810527344 1.1460745970355433 -1.7129370174803675 -1.5707886854754847 1.4547773599624634 False False
26341.845999999998 3.025578737258911 -1.0039060872844239 1.1460283438311976 -1.7129932842650355 -1.5707967917071741 1.454765796661377 False False
26341.865999999998 3.025534152984619 -1.003918008213379 1.1460164229022425 -1.7129970989623011 -1.5708048979388636 1.45477294921875 False False
26341.886 3.0255377292633057 -1.0038849276355286 1.1460207144366663 -1.7129088840880335 -1.5707767645465296 1.4548027515411377 False False
26341.906 3.0255539417266846 -1.003926770096161 1.1460521856891077 -1.7129293880858363 -1.5707772413836878 1.454744577407837 False False
26341.926 3.0255744457244873 -1.0038612645915528 1.1460655371295374 -1.7129126987852992 -1.5707805792437952 1.4547535181045532 False False
26341.946 3.0255539417266846 -1.0038525623134156 1.1461032072650355 -1.712905069390768 -1.570801083241598 1.4547773599624634 False False
26341.966 3.0255701541900635 -1.0038331311992188 1.1460326353656214 -1.7129408321776332 -1.570784870778219 1.454784870147705 False False
26341.985999999997 3.025538444519043 -1.0038817685893555 1.1460374037372034 -1.7129088840880335 -1.5708373228656214 1.4547773599624634 False False
26342.005999999998 3.02555513381958 -1.003919617538788 1.1460564772235315 -1.7129408321776332 -1.5708254019366663 1.4547818899154663 False False
26342.025999999998 3.025554895401001 -1.0039107364467164 1.1460045019732874 -1.7129370174803675 -1.5708211104022425 1.4547908306121826 False False
26342.046 3.0255463123321533 -1.003851906662323 1.1460822264300745 -1.7129484615721644 -1.5707805792437952 1.45477294921875 False False
26342.066 3.025559425354004 -1.003902630215027 1.1460254828082483 -1.7129131756224574 -1.5708211104022425 1.4547059535980225 False False
26342.086 3.0255420207977295 -1.0038308662227173 1.1460698286639612 -1.7128964863219203 -1.570813004170553 1.4547491073608398 False False
26342.106 3.025583267211914 -1.0038772982409974 1.1460374037372034 -1.7129126987852992 -1.5707891623126429 1.4547433853149414 False False
26342.126 3.0255463123321533 -1.0038743180087586 1.1460493246661585 -1.7129808864989222 -1.5707724730121058 1.4547818899154663 False False
26342.145999999997 3.025550603866577 -1.0038727086833497 1.1460536162005823 -1.7128926716246546 -1.5707767645465296 1.4547401666641235 False False
26342.165999999997 3.0255539417266846 -1.0038772982409974 1.1460416952716272 -1.712916990319723 -1.570784870778219 1.454744577407837 False False
26342.185999999998 3.025566816329956 -1.0039404195598145 1.1460655371295374 -1.7129441700377406 -1.5708373228656214 1.4547311067581177 False False
26342.206 3.0255212783813477 -1.0038981598666687 1.1460579077350062 -1.7128883800902308 -1.5707967917071741 1.4547327756881714 False False
26342.226 3.0255625247955322 -1.00393499553714 1.1460698286639612 -1.7129494152464808 -1.570813004170553 1.454761266708374 False False
26342.246 3.0255420207977295 -1.0038726490787049 1.146066967641012 -1.7129565678038539 -1.5707805792437952 1.4547936916351318 False False
26342.266 3.0255377292633057 -1.0039395254901429 1.1460326353656214 -1.712928911248678 -1.5707605520831507 1.4547624588012695 False False
26342.286 3.0255744457244873 -1.0038951200297852 1.1460002104388636 -1.7128883800902308 -1.5708087126361292 1.4547747373580933 False False
26342.306 3.0255625247955322 -1.0039107364467164 1.1460445562945765 -1.7129212818541468 -1.5708168188678187 1.454765796661377 False False
26342.325999999997 3.0255582332611084 -1.0039151471904297 1.1461074987994593 -1.7129293880858363 -1.5707529226886194 1.454789400100708 False False
26342.345999999998 3.025550603866577 -1.0038727086833497 1.1460698286639612 -1.712933202783102 -1.570784870778219 1.454761266708374 False False
26342.365999999998 3.025587320327759 -1.0038682383349915 1.146083180104391 -1.7128688297667445 -1.5707524458514612 1.4547703266143799 False False
26342.386 3.0255658626556396 -1.0039151471904297 1.1460912863360804 -1.712916990319723 -1.5708044211017054 1.4547535181045532 False False
26342.406 3.025587558746338 -1.0039107364467164 1.1460579077350062 -1.7129088840880335 -1.5707529226886194 1.4547580480575562 False False
26342.426 3.0255744457244873 -1.003889099960663 1.1460779348956507 -1.7129088840880335 -1.570801083241598 1.454728126525879 False False
26342.446 3.025578737258911 -1.0039016169360657 1.1460331122027796 -1.712916990319723 -1.5707405249225062 1.454810380935669 False False
26342.466 3.0256028175354004 -1.0038862389377137 1.146078888569967 -1.7129651508727015 -1.5708048979388636 1.4547594785690308 False False
26342.485999999997 3.025578737258911 -1.0039060872844239 1.1460579077350062 -1.7129527531065882 -1.570857350026266 1.4547491073608398 False False
26342.505999999998 3.0255627632141113 -1.0038890403560181 1.1460374037372034 -1.7129370174803675 -1.5707643667804163 1.4547401666641235 False False
26342.525999999998 3.0255508422851562 -1.0039134186557312 1.1460989157306116 -1.7129408321776332 -1.5707967917071741 1.4547568559646606 False False
26342.546 3.0255582332611084 -1.0038981598666687 1.1460745970355433 -1.7129408321776332 -1.570813004170553 1.454768419265747 False False
26342.566 3.0255792140960693 -1.0039025706103821 1.1460374037372034 -1.7129212818541468 -1.5708091894732874 1.454762578010559 False False
26342.586 3.0255508422851562 -1.003931538467743 1.1460493246661585 -1.7129370174803675 -1.5707686583148401 1.4547524452209473 False False
26342.606 3.025571584701538 -1.0038925570300599 1.1461032072650355 -1.7129246197142542 -1.570784870778219 1.4547491073608398 False False
26342.626 3.0255701541900635 -1.0039060872844239 1.1460579077350062 -1.7129527531065882 -1.5707686583148401 1.4547282457351685 False False
26342.645999999997 3.0255134105682373 -1.0039359492114563 1.1460698286639612 -1.7129565678038539 -1.5707925001727503 1.4547863006591797 False False
26342.665999999997 3.0255701541900635 -1.0039025706103821 1.1460374037372034 -1.712933202783102 -1.5707810560809534 1.454765796661377 False False
26342.685999999998 3.0255086421966553 -1.003919617538788 1.1460712591754358 -1.7129494152464808 -1.5707724730121058 1.4547936916351318 False False
26342.706 3.0255987644195557 -1.0038697880557557 1.1460211912738245 -1.71295227626943 -1.5708168188678187 1.4547773599624634 False False
26342.726 3.0255448818206787 -1.0039107364467164 1.14606219926943 -1.7129689655699671 -1.5708211104022425 1.454765796661377 False False
26342.746 3.0255417823791504 -1.003889099960663 1.14606219926943 -1.7129250965514125 -1.5708406607257288 1.4547401666641235 False False
26342.766 3.0255792140960693 -1.0038446348956604 1.146045986806051 -1.7130090198912562 -1.5707767645465296 1.4547433853149414 False False
26342.786 3.0255463123321533 -1.0038862389377137 1.14606219926943 -1.7129408321776332 -1.570801083241598 1.4547818899154663 False False
26342.806 3.0255463123321533 -1.0038727086833497 1.1460579077350062 -1.7128969631590785 -1.5707362333880823 1.4547982215881348 False False
26342.825999999997 3.0255582332611084 -1.0039088887027283 1.1460168997394007 -1.7129370174803675 -1.5708373228656214 1.45477294921875 False False
26342.845999999998 3.0255746841430664 -1.0038981598666687 1.1460374037372034 -1.712973257104391 -1.5707686583148401 1.4547193050384521 False False
26342.865999999998 3.0255417823791504 -1.0038936895183106 1.1460493246661585 -1.712973257104391 -1.5707772413836878 1.4547536373138428 False False
26342.886 3.0255746841430664 -1.0038846296123047 1.1460374037372034 -1.7128883800902308 -1.570813004170553 1.4547703266143799 False False
26342.906 3.0255537033081055 -1.0039270681193848 1.1460493246661585 -1.7129088840880335 -1.570784870778219 1.45477294921875 False False
26342.926 3.0255792140960693 -1.003918008213379 1.1460664908038538 -1.712940355340475 -1.5707805792437952 1.4547703266143799 False False
26342.946 3.0255537033081055 -1.0038817685893555 1.1460655371295374 -1.7129565678038539 -1.5707843939410608 1.454761266708374 False False
26342.966 3.0255582332611084 -1.0038699072650452 1.1460288206683558 -1.7129527531065882 -1.5708087126361292 1.4547982215881348 False False
26342.985999999997 3.0255417823791504 -1.0039359492114563 1.1460569540606897 -1.712916990319723 -1.5707767645465296 1.4547401666641235 False False
26343.005999999998 3.025517702102661 -1.0038817685893555 1.1460126082049769 -1.7129088840880335 -1.570829216633932 1.4547996520996094 False False
26343.025999999998 3.025555372238159 -1.0038591784289856 1.146050278340475 -1.7129212818541468 -1.5707929770099085 1.454707384109497 False False
26343.046 3.025534152984619 -1.0038817685893555 1.146045986806051 -1.7129608593382777 -1.5707805792437952 1.4547892808914185 False False
26343.066 3.0255656242370605 -1.003860966568329 1.146074120198385 -1.712928911248678 -1.570813004170553 1.4547207355499268 False False
26343.086 3.0255582332611084 -1.0039151471904297 1.1460536162005823 -1.7129527531065882 -1.570801083241598 1.454711675643921 False False
26343.106 3.025583505630493 -1.0039240282825013 1.1460416952716272 -1.7129408321776332 -1.570784870778219 1.454761266708374 False False
26343.145999999997 3.0256001949310303 -1.003886179333069 1.146074120198385 -1.7128969631590785 -1.5708254019366663 1.4547773599624634 False False
26343.165999999997 3.0255208015441895 -1.0038697284511109 1.1460664908038538 -1.7129408321776332 -1.5707925001727503 1.454728126525879 False False
26343.185999999998 3.0255088806152344 -1.0038846296123047 1.14606219926943 -1.712905069390768 -1.570756737385885 1.4547818899154663 False False
26343.206 3.0255537033081055 -1.003860966568329 1.1460579077350062 -1.7129126987852992 -1.5707886854754847 1.454761266708374 False False
26343.226 3.0255837440490723 -1.0038445752910157 1.1460536162005823 -1.7129408321776332 -1.5707767645465296 1.4547568559646606 False False
26343.246 3.0255417823791504 -1.003897027378418 1.1460254828082483 -1.7129484615721644 -1.5707891623126429 1.45477294921875 False False
26343.266 3.025522232055664 -1.0038772982409974 1.1460450331317347 -1.7129608593382777 -1.5708254019366663 1.454744577407837 False False
26343.286 3.0255746841430664 -1.003919617538788 1.146034065877096 -1.7129408321776332 -1.5708211104022425 1.454761266708374 False False
26343.306 3.0255792140960693 -1.003948525791504 1.1460450331317347 -1.7128964863219203 -1.5707686583148401 1.4547568559646606 False False
26343.325999999997 3.0255565643310547 -1.003919617538788 1.1460374037372034 -1.7129293880858363 -1.5707891623126429 1.454744577407837 False False
26343.345999999998 3.0255627632141113 -1.0039114517024537 1.1460955778705042 -1.7128964863219203 -1.5707967917071741 1.4547773599624634 False False
26343.365999999998 3.025513172149658 -1.0039270681193848 1.1460536162005823 -1.7128926716246546 -1.5707925001727503 1.4548027515411377 False False
26343.386 3.0255582332611084 -1.0038890403560181 1.146052662526266 -1.7129370174803675 -1.5707767645465296 1.4547747373580933 False False
26343.406 3.025588035583496 -1.003889099960663 1.1460779348956507 -1.7129608593382777 -1.5708087126361292 1.4547773599624634 False False
26343.426 3.025555372238159 -1.0039025706103821 1.1460493246661585 -1.7129408321776332 -1.5708044211017054 1.4547312259674072 False False
26343.446 3.0255792140960693 -1.0039106768420716 1.1460579077350062 -1.7128969631590785 -1.5707972685443323 1.4547863006591797 True False
26343.466 3.0255582332611084 -1.0039359492114563 1.1460579077350062 -1.7129293880858363 -1.570772949849264 1.4547936916351318 True False
26343.485999999997 3.025501251220703 -1.0039484661868592 1.1460493246661585 -1.7129212818541468 -1.5707805792437952 1.4548224210739136 True False
26343.505999999998 3.025529623031616 -1.003878728752472 1.1460655371295374 -1.7129250965514125 -1.5707805792437952 1.4548059701919556 True False
26343.525999999998 3.0255253314971924 -1.0038936895183106 1.1460655371295374 -1.7129408321776332 -1.570784870778219 1.4547892808914185 True False
26343.546 3.0255417823791504 -1.0038563174060364 1.1460049788104456 -1.7129370174803675 -1.570801083241598 1.4547327756881714 True False
26343.566 3.0255627632141113 -1.0039017361453553 1.1460536162005823 -1.7129608593382777 -1.5708168188678187 1.4547773599624634 True False
26343.586 3.0255746841430664 -1.0039359492114563 1.1460536162005823 -1.7129327259459437 -1.5707805792437952 1.4547892808914185 True False
26343.606 3.025522232055664 -1.0038563174060364 1.1460655371295374 -1.7129131756224574 -1.5707967917071741 1.454744577407837 True False
26343.626 3.0255417823791504 -1.0038981598666687 1.146050278340475 -1.7129327259459437 -1.5708048979388636 1.4547163248062134 True False
26343.645999999997 3.025534152984619 -1.0039151471904297 1.146107021962301 -1.712905069390768 -1.5707767645465296 1.4547401666641235 True False
26343.665999999997 3.0255205631256104 -1.0038817685893555 1.1460579077350062 -1.712900777856344 -1.5708254019366663 1.4547970294952393 True False
26343.685999999998 3.025529623031616 -1.0038936895183106 1.1460288206683558 -1.7129131756224574 -1.5707967917071741 1.4547818899154663 True False
26343.706 3.0255463123321533 -1.0038890403560181 1.1460493246661585 -1.7129527531065882 -1.570801083241598 1.454744577407837 True False
26343.726 3.0255417823791504 -1.0038907092860718 1.1460006872760218 -1.7128883800902308 -1.5707929770099085 1.4547524452209473 True False
26343.746 3.0254878997802734 -1.0038818281940003 1.1460135618792933 -1.7129212818541468 -1.5708048979388636 1.4547311067581177 True False
26343.766 3.0255284309387207 -1.0038936299136658 1.1460822264300745 -1.712905069390768 -1.5707724730121058 1.4547477960586548 True False
26343.786 3.0255746841430664 -1.003902630215027 1.1460288206683558 -1.7129174671568812 -1.5708087126361292 1.4547491073608398 True False
26343.806 3.0255208015441895 -1.0039196771434327 1.1460493246661585 -1.7128883800902308 -1.5708087126361292 1.4547282457351685 True False
26343.825999999997 3.0255792140960693 -1.0039441746524354 1.1460865179644983 -1.7129608593382777 -1.570784870778219 1.454695463180542 True False
26343.845999999998 3.0255417823791504 -1.0039531153491517 1.1460493246661585 -1.7129970989623011 -1.5708335081683558 1.4546149969100952 True False
26343.865999999998 3.0254998207092285 -1.0038772982409974 1.1460579077350062 -1.712973257104391 -1.5708168188678187 1.45477294921875 True False
26343.886 3.025529623031616 -1.0038371247104187 1.1460545698748987 -1.7129246197142542 -1.5707886854754847 1.4547357559204102 True False
26343.906 3.0255792140960693 -1.003902630215027 1.1460908094989222 -1.712905069390768 -1.570813004170553 1.4546656608581543 True False
26343.926 3.0255508422851562 -1.003875510101654 1.146024529133932 -1.7128964863219203 -1.5707605520831507 1.454746127128601 True False
26343.946 3.025513172149658 -1.0038355153850098 1.1460569540606897 -1.7129212818541468 -1.5707724730121058 1.4547117948532104 True False
26343.966 3.0255463123321533 -1.0038609069636841 1.1460374037372034 -1.712905069390768 -1.5707967917071741 1.4547803401947021 True False
26343.985999999997 3.0255463123321533 -1.0038682383349915 1.1460006872760218 -1.7129770718016566 -1.5708168188678187 1.454761266708374 True False
26344.005999999998 3.0255446434020996 -1.0038890403560181 1.1460779348956507 -1.712928911248678 -1.5708087126361292 1.4547803401947021 True False
26344.025999999998 3.0255250930786133 -1.0038281840137024 1.1460092703448694 -1.7129441700377406 -1.5708087126361292 1.454765796661377 True False
26344.046 3.0255627632141113 -1.003919617538788 1.146050278340475 -1.7129651508727015 -1.570813004170553 1.4547982215881348 True False
26344.066 3.0254788398742676 -1.0038727086833497 1.1460493246661585 -1.7129131756224574 -1.570829216633932 1.4547491073608398 True False
26344.086 3.024996042251587 -1.003918008213379 1.1460326353656214 -1.7129250965514125 -1.570784870778219 1.4547908306121826 True False
26344.106 3.023960828781128 -1.0039530557445069 1.1460827032672327 -1.7129131756224574 -1.5708044211017054 1.4548864364624023 True False
26344.126 3.0223634243011475 -1.0039559763721009 1.1460655371295374 -1.7129608593382777 -1.5707967917071741 1.4550893306732178 True False
26344.145999999997 3.020106554031372 -1.003921465282776 1.1461389700519007 -1.7129727802672328 -1.5707972685443323 1.4553983211517334 True False
26344.165999999997 3.017223834991455 -1.003925935631134 1.1462534109698694 -1.7129408321776332 -1.570756737385885 1.4557397365570068 True False
26344.185999999998 3.0137507915496826 -1.0039303463748475 1.1463492552386683 -1.7129527531065882 -1.570813004170553 1.456111192703247 True False
26344.206 3.009852170944214 -1.0040098589709778 1.1464131514178675 -1.7130605183043421 -1.5707724730121058 1.4565471410751343 True False
26344.226 3.005523681640625 -1.0040954512408753 1.1464961210833948 -1.7130962810912074 -1.5707405249225062 1.4571051597595215 True False
26344.246 3.000476837158203 -1.0042015475085755 1.146705452595846 -1.7131568394102992 -1.5707925001727503 1.4576377868652344 True False
26344.266 2.9948551654815674 -1.0042973917773743 1.1467717329608362 -1.713219781915182 -1.5708254019366663 1.458289384841919 True False
26344.286 2.988783597946167 -1.0045029681972046 1.1469643751727503 -1.7133318386473597 -1.5707686583148401 1.4590801000595093 True False
26344.306 2.982053756713867 -1.0046499532512208 1.147156063710348 -1.7133361301817835 -1.5707925001727503 1.4597784280776978 True False
26344.325999999997 2.9747719764709473 -1.0048499268344422 1.1474064032184046 -1.713407655755514 -1.5708048979388636 1.4606826305389404 True False
26344.345999999998 2.9669952392578125 -1.0049113196185608 1.14758807817568 -1.7134472332396449 -1.570772949849264 1.4615894556045532 True False
26344.365999999998 2.9586641788482666 -1.0050546687892457 1.147848908101217 -1.7135468922057093 -1.5708091894732874 1.4625344276428223 True False
26344.386 2.9496865272521973 -1.0051778119853516 1.1480687300311487 -1.7136746845641078 -1.570723835621969 1.4636204242706299 True False
26344.406 2.9401979446411133 -1.005395309334137 1.148292366658346 -1.7137910328307093 -1.5707886854754847 1.4647125005722046 True False
26344.426 2.930351734161377 -1.0055735868266602 1.1485465208636683 -1.7138987980284632 -1.570829216633932 1.465926170349121 True False
26344.446 2.9196622371673584 -1.0058245819858094 1.148858372365133 -1.7139541111388148 -1.5707891623126429 1.4671610593795776 True False
26344.466 2.908313274383545 -1.0059291285327454 1.1491177717791956 -1.7141138515868128 -1.5707805792437952 1.4684735536575317 True False
26344.485999999997 2.896735429763794 -1.006136493091919 1.1494577566729944 -1.7142611942686976 -1.5708211104022425 1.4697856903076172 True False
26344.505999999998 2.884559392929077 -1.0063263934901734 1.1498201529132288 -1.714353700677389 -1.5707362333880823 1.4711822271347046 True False
26344.525999999998 2.871601104736328 -1.0065004986575623 1.1501567999469202 -1.7145210705199183 -1.5707925001727503 1.4727696180343628 True False
26344.546 2.8582699298858643 -1.006786660557129 1.1505544821368616 -1.7145887813963832 -1.5707443396197718 1.4742597341537476 True False
26344.566 2.8442702293395996 -1.007028416996338 1.1509211699115198 -1.7147399387755335 -1.570801083241598 1.4759714603424072 True False
26344.586 2.829866647720337 -1.0072534841350098 1.1513407866107386 -1.7148715458311976 -1.5707605520831507 1.4775649309158325 True False
26344.606 2.8147192001342773 -1.0075177115252991 1.151748005543844 -1.7150188885130824 -1.5707925001727503 1.4793182611465454 True False
26344.626 2.7991554737091064 -1.0077331823161622 1.1521185080157679 -1.7152186832823695 -1.570784870778219 1.4811586141586304 True False
26344.645999999997 2.7829744815826416 -1.0081037443927308 1.1526005903827112 -1.7153660259642542 -1.5708325544940394 1.4830821752548218 True False
26344.665999999997 2.7661380767822266 -1.0083075326732178 1.1531193892108362 -1.7155457935728968 -1.5707686583148401 1.485018014907837 True False
26344.685999999998 2.7489173412323 -1.0086044830134888 1.1535609404193323 -1.7156850300230921 -1.5708048979388636 1.4870437383651733 True False
26344.706 2.731077194213867 -1.0089135330966492 1.1540287176715296 -1.7158123455443324 -1.5707486311541956 1.4891499280929565 True False
26344.726 2.712588310241699 -1.0092162650874634 1.154569451008932 -1.7160564861693324 -1.5707886854754847 1.491347074508667 True False
26344.746 2.6936450004577637 -1.0095482033542176 1.1550057570086878 -1.7162076435484828 -1.5708335081683558 1.4934700727462769 True False
26344.766 2.674158811569214 -1.009883777504303 1.1555264631854456 -1.7164436779417933 -1.570784870778219 1.4957914352416992 True False
26344.786 2.6540277004241943 -1.0102939170650025 1.1560872236834925 -1.7166186771788539 -1.570801083241598 1.4982022047042847 True False
26344.806 2.6333370208740234 -1.0106035631946106 1.1566160360919397 -1.716830392877096 -1.5707886854754847 1.5005629062652588 True False
26344.825999999997 2.612380266189575 -1.0110613864711304 1.1572464148150843 -1.7170340023436488 -1.5708282629596155 1.5029444694519043 True False
26344.845999999998 2.591517686843872 -1.0113312763026734 1.1578100363360804 -1.7172695598998011 -1.570813004170553 1.5054056644439697 True False
26344.865999999998 2.5706160068511963 -1.0117487472346802 1.1583669821368616 -1.7174092731871546 -1.5707967917071741 1.507901906967163 True False
26344.886 2.549579620361328 -1.0120949310115357 1.1589263121234339 -1.7176395855345667 -1.570796314870016 1.5102996826171875 True False
26344.906 2.528660535812378 -1.0124762815288086 1.159485165272848 -1.717856069604391 -1.5708168188678187 1.5127677917480469 True False
26344.926 2.507737398147583 -1.0127881330302735 1.1601365248309534 -1.718022962609762 -1.5708087126361292 1.515125036239624 True False
26344.946 2.4868855476379395 -1.0131322306445618 1.1607120672809046 -1.7182179890074671 -1.570869270955221 1.5176513195037842 True False
26344.966 2.465857982635498 -1.0135137003711243 1.1612513701068323 -1.7184697590269984 -1.5708254019366663 1.5200506448745728 True False
26344.985999999997 2.444929361343384 -1.013823227291443 1.1618612448321741 -1.718733926812643 -1.5707805792437952 1.522628903388977 True False
26345.005999999998 2.4240057468414307 -1.0141857427409668 1.1623461882220667 -1.718884607354635 -1.5708487669574183 1.524949312210083 True False
26345.025999999998 2.4030237197875977 -1.0146005314639588 1.1629398504840296 -1.719060560266012 -1.570829216633932 1.5274587869644165 True False
26345.046 2.382077693939209 -1.0149530333331604 1.1634700934039515 -1.7193762264647425 -1.57074481645693 1.5298923254013062 True False
26345.066 2.361138343811035 -1.0153369468501587 1.1640437285052698 -1.719466348687643 -1.5707925001727503 1.5323455333709717 True False
26345.086 2.340195655822754 -1.015594558124878 1.1645906607257288 -1.7197109661498011 -1.5707805792437952 1.53475821018219 True False
26345.106 2.3192076683044434 -1.016042785053589 1.1651795546161097 -1.7198659382262171 -1.5707891623126429 1.5372154712677002 True False
26345.126 2.29826283454895 -1.0163899821094056 1.165788475667135 -1.7201248608031214 -1.570756737385885 1.5396775007247925 True False
26345.145999999997 2.2773609161376953 -1.0167969030192872 1.1663368383990687 -1.7202922306456507 -1.5707686583148401 1.5420349836349487 True False
26345.165999999997 2.2563788890838623 -1.0171520870975037 1.1669138113604944 -1.7205239735045375 -1.5708373228656214 1.5445585250854492 True False
26345.185999999998 2.235388994216919 -1.0174777072719117 1.1675265471087855 -1.7207309208311976 -1.5708168188678187 1.5470013618469238 True False
26345.206 2.2144553661346436 -1.0178173345378418 1.168046776448385 -1.7209350071349085 -1.5707767645465296 1.549514651298523 True False
26345.226 2.1935641765594482 -1.0181855720332642 1.1686175505267542 -1.721166273156637 -1.5707967917071741 1.551920771598816 True False
26345.246 2.1726458072662354 -1.0185963672450562 1.1691516081439417 -1.7213818035521449 -1.570756737385885 1.5543800592422485 True False
26345.266 2.151606559753418 -1.0189603132060547 1.1697090307818812 -1.7216135464110316 -1.5708087126361292 1.556778073310852 True False
26345.286 2.130732774734497 -1.019301490192749 1.1702502409564417 -1.7217761478819789 -1.5707529226886194 1.5592204332351685 True False
26345.306 2.109787702560425 -1.0196970862201233 1.170795742665426 -1.7219883404173792 -1.570813004170553 1.5616618394851685 True False
26345.325999999997 2.088805913925171 -1.019982175236084 1.1713817755328577 -1.7221905193724574 -1.57074481645693 1.564095377922058 True False
26345.345999999998 2.067959785461426 -1.0204019111445923 1.1719968954669397 -1.7224275074400843 -1.570756737385885 1.566530704498291 True False
26345.365999999998 2.0469839572906494 -1.0207160276225586 1.1725037733661097 -1.7226549587645472 -1.5708211104022425 1.5689935684204102 True False
26345.386 2.0260205268859863 -1.0210929077914734 1.1730764547931116 -1.7228509388365687 -1.5707605520831507 1.5714784860610962 True False
26345.406 2.0050601959228516 -1.0215183657458802 1.1736982504474085 -1.7230249843993128 -1.5708168188678187 1.5738462209701538 True False
26345.426 1.9841488599777222 -1.0217935603908082 1.1742518583880823 -1.723180433312887 -1.570716683064596 1.5763695240020752 True False
26345.446 1.9631587266921997 -1.0221261543086548 1.1748717466937464 -1.7234937153258265 -1.570784870778219 1.5787256956100464 True False
26345.466 1.9421954154968262 -1.0225126308253785 1.1754654089557093 -1.7236319981017054 -1.5707767645465296 1.5811831951141357 True False
26345.485999999997 1.9212454557418823 -1.0228685301593323 1.1759780089007776 -1.7238270244994105 -1.5707648436175745 1.5837229490280151 True False
26345.505999999998 1.9003552198410034 -1.0232383769801636 1.1764877478228968 -1.7240544758238734 -1.5707686583148401 1.5861116647720337 True False
26345.525999999998 1.8793950080871582 -1.0236069721034546 1.177082363759176 -1.7242218456664027 -1.5707529226886194 1.5885961055755615 True False
26345.546 1.8585143089294434 -1.023964301948883 1.1776164213763636 -1.7245022259154261 -1.5707805792437952 1.5911176204681396 True False
26345.566 1.8375672101974487 -1.0242954653552552 1.1781795660602015 -1.7245961628355921 -1.5707605520831507 1.5934382677078247 True False
26345.586 1.8165678977966309 -1.0246857565692444 1.1787522474872034 -1.7248603306212367 -1.570784870778219 1.5959426164627075 True False
26345.606 1.795725703239441 -1.0250585240176697 1.1793683210956019 -1.7250477276244105 -1.5707524458514612 1.598381757736206 True False
26345.626 1.7745864391326904 -1.0253999394229432 1.179967228566305 -1.725278993646139 -1.570833985005514 1.6008073091506958 True False
26345.645999999997 1.7537856101989746 -1.0257236522487183 1.180457894002096 -1.7255555591978968 -1.5707767645465296 1.6031639575958252 True False
26345.665999999997 1.7328075170516968 -1.0260710281184693 1.1811063925372522 -1.7256819210448207 -1.5707929770099085 1.6056936979293823 True False
26345.685999999998 1.711890697479248 -1.026426450615265 1.18168813387026 -1.725917478600973 -1.5707357565509241 1.608130931854248 True False
26345.706 1.6908745765686035 -1.0269233745387574 1.182185475026266 -1.7261620960631312 -1.570801083241598 1.6106071472167969 True False
26345.726 1.6700161695480347 -1.0272926849177857 1.1826995054828089 -1.7263313732542933 -1.5708406607257288 1.612964153289795 True False
26345.746 1.6489886045455933 -1.0276411336711426 1.1833303610431116 -1.726527830163473 -1.5707610289203089 1.6154955625534058 True False
26345.766 1.628033995628357 -1.0279359978488465 1.1838224569903772 -1.7267514667906703 -1.5708211104022425 1.6179149150848389 True False
26345.786 1.6071630716323853 -1.0282817047885437 1.1843960920916956 -1.726983209649557 -1.5708168188678187 1.6203417778015137 True False
26345.806 1.58614182472229 -1.0287146729281922 1.184946362172262 -1.7271138630309046 -1.5708168188678187 1.6228208541870117 True False
26345.825999999997 1.5651612281799316 -1.029039279823639 1.1855772177325647 -1.727316518823141 -1.5707557837115687 1.625278115272522 True False
26345.845999999998 1.544256329536438 -1.0293082159808655 1.1861751715289515 -1.727560659448141 -1.570829216633932 1.6277203559875488 True False
26345.865999999998 1.5233349800109863 -1.0296753209880372 1.186732594166891 -1.7277118168272914 -1.5708254019366663 1.6301041841506958 True False
26345.886 1.5024162530899048 -1.030135528450348 1.1873038450824183 -1.7280198536314906 -1.5707686583148401 1.632590889930725 True False
26345.906 1.4815328121185303 -1.0304657977870484 1.1878941694842737 -1.7281385860838832 -1.570829216633932 1.634985327720642 True False
26345.926 1.4605655670166016 -1.0308059018901368 1.1884473005877894 -1.7283865414061488 -1.5707805792437952 1.637477993965149 True False
26345.946 1.4395560026168823 -1.0311390918544312 1.189040486012594 -1.7286020718016566 -1.5707367102252405 1.6399260759353638 True False
26345.966 1.4186642169952393 -1.0315074485591431 1.1896193663226526 -1.7288571796812953 -1.5707843939410608 1.6423343420028687 True False
26345.985999999997 1.3977066278457642 -1.0318793815425416 1.1901572386371058 -1.7290412388243617 -1.5708172957049769 1.6448380947113037 True False
26346.005999999998 1.3767578601837158 -1.03231497228656 1.1907194296466272 -1.7292729816832484 -1.570801083241598 1.647276520729065 True False
26346.025999999998 1.3557556867599487 -1.032670871620514 1.1912854353534144 -1.7294870815672816 -1.5707719961749476 1.6496831178665161 True False
26346.046 1.334871530532837 -1.0329917830279847 1.191883389149801 -1.7296797237791957 -1.5707686583148401 1.6521929502487183 True False
26346.066 1.3139594793319702 -1.0333277744105835 1.1924365202533167 -1.7298623524107875 -1.5707686583148401 1.6546069383621216 True False
26346.086 1.2929719686508179 -1.0336842697909852 1.1930244604693812 -1.7300287685790003 -1.5707767645465296 1.6570111513137817 True False
26346.106 1.2720805406570435 -1.0340309900096436 1.1935532728778284 -1.730298181573385 -1.5707805792437952 1.6595304012298584 True False
26346.126 1.2510737180709839 -1.0344854158214112 1.1941259543048304 -1.7304445705809535 -1.570784870778219 1.6619536876678467 True False
26346.145999999997 1.2301877737045288 -1.0347249668887635 1.1947296301471155 -1.730696817437643 -1.5707886854754847 1.6643985509872437 True False
26346.165999999997 1.2092931270599365 -1.0351227086833497 1.195294205342428 -1.7308269939818324 -1.570784870778219 1.666805386543274 True False
26346.185999999998 1.1881824731826782 -1.035501555805542 1.1958816687213343 -1.7310873470702113 -1.5707605520831507 1.6693096160888672 True False
26346.206 1.1672940254211426 -1.0358430308154603 1.1963780562030237 -1.7312985859312953 -1.5708492437945765 1.6717392206192017 True False
26346.226 1.1464273929595947 -1.0362584155849 1.1969030539142054 -1.731490274468893 -1.5708172957049769 1.6741230487823486 True False
26346.246 1.1253414154052734 -1.0366321963122864 1.1975024382220667 -1.7316528759398402 -1.5707605520831507 1.6765955686569214 True False
26346.266 1.1044487953186035 -1.0368833106807251 1.198089901600973 -1.7319003544249476 -1.5708087126361292 1.679015874862671 True False
26346.286 1.0834884643554688 -1.0372265738299866 1.1986172834979456 -1.7320763073363246 -1.570824925099508 1.6814483404159546 True False
26346.306 1.062606692314148 -1.0376411837390442 1.19926625887026 -1.7322756252684535 -1.5708006064044397 1.6839215755462646 True False
26346.325999999997 1.0417733192443848 -1.0379763406566163 1.1998117605792444 -1.7325316868224085 -1.5707925001727503 1.6864358186721802 True False
26346.345999999998 1.020735263824463 -1.0383611482432862 1.20034104982485 -1.7327586613097132 -1.570801083241598 1.6888487339019775 True False
26346.365999999998 0.9997707605361938 -1.0387852948955079 1.2009103933917444 -1.7329379520811976 -1.5707891623126429 1.691245198249817 True False
26346.386 0.9787812829017639 -1.0390958350947876 1.2015188376056116 -1.7332021198668421 -1.5708931128131312 1.6937133073806763 True False
26346.406 0.9579215049743652 -1.0394241374782105 1.202066723500387 -1.7333084545531214 -1.570784870778219 1.6961220502853394 True False
26346.426 0.9369209408760071 -1.039809839134552 1.2025964895831507 -1.7335244617857875 -1.5707886854754847 1.698607325553894 True False
26346.446 0.9160103797912598 -1.0401544731906434 1.2032211462603968 -1.73378386119985 -1.570829216633932 1.7010565996170044 True False
26346.466 0.8949836492538452 -1.040502981548645 1.2037180105792444 -1.7339707813658656 -1.5707648436175745 1.7034269571304321 True False
26346.485999999997 0.8740726113319397 -1.0408639472774048 1.2042425314532679 -1.7341424427428187 -1.5707967917071741 1.7059255838394165 True False
26346.505999999998 0.8531847596168518 -1.0412235420993348 1.204829517995016 -1.7344137630858363 -1.5707967917071741 1.708382248878479 True False
26346.525999999998 0.8322221636772156 -1.0416709345630188 1.2054155508624476 -1.73460116008901 -1.5707767645465296 1.7108100652694702 True False
26346.546 0.811258852481842 -1.041944996719696 1.2059763113604944 -1.7347561321654261 -1.5708168188678187 1.7132110595703125 True False
26346.566 0.7903369069099426 -1.0423801702312012 1.206578556691305 -1.735016485253805 -1.5707929770099085 1.7157230377197266 True False
26346.586 0.7694125771522522 -1.0427414339831849 1.2071822325335901 -1.73521151165151 -1.5707925001727503 1.718233585357666 True False
26346.606 0.7484084367752075 -1.0431921643069764 1.2077024618731897 -1.7354113064207972 -1.5707805792437952 1.7206066846847534 True False
26346.626 0.7275118231773376 -1.0434910219958802 1.20831805864443 -1.7356258831419886 -1.5708125273333948 1.7230180501937866 True False
26346.645999999997 0.7066195011138916 -1.0437948864749451 1.2089117209063929 -1.7358695469298304 -1.5707562605487269 1.7255384922027588 True False
26346.665999999997 0.6855624914169312 -1.044097201233246 1.2094324270831507 -1.7360412083067835 -1.5707886854754847 1.7279008626937866 True False
26346.685999999998 0.6647062301635742 -1.0444414180568238 1.210015122090475 -1.7363130054869593 -1.5708211104022425 1.7303584814071655 True False
26346.706 0.6437855362892151 -1.0448447626880188 1.2105663458453577 -1.7364798984923304 -1.570772949849264 1.7328554391860962 True False
26346.726 0.6227734684944153 -1.0451887410930176 1.211095158253805 -1.7367202244200648 -1.5707967917071741 1.7352465391159058 True False
26346.746 0.6018373370170593 -1.0455550116351624 1.2116573492633265 -1.736870904962057 -1.5708125273333948 1.737776517868042 True False
26346.766 0.5808990597724915 -1.0459360641292115 1.21222430864443 -1.7370864353575648 -1.570829216633932 1.7401843070983887 True False
26346.786 0.5599378347396851 -1.0463046592525025 1.2128050963031214 -1.737237115899557 -1.5708525816546839 1.742650032043457 True False
26346.806 0.5390445590019226 -1.0467266601375123 1.2133644262896937 -1.7375570736327113 -1.5708006064044397 1.7450122833251953 True False
26346.825999999997 0.5181037187576294 -1.047057108288147 1.2138808409320276 -1.7376882038512171 -1.5708487669574183 1.747489333152771 True False
26346.845999999998 0.4970632493495941 -1.0473990005305787 1.2144954840289515 -1.7379728756346644 -1.5707929770099085 1.7499969005584717 True False
26346.865999999998 0.47626030445098877 -1.047697739010193 1.2151058355914515 -1.7381564579405726 -1.570829216633932 1.7524135112762451 True False
26346.886 0.4551650583744049 -1.048074559574463 1.2156708876239222 -1.7382785282530726 -1.5708335081683558 1.7548539638519287 True False
26346.906 0.4342024326324463 -1.048439936046936 1.2162626425372522 -1.7385226688780726 -1.5708048979388636 1.7573034763336182 True False
26346.926 0.4132884740829468 -1.0487594169429322 1.2168191115008753 -1.7387696705260218 -1.5708125273333948 1.7597358226776123 True False
26346.946 0.3923571705818176 -1.049190954571106 1.2173731962787073 -1.7388974628844203 -1.570784870778219 1.7621631622314453 True False
26346.966 0.3714332580566406 -1.0495475095561524 1.2179115454303187 -1.7391005955138148 -1.5707767645465296 1.7646334171295166 True False
26346.985999999997 0.3504830300807953 -1.049895243053772 1.2184746901141565 -1.7393399677672328 -1.5708368460284632 1.7669763565063477 True False
26347.005999999998 0.32953691482543945 -1.0502808851054688 1.2190354506122034 -1.7395316563048304 -1.5707805792437952 1.7694740295410156 True False
26347.025999999998 0.3086237907409668 -1.0505840343287964 1.2196086088763636 -1.7397552929320277 -1.5707529226886194 1.7719366550445557 True False
26347.046 0.2877369821071625 -1.051018552189209 1.220182243977682 -1.7399822674193324 -1.5708048979388636 1.774344563484192 True False
26347.066 0.26671719551086426 -1.0513098996928711 1.2207735220538538 -1.7402178249754847 -1.5708330313311976 1.7768216133117676 True False
26347.086 0.2457021027803421 -1.051747278576233 1.2213152090655726 -1.74035706142568 -1.5707967917071741 1.7792596817016602 True False
26347.106 0.22481875121593475 -1.0521335166743775 1.221973721181051 -1.740556379357809 -1.570772949849264 1.7816919088363647 True False
26347.126 0.20379775762557983 -1.0524400037578125 1.22253925005068 -1.740812440911764 -1.5708172957049769 1.7841322422027588 True False
26347.145999999997 0.18287386000156403 -1.0527607959559937 1.2230880896197718 -1.7409802875914515 -1.5708125273333948 1.7866332530975342 True False
26347.165999999997 0.16202135384082794 -1.053142027263977 1.223642651234762 -1.7412072620787562 -1.5708444754229944 1.789040446281433 True False
26347.185999999998 0.14109306037425995 -1.053517834549286 1.2241972128497522 -1.741406580010885 -1.5708211104022425 1.7914470434188843 True False
26347.206 0.12006204575300217 -1.0539003771594544 1.2247274557696741 -1.741605897943014 -1.5708048979388636 1.7939528226852417 True False
26347.226 0.0990888923406601 -1.0542483490756531 1.2252863089190882 -1.7418533764281214 -1.5708168188678187 1.7964520454406738 True False
26347.246 0.07828095555305481 -1.0545114439776917 1.2258713881122034 -1.7420245609679164 -1.570784870778219 1.7988405227661133 True False
26347.266 0.05722658336162567 -1.0549251598170777 1.2263920942889612 -1.7422248325743617 -1.5707610289203089 1.8013406991958618 True False
26347.286 0.036409370601177216 -1.0553275507739563 1.22699481645693 -1.7425118885436 -1.5708006064044397 1.8037431240081787 True False
26347.306 0.015404537320137024 -1.0556515020183106 1.2275765577899378 -1.7426988087096156 -1.5708087126361292 1.8061779737472534 True False
26347.325999999997 -0.005574051533834279 -1.0560087722590943 1.228121582661764 -1.7428943119444789 -1.5707967917071741 1.8086318969726562 True False
26347.345999999998 -0.026531521474019826 -1.0563980501941224 1.2287042776690882 -1.7430693111815394 -1.5707810560809534 1.811090350151062 True False
26347.365999999998 -0.04738456407655889 -1.0566875499537964 1.2292497793780726 -1.7433449230589808 -1.570824925099508 1.8134863376617432 True False
26347.386 -0.0684426466571253 -1.057164029484131 1.229851547871725 -1.7435084782042445 -1.5707691351519983 1.8159961700439453 True False
26347.406 -0.08935147920717412 -1.0574717086604615 1.2303732077227991 -1.7436920605101527 -1.570772949849264 1.8183865547180176 True False
26347.426 -0.11021835008730108 -1.0578447741321106 1.2310240904437464 -1.7439152203001917 -1.5708048979388636 1.8208141326904297 True False
26347.446 -0.13118297258485967 -1.0582332772067566 1.2315781752215784 -1.7441312275328578 -1.5707529226886194 1.8232951164245605 True False
26347.466 -0.15217096010317022 -1.0585854810527344 1.2320435682879847 -1.7443543873228968 -1.5707929770099085 1.82574462890625 True False
26347.485999999997 -0.17310935655702764 -1.0589583677104493 1.232673470173971 -1.7445537052550257 -1.5707648436175745 1.8281135559082031 True False
26347.505999999998 -0.19415837923158819 -1.0593276184848328 1.2332680861102503 -1.744721075097555 -1.5707610289203089 1.830611228942871 True False
26347.525999999998 -0.21496755281557256 -1.059673623447754 1.2337973753558558 -1.7449451885619105 -1.5707967917071741 1.83310067653656 True False
26347.546 -0.23592168489565069 -1.0599763554385682 1.23439866701235 -1.745204587975973 -1.5707648436175745 1.8355733156204224 True False
26347.566 -0.25689536729921514 -1.0603551429561158 1.2349165121661585 -1.745359560052389 -1.5707572142230433 1.8380173444747925 True False
26347.586 -0.2777970472918909 -1.0606243771365662 1.2354415098773401 -1.7454906902708949 -1.5708168188678187 1.8404266834259033 True False
26347.606 -0.29870683351625615 -1.0610674780658265 1.2360790411578577 -1.7457343540587367 -1.5707767645465296 1.8429068326950073 True False
26347.626 -0.3197587172137659 -1.0613814753345032 1.2366445700274866 -1.7459460697569789 -1.5707572142230433 1.8452861309051514 True False
26347.645999999997 -0.3406608740435999 -1.0618171256831666 1.2372878233539026 -1.746153017083639 -1.5707929770099085 1.8477511405944824 True False
26347.665999999997 -0.3615496794330042 -1.0620828431895752 1.237800423298971 -1.7464009724059046 -1.5707648436175745 1.8501838445663452 True False
26347.685999999998 -0.3826225439654749 -1.0624845784953614 1.2384040991412562 -1.7465759716429652 -1.5707767645465296 1.8526381254196167 True False
26347.706 -0.4034016768084925 -1.062908486729004 1.2389043013202112 -1.746875902215475 -1.5707886854754847 1.8550868034362793 True False
26347.726 -0.4244902769671839 -1.063301996593811 1.239474121724264 -1.747002740899557 -1.570784870778219 1.8575105667114258 True False
26347.746 -0.4454267660724085 -1.0636705321124573 1.2400520483600062 -1.7472182712950648 -1.5707410017596644 1.8599872589111328 True False
26347.766 -0.4663017431842249 -1.0640102189830323 1.2406623999225062 -1.7474256954588832 -1.5707886854754847 1.8624162673950195 True False
26347.786 -0.48722821870912725 -1.0644156497767945 1.2411959807025355 -1.7475854359068812 -1.5707767645465296 1.864872932434082 True False
26347.806 -0.5082348028766077 -1.0647153419307251 1.241770092641012 -1.7478815517821253 -1.5707491079913538 1.8673142194747925 True False
26347.825999999997 -0.5291264692889612 -1.065007523899414 1.2423632780658167 -1.7480164966978968 -1.570772949849264 1.8697807788848877 True False
26347.845999999998 -0.5501278082477015 -1.065454975967743 1.2429564634906214 -1.748235364953512 -1.5708087126361292 1.8722007274627686 True False
26347.865999999998 -0.571047608052389 -1.0657408994487305 1.2434585730182093 -1.7484632931151332 -1.5708125273333948 1.874703288078308 True False
26347.886 -0.5919540564166468 -1.0661093157580872 1.244040314351217 -1.7486659489073695 -1.5708654562579554 1.8771238327026367 True False
26347.906 -0.6129263083087366 -1.0664786261371155 1.2446020285235804 -1.7488295040526332 -1.5707810560809534 1.8795602321624756 True False
26347.926 -0.633953873311178 -1.0668771427920838 1.2451484839068812 -1.7490774593748988 -1.5707691351519983 1.8819987773895264 True False
26347.946 -0.6547735373126429 -1.0671962064555665 1.2457101980792444 -1.7493282757201136 -1.5707452932940882 1.8844352960586548 True False
26347.966 -0.6757777372943323 -1.0676061075976868 1.2462599913226526 -1.7495037517943324 -1.5707929770099085 1.8868756294250488 True False
26347.985999999997 -0.6967218557940882 -1.0679614704898377 1.246850315724508 -1.7497278652586878 -1.5707691351519983 1.8893091678619385 True False
26348.005999999998 -0.7175596396075647 -1.0683237475207825 1.2473910490619105 -1.749934812585348 -1.570772949849264 1.8917100429534912 True False
26348.025999999998 -0.7385619322406214 -1.068590299492218 1.2480128447162073 -1.7501303158202113 -1.570784870778219 1.8941609859466553 True False
26348.046 -0.7594674269305628 -1.0689607423594971 1.2485454718219202 -1.7503415546812953 -1.5707691351519983 1.8966865539550781 True False
26348.066 -0.7804678122149866 -1.069364921455719 1.2491081396686 -1.7505856953062953 -1.5708211104022425 1.8991081714630127 True False
26348.086 -0.801485840474264 -1.069836513405182 1.2497227827655237 -1.750761171380514 -1.570772949849264 1.9015895128250122 True False
26348.106 -0.8224270979510706 -1.0701162380031128 1.2503202597247522 -1.7509519062437953 -1.5707491079913538 1.904013752937317 True False
26348.126 -0.8432677427874964 -1.0704072278789063 1.2508700529681605 -1.7511879406371058 -1.5707967917071741 1.906489372253418 True False
26348.145999999997 -0.864227596913473 -1.0708052080920716 1.2514479796039026 -1.7514234981932582 -1.5707767645465296 1.9088561534881592 True False
26348.165999999997 -0.8852513472186487 -1.0711286824992676 1.251998249684469 -1.7515908680357875 -1.570801083241598 1.9113420248031616 True False
26348.185999999998 -0.9060943762408655 -1.0715072614005585 1.2525642553912562 -1.7518307171263636 -1.5707724730121058 1.9137725830078125 True False
26348.206 -0.9271529356585901 -1.0718544286540528 1.2531216780291956 -1.751948972741598 -1.5708168188678187 1.9161529541015625 True False
26348.226 -0.9479587713824671 -1.0722273153117676 1.2536538282977503 -1.752181192437643 -1.570813004170553 1.918646216392517 True False
26348.246 -0.9689915815936487 -1.0726731282523652 1.2542360464679163 -1.752392431298727 -1.5708368460284632 1.9211175441741943 True False
26348.266 -0.9899089972125452 -1.072995976810791 1.254847828541891 -1.7525636158385218 -1.5707967917071741 1.9235358238220215 True False
26348.286 -1.0109213034259241 -1.0733890694430848 1.2554333845721644 -1.7527429066100062 -1.5707805792437952 1.9260029792785645 True False
26348.306 -1.0317462126361292 -1.0737160009196778 1.2559903303729456 -1.753066202203268 -1.5707805792437952 1.9284718036651611 True False
26348.325999999997 -1.0526273886310022 -1.074080304508545 1.2565692106830042 -1.7531615696349085 -1.5707767645465296 1.9308433532714844 True False
26348.345999999998 -1.0737341086017054 -1.0743964475444336 1.2571662108050745 -1.753409048120016 -1.570772949849264 1.9333522319793701 True False
26348.365999999998 -1.0945947805987757 -1.0747640889934083 1.2577160040484827 -1.753688474694723 -1.5708087126361292 1.9358516931533813 True False
26348.386 -1.1155417601214808 -1.0751727384379883 1.2582405249225062 -1.7538558445372523 -1.5707486311541956 1.9382781982421875 True False
26348.406 -1.136526886616842 -1.075525776748993 1.2587993780719202 -1.7539907894530238 -1.570784870778219 1.9406898021697998 True False
26348.426 -1.1574557463275355 -1.0758498472026368 1.2593000570880335 -1.7542339764037074 -1.5707362333880823 1.9431570768356323 True False
26348.446 -1.1784399191485804 -1.0762506288341065 1.2598899046527308 -1.7544614277281703 -1.5708168188678187 1.945559024810791 True False
26348.466 -1.199357811604635 -1.0765454036048432 1.260461155568258 -1.7546407184996546 -1.5707648436175745 1.9479855298995972 True False
26348.485999999997 -1.2203181425677698 -1.0768407744220276 1.2610185782061976 -1.7548524341978968 -1.5708335081683558 1.950449824333191 True False
26348.505999999998 -1.2411764303790491 -1.077294723396637 1.2615802923785608 -1.7550956211485804 -1.5707772413836878 1.9528346061706543 True False
26348.525999999998 -1.2622302214251917 -1.0776707392982026 1.2621658484088343 -1.7553345165648402 -1.570784870778219 1.9553078413009644 True False
26348.546 -1.2831066290484827 -1.0780223172954102 1.2627752462970179 -1.7554780445494593 -1.5708406607257288 1.957782506942749 True False
26348.566 -1.3041041533099573 -1.0784548085979004 1.263252083455221 -1.7556973896422328 -1.5708168188678187 1.9602104425430298 True False
26348.586 -1.3249695936786097 -1.0787657064250489 1.2638633886920374 -1.7558604679503382 -1.5707925001727503 1.9626389741897583 True False
26348.606 -1.3459332625018519 -1.079094187622406 1.264406983052389 -1.7561284504332484 -1.5708168188678187 1.9651265144348145 True False
26348.626 -1.3669002691852015 -1.079455093746521 1.2650135199176233 -1.7563115559019984 -1.5707810560809534 1.9675489664077759 True False
26348.645999999997 -1.387878719960348 -1.0798073571971436 1.2656005064593714 -1.7565542660155238 -1.5707891623126429 1.9699848890304565 True False
26348.665999999997 -1.408788029347555 -1.0801504415324708 1.2660983244525355 -1.7568379841246546 -1.5708492437945765 1.9725072383880615 True False
26348.685999999998 -1.4297688643084925 -1.0805436235717316 1.2666586081134241 -1.7569252453246058 -1.5707524458514612 1.9749141931533813 True False
26348.706 -1.4507415930377405 -1.0808411103538056 1.2672432104693812 -1.7571803532042445 -1.570829216633932 1.9773423671722412 True False
26348.726 -1.4716103712665003 -1.0812423390201111 1.2678030172931116 -1.7574120960631312 -1.5708168188678187 1.9798436164855957 True False
26348.746 -1.4925640265094202 -1.081664041881897 1.2683723608600062 -1.7575513325133265 -1.5707486311541956 1.9822942018508911 True False
26348.766 -1.5135162512408655 -1.0819053512862702 1.2690208593951624 -1.7577787838377894 -1.5707686583148401 1.984692931175232 True False
26348.786 -1.5344889799701136 -1.0822742146304627 1.269581143056051 -1.7579895458617152 -1.5707605520831507 1.9871443510055542 True False
26348.806 -1.555460278187887 -1.0826671880534668 1.2701218763934534 -1.7581807575621546 -1.5707686583148401 1.9895581007003784 True False
26348.825999999997 -1.5763862768756312 -1.0830927652171631 1.270789925252096 -1.7583848438658656 -1.5708373228656214 1.9920223951339722 True False
26348.845999999998 -1.5972321669207972 -1.0834734302810212 1.2712562719928187 -1.7586280308165492 -1.5707967917071741 1.9944525957107544 True False
26348.865999999998 -1.618232552205221 -1.0837676984122773 1.2718270460711878 -1.7587954006590785 -1.570756737385885 1.9968972206115723 True False
26348.886 -1.6392033735858362 -1.0841764372638245 1.2724617163287562 -1.7590061626830042 -1.5708449522601526 1.9993703365325928 True False
26348.906 -1.6601136366473597 -1.0845159155181427 1.2729385534869593 -1.7592140636839808 -1.5708254019366663 2.001868963241577 True False
26348.926 -1.6810749212848108 -1.0849341613105317 1.2734974066363733 -1.759409090081686 -1.5707891623126429 2.0043129920959473 True False
26348.946 -1.7020099798785608 -1.0853175681880494 1.2740886847125452 -1.7596446476378382 -1.5707686583148401 2.00669002532959 True False
26348.966 -1.722867790852682 -1.0855589371970673 1.2746160666095179 -1.7598439655699671 -1.5707805792437952 2.009155750274658 True False
26348.985999999997 -1.7439726034747522 -1.0859244924834748 1.2752154509173792 -1.7600270710387171 -1.5707891623126429 2.011528491973877 True False
26349.005999999998 -1.7649181524859827 -1.086337612276413 1.2757685820208948 -1.760294576684469 -1.5707925001727503 2.0140113830566406 True False
26349.025999999998 -1.7857101599322718 -1.0867192906192322 1.276269261037008 -1.7604571781554164 -1.5708406607257288 2.0163886547088623 True False
26349.046 -1.806709114705221 -1.0870586794665833 1.2769206205951136 -1.7606288395323695 -1.5707886854754847 2.0188748836517334 True False
26349.066 -1.8277152220355433 -1.0874251288226624 1.2775152365313929 -1.7608844242491664 -1.5707524458514612 2.0212855339050293 True False
26349.086 -1.848600212727682 -1.0877749484828492 1.2780769507037562 -1.7611118755736292 -1.5707925001727503 2.023704767227173 True False
26349.106 -1.8695882002459925 -1.0880574148944397 1.2786253134356897 -1.7612468204894007 -1.5707686583148401 2.026266574859619 True False
26349.126 -1.8904736677752894 -1.088499204521515 1.2792232672320765 -1.7613979778685511 -1.5707529226886194 2.02877140045166 True False
26349.145999999997 -1.9113763014422815 -1.0887557727149506 1.279745880757467 -1.7616902790465296 -1.5707886854754847 2.0311856269836426 True False
26349.165999999997 -1.9324095884906214 -1.0891243082335968 1.2803362051593226 -1.7618962726988734 -1.5707891623126429 2.033674716949463 True False
26349.185999999998 -1.9533732573138636 -1.0895830255797883 1.2809069792376917 -1.7621003590025843 -1.570756737385885 2.03605055809021 True False
26349.206 -1.9743154684649866 -1.0899218183806916 1.2814343611346644 -1.7622953854002894 -1.5708211104022425 2.0384223461151123 True False
26349.226 -1.9952400366412562 -1.0902854365161438 1.2820294539081019 -1.7625190220274867 -1.5707767645465296 2.040940284729004 True False
26349.246 -2.016196076069967 -1.0906754595092316 1.2826150099383753 -1.7627469501891078 -1.5707529226886194 2.0433475971221924 True False
26349.266 -2.037057701741354 -1.0909741681865235 1.2831628958331507 -1.7629653416075648 -1.5707691351519983 2.0458219051361084 True False
26349.286 -2.058072868977682 -1.0913879138282319 1.2837203184710901 -1.7632175884642542 -1.5707891623126429 2.048248291015625 True False
26349.306 -2.07898980775942 -1.0917229813388367 1.284363094960348 -1.7633682690062464 -1.5707805792437952 2.0507028102874756 True False
26349.325999999997 -2.0999000708209437 -1.0920795661262055 1.2849367300616663 -1.7635752163329066 -1.570784870778219 2.0531837940216064 True False
26349.345999999998 -2.120941940938131 -1.09241138518367 1.2854579130755823 -1.7638074360289515 -1.5708335081683558 2.055558443069458 True False
26349.365999999998 -2.1418965498553675 -1.092745528822281 1.2860272566424769 -1.764033933679098 -1.5707925001727503 2.058048725128174 True False
26349.386 -2.162691895161764 -1.0930784505656739 1.2865455786334437 -1.764205118218893 -1.5708006064044397 2.060476541519165 True False
26349.406 -2.1837990919696253 -1.0935520988753815 1.287131134663717 -1.764392992059225 -1.5707925001727503 2.0629358291625977 True False
26349.426 -2.2046735922442835 -1.0939039152911683 1.2877143065081995 -1.7646480999388636 -1.5708168188678187 2.065404176712036 True False
26349.446 -2.2253721396075647 -1.09424443662677 1.2883217970477503 -1.7648149929442347 -1.5708406607257288 2.0678136348724365 True False
26349.466 -2.2456234137164515 -1.094584510927536 1.2887700239764612 -1.7650629482665003 -1.570813004170553 2.0700981616973877 True False
26349.485999999997 -2.265257183705465 -1.0948999685100098 1.2893384138690394 -1.7652021847166957 -1.570813004170553 2.07240891456604 True False
26349.505999999998 -2.2842848936664026 -1.095223681335785 1.289891544972555 -1.765409608880514 -1.5708087126361292 2.0746660232543945 True False
26349.525999999998 -2.302870575581686 -1.0956086081317444 1.2903426329242151 -1.7656051121153773 -1.5707805792437952 2.0767955780029297 True False
26349.546 -2.3208115736590784 -1.0959243339351197 1.2908461729632776 -1.7656966648497523 -1.570829216633932 2.0788357257843018 True False
26349.566 -2.338128391896383 -1.0961916905692597 1.2913296858416956 -1.765867372552389 -1.5708492437945765 2.08095645904541 True False
26349.586 -2.3550215403186243 -1.0964570802501221 1.2918017546283167 -1.7660352192320765 -1.5708211104022425 2.082937002182007 True False
26349.606 -2.3714175860034388 -1.096765623693802 1.2922800222979944 -1.7661987743773402 -1.570857350026266 2.084806442260742 True False
26349.626 -2.3870402018176478 -1.0969636005214234 1.2926576773272913 -1.766402383843893 -1.5708449522601526 2.0866312980651855 True False
26349.645999999997 -2.4022138754474085 -1.0972516697696229 1.2930892149554651 -1.7665416202940882 -1.5707925001727503 2.0884900093078613 True False
26349.665999999997 -2.4168365637408655 -1.0974643689445038 1.2934687773333948 -1.7667018375792445 -1.5708006064044397 2.090183734893799 True False
26349.685999999998 -2.430910889302389 -1.0977772635272522 1.2938287893878382 -1.7668210468687953 -1.5707643667804163 2.091750383377075 True False
26349.706 -2.4444058577166956 -1.0980132681182404 1.2941940466510218 -1.7670208416380824 -1.5707886854754847 2.093356132507324 True False
26349.726 -2.4572091738330286 -1.0982936781695862 1.2945216337787073 -1.767099996606344 -1.5707648436175745 2.094838857650757 True False
26349.746 -2.469724480305807 -1.0984452825835724 1.2948854605304163 -1.7672397098936976 -1.5707643667804163 2.096332311630249 True False
26349.766 -2.4815197626696985 -1.0985674423030396 1.295173470173971 -1.767327447930807 -1.5707805792437952 2.097717761993408 True False
26349.786 -2.4928980509387415 -1.0988159638694306 1.295492951069967 -1.7674509487547816 -1.570813004170553 2.09903883934021 True False
26349.806 -2.5034669081317347 -1.0990007680705567 1.2956984678851526 -1.7675548992552699 -1.5708325544940394 2.1002628803253174 True False
26349.825999999997 -2.5135040918933313 -1.0992101293853302 1.2960222403155726 -1.7676545582213343 -1.5707686583148401 2.1014766693115234 True False
26349.845999999998 -2.5233150164233606 -1.0993293088725586 1.296351734791891 -1.7677380047240199 -1.5708044211017054 2.102539539337158 True False
26349.865999999998 -2.532363001500265 -1.0994301003268738 1.2965691725360315 -1.7678171596922816 -1.5707967917071741 2.1036746501922607 True False
26349.886 -2.540557924901144 -1.0995924931815644 1.2967780272113245 -1.767897745172018 -1.570784870778219 2.1045949459075928 True False
26349.906 -2.548638407384054 -1.0997613233378907 1.2970159689532679 -1.7679649792113246 -1.570801083241598 2.1054956912994385 True False
26349.926 -2.556080166493551 -1.0998526972583313 1.2971795240985315 -1.7680531940855921 -1.5707886854754847 2.1064071655273438 True False
26349.946 -2.5626233259784144 -1.0999278289130707 1.2974446455584925 -1.7680846653380335 -1.5707529226886194 2.107189893722534 True False
26349.966 -2.568911377583639 -1.1000769597342988 1.2975228468524378 -1.768229146996969 -1.5708087126361292 2.1079154014587402 True False
26349.985999999997 -2.5747514406787317 -1.1002009373954316 1.2976668516742151 -1.7682444057860316 -1.5707925001727503 2.1085572242736816 True False
26350.005999999998 -2.57992393175234 -1.1003134709647675 1.2978065649615687 -1.7682844601073207 -1.5707686583148401 2.109154462814331 True False
26350.025999999998 -2.584363047276632 -1.10039837778125 1.2979710737811487 -1.76837219814443 -1.5707805792437952 2.1096603870391846 True False
26350.046 -2.5883198420154017 -1.1004499059966584 1.2980254332171839 -1.7683998546996058 -1.570772949849264 2.1101601123809814 True False
26350.066 -2.5918026606189173 -1.1004975897124787 1.2981794516192835 -1.768400331536764 -1.5707805792437952 2.110592842102051 True False
26350.086 -2.5946484247790735 -1.100562648182251 1.2982352415667933 -1.7684232197203578 -1.570784870778219 2.1108782291412354 True False
26350.106 -2.596921745930807 -1.1005732280066987 1.2982624212848108 -1.7684718571104945 -1.5707805792437952 2.1111745834350586 True False
26350.126 -2.598743263875143 -1.100556955938675 1.2983430067645472 -1.768487115899557 -1.5707767645465296 2.1113479137420654 True False
26350.145999999997 -2.6000662485705774 -1.100674496298172 1.2983177343951624 -1.7684747181334437 -1.5708168188678187 2.1114890575408936 True False
26350.165999999997 -2.600672785435812 -1.1006582838347931 1.2983868757831019 -1.7684747181334437 -1.5707805792437952 2.1115128993988037 True False
26350.185999999998 -2.600680414830343 -1.1006052655032654 1.298426930104391 -1.7685228786864222 -1.5707891623126429 2.111536741256714 True False
26350.206 -2.6006584803210657 -1.1005890530398865 1.298854176198141 -1.769257207910055 -1.5707891623126429 2.111527681350708 True False
26350.226 -2.600696627293722 -1.1003367465785523 1.2995837370501917 -1.7701746426024378 -1.5708335081683558 2.1115729808807373 True False
26350.246 -2.6006904284106653 -1.0999811154655 1.30064565340151 -1.7717019520201625 -1.5707805792437952 2.1116368770599365 True False
26350.266 -2.6006696859942835 -1.0993915659240265 1.3020685354815882 -1.773919244805807 -1.5707281271563929 2.1116206645965576 True False
26350.286 -2.600745979939596 -1.098606989984848 1.3040240446673792 -1.7764588795103968 -1.570829216633932 2.111607313156128 True False
26350.306 -2.6006935278521937 -1.0975384575179596 1.306399170552389 -1.779736658135885 -1.570801083241598 2.1116161346435547 True False
26350.325999999997 -2.600778643284933 -1.09631763518367 1.3090804258929651 -1.7835480175414027 -1.5708087126361292 2.111602783203125 True False
26350.345999999998 -2.6007118860827845 -1.0950610798648377 1.3119939009295862 -1.787973543206686 -1.570801083241598 2.111607313156128 True False
26350.365999999998 -2.6007536093341272 -1.0936566454223176 1.315610710774557 -1.792825838128561 -1.5707967917071741 2.111595392227173 True False
26350.386 -2.6007984320269983 -1.0917997819236298 1.3195684591876429 -1.798335691491598 -1.5707486311541956 2.111635446548462 True False
26350.406 -2.6007524172412317 -1.0899828535369416 1.3238924185382288 -1.8043323955931605 -1.5707648436175745 2.1116652488708496 True False
26350.426 -2.6007896105395716 -1.088065968160965 1.3283956686602991 -1.8110434017577113 -1.570784870778219 2.1116445064544678 True False
26350.446 -2.600790564213888 -1.085972474222519 1.3332770506488245 -1.8182364902892054 -1.5707529226886194 2.1116161346435547 True False
26350.466 -2.6007686297046106 -1.0836900931647797 1.3388150374041956 -1.8259183369078578 -1.570813004170553 2.111656427383423 True False
26350.485999999997 -2.60081917444338 -1.0811661642840882 1.3446291128741663 -1.834151407281393 -1.5707805792437952 2.1115550994873047 True False
26350.505999999998 -2.600847307835714 -1.0786485832980652 1.3509061972247522 -1.8430963955321253 -1.5707805792437952 2.111574411392212 True False
26350.525999999998 -2.6007984320269983 -1.0757821661284943 1.357551399861471 -1.8524629078307093 -1.5708048979388636 2.1116740703582764 True False
26350.546 -2.6008103529559534 -1.0728729230216523 1.3644469420062464 -1.8623353443541468 -1.5707529226886194 2.1115922927856445 True False
26350.566 -2.6007817427264612 -1.0697016876987 1.3717744986163538 -1.8730541668333949 -1.5707605520831507 2.1116325855255127 True False
26350.586 -2.600780789052145 -1.0664656323245545 1.379287068043844 -1.8834425411620082 -1.570772949849264 2.111578941345215 True False
26350.606 -2.6008222738849085 -1.0634567898562928 1.3865349928485315 -1.8934923611082972 -1.570784870778219 2.1116280555725098 True False
26350.626 -2.6007524172412317 -1.060545877819397 1.393029514943258 -1.9030119381346644 -1.5707810560809534 2.111595392227173 True False
26350.645999999997 -2.600792948399679 -1.058151976471283 1.399104420338766 -1.9120522938170375 -1.5708211104022425 2.1116442680358887 True False
26350.665999999997 -2.6007731596576136 -1.0556245011142273 1.4049132505999964 -1.9202262363829554 -1.5707686583148401 2.1115922927856445 True False
26350.685999999998 -2.6007731596576136 -1.0532618325999756 1.4106319586383265 -1.9280630550780238 -1.5707891623126429 2.1115922927856445 True False
26350.706 -2.6008101145373743 -1.0511430662921448 1.4157479445086878 -1.9352742634215296 -1.570772949849264 2.111598253250122 True False
26350.726 -2.600813690816061 -1.049151675110199 1.4203727881061 -1.9421082935728968 -1.5707486311541956 2.111578941345215 True False
26350.746 -2.6008015314685267 -1.0473258656314393 1.424570385609762 -1.9481879673399867 -1.5707767645465296 2.111639976501465 True False
26350.766 -2.6008058230029505 -1.0457208317569275 1.4284799734698694 -1.9536577663817347 -1.5707648436175745 2.1116456985473633 True False
26350.786 -2.6008015314685267 -1.0441957873157044 1.432037655507223 -1.9587065182127894 -1.5707805792437952 2.1115880012512207 True False
26350.806 -2.6008179823504847 -1.042835072880127 1.4350269476519983 -1.9630676708617152 -1.5708048979388636 2.1115922927856445 True False
26350.825999999997 -2.6008101145373743 -1.0417794746211548 1.437831226979391 -1.9671350918211878 -1.5707767645465296 2.1116206645965576 True False
26350.845999999998 -2.6007493177997034 -1.040724830036499 1.4402702490436 -1.9703480205931605 -1.570813004170553 2.111611843109131 True False
26350.865999999998 -2.6007731596576136 -1.0399015706828614 1.4422743956195276 -1.973210950891012 -1.570801083241598 2.1116368770599365 True False
26350.886 -2.600748125706808 -1.0391942423633118 1.4438751379596155 -1.9753037891783656 -1.5707925001727503 2.1116042137145996 True False
26350.906 -2.6007774511920374 -1.0387716454318543 1.445040527974264 -1.9769493542113246 -1.5707562605487269 2.111638307571411 True False
26350.926 -2.6008310953723353 -1.0383775991252442 1.4458192030536097 -1.9780498943724574 -1.570756737385885 2.1115834712982178 True False
26350.946 -2.6008146444903772 -1.0382335943034668 1.446148697529928 -1.9787160358824671 -1.5708335081683558 2.111574411392212 True False
26350.966 -2.6007939020739954 -1.0383185905269166 1.4460967222796839 -1.9787188969054164 -1.5707686583148401 2.1116130352020264 True False
26350.985999999997 -2.6007493177997034 -1.038297490482666 1.4460671583758753 -1.9786831341185511 -1.5708254019366663 2.111578941345215 True False
26351.005999999998 -2.6007817427264612 -1.0383142989924927 1.4461286703692835 -1.978647371331686 -1.5707605520831507 2.1116042137145996 True False
26351.025999999998 -2.6008101145373743 -1.0382886093905945 1.446064297352926 -1.978739400903219 -1.5707767645465296 2.1116325855255127 True False
26351.046 -2.600818936024801 -1.0382768672755738 1.4461010138141077 -1.9786788425841273 -1.5708168188678187 2.1116042137145996 True False
26351.066 -2.6007896105395716 -1.038273648624756 1.446174446736471 -1.9787036381163539 -1.5707767645465296 2.1116368770599365 True False
26351.086 -2.6007817427264612 -1.038269357090332 1.4461334387408655 -1.9787270031371058 -1.5707686583148401 2.1115715503692627 True False
26351.106 -2.6007896105395716 -1.038257436161377 1.4461248556720179 -1.978671213189596 -1.5707648436175745 2.1115877628326416 True False
26351.126 -2.6007896105395716 -1.0383060735515137 1.4460838476764124 -1.9786387882628382 -1.570824925099508 2.1116042137145996 True False
26351.145999999997 -2.6007373968707483 -1.0381993812373658 1.4460600058185022 -1.9786788425841273 -1.5707805792437952 2.1116130352020264 True False
26351.165999999997 -2.6008179823504847 -1.038257436161377 1.4461248556720179 -1.9786912403502406 -1.570813004170553 2.1116325855255127 True False
26351.185999999998 -2.600731913243429 -1.0382453960231324 1.446141544972555 -1.9786912403502406 -1.5707605520831507 2.1115550994873047 True False
26351.206 -2.6007569471942347 -1.038278118973114 1.4461787382708948 -1.9786707363524378 -1.5708087126361292 2.1115431785583496 True False
26351.226 -2.6008146444903772 -1.0382586878589173 1.44619065919985 -1.9787074528136195 -1.570813004170553 2.1116459369659424 True False
26351.246 -2.600786034260885 -1.0382245940021058 1.446141544972555 -1.9786912403502406 -1.5707929770099085 2.1116206645965576 True False
26351.266 -2.6007984320269983 -1.038217083816864 1.4461286703692835 -1.9787031612791957 -1.5708006064044397 2.1116294860839844 True False
26351.286 -2.600736204777853 -1.038278118973114 1.4461525122271937 -1.9786626301207484 -1.5707805792437952 2.1115834712982178 True False
26351.306 -2.600736204777853 -1.0382290047458191 1.446148697529928 -1.9786788425841273 -1.5707967917071741 2.111578941345215 True False
26351.325999999997 -2.600764576588766 -1.0382692378810425 1.4461444059955042 -1.9786912403502406 -1.570801083241598 2.111578941345215 True False
26351.345999999998 -2.600762192402975 -1.0382988017848511 1.4461286703692835 -1.9786869488158167 -1.5708487669574183 2.1116011142730713 True False
26351.365999999998 -2.6007896105395716 -1.038298861389496 1.4461444059955042 -1.9786788425841273 -1.5708048979388636 2.1116116046905518 True False
26351.386 -2.6007536093341272 -1.0382706087878724 1.4460919539081019 -1.9786631069579066 -1.570824925099508 2.1116414070129395 True False
26351.406 -2.6007939020739954 -1.0382305544665833 1.4461687246905726 -1.9787031612791957 -1.5708492437945765 2.1116042137145996 True False
26351.426 -2.6008103529559534 -1.0382586878589173 1.4461243788348597 -1.978659292260641 -1.5707805792437952 2.1116042137145996 True False
26351.446 -2.6007450262652796 -1.0382870000651856 1.4461444059955042 -1.9787193737425746 -1.5707805792437952 2.111586332321167 True False
26351.466 -2.6007524172412317 -1.0382586282542725 1.4461444059955042 -1.978739400903219 -1.570772949849264 2.1115996837615967 True False
26351.485999999997 -2.6007493177997034 -1.0382423561862488 1.4461730162249964 -1.9787551365294398 -1.5707891623126429 2.1116206645965576 True False
26351.505999999998 -2.600781027470724 -1.0382334750941773 1.4461286703692835 -1.9787193737425746 -1.570784870778219 2.111553907394409 True False
26351.525999999998 -2.600802723561422 -1.0382796686938782 1.4461286703692835 -1.9786912403502406 -1.5708211104022425 2.1116042137145996 True False
26351.546 -2.6007774511920374 -1.0382586878589173 1.4461730162249964 -1.978711267510885 -1.570829216633932 2.1116206645965576 True False
26351.566 -2.6008310953723353 -1.0382365149310608 1.4461773077594202 -1.978711267510885 -1.5707967917071741 2.11159086227417 True False
26351.586 -2.6007612387286585 -1.0383536976626893 1.446036163960592 -1.978738924066061 -1.5707967917071741 2.11161470413208 True False
26351.606 -2.6007688681231897 -1.0383550089648743 1.446012322102682 -1.9787270031371058 -1.570829216633932 2.11161470413208 True False
26351.626 -2.6007373968707483 -1.0383089941791077 1.4460576216327112 -1.9787427387633265 -1.5708368460284632 2.1116042137145996 True False
26351.645999999997 -2.6007536093341272 -1.0383268755725403 1.4460738340960901 -1.9787551365294398 -1.5707724730121058 2.1116206645965576 True False
26351.665999999997 -2.6007331053363245 -1.0383386772922059 1.4460209051715296 -1.978790899316305 -1.570813004170553 2.1116206645965576 True True
26351.685999999998 -2.6008058230029505 -1.0383222860148926 1.4460209051715296 -1.9788233242430628 -1.5707767645465296 2.1116368770599365 True True
26351.706 -2.6007655302630823 -1.0383505386165162 1.44590932527651 -1.978328367272848 -1.570772949849264 2.1115834712982178 True True
26351.726 -2.6007655302630823 -1.0384754103473206 1.4455369154559534 -1.9771906338133753 -1.5707843939410608 2.1116206645965576 True True
26351.746 -2.6007447878467005 -1.0386689466289063 1.4447782675372522 -1.9757749042906703 -1.570801083241598 2.111602783203125 True True
26351.766 -2.6007774511920374 -1.0392419260791321 1.443207089100973 -1.973976274529928 -1.5708087126361292 2.1115505695343018 True True
26351.786 -2.6007612387286585 -1.0402021569064637 1.440993611012594 -1.971447607079977 -1.5707686583148401 2.111607313156128 True True
26351.806 -2.600757900868551 -1.0412520927241822 1.4386571089373987 -1.9681092701353968 -1.5708168188678187 2.1116445064544678 True True
26351.825999999997 -2.6007981936084192 -1.042347864513733 1.4362176100360315 -1.9644204578795375 -1.5708087126361292 2.1116206645965576 True True
26351.845999999998 -2.6007493177997034 -1.0435558718493958 1.4331772963153284 -1.9600702724852503 -1.5707724730121058 2.1116325855255127 True True
26351.865999999998 -2.6007655302630823 -1.0451811116984864 1.4296930472003382 -1.955440183679098 -1.570772949849264 2.1116280555725098 True True
26351.886 -2.60077411333193 -1.0467520517161866 1.425903622304098 -1.9500085316100062 -1.570824925099508 2.1116249561309814 True True
26351.906 -2.600786034260885 -1.0484238427928467 1.4218633810626429 -1.944078107873434 -1.5708087126361292 2.1116340160369873 True True
26351.926 -2.60077411333193 -1.050285593872406 1.417274300252096 -1.937472482720846 -1.5707605520831507 2.111607313156128 True True
26351.946 -2.6007817427264612 -1.052466706638672 1.4122050444232386 -1.9304405651488246 -1.5707767645465296 2.1116607189178467 True True
26351.966 -2.600719992314474 -1.0547808569720765 1.4067657629596155 -1.922840257684225 -1.5707886854754847 2.1116161346435547 True True
26351.985999999997 -2.6007536093341272 -1.0572564166835328 1.401130501423971 -1.9147216282286585 -1.5708048979388636 2.111562490463257 True True
26352.005999999998 -2.6007655302630823 -1.0598090452006836 1.395095173512594 -1.905954977075094 -1.570801083241598 2.111599922180176 True True
26352.025999999998 -2.600786034260885 -1.0626452726176758 1.3885200659381312 -1.8965546093382777 -1.5707891623126429 2.1115968227386475 True True
26352.046 -2.6007817427264612 -1.06564016759906 1.3815763632403772 -1.8868209324278773 -1.5707686583148401 2.1115505695343018 True True
26352.066 -2.600830856953756 -1.0687531393817444 1.3740218321429651 -1.8764783344664515 -1.5708168188678187 2.1116249561309814 True True
26352.086 -2.6007166544543665 -1.0719395142844697 1.3666117827044886 -1.8656956158080042 -1.570784870778219 2.1115922927856445 True True
26352.106 -2.600786034260885 -1.074841098194458 1.3595941702472132 -1.8556019268431605 -1.5707648436175745 2.1116042137145996 True True
26352.126 -2.6007817427264612 -1.077563927774765 1.3530376593219202 -1.8460728130736292 -1.5707648436175745 2.1115996837615967 True True
26352.145999999997 -2.6007817427264612 -1.0802390736392518 1.3465784231769007 -1.8369728527464808 -1.5707891623126429 2.1116204261779785 True True
26352.165999999997 -2.6007774511920374 -1.0828034740737458 1.3405965010272425 -1.8285094700255335 -1.5707843939410608 2.1116325855255127 True True
26352.185999999998 -2.6007445494281214 -1.0851952296546479 1.335057560597555 -1.8206426105894984 -1.5707805792437952 2.1116161346435547 True True
26352.206 -2.6007819811450403 -1.0873756271651764 1.3300045172320765 -1.813273092309469 -1.5708006064044397 2.1116249561309814 True True
26352.226 -2.6007283369647425 -1.0893563491157074 1.3253210226642054 -1.8065430126585902 -1.570801083241598 2.1116206645965576 True True
26352.246 -2.6007819811450403 -1.0913278025439759 1.3208110968219202 -1.8002363644041957 -1.570829216633932 2.1116161346435547 True True
26352.266 -2.6007819811450403 -1.0929954212955018 1.3167780081378382 -1.7944666347899378 -1.5708697477923792 2.1116116046905518 True True
26352.286 -2.6007283369647425 -1.0944535297206421 1.3130911032306116 -1.7895194492735804 -1.5708654562579554 2.111595392227173 True True
26352.306 -2.6008105913745325 -1.0958629113486786 1.3099239508258265 -1.7848864994444789 -1.5708335081683558 2.1115715503692627 True True
26352.325999999997 -2.6007819811450403 -1.0970065158656617 1.3071463743792933 -1.7808882198729457 -1.570801083241598 2.1116249561309814 True True
26352.345999999998 -2.6007774511920374 -1.0979466301253815 1.3048442045794886 -1.7775198421873988 -1.570784870778219 2.1115834712982178 True True
26352.365999999998 -2.6007207075702112 -1.098862664108612 1.3028181234942835 -1.774506231347555 -1.5708335081683558 2.1116087436676025 True True
26352.386 -2.6007865110980433 -1.0995825094035645 1.3011310736285608 -1.7723413906493128 -1.5707972685443323 2.111639976501465 True True
26352.406 -2.6008148829089563 -1.100121335392334 1.2999122778521937 -1.770519872704977 -1.5707925001727503 2.1115877628326416 True True
26352.426 -2.6007521788226526 -1.1005289119533082 1.2991293112384241 -1.7691527805724085 -1.5708335081683558 2.1116161346435547 True True
26352.446 -2.6007655302630823 -1.10055227697406 1.298654858266012 -1.7685982189574183 -1.5707686583148401 2.1116459369659424 True True
26352.466 -2.6007280985461634 -1.1006213885596772 1.2985466162311 -1.7685429058470667 -1.5707524458514612 2.1115996837615967 True True
26352.485999999997 -2.6003409067737024 -1.100586549644806 1.2985785643206995 -1.7685390911498011 -1.570813004170553 2.1115758419036865 True True
26352.505999999998 -2.5992985407458704 -1.1005730491927643 1.2985380331622522 -1.7685629330077113 -1.5708087126361292 2.1114799976348877 True True
26352.525999999998 -2.597781006489889 -1.1005842846683045 1.2985270659076136 -1.7685591183104457 -1.5707886854754847 2.111267566680908 True True
26352.546 -2.5957260767566126 -1.1005642277053376 1.298591438923971 -1.7685347996153773 -1.5708254019366663 2.1110548973083496 True True
26352.566 -2.5928645769702356 -1.100660042171814 1.298514191304342 -1.7685791454710902 -1.570813004170553 2.1108169555664062 True True
26352.586 -2.5895562807666224 -1.1007305544665833 1.298542324696676 -1.7685591183104457 -1.570784870778219 2.110496759414673 True True
26352.606 -2.5857954660998743 -1.1007618469050904 1.2985308806048792 -1.7685548267760218 -1.5707805792437952 2.1101720333099365 True True
26352.626 -2.5813689867602747 -1.100859747534134 1.298563305531637 -1.7685390911498011 -1.570829216633932 2.109670877456665 True True
26352.645999999997 -2.57632285753359 -1.1009035569480439 1.2985504309283655 -1.7685309849181117 -1.5708406607257288 2.10921311378479 True True
26352.665999999997 -2.5707762877093714 -1.1008282464793702 1.2985413710223597 -1.7685910664000453 -1.5707767645465296 2.108654737472534 True True
26352.685999999998 -2.564800802861349 -1.1008974474719544 1.2986591498004358 -1.7685829601683558 -1.5708335081683558 2.1080429553985596 True True
26352.706 -2.558340851460592 -1.1009376806071778 1.2987149397479456 -1.7686392269530238 -1.570796314870016 2.107445478439331 True True
26352.726 -2.5511584917651575 -1.1009397965720673 1.2988470236407679 -1.768646856347555 -1.5708044211017054 2.1067111492156982 True True
26352.746 -2.543338123952047 -1.1010623139194031 1.2988784948932093 -1.7687026462950648 -1.5708368460284632 2.105954170227051 True True
26352.766 -2.534884039555685 -1.1011270147613068 1.2989376227008265 -1.7686945400633753 -1.5707967917071741 2.105135679244995 True True
26352.786 -2.5261715094195765 -1.1011162561229249 1.2990706602679651 -1.768750330010885 -1.570829216633932 2.104224443435669 True True
26352.806 -2.5168374220477503 -1.1012182396701355 1.2991464773761194 -1.7688104114928187 -1.5708168188678187 2.103229284286499 True True
26352.825999999997 -2.506709400807516 -1.101236568098404 1.2992256323443812 -1.7687941990294398 -1.5707886854754847 2.102308511734009 True True
26352.845999999998 -2.496227804814474 -1.1013622146895905 1.2993539015399378 -1.7687660656371058 -1.5707362333880823 2.1012885570526123 True True
26352.865999999998 -2.485366408024923 -1.1013161104968567 1.29946214357485 -1.768937727014059 -1.5708449522601526 2.100137233734131 True True
26352.886 -2.473480765019552 -1.1014510852149506 1.299610439931051 -1.76892151455068 -1.5707886854754847 2.0989885330200195 True True
26352.906 -2.461259428654806 -1.1015737813762208 1.299774471913473 -1.7688576183714808 -1.570772949849264 2.097771644592285 True True
26352.926 -2.448735777531759 -1.1016130310348053 1.299804989491598 -1.7689734898009242 -1.5708368460284632 2.096497058868408 True True
26352.946 -2.43526798883547 -1.1016855102828522 1.299967114125387 -1.769029279748434 -1.5707204977618616 2.0951895713806152 True True
26352.966 -2.4214146772967737 -1.1018066567233582 1.3000720183001917 -1.7690488300719203 -1.5708048979388636 2.0938286781311035 True True
26352.985999999997 -2.4070377985583704 -1.1018408399871369 1.300178352986471 -1.7691494427123011 -1.5707967917071741 2.0924744606018066 True True
26353.005999999998 -2.3920255343066614 -1.101985440855362 1.3003671805011194 -1.7692014179625453 -1.5708048979388636 2.0909109115600586 True True
26353.025999999998 -2.3764880339251917 -1.102012113933899 1.3004573027240198 -1.7692166767516078 -1.5707967917071741 2.0893516540527344 True True
26353.046 -2.360382143651144 -1.102186070089676 1.3005965391742151 -1.7692324123778285 -1.5707891623126429 2.0877742767333984 True True
26353.066 -2.343628470097677 -1.1022540491870423 1.3007658163653772 -1.769364973107809 -1.5708168188678187 2.0861263275146484 True True
26353.086 -2.3264666239367884 -1.1024160844138642 1.3008993307696741 -1.7694326839842738 -1.5707362333880823 2.0843520164489746 True True
26353.106 -2.3087428251849573 -1.1024696093848725 1.3010838667498987 -1.7694198093810023 -1.5707967917071741 2.0826468467712402 True True
26353.126 -2.290222231541769 -1.1025827688029786 1.3012893835650843 -1.7695204220213832 -1.570829216633932 2.0808792114257812 True True
26353.145999999997 -2.2713826338397425 -1.1027426582625885 1.3014782110797327 -1.769559999505514 -1.5707925001727503 2.078984022140503 True True
26353.165999999997 -2.252047363911764 -1.102839009170868 1.301650349293844 -1.7696434460081996 -1.5707724730121058 2.076964855194092 True True
26353.185999999998 -2.231929127370016 -1.102987454538681 1.301833454762594 -1.7696429691710414 -1.5707486311541956 2.075106382369995 True True
26353.206 -2.211371723805563 -1.1030534964850922 1.302016560231344 -1.7696911297240199 -1.5707686583148401 2.073064088821411 True True
26353.226 -2.1905115286456507 -1.1032109421542664 1.3022430578814905 -1.7698632679381312 -1.5707648436175745 2.070920705795288 True True
26353.246 -2.1693881193744105 -1.1033131939223786 1.3024261633502405 -1.7698384724059046 -1.5707648436175745 2.0688555240631104 True True
26353.266 -2.148543183003561 -1.103428767328598 1.3026459852801722 -1.7699667416014613 -1.5707653204547327 2.06681227684021 True True
26353.286 -2.1276190916644495 -1.1035037201694031 1.3027871290790003 -1.770010610620016 -1.5708044211017054 2.0646982192993164 True True
26353.306 -2.106654946004049 -1.1036900740912934 1.303033177052633 -1.770135065118307 -1.5707967917071741 2.0626258850097656 True True
26353.325999999997 -2.0857518354998987 -1.1038051408580323 1.3032415548907679 -1.7700616321959437 -1.570784870778219 2.0605311393737793 True True
26353.345999999998 -2.0647738615619105 -1.1039723318866272 1.3034456411944788 -1.7702537975706996 -1.570756737385885 2.0585105419158936 True True
26353.365999999998 -2.0438454786883753 -1.1041610401919861 1.3035762945758265 -1.7703339062132777 -1.570784870778219 2.0564141273498535 True True
26353.386 -2.0228708426104944 -1.1042840045741578 1.30383807817568 -1.7703257999815882 -1.5707810560809534 2.0542995929718018 True True
26353.406 -2.0019691626178187 -1.1043573182872315 1.303988281880514 -1.7704249821104945 -1.5707605520831507 2.05222749710083 True True
26353.426 -1.9810226599322718 -1.104454831486084 1.3041518370257776 -1.7704688511290492 -1.570756737385885 2.0500996112823486 True True
26353.446 -1.9600852171527308 -1.1045858722976227 1.3043902556048792 -1.7705894909300746 -1.5707324186908167 2.048076629638672 True True
26353.466 -1.9391539732562464 -1.104746328001358 1.30455190340151 -1.7705918751158656 -1.5707925001727503 2.0460286140441895 True True
26353.485999999997 -1.918145004902975 -1.1048664611629029 1.3048141638385218 -1.7706600628294886 -1.5707929770099085 2.043947696685791 True True
26353.505999999998 -1.8972738424884241 -1.1050070089152833 1.3049638907061976 -1.77069153408193 -1.5707805792437952 2.0418784618377686 True True
26353.525999999998 -1.8762300650226038 -1.1051696103862305 1.3051965872394007 -1.7708035908141078 -1.570813004170553 2.0397145748138428 True True
26353.546 -1.8553579489337366 -1.1052965086749573 1.3053510824786585 -1.7708546123900355 -1.570801083241598 2.037666082382202 True True
26353.566 -1.8343852202044886 -1.1054320496371766 1.3056014219867151 -1.7709194622435511 -1.570784870778219 2.035611867904663 True True
26353.586 -1.8134568373309534 -1.1055427950671692 1.3057683149920862 -1.7710148296751917 -1.570813004170553 2.033498525619507 True True
26353.606 -1.792480770741598 -1.1057053369334717 1.3059685865985315 -1.7710467777647914 -1.5707686583148401 2.0314431190490723 True True
26353.626 -1.7716200987445276 -1.1057950419238587 1.3061278502093714 -1.7711144886412562 -1.5707853476153772 2.0294015407562256 True True
26353.645999999997 -1.7506769339190882 -1.1059407156756897 1.30634051958193 -1.7712179623045863 -1.570813004170553 2.02734112739563 True True
26353.665999999997 -1.7295787970172327 -1.1060189765742798 1.3065269629107874 -1.7712823353209437 -1.5707648436175745 2.025282859802246 True True
26353.685999999998 -1.7087324301349085 -1.1061848563006897 1.3067601362811487 -1.7712861500182093 -1.5708254019366663 2.0231993198394775 True True
26353.706 -1.6878498236285608 -1.106308476333954 1.3068817297564905 -1.7714344463744105 -1.5707886854754847 2.021132707595825 True True
26353.726 -1.666788403187887 -1.106390969162323 1.3070915381061 -1.7714697323241175 -1.5708048979388636 2.0190961360931396 True True
26353.746 -1.645928208027975 -1.106593744163849 1.307246510182516 -1.7715255222716273 -1.570772949849264 2.0169389247894287 True True
26353.766 -1.624911133443014 -1.1066923302463074 1.3074668089496058 -1.771609445611471 -1.5708335081683558 2.014831066131592 True True
26353.786 -1.6039837042437952 -1.1068335336497803 1.3076823393451136 -1.7716285190977992 -1.570756737385885 2.012793779373169 True True
26353.806 -1.5830562750445765 -1.1068902772716065 1.3078878561602991 -1.7717005215086878 -1.5707486311541956 2.010723352432251 True True
26353.825999999997 -1.5622213522540491 -1.1071022015861054 1.3080585638629358 -1.7717319927611292 -1.5708649794207972 2.008652687072754 True True
26353.845999999998 -1.5411422888385218 -1.1071834129146119 1.3082345167743128 -1.771872182885641 -1.5707605520831507 2.006537437438965 True True
26353.865999999998 -1.5202057997332972 -1.10735376298938 1.3084591070758265 -1.7718883953490199 -1.5707767645465296 2.004490613937378 True True
26353.886 -1.4993060270892542 -1.107469455604889 1.3086660544024866 -1.7720076046385707 -1.5707843939410608 2.0023927688598633 True True
26353.906 -1.4783418814288538 -1.1075354975513 1.3088715712176722 -1.7720233402647914 -1.570801083241598 2.0002942085266113 True True
26353.926 -1.4574454466449183 -1.1076963704875489 1.3090351263629358 -1.7720915279784144 -1.5707925001727503 1.9982388019561768 True True
26353.946 -1.4364245573626917 -1.1078477960876008 1.3092549482928675 -1.7721787891783656 -1.5707886854754847 1.996199369430542 True True
26353.966 -1.4154589811908167 -1.1079724592021485 1.3094428221331995 -1.7722999058165492 -1.570801083241598 1.9940522909164429 True True
26353.985999999997 -1.3946011702166956 -1.1081372958472748 1.3096135298358362 -1.772318502465719 -1.5707805792437952 1.9919404983520508 True True
26354.005999999998 -1.3735597769366663 -1.1082003873637696 1.3098085562335413 -1.772374769250387 -1.5708368460284632 1.9899147748947144 True True
26354.025999999998 -1.3527100721942347 -1.108318881397583 1.310070816670553 -1.7724906406798304 -1.5707967917071741 1.9878191947937012 True True
26354.046 -1.3317487875567835 -1.108535425072052 1.310291592274801 -1.7724458179869593 -1.570801083241598 1.9857786893844604 True True
26354.066 -1.3108227888690394 -1.1085847181132813 1.3104594389544886 -1.7725378475584925 -1.5708254019366663 1.9837195873260498 True True
26354.086 -1.2898371855365198 -1.1087317031672974 1.3106134573565882 -1.7726251087584437 -1.5707925001727503 1.9816521406173706 True True
26354.106 -1.268961254750387 -1.10891746104274 1.3108223120318812 -1.772717615167135 -1.5708091894732874 1.9795604944229126 True True
26354.126 -1.247953240071432 -1.109053985481598 1.310976807271139 -1.7728096447386683 -1.5707529226886194 1.9774227142333984 True True
26354.145999999997 -1.2270663420306605 -1.1091458660415192 1.31118089357485 -1.7728210888304652 -1.5707805792437952 1.975372076034546 True True
26354.165999999997 -1.2061198393451136 -1.1092474621585389 1.3114355246173304 -1.7729493580260218 -1.570784870778219 1.9733407497406006 True True
26354.185999999998 -1.1851204077350062 -1.1093980830958863 1.3116257826434534 -1.7729484043517054 -1.5707891623126429 1.9711894989013672 True True
26354.206 -1.164208714162008 -1.1095133584788819 1.3117874304400843 -1.7729841671385707 -1.570813004170553 1.969136118888855 True True
26354.226 -1.1432612578021448 -1.1096741420081635 1.312033478413717 -1.773064752618307 -1.5708416144000452 1.9670518636703491 True True
26354.246 -1.1223486105548304 -1.1097774666598816 1.3122089544879358 -1.7731920681395472 -1.5707925001727503 1.964996099472046 True True
26354.266 -1.1014235655414026 -1.1099050504020234 1.3124426046954554 -1.7731591663756312 -1.5707767645465296 1.9628938436508179 True True
26354.286 -1.080451790486471 -1.1100118321231385 1.3125832716571253 -1.773259779016012 -1.5708006064044397 1.9608581066131592 True True
26354.306 -1.0594304243670862 -1.110137478714325 1.3127473036395472 -1.7733756504454554 -1.570829216633932 1.9587912559509277 True True
26354.325999999997 -1.0385482946978968 -1.110326663856842 1.3129780928241175 -1.7733952007689417 -1.5707686583148401 1.9567344188690186 True True
26354.345999999998 -1.0176342169391077 -1.1105245810798188 1.3131821791278284 -1.7734624348082484 -1.5707767645465296 1.954676628112793 True True
26354.365999999998 -0.9965913931476038 -1.1105237764171143 1.3133981863604944 -1.773534437219137 -1.5708335081683558 1.9525474309921265 True True
26354.386 -0.9757297674762171 -1.1107179683497925 1.3136051336871546 -1.7736622295775355 -1.5708048979388636 1.9505301713943481 True True
26354.406 -0.9546931425677698 -1.1108477872661133 1.313685719166891 -1.7737065754332484 -1.570813004170553 1.948384404182434 True True
26354.426 -0.933819595967428 -1.1108882290175934 1.3139036337481897 -1.7737776241698207 -1.5708087126361292 1.946272850036621 True True
26354.446 -0.912882153187887 -1.1110477906516572 1.3141186873065394 -1.7738458118834437 -1.5707891623126429 1.9442130327224731 True True
26354.466 -0.8918822447406214 -1.11117775857959 1.314328972493307 -1.773893495599264 -1.5708487669574183 1.9421924352645874 True True
26354.485999999997 -0.8709843794452112 -1.1112929743579407 1.314479176198141 -1.7739736042418421 -1.5707805792437952 1.9400995969772339 True True
26354.505999999998 -0.8500679175006312 -1.1114419263652344 1.3147042433368128 -1.774029394189352 -1.5707686583148401 1.9380062818527222 True True
26354.525999999998 -0.8291843573199671 -1.1115690630725403 1.3149078528033655 -1.7740889988341273 -1.5707805792437952 1.9359513521194458 True True
26354.546 -0.808056656514303 -1.1117390555194397 1.3151372114764612 -1.7741004429259242 -1.5707767645465296 1.933821201324463 True True
26354.566 -0.787213150654928 -1.111882434492447 1.3153155485736292 -1.7742206058897914 -1.570813004170553 1.9317971467971802 True True
26354.586 -0.7661984602557581 -1.1119817060283204 1.3154867331134241 -1.7742520771422328 -1.5707686583148401 1.9296913146972656 True True
26354.606 -0.7453015486346644 -1.1120810073665162 1.3157041708575647 -1.7743402920165003 -1.5707967917071741 1.9276574850082397 True True
26354.626 -0.7244251410113733 -1.1122719210437317 1.3158839384662073 -1.7744041881956996 -1.5707967917071741 1.9255479574203491 True True
26354.645999999997 -0.7035139242755335 -1.1123406750014802 1.3160670439349573 -1.7744790516295375 -1.5707529226886194 1.9234538078308105 True True
26354.665999999997 -0.6824963728534144 -1.1124946636012574 1.3162224928485315 -1.7745753727354945 -1.5707843939410608 1.921434760093689 True True
26354.685999999998 -0.6615718046771448 -1.1126346451095124 1.316474739705221 -1.7746149502196253 -1.5708048979388636 1.9193685054779053 True True
26354.706 -0.6406095663653772 -1.1127334994128724 1.316744629536764 -1.774646898309225 -1.570813004170553 1.917303442955017 True True
26354.726 -0.6196268240558069 -1.1128475230983277 1.3168943564044397 -1.7747589550414027 -1.570801083241598 1.915189504623413 True True
26354.746 -0.5987308661090296 -1.1130721730044861 1.3170831839190882 -1.7747866115965785 -1.5707891623126429 1.9130967855453491 True True
26354.766 -0.5777977148639124 -1.1131580930999299 1.317270580922262 -1.774886270562643 -1.5708168188678187 1.910997986793518 True True
26354.786 -0.5568278471576136 -1.1132902067950745 1.3174551169024866 -1.7749458752074183 -1.5707724730121058 1.908944845199585 True True
26354.806 -0.5358751455890101 -1.1133819979480286 1.3176663557635706 -1.7750302753844203 -1.5707233587848108 1.906860113143921 True True
26354.825999999997 -0.5148933569537562 -1.113567904835083 1.3178585211383265 -1.7750898800291957 -1.570801083241598 1.9047493934631348 True True
26354.845999999998 -0.4940088430987757 -1.1137287777713318 1.3180339972125452 -1.775149484673971 -1.5707719961749476 1.9027239084243774 True True
26354.865999999998 -0.4730790297137659 -1.1138065618327637 1.3182433287249964 -1.7751733265318812 -1.570824925099508 1.9006390571594238 True True
26354.886 -0.4520781675921839 -1.1139239233783265 1.3184788862811487 -1.7751642666258753 -1.5707967917071741 1.898553490638733 True True
26354.906 -0.43110686937441045 -1.1140255194953461 1.3186619917498987 -1.7753287754454554 -1.570813004170553 1.8964619636535645 True True
26354.926 -0.4101956526385706 -1.1142255824855347 1.3188298384295862 -1.7753240070738734 -1.570756737385885 1.8944008350372314 True True
26354.946 -0.38928348222841436 -1.1143314999393006 1.319033447896139 -1.7754560909666957 -1.570784870778219 1.8924168348312378 True True
26354.966 -0.3683398405658167 -1.1144799453071137 1.3192256132708948 -1.7755042515196742 -1.570813004170553 1.8902370929718018 True True
26354.985999999997 -0.3474009672748011 -1.1145509046367188 1.3194134871112269 -1.775600095788473 -1.5708087126361292 1.8881832361221313 True True
26355.005999999998 -0.32651073137392217 -1.1146853131106873 1.3195889631854456 -1.7755872211852015 -1.5707967917071741 1.8860933780670166 True True
26355.025999999998 -0.305460278187887 -1.1148225230029603 1.319773022328512 -1.7757517300047816 -1.5708406607257288 1.8840558528900146 True True
26355.046 -0.2845357100116175 -1.1149094563773652 1.3199651877032679 -1.7758032284178675 -1.5707767645465296 1.8819425106048584 True True
26355.066 -0.26360875764955694 -1.1150628489306946 1.3201850096331995 -1.7758671245970667 -1.5708211104022425 1.8798887729644775 True True
