Andreas691667/Digital_Twin_UR/src/controller_monitor/test_results/robot_output.csv
timestamp actual_q_0 actual_q_1 actual_q_2 actual_q_3 actual_q_4 actual_q_5 output_bit_register_65 output_bit_register_66
11303.053 0.6180191040039062 -1.720041414300436 -1.5899556875228882 -1.3200234037688752 1.5599933862686157 0.27002760767936707 False False
11303.073 0.617981493473053 -1.719982763329977 -1.5900001525878906 -1.319995478992798 1.5599769353866577 0.2699936032295227 False False
11303.092999999999 0.6179772019386292 -1.7200504742064417 -1.5899665355682373 -1.3200234335711976 1.5599970817565918 0.26998934149742126 False False
11303.113 0.6180016398429871 -1.7200619182982386 -1.58998703956604 -1.3199913960746308 1.5600011348724365 0.26995357871055603 False False
11303.133 0.6179859638214111 -1.719973703423971 -1.59000825881958 -1.319987342958786 1.56002938747406 0.26994481682777405 False False
11303.153 0.6180059909820557 -1.7199918232359828 -1.5899677276611328 -1.3199831706336518 1.5599929094314575 0.2700110077857971 False False
11303.172999999999 0.617989718914032 -1.7200786075987757 -1.5899882316589355 -1.3199793857387085 1.5600011348724365 0.27000242471694946 False False
11303.193 0.6180028319358826 -1.7200123272337855 -1.5900375843048096 -1.3199831408313294 1.5600051879882812 0.2700395882129669 False False
11303.213 0.6180145740509033 -1.7200037441649378 -1.5900332927703857 -1.319995478992798 1.5600053071975708 0.2699936628341675 False False
11303.233 0.6180102229118347 -1.7200151882567347 -1.5899676084518433 -1.3199951511672516 1.5599970817565918 0.26996541023254395 False False
11303.252999999999 0.6180145740509033 -1.720041414300436 -1.5900001525878906 -1.3199873727611084 1.5599968433380127 0.2700067162513733 False False
11303.273 0.6179904341697693 -1.7199660740294398 -1.590040683746338 -1.3200192910483857 1.5599888563156128 0.2700023949146271 False False
11303.293 0.6179729104042053 -1.72003235439443 -1.5899839401245117 -1.3200597029975434 1.5599408149719238 0.2699730396270752 False False
11303.313 0.6180397868156433 -1.7199541531004847 -1.5899882316589355 -1.3200114530375977 1.5599846839904785 0.2699904441833496 False False
11303.332999999999 0.6180016994476318 -1.7200242481627406 -1.5900170803070068 -1.3200274270823975 1.5599933862686157 0.2699904441833496 False False
11303.353 0.6180516481399536 -1.720041414300436 -1.5900537967681885 -1.319950984125473 1.5599970817565918 0.27001458406448364 False False
11303.373 0.6180146336555481 -1.720010896722311 -1.59000825881958 -1.3200116020492096 1.560001015663147 0.2700023353099823 False False
11303.393 0.6179904341697693 -1.7199751339354457 -1.5900170803070068 -1.319975422029831 1.5599608421325684 0.2699861228466034 False False
11303.412999999999 0.6179646253585815 -1.7199918232359828 -1.5899871587753296 -1.3199874025634308 1.5599690675735474 0.2700023949146271 False False
11303.432999999999 0.6179983615875244 -1.72003235439443 -1.5899547338485718 -1.3199835580638428 1.5599929094314575 0.26996541023254395 False False
11303.453 0.6179983615875244 -1.7200480900206507 -1.5899752378463745 -1.3200437289527436 1.560009241104126 0.2700066864490509 False False
11303.473 0.6179940700531006 -1.7199989757933558 -1.5900001525878906 -1.3199793857387085 1.5600134134292603 0.2700023651123047 False False
11303.493 0.6180073022842407 -1.7200242481627406 -1.59000825881958 -1.3200114530375977 1.5599650144577026 0.27002644538879395 False False
11303.512999999999 0.6179728507995605 -1.720041414300436 -1.590012550354004 -1.3199754518321534 1.5599892139434814 0.2700110375881195 False False
11303.533 0.6179735660552979 -1.7200828991331996 -1.5900700092315674 -1.3199995023063202 1.5599888563156128 0.26997849345207214 False False
11303.553 0.6180016994476318 -1.7200290165343226 -1.590049386024475 -1.3200192910483857 1.5599805116653442 0.2699904441833496 False False
11303.573 0.6180028319358826 -1.7200705013670863 -1.5900212526321411 -1.320039616232254 1.5599851608276367 0.27003955841064453 False False
11303.592999999999 0.6180384159088135 -1.720010896722311 -1.5900321006774902 -1.3200233441642304 1.5599892139434814 0.27003955841064453 False False
11303.613 0.6179735660552979 -1.7200080356993617 -1.590040683746338 -1.3199874323657532 1.5599970817565918 0.2700352072715759 False False
11303.633 0.6180441975593567 -1.7200423679747523 -1.5900044441223145 -1.3200436395457764 1.5599929094314575 0.2700023651123047 False False
11303.653 0.6179814338684082 -1.7199961147704066 -1.5899795293807983 -1.3200233441642304 1.5599769353866577 0.27004823088645935 False False
11303.672999999999 0.6180059909820557 -1.7199751339354457 -1.5900036096572876 -1.3200154465487977 1.5599970817565918 0.27001896500587463 False False
11303.693 0.6180190443992615 -1.7200037441649378 -1.5900200605392456 -1.319995478992798 1.5599727630615234 0.27002328634262085 False False
11303.713 0.6180427074432373 -1.7200333080687464 -1.5899955034255981 -1.3199795347503205 1.5600011348724365 0.2699741721153259 False False
11303.733 0.6180073618888855 -1.720041414300436 -1.5899866819381714 -1.3199794751456757 1.5599769353866577 0.2699936032295227 False False
11303.752999999999 0.6180222630500793 -1.7200242481627406 -1.5900200605392456 -1.3200074297240754 1.5599846839904785 0.2699698507785797 False False
11303.773 0.6179810762405396 -1.720010896722311 -1.5899865627288818 -1.3199874621680756 1.559981107711792 0.2699936032295227 False False
11303.793 0.6179940104484558 -1.7200037441649378 -1.5900379419326782 -1.3199393612197419 1.5599970817565918 0.27001896500587463 False False
11303.813 0.6180146336555481 -1.7200080356993617 -1.5900171995162964 -1.3200313311866303 1.5600134134292603 0.2699741721153259 False False
11303.832999999999 0.6179814338684082 -1.7200004063048304 -1.5900260210037231 -1.3200192910483857 1.560009241104126 0.26996541023254395 False False
11303.853 0.6180102825164795 -1.7199751339354457 -1.5900171995162964 -1.3199755114367981 1.5599970817565918 0.2699567377567291 False False
11303.873 0.6180546283721924 -1.7199918232359828 -1.590024471282959 -1.3200313311866303 1.56002938747406 0.26996108889579773 False False
11303.893 0.6179940700531006 -1.720041414300436 -1.5900081396102905 -1.3199955087951203 1.560001254081726 0.27001452445983887 False False
11303.912999999999 0.618058979511261 -1.7200080356993617 -1.5900335311889648 -1.3200400930694123 1.560009241104126 0.2699730098247528 False False
11303.932999999999 0.6180341243743896 -1.7199870548644007 -1.5900335311889648 -1.320011393432953 1.5599970817565918 0.2700110375881195 False False
11303.953 0.6180235147476196 -1.7200004063048304 -1.5899866819381714 -1.3199953597835083 1.5599929094314575 0.2700352072715759 False False
11303.973 0.6180102825164795 -1.7199779949583949 -1.5900274515151978 -1.320011393432953 1.559969186782837 0.269986093044281 False False
11303.993 0.6180307865142822 -1.7200242481627406 -1.590012550354004 -1.3200522524169465 1.5600495338439941 0.2699904441833496 False False
11304.012999999999 0.6179983615875244 -1.7199751339354457 -1.589970350265503 -1.3200153571418305 1.560037612915039 0.26995357871055603 False False
11304.033 0.6180222034454346 -1.720041414300436 -1.590012550354004 -1.320031688814499 1.5599851608276367 0.269986093044281 False False
11304.053 0.6180397272109985 -1.720043798486227 -1.5899702310562134 -1.3199673157981415 1.5599970817565918 0.2700067162513733 False False
11304.073 0.6179691553115845 -1.7200037441649378 -1.5900335311889648 -1.3200193804553528 1.559981107711792 0.27002331614494324 False False
11304.092999999999 0.6180515289306641 -1.7199918232359828 -1.5900408029556274 -1.3200232547572632 1.559969186782837 0.2699325680732727 False False
11304.113 0.6180179119110107 -1.7200080356993617 -1.590040922164917 -1.3200435203364869 1.5600252151489258 0.27004387974739075 False False
11304.133 0.618030846118927 -1.720074316064352 -1.590024471282959 -1.3199275595000763 1.5599929094314575 0.26999369263648987 False False
11304.153 0.6180222034454346 -1.7200290165343226 -1.5899910926818848 -1.3200193506530304 1.5599650144577026 0.2699904441833496 False False
11304.172999999999 0.6180309057235718 -1.7200290165343226 -1.5900408029556274 -1.319959358578064 1.5599929094314575 0.2699979245662689 False False
11304.193 0.6180145740509033 -1.7200080356993617 -1.5900081396102905 -1.3199994427016755 1.5599970817565918 0.2699892520904541 False False
11304.213 0.6180102825164795 -1.7200080356993617 -1.5900380611419678 -1.3200272482684632 1.5600178241729736 0.2700558304786682 False False
11304.233 0.6179897785186768 -1.7200037441649378 -1.5899747610092163 -1.3199756008437653 1.5599888563156128 0.2700153887271881 False False
11304.252999999999 0.6179772019386292 -1.7200080356993617 -1.590012550354004 -1.3199835878661652 1.5599970817565918 0.2699860632419586 False False
11304.273 0.6179983615875244 -1.7200528583922328 -1.5899955034255981 -1.3200034362128754 1.5600374937057495 0.27002763748168945 False False
11304.293 0.6180028915405273 -1.7200080356993617 -1.5899628400802612 -1.320035145883896 1.559972882270813 0.26997849345207214 False False
11304.313 0.6179940700531006 -1.7200037441649378 -1.590012550354004 -1.3200315100005646 1.5600335597991943 0.27001893520355225 False False
11304.332999999999 0.6180222034454346 -1.720006605187887 -1.5899882316589355 -1.3200473350337525 1.5599888563156128 0.27001020312309265 False False
11304.353 0.6179983615875244 -1.7200199566283167 -1.5899791717529297 -1.3199918133071442 1.560017466545105 0.2699742019176483 False False
11304.373 0.6180059909820557 -1.72003235439443 -1.590012550354004 -1.3200437885573884 1.5599490404129028 0.2700023651123047 False False
11304.393 0.6180059909820557 -1.7200080356993617 -1.5899955034255981 -1.3200033170035859 1.559981107711792 0.27001020312309265 False False
11304.412999999999 0.6180102825164795 -1.7200037441649378 -1.5900453329086304 -1.3200193506530304 1.560025691986084 0.2699643075466156 False False
11304.432999999999 0.6180145740509033 -1.7200333080687464 -1.5900037288665771 -1.3200155657580872 1.559972882270813 0.2700066864490509 False False
11304.453 0.6180352568626404 -1.7199918232359828 -1.5900001525878906 -1.3199753922275086 1.5599970817565918 0.27001893520355225 False False
11304.473 0.6180027723312378 -1.7200528583922328 -1.590004563331604 -1.3200516265681763 1.5600011348724365 0.27001452445983887 False False
11304.493 0.6179603338241577 -1.7200571499266566 -1.5900171995162964 -1.3199835282615204 1.560017466545105 0.2699904441833496 False False
11304.512999999999 0.6179983615875244 -1.7200080356993617 -1.5900335311889648 -1.3199995917132874 1.5599892139434814 0.2700067162513733 False False
11304.533 0.6179983615875244 -1.7199589214720667 -1.5900216102600098 -1.3199991446784516 1.5599970817565918 0.27002331614494324 False False
11304.553 0.618007242679596 -1.7199870548644007 -1.5899673700332642 -1.3200356227210541 1.5599970817565918 0.2700481712818146 False False
11304.573 0.6180102825164795 -1.7200457058348597 -1.5899955034255981 -1.3200357419303437 1.5599732398986816 0.2699904441833496 False False
11304.592999999999 0.6180310845375061 -1.720006605187887 -1.5900499820709229 -1.3200516563704987 1.5599851608276367 0.27003517746925354 False False
11304.613 0.6180147528648376 -1.7199450931944789 -1.5900036096572876 -1.3200274866870423 1.5599769353866577 0.2700023651123047 False False
11304.633 0.6180474758148193 -1.720037122766012 -1.5900380611419678 -1.3200234037688752 1.5599888563156128 0.2699773609638214 False False
11304.653 0.6180177330970764 -1.720037122766012 -1.5900633335113525 -1.3199950617602845 1.559981107711792 0.27001893520355225 False False
11304.672999999999 0.6180310845375061 -1.7200333080687464 -1.5900171995162964 -1.3199508351138611 1.5599769353866577 0.27001020312309265 False False
11304.693 0.6180102825164795 -1.7200004063048304 -1.5900335311889648 -1.3200438481620331 1.5599970817565918 0.2699848711490631 False False
11304.713 0.6179983019828796 -1.7199660740294398 -1.5900499820709229 -1.3200516563704987 1.5599851608276367 0.26998171210289 False False
11304.733 0.6180030107498169 -1.7199708424010218 -1.5899673700332642 -1.319990949039795 1.5600051879882812 0.2699848711490631 False False
11304.752999999999 0.6180357336997986 -1.7200123272337855 -1.5899971723556519 -1.3200676006129761 1.5600011348724365 0.2699904441833496 False False
11304.773 0.6180076599121094 -1.719973703423971 -1.5899790525436401 -1.3200155657580872 1.5599610805511475 0.2699861228466034 False False
11304.793 0.6180222034454346 -1.7199589214720667 -1.590024471282959 -1.3199877601912995 1.5599807500839233 0.27001893520355225 False False
11304.813 0.6180147528648376 -1.720037122766012 -1.5900171995162964 -1.3200356525233765 1.5599970817565918 0.2700023651123047 False False
11304.832999999999 0.6179938912391663 -1.71998991588735 -1.5899746417999268 -1.3199913960746308 1.5599849224090576 0.2700110077857971 False False
11304.853 0.6180819272994995 -1.7200457058348597 -1.5899991989135742 -1.319995478992798 1.5600051879882812 0.2700197696685791 False False
11304.873 0.6179983615875244 -1.720065256158346 -1.5900216102600098 -1.3199831706336518 1.5600011348724365 0.2700023651123047 False False
11304.893 0.6180239319801331 -1.7199989757933558 -1.5900216102600098 -1.32001148283992 1.560049295425415 0.27002325654029846 False False
11304.912999999999 0.6179983615875244 -1.7199870548644007 -1.5900216102600098 -1.3199430269053956 1.5600051879882812 0.27003517746925354 False False
11304.932999999999 0.6179983615875244 -1.7199989757933558 -1.589992642402649 -1.3200155657580872 1.5600132942199707 0.2700110077857971 False False
11304.953 0.6180058121681213 -1.7200080356993617 -1.5899790525436401 -1.3200479310802002 1.5599730014801025 0.27003076672554016 False False
11304.973 0.6180492639541626 -1.7199918232359828 -1.590004563331604 -1.3200073701194306 1.5599770545959473 0.2699742019176483 False False
11304.993 0.6179735660552979 -1.7200037441649378 -1.5900216102600098 -1.3200074297240754 1.559981107711792 0.2699730396270752 False False
11305.012999999999 0.6180239319801331 -1.7200242481627406 -1.5899583101272583 -1.3200151485255738 1.560009241104126 0.2699904441833496 False False
11305.033 0.617993950843811 -1.7200366459288539 -1.5900589227676392 -1.3200274866870423 1.5599770545959473 0.2699698805809021 False False
11305.053 0.6180328130722046 -1.7200333080687464 -1.5900379419326782 -1.3200155955604096 1.5599889755249023 0.27003076672554016 False False
11305.073 0.6180147528648376 -1.7200080356993617 -1.5900335311889648 -1.3200073701194306 1.5599889755249023 0.27001893520355225 False False
11305.092999999999 0.6179525256156921 -1.720041414300436 -1.5899955034255981 -1.3200397354415436 1.5600252151489258 0.26998171210289 False False
11305.113 0.6180177927017212 -1.7200080356993617 -1.590024471282959 -1.3199873131564637 1.559969186782837 0.2700023651123047 False False
11305.133 0.6180029511451721 -1.720043798486227 -1.589971899986267 -1.3200037342360993 1.5600295066833496 0.27006009221076965 False False
11305.153 0.6180430054664612 -1.7200170956053675 -1.5899746417999268 -1.3200234037688752 1.5599892139434814 0.2699904441833496 False False
11305.172999999999 0.6179938912391663 -1.7200900516905726 -1.5900216102600098 -1.3200397950461884 1.5600011348724365 0.2700023651123047 False False
11305.193 0.6180147528648376 -1.72003235439443 -1.5900081396102905 -1.3200073403171082 1.5600011348724365 0.2700066864490509 False False
11305.213 0.6180222630500793 -1.7200037441649378 -1.590012550354004 -1.3200033170035859 1.559969186782837 0.27001893520355225 False False
11305.233 0.6180147528648376 -1.7199989757933558 -1.590024471282959 -1.3199753922275086 1.5600214004516602 0.2700110077857971 False False
11305.252999999999 0.6180058717727661 -1.720037122766012 -1.5900498628616333 -1.3200397056392212 1.5600011348724365 0.2699861228466034 False False
11305.273 0.6179983615875244 -1.7200123272337855 -1.59004545211792 -1.3200234037688752 1.5600011348724365 0.2699698805809021 False False
11305.293 0.6180164813995361 -1.7200457058348597 -1.5900170803070068 -1.3200274866870423 1.560021162033081 0.2699536085128784 False False
11305.313 0.6180192828178406 -1.7199918232359828 -1.590012550354004 -1.3199918133071442 1.5599929094314575 0.2700023651123047 False False
11305.332999999999 0.6180103421211243 -1.720041414300436 -1.590004563331604 -1.320019320850708 1.5599970817565918 0.2699611186981201 False False
11305.353 0.6179271340370178 -1.7200457058348597 -1.5900001525878906 -1.3200274866870423 1.5599770545959473 0.2699861228466034 False False
11305.373 0.6180102825164795 -1.7200199566283167 -1.5899746417999268 -1.3200274866870423 1.560009241104126 0.2700066864490509 False False
11305.393 0.6179599165916443 -1.7200037441649378 -1.5900081396102905 -1.3200480204871674 1.5599933862686157 0.2700066864490509 False False
11305.412999999999 0.6180385947227478 -1.7199589214720667 -1.5900171995162964 -1.3200557392886658 1.5599770545959473 0.27001020312309265 False False
11305.432999999999 0.6180222034454346 -1.7200123272337855 -1.5900081396102905 -1.3199789983085175 1.5600613355636597 0.27001893520355225 False False
11305.453 0.6179508566856384 -1.7199779949583949 -1.5899583101272583 -1.3200037342360993 1.5600053071975708 0.2699861228466034 False False
11305.473 0.6180147528648376 -1.7199870548644007 -1.5899991989135742 -1.3200438183597107 1.5599970817565918 0.27002331614494324 False False
11305.493 0.6180222034454346 -1.7200242481627406 -1.5900633335113525 -1.3200155061534424 1.5600011348724365 0.27001893520355225 False False
11305.512999999999 0.6180240511894226 -1.7200571499266566 -1.5900081396102905 -1.3200033170035859 1.5599732398986816 0.26997309923171997 False False
11305.533 0.6179813146591187 -1.719945570031637 -1.5900036096572876 -1.3199709218791504 1.5599771738052368 0.2699536085128784 False False
11305.553 0.6179553866386414 -1.720041414300436 -1.5899955034255981 -1.3200598520091553 1.560041069984436 0.2699741721153259 False False
11305.573 0.6180239915847778 -1.7200290165343226 -1.590012550354004 -1.3199631434730072 1.5599970817565918 0.2699861228466034 False False
11305.592999999999 0.6180121302604675 -1.7199841938414515 -1.5900001525878906 -1.3199954491904755 1.560041069984436 0.2699904441833496 False False
11305.613 0.6180030107498169 -1.7200504742064417 -1.5899702310562134 -1.3200274866870423 1.5600050687789917 0.26999908685684204 False False
11305.633 0.6180240511894226 -1.7200037441649378 -1.5899791717529297 -1.3200314801982422 1.5600411891937256 0.26999908685684204 False False
11305.653 0.6179642081260681 -1.720041414300436 -1.589982271194458 -1.319995478992798 1.560021162033081 0.2699536383152008 False False
11305.672999999999 0.6180240511894226 -1.7200080356993617 -1.5900288820266724 -1.3200397354415436 1.5599693059921265 0.2699698805809021 False False
11305.693 0.6179906129837036 -1.720010896722311 -1.5900081396102905 -1.3200155657580872 1.5600450038909912 0.2699947655200958 False False
11305.713 0.6180567741394043 -1.720006605187887 -1.5900200605392456 -1.320007399921753 1.5600050687789917 0.2699947655200958 False False
11305.733 0.6180194020271301 -1.7200080356993617 -1.5900542736053467 -1.3199913662723084 1.559961199760437 0.2699861228466034 False False
11305.752999999999 0.6179479360580444 -1.7200004063048304 -1.590024471282959 -1.3199794751456757 1.559961199760437 0.26998719573020935 False False
11305.773 0.6179906129837036 -1.7200457058348597 -1.5900661945343018 -1.319999561910965 1.5599771738052368 0.27003955841064453 False False
11305.793 0.6179768443107605 -1.7199589214720667 -1.5900288820266724 -1.319971279507019 1.5599970817565918 0.27001890540122986 False False
11305.813 0.6180239915847778 -1.7199465237059535 -1.5899747610092163 -1.320007399921753 1.559993028640747 0.2699742317199707 False False
11305.832999999999 0.6179735660552979 -1.720037122766012 -1.5899673700332642 -1.3200073701194306 1.560001015663147 0.27006447315216064 False False
11305.853 0.6179938912391663 -1.7200242481627406 -1.5899956226348877 -1.319983111029007 1.559993028640747 0.27003946900367737 False False
11305.873 0.6180357933044434 -1.7200080356993617 -1.5899955034255981 -1.3200717729381104 1.560029149055481 0.2700067162513733 False False
11305.893 0.6179689168930054 -1.7199989757933558 -1.5899956226348877 -1.3200234037688752 1.560001015663147 0.2699448764324188 False False
11305.912999999999 0.618043065071106 -1.7200080356993617 -1.5900081396102905 -1.3199950617602845 1.560009241104126 0.26999372243881226 False False
11305.932999999999 0.6180521249771118 -1.7199918232359828 -1.5900200605392456 -1.3200115126422425 1.5599406957626343 0.2699979543685913 False False
11305.953 0.6179938912391663 -1.7199574909605921 -1.5900112390518188 -1.3200397354415436 1.5599851608276367 0.2699904441833496 False False
11305.973 0.618043065071106 -1.7200571499266566 -1.5899807214736938 -1.319971279507019 1.560001015663147 0.2699893116950989 False False
11305.993 0.6179478764533997 -1.7200170956053675 -1.5900171995162964 -1.319999561910965 1.5599812269210815 0.27003079652786255 False False
11306.012999999999 0.6180385947227478 -1.7200695476927699 -1.5900288820266724 -1.3199954491904755 1.5599771738052368 0.2699861228466034 False False
11306.033 0.6179859638214111 -1.7200709782042445 -1.5899779796600342 -1.3199995321086426 1.560009241104126 0.27002328634262085 False False
11306.053 0.6180058121681213 -1.7199870548644007 -1.5900214910507202 -1.3200234037688752 1.5600330829620361 0.26999473571777344 False False
11306.073 0.6180239915847778 -1.7200457058348597 -1.5900288820266724 -1.3199913960746308 1.5600132942199707 0.2700023949146271 False False
11306.092999999999 0.6179906129837036 -1.7200213871397914 -1.5900037288665771 -1.3199873131564637 1.5599851608276367 0.2700110077857971 False False
11306.113 0.6180147528648376 -1.7200080356993617 -1.5900423526763916 -1.3200234037688752 1.559993028640747 0.2699817419052124 False False
11306.133 0.6180849075317383 -1.72003235439443 -1.5900214910507202 -1.3200037342360993 1.559993028640747 0.269986093044281 False False
11306.153 0.6179553866386414 -1.7200123272337855 -1.5900288820266724 -1.3199873131564637 1.5600252151489258 0.2699654996395111 False False
11306.172999999999 0.6180505156517029 -1.7200828991331996 -1.590040683746338 -1.320035771732666 1.5599490404129028 0.27001020312309265 False False
11306.193 0.6181105971336365 -1.7200528583922328 -1.5900585651397705 -1.3199790579131623 1.5599651336669922 0.26999905705451965 False False
11306.213 0.6183027625083923 -1.7199961147704066 -1.5900214910507202 -1.3200155657580872 1.5599929094314575 0.2699742019176483 False False
11306.233 0.6185096502304077 -1.7199918232359828 -1.589986801147461 -1.3199794751456757 1.559969186782837 0.2699654996395111 False False
11306.252999999999 0.6188238263130188 -1.720037122766012 -1.5900170803070068 -1.32001148283992 1.5599892139434814 0.27008184790611267 False False
11306.273 0.6191644668579102 -1.7199646435179652 -1.5899643898010254 -1.319987253551819 1.5599650144577026 0.2701733708381653 False False
11306.293 0.6197179555892944 -1.720071931878561 -1.589964509010315 -1.3200479310802002 1.5599727630615234 0.27034997940063477 False False
11306.313 0.6203984618186951 -1.7201410732665003 -1.5898566246032715 -1.3200876873782654 1.5599970817565918 0.2705918848514557 False False
11306.332999999999 0.6212226748466492 -1.7201730213561 -1.589769721031189 -1.3201428812793274 1.5599970817565918 0.2706659138202667 False False
11306.353 0.6222957372665405 -1.7201768360533656 -1.5896286964416504 -1.3202543717673798 1.5599970817565918 0.2708904445171356 False False
11306.373 0.6236763596534729 -1.7202583752074183 -1.5894852876663208 -1.3203744453242798 1.5599970817565918 0.27106907963752747 False False
11306.393 0.6253143548965454 -1.7203823528685511 -1.589260220527649 -1.3204665941051026 1.5600330829620361 0.2714468836784363 False False
11306.412999999999 0.6272168159484863 -1.7205139599242152 -1.589049220085144 -1.320626513367035 1.560021162033081 0.27170395851135254 False False
11306.432999999999 0.6295527219772339 -1.7207118473448695 -1.5887879133224487 -1.3206898433021088 1.5600287914276123 0.27214741706848145 False False
11306.453 0.6321510076522827 -1.7209192715086878 -1.588500738143921 -1.3209455621293564 1.560072660446167 0.2726792097091675 False False
11306.473 0.63512122631073 -1.7211038074889125 -1.5882339477539062 -1.3210812223008652 1.5600885152816772 0.2732596695423126 False False
11306.493 0.6382975578308105 -1.7212373218932093 -1.5879263877868652 -1.321280689244606 1.560128927230835 0.27383360266685486 False False
11306.512999999999 0.6418038010597229 -1.7214638195433558 -1.587520956993103 -1.3215002578547974 1.5601975917816162 0.27455833554267883 False False
11306.533 0.6455429196357727 -1.721708437005514 -1.5871347188949585 -1.3217719805291672 1.5601646900177002 0.2751866579055786 False False
11306.553 0.6495950222015381 -1.722025533715719 -1.5866912603378296 -1.3219834131053467 1.560197114944458 0.2759580612182617 False False
11306.573 0.6539619565010071 -1.722227235833639 -1.5863221883773804 -1.3223030728152771 1.5603255033493042 0.276854544878006 False False
11306.592999999999 0.6585665941238403 -1.7225729427733363 -1.5857760906219482 -1.3226381701282044 1.5602527856826782 0.27772924304008484 False False
11306.613 0.66347336769104 -1.7229119739928187 -1.5852129459381104 -1.3229376834682007 1.560341238975525 0.27864784002304077 False False
11306.633 0.6686916947364807 -1.7232300243773402 -1.5846060514450073 -1.3232125800899048 1.5603890419006348 0.2796344459056854 False False
11306.653 0.6740320324897766 -1.723492284814352 -1.5840916633605957 -1.3235920530608674 1.560413122177124 0.28058043122291565 False False
11306.672999999999 0.6797803044319153 -1.723818918267721 -1.5834391117095947 -1.3239800941995163 1.5604090690612793 0.28177204728126526 False False
11306.693 0.6858309507369995 -1.7242633304991664 -1.5828007459640503 -1.324314759378769 1.5605010986328125 0.2828332483768463 False False
11306.713 0.6921701431274414 -1.7247077427306117 -1.5822172164916992 -1.3246658605388184 1.5605331659317017 0.28408679366111755 False False
11306.733 0.6987910866737366 -1.7251173458495082 -1.5815582275390625 -1.325044722562172 1.560540795326233 0.2853878140449524 False False
11306.752999999999 0.7055961489677429 -1.7255264721312464 -1.5807889699935913 -1.3254762154868622 1.5606331825256348 0.28663042187690735 False False
11306.773 0.7126668691635132 -1.7260858021178187 -1.580143928527832 -1.326063798075058 1.5606651306152344 0.28795766830444336 False False
11306.793 0.7201079726219177 -1.7264977894225062 -1.5793081521987915 -1.3264587086490174 1.5607126951217651 0.2893811762332916 False False
11306.813 0.7278422117233276 -1.7269779644408167 -1.5784413814544678 -1.3269532185843964 1.56080162525177 0.29085496068000793 False False
11306.832999999999 0.7357824444770813 -1.72746004680776 -1.5775343179702759 -1.3273604673198243 1.5608251094818115 0.2923491597175598 False False
11306.853 0.7439486980438232 -1.7279960117735804 -1.5766030550003052 -1.3279034060290833 1.5608689785003662 0.2939600944519043 False False
11306.873 0.7525526285171509 -1.7284838161864222 -1.5757488012313843 -1.3285307598165055 1.5609406232833862 0.2955496609210968 False False
11306.893 0.7614758610725403 -1.7290784321227015 -1.5748337507247925 -1.3291416776231308 1.561024785041809 0.29723992943763733 False False
11306.912999999999 0.7704375982284546 -1.7296697101988734 -1.5738617181777954 -1.3296881777099152 1.5610731840133667 0.29891228675842285 False False
11306.932999999999 0.7796925902366638 -1.7302843532957972 -1.5729835033416748 -1.3303063672832032 1.5610686540603638 0.300717294216156 False False
11306.953 0.7895479202270508 -1.7309562168517054 -1.5719846487045288 -1.3308493208936234 1.5611766576766968 0.30259573459625244 False False
11306.973 0.7994781732559204 -1.7315131626524867 -1.5708229541778564 -1.3314885360053559 1.5613329410552979 0.3044724762439728 False False
11306.993 0.8094742298126221 -1.7320882282652796 -1.5696572065353394 -1.3321390759995957 1.5612846612930298 0.30637314915657043 False False
11307.012999999999 0.8200962543487549 -1.7327448330321253 -1.5685421228408813 -1.3327335280231019 1.5614008903503418 0.3083771765232086 False False
11307.033 0.8310030698776245 -1.7334758243956507 -1.5675108432769775 -1.3334763211062928 1.561532735824585 0.31042569875717163 False False
11307.053 0.8417648077011108 -1.7341462574400843 -1.56643545627594 -1.3341744256070633 1.5615533590316772 0.31251034140586853 False False
11307.073 0.853183388710022 -1.734844823876852 -1.565279245376587 -1.3348373037627717 1.561584711074829 0.3146786391735077 False False
11307.092999999999 0.8649024367332458 -1.7356521091856898 -1.5638991594314575 -1.3355801713517685 1.5618289709091187 0.31683558225631714 False False
11307.113 0.8766473531723022 -1.7362758121886195 -1.5626366138458252 -1.3364022237113495 1.5617929697036743 0.31912434101104736 False False
11307.133 0.8888487815856934 -1.7371121845641078 -1.5614113807678223 -1.3371361804059525 1.5618973970413208 0.32142776250839233 False False
11307.153 0.9013863205909729 -1.737950941125387 -1.5601253509521484 -1.337938905959465 1.56204092502594 0.3238072395324707 False False
11307.172999999999 0.9140084385871887 -1.7387243709959925 -1.5588963031768799 -1.3388259571841736 1.5620163679122925 0.326233834028244 False False
11307.193 0.9271175861358643 -1.7395640812315882 -1.5574196577072144 -1.3395200383714219 1.562216877937317 0.3286695182323456 False False
11307.213 0.9402568936347961 -1.7403766117491664 -1.555982232093811 -1.3404062402299424 1.5622483491897583 0.33116284012794495 False False
11307.233 0.9538952708244324 -1.7412225208678187 -1.554577112197876 -1.3412405264428635 1.5623377561569214 0.33373311161994934 False False
11307.252999999999 0.9677262902259827 -1.7421819172301234 -1.5531415939331055 -1.3419866424850007 1.562512755393982 0.3363466262817383 False False
11307.273 0.9816170930862427 -1.7430812321104945 -1.5517265796661377 -1.3430498999408265 1.5625205039978027 0.339061439037323 False False
11307.293 0.9956228733062744 -1.743880411187643 -1.5502210855484009 -1.3439584535411377 1.5626928806304932 0.3416752815246582 False False
11307.313 1.0095537900924683 -1.7447873554625453 -1.5486953258514404 -1.3447813552669068 1.5627083778381348 0.3443547487258911 False False
11307.332999999999 1.0234894752502441 -1.7456823788084925 -1.54717218875885 -1.3456732642701645 1.5628966093063354 0.3470572829246521 False False
11307.353 1.0374460220336914 -1.7465673885741175 -1.5457372665405273 -1.3465306174806138 1.5628923177719116 0.34970158338546753 False False
11307.373 1.0514570474624634 -1.7474609814085902 -1.5444135665893555 -1.3474681091359635 1.5630403757095337 0.35231196880340576 False False
11307.393 1.0653839111328125 -1.7484499416747035 -1.5428016185760498 -1.3482218396714707 1.5631284713745117 0.35494205355644226 False False
11307.412999999999 1.0794203281402588 -1.749240060845846 -1.5411701202392578 -1.3491446387818833 1.5632323026657104 0.3576241731643677 False False
11307.432999999999 1.0933122634887695 -1.7500997982420863 -1.5397437810897827 -1.3500949007323761 1.5633604526519775 0.36027178168296814 False False
11307.453 1.1072697639465332 -1.7510048351683558 -1.5384055376052856 -1.3511254650405427 1.5634247064590454 0.3628890812397003 False False
11307.473 1.1212153434753418 -1.7519732914366664 -1.5369958877563477 -1.3519152265838166 1.563584327697754 0.36559656262397766 False False
11307.493 1.1352609395980835 -1.7527696094908656 -1.5353646278381348 -1.352713258271553 1.5636205673217773 0.3681566119194031 False False
11307.512999999999 1.1491817235946655 -1.7535554371275843 -1.5337733030319214 -1.3535522383502503 1.5637683868408203 0.37089329957962036 False False
11307.533 1.163169503211975 -1.7545072040953578 -1.5324821472167969 -1.3545343738845368 1.5638244152069092 0.3735271096229553 False False
11307.553 1.1771531105041504 -1.755468030969137 -1.5311672687530518 -1.3554239881089707 1.5639324188232422 0.37612539529800415 False False
11307.573 1.191038966178894 -1.7563635311522425 -1.529599666595459 -1.356269897227623 1.564028263092041 0.37875550985336304 False False
11307.592999999999 1.2050672769546509 -1.757094522515768 -1.52797269821167 -1.3571653825095673 1.5641165971755981 0.38146939873695374 False False
11307.613 1.2190303802490234 -1.758066316644186 -1.5265346765518188 -1.3580580365708848 1.564244031906128 0.3840593695640564 False False
11307.633 1.2329347133636475 -1.758981843987936 -1.5252292156219482 -1.3589925926974793 1.564284324645996 0.3867618441581726 False False
11307.653 1.2469357252120972 -1.7598940334715785 -1.5238468647003174 -1.3597591084292908 1.564460039138794 0.3894619345664978 False False
11307.672999999999 1.2609357833862305 -1.760690828362936 -1.5222315788269043 -1.3607254785350342 1.564460039138794 0.39201804995536804 False False
11307.693 1.274843692779541 -1.7615229092040003 -1.5206646919250488 -1.3615227949670334 1.5646440982818604 0.3947386145591736 False False
11307.713 1.2887990474700928 -1.762510438958639 -1.519267201423645 -1.3623935592225571 1.5646923780441284 0.3973555266857147 False False
11307.733 1.3028193712234497 -1.7633000812926234 -1.5178972482681274 -1.3632913094810029 1.5647999048233032 0.3999585211277008 False False
11307.752999999999 1.316723108291626 -1.7642513714232386 -1.5163487195968628 -1.3642653089812775 1.5649001598358154 0.40268954634666443 False False
11307.773 1.330662488937378 -1.765045782128805 -1.5147911310195923 -1.3652078819325943 1.5649840831756592 0.405291348695755 False False
11307.793 1.3446305990219116 -1.7659431896605433 -1.5132651329040527 -1.3659575891545792 1.5650959014892578 0.4079173505306244 False False
11307.813 1.3586536645889282 -1.7668329677977503 -1.5118346214294434 -1.3668556970408936 1.5652005672454834 0.41061750054359436 False False
11307.832999999999 1.37262761592865 -1.7677251301207484 -1.5104129314422607 -1.3677023363164444 1.5653440952301025 0.41330012679100037 False False
11307.853 1.3865288496017456 -1.7686101398863734 -1.5089678764343262 -1.3687085670283814 1.565335750579834 0.4158899188041687 False False
11307.873 1.4005911350250244 -1.7695394955077113 -1.5073126554489136 -1.3694230777076264 1.5655038356781006 0.4185609817504883 False False
11307.893 1.414475679397583 -1.7703834972777308 -1.50578773021698 -1.3703613144210358 1.5655797719955444 0.42123696208000183 False False
11307.912999999999 1.4284356832504272 -1.7712556324400843 -1.504429578781128 -1.3713955891183396 1.5657083988189697 0.42386481165885925 False False
11307.932999999999 1.4423785209655762 -1.7721878490843714 -1.5030754804611206 -1.3722523313811799 1.5657634735107422 0.4265120029449463 False False
11307.953 1.4564038515090942 -1.7731338940062464 -1.501599669456482 -1.3730875116637726 1.5659523010253906 0.42925751209259033 False False
11307.973 1.4702991247177124 -1.77392639736318 -1.4999760389328003 -1.3738373231938859 1.5659918785095215 0.43181532621383667 False False
11307.993 1.4842665195465088 -1.7747494182982386 -1.498536467552185 -1.374808133845665 1.5660642385482788 0.43440383672714233 False False
11308.012999999999 1.4982553720474243 -1.775682111779684 -1.4972045421600342 -1.3756946188262482 1.566215991973877 0.437105655670166 False False
11308.033 1.512209415435791 -1.776640077630514 -1.4958213567733765 -1.376616970901825 1.5662800073623657 0.43977051973342896 False False
11308.053 1.5261201858520508 -1.7775246105589808 -1.4942128658294678 -1.377458633189537 1.5663676261901855 0.4424167275428772 False False
11308.073 1.5401989221572876 -1.7783290348448695 -1.4927057027816772 -1.3783921611360093 1.5665079355239868 0.445127010345459 False False
11308.092999999999 1.5541795492172241 -1.7793122730650843 -1.4913725852966309 -1.3792902690223237 1.5666077136993408 0.44775107502937317 False False
11308.113 1.568026065826416 -1.7801581821837367 -1.4899225234985352 -1.3801849049380799 1.5666879415512085 0.4503821134567261 False False
11308.133 1.5820391178131104 -1.7810107670226039 -1.4885203838348389 -1.3810501259616395 1.566755771636963 0.453090101480484 False False
11308.153 1.596098780632019 -1.781907697717184 -1.4868273735046387 -1.381826789384224 1.5668797492980957 0.4556516706943512 False False
11308.172999999999 1.609981656074524 -1.7827779255309046 -1.4853127002716064 -1.3827681851438065 1.5669636726379395 0.4583277404308319 False False
11308.193 1.623872995376587 -1.783713003198141 -1.4840024709701538 -1.383624554877617 1.567083477973938 0.46096280217170715 False False
11308.213 1.6378867626190186 -1.784562727014059 -1.4825748205184937 -1.3846059751561661 1.567171573638916 0.4636383354663849 False False
11308.233 1.6518735885620117 -1.7854725323119105 -1.4809621572494507 -1.3854178500226517 1.5673401355743408 0.4662279784679413 False False
11308.252999999999 1.6658525466918945 -1.7862888775267542 -1.4793657064437866 -1.3863710027984162 1.5673999786376953 0.46888062357902527 False False
11308.273 1.6798055171966553 -1.7871977291502894 -1.4779068231582642 -1.3872728806785126 1.567503809928894 0.47162526845932007 False False
11308.293 1.6936496496200562 -1.7881862125792445 -1.476554274559021 -1.3881060791066666 1.5675393342971802 0.47418129444122314 False False
11308.313 1.7075401544570923 -1.7890082798399867 -1.4751255512237549 -1.3889788401177903 1.5676716566085815 0.47685179114341736 False False
11308.332999999999 1.7209190130233765 -1.7899257145323695 -1.4735568761825562 -1.3897523295930405 1.5677311420440674 0.47944504022598267 False False
11308.353 1.7341350317001343 -1.790685316125387 -1.4721670150756836 -1.3905452650836487 1.5678114891052246 0.4819583594799042 False False
11308.373 1.74718177318573 -1.7914358578123988 -1.470781922340393 -1.3913992804339905 1.5679874420166016 0.48439154028892517 False False
11308.393 1.7597508430480957 -1.7922665081419886 -1.4695956707000732 -1.3924277436784287 1.5679874420166016 0.4867909550666809 False False
11308.412999999999 1.7720887660980225 -1.7930761776366175 -1.4683839082717896 -1.3931331646493454 1.5680832862854004 0.4891526997089386 False False
11308.432999999999 1.7842782735824585 -1.793811937371725 -1.4669760465621948 -1.3938023310950776 1.5682275295257568 0.4914388656616211 False False
11308.453 1.7961026430130005 -1.7944771252074183 -1.4656925201416016 -1.3945277941278 1.5682591199874878 0.49368128180503845 False False
11308.473 1.8076263666152954 -1.7952553234496058 -1.4644843339920044 -1.3952577722123642 1.568424105644226 0.4958675801753998 False False
11308.493 1.818750262260437 -1.7960158787169398 -1.4634182453155518 -1.395943046813347 1.5683834552764893 0.4980221390724182 False False
11308.512999999999 1.8298450708389282 -1.7966906032957972 -1.4623149633407593 -1.3967131537250062 1.5685235261917114 0.5000571012496948 False False
11308.533 1.8405812978744507 -1.7973882160582484 -1.461106300354004 -1.3973107647946854 1.5686556100845337 0.5021366477012634 False False
11308.553 1.8508456945419312 -1.7979885540404261 -1.4599591493606567 -1.3979960542968293 1.568598985671997 0.5041266083717346 False False
11308.573 1.8611787557601929 -1.7986642322936 -1.4588602781295776 -1.3986657720855256 1.5687272548675537 0.5060085654258728 False False
11308.592999999999 1.870941162109375 -1.7993012867369593 -1.4577940702438354 -1.399376006131508 1.5688594579696655 0.5078306198120117 False False
11308.613 1.8802547454833984 -1.7998930416502894 -1.4568928480148315 -1.4000058782151719 1.5688310861587524 0.5096958875656128 False False
11308.633 1.8898872137069702 -1.8004714451231898 -1.4558881521224976 -1.4004598718932648 1.568899154663086 0.5114988684654236 False False
11308.653 1.8988882303237915 -1.8011347256102503 -1.4549874067306519 -1.4009581369212647 1.5690433979034424 0.5132266879081726 False False
11308.672999999999 1.907387375831604 -1.8015595875182093 -1.4540451765060425 -1.4016643029502411 1.5690199136734009 0.5148579478263855 False False
11308.693 1.9159810543060303 -1.8021184406676234 -1.4530874490737915 -1.4021306794932862 1.569095492362976 0.5165110230445862 False False
11308.713 1.9243454933166504 -1.802654882470602 -1.452115774154663 -1.4026887577823182 1.569223403930664 0.5180061459541321 False False
11308.733 1.9319974184036255 -1.803159853021139 -1.451363444328308 -1.403195173745491 1.569223403930664 0.5195218920707703 False False
11308.752999999999 1.9396545886993408 -1.8036848507323207 -1.4506025314331055 -1.4036536824754258 1.5692436695098877 0.5210119485855103 False False
11308.773 1.947205662727356 -1.804164548913473 -1.449800729751587 -1.404064269070961 1.5693914890289307 0.5223261117935181 False False
11308.793 1.9541897773742676 -1.8046137295165003 -1.4491420984268188 -1.4045587939075013 1.5693750381469727 0.5236830711364746 False False
11308.813 1.9608731269836426 -1.8050147495665492 -1.448416829109192 -1.4049606782248993 1.5693708658218384 0.5250008702278137 False False
11308.832999999999 1.9673246145248413 -1.8053776226439417 -1.4477498531341553 -1.4054192018559952 1.5694751739501953 0.5262488722801208 False False
11308.853 1.9736413955688477 -1.8057266674437464 -1.4469702243804932 -1.4058580261519928 1.569543480873108 0.5274503231048584 False False
11308.873 1.9796427488327026 -1.8061701260008753 -1.4463242292404175 -1.4061884892037888 1.5695631504058838 0.5285267233848572 False False
11308.893 1.9853328466415405 -1.80650057415151 -1.4457603693008423 -1.4065350753119965 1.5695910453796387 0.5295721292495728 False False
11308.912999999999 1.9906386137008667 -1.806875844995016 -1.4451149702072144 -1.4068742555430909 1.569663405418396 0.5306386351585388 False False
11308.932999999999 1.99561607837677 -1.8071490726866664 -1.444628357887268 -1.407177285557129 1.5696874856948853 0.5316399335861206 False False
11308.953 2.0005240440368652 -1.807592054406637 -1.444182276725769 -1.4075168681195755 1.5696789026260376 0.5325657725334167 False False
11308.973 2.005164623260498 -1.8078333340086878 -1.4436661005020142 -1.407751054768898 1.5698153972625732 0.5333907604217529 False False
11308.993 2.0094103813171387 -1.8080793819823207 -1.4431697130203247 -1.4080303025296708 1.5697427988052368 0.5341719388961792 False False
11309.012999999999 2.0134012699127197 -1.8083187542357386 -1.442823052406311 -1.4082694065621872 1.5697509050369263 0.5349423885345459 False False
11309.033 2.017197608947754 -1.8085609875121058 -1.442471981048584 -1.4085407567075272 1.5698673725128174 0.5356157422065735 False False
11309.053 2.02055025100708 -1.808763166467184 -1.4421477317810059 -1.4087515783360978 1.569871187210083 0.5362946391105652 False False
11309.073 2.0236902236938477 -1.808939596215719 -1.4417474269866943 -1.4089871805957337 1.569891333580017 0.5369094014167786 False False
11309.092999999999 2.0266144275665283 -1.8091274700560511 -1.4414455890655518 -1.409110502605774 1.569899082183838 0.5374435782432556 False False
11309.113 2.0291748046875 -1.8093410931029261 -1.441127896308899 -1.4092662793448945 1.5699514150619507 0.5379830002784729 False False
11309.133 2.031482696533203 -1.8094235859312953 -1.4409902095794678 -1.4094336491874238 1.5699268579483032 0.5383560061454773 False False
11309.153 2.0335257053375244 -1.8095790348448695 -1.4407020807266235 -1.4095571798137208 1.5699671506881714 0.5387587547302246 False False
11309.172999999999 2.0353503227233887 -1.8096877537169398 -1.440489649772644 -1.4096332502416153 1.5699952840805054 0.5390983819961548 False False
11309.193 2.036736249923706 -1.8097573719420375 -1.44035005569458 -1.4097884756377717 1.569970726966858 0.5394102334976196 False False
11309.213 2.0379440784454346 -1.809840818444723 -1.440287709236145 -1.4098199617913743 1.569954752922058 0.5396410226821899 False False
11309.233 2.0389370918273926 -1.8099166355528773 -1.440144658088684 -1.4099081617644806 1.5699431896209717 0.539735734462738 False False
11309.252999999999 2.0395076274871826 -1.8099566898741664 -1.440098762512207 -1.4099320036223908 1.5699665546417236 0.5398402810096741 False False
11309.273 2.039858818054199 -1.8099481068053187 -1.4400370121002197 -1.4099279207042237 1.5699870586395264 0.5398762822151184 False False
11309.293 2.0399715900421143 -1.8100139103331507 -1.4400416612625122 -1.4099077445319672 1.5700231790542603 0.5398836135864258 False False
11309.313 2.039875030517578 -1.80997957805776 -1.4402035474777222 -1.409912334089615 1.569970726966858 0.5399370193481445 False False
11309.332999999999 2.0399277210235596 -1.8100887737669886 -1.440538763999939 -1.4094770115664979 1.569951057434082 0.539954423904419 False False
11309.353 2.0399115085601807 -1.8102647266783656 -1.441267728805542 -1.408683405523636 1.5698307752609253 0.5400483012199402 False False
11309.373 2.0399115085601807 -1.8103748760619105 -1.442173957824707 -1.4075588446906586 1.5695106983184814 0.5400750637054443 False False
11309.393 2.0399060249328613 -1.8105741939940394 -1.443413496017456 -1.406348006134369 1.5693594217300415 0.5400829315185547 False False
11309.412999999999 2.0399482250213623 -1.8108192882933558 -1.4449481964111328 -1.404516727929451 1.5690152645111084 0.5401459336280823 False False
11309.432999999999 2.039952039718628 -1.8109923801817835 -1.446790099143982 -1.4026872974685212 1.5687077045440674 0.5402426719665527 False False
11309.453 2.039968252182007 -1.8112489185728968 -1.449053406715393 -1.400690109734871 1.5682352781295776 0.5403354167938232 False False
11309.473 2.0399630069732666 -1.811582704583639 -1.4515187740325928 -1.3982299727252503 1.5677672624588013 0.5403904318809509 False False
11309.493 2.0399630069732666 -1.8118373356261195 -1.454028844833374 -1.3954195541194458 1.5671751499176025 0.5404820442199707 False False
11309.512999999999 2.040015935897827 -1.812221189538473 -1.4569660425186157 -1.3925485771945496 1.5666112899780273 0.540570080280304 False False
11309.533 2.0400168895721436 -1.8126818142332972 -1.4601325988769531 -1.3891677272370835 1.5660041570663452 0.5406485199928284 False False
11309.553 2.0399985313415527 -1.8132058582701625 -1.4635121822357178 -1.3856715273908158 1.5652953386306763 0.5407975316047668 False False
11309.573 2.0400278568267822 -1.8136512241759242 -1.4670279026031494 -1.3816962552121659 1.5645359754562378 0.5408965945243835 False False
11309.592999999999 2.04003643989563 -1.8141447506346644 -1.471068024635315 -1.377807081942894 1.5637638568878174 0.5410118699073792 False False
11309.613 2.039961814880371 -1.8147436581053675 -1.4754735231399536 -1.3733275395682831 1.562908411026001 0.5411882400512695 False False
11309.633 2.0399510860443115 -1.815301080743307 -1.4800667762756348 -1.3686616134694596 1.5620356798171997 0.5413448810577393 False False
11309.653 2.0400278568267822 -1.815906663934225 -1.4848268032073975 -1.363739402299263 1.5610960721969604 0.5415319204330444 False False
11309.672999999999 2.0399997234344482 -1.816592355767721 -1.489650011062622 -1.3585301500609894 1.5600963830947876 0.5416504144668579 False False
11309.693 2.040015935897827 -1.8173471889891566 -1.4949100017547607 -1.3529933255961915 1.5589603185653687 0.5418877601623535 False False
11309.713 2.0400490760803223 -1.818064352075094 -1.500441074371338 -1.347152204518654 1.5579050779342651 0.5419976711273193 False False
11309.733 2.0399997234344482 -1.8188845119872035 -1.5064045190811157 -1.3412405413440247 1.5566895008087158 0.5422370433807373 False False
11309.752999999999 2.0399587154388428 -1.8197680912413539 -1.512708067893982 -1.3348297786763688 1.555441975593567 0.5424489974975586 False False
11309.773 2.0400116443634033 -1.8205448589720667 -1.5191065073013306 -1.3282636416009446 1.5542738437652588 0.542603611946106 False False
11309.793 2.0399835109710693 -1.821427961389059 -1.5255248546600342 -1.3213534963181992 1.5528976917266846 0.5428604483604431 False False
11309.813 2.040004014968872 -1.8223234615721644 -1.5323739051818848 -1.314240650539734 1.5514986515045166 0.5431323051452637 False False
11309.832999999999 2.040032148361206 -1.8233057461180628 -1.5396498441696167 -1.3066789966872712 1.5501388311386108 0.5433182716369629 False False
11309.853 2.0400288105010986 -1.8243652782835902 -1.5473390817642212 -1.2988625925830384 1.5485705137252808 0.5435741543769836 False False
11309.873 2.039937973022461 -1.8253256283202113 -1.5550416707992554 -1.2909834545901795 1.5470507144927979 0.5438785552978516 False False
11309.893 2.0399672985076904 -1.826320310632223 -1.5628337860107422 -1.282612995510437 1.5454193353652954 0.5441124439239502 False False
11309.912999999999 2.0399630069732666 -1.8273755512633265 -1.571055293083191 -1.2740110915950318 1.5437233448028564 0.5443518757820129 False False
11309.932999999999 2.040004253387451 -1.8286062679686488 -1.579818844795227 -1.2653095585158844 1.5421044826507568 0.5446467399597168 False False
11309.953 2.0399744510650635 -1.8298975429930628 -1.5885992050170898 -1.2561261516860505 1.5402921438217163 0.5449589490890503 False False
11309.973 2.040015935897827 -1.8309241733946742 -1.5971676111221313 -1.2468946141055604 1.5385048389434814 0.54523766040802 False False
11309.993 2.0399951934814453 -1.8319932423033656 -1.6058871746063232 -1.237904356127121 1.5368013381958008 0.545545220375061 False False
11310.012999999999 2.0399997234344482 -1.8333202801146449 -1.614630937576294 -1.2292974156192322 1.5350496768951416 0.5458043217658997 False False
11310.033 2.039971351623535 -1.8343802891173304 -1.6225024461746216 -1.220863090162613 1.533570647239685 0.546087384223938 False False
11310.053 2.0400116443634033 -1.8352557621397914 -1.630055546760559 -1.2125998598388215 1.5320063829421997 0.5463221073150635 False False
11310.073 2.0399832725524902 -1.8362862072386683 -1.6378098726272583 -1.204869197016098 1.5303469896316528 0.5465855598449707 False False
11310.092999999999 2.04002046585083 -1.8374096355833949 -1.6453319787979126 -1.1975569886020203 1.528973937034607 0.5468409061431885 False False
11310.113 2.0399997234344482 -1.838351388970846 -1.6520591974258423 -1.1901392799666901 1.5275413990020752 0.5470762252807617 False False
11310.133 2.0399997234344482 -1.839074274102682 -1.6585637331008911 -1.1829595130733033 1.5262919664382935 0.5472708344459534 False False
11310.153 2.0399580001831055 -1.8400379619994105 -1.665223479270935 -1.1763716501048584 1.5249500274658203 0.5475688576698303 False False
11310.172999999999 2.039975881576538 -1.8409768543639125 -1.671760082244873 -1.1700863105109711 1.5237325429916382 0.5477191805839539 False False
11310.193 2.0400538444519043 -1.8417307339110316 -1.67762291431427 -1.1637926262668152 1.5226154327392578 0.547934353351593 False False
11310.213 2.040004253387451 -1.842403074304098 -1.6830055713653564 -1.1578262013247986 1.5213614702224731 0.5480694770812988 False False
11310.233 2.0399551391601562 -1.843114515344137 -1.6883641481399536 -1.1523323220065613 1.5203317403793335 0.5482534170150757 False False
11310.252999999999 2.0399580001831055 -1.84387268642568 -1.6936053037643433 -1.1470202964595337 1.5193172693252563 0.5484207272529602 False False
11310.273 2.0399744510650635 -1.8444577656187953 -1.698574185371399 -1.1420354706100007 1.5183155536651611 0.5486287474632263 False False
11310.293 2.0399744510650635 -1.8451100788512171 -1.7031519412994385 -1.1372793477824708 1.5173695087432861 0.5487765669822693 False False
11310.313 2.0399625301361084 -1.8457452259459437 -1.707573413848877 -1.1326297980597992 1.5165190696716309 0.5488744974136353 False False
11310.332999999999 2.039971351623535 -1.8462726078429164 -1.7115002870559692 -1.1286149781993409 1.5156807899475098 0.5490635633468628 False False
11310.353 2.039987802505493 -1.846764703790182 -1.7151262760162354 -1.1246060591987153 1.5149343013763428 0.5491748452186584 False False
11310.373 2.0400583744049072 -1.8471957645811976 -1.7186163663864136 -1.120933936243393 1.5141836404800415 0.5492292642593384 False False
11310.393 2.039992094039917 -1.8476339779295863 -1.7218385934829712 -1.1176086527160187 1.5135890245437622 0.54938143491745 False False
11310.412999999999 2.039992332458496 -1.8480383358397425 -1.7250115871429443 -1.114511178140976 1.5130300521850586 0.5494827628135681 False False
11310.432999999999 2.039971351623535 -1.8483735523619593 -1.727692723274231 -1.1116485756686707 1.5124351978302002 0.5495652556419373 False False
11310.453 2.0400071144104004 -1.8486596546568812 -1.7301288843154907 -1.109213338499405 1.5120205879211426 0.5496817827224731 False False
11310.473 2.0400173664093018 -1.8490034542479457 -1.7324548959732056 -1.1069110494903107 1.5114892721176147 0.5497579574584961 False False
11310.493 2.0400116443634033 -1.8493234119811 -1.7342981100082397 -1.1049901109984894 1.5110737085342407 0.5497884154319763 False False
11310.512999999999 2.0399951934814453 -1.8494426212706507 -1.7358074188232422 -1.1033135813525696 1.5108226537704468 0.549859881401062 False False
11310.533 2.0400161743164062 -1.8496023617186488 -1.7372114658355713 -1.1018603605083008 1.5105514526367188 0.5499255061149597 False False
11310.553 2.039987802505493 -1.8497268162169398 -1.738369345664978 -1.1006947320750733 1.5103195905685425 0.5499525666236877 False False
11310.573 2.0399832725524902 -1.8498670063414515 -1.7392023801803589 -1.0998770755580445 1.5102276802062988 0.5498828887939453 False False
11310.592999999999 2.040029525756836 -1.8498488865294398 -1.7396225929260254 -1.0993060034564515 1.5101840496063232 0.5499603748321533 False False
11310.613 2.040029525756836 -1.8498650989928187 -1.7398757934570312 -1.0990830820849915 1.5101242065429688 0.5499961376190186 False False
11310.633 2.0399670600891113 -1.849938531915182 -1.739925503730774 -1.0990991455367585 1.510160207748413 0.5499635934829712 False False
11310.653 2.0399951934814453 -1.8498932323851527 -1.739892840385437 -1.0990348023227234 1.5101401805877686 0.5499722957611084 False False
11310.672999999999 2.0399789810180664 -1.8500033817686976 -1.7399290800094604 -1.0991391998580475 1.5100562572479248 0.5499973297119141 False False
11310.693 2.040024995803833 -1.8499943218626917 -1.7398803234100342 -1.0990466338447114 1.51002836227417 0.5499929189682007 False False
11310.713 2.039987802505493 -1.8500076733031214 -1.7399042844772339 -1.0990585547736664 1.5100164413452148 0.5500257611274719 False False
11310.733 2.0399832725524902 -1.8500424824156703 -1.7399519681930542 -1.099090890293457 1.5099762678146362 0.5499591827392578 False False
11310.752999999999 2.0399744510650635 -1.8499986133971156 -1.739960789680481 -1.0990991455367585 1.5100042819976807 0.5500202178955078 False False
11310.773 2.0400116443634033 -1.8499895534911097 -1.7399901151657104 -1.09904299796138 1.5100324153900146 0.5499961376190186 False False
11310.793 2.040032386779785 -1.8500095806517542 -1.7399680614471436 -1.0990867775729676 1.5100165605545044 0.5499177575111389 False False
11310.813 2.040024995803833 -1.8500024280943812 -1.739964246749878 -1.0990589720061799 1.5099964141845703 0.5500127077102661 False False
11310.832999999999 2.0399909019470215 -1.8500219784178675 -1.7400250434875488 -1.0989745122245331 1.5099762678146362 0.5500159859657288 False False
11310.853 2.040036916732788 -1.8499685726561488 -1.7400250434875488 -1.0990187686732789 1.5099844932556152 0.5500159859657288 False False
11310.873 2.0399789810180664 -1.8500262699522914 -1.7400094270706177 -1.0990229708007355 1.5100127458572388 0.5500361323356628 False False
11310.893 2.0399744510650635 -1.8500544033446253 -1.7400341033935547 -1.0989950460246583 1.5099680423736572 0.5500481724739075 False False
11310.912999999999 2.040008544921875 -1.8499981365599574 -1.7400094270706177 -1.0989946287921448 1.5099881887435913 0.5500159859657288 False False
11310.932999999999 2.0399370193481445 -1.8500224552550257 -1.7400418519973755 -1.098986880188324 1.5100165605545044 0.5500361323356628 False False
11310.953 2.0399744510650635 -1.8500133953490199 -1.7400490045547485 -1.0990188878825684 1.5099923610687256 0.5499831438064575 False False
11310.973 2.04002046585083 -1.8500620327391566 -1.7400250434875488 -1.098982886677124 1.5100164413452148 0.5500635504722595 False False
11310.993 2.0399818420410156 -1.8500176868834437 -1.7399920225143433 -1.0990269643119355 1.510000467300415 0.5500603914260864 False False
11311.012999999999 2.0400071144104004 -1.849985738793844 -1.7400332689285278 -1.0990151923945923 1.50998854637146 0.550055980682373 False False
11311.033 2.0399789810180664 -1.8500262699522914 -1.7400164604187012 -1.0989909929088135 1.5099883079528809 0.5500361323356628 False False
11311.053 2.0399835109710693 -1.8500338993468226 -1.7400332689285278 -1.0989909631064911 1.5100042819976807 0.5500082969665527 False False
11311.073 2.039992332458496 -1.8499728641905726 -1.74000084400177 -1.0989746314338227 1.5099883079528809 0.5499711036682129 False False
11311.092999999999 2.040032386779785 -1.8500219784178675 -1.740007758140564 -1.0989668828300019 1.5099763870239258 0.5500202178955078 False False
11311.113 2.040004253387451 -1.850034853021139 -1.740007758140564 -1.0990353387645264 1.5100446939468384 0.5499831438064575 False False
11311.133 2.0400116443634033 -1.850046773950094 -1.7400531768798828 -1.0990110498717804 1.5099804401397705 0.5500361323356628 False False
11311.153 2.040024995803833 -1.8499981365599574 -1.7400858402252197 -1.098974661236145 1.510048747062683 0.55002760887146 False False
11311.172999999999 2.039975881576538 -1.8500586948790492 -1.7400447130203247 -1.0989508789828797 1.5100001096725464 0.5500039458274841 False False
11311.193 2.0399670600891113 -1.850013872186178 -1.7399840354919434 -1.098975048666336 1.5099525451660156 0.5500481724739075 False False
11311.213 2.0399906635284424 -1.8500305614867152 -1.740041732788086 -1.0990193051150818 1.5099923610687256 0.550064742565155 False False
11311.233 2.0400161743164062 -1.8500219784178675 -1.7400206327438354 -1.0990033012679596 1.5099804401397705 0.5500319004058838 False False
11311.252999999999 2.0399670600891113 -1.850091119805807 -1.7400288581848145 -1.0989787143519898 1.5100001096725464 0.5499787926673889 False False
11311.273 2.040020704269409 -1.8499356708922328 -1.740007758140564 -1.0990032714656373 1.5099841356277466 0.5499917268753052 False False
11311.293 2.040001153945923 -1.8500296078123988 -1.7400249242782593 -1.099043385391571 1.5100001096725464 0.5499831438064575 False False
11311.313 2.0399668216705322 -1.850034853021139 -1.7400288581848145 -1.0990311962417145 1.5099923610687256 0.5500289797782898 False False
11311.332999999999 2.0399997234344482 -1.8500219784178675 -1.740007758140564 -1.0989787441543122 1.5100042819976807 0.5500245690345764 False False
11311.353 2.039992332458496 -1.8500176868834437 -1.7400121688842773 -1.0989909929088135 1.5100083351135254 0.5499668717384338 False False
11311.373 2.0399625301361084 -1.8500663242735804 -1.7400206327438354 -1.0989829164794465 1.510028600692749 0.5499873757362366 False False
11311.393 2.0400116443634033 -1.8500052891173304 -1.7400164604187012 -1.0989950460246583 1.5099964141845703 0.5499560236930847 False False
11311.412999999999 2.0399787425994873 -1.8500262699522914 -1.7400288581848145 -1.0990393322757264 1.5100042819976807 0.5500202178955078 False False
11311.432999999999 2.0399832725524902 -1.8500095806517542 -1.7400373220443726 -1.0990515810302277 1.5099883079528809 0.5499679446220398 False False
11311.453 2.0400071144104004 -1.8499771557249964 -1.7400164604187012 -1.0990151923945923 1.5099923610687256 0.5500082969665527 False False
11311.473 2.039984703063965 -1.850034853021139 -1.7399754524230957 -1.0989869397929688 1.5099964141845703 0.5499917268753052 False False
11311.493 2.0399460792541504 -1.8500577412047328 -1.7400206327438354 -1.0989627701095124 1.5099523067474365 0.5499831438064575 False False
11311.512999999999 2.040024995803833 -1.850018163720602 -1.7400331497192383 -1.0990028840354462 1.5100001096725464 0.5500170588493347 False False
11311.533 2.0399861335754395 -1.8499533138670863 -1.7400249242782593 -1.099023388033249 1.51002836227417 0.5499438047409058 False False
11311.553 2.0399832725524902 -1.849985738793844 -1.7400403022766113 -1.0990234178355713 1.5099642276763916 0.5499482154846191 False False
11311.573 2.0399951934814453 -1.850046773950094 -1.7399883270263672 -1.0989950162223359 1.5100246667861938 0.5499842166900635 False False
11311.592999999999 2.040004253387451 -1.850034853021139 -1.7399797439575195 -1.0989669424346467 1.5099964141845703 0.5499810576438904 False False
11311.613 2.0399625301361084 -1.8500515423216761 -1.7400164604187012 -1.098970965748169 1.5100126266479492 0.5499560236930847 False False
11311.633 2.0399832725524902 -1.850013872186178 -1.74000084400177 -1.0989950460246583 1.5099883079528809 0.5499842166900635 False False
11311.653 2.039992332458496 -1.850018163720602 -1.7400009632110596 -1.0989787143519898 1.5099883079528809 0.5499929189682007 False False
11311.672999999999 2.0399951934814453 -1.8499981365599574 -1.7400050163269043 -1.0990311962417145 1.510040283203125 0.5500004887580872 False False
11311.693 2.0399580001831055 -1.8500477276244105 -1.7400164604187012 -1.0989991885474701 1.5100083351135254 0.5500082969665527 False False
11311.713 2.0400116443634033 -1.8500095806517542 -1.7399969100952148 -1.0989991885474701 1.5100123882293701 0.5500333309173584 False False
11311.733 2.0399997234344482 -1.8500024280943812 -1.7400121688842773 -1.0990151923945923 1.5099804401397705 0.5499961376190186 False False
11311.752999999999 2.040008783340454 -1.8499814472594203 -1.7399883270263672 -1.0989828270724793 1.5099961757659912 0.5499711036682129 False False
11311.773 2.039943218231201 -1.8499938450255335 -1.739992618560791 -1.0990029138377686 1.5100566148757935 0.5499831438064575 False False
11311.793 2.0399696826934814 -1.8499814472594203 -1.7400331497192383 -1.0989787441543122 1.5099762678146362 0.5499799251556396 False False
11311.813 2.0399997234344482 -1.8500052891173304 -1.7399883270263672 -1.0989869397929688 1.5100245475769043 0.5499961376190186 False False
11311.832999999999 2.0399909019470215 -1.8500095806517542 -1.7399883270263672 -1.0989787739566346 1.5099964141845703 0.5500202178955078 False False
11311.853 2.0399951934814453 -1.8499981365599574 -1.7400245666503906 -1.0989991885474701 1.5099961757659912 0.5499306917190552 False False
11311.873 2.0400280952453613 -1.8499895534911097 -1.740081787109375 -1.0989909929088135 1.5100042819976807 0.5500048398971558 False False
11311.893 2.0399832725524902 -1.849985738793844 -1.7400078773498535 -1.0990555149367829 1.5100204944610596 0.5499873757362366 False False
11311.912999999999 2.0399951934814453 -1.850013872186178 -1.7399883270263672 -1.0989627999118348 1.5100324153900146 0.5500004887580872 False False
11311.932999999999 2.040004253387451 -1.849985738793844 -1.739984154701233 -1.098982886677124 1.510000228881836 0.5500170588493347 False False
11311.953 2.040004253387451 -1.850018163720602 -1.7400373220443726 -1.0989787739566346 1.5100083351135254 0.5500059723854065 False False
11311.973 2.040036916732788 -1.8500305614867152 -1.7400290966033936 -1.0990072947791596 1.5099883079528809 0.5499842166900635 False False
11311.993 2.0399670600891113 -1.850046773950094 -1.740048885345459 -1.0989787739566346 1.5099804401397705 0.5500004887580872 False False
11312.012999999999 2.0399699211120605 -1.8499895534911097 -1.740048885345459 -1.0990188878825684 1.5100164413452148 0.5499722957611084 False False
11312.033 2.0400116443634033 -1.8499685726561488 -1.7400249242782593 -1.0990110498717804 1.5100003480911255 0.5499722957611084 False False
11312.053 2.0399832725524902 -1.8499609432616175 -1.7399768829345703 -1.098991022711136 1.5100122690200806 0.5499635338783264 False False
11312.073 2.0400116443634033 -1.850051065484518 -1.7399684190750122 -1.0990191263011475 1.5100042819976807 0.5499428510665894 False False
11312.092999999999 2.0399696826934814 -1.849985261956686 -1.7399725914001465 -1.0989788335612793 1.5100245475769043 0.5499394536018372 False False
11312.113 2.0399997234344482 -1.8499695263304652 -1.7400093078613281 -1.098950670366623 1.5099724531173706 0.5499917268753052 False False
11312.133 2.0399951934814453 -1.8500224552550257 -1.7399879693984985 -1.099051372413971 1.510000228881836 0.549959123134613 False False
11312.153 2.0399951934814453 -1.8500095806517542 -1.7399883270263672 -1.0990310174277802 1.5099923610687256 0.5499306917190552 False False
11312.172999999999 2.04002046585083 -1.8500381908812464 -1.7400009632110596 -1.0990109902671357 1.5099724531173706 0.5499754548072815 False False
11312.193 2.039992332458496 -1.8499771557249964 -1.7400249242782593 -1.0989950460246583 1.5100164413452148 0.5500004887580872 False False
11312.213 2.040004253387451 -1.8500305614867152 -1.7400530576705933 -1.0990591210177918 1.5099923610687256 0.5499547719955444 False False
11312.233 2.0400326251983643 -1.8499938450255335 -1.7400078773498535 -1.0989626509002228 1.5100164413452148 0.5499307513237 False False
11312.252999999999 2.0399580001831055 -1.850051065484518 -1.7400416135787964 -1.0990351301482697 1.5099843740463257 0.5499798655509949 False False
11312.273 2.04002046585083 -1.850051065484518 -1.739984154701233 -1.0990069073489686 1.5099843740463257 0.5499755144119263 False False
11312.293 2.0400660037994385 -1.8499771557249964 -1.7399883270263672 -1.0990190964988251 1.5100122690200806 0.550037682056427 False False
11312.313 2.039971351623535 -1.8500224552550257 -1.740077018737793 -1.0989910525134583 1.5100164413452148 0.5499917268753052 False False
11312.332999999999 2.0400495529174805 -1.8499895534911097 -1.7399768829345703 -1.0989510279944916 1.5099722146987915 0.5499917268753052 False False
11312.353 2.040037155151367 -1.8500024280943812 -1.7400164604187012 -1.0989308220199128 1.5100330114364624 0.5499798655509949 False False
11312.373 2.0400280952453613 -1.8499814472594203 -1.7400050163269043 -1.0989950460246583 1.510032296180725 0.5500301718711853 False False
11312.393 2.039992332458496 -1.8499814472594203 -1.7400164604187012 -1.0989910823157807 1.5100042819976807 0.5500082969665527 False False
11312.412999999999 2.0400280952453613 -1.8500009975829066 -1.7399883270263672 -1.098983035688736 1.5099962949752808 0.5499873757362366 False False
11312.432999999999 2.040079355239868 -1.8499895534911097 -1.739992618560791 -1.098970816736557 1.509980320930481 0.5499753952026367 False False
11312.453 2.0400280952453613 -1.8499728641905726 -1.7399555444717407 -1.0989950460246583 1.51002836227417 0.5500004887580872 False False
11312.473 2.0400235652923584 -1.850051065484518 -1.7399755716323853 -1.0990349513343354 1.5100284814834595 0.5499263405799866 False False
11312.493 2.040036916732788 -1.8499981365599574 -1.7399725914001465 -1.0989909333041687 1.510000228881836 0.5500136017799377 False False
11312.512999999999 2.0400326251983643 -1.8500095806517542 -1.7400416135787964 -1.0989710849574585 1.5100244283676147 0.5499873757362366 False False
11312.533 2.040032386779785 -1.8500024280943812 -1.739984154701233 -1.0990228813937684 1.5100363492965698 0.5499917268753052 False False
11312.553 2.039987802505493 -1.8499771557249964 -1.7400249242782593 -1.0990348917296906 1.5099725723266602 0.5499548316001892 False False
11312.573 2.0399951934814453 -1.8499771557249964 -1.7400416135787964 -1.0990068775466462 1.5099639892578125 0.5500048398971558 False False
11312.592999999999 2.0399997234344482 -1.8499814472594203 -1.7399883270263672 -1.099026845102646 1.5100363492965698 0.5500091314315796 False False
11312.613 2.0399951934814453 -1.8499661884703578 -1.7400164604187012 -1.0990109604648133 1.510032296180725 0.5500048398971558 False False
11312.633 2.039971351623535 -1.8499814472594203 -1.740054726600647 -1.099026845102646 1.5099923610687256 0.5499917268753052 False False
11312.653 2.0399909019470215 -1.849990030328268 -1.7399842739105225 -1.098962889318802 1.5099804401397705 0.550046443939209 False False
11312.672999999999 2.0400071144104004 -1.8499447307982386 -1.74000084400177 -1.0989788335612793 1.5099923610687256 0.5499917268753052 False False
11312.693 2.0399832725524902 -1.8499728641905726 -1.7400093078613281 -1.099010930662491 1.5100204944610596 0.5499754548072815 False False
11312.713 2.040041446685791 -1.849985738793844 -1.739971399307251 -1.0989630085280915 1.5099923610687256 0.5500202178955078 False False
11312.733 2.0399997234344482 -1.8499609432616175 -1.740048885345459 -1.0990308982184906 1.5100363492965698 0.5499754548072815 False False
11312.752999999999 2.040004253387451 -1.850013872186178 -1.7399883270263672 -1.0990308386138459 1.5099923610687256 0.5499885678291321 False False
11312.773 2.0399835109710693 -1.8499695263304652 -1.7399768829345703 -1.0990308386138459 1.51005220413208 0.5500039458274841 False False
11312.793 2.040029287338257 -1.8500544033446253 -1.7400206327438354 -1.0990308386138459 1.5100244283676147 0.5499668717384338 False False
11312.813 2.040004253387451 -1.850018163720602 -1.7399600744247437 -1.0990267854980011 1.5100206136703491 0.5499961376190186 False False
11312.832999999999 2.0399832725524902 -1.8500601253905238 -1.7400180101394653 -1.0990188878825684 1.5099562406539917 0.5499438047409058 False False
11312.853 2.040015935897827 -1.850051065484518 -1.7399799823760986 -1.0989871484092255 1.5100206136703491 0.5499961376190186 False False
11312.873 2.0399463176727295 -1.8499986133971156 -1.7399883270263672 -1.0990228217891236 1.5100328922271729 0.5499917268753052 False False
11312.893 2.040032386779785 -1.8499518833556117 -1.7399966716766357 -1.099010930662491 1.5100288391113281 0.5500082969665527 False False
11312.912999999999 2.0399625301361084 -1.8500024280943812 -1.7399842739105225 -1.099014864569046 1.5100042819976807 0.5499831438064575 False False
11312.932999999999 2.0399832725524902 -1.849985261956686 -1.7399685382843018 -1.09903900445018 1.5099283456802368 0.5499463081359863 False False
11312.953 2.0399744510650635 -1.8499728641905726 -1.7399643659591675 -1.098987178211548 1.5099964141845703 0.5499842166900635 False False
11312.973 2.04002046585083 -1.8500176868834437 -1.7399685382843018 -1.099014864569046 1.509972333908081 0.5499961376190186 False False
11312.993 2.0399715900421143 -1.8500553570189417 -1.7400414943695068 -1.0989950758269806 1.5099562406539917 0.5499798655509949 False False
11313.012999999999 2.0399909019470215 -1.850006719628805 -1.7400248050689697 -1.0989950758269806 1.5100207328796387 0.5499798059463501 False False
11313.033 2.0399997234344482 -1.8499814472594203 -1.7400248050689697 -1.099027083521225 1.5099883079528809 0.5500127077102661 False False
11313.053 2.0400116443634033 -1.8500644169249476 -1.7400290966033936 -1.0989909631064911 1.5099918842315674 0.5499711632728577 False False
11313.073 2.0399951934814453 -1.8500219784178675 -1.7400050163269043 -1.099035159950592 1.5100407600402832 0.5499679446220398 False False
11313.092999999999 2.0399835109710693 -1.8500009975829066 -1.740053415298462 -1.0990351897529145 1.5100001096725464 0.5500127077102661 False False
11313.113 2.0399463176727295 -1.8500262699522914 -1.7400094270706177 -1.0990033608726044 1.5100125074386597 0.5500213503837585 False False
11313.133 2.039992094039917 -1.8500391445555628 -1.7400094270706177 -1.098986880188324 1.5100083351135254 0.5500039458274841 False False
11313.153 2.039992332458496 -1.8500305614867152 -1.7399680614471436 -1.099071280365326 1.5099964141845703 0.5499961376190186 False False
11313.172999999999 2.040004014968872 -1.8499938450255335 -1.7399427890777588 -1.0990593296340485 1.5099480152130127 0.5499798655509949 False False
11313.193 2.0400116443634033 -1.8500024280943812 -1.7400447130203247 -1.0990110498717804 1.5100042819976807 0.5500202178955078 False False
11313.213 2.0399715900421143 -1.8500024280943812 -1.740051031112671 -1.099035159950592 1.5100206136703491 0.5499917268753052 False False
11313.233 2.0399954319000244 -1.850013872186178 -1.7399882078170776 -1.0990028840354462 1.5100324153900146 0.5500082969665527 False False
11313.252999999999 2.0399627685546875 -1.8499695263304652 -1.7399553060531616 -1.0990069669536133 1.5099918842315674 0.5500127077102661 False False
11313.273 2.0399258136749268 -1.8500219784178675 -1.740013837814331 -1.0989986819079895 1.5099923610687256 0.5500376224517822 False False
11313.293 2.0399670600891113 -1.8499609432616175 -1.740053415298462 -1.0990270537189026 1.5100042819976807 0.5499961376190186 False False
11313.313 2.040004014968872 -1.8500267467894496 -1.7399253845214844 -1.099018858080246 1.5099643468856812 0.550004780292511 False False
11313.332999999999 2.0400173664093018 -1.849964281121725 -1.7400622367858887 -1.0990028840354462 1.5100288391113281 0.5499635934829712 False False
11313.353 2.040004014968872 -1.8500262699522914 -1.7400094270706177 -1.0990552467158814 1.5100164413452148 0.5499885678291321 False False
11313.373 2.0399670600891113 -1.8500305614867152 -1.7400332689285278 -1.0989909631064911 1.5100165605545044 0.5500170588493347 False False
11313.393 2.0399835109710693 -1.8500262699522914 -1.7400463819503784 -1.0990028840354462 1.5100123882293701 0.5499961376190186 False False
11313.412999999999 2.040004014968872 -1.8500424824156703 -1.7399766445159912 -1.0990152221969147 1.5099886655807495 0.5500082969665527 False False
11313.432999999999 2.040004014968872 -1.8499566517271937 -1.740051031112671 -1.0990028840354462 1.5099804401397705 0.5500289797782898 False False
11313.453 2.0399627685546875 -1.850034853021139 -1.740049123764038 -1.099027083521225 1.509964108467102 0.5499592423439026 False False
11313.473 2.0400116443634033 -1.8499728641905726 -1.7399767637252808 -1.0990433555892487 1.510044813156128 0.5500245690345764 False False
11313.493 2.0399909019470215 -1.850051065484518 -1.7399767637252808 -1.0989992183497925 1.5099923610687256 0.5499961376190186 False False
11313.512999999999 2.0400454998016357 -1.8500663242735804 -1.7400094270706177 -1.098986880188324 1.5099722146987915 0.5499873757362366 False False
11313.533 2.039992094039917 -1.8499814472594203 -1.7400007247924805 -1.0990392726710816 1.5100206136703491 0.5500245690345764 False False
11313.553 2.040008544921875 -1.8500024280943812 -1.739959716796875 -1.0989909631064911 1.5100001096725464 0.5500082969665527 False False
11313.573 2.040024757385254 -1.8500024280943812 -1.740024447441101 -1.0989950460246583 1.5099923610687256 0.5500333309173584 False False
11313.592999999999 2.039959669113159 -1.8500424824156703 -1.7400332689285278 -1.0990151923945923 1.5099841356277466 0.5499917268753052 False False
11313.613 2.040032148361206 -1.849973817864889 -1.7400120496749878 -1.0990434151938935 1.5099443197250366 0.5499473214149475 False False
11313.633 2.0399835109710693 -1.849985261956686 -1.7400139570236206 -1.0990310472301026 1.5100042819976807 0.5499916672706604 False False
11313.653 2.039987802505493 -1.8500553570189417 -1.7399795055389404 -1.098974661236145 1.5100042819976807 0.5500376224517822 False False
11313.672999999999 2.0399346351623535 -1.8500586948790492 -1.7400094270706177 -1.0990069967559357 1.5099722146987915 0.5499592423439026 False False
11313.693 2.0400116443634033 -1.8500009975829066 -1.7400050163269043 -1.0990635317615052 1.5100369453430176 0.5499517321586609 False False
11313.713 2.040032148361206 -1.8500391445555628 -1.7400050163269043 -1.0989992183497925 1.5099923610687256 0.5499635934829712 False False
11313.733 2.0400116443634033 -1.8500095806517542 -1.7399839162826538 -1.0990152221969147 1.5100206136703491 0.5499917268753052 False False
11313.752999999999 2.0399863719940186 -1.850034853021139 -1.7399839162826538 -1.098970578317978 1.5100246667861938 0.5500333309173584 False False
11313.773 2.0399835109710693 -1.8500176868834437 -1.7400578260421753 -1.0990069073489686 1.5100164413452148 0.5499885082244873 False False
11313.793 2.039992094039917 -1.850013872186178 -1.7399641275405884 -1.0989909631064911 1.510036587715149 0.5500004291534424 False False
11313.813 2.0399866104125977 -1.8499652347960414 -1.740041971206665 -1.0990069669536133 1.5100005865097046 0.5499961376190186 False False
11313.832999999999 2.0399997234344482 -1.8499938450255335 -1.7399812936782837 -1.098974661236145 1.5099883079528809 0.5500333309173584 False False
11313.853 2.0399954319000244 -1.8499728641905726 -1.7400375604629517 -1.0990229409984131 1.5099883079528809 0.5499799251556396 False False
11313.873 2.0399789810180664 -1.849990030328268 -1.7399839162826538 -1.0990310174277802 1.5100246667861938 0.5499635934829712 False False
11313.893 2.0399792194366455 -1.8499509296812953 -1.740020751953125 -1.099011020069458 1.5100446939468384 0.549967885017395 False False
11313.912999999999 2.0399670600891113 -1.8499814472594203 -1.7400447130203247 -1.0989869099906464 1.5100525617599487 0.5499516725540161 False False
11313.932999999999 2.040015935897827 -1.8499609432616175 -1.7399970293045044 -1.0990029138377686 1.5100526809692383 0.5499873757362366 False False
11313.953 2.0399715900421143 -1.8499814472594203 -1.7399811744689941 -1.0990311664393921 1.5100246667861938 0.5499306917190552 False False
11313.973 2.0399672985076904 -1.8499895534911097 -1.7400094270706177 -1.0990189176848908 1.5099965333938599 0.5499997138977051 False False
11313.993 2.040032148361206 -1.850013872186178 -1.739992618560791 -1.0989869695952912 1.5100125074386597 0.5499960780143738 False False
11314.012999999999 2.0399627685546875 -1.8500133953490199 -1.740020751953125 -1.0990270537189026 1.5100246667861938 0.5500048398971558 False False
11314.033 2.040004014968872 -1.8499728641905726 -1.7400332689285278 -1.0989909631064911 1.5099722146987915 0.5500290393829346 False False
11314.053 2.040015935897827 -1.8499895534911097 -1.7400623559951782 -1.0990110498717804 1.5099923610687256 0.5499505996704102 False False
11314.073 2.0400125980377197 -1.8499723873534144 -1.7399680614471436 -1.0990229708007355 1.5100206136703491 0.5499635934829712 False False
11314.092999999999 2.0399510860443115 -1.850006719628805 -1.7399767637252808 -1.0990188878825684 1.5099644660949707 0.5500333309173584 False False
11314.113 2.039992094039917 -1.8499356708922328 -1.7400164604187012 -1.0989827078631897 1.5100001096725464 0.5500004887580872 False False
11314.133 2.0399627685546875 -1.850046773950094 -1.7400164604187012 -1.0989950460246583 1.5100165605545044 0.5500289797782898 False False
11314.153 2.0399792194366455 -1.8499895534911097 -1.7400007247924805 -1.0990189176848908 1.5100042819976807 0.5499873161315918 False False
11314.172999999999 2.040015935897827 -1.8500176868834437 -1.7399839162826538 -1.0990269643119355 1.5100123882293701 0.5499722957611084 False False
11314.193 2.040020227432251 -1.8499981365599574 -1.740020751953125 -1.0990511936000367 1.510048508644104 0.5499548316001892 False False
11314.213 2.039959669113159 -1.849964281121725 -1.740041971206665 -1.099047527914383 1.5099804401397705 0.5500332713127136 False False
11314.233 2.0399835109710693 -1.8499981365599574 -1.7400375604629517 -1.0990470212749024 1.5099438428878784 0.550004780292511 False False
11314.252999999999 2.039987802505493 -1.8500110111632289 -1.7399795055389404 -1.0990351897529145 1.5099923610687256 0.5500289797782898 False False
11314.273 2.0399630069732666 -1.8499814472594203 -1.7400094270706177 -1.0990028840354462 1.5099964141845703 0.5499961376190186 False False
11314.293 2.0400450229644775 -1.8500095806517542 -1.7400075197219849 -1.0990229708007355 1.5100164413452148 0.5500170588493347 False False
11314.313 2.0400168895721436 -1.8499967060484828 -1.7400288581848145 -1.0990229708007355 1.5100246667861938 0.5500404834747314 False False
11314.332999999999 2.0399835109710693 -1.8499814472594203 -1.7400555610656738 -1.0990069669536133 1.5099759101867676 0.5499711632728577 False False
11314.353 2.039987802505493 -1.8499695263304652 -1.7399970293045044 -1.0989950460246583 1.5100001096725464 0.5499916672706604 False False
11314.373 2.0400116443634033 -1.8500024280943812 -1.739996314048767 -1.0990229708007355 1.5099841356277466 0.5499429702758789 False False
11314.393 2.040008306503296 -1.850046773950094 -1.7400578260421753 -1.0990188878825684 1.5100001096725464 0.5500448942184448 False False
11314.412999999999 2.0399835109710693 -1.8499685726561488 -1.7400016784667969 -1.0989504319480439 1.5099680423736572 0.5500048398971558 False False
11314.432999999999 2.0400564670562744 -1.8500024280943812 -1.7400288581848145 -1.0990028840354462 1.5100083351135254 0.5499873757362366 False False
11314.453 2.040004014968872 -1.8500052891173304 -1.7400094270706177 -1.0989627701095124 1.5099883079528809 0.5500082969665527 False False
11314.473 2.039992094039917 -1.8500219784178675 -1.7399882078170776 -1.0990270239165802 1.5099762678146362 0.5499711632728577 False False
11314.493 2.0400073528289795 -1.8500095806517542 -1.740025281906128 -1.0990552765182038 1.5100325345993042 0.5499873757362366 False False
11314.512999999999 2.0399746894836426 -1.8499728641905726 -1.7400139570236206 -1.099019245510437 1.5100324153900146 0.5499885678291321 False False
11314.533 2.0399835109710693 -1.8499938450255335 -1.739992618560791 -1.0990188878825684 1.5100125074386597 0.5500127673149109 False False
11314.553 2.039930582046509 -1.8499599895873011 -1.7400251626968384 -1.0989746314338227 1.5100488662719727 0.5500082969665527 False False
11314.573 2.0400278568267822 -1.8499771557249964 -1.7399839162826538 -1.0990106624415894 1.5100526809692383 0.5500289797782898 False False
11314.592999999999 2.040020227432251 -1.850018163720602 -1.739992618560791 -1.098982886677124 1.5100164413452148 0.5499842166900635 False False
11314.613 2.0399954319000244 -1.8500267467894496 -1.7399882078170776 -1.0989992183497925 1.5100042819976807 0.5499873757362366 False False
11314.633 2.0399997234344482 -1.8500338993468226 -1.7400332689285278 -1.0990593296340485 1.509984016418457 0.5500039458274841 False False
11314.653 2.040015935897827 -1.8500219784178675 -1.7401076555252075 -1.0990353387645264 1.5099360942840576 0.5499264001846313 False False
11314.672999999999 2.040008306503296 -1.8499981365599574 -1.7400623559951782 -1.0990110498717804 1.5099680423736572 0.550041913986206 False False
11314.693 2.040065288543701 -1.8499652347960414 -1.74000084400177 -1.099007324581482 1.5100001096725464 0.5499954223632812 False False
11314.713 2.0399672985076904 -1.8500553570189417 -1.7400075197219849 -1.0989950460246583 1.5099964141845703 0.5499722957611084 False False
11314.733 2.040053367614746 -1.8499981365599574 -1.7400007247924805 -1.0989787143519898 1.5099685192108154 0.5499429702758789 False False
11314.752999999999 2.0400073528289795 -1.8500176868834437 -1.7399722337722778 -1.099023000603058 1.5100042819976807 0.5500245690345764 False False
