Andreas691667/Digital_Twin_UR/src/controller_monitor/test_results/robot_output.csv
timestamp actual_q_0 actual_q_1 actual_q_2 actual_q_3 actual_q_4 actual_q_5 output_bit_register_65 output_bit_register_66
10758.685 2.040050983428955 -1.8342768154540003 -1.6953186988830566 -1.1395599108985444 1.5180566310882568 0.548872709274292 False False
10758.705 2.040059804916382 -1.834268709222311 -1.6953526735305786 -1.1395278435996552 1.518088698387146 0.5488906502723694 False False
10758.725 2.040120840072632 -1.8343140087523402 -1.6953928470611572 -1.139548437004425 1.518076777458191 0.5489025115966797 False False
10758.744999999999 2.040050983428955 -1.8343225918211878 -1.695346713066101 -1.1395722192576905 1.5180727243423462 0.5489070415496826 False False
10758.765 2.0400924682617188 -1.834254880944723 -1.6953601837158203 -1.1396005016616364 1.5180485248565674 0.5488771200180054 False False
10758.785 2.040071725845337 -1.8343092403807582 -1.695367693901062 -1.1395640832236786 1.5180927515029907 0.5489311218261719 False False
10758.805 2.040034532546997 -1.834236284295553 -1.695346713066101 -1.139628456240036 1.5180764198303223 0.5488861203193665 False False
10758.824999999999 2.0400640964508057 -1.8342319927611292 -1.6953275203704834 -1.1395521324924012 1.5180448293685913 0.5489147901535034 False False
10758.845 2.0401501655578613 -1.8342467747130335 -1.6953586339950562 -1.139584169988968 1.518044352531433 0.5488906502723694 False False
10758.865 2.040067195892334 -1.8343168697752894 -1.6953928470611572 -1.1395923656276246 1.518032431602478 0.5489565134048462 False False
10758.885 2.040043592453003 -1.8342443905272425 -1.6953601837158203 -1.1395640832236786 1.5180485248565674 0.5489041805267334 False False
10758.904999999999 2.040043592453003 -1.8342844448485316 -1.6953884363174438 -1.139515684252121 1.518072247505188 0.5488906502723694 False False
10758.925 2.040088176727295 -1.8342930279173792 -1.695355772972107 -1.1395279330066224 1.518080472946167 0.5488906502723694 False False
10758.945 2.040034770965576 -1.834236284295553 -1.6953394412994385 -1.1395599108985444 1.5180726051330566 0.5488697290420532 False False
10758.965 2.040050983428955 -1.8342400989928187 -1.6953884363174438 -1.1395562154105683 1.5180644989013672 0.5489282011985779 False False
10758.984999999999 2.0400640964508057 -1.8342157802977503 -1.6953601837158203 -1.1395603281310578 1.5180325508117676 0.5489311218261719 False False
10759.005 2.0400805473327637 -1.8342887363829554 -1.6954840421676636 -1.1395480793765564 1.518024206161499 0.5488951206207275 False False
10759.025 2.040087938308716 -1.834297319451803 -1.6953601837158203 -1.139584169988968 1.5180364847183228 0.5489147305488586 False False
10759.045 2.0400760173797607 -1.834264417687887 -1.6953765153884888 -1.1395278734019776 1.518104910850525 0.54893559217453 False False
10759.064999999999 2.0400390625 -1.834313531915182 -1.6953513622283936 -1.1395320159247895 1.518076777458191 0.5489205718040466 False False
10759.085 2.0401132106781006 -1.8342768154540003 -1.6953601837158203 -1.1395074886134644 1.5180681943893433 0.5489282011985779 False False
10759.105 2.0400848388671875 -1.8342811069884242 -1.6953513622283936 -1.1395640832236786 1.5180283784866333 0.5489147305488586 False False
10759.125 2.040083646774292 -1.8342486820616664 -1.6953482627868652 -1.1395640832236786 1.5180644989013672 0.5489490628242493 False False
10759.144999999999 2.0400304794311523 -1.8342601261534632 -1.6953928470611572 -1.1395923060229798 1.5180283784866333 0.5489070415496826 False False
10759.164999999999 2.04006290435791 -1.834240575829977 -1.6953513622283936 -1.1395681363395234 1.5180604457855225 0.5489147305488586 False False
10759.185 2.0400760173797607 -1.834334512750143 -1.695355772972107 -1.139588252907135 1.518080472946167 0.5488608479499817 False False
10759.205 2.040067434310913 -1.8342486820616664 -1.695355772972107 -1.1395562452128907 1.518080472946167 0.548923671245575 False False
10759.225 2.0400924682617188 -1.8342515430846156 -1.6954009532928467 -1.1395521622947236 1.518076777458191 0.5488906502723694 False False
10759.244999999999 2.04006290435791 -1.8342768154540003 -1.695367693901062 -1.1395321053317566 1.5180444717407227 0.5489147305488586 False False
10759.265 2.040087938308716 -1.8342768154540003 -1.695355772972107 -1.1395480793765564 1.5180764198303223 0.5489237308502197 False False
10759.285 2.040031671524048 -1.8342601261534632 -1.6953840255737305 -1.1395722490600129 1.518040657043457 0.5489237308502197 False False
10759.305 2.040083646774292 -1.8342887363829554 -1.695363163948059 -1.1396165055087586 1.518052577972412 0.5489147305488586 False False
10759.324999999999 2.040071725845337 -1.8342601261534632 -1.6953588724136353 -1.1395722490600129 1.5180402994155884 0.5489237308502197 False False
10759.345 2.040055513381958 -1.834236284295553 -1.6953884363174438 -1.1395361584476014 1.5180726051330566 0.5489115118980408 False False
10759.365 2.040034770965576 -1.8342639408507289 -1.6953884363174438 -1.1396005016616364 1.5180325508117676 0.5488980412483215 False False
10759.385 2.040071725845337 -1.834297319451803 -1.695355772972107 -1.1395402711680909 1.5180243253707886 0.5488697290420532 False False
10759.404999999999 2.040083646774292 -1.834285398522848 -1.6953219175338745 -1.1395602983287354 1.5180444717407227 0.5489282608032227 False False
10759.425 2.0400750637054443 -1.8342319927611292 -1.6953765153884888 -1.1396325391582032 1.5180079936981201 0.5489025115966797 False False
10759.445 2.0400967597961426 -1.8342486820616664 -1.695339560508728 -1.1395922762206574 1.5180604457855225 0.548949122428894 False False
10759.465 2.0400967597961426 -1.834257265130514 -1.6953808069229126 -1.1395279926112671 1.5181128978729248 0.5489070415496826 False False
10759.484999999999 2.0400760173797607 -1.8342844448485316 -1.6953884363174438 -1.139584169988968 1.5180928707122803 0.5488907098770142 False False
10759.505 2.040067434310913 -1.8342725239195765 -1.6953721046447754 -1.1395321053317566 1.518068552017212 0.5489655137062073 False False
10759.525 2.040005922317505 -1.8343049488463343 -1.6953721046447754 -1.139584169988968 1.5180485248565674 0.5488906502723694 False False
10759.545 2.0400760173797607 -1.8342558346190394 -1.6953588724136353 -1.1396165055087586 1.5180644989013672 0.5489237308502197 False False
10759.564999999999 2.040039300918579 -1.8343221149840296 -1.6953601837158203 -1.1396284264377137 1.518088698387146 0.5489237308502197 False False
10759.585 2.0400803089141846 -1.8342400989928187 -1.6953883171081543 -1.1395116311362763 1.5180124044418335 0.5489445924758911 False False
10759.605 2.040055513381958 -1.8343106708922328 -1.6953469514846802 -1.139588252907135 1.518068552017212 0.5489282608032227 False False
10759.625 2.0400922298431396 -1.8343006573119105 -1.695311188697815 -1.1394997102073212 1.5180686712265015 0.5489070415496826 False False
10759.644999999999 2.040059804916382 -1.8342725239195765 -1.6953964233398438 -1.1395115715316315 1.5180604457855225 0.54893559217453 False False
10759.664999999999 2.040055513381958 -1.834268709222311 -1.6953469514846802 -1.1395640832236786 1.5180727243423462 0.5489025115966797 False False
10759.685 2.0400588512420654 -1.8343006573119105 -1.6953558921813965 -1.139564113026001 1.5180727243423462 0.548932671546936 False False
10759.705 2.0400545597076416 -1.8343502483763636 -1.6953469514846802 -1.1395320457271119 1.518088698387146 0.5488980412483215 False False
10759.725 2.040067434310913 -1.8342515430846156 -1.6953763961791992 -1.1395521622947236 1.5180845260620117 0.5488411784172058 False False
10759.744999999999 2.0400760173797607 -1.8342515430846156 -1.6954096555709839 -1.1395722490600129 1.5180485248565674 0.5489237904548645 False False
10759.765 2.0400640964508057 -1.8342558346190394 -1.6954009532928467 -1.1395599108985444 1.5180484056472778 0.5489311218261719 False False
10759.785 2.0400145053863525 -1.8342443905272425 -1.6953516006469727 -1.139600471859314 1.5180202722549438 0.5489609837532043 False False
10759.805 2.0401053428649902 -1.8341862163939417 -1.6953794956207275 -1.139584169988968 1.5180284976959229 0.5489025115966797 False False
10759.824999999999 2.040071725845337 -1.834301610986227 -1.6954095363616943 -1.1396005016616364 1.5180160999298096 0.5488935708999634 False False
10759.845 2.0400426387786865 -1.8342529735960902 -1.6953883171081543 -1.1395278734019776 1.518080472946167 0.54893559217453 False False
10759.865 2.0400359630584717 -1.8342887363829554 -1.6953721046447754 -1.1395438772490998 1.5180485248565674 0.5489237308502197 False False
10759.885 2.0400478839874268 -1.8343106708922328 -1.6953632831573486 -1.139536128645279 1.5180727243423462 0.548940122127533 False False
10759.904999999999 2.040079355239868 -1.8342844448485316 -1.6953763961791992 -1.139608697300293 1.5180764198303223 0.5488787293434143 False False
10759.925 2.0400760173797607 -1.8342443905272425 -1.6953883171081543 -1.1395681661418458 1.5180764198303223 0.5489070415496826 False False
10759.945 2.040071725845337 -1.8342811069884242 -1.695368766784668 -1.1395681661418458 1.518032431602478 0.5489311218261719 False False
10759.965 2.0400922298431396 -1.834301610986227 -1.6953927278518677 -1.1396247011474152 1.5180764198303223 0.5489237904548645 False False
10759.984999999999 2.040067434310913 -1.8343211613097132 -1.6953850984573364 -1.1395640832236786 1.5180566310882568 0.5488816499710083 False False
10760.005 2.0400965213775635 -1.8343049488463343 -1.695342779159546 -1.139559881096222 1.5181050300598145 0.5489070415496826 False False
10760.025 2.040006160736084 -1.8342443905272425 -1.6953721046447754 -1.139588252907135 1.5180726051330566 0.5489070415496826 False False
10760.045 2.040051221847534 -1.8342558346190394 -1.6953634023666382 -1.1395562452128907 1.5180485248565674 0.5489237308502197 False False
10760.064999999999 2.0400426387786865 -1.8342234096922816 -1.6953558921813965 -1.139608697300293 1.5180927515029907 0.548869788646698 False False
10760.085 2.040071725845337 -1.834285398522848 -1.6953678131103516 -1.1395800870708008 1.5180284976959229 0.5489070415496826 False False
10760.105 2.040071725845337 -1.8342811069884242 -1.6954127550125122 -1.1395599108985444 1.5180566310882568 0.5489237308502197 False False
10760.125 2.040121555328369 -1.834297319451803 -1.6954095363616943 -1.1395443242839356 1.518024206161499 0.5489445328712463 False False
10760.144999999999 2.040051221847534 -1.8342768154540003 -1.6953601837158203 -1.1395197671702881 1.5180364847183228 0.5488907098770142 False False
10760.164999999999 2.0400230884552 -1.8342930279173792 -1.6953516006469727 -1.1395562154105683 1.5180764198303223 0.5489311218261719 False False
10760.185 2.0401127338409424 -1.8342682323851527 -1.6953794956207275 -1.1395681661418458 1.518068552017212 0.5488832592964172 False False
10760.205 2.040083646774292 -1.8342939815916957 -1.695396900177002 -1.1395357114127656 1.5180604457855225 0.5489401817321777 False False
10760.225 2.0400760173797607 -1.8342358074583949 -1.6953644752502441 -1.1395722490600129 1.5180644989013672 0.5488832592964172 False False
10760.244999999999 2.0401041507720947 -1.834257265130514 -1.695379614830017 -1.1395800870708008 1.518068552017212 0.5489115118980408 False False
10760.265 2.0400965213775635 -1.834285398522848 -1.6953471899032593 -1.1395759147456666 1.5180727243423462 0.5489237308502197 False False
10760.285 2.0400230884552 -1.8342529735960902 -1.6954094171524048 -1.1395599407008667 1.5180562734603882 0.5488861203193665 False False
10760.305 2.040071725845337 -1.8342725239195765 -1.6953558921813965 -1.1395681363395234 1.518040657043457 0.5489475131034851 False False
10760.324999999999 2.0400922298431396 -1.834285398522848 -1.6954009532928467 -1.1395718616298218 1.5180764198303223 0.5489102602005005 False False
10760.345 2.040055513381958 -1.8342930279173792 -1.6953678131103516 -1.1395841997912903 1.5180401802062988 0.5489609837532043 False False
10760.365 2.0400478839874268 -1.8342725239195765 -1.6953967809677124 -1.1395763021758576 1.5180681943893433 0.548857569694519 False False
10760.385 2.0401246547698975 -1.8342930279173792 -1.6953721046447754 -1.1395681363395234 1.5180885791778564 0.5489025115966797 False False
10760.404999999999 2.040055513381958 -1.8342558346190394 -1.6953924894332886 -1.1395239394954224 1.5180845260620117 0.548932671546936 False False
10760.425 2.0401041507720947 -1.8342277012267054 -1.6953644752502441 -1.1395477813533326 1.5180162191390991 0.548940122127533 False False
10760.445 2.040039300918579 -1.834236284295553 -1.6953926086425781 -1.1396610301784058 1.518068552017212 0.5489070415496826 False False
10760.465 2.040055513381958 -1.8342558346190394 -1.6953721046447754 -1.1395362478545685 1.518080472946167 0.5489192008972168 False False
10760.484999999999 2.0400307178497314 -1.8342114887633265 -1.6953763961791992 -1.139564411049225 1.518052577972412 0.5489192008972168 False False
10760.505 2.040071725845337 -1.8342601261534632 -1.6954094171524048 -1.139543966656067 1.518068552017212 0.5489192008972168 False False
10760.525 2.040043592453003 -1.8342930279173792 -1.6953396797180176 -1.1395274561694642 1.5180448293685913 0.5488935708999634 False False
10760.545 2.0400846004486084 -1.8342887363829554 -1.6953634023666382 -1.1395603281310578 1.5180402994155884 0.5489282011985779 False False
10760.564999999999 2.0400640964508057 -1.8342558346190394 -1.6953964233398438 -1.1395841103843232 1.5180928707122803 0.5489147305488586 False False
10760.585 2.040071725845337 -1.834285398522848 -1.6953558921813965 -1.139596388941147 1.518032431602478 0.5489564538002014 False False
10760.605 2.040039300918579 -1.8342930279173792 -1.6954094171524048 -1.1395963293365021 1.5180485248565674 0.5489446520805359 False False
10760.625 2.0400640964508057 -1.8343049488463343 -1.695405125617981 -1.1395481687835236 1.5180764198303223 0.5489057898521423 False False
10760.644999999999 2.040099859237671 -1.8342319927611292 -1.6953678131103516 -1.1395641428283234 1.518068552017212 0.5489057898521423 False False
10760.664999999999 2.040039300918579 -1.8342277012267054 -1.6954340934753418 -1.139548198585846 1.5180202722549438 0.5489192008972168 False False
10760.685 2.040055513381958 -1.8342639408507289 -1.6953892707824707 -1.139572189455368 1.518080472946167 0.5489310622215271 False False
10760.705 2.0400760173797607 -1.8342186413206996 -1.6953235864639282 -1.1395240885070343 1.5180604457855225 0.5489115118980408 False False
10760.725 2.0400230884552 -1.8342896900572718 -1.6953926086425781 -1.1396203500083466 1.5180604457855225 0.5489159822463989 False False
10760.744999999999 2.0400147438049316 -1.8342515430846156 -1.6953516006469727 -1.1396084290793915 1.5180604457855225 0.548940122127533 False False
10760.765 2.0401041507720947 -1.8343507252135218 -1.6953753232955933 -1.1395641428283234 1.5181087255477905 0.5489070415496826 False False
10760.785 2.040055513381958 -1.8342191181578578 -1.6953396797180176 -1.1396043759635468 1.518032431602478 0.5489445924758911 False False
10760.805 2.0400760173797607 -1.8342768154540003 -1.6953840255737305 -1.1395485562137146 1.5180202722549438 0.5489024519920349 False False
10760.824999999999 2.040027379989624 -1.834301610986227 -1.695380687713623 -1.1395841103843232 1.5180644989013672 0.5489401817321777 False False
10760.845 2.040071725845337 -1.8342601261534632 -1.6953849792480469 -1.1395200055888672 1.5180078744888306 0.54893559217453 False False
10760.865 2.0400640964508057 -1.8342601261534632 -1.6954008340835571 -1.139576182966568 1.5180283784866333 0.5488951206207275 False False
10760.885 2.040051221847534 -1.834341665307516 -1.695405125617981 -1.1395681959441681 1.5180805921554565 0.5489025115966797 False False
10760.904999999999 2.040027379989624 -1.8342400989928187 -1.6953591108322144 -1.1395762127688904 1.5180485248565674 0.54893559217453 False False
10760.925 2.0400965213775635 -1.834268709222311 -1.695356011390686 -1.1395560663989563 1.5180727243423462 0.5488861203193665 False False
10760.945 2.040087938308716 -1.8342768154540003 -1.695380687713623 -1.1395160418799897 1.518040657043457 0.5489115118980408 False False
10760.965 2.0400390625 -1.8342725239195765 -1.6953721046447754 -1.1395723086646576 1.5180366039276123 0.5489565134048462 False False
10760.984999999999 2.04006290435791 -1.8342887363829554 -1.6953678131103516 -1.1395482581904908 1.5180448293685913 0.5489147305488586 False False
10761.005 2.0400805473327637 -1.8343426189818324 -1.695396900177002 -1.139576033954956 1.5180764198303223 0.5488861799240112 False False
10761.025 2.0400748252868652 -1.834301610986227 -1.6953396797180176 -1.1395680767348786 1.5180768966674805 0.5489071011543274 False False
10761.045 2.040071725845337 -1.8342515430846156 -1.6953763961791992 -1.1395562452128907 1.518052577972412 0.5489565134048462 False False
10761.064999999999 2.040043592453003 -1.8343092403807582 -1.6953309774398804 -1.1395676595023652 1.5180927515029907 0.5488906502723694 False False
10761.085 2.040034532546997 -1.8342639408507289 -1.6953601837158203 -1.1396041971496125 1.518024206161499 0.5489400625228882 False False
10761.105 2.040018081665039 -1.834313531915182 -1.6953840255737305 -1.1395760935596009 1.5180927515029907 0.5489070415496826 False False
10761.125 2.0400390625 -1.8342472515501917 -1.6954094171524048 -1.139536367063858 1.5180764198303223 0.5489639043807983 False False
10761.144999999999 2.0400643348693848 -1.834362646142477 -1.6953924894332886 -1.139576033954956 1.5180120468139648 0.5489445924758911 False False
10761.164999999999 2.040067195892334 -1.834268709222311 -1.6953678131103516 -1.139552281504013 1.518040657043457 0.5489025115966797 False False
10761.185 2.04006290435791 -1.834323068658346 -1.6953225135803223 -1.1395681363395234 1.518088698387146 0.5489401817321777 False False
10761.205 2.040067195892334 -1.8342887363829554 -1.6953396797180176 -1.1395721298507233 1.5180283784866333 0.5488529801368713 False False
10761.225 2.040050983428955 -1.8343049488463343 -1.6953883171081543 -1.139540360575058 1.5180644989013672 0.5488921999931335 False False
10761.244999999999 2.040120840072632 -1.8342553577818812 -1.6954126358032227 -1.1395681363395234 1.518044352531433 0.5488651990890503 True False
10761.265 2.040018320083618 -1.834302087823385 -1.695429801940918 -1.1395840805820008 1.5180325508117676 0.548932671546936 True False
10761.285 2.0400805473327637 -1.8342529735960902 -1.6953601837158203 -1.1396041375449677 1.518068552017212 0.548932671546936 True False
10761.305 2.04007625579834 -1.8342887363829554 -1.6952584981918335 -1.1396202009967347 1.518096923828125 0.5488860607147217 True False
10761.324999999999 2.0401012897491455 -1.8342930279173792 -1.6952077150344849 -1.1397242409041901 1.5180325508117676 0.5489070415496826 True False
10761.345 2.040022611618042 -1.8342768154540003 -1.6950148344039917 -1.1399870675853272 1.5180562734603882 0.5489192008972168 True False
10761.365 2.0400924682617188 -1.834273477593893 -1.6947593688964844 -1.1402385991862793 1.5181324481964111 0.5489462018013 True False
10761.385 2.040034532546997 -1.8342420063414515 -1.6943870782852173 -1.140646682386734 1.5182561874389648 0.5488665103912354 True False
10761.404999999999 2.0400538444519043 -1.8341733417906703 -1.6939268112182617 -1.1411976379207154 1.5183762311935425 0.5488877296447754 True False
10761.425 2.040050983428955 -1.8341137371458949 -1.6932227611541748 -1.1417716306499024 1.518507719039917 0.548854649066925 True False
10761.445 2.0400390625 -1.833968301812643 -1.6924216747283936 -1.1426175397685547 1.5187073945999146 0.5488605499267578 True False
10761.465 2.040059804916382 -1.8339001140990199 -1.6914525032043457 -1.1437669557384034 1.518894910812378 0.5487995147705078 True False
10761.484999999999 2.040095567703247 -1.8338061771788539 -1.6903201341629028 -1.1449516874602814 1.519126534461975 0.5487185120582581 True False
10761.505 2.04006290435791 -1.8336907825865687 -1.6889081001281738 -1.146417037849762 1.5193817615509033 0.5487200617790222 True False
10761.525 2.040104389190674 -1.8335172138609828 -1.6872127056121826 -1.1480972927859803 1.5197573900222778 0.5486363768577576 True False
10761.545 2.040022611618042 -1.833329816857809 -1.6854060888290405 -1.1499490600875397 1.520037055015564 0.5485467314720154 True False
10761.564999999999 2.040022611618042 -1.8332039318480433 -1.6835757493972778 -1.1521641475013276 1.520408272743225 0.548471987247467 True False
10761.585 2.040018320083618 -1.833015581170553 -1.6815752983093262 -1.1543553334525605 1.5208672285079956 0.5484240651130676 True False
10761.605 2.0400390625 -1.8326565227904261 -1.6791539192199707 -1.1565259558013459 1.5213228464126587 0.5482999086380005 True False
10761.625 2.0400924682617188 -1.8324581585326136 -1.6766700744628906 -1.1593438249877472 1.5218218564987183 0.5482445359230042 True False
10761.824999999999 2.040059804916382 -1.8293038807311 -1.642719030380249 -1.195394055252411 1.5287398099899292 0.5470446944236755 True False
10761.845 2.040055274963379 -1.828890939752096 -1.6383575201034546 -1.2000747782043 1.529650330543518 0.5468950867652893 True False
10761.865 2.040050745010376 -1.8284975490965785 -1.6337902545928955 -1.2047715944102784 1.5306081771850586 0.5467561483383179 True False
10761.885 2.0400390625 -1.8280464611449183 -1.6289666891098022 -1.2097116571715851 1.5315196514129639 0.5466128587722778 True False
10761.904999999999 2.0400390625 -1.8275419674315394 -1.6241612434387207 -1.2149832409671326 1.5325716733932495 0.5464704036712646 True False
10761.925 2.0400850772857666 -1.827090402642721 -1.6191842555999756 -1.2201516789248963 1.5335793495178223 0.5462204813957214 True False
10761.945 2.0400686264038086 -1.826620718041891 -1.613968014717102 -1.225670264368393 1.5345462560653687 0.5460875034332275 True False
10761.965 2.0400359630584717 -1.8260723553099574 -1.608546257019043 -1.2316018503955384 1.5356907844543457 0.5458793640136719 True False
10761.984999999999 2.040071725845337 -1.8255564175047816 -1.6029012203216553 -1.2374962133220215 1.5368863344192505 0.5456503629684448 True False
10762.005 2.0400686264038086 -1.8248702488341273 -1.5971283912658691 -1.2434200805476685 1.5380949974060059 0.545512855052948 True False
10762.025 2.0399935245513916 -1.8244272671141566 -1.5912847518920898 -1.2497268182090302 1.5392866134643555 0.545292854309082 True False
10762.045 2.040071725845337 -1.8238784275450648 -1.5853461027145386 -1.25613488376651 1.5405899286270142 0.5450281500816345 True False
10762.064999999999 2.040022611618042 -1.8232366047301234 -1.5790971517562866 -1.2628669005683442 1.5417335033416748 0.5448247790336609 True False
10762.085 2.0399937629699707 -1.8226286373534144 -1.5725488662719727 -1.2695381206325074 1.5430055856704712 0.5446021556854248 True False
10762.105 2.040043354034424 -1.8220092258849085 -1.5658496618270874 -1.2765342456153412 1.544389009475708 0.5443700551986694 True False
10762.125 2.0400850772857666 -1.821329732934469 -1.559450387954712 -1.2834293705276032 1.5457452535629272 0.5441635251045227 True False
10762.144999999999 2.0400643348693848 -1.820709844628805 -1.5531755685806274 -1.2902209919742127 1.547000527381897 0.543906569480896 True False
10762.164999999999 2.0400359630584717 -1.8201595745482386 -1.5470610857009888 -1.2968099278262635 1.5482559204101562 0.5437329411506653 True False
10762.185 2.0400187969207764 -1.8196102581419886 -1.5409880876541138 -1.3031006020358582 1.5493838787078857 0.5435293316841125 True False
10762.205 2.040043354034424 -1.8190599880614222 -1.5350823402404785 -1.3092092734626313 1.5506315231323242 0.5433048009872437 True False
10762.225 2.0399935245513916 -1.8184758625426234 -1.5294164419174194 -1.3150719863227387 1.5517470836639404 0.5431554317474365 True False
10762.244999999999 2.0400943756103516 -1.8180109463133753 -1.5240787267684937 -1.3210481715253373 1.5528955459594727 0.542907178401947 True False
10762.265 2.0400314331054688 -1.8174926243224085 -1.5188382863998413 -1.326820121412613 1.5540108680725098 0.5427677631378174 True False
10762.285 2.0400314331054688 -1.816911359826559 -1.5136417150497437 -1.3321888011744996 1.5550587177276611 0.5425631999969482 True False
10762.305 2.0400450229644775 -1.8165151081480921 -1.5085853338241577 -1.3373235625079651 1.5559983253479004 0.5423882007598877 True False
10762.324999999999 2.040043354034424 -1.8160249195494593 -1.5037286281585693 -1.3423837584308167 1.557021975517273 0.542211651802063 True False
10762.345 2.0400569438934326 -1.815590044061178 -1.499196171760559 -1.3472461563399811 1.558010220527649 0.5420529246330261 True False
10762.365 2.0399951934814453 -1.8152162037291468 -1.4948465824127197 -1.351988212471344 1.5588133335113525 0.5419225096702576 True False
10762.385 2.0399861335754395 -1.8148037395873011 -1.4906127452850342 -1.356547312145569 1.5597819089889526 0.5417655110359192 True False
10762.404999999999 2.0400099754333496 -1.8144227466978968 -1.4865868091583252 -1.360901565556862 1.5606498718261719 0.5416175127029419 True False
10762.425 2.0400235652923584 -1.8139859638609828 -1.4825799465179443 -1.3649136436036606 1.5613813400268555 0.541487455368042 True False
10762.445 2.0400116443634033 -1.813693185845846 -1.4787852764129639 -1.36898888767276 1.562117099761963 0.5413886308670044 True False
10762.465 2.0400569438934326 -1.8133470020689906 -1.475114345550537 -1.3727980119040986 1.5627894401550293 0.5412224531173706 True False
10762.484999999999 2.0400054454803467 -1.8129345379271449 -1.4717713594436646 -1.376377911572792 1.5634721517562866 0.541128396987915 True False
10762.505 2.0400161743164062 -1.81264128307485 -1.468483805656433 -1.3797391665032883 1.5642330646514893 0.5409789085388184 True False
10762.525 2.0399997234344482 -1.8123871288695277 -1.4655265808105469 -1.3830718261054535 1.5648483037948608 0.5408797860145569 True False
10762.545 2.0399861335754395 -1.8121096096434535 -1.4626293182373047 -1.3861016792109986 1.5653841495513916 0.5407841801643372 True False
10762.564999999999 2.040004253387451 -1.8118559322752894 -1.460076928138733 -1.3890316945365448 1.5659518241882324 0.54070645570755 True False
10762.585 2.0399951934814453 -1.8117057285704554 -1.457445502281189 -1.391459198003151 1.5664199590682983 0.540625810623169 True False
10762.605 2.0400235652923584 -1.8114305935301722 -1.4550784826278687 -1.3942548495582123 1.566972017288208 0.5405333042144775 True False
10762.625 2.0400280952453613 -1.8112675152220667 -1.4529045820236206 -1.3964788627675553 1.5673675537109375 0.5404626727104187 True False
10762.644999999999 2.0400116443634033 -1.8111216030516566 -1.4508100748062134 -1.3985875707915802 1.5678797960281372 0.5403656959533691 True False
10762.664999999999 2.0399298667907715 -1.8109108410277308 -1.4489192962646484 -1.400612012749054 1.5682358741760254 0.5402474403381348 True False
10762.685 2.03999662399292 -1.8107239208617152 -1.4473638534545898 -1.4022381168654938 1.5684512853622437 0.5402994751930237 True False
10762.705 2.040008783340454 -1.8105713329710902 -1.4457772970199585 -1.403889150624611 1.568859338760376 0.5402024388313293 True False
10762.725 2.040036916732788 -1.8104220829405726 -1.4443315267562866 -1.4051804852536698 1.5690433979034424 0.5401797294616699 True False
10762.744999999999 2.04002046585083 -1.8103600941100062 -1.4432134628295898 -1.4065477711013337 1.5692909955978394 0.5401139855384827 True False
10762.765 2.04002046585083 -1.8102456531920375 -1.4423422813415527 -1.40757271767173 1.5694870948791504 0.5400694012641907 True False
10762.785 2.0400071144104004 -1.8101979694762171 -1.4416121244430542 -1.4084175390056153 1.5695704221725464 0.5400334596633911 True False
10762.805 2.0400116443634033 -1.8101235828795375 -1.4409360885620117 -1.4089952123216172 1.5697021484375 0.5400555729866028 True False
10762.824999999999 2.0399951934814453 -1.8101021252074183 -1.4404374361038208 -1.4095854324153443 1.569798469543457 0.5400529503822327 True False
10762.845 2.039987802505493 -1.810070653954977 -1.4401718378067017 -1.4098403614810486 1.5698871612548828 0.5399946570396423 True False
10762.865 2.040024995803833 -1.8100768528380335 -1.4400193691253662 -1.4099000108293076 1.5698707103729248 0.5400362610816956 True False
10762.885 2.040032386779785 -1.8100677929320277 -1.4400506019592285 -1.4099040788463135 1.569899082183838 0.5399691462516785 True False
10762.904999999999 2.04002046585083 -1.8100439510741175 -1.4402803182601929 -1.4097485852292557 1.5698671340942383 0.5399946570396423 True False
10762.925 2.039987802505493 -1.8100677929320277 -1.440647006034851 -1.409373329286911 1.569830298423767 0.5400243997573853 True False
10762.945 2.0400495529174805 -1.8100587330260218 -1.4412188529968262 -1.4087398511222382 1.5698754787445068 0.5400574207305908 True False
10762.965 2.0400161743164062 -1.810101171533102 -1.4418394565582275 -1.4078945827535172 1.5696707963943481 0.5399946570396423 True False
10762.984999999999 2.0399909019470215 -1.8102098904051722 -1.4428046941757202 -1.406929926281311 1.5694141387939453 0.540027379989624 True False
10763.005 2.040004253387451 -1.8103906116881312 -1.4438663721084595 -1.4057378482869645 1.5692065954208374 0.5400962233543396 True False
10763.025 2.0399787425994873 -1.8106547794737757 -1.44521963596344 -1.4042578351548691 1.5689626932144165 0.5401396155357361 True False
10763.045 2.039987802505493 -1.810840745965475 -1.4467777013778687 -1.4028191280416031 1.5686473846435547 0.5401994585990906 True False
10763.064999999999 2.0400073528289795 -1.8111783466734828 -1.4485856294631958 -1.4011565458825608 1.5683311223983765 0.5402590036392212 True False
10763.085 2.0400071144104004 -1.8113709888853968 -1.450440764427185 -1.3992783588222046 1.5679556131362915 0.5402817130088806 True False
10763.105 2.0399997234344482 -1.8115698299803675 -1.452384114265442 -1.3970862788013 1.5675230026245117 0.5403611660003662 True False
10763.125 2.0400116443634033 -1.8118254146971644 -1.4544894695281982 -1.394941509967186 1.5670833587646484 0.5404657125473022 True False
10763.144999999999 2.0399951934814453 -1.8121644459166468 -1.4570029973983765 -1.3925288778594513 1.5665589570999146 0.5405745506286621 True False
10763.164999999999 2.0400450229644775 -1.8125783405699671 -1.4594566822052002 -1.3898107570460816 1.5660874843597412 0.540645182132721 True False
10763.185 2.039975881576538 -1.8128892383971156 -1.4621474742889404 -1.387055681352951 1.5655633211135864 0.5407660603523254 True False
10763.205 2.0399343967437744 -1.8132358990111292 -1.4650790691375732 -1.3839852821877976 1.564988136291504 0.5408247709274292 True False
10763.225 2.0400612354278564 -1.8137737713255824 -1.4681015014648438 -1.3808802229217072 1.5643713474273682 0.5409247875213623 True False
10763.244999999999 2.0400538444519043 -1.814134260217184 -1.4714049100875854 -1.377588452105858 1.5637274980545044 0.54107266664505 True False
10763.265 2.0400173664093018 -1.8146077595152796 -1.474778175354004 -1.3739028883031388 1.5630085468292236 0.541128396987915 True False
10763.285 2.039987802505493 -1.8151356182494105 -1.4785339832305908 -1.3702546668103714 1.5623557567596436 0.5412600040435791 True False
10763.305 2.040032386779785 -1.8156196079649867 -1.4823129177093506 -1.36631494880233 1.5615758895874023 0.5414242148399353 True False
10763.324999999999 2.0400450229644775 -1.8161055050291957 -1.48630690574646 -1.3621549022248765 1.5607997179031372 0.5415068864822388 True False
10763.345 2.04002046585083 -1.8166805706419886 -1.4902554750442505 -1.357964203958847 1.5599322319030762 0.5417129993438721 True False
10763.365 2.0399701595306396 -1.817270895043844 -1.4944289922714233 -1.3534325671247025 1.559089183807373 0.5417864322662354 True False
10763.385 2.0399909019470215 -1.8178631267943324 -1.4988733530044556 -1.3488260072520752 1.558188557624817 0.5419718027114868 True False
10763.404999999999 2.0399551391601562 -1.8185354671873988 -1.5035465955734253 -1.3440867376378556 1.557253360748291 0.5421216487884521 True False
10763.425 2.0399746894836426 -1.8191610775389613 -1.5085291862487793 -1.3390504580787201 1.5563055276870728 0.542322039604187 True False
10763.445 2.040032386779785 -1.8197461567320765 -1.51366126537323 -1.3337931495955964 1.5552897453308105 0.5424654483795166 True False
10763.465 2.0400280952453613 -1.8205458126463832 -1.5188755989074707 -1.3284395051053544 1.5542489290237427 0.542652428150177 True False
10763.484999999999 2.0399863719940186 -1.8213020763792933 -1.524087905883789 -1.3229589772275467 1.5532371997833252 0.5428037643432617 True False
10763.505 2.040015935897827 -1.8219052753844203 -1.5294634103775024 -1.317127065067627 1.5520660877227783 0.5429877042770386 True False
10763.525 2.040024757385254 -1.822707315484518 -1.535204291343689 -1.3112920683673401 1.5509294271469116 0.5431954860687256 True False
10763.545 2.0399835109710693 -1.8235804043211878 -1.5412434339523315 -1.3050618928721924 1.5497910976409912 0.5434198975563049 True False
10763.564999999999 2.0399301052093506 -1.8242846928038539 -1.5475281476974487 -1.2987441283515473 1.548579216003418 0.5435742139816284 True False
10763.585 2.040004014968872 -1.8251720867552699 -1.5536683797836304 -1.2922627192786713 1.5473504066467285 0.5438222289085388 True False
10763.605 2.040032386779785 -1.826010366479391 -1.5599333047866821 -1.2856788796237488 1.5460096597671509 0.5439468622207642 True False
10763.625 2.040036678314209 -1.8268543682494105 -1.5664438009262085 -1.2787617903998871 1.5447115898132324 0.5442128777503967 True False
10763.644999999999 2.040004014968872 -1.8277636967101039 -1.5733587741851807 -1.271735058431961 1.5433681011199951 0.5444563627243042 True False
10763.664999999999 2.0400116443634033 -1.828764101068014 -1.580440878868103 -1.264612303381302 1.5419001579284668 0.5446916818618774 True False
10763.685 2.039992094039917 -1.8296052418150843 -1.5873993635177612 -1.2571694415858765 1.5405731201171875 0.5449234843254089 True False
10763.705 2.0400493144989014 -1.830496450463766 -1.5943962335586548 -1.249715046291687 1.5391011238098145 0.5451537370681763 True False
10763.725 2.0399997234344482 -1.8315354786314906 -1.6015785932540894 -1.2423462730697175 1.5376014709472656 0.5453693270683289 True False
10763.744999999999 2.0399985313415527 -1.8325377903380335 -1.6088296175003052 -1.2352380913547059 1.5362540483474731 0.5456042289733887 True False
10763.765 2.0399997234344482 -1.8334061108031214 -1.615525245666504 -1.2282003623298188 1.534874439239502 0.5458388924598694 True False
10763.785 2.040024757385254 -1.8342119656004847 -1.621783971786499 -1.2213870745948334 1.5336384773254395 0.546043872833252 True False
10763.805 2.0400452613830566 -1.8350030384459437 -1.6280885934829712 -1.2148509484580536 1.5323864221572876 0.5462580919265747 True False
10763.824999999999 2.040024757385254 -1.8359767399229945 -1.6345043182373047 -1.2084407073310395 1.531151294708252 0.54649418592453 True False
10763.845 2.039965867996216 -1.8367630443968714 -1.6406034231185913 -1.202181951408722 1.5299606323242188 0.5466394424438477 True False
10763.865 2.0400073528289795 -1.8376003704466761 -1.646284580230713 -1.1961006981185456 1.5287340879440308 0.5468606948852539 True False
10763.885 2.0399954319000244 -1.8382746181883753 -1.6518027782440186 -1.1902802747539063 1.5275284051895142 0.5471058487892151 True False
10763.904999999999 2.0400490760803223 -1.8390442333617152 -1.657326102256775 -1.1846340757659455 1.5265867710113525 0.5472733974456787 True False
10763.925 2.040015935897827 -1.8397346935667933 -1.6626794338226318 -1.179047392015793 1.5254528522491455 0.5473293662071228 True False
10763.945 2.0399997234344482 -1.840435644189352 -1.6679829359054565 -1.1736481946757813 1.5244354009628296 0.5475831627845764 True False
10763.965 2.0399835109710693 -1.8410841427245082 -1.672972559928894 -1.1686563056758423 1.523461103439331 0.5477834939956665 True False
10763.984999999999 2.0399997234344482 -1.841738840142721 -1.6777223348617554 -1.1636837881854554 1.5224347114562988 0.547897458076477 True False
10764.005 2.039987802505493 -1.842309137383932 -1.6821231842041016 -1.158851222401001 1.5215123891830444 0.5480453968048096 True False
10764.025 2.039992094039917 -1.842881818810934 -1.6865664720535278 -1.1541808110526581 1.5206623077392578 0.5482588410377502 True False
10764.045 2.040008306503296 -1.8434044323363246 -1.6908267736434937 -1.149892733698227 1.5198521614074707 0.5483565330505371 True False
10764.064999999999 2.0399792194366455 -1.8440104923644007 -1.6949858665466309 -1.1456902784160157 1.5191022157669067 0.5485047101974487 True False
10764.085 2.040015935897827 -1.8444768391051234 -1.698935627937317 -1.1416803461364289 1.5182033777236938 0.54867023229599 True False
10764.105 2.0399954319000244 -1.845079084435934 -1.7026746273040771 -1.1377802056125184 1.517485499382019 0.5487798452377319 True False
10764.125 2.0399997234344482 -1.8454591236510218 -1.7062283754348755 -1.1339572829059144 1.516915202140808 0.5488399863243103 True False
10764.144999999999 2.0400190353393555 -1.8460222683348597 -1.7094602584838867 -1.130610392694809 1.5160760879516602 0.5489834547042847 True False
10764.164999999999 2.0400278568267822 -1.84635653118276 -1.7126963138580322 -1.1272119146636506 1.515465497970581 0.5490342974662781 True False
10764.185 2.04003643989563 -1.8468314609923304 -1.7156457901000977 -1.124126212005951 1.5148626565933228 0.5491867661476135 True False
10764.205 2.0400073528289795 -1.8470918140807093 -1.7184982299804688 -1.121144877081253 1.5142515897750854 0.5492674112319946 True False
10764.225 2.0399749279022217 -1.8474604092040003 -1.7210766077041626 -1.118350015287735 1.5138088464736938 0.5493695139884949 True False
10764.244999999999 2.0400359630584717 -1.8478590450682582 -1.723634123802185 -1.1158230167678376 1.513309359550476 0.5494619011878967 True False
10764.265 2.0399553775787354 -1.8481298885741175 -1.726099967956543 -1.1133763951114197 1.512798547744751 0.5495498776435852 True False
10764.285 2.0400404930114746 -1.8484851322569789 -1.7281628847122192 -1.1112369459918519 1.512407660484314 0.5496471524238586 True False
10764.305 2.0399630069732666 -1.8486463032164515 -1.7301613092422485 -1.1092453461936493 1.5119237899780273 0.5496610999107361 True False
10764.324999999999 2.0399997234344482 -1.848943372766012 -1.7320054769515991 -1.1072999995997925 1.5115567445755005 0.5497207641601562 True False
10764.345 2.0399997234344482 -1.849210878411764 -1.7336589097976685 -1.1056816142848511 1.5113261938095093 0.5497435331344604 True False
10764.365 2.0400116443634033 -1.849328180352682 -1.7349103689193726 -1.104199008350708 1.510966420173645 0.5498833060264587 True False
10764.385 2.040053367614746 -1.8494516811766566 -1.736161470413208 -1.1029504102519532 1.5107542276382446 0.5499058365821838 True False
10764.404999999999 2.040004014968872 -1.8496395550169886 -1.7372517585754395 -1.101896510725357 1.5105230808258057 0.5499002933502197 True False
10764.425 2.0400447845458984 -1.8497516117491664 -1.7382373809814453 -1.1008624595454712 1.5104072093963623 0.5499569177627563 True False
10764.445 2.040053367614746 -1.849795480767721 -1.7388100624084473 -1.1000605386546631 1.5102880001068115 0.5499603748321533 True False
10764.465 2.0399835109710693 -1.8498584232726039 -1.739379644393921 -1.0995699030211945 1.5101639032363892 0.5499679446220398 True False
10764.484999999999 2.0399997234344482 -1.8499471149840296 -1.7398111820220947 -1.0992906254580994 1.510100245475769 0.5499438047409058 True False
10764.685 2.0399954319000244 -1.8500310383238734 -1.7399969100952148 -1.0990909200957795 1.5099765062332153 0.5499798655509949 True False
10764.725 2.0400073528289795 -1.8500095806517542 -1.7399811744689941 -1.0989987415126343 1.510012149810791 0.5500004887580872 True False
10764.744999999999 2.040020227432251 -1.8500563106932582 -1.7399965524673462 -1.098959044819214 1.50995671749115 0.5500170588493347 True False
10764.765 2.039987802505493 -1.8500176868834437 -1.7400416135787964 -1.0989787143519898 1.5099804401397705 0.5500004887580872 True False
10764.785 2.040015935897827 -1.8499905071654261 -1.7399969100952148 -1.0990475577167054 1.510000228881836 0.5500004887580872 True False
10764.805 2.040024518966675 -1.849985738793844 -1.7399725914001465 -1.099003331070282 1.5100206136703491 0.5500361323356628 True False
10764.824999999999 2.0399672985076904 -1.849985738793844 -1.7400517463684082 -1.0989950460246583 1.5099844932556152 0.5500404834747314 True False
10764.845 2.0399749279022217 -1.8499895534911097 -1.7400373220443726 -1.0989992183497925 1.5099763870239258 0.5500169992446899 True False
10764.865 2.039992094039917 -1.8500219784178675 -1.7400164604187012 -1.0989910525134583 1.5100927352905273 0.5500361919403076 True False
10764.885 2.04011607170105 -1.849875112573141 -1.7398149967193604 -1.0986517530730744 1.5098083019256592 0.5500472784042358 True False
10764.904999999999 2.039912700653076 -1.849825998345846 -1.7396665811538696 -1.0986682039550324 1.5099364519119263 0.5500394105911255 True False
10764.925 2.0399351119995117 -1.8498417339720667 -1.739729404449463 -1.0986394149116059 1.509925127029419 0.5500492453575134 True False
10764.945 2.0398995876312256 -1.8498503170409144 -1.7397541999816895 -1.0986759227565308 1.5099045038223267 0.5500603914260864 True False
10764.965 2.039918899536133 -1.8497959576048792 -1.7397050857543945 -1.09866355479274 1.5099570751190186 0.5500481724739075 True False
10764.984999999999 2.0399441719055176 -1.8498794041075648 -1.7397770881652832 -1.0987279278090973 1.5099446773529053 0.5500350594520569 True False
10765.005 2.039952039718628 -1.8498856029906214 -1.739802360534668 -1.0987595182708283 1.5099287033081055 0.5500072240829468 True False
10765.025 2.03995943069458 -1.8499061069884242 -1.7397418022155762 -1.0987389546683808 1.509993076324463 0.5500319004058838 True False
10765.045 2.040001153945923 -1.8498574695982875 -1.7396751642227173 -1.0988356930068512 1.5099446773529053 0.5499997138977051 True False
10765.064999999999 2.0399832725524902 -1.8499185047545375 -1.7398072481155396 -1.098859117632248 1.5099204778671265 0.5500245690345764 True False
10765.085 2.040008544921875 -1.8499275646605433 -1.7397814989089966 -1.0988713663867493 1.5099287033081055 0.5500438213348389 True False
10765.105 2.04002046585083 -1.8499556980528773 -1.7397476434707642 -1.0988508623889466 1.509900450706482 0.5499753952026367 True False
10765.125 2.0399460792541504 -1.8499342403807582 -1.7397433519363403 -1.0988951188376923 1.5099323987960815 0.5500361919403076 True False
10765.144999999999 2.0399951934814453 -1.8498841724791468 -1.7398267984390259 -1.0989312094501038 1.5099807977676392 0.5500275492668152 True False
10765.164999999999 2.040041446685791 -1.8499590359129847 -1.7398133277893066 -1.0988992017558594 1.5099807977676392 0.5499506592750549 True False
10765.185 2.0399298667907715 -1.84989657024526 -1.7398247718811035 -1.0989107650569458 1.5100288391113281 0.5499788522720337 True False
10765.205 2.039971351623535 -1.8499781093993128 -1.7398090362548828 -1.0989267092994233 1.5099841356277466 0.5500082969665527 True False
10765.425 2.034395456314087 -1.8496667347350062 -1.7397373914718628 -1.1000210803798218 1.5102277994155884 0.5489113330841064 True False
10765.445 2.032763719558716 -1.8495961628355921 -1.739729404449463 -1.1003415149501343 1.5101597309112549 0.5485914945602417 True False
10765.465 2.031054973602295 -1.8494469128050746 -1.7396906614303589 -1.1005436044982453 1.5101758241653442 0.5482566356658936 True False
10765.484999999999 2.0291659832000732 -1.8493429623045863 -1.7395535707473755 -1.1009194117835541 1.5102205276489258 0.5478975772857666 True False
10765.505 2.027089834213257 -1.8491913280882777 -1.7394636869430542 -1.1012782615474244 1.5102163553237915 0.547478973865509 True False
10765.525 2.0247628688812256 -1.8490034542479457 -1.739309549331665 -1.1016937655261536 1.5103479623794556 0.547031581401825 True False
10765.545 2.022369384765625 -1.8488146267332972 -1.7390942573547363 -1.1020411413959046 1.5104273557662964 0.5465441346168518 True False
10765.564999999999 2.0197885036468506 -1.8484498463072718 -1.7386082410812378 -1.102228896026947 1.5106834173202515 0.5459805727005005 True False
10765.585 2.0169496536254883 -1.847987791100973 -1.7379275560379028 -1.1024765831283112 1.5107829570770264 0.545466959476471 True False
10765.605 2.0139858722686768 -1.847664018670553 -1.737526774406433 -1.1030477744391938 1.5108866691589355 0.544852614402771 True False
10765.625 2.010806083679199 -1.8474637470641078 -1.7370936870574951 -1.103558139210083 1.5110344886779785 0.5442920923233032 True False
10765.644999999999 2.0074427127838135 -1.8471719227232875 -1.7366137504577637 -1.104061411028244 1.5111546516418457 0.5435763597488403 True False
10765.664999999999 2.003988027572632 -1.8467089138426722 -1.7361255884170532 -1.104484186773636 1.5112743377685547 0.5429058074951172 True False
10765.685 2.0002589225769043 -1.8464404545226039 -1.735735297203064 -1.1052076381495972 1.5114656686782837 0.5421803593635559 True False
10765.705 1.9963135719299316 -1.846077104608053 -1.7354947328567505 -1.1058340233615418 1.5115373134613037 0.5414308905601501 True False
10765.725 1.9922527074813843 -1.84570374111318 -1.735005497932434 -1.1063764554313202 1.5116249322891235 0.5405929684638977 True False
10765.744999999999 1.9880180358886719 -1.8452264271178187 -1.7344304323196411 -1.1070234340480347 1.5118327140808105 0.5397345423698425 True False
10765.765 1.9834766387939453 -1.8448530636229457 -1.7340104579925537 -1.1077818733504792 1.5119887590408325 0.5388286709785461 True False
10765.785 1.9787788391113281 -1.8443595371642054 -1.7336112260818481 -1.1085286897471924 1.5121641159057617 0.5379810333251953 True False
10765.805 1.9739413261413574 -1.8439990482726039 -1.7331185340881348 -1.109302507047989 1.5123398303985596 0.5370018482208252 True False
10765.824999999999 1.9689449071884155 -1.8434931240477503 -1.7325602769851685 -1.1101463002017518 1.512555718421936 0.5360204577445984 True False
10765.845 1.9638352394104004 -1.8430425129332484 -1.7320622205734253 -1.1108600956252594 1.5126876831054688 0.5350273251533508 True False
10765.865 1.9585063457489014 -1.842628618279928 -1.7314269542694092 -1.11163483679805 1.5128909349441528 0.5339294672012329 True False
10765.885 1.9529564380645752 -1.8420235119261683 -1.7308403253555298 -1.1125447911075135 1.513029932975769 0.5327802896499634 True False
10765.904999999999 1.9470610618591309 -1.841520448724264 -1.7301913499832153 -1.1133748453906556 1.5132544040679932 0.5317399501800537 True False
10765.925 1.9411368370056152 -1.840994497338766 -1.729433536529541 -1.114289478664734 1.5134459733963013 0.5305428504943848 True False
10765.945 1.9350626468658447 -1.840337415734762 -1.7288676500320435 -1.1152714055827637 1.5137054920196533 0.5293698906898499 True False
10765.965 1.9287984371185303 -1.8398281536498011 -1.728171467781067 -1.116349236374237 1.5138325691223145 0.5280884504318237 True False
10765.984999999999 1.9223668575286865 -1.8392492733397425 -1.7275540828704834 -1.1173591178706666 1.5141164064407349 0.5268118977546692 True False
10766.005 1.9156612157821655 -1.8386241398253382 -1.7268933057785034 -1.1182890695384522 1.5143158435821533 0.5255029797554016 True False
10766.025 1.9087587594985962 -1.8379980526366175 -1.72615385055542 -1.1193638306907197 1.5145835876464844 0.5241872072219849 True False
10766.045 1.901823878288269 -1.8373476467528285 -1.7254855632781982 -1.120505617266037 1.5149034261703491 0.5227943062782288 True False
10766.064999999999 1.8946603536605835 -1.8367577991881312 -1.724708080291748 -1.1215756994536896 1.5151307582855225 0.5214147567749023 True False
10766.085 1.8872898817062378 -1.836008211175436 -1.7238695621490479 -1.1228413146785279 1.5154060125350952 0.5198880434036255 True False
10766.105 1.8795430660247803 -1.8353821239867152 -1.723042607307434 -1.124046580200531 1.515653371810913 0.5183831453323364 True False
10766.125 1.8718394041061401 -1.8345891437926234 -1.7222391366958618 -1.1250198644450684 1.5159045457839966 0.5168552994728088 True False
10766.144999999999 1.8640254735946655 -1.8339282474913539 -1.7213157415390015 -1.1263503593257447 1.5162160396575928 0.5153568387031555 True False
10766.164999999999 1.855851650238037 -1.83314909557485 -1.7205493450164795 -1.12759484470401 1.5164958238601685 0.51372891664505 True False
10766.185 1.847391128540039 -1.8324147663512171 -1.7197314500808716 -1.1289210778525849 1.5167632102966309 0.5120078921318054 True False
10766.205 1.8390297889709473 -1.831663270989889 -1.7188292741775513 -1.1303939086249848 1.5170787572860718 0.5104332566261292 True False
10766.225 1.830475926399231 -1.8308445415892542 -1.7180031538009644 -1.1316316586783906 1.5173901319503784 0.5086737871170044 True False
10766.244999999999 1.8214707374572754 -1.829984804193014 -1.7170987129211426 -1.1329441231540223 1.5177377462387085 0.5070191025733948 True False
10766.265 1.8123385906219482 -1.8291775188841761 -1.716068983078003 -1.1342812341502686 1.5178849697113037 0.5052356123924255 True False
10766.285 1.8032606840133667 -1.8283802471556605 -1.715012788772583 -1.1357620817473908 1.5183558464050293 0.5033770799636841 True False
10766.305 1.7939679622650146 -1.8275567493834437 -1.714062213897705 -1.1373979312232514 1.51871919631958 0.5015547275543213 True False
10766.324999999999 1.7840806245803833 -1.8266054592528285 -1.7131295204162598 -1.138782487516739 1.51896333694458 0.4996304214000702 True False
10766.345 1.7743011713027954 -1.8256670437254847 -1.7121660709381104 -1.1402594906142731 1.5192546844482422 0.4977969527244568 True False
10766.365 1.764712929725647 -1.8248044453062953 -1.7110182046890259 -1.1418045920184632 1.519813060760498 0.4958142340183258 True False
10766.385 1.754440426826477 -1.8239628277220667 -1.7099672555923462 -1.1433405143073578 1.5200567245483398 0.493754506111145 True False
10766.404999999999 1.7438825368881226 -1.8229595623412074 -1.708890676498413 -1.1451041859439393 1.520148754119873 0.4916868805885315 True False
10766.425 1.7335612773895264 -1.8219810924925746 -1.7076750993728638 -1.1465650659850617 1.5208266973495483 0.4896490275859833 True False
10766.445 1.7230262756347656 -1.820965429345602 -1.7064932584762573 -1.1481607121280213 1.521214246749878 0.48752501606941223 True False
10766.465 1.711859941482544 -1.8200003109373988 -1.7054800987243652 -1.1500049394420166 1.5212626457214355 0.4854036867618561 True False
10766.484999999999 1.700881838798523 -1.8189741573729457 -1.704379916191101 -1.1518285137465973 1.5219573974609375 0.4831722676753998 True False
10766.505 1.6897859573364258 -1.8180252514281214 -1.7031623125076294 -1.1533693236163636 1.5226359367370605 0.48102307319641113 True False
10766.525 1.6783405542373657 -1.8169580898680628 -1.7018128633499146 -1.155192570095398 1.5224597454071045 0.4787551462650299 True False
10766.545 1.6670770645141602 -1.8158251247801722 -1.7006161212921143 -1.1568452578834076 1.5230865478515625 0.4765526354312897 True False
10766.564999999999 1.655847191810608 -1.814921041528219 -1.699360966682434 -1.1587525469115754 1.5237773656845093 0.47434672713279724 True False
10766.585 1.644402265548706 -1.8139096699156703 -1.6982773542404175 -1.1605203312686463 1.523641586303711 0.4721566140651703 True False
10766.785 1.5313310623168945 -1.8035031757750453 -1.6861847639083862 -1.177964137201645 1.5279090404510498 0.449867844581604 True False
10766.845 1.4974924325942993 -1.8003717861571253 -1.6828440427780151 -1.1832189422896882 1.5291787385940552 0.44319719076156616 True False
10766.865 1.4860352277755737 -1.7993785343565882 -1.6816647052764893 -1.1850835245898743 1.5294106006622314 0.4409724771976471 True False
10766.885 1.474933385848999 -1.7983294926085414 -1.6804426908493042 -1.1869068008712311 1.5299370288848877 0.43872421979904175 True False
10766.904999999999 1.4634753465652466 -1.7973724804320277 -1.679234504699707 -1.1885117155364533 1.5302726030349731 0.43650010228157043 True False
10766.925 1.4520819187164307 -1.796288629571432 -1.678074598312378 -1.1903565388968964 1.53056001663208 0.43432748317718506 True False
10766.945 1.4409470558166504 -1.795297761956686 -1.6768678426742554 -1.192091004257538 1.5311754941940308 0.4319983124732971 True False
10766.965 1.4295616149902344 -1.7942477665343226 -1.6757726669311523 -1.1939675074866791 1.5314114093780518 0.429792195558548 True False
10766.984999999999 1.4182361364364624 -1.7932006321349085 -1.674516201019287 -1.195673183803894 1.531783103942871 0.4275313913822174 True False
10767.005 1.4070100784301758 -1.7921840153136195 -1.6731144189834595 -1.1972066026977082 1.5324350595474243 0.4253109097480774 True False
10767.025 1.3955235481262207 -1.7910553417601527 -1.6719833612442017 -1.199301229124405 1.5326071977615356 0.4231158494949341 True False
10767.045 1.3842965364456177 -1.790152212182516 -1.6708894968032837 -1.2010164719871064 1.5330712795257568 0.4208998382091522 True False
10767.064999999999 1.3730669021606445 -1.7891107998290003 -1.66972017288208 -1.2026585799506684 1.5335428714752197 0.4186311662197113 True False
10767.085 1.3616487979888916 -1.7880121670165003 -1.6684926748275757 -1.2043474179557343 1.5337468385696411 0.4163911044597626 True False
10767.105 1.3503848314285278 -1.7869144878783167 -1.6671606302261353 -1.2062532764724274 1.5342868566513062 0.41417089104652405 True False
10767.125 1.3391057252883911 -1.785971303979391 -1.6659624576568604 -1.2079376143268128 1.5346506834030151 0.4119721055030823 True False
10767.144999999999 1.3277451992034912 -1.7848621807494105 -1.6648831367492676 -1.2096831661513825 1.534906268119812 0.40978312492370605 True False
10767.164999999999 1.316556453704834 -1.783886571923727 -1.6636173725128174 -1.2113159459880372 1.5354866981506348 0.4075486958026886 True False
10767.185 1.3051351308822632 -1.782785554925436 -1.6625343561172485 -1.2132893961719056 1.5358905792236328 0.40530458092689514 True False
10767.205 1.293847918510437 -1.781863351861471 -1.6613810062408447 -1.2150830787471314 1.5362021923065186 0.4031265676021576 True False
10767.225 1.282589077949524 -1.7808028660216273 -1.660061001777649 -1.2166073483279725 1.5367861986160278 0.40088748931884766 True False
10767.244999999999 1.2711317539215088 -1.7796184025206507 -1.6587506532669067 -1.2184057992747803 1.5369781255722046 0.3986184298992157 True False
10767.265 1.2598857879638672 -1.7786203823485316 -1.6576138734817505 -1.2202233237079163 1.5374101400375366 0.39638811349868774 True False
10767.285 1.2486886978149414 -1.7777101002135218 -1.6566123962402344 -1.2221197348884125 1.5379661321640015 0.394188791513443 True False
10767.305 1.2372616529464722 -1.776559968987936 -1.6553934812545776 -1.2238494020751496 1.5381178855895996 0.3919125199317932 True False
10767.324999999999 1.2260602712631226 -1.775496622125143 -1.6541903018951416 -1.225378231411316 1.538625717163086 0.3897181749343872 True False
10767.345 1.214679479598999 -1.7744728527464808 -1.652824878692627 -1.2273795169642945 1.5390573740005493 0.3874378502368927 True False
10767.365 1.203293800354004 -1.773512979547018 -1.6518176794052124 -1.2291047734073182 1.5393738746643066 0.38528743386268616 True False
10767.385 1.1921354532241821 -1.772513052026266 -1.6506086587905884 -1.230749176149704 1.5399216413497925 0.3830207288265228 True False
10767.404999999999 1.1807399988174438 -1.7714392147459925 -1.6493382453918457 -1.232455388908722 1.5402493476867676 0.3808383643627167 True False
10767.425 1.1694880723953247 -1.770412107507223 -1.6483031511306763 -1.2344765824130555 1.5405657291412354 0.37860843539237976 True False
10767.445 1.1581377983093262 -1.7694469890990199 -1.6470831632614136 -1.2361057561687012 1.5411217212677002 0.3763008117675781 True False
10767.465 1.146769404411316 -1.7683917484679164 -1.6457316875457764 -1.2377826136401673 1.5413373708724976 0.37413761019706726 True False
10767.484999999999 1.1355385780334473 -1.7673560581602992 -1.6445404291152954 -1.2394271057895203 1.5417368412017822 0.37184223532676697 True False
10767.505 1.1241685152053833 -1.7662998638548792 -1.643449068069458 -1.2413445872119446 1.5422773361206055 0.3696952760219574 True False
10767.525 1.1128218173980713 -1.7652789554991664 -1.6423155069351196 -1.243197963838913 1.5424809455871582 0.3674449622631073 True False
10767.545 1.1016275882720947 -1.7643000088133753 -1.6411597728729248 -1.244762734775879 1.5430207252502441 0.3652256429195404 True False
10767.564999999999 1.0903279781341553 -1.7632423839964808 -1.6397689580917358 -1.2465164226344605 1.543432354927063 0.3630097806453705 True False
10767.585 1.0789034366607666 -1.7620936832823695 -1.638550043106079 -1.2484651666930695 1.5437047481536865 0.3607424795627594 True False
10767.605 1.0677675008773804 -1.7611776791014613 -1.637413740158081 -1.250127063398697 1.5442487001419067 0.35850760340690613 True False
10767.625 1.0563496351242065 -1.7601496181883753 -1.6362688541412354 -1.2517725390246888 1.5445886850357056 0.3563202917575836 True False
10767.644999999999 1.0449756383895874 -1.759026666680807 -1.6350924968719482 -1.2536412340453644 1.5449165105819702 0.35410839319229126 True False
10767.664999999999 1.0338141918182373 -1.75805725673818 -1.6338549852371216 -1.2554703813842316 1.5455244779586792 0.35184812545776367 True False
10767.685 1.022353172302246 -1.7569929562010707 -1.6326535940170288 -1.2571967405131836 1.545748233795166 0.3496491014957428 True False
10767.705 1.0110464096069336 -1.7558924160399378 -1.6313666105270386 -1.2588377755931397 1.5460964441299438 0.34745195508003235 True False
10767.725 0.9998946189880371 -1.7548939190306605 -1.6301732063293457 -1.2605239909938355 1.5467724800109863 0.3452242612838745 True False
10767.744999999999 0.9883872866630554 -1.7538191280760707 -1.6291471719741821 -1.2626211506179352 1.546916127204895 0.3429678678512573 True False
10767.765 0.9771522879600525 -1.7528583012022914 -1.6280124187469482 -1.2642754477313538 1.5473642349243164 0.3407686650753021 True False
10767.785 0.9659637212753296 -1.7517787418761195 -1.626765489578247 -1.265873209839203 1.547887921333313 0.33850568532943726 True False
10767.805 0.9545592665672302 -1.7506967983641566 -1.6253858804702759 -1.2676152449897309 1.5480000972747803 0.3362644612789154 True False
10767.824999999999 0.9436682462692261 -1.7497016392149867 -1.6242146492004395 -1.2695162159255524 1.5486040115356445 0.3340665102005005 True False
10767.845 0.9328295588493347 -1.7487427196898402 -1.6231814622879028 -1.2711069148829957 1.5489234924316406 0.3319713771343231 True False
10767.865 0.9221032857894897 -1.747721334496969 -1.6221704483032227 -1.2727290254882355 1.549212098121643 0.32988980412483215 True False
10767.885 0.9117395877838135 -1.746875902215475 -1.6211007833480835 -1.2743351024440308 1.549715280532837 0.3277769684791565 True False
10767.904999999999 0.9013893008232117 -1.7459103069701136 -1.61996591091156 -1.276040868168213 1.550051212310791 0.3257768452167511 True False
10767.925 0.8912782669067383 -1.7449270687498988 -1.6188384294509888 -1.27755160749469 1.5502995252609253 0.3238051235675812 True False
10767.945 0.8815491795539856 -1.7440663776793421 -1.617691159248352 -1.278986321096756 1.5508917570114136 0.3218976855278015 True False
10767.965 0.8716134428977966 -1.7431875667967738 -1.6167415380477905 -1.2805333000472565 1.551079511642456 0.3199363350868225 True False
10767.984999999999 0.8619977831840515 -1.7423421345152796 -1.6158415079116821 -1.2821877163699646 1.5512913465499878 0.3180694282054901 True False
10768.005 0.8529378771781921 -1.7414452038206996 -1.6148878335952759 -1.283474550848343 1.5518351793289185 0.3162135183811188 True False
10768.025 0.8435965776443481 -1.7406984768309535 -1.6138900518417358 -1.2849048537066956 1.5520906448364258 0.31437525153160095 True False
10768.045 0.8343496918678284 -1.7398511372008265 -1.612981915473938 -1.2864163678935547 1.552222728729248 0.31265389919281006 True False
10768.064999999999 0.8258803486824036 -1.7390104732909144 -1.6119314432144165 -1.287668154840805 1.5527427196502686 0.31097424030303955 True False
10768.085 0.8172582387924194 -1.738173624078268 -1.6108485460281372 -1.2890824240497132 1.5531070232391357 0.30920347571372986 True False
10768.105 0.8084810972213745 -1.7374645672240199 -1.61015784740448 -1.2904736262610932 1.5531827211380005 0.30757150053977966 True False
10768.125 0.8003602027893066 -1.7367598019041957 -1.6093109846115112 -1.2916290324977417 1.5535829067230225 0.30588865280151367 True False
10768.144999999999 0.7925868630409241 -1.7360183201231898 -1.608433723449707 -1.2928694051555176 1.5540021657943726 0.30435115098953247 True False
10768.164999999999 0.7844364643096924 -1.7351881466307582 -1.607614517211914 -1.2940408152392884 1.554078221321106 0.3027569353580475 True False
10768.185 0.776542603969574 -1.7344662151732386 -1.6068673133850098 -1.2954956454089661 1.5542420148849487 0.30122947692871094 True False
10768.205 0.7693036794662476 -1.7338606319823207 -1.6060199737548828 -1.2965513628772278 1.5547823905944824 0.29975467920303345 True False
10768.225 0.7619307041168213 -1.733220716516012 -1.6050318479537964 -1.2976201933673401 1.55495023727417 0.2983320653438568 True False
10768.244999999999 0.7545182704925537 -1.7325459919371546 -1.604325771331787 -1.2987839442542572 1.5551303625106812 0.2969197928905487 True False
10768.265 0.7475368976593018 -1.7318650684752406 -1.603616714477539 -1.2998441618731995 1.5554141998291016 0.2955525815486908 True False
10768.285 0.7408670783042908 -1.7312618694701136 -1.6029101610183716 -1.3008444470218201 1.5557342767715454 0.2941882610321045 True False
10768.305 0.7343346476554871 -1.7306601009764613 -1.6021910905838013 -1.301936761741974 1.5558576583862305 0.29288652539253235 True False
10768.324999999999 0.7278932929039001 -1.7300406895079554 -1.6016095876693726 -1.3030087810805817 1.5561422109603882 0.29169854521751404 True False
10768.345 0.7215244770050049 -1.729513784448141 -1.6010022163391113 -1.3038972181132813 1.5564020872116089 0.2904016673564911 True False
10768.365 0.71546870470047 -1.728955408135885 -1.600358247756958 -1.3048501175693055 1.556562066078186 0.28917455673217773 True False
10768.385 0.7095913290977478 -1.7284018001952113 -1.5997036695480347 -1.3058074873736878 1.556761622428894 0.2880944013595581 True False
10768.404999999999 0.7040104269981384 -1.727938791314596 -1.5990267992019653 -1.3066597443870087 1.5570539236068726 0.2869168221950531 True False
10768.425 0.6983830332756042 -1.7273899517455042 -1.5984691381454468 -1.3075093489936371 1.5571736097335815 0.28584688901901245 True False
10768.445 0.6930046081542969 -1.726818700829977 -1.597853183746338 -1.3082819145968934 1.5573660135269165 0.2847345173358917 True False
10768.465 0.6878535151481628 -1.726382394830221 -1.597301959991455 -1.3091547054103394 1.5575618743896484 0.2837623953819275 True False
10768.484999999999 0.6828845739364624 -1.7259470425047816 -1.596778154373169 -1.309967653160431 1.557673692703247 0.28282007575035095 True False
10768.505 0.6781565546989441 -1.7254859409727992 -1.5963318347930908 -1.310661570434906 1.55792236328125 0.2818717658519745 True False
10768.525 0.6735906600952148 -1.7251011333861292 -1.595842957496643 -1.3113708359054108 1.5580177307128906 0.2809133529663086 True False
10768.545 0.6691744327545166 -1.7246858082213343 -1.5953994989395142 -1.312072531586029 1.558173418045044 0.28002485632896423 True False
10768.564999999999 0.6649458408355713 -1.7242809734740199 -1.5950171947479248 -1.3127144140056153 1.5583174228668213 0.2792520225048065 True False
10768.585 0.6608002185821533 -1.723971506158346 -1.5945930480957031 -1.3132636708072205 1.5584735870361328 0.27844178676605225 True False
10768.605 0.6568703055381775 -1.7235599956908167 -1.5942306518554688 -1.3138780754855652 1.558618187904358 0.2776165306568146 True False
10768.625 0.6532231569290161 -1.723236700097555 -1.5937244892120361 -1.3144072455218812 1.5587741136550903 0.2768930196762085 True False
10768.644999999999 0.6498236060142517 -1.722921987573141 -1.593408226966858 -1.315037952070572 1.5588934421539307 0.27623558044433594 True False
10768.664999999999 0.6464710831642151 -1.7226153812804164 -1.5930382013320923 -1.3156512540629883 1.558920979499817 0.27558955550193787 True False
10768.685 0.6433162093162537 -1.722356458703512 -1.592768669128418 -1.3161536020091553 1.5591018199920654 0.27499938011169434 True False
10768.705 0.6404270529747009 -1.722072263757223 -1.592360019683838 -1.3165284556201478 1.55923330783844 0.2744031846523285 True False
10768.725 0.6376302242279053 -1.7217971287169398 -1.5919840335845947 -1.3169226509383698 1.5593013763427734 0.27386388182640076 True False
10768.744999999999 0.6349895000457764 -1.7215286693968714 -1.5917203426361084 -1.317389355306961 1.5593407154083252 0.2733159065246582 True False
10768.765 0.6325758099555969 -1.7213312588133753 -1.5915511846542358 -1.3177440923503418 1.5594768524169922 0.2728366553783417 True False
10768.785 0.6303246021270752 -1.7211533985533656 -1.5913394689559937 -1.3180394035628815 1.5595533847808838 0.27245011925697327 True False
10768.805 0.6283156275749207 -1.720983167687887 -1.5911016464233398 -1.3183587950519104 1.5596455335617065 0.2720307409763336 True False
10768.824999999999 0.6264485716819763 -1.7208386860289515 -1.5909062623977661 -1.3186340194991608 1.5596928596496582 0.27163374423980713 True False
10768.845 0.6248165965080261 -1.7206770382323207 -1.5907793045043945 -1.318929747944214 1.5597612857818604 0.27125313878059387 True False
10768.865 0.6233066320419312 -1.7205759487547816 -1.5906612873077393 -1.3192055386355896 1.5597648620605469 0.271036297082901 True False
10768.885 0.6220304369926453 -1.7204419575133265 -1.590528964996338 -1.3193928462317963 1.559812307357788 0.2708097994327545 True False
10768.904999999999 0.6209500432014465 -1.7203556499876917 -1.5903505086898804 -1.3195123833468934 1.5598403215408325 0.27054786682128906 True False
10768.925 0.6199492812156677 -1.7202431164183558 -1.5902621746063232 -1.3196362119964142 1.5599294900894165 0.2704339027404785 True False
10768.945 0.6191871166229248 -1.72019686321401 -1.590225100517273 -1.3197356921485444 1.5599572658538818 0.2702693045139313 True False
10768.965 0.6186701655387878 -1.7201515636839808 -1.5900614261627197 -1.3197917205146332 1.559941291809082 0.27019885182380676 True False
10768.984999999999 0.6182835102081299 -1.7200585804381312 -1.5900886058807373 -1.3198799055865784 1.559949278831482 0.2701311707496643 True False
10769.005 0.6180251836776733 -1.720034738580221 -1.5900557041168213 -1.3199237150004883 1.5599892139434814 0.27009397745132446 True False
10769.025 0.618091344833374 -1.720006605187887 -1.5900646448135376 -1.3199401956847687 1.5599851608276367 0.2700728178024292 True False
10769.045 0.6181269288063049 -1.7201277218260707 -1.5900439023971558 -1.3198835414699097 1.560012936592102 0.26994431018829346 True False
10769.064999999999 0.6181121468544006 -1.7203341923155726 -1.5900274515151978 -1.3197999459556122 1.5599770545959473 0.26985859870910645 True False
10769.085 0.6181121468544006 -1.7208434544005335 -1.5901083946228027 -1.3196079295924683 1.5600171089172363 0.2696865499019623 True False
10769.105 0.6180867552757263 -1.7215329609312953 -1.5902891159057617 -1.3192888063243409 1.5600452423095703 0.269557386636734 True False
10769.125 0.6180415749549866 -1.7224208317198695 -1.5904709100723267 -1.3187818688205262 1.5600292682647705 0.2692910134792328 True False
10769.144999999999 0.6181269288063049 -1.7235866985716761 -1.5907793045043945 -1.3181467813304444 1.559972882270813 0.26908865571022034 True False
10769.164999999999 0.618079423904419 -1.724842210809225 -1.5911521911621094 -1.3176284593394776 1.5599770545959473 0.26871418952941895 True False
10769.185 0.618140459060669 -1.7264367542662562 -1.5914174318313599 -1.3167703312686463 1.5600252151489258 0.26836705207824707 True False
10769.205 0.6180444359779358 -1.7280336819090785 -1.5919541120529175 -1.3159900170615693 1.5600051879882812 0.2679552137851715 True False
10769.225 0.6180569529533386 -1.729839941064352 -1.5924123525619507 -1.3150088352015992 1.559993028640747 0.2675667405128479 True False
10769.244999999999 0.6181597709655762 -1.731823583642477 -1.592821478843689 -1.3139730852893372 1.5599970817565918 0.26704704761505127 True False
10769.265 0.6180897355079651 -1.7339488468565882 -1.593424677848816 -1.3130323153785248 1.5599970817565918 0.26646730303764343 True False
10769.285 0.6181708574295044 -1.7363535366454066 -1.5940598249435425 -1.31187196195636 1.5599970817565918 0.2659488320350647 True False
10769.305 0.6181989908218384 -1.7388936481871546 -1.5946065187454224 -1.310532884006836 1.5599970817565918 0.2652975618839264 True False
10769.324999999999 0.6182354092597961 -1.7415787182249964 -1.595320463180542 -1.3092059654048462 1.559961199760437 0.2645725905895233 True False
10769.345 0.6182536482810974 -1.7446347675719203 -1.5961010456085205 -1.3076148492148896 1.560021162033081 0.26380008459091187 True False
10769.365 0.6183463335037231 -1.7477137051024378 -1.596909999847412 -1.3062122029117127 1.559993028640747 0.2630901634693146 True False
10769.385 0.6184375286102295 -1.7510444126524867 -1.5976958274841309 -1.3045539122870942 1.559981107711792 0.26222285628318787 True False
10769.404999999999 0.6183777451515198 -1.7544757328429164 -1.5986207723617554 -1.302796022301056 1.5600051879882812 0.2613523006439209 True False
10769.425 0.6184457540512085 -1.7581116161742152 -1.5995301008224487 -1.300838665371277 1.5600132942199707 0.26043301820755005 True False
10769.445 0.6184651255607605 -1.7619391880431117 -1.600487232208252 -1.299005613928177 1.559973120689392 0.2595028281211853 True False
10769.465 0.6185386180877686 -1.765860219995016 -1.6015390157699585 -1.2971562904170533 1.559961199760437 0.2585572600364685 True False
10769.484999999999 0.6186271905899048 -1.7699276409544886 -1.6025972366333008 -1.295007513170578 1.559961199760437 0.2574985921382904 True False
10769.505 0.6186627745628357 -1.774315973321432 -1.6036036014556885 -1.2926397782615204 1.5600132942199707 0.2564285695552826 True False
10769.525 0.6187307834625244 -1.7790285549559535 -1.6048003435134888 -1.2905190748027344 1.5600132942199707 0.25531575083732605 True False
10769.545 0.6186965703964233 -1.7839237652220667 -1.6061186790466309 -1.2881996494582673 1.559993028640747 0.25406646728515625 True False
10769.564999999999 0.6187938451766968 -1.788786073724264 -1.6073815822601318 -1.2855611008456727 1.560001015663147 0.2528308033943176 True False
10769.585 0.6189274191856384 -1.7938186130919398 -1.6085457801818848 -1.2831456822207947 1.5600212812423706 0.25156331062316895 True False
10769.605 0.6189570426940918 -1.798999925652975 -1.609838843345642 -1.2805071038058777 1.5600250959396362 0.2502511441707611 True False
10769.625 0.6190217733383179 -1.804324289361471 -1.611156702041626 -1.2777891618064423 1.5600491762161255 0.2489587366580963 True False
10769.644999999999 0.6191525459289551 -1.8094731769957484 -1.6124002933502197 -1.2752259534648438 1.560049057006836 0.2476106882095337 True False
10769.664999999999 0.6191644668579102 -1.8146230183043421 -1.6136844158172607 -1.272647277717926 1.560001015663147 0.2463313341140747 True False
10769.685 0.6192154288291931 -1.8194719753661097 -1.6149893999099731 -1.2704069775393982 1.559993028640747 0.24511823058128357 True False
10769.705 0.6192620992660522 -1.8240834675230921 -1.6160516738891602 -1.2680430871299286 1.5599931478500366 0.24402150511741638 True False
10769.725 0.6193350553512573 -1.8284651241698207 -1.6170568466186523 -1.2656835180572052 1.559973120689392 0.24288149178028107 True False
10769.744999999999 0.6194454431533813 -1.8326341114439906 -1.6180751323699951 -1.26370324314151 1.5599970817565918 0.2417747974395752 True False
10769.765 0.6194676756858826 -1.8367091617979945 -1.619164228439331 -1.2617141765407105 1.559993028640747 0.24077244102954865 True False
10769.785 0.6194498538970947 -1.840621133843893 -1.620181679725647 -1.2596858900836487 1.559993028640747 0.23987093567848206 True False
10769.805 0.6195307374000549 -1.8443647823729457 -1.6210581064224243 -1.2577244204333802 1.5600132942199707 0.23892861604690552 True False
10769.824999999999 0.6195999383926392 -1.8479582271971644 -1.6219912767410278 -1.2560942035964509 1.5599812269210815 0.23802533745765686 True False
10769.845 0.6196072101593018 -1.8512736759581507 -1.6227807998657227 -1.2544015508941193 1.5599812269210815 0.23722119629383087 True False
10769.865 0.6196836829185486 -1.8543712101378382 -1.6235510110855103 -1.2527161699584504 1.5600529909133911 0.23637190461158752 True False
10769.885 0.6196990609169006 -1.8573147259154261 -1.62430739402771 -1.2512176495841523 1.5599851608276367 0.2356078177690506 True False
10769.904999999999 0.6197184324264526 -1.8600765667357386 -1.625007152557373 -1.2500324112227936 1.5600330829620361 0.2349366396665573 True False
10769.925 0.6198130249977112 -1.8626872501769007 -1.6257590055465698 -1.2487067443183442 1.5599970817565918 0.23433610796928406 True False
10769.945 0.6197495460510254 -1.8650356731810511 -1.62625253200531 -1.2474117142013093 1.5600250959396362 0.2337488830089569 True False
10769.965 0.6198204755783081 -1.8673459492125453 -1.6268876791000366 -1.2462300223163147 1.5600088834762573 0.23312890529632568 True False
10769.984999999999 0.6198639273643494 -1.8694573841490687 -1.6274030208587646 -1.2451759439757843 1.560001015663147 0.23261794447898865 True False
10770.005 0.6198385953903198 -1.8713637791075648 -1.6279059648513794 -1.2444304388812562 1.5599613189697266 0.2321375012397766 True False
10770.025 0.6198577880859375 -1.8730093441405238 -1.6282697916030884 -1.2435352069190522 1.560009241104126 0.23174789547920227 True False
10770.045 0.6199478507041931 -1.8745323620238246 -1.6286239624023438 -1.2427643698504944 1.560021162033081 0.2313433289527893 True False
10770.064999999999 0.619924008846283 -1.8759023151793421 -1.6290127038955688 -1.242032454614975 1.559989094734192 0.23102426528930664 True False
10770.085 0.61995530128479 -1.877000471154684 -1.6292753219604492 -1.2415387493423005 1.560009241104126 0.23076672852039337 True False
10770.105 0.6200096011161804 -1.8780232868590296 -1.629541277885437 -1.2410198015025635 1.559989094734192 0.23054639995098114 True False
10770.125 0.6199915409088135 -1.8787409267821253 -1.6296634674072266 -1.2406520706466218 1.559993028640747 0.2302934229373932 True False
10770.144999999999 0.6199826598167419 -1.8793474636473597 -1.6297669410705566 -1.2403645676425477 1.5599970817565918 0.23022125661373138 True False
10770.164999999999 0.6200006604194641 -1.879751821557516 -1.629811406135559 -1.2401212018779297 1.5600134134292603 0.23017500340938568 True False
10770.185 0.6200079321861267 -1.8799993000426234 -1.6298389434814453 -1.2401055556586762 1.5599888563156128 0.23005667328834534 True False
10770.205 0.6199915409088135 -1.8799778423705042 -1.6299104690551758 -1.2400892835906525 1.5599888563156128 0.23011521995067596 True False
10770.225 0.6200287342071533 -1.8799392185606898 -1.6298789978027344 -1.2401374143413086 1.5600053071975708 0.23011520504951477 True False
10770.244999999999 0.6200123429298401 -1.8799687824644984 -1.629939079284668 -1.2400973302176972 1.5600252151489258 0.23010295629501343 True False
10770.265 0.6200154423713684 -1.8799706898131312 -1.6300158500671387 -1.2401092809489747 1.5600535869598389 0.23001033067703247 True False
10770.285 0.6199707388877869 -1.879958292047018 -1.629967212677002 -1.2400852006724854 1.5599970817565918 0.2300238311290741 True False
10770.305 0.6200317144393921 -1.879982133904928 -1.6299457550048828 -1.240045652990677 1.5600011348724365 0.2299816906452179 True False
10770.324999999999 0.6199672222137451 -1.8799993000426234 -1.6299943923950195 -1.2399892669967194 1.5600335597991943 0.22997437417507172 True False
10770.345 0.619957447052002 -1.8799663982787074 -1.6299954652786255 -1.2399895948222657 1.5600053071975708 0.22996526956558228 True False
10770.365 0.6199483275413513 -1.8799716434874476 -1.6299705505371094 -1.239881621008255 1.5599650144577026 0.229954794049263 True False
10770.385 0.6199692487716675 -1.8799706898131312 -1.630018711090088 -1.239897684460022 1.5599409341812134 0.2299620509147644 True False
10770.404999999999 0.6200242042541504 -1.8799005947508753 -1.6299500465393066 -1.2399137181094666 1.5600093603134155 0.22995473444461823 True False
10770.425 0.6199990510940552 -1.8799330196776332 -1.6300029754638672 -1.2399057906917115 1.5599970817565918 0.23002061247825623 True False
10770.445 0.6200242042541504 -1.8799735508360804 -1.6299824714660645 -1.2399738293937226 1.5599366426467896 0.2299833446741104 True False
10770.465 0.61997389793396 -1.8799511394896449 -1.6300029754638672 -1.239973859196045 1.5599769353866577 0.22997432947158813 True False
10770.484999999999 0.6200109720230103 -1.8799439869322718 -1.629995346069336 -1.2399377685836335 1.5599970817565918 0.22997558116912842 True False
10770.505 0.6199856400489807 -1.8799735508360804 -1.6300029754638672 -1.2399778229049225 1.5599846839904785 0.22992193698883057 True False
10770.525 0.6200153827667236 -1.8799315891661585 -1.6299824714660645 -1.2399977308562775 1.560025691986084 0.2299833595752716 True False
10770.545 0.6199915409088135 -1.8799735508360804 -1.6299943923950195 -1.2399535936168213 1.5600416660308838 0.22999519109725952 True False
10770.564999999999 0.6200153827667236 -1.8800064525999964 -1.6299995183944702 -1.2399335664561768 1.5599769353866577 0.2300041764974594 True False
10770.585 0.6199959516525269 -1.8800231419005335 -1.6300063133239746 -1.2399618190578003 1.5599654912948608 0.2298814058303833 True False
10770.605 0.6200360655784607 -1.8800302944579066 -1.6300638914108276 -1.2399495405009766 1.5599650144577026 0.2299129217863083 True False
10770.625 0.6200034618377686 -1.8800064525999964 -1.6299824714660645 -1.239937649374344 1.5599168539047241 0.22993828356266022 True False
10770.644999999999 0.619966447353363 -1.8799811802306117 -1.6299856901168823 -1.2399776738933106 1.5600134134292603 0.22992931306362152 True False
10770.664999999999 0.620002031326294 -1.8799530468382777 -1.6300028562545776 -1.2399896544269104 1.5600051879882812 0.22993668913841248 True False
10770.685 0.6200273036956787 -1.8800393543639125 -1.6300071477890015 -1.2399656933597107 1.5599888563156128 0.22997881472110748 True False
10770.705 0.6200121641159058 -1.8799978695311488 -1.6300063133239746 -1.2399816376021882 1.5599929094314575 0.22994858026504517 True False
10770.725 0.6199620962142944 -1.8800097904601039 -1.6300231218338013 -1.239973710184433 1.5600051879882812 0.22996529936790466 True False
10770.744999999999 0.6199539303779602 -1.8800393543639125 -1.6300595998764038 -1.2399656635573884 1.5599929094314575 0.22995761036872864 True False
10770.765 0.6200479865074158 -1.8800436458983363 -1.6300104856491089 -1.2400015455535431 1.5600011348724365 0.2299354523420334 True False
10770.785 0.6199828386306763 -1.8800302944579066 -1.6299858093261719 -1.239961789255478 1.559960961341858 0.2299666404724121 True False
10770.805 0.6200241446495056 -1.8800393543639125 -1.6300106048583984 -1.2399657231620331 1.559981107711792 0.23001150786876678 True False
10770.824999999999 0.620011031627655 -1.8799735508360804 -1.630018711090088 -1.240013675098755 1.5599651336669922 0.2299787998199463 True False
10770.845 0.6200774312019348 -1.8798939190306605 -1.6300019025802612 -1.2401814323714753 1.559981107711792 0.22999808192253113 True False
10770.865 0.6200360059738159 -1.879533430139059 -1.6299620866775513 -1.2404127281955262 1.5600011348724365 0.23011524975299835 True False
10770.885 0.6199828386306763 -1.8790341816344203 -1.6298993825912476 -1.2406245034984131 1.5600134134292603 0.23030392825603485 True False
10770.904999999999 0.6199871897697449 -1.8783146343626917 -1.629691481590271 -1.2409324806979676 1.5599970817565918 0.23049117624759674 True False
10770.925 0.6200166940689087 -1.8774529896178187 -1.6294550895690918 -1.2413474482348938 1.5599970817565918 0.23073811829090118 True False
10770.945 0.6199796199798584 -1.876359602014059 -1.6291953325271606 -1.2419307094863434 1.5599929094314575 0.23097966611385345 True False
10770.965 0.6199626922607422 -1.8749247990050257 -1.6288187503814697 -1.2425581079772492 1.5599651336669922 0.23129089176654816 True False
10770.984999999999 0.6199509501457214 -1.8734451733031214 -1.6284562349319458 -1.2433212262443085 1.5599769353866577 0.2316369265317917 True False
10771.005 0.6199596524238586 -1.8718439541258753 -1.6280651092529297 -1.2440874737552186 1.560017466545105 0.2320656180381775 True False
10771.025 0.6199195384979248 -1.870002885858053 -1.6276775598526 -1.2449822586825867 1.5599888563156128 0.23252521455287933 True False
10771.045 0.6198475360870361 -1.8679233990111292 -1.6270779371261597 -1.2459725004485627 1.5599929094314575 0.232981875538826 True False
10771.064999999999 0.619795024394989 -1.865779539147848 -1.6264384984970093 -1.2471389037421723 1.5599651336669922 0.23349744081497192 True False
10771.085 0.6198312640190125 -1.863323827783102 -1.625862956047058 -1.2483606499484559 1.5600011348724365 0.23415055871009827 True False
10771.105 0.6197869777679443 -1.860851903954977 -1.6252267360687256 -1.2496225100806733 1.5600494146347046 0.23475579917430878 True False
10771.125 0.6197598576545715 -1.8581372700133265 -1.6245239973068237 -1.2509053212455292 1.5599892139434814 0.23549708724021912 True False
10771.144999999999 0.6197316646575928 -1.8551694355406703 -1.6237974166870117 -1.2522945565036316 1.5599769353866577 0.23616215586662292 True False
10771.164999999999 0.6197209358215332 -1.852001806298727 -1.6230244636535645 -1.254064218407013 1.5599851608276367 0.236960768699646 True False
10771.185 0.6196153163909912 -1.8487583599486292 -1.6223065853118896 -1.255725161438324 1.5600134134292603 0.2378457486629486 True False
10771.205 0.6196533441543579 -1.8452688656248988 -1.6213914155960083 -1.257419930105545 1.559972882270813 0.2387160360813141 True False
10771.225 0.6195440292358398 -1.8416530094542445 -1.6204731464385986 -1.2591613692096253 1.5600252151489258 0.2396402359008789 True False
10771.244999999999 0.6194870471954346 -1.8377725086607875 -1.619482398033142 -1.2611420315555115 1.5600011348724365 0.24051633477210999 True False
10771.265 0.6194231510162354 -1.8337413273253382 -1.6184111833572388 -1.2632027727416535 1.5600216388702393 0.24154415726661682 True False
10771.285 0.6193630695343018 -1.829466005364889 -1.6173884868621826 -1.2652394336513062 1.560009241104126 0.2426552176475525 True False
10771.305 0.6193011403083801 -1.8249980411925257 -1.616269826889038 -1.2673524481109162 1.5599888563156128 0.24371883273124695 True False
10771.324999999999 0.6192342638969421 -1.8204862080016078 -1.615179419517517 -1.2697874766639252 1.5599929094314575 0.24479453265666962 True False
10771.345 0.6192721724510193 -1.8157912693419398 -1.6140892505645752 -1.2721035045436402 1.5600011348724365 0.24609160423278809 True False
10771.365 0.6191751956939697 -1.8108083210387171 -1.6127746105194092 -1.274494783287384 1.5599970817565918 0.24726897478103638 True False
10771.385 0.6191070079803467 -1.805676122704977 -1.6114354133605957 -1.2771529418281098 1.560017466545105 0.24858394265174866 True False
10771.404999999999 0.6190187931060791 -1.8003975353636683 -1.6100174188613892 -1.2796806556037446 1.5600011348724365 0.249836266040802 True False
10771.425 0.6189305782318115 -1.7951122723021449 -1.608796238899231 -1.2824548345855256 1.560009241104126 0.2512413263320923 True False
10771.445 0.6188403964042664 -1.789976259271139 -1.6075122356414795 -1.2850573521903534 1.5599932670593262 0.2524772584438324 True False
10771.465 0.6188504695892334 -1.784922262231344 -1.6063182353973389 -1.2875004571727295 1.5599929094314575 0.2537609040737152 True False
10771.484999999999 0.6187827587127686 -1.7801343403258265 -1.6049238443374634 -1.2900082927993317 1.5600134134292603 0.2549053728580475 True False
10771.505 0.6187469959259033 -1.7754665813841761 -1.6037614345550537 -1.2922239762595673 1.5600134134292603 0.2560840845108032 True False
10771.525 0.6185920238494873 -1.7711073360838832 -1.6026904582977295 -1.2943644982627411 1.5600334405899048 0.25718173384666443 True False
10771.545 0.6186301708221436 -1.7669593296446742 -1.6016591787338257 -1.2966239613345643 1.5599929094314575 0.25826141238212585 True False
10771.564999999999 0.6185657382011414 -1.7628914318480433 -1.6007658243179321 -1.2986050707152863 1.5599970817565918 0.2592877149581909 True False
10771.585 0.6185355186462402 -1.7590018711485804 -1.5998069047927856 -1.3004502219012757 1.5600334405899048 0.2602510452270508 True False
10771.605 0.6184709072113037 -1.7552458248534144 -1.5988048315048218 -1.3023761373809357 1.5600411891937256 0.26113930344581604 True False
10771.625 0.6184679865837097 -1.7517978153624476 -1.5978970527648926 -1.304201142196991 1.5599732398986816 0.2620590031147003 True False
10771.644999999999 0.6183898448944092 -1.7485257587828578 -1.5970584154129028 -1.305775449877121 1.559969186782837 0.26288166642189026 True False
10771.664999999999 0.6183509230613708 -1.7453113994994105 -1.5963072776794434 -1.3072773677161713 1.5599970817565918 0.2636406719684601 True False
10771.685 0.618339478969574 -1.7423421345152796 -1.5955644845962524 -1.3087609571269532 1.559972882270813 0.2644077241420746 True False
10771.705 0.6182863712310791 -1.7396584949889125 -1.594866156578064 -1.3102909189513703 1.5600253343582153 0.2650773525238037 True False
10771.725 0.6182756423950195 -1.7370759449400843 -1.5943955183029175 -1.3115512889674683 1.5599888563156128 0.26573362946510315 True False
10771.744999999999 0.6181814074516296 -1.734673639337057 -1.5937288999557495 -1.3127185565284272 1.5599650144577026 0.2663399279117584 True False
10771.765 0.6181662082672119 -1.732408185998434 -1.5931674242019653 -1.3136384648135682 1.5599569082260132 0.2669123113155365 True False
10771.785 0.6181836128234863 -1.7304188213744105 -1.5926594734191895 -1.3147151631167908 1.5600011348724365 0.26736465096473694 True False
10771.805 0.6181256175041199 -1.7285520039000453 -1.5921772718429565 -1.315779135828354 1.56002938747406 0.26784563064575195 True False
10771.824999999999 0.6180692911148071 -1.7268744907774867 -1.5917218923568726 -1.3166399461082001 1.5599970817565918 0.2682936489582062 True False
10771.845 0.6180417537689209 -1.725377698937887 -1.5913407802581787 -1.317369357948639 1.5600171089172363 0.26867377758026123 True False
10771.865 0.6180417537689209 -1.7239843807616175 -1.5909812450408936 -1.317975566988327 1.5599325895309448 0.2690046727657318 True False
10771.885 0.618025541305542 -1.722891469995016 -1.5907212495803833 -1.3184787195971985 1.5599970817565918 0.2693089246749878 True False
10771.904999999999 0.618025541305542 -1.7220045528807582 -1.5905245542526245 -1.3190258306315918 1.5600051879882812 0.26953214406967163 True False
10771.925 0.6180179119110107 -1.7211834392943324 -1.5902912616729736 -1.3194132608226319 1.5599970817565918 0.2697029113769531 True False
10771.945 0.6180514693260193 -1.7206131420531214 -1.5901952981948853 -1.3197325033000489 1.5599888563156128 0.26982560753822327 True False
10771.965 0.6180793642997742 -1.7203442058958949 -1.5901352167129517 -1.319811837082245 1.560021162033081 0.2699051797389984 True False
10771.984999999999 0.6180264949798584 -1.7200714550414027 -1.5901485681533813 -1.3198999923518677 1.5599888563156128 0.26991981267929077 True False
10772.005 0.6180073022842407 -1.7200952968993128 -1.590133786201477 -1.319852040415146 1.559981107711792 0.26987379789352417 True False
10772.025 0.6180145740509033 -1.7200538120665492 -1.5900616645812988 -1.319856123333313 1.5600011348724365 0.26991868019104004 True False
10772.045 0.6180102825164795 -1.7200590572752894 -1.590067744255066 -1.3198397916606446 1.5599567890167236 0.2699127197265625 True False
10772.064999999999 0.6180546283721924 -1.7200671635069789 -1.5900558233261108 -1.3198794287494202 1.5600051879882812 0.2699904441833496 True False
10772.085 0.6180193424224854 -1.7201243839659632 -1.5900943279266357 -1.3199274104884644 1.5600051879882812 0.2700202465057373 True False
10772.105 0.6179724335670471 -1.7201091251769007 -1.5900081396102905 -1.3199434739402314 1.5599929094314575 0.269993394613266 True False
10772.125 0.6180147528648376 -1.7201091251769007 -1.5899910926818848 -1.319995478992798 1.5599851608276367 0.26994991302490234 True False
10772.144999999999 0.6179894804954529 -1.7200476131834925 -1.5899657011032104 -1.31997902811084 1.5600053071975708 0.26998600363731384 True False
10772.164999999999 0.6179598569869995 -1.7200523815550746 -1.589953899383545 -1.3200110656074067 1.5599970817565918 0.27000683546066284 True False
10772.185 0.6179983615875244 -1.7200037441649378 -1.5900081396102905 -1.3200795215419312 1.5600295066833496 0.27001118659973145 True False
10772.205 0.6180165410041809 -1.7200452289977015 -1.5900453329086304 -1.3200033170035859 1.5600134134292603 0.2700234353542328 True False
10772.225 0.6179643273353577 -1.7199918232359828 -1.5899673700332642 -1.3199950021556397 1.560025691986084 0.26999783515930176 True False
10772.244999999999 0.6180030107498169 -1.7200242481627406 -1.5900471210479736 -1.3199873131564637 1.5599851608276367 0.27000683546066284 True False
10772.265 0.6179983019828796 -1.7199918232359828 -1.5900499820709229 -1.3200315100005646 1.5599970817565918 0.27004274725914 True False
10772.285 0.618001401424408 -1.7200366459288539 -1.5899791717529297 -1.3200315100005646 1.5599929094314575 0.2699829339981079 True False
10772.305 0.6179859638214111 -1.71997131923818 -1.5899882316589355 -1.3200110656074067 1.5600051879882812 0.2700517177581787 True False
10772.324999999999 0.6180239319801331 -1.7200409374632777 -1.590030550956726 -1.3200397354415436 1.559981107711792 0.2699815332889557 True False
10772.345 0.6179735660552979 -1.7199961147704066 -1.5900216102600098 -1.3200836938670655 1.5600134134292603 0.27003973722457886 True False
10772.365 0.6179850101470947 -1.7200523815550746 -1.5900288820266724 -1.320011095409729 1.5599929094314575 0.26997411251068115 True False
10772.385 0.6180429458618164 -1.7199841938414515 -1.5899882316589355 -1.3199950617602845 1.5600053071975708 0.27000677585601807 True False
10772.404999999999 0.6179983615875244 -1.7199598751463832 -1.5900155305862427 -1.320079432134964 1.5599929094314575 0.2700100541114807 True False
10772.425 0.617943525314331 -1.7200080356993617 -1.5899673700332642 -1.3200033170035859 1.560009241104126 0.2699860632419586 True False
10772.445 0.6180311441421509 -1.7199918232359828 -1.5899673700332642 -1.3200273674777527 1.559981107711792 0.2700234353542328 True False
10772.465 0.6181254982948303 -1.7199179134764613 -1.5900424718856812 -1.3200151485255738 1.560009241104126 0.2699367105960846 True False
10772.484999999999 0.6182774901390076 -1.7199512920775355 -1.5899492502212524 -1.319990949039795 1.5600134134292603 0.2700023651123047 True False
10772.505 0.6185386180877686 -1.719964166680807 -1.58997642993927 -1.3200680178454895 1.559981107711792 0.2700594663619995 True False
10772.525 0.6188682913780212 -1.7198482952513636 -1.590024471282959 -1.3200316292098542 1.559981107711792 0.27006685733795166 True False
10772.545 0.6192615032196045 -1.7198411426939906 -1.5900483131408691 -1.320063517694809 1.560021162033081 0.27010154724121094 True False
10772.564999999999 0.6198263168334961 -1.7197290859618128 -1.5901622772216797 -1.3200110656074067 1.5599933862686157 0.2701582908630371 True False
10772.585 0.6204806566238403 -1.719638010064596 -1.5902936458587646 -1.3201069396785279 1.559972882270813 0.2701854705810547 True False
10772.605 0.6214171648025513 -1.7194496593871058 -1.5904539823532104 -1.3201670807651062 1.5599970817565918 0.2703394889831543 True False
10772.625 0.6225314736366272 -1.7192656002440394 -1.5905920267105103 -1.320235089664795 1.560001015663147 0.27042755484580994 True False
10772.644999999999 0.6239819526672363 -1.719069620172018 -1.5908230543136597 -1.3202781838229676 1.5600413084030151 0.2705356180667877 True False
10772.664999999999 0.6255552768707275 -1.7188302479186 -1.591017723083496 -1.3203428548625489 1.560049057006836 0.27062109112739563 True False
10772.685 0.6273241639137268 -1.7186318836607875 -1.5912784337997437 -1.320430503492691 1.5600612163543701 0.2707737684249878 True False
10772.705 0.629307746887207 -1.718330522576803 -1.591552495956421 -1.320582465534546 1.560080885887146 0.27096691727638245 True False
10772.725 0.6313953995704651 -1.7180925808348597 -1.59185791015625 -1.3206703227809449 1.5601165294647217 0.2711048126220703 True False
10772.744999999999 0.6336658000946045 -1.717696329156393 -1.5921683311462402 -1.3208099168590088 1.5601692199707031 0.27129650115966797 True False
10772.765 0.6361204385757446 -1.7173944912352503 -1.5926097631454468 -1.3208934527686615 1.5601491928100586 0.2714970111846924 True False
10772.785 0.6387684345245361 -1.7169329128661097 -1.5930020809173584 -1.32101725161586 1.5601810216903687 0.27169638872146606 True False
10772.805 0.6416556239128113 -1.7166692219176234 -1.5933318138122559 -1.321193055515625 1.5601929426193237 0.27195677161216736 True False
10772.824999999999 0.6446599364280701 -1.7161270580687464 -1.593799114227295 -1.3213204753449936 1.560237169265747 0.2722293436527252 True False
10772.845 0.64794921875 -1.7156726322569789 -1.5943742990493774 -1.32150852799926 1.5602813959121704 0.27246037125587463 True False
10772.865 0.651328980922699 -1.715170522729391 -1.594741702079773 -1.3216592234424134 1.5602929592132568 0.2727060616016388 True False
10772.885 0.6549134850502014 -1.7146722278990687 -1.595311164855957 -1.3218843948892136 1.5603324174880981 0.2730177342891693 True False
10772.904999999999 0.6587462425231934 -1.7141334019102992 -1.5958714485168457 -1.3220432561687012 1.5603489875793457 0.2733129858970642 True False
10772.925 0.6627117395401001 -1.7134729824461878 -1.5964573621749878 -1.3222142320922394 1.560457468032837 0.27367398142814636 True False
10772.945 0.6668229699134827 -1.712930818597311 -1.5970653295516968 -1.322418139582016 1.560481071472168 0.2739863693714142 True False
10772.965 0.6710648536682129 -1.7122522793211878 -1.5977368354797363 -1.3226532203010102 1.5604770183563232 0.27434486150741577 True False
10772.984999999999 0.6756349205970764 -1.7116013966002406 -1.598391056060791 -1.3229294580272217 1.5605289936065674 0.2746999263763428 True False
10773.005 0.680271327495575 -1.710987230340475 -1.5990490913391113 -1.3231211465648194 1.560549020767212 0.27503538131713867 True False
10773.025 0.6851881146430969 -1.71018709758901 -1.5998291969299316 -1.3233684611371537 1.5605889558792114 0.2754581570625305 True False
10773.045 0.6902679204940796 -1.7095228634276332 -1.600560188293457 -1.323643834596016 1.56062912940979 0.2758656442165375 True False
10773.064999999999 0.6955527067184448 -1.708766599694723 -1.6013189554214478 -1.3239199978164216 1.5606770515441895 0.27637404203414917 True False
10773.085 0.7009193301200867 -1.7079245052733363 -1.602103590965271 -1.324122743015625 1.5607730150222778 0.2767893671989441 True False
10773.105 0.7064152359962463 -1.7071114979186 -1.6028709411621094 -1.3244264882854004 1.560841679573059 0.2772667109966278 True False
10773.125 0.7122572660446167 -1.7063161335387171 -1.6037623882293701 -1.3246772301248093 1.5608735084533691 0.27770450711250305 True False
10773.144999999999 0.7182556986808777 -1.7055641613402308 -1.6046642065048218 -1.3250098389438172 1.560961127281189 0.2782002389431 True False
10773.164999999999 0.7244073748588562 -1.7045194111266078 -1.6055265665054321 -1.3253173989108582 1.5609729290008545 0.2786960005760193 True False
10773.185 0.7307388186454773 -1.7036153278746546 -1.606466293334961 -1.3255555045655747 1.5610170364379883 0.27921536564826965 True False
10773.205 0.7371558547019958 -1.7027212582030238 -1.6074981689453125 -1.3259669256261368 1.5610644817352295 0.27975475788116455 True False
10773.225 0.7438797354698181 -1.701726575891012 -1.6084725856781006 -1.326375664477684 1.5611211061477661 0.2802852690219879 True False
10773.244999999999 0.7508766651153564 -1.700705190698141 -1.6093469858169556 -1.326650933628418 1.5612691640853882 0.2808364927768707 True False
10773.265 0.7580076456069946 -1.699712415734762 -1.6103452444076538 -1.3270221811584015 1.5612690448760986 0.2814311385154724 True False
10773.285 0.7651621699333191 -1.6986624203123988 -1.6114113330841064 -1.3273485463908692 1.561288833618164 0.282034695148468 True False
10773.305 0.7725347876548767 -1.6976291141905726 -1.6125277280807495 -1.327683762913086 1.5613808631896973 0.2826009690761566 True False
10773.324999999999 0.7802168130874634 -1.696381231347555 -1.6136420965194702 -1.328063653116562 1.5614573955535889 0.2832614779472351 True False
10773.345 0.7880992889404297 -1.6953607998290003 -1.614738941192627 -1.328478292827942 1.5615448951721191 0.28389972448349 True False
10773.365 0.7959756255149841 -1.6941691837706507 -1.6158360242843628 -1.3289543402246018 1.5616412162780762 0.2845183312892914 True False
10773.385 0.8040931224822998 -1.6928898296751917 -1.6170380115509033 -1.3293288064054032 1.5616729259490967 0.2852177023887634 True False
10773.404999999999 0.8125041127204895 -1.6917382679381312 -1.618117332458496 -1.3297881048968812 1.5617769956588745 0.2859344184398651 True False
10773.425 0.8211734890937805 -1.690467973748678 -1.6194742918014526 -1.3302352887443085 1.5618972778320312 0.28662171959877014 True False
10773.445 0.8297827839851379 -1.6893159351744593 -1.62077796459198 -1.3306105744889756 1.561924695968628 0.28731533885002136 True False
10773.465 0.8385953903198242 -1.6879641018309535 -1.6220378875732422 -1.3310496521047135 1.561984896659851 0.2879999876022339 True False
10773.484999999999 0.8478467464447021 -1.686622758904928 -1.62333345413208 -1.331520603304245 1.5621412992477417 0.2887662351131439 True False
10773.505 0.8570896983146667 -1.6852313480772914 -1.6246267557144165 -1.3318828356317063 1.5622128248214722 0.28951194882392883 True False
10773.525 0.8664079904556274 -1.683906694451803 -1.626085638999939 -1.3324269664338608 1.562208652496338 0.29032808542251587 True False
10773.545 0.8760769963264465 -1.6824623546996058 -1.6275638341903687 -1.3328812879375 1.562252402305603 0.29107657074928284 True False
10773.564999999999 0.8860890865325928 -1.6811024151244105 -1.6289998292922974 -1.333376095896103 1.5624967813491821 0.29188650846481323 True False
10773.585 0.8958132863044739 -1.679603715936178 -1.6303712129592896 -1.3338588786176224 1.562504529953003 0.2927427291870117 True False
