Andreas691667/Digital_Twin_UR/src/controller_monitor/test_results/robot_output.csv
timestamp actual_q_0 actual_q_1 actual_q_2 actual_q_3 actual_q_4 actual_q_5 output_bit_register_65 output_bit_register_66
5138.795999999999 4.803211688995361 -1.5425789945623656 1.8677204290973108 -1.8959542713561 -1.5707724730121058 -2.8040838877307337 False False
5138.816 4.8031697273254395 -1.5425834760865946 1.867732350026266 -1.8959461651244105 -1.570772949849264 -2.8040176073657435 False False
5138.835999999999 4.803243160247803 -1.54256681658838 1.8677409330951136 -1.8959461651244105 -1.570829216633932 -2.804091517125265 False False
5138.856 4.8032073974609375 -1.542526775305607 1.8677366415606897 -1.8959423504271449 -1.5707648436175745 -2.8040176073657435 False False
5138.876 4.8032402992248535 -1.54256681658838 1.8677528540240687 -1.8959537945189417 -1.5708254019366663 -2.8040295282946985 False False
5138.896 4.803219318389893 -1.5425866369954129 1.8677452246295374 -1.8959857426085414 -1.5707843939410608 -2.804042641316549 False False
5138.916 4.803182125091553 -1.542584265848138 1.8678072134601038 -1.8959266148009242 -1.570784870778219 -2.804075066243307 False False
5138.936 4.803199768066406 -1.5425711472383519 1.8677247206317347 -1.8959580860533656 -1.570813004170553 -2.8040719668017786 False False
5138.956 4.803195476531982 -1.5426127233407279 1.8677118460284632 -1.895994325677389 -1.5708373228656214 -2.804038111363546 False False
5138.976 4.8032450675964355 -1.542575530042388 1.867732350026266 -1.8959185085692347 -1.5707605520831507 -2.804091517125265 False False
5138.996 4.803210258483887 -1.5425506003997107 1.8676956335650843 -1.8958984814085902 -1.5707805792437952 -2.8040619532214563 False False
5139.016 4.803219318389893 -1.5425878011486311 1.8677409330951136 -1.8959022961058558 -1.5707767645465296 -2.804058853779928 False False
5139.036 4.803223609924316 -1.5425624263337632 1.867732350026266 -1.8959619007506312 -1.5707805792437952 -2.804042641316549 False False
5139.056 4.803174018859863 -1.5425834164819499 1.867716137562887 -1.8959461651244105 -1.5707891623126429 -2.8040664831744593 False False
5139.076 4.803297519683838 -1.5426156421056767 1.867732350026266 -1.895938058892721 -1.570801083241598 -2.8040958086596888 False False
5139.096 4.803249359130859 -1.5425330878100176 1.8677290121661585 -1.8959499798216761 -1.5707891623126429 -2.804063145314352 False False
5139.116 4.80320405960083 -1.5426111549935122 1.8677409330951136 -1.8959900341429652 -1.5707648436175745 -2.804070774708883 False False
5139.1359999999995 4.80322790145874 -1.5426155899516125 1.8677571455584925 -1.8959619007506312 -1.5707929770099085 -2.804091517125265 False False
5139.156 4.803232192993164 -1.542554921736457 1.8677528540240687 -1.8959270916380824 -1.570813004170553 -2.8041377703296106 False False
5139.1759999999995 4.803198337554932 -1.5426277139088889 1.8677485624896448 -1.8959499798216761 -1.5707648436175745 -2.80402642885317 False False
5139.196 4.80325174331665 -1.5426084113172074 1.867704216633932 -1.8959857426085414 -1.5708044211017054 -2.804046932850973 False False
5139.215999999999 4.803223609924316 -1.5425330710462113 1.8677485624896448 -1.895930906335348 -1.5707843939410608 -2.8040204683886927 False False
5139.236 4.803199768066406 -1.5425299418023606 1.867732350026266 -1.8959423504271449 -1.5707891623126429 -2.804082695637838 False False
5139.255999999999 4.803256511688232 -1.5425624226084729 1.8677333037005823 -1.895977636376852 -1.570784870778219 -2.80407959619631 False False
5139.276 4.8032732009887695 -1.5425711789033194 1.8677657286273401 -1.895898004571432 -1.5707686583148401 -2.804075066243307 False False
5139.295999999999 4.803244590759277 -1.5425580863705655 1.8677127997027796 -1.8959580860533656 -1.5707405249225062 -2.804091517125265 False False
5139.316 4.803219318389893 -1.5425877527198573 1.8677485624896448 -1.895914217034811 -1.5707967917071741 -2.8040500322925013 False False
5139.335999999999 4.803232192993164 -1.5425798159888764 1.8677290121661585 -1.8959619007506312 -1.5708406607257288 -2.8040664831744593 False False
5139.356 4.8032402992248535 -1.542562437509634 1.8677399794207972 -1.895914217034811 -1.5707929770099085 -2.804075066243307 False False
5139.376 4.803215980529785 -1.5425549664399405 1.8676965872394007 -1.8959619007506312 -1.5707686583148401 -2.8041115442859095 False False
5139.396 4.803191184997559 -1.5425430455109854 1.8677485624896448 -1.8959537945189417 -1.5708168188678187 -2.804046932850973 False False
5139.416 4.803211688995361 -1.542604000573494 1.8677409330951136 -1.8959504566588343 -1.5708048979388636 -2.804058853779928 False False
5139.436 4.8032402992248535 -1.5425136417946597 1.8677204290973108 -1.8959461651244105 -1.5707805792437952 -2.804035011922018 False False
5139.456 4.803215026855469 -1.5425268162838002 1.8677085081683558 -1.8959504566588343 -1.5707605520831507 -2.804082695637838 False False
5139.476 4.803219318389893 -1.542575505828001 1.8677247206317347 -1.895909925500387 -1.5707891623126429 -2.804038111363546 False False
5139.496 4.803187370300293 -1.5425877340934058 1.8676465193377894 -1.895898004571432 -1.5708091894732874 -2.804035011922018 False False
5139.516 4.803264141082764 -1.542575455536582 1.8677008787738245 -1.8959423504271449 -1.5708616415606897 -2.804075066243307 False False
5139.536 4.803211688995361 -1.542579797362425 1.8677204290973108 -1.895966192285055 -1.570824925099508 -2.804058853779928 False False
5139.556 4.803203105926514 -1.542525614877679 1.8677528540240687 -1.8959423504271449 -1.5708087126361292 -2.8040500322925013 False False
5139.576 4.8032402992248535 -1.5425834127566596 1.8677657286273401 -1.895966192285055 -1.5707648436175745 -2.804058853779928 False False
5139.596 4.803191184997559 -1.5425834127566596 1.867753807698385 -1.8959061108031214 -1.570772949849264 -2.804086987172262 False False
5139.616 4.80320405960083 -1.5425668519786377 1.8677409330951136 -1.8959461651244105 -1.5707967917071741 -2.804035011922018 False False
5139.6359999999995 4.80319881439209 -1.542578975935914 1.8677495161639612 -1.895942827264303 -1.5707605520831507 -2.8040221373187464 False False
5139.656 4.803244590759277 -1.5425833866796275 1.8677290121661585 -1.895966192285055 -1.570813004170553 -2.8040674368487757 False False
5139.6759999999995 4.803215980529785 -1.5425299250385542 1.867732350026266 -1.8959742985167445 -1.570824925099508 -2.8040674368487757 False False
5139.696 4.80322790145874 -1.5426125780544062 1.8677085081683558 -1.895886083642477 -1.570801083241598 -2.8040958086596888 False False
5139.715999999999 4.803186893463135 -1.542534378623106 1.8677290121661585 -1.8960019550719203 -1.5708087126361292 -2.8040013949023646 False False
5139.736 4.80322790145874 -1.5425419092974444 1.8677290121661585 -1.8959461651244105 -1.5708211104022425 -2.804058853779928 False False
5139.755999999999 4.8032073974609375 -1.5425137554160138 1.867728058491842 -1.8959537945189417 -1.570784870778219 -2.804086987172262 False False
5139.776 4.803244590759277 -1.5425635793111105 1.8677247206317347 -1.895938058892721 -1.5707648436175745 -2.80402642885317 False False
5139.795999999999 4.803223609924316 -1.542550641377904 1.8677614370929163 -1.8959461651244105 -1.5708211104022425 -2.804086987172262 False False
5139.816 4.803199768066406 -1.5425506190261622 1.8677495161639612 -1.8959061108031214 -1.5708044211017054 -2.8040674368487757 False False
5139.835999999999 4.803208351135254 -1.5425790020129462 1.867688004170553 -1.895898004571432 -1.570813004170553 -2.804063145314352 False False
5139.856 4.803223609924316 -1.5425876931152125 1.8677485624896448 -1.8959619007506312 -1.5707925001727503 -2.8040176073657435 False False
5139.876 4.803191184997559 -1.5425094340792675 1.8677366415606897 -1.895909925500387 -1.5707767645465296 -2.804075066243307 False False
5139.896 4.80322790145874 -1.5425624077073117 1.8677452246295374 -1.8959580860533656 -1.5707686583148401 -2.8040955702411097 False False
5139.916 4.803210735321045 -1.542592044254281 1.8677333037005823 -1.8959390125670375 -1.5707891623126429 -2.8041001001941126 False False
5139.936 4.803223609924316 -1.5425418981215735 1.867716137562887 -1.8959542713561 -1.570813004170553 -2.80402642885317 False False
5139.956 4.803154468536377 -1.5425299771926184 1.8677452246295374 -1.8959390125670375 -1.570801083241598 -2.804058853779928 False False
5139.976 4.803272724151611 -1.542592044254281 1.867716137562887 -1.8959619007506312 -1.570813004170553 -2.8040664831744593 False False
5139.996 4.803219318389893 -1.5425429244390507 1.8677776495562952 -1.8959542713561 -1.5708382765399378 -2.8040502707110804 False False
5140.016 4.803244590759277 -1.5425635457834979 1.8677075544940394 -1.8959461651244105 -1.5707767645465296 -2.804058853779928 False False
5140.036 4.803191184997559 -1.5425754331848403 1.8677528540240687 -1.8959423504271449 -1.5708053747760218 -2.8040958086596888 False False
5140.056 4.803199768066406 -1.542592044254281 1.8677085081683558 -1.8959742985167445 -1.5707524458514612 -2.804070774708883 False False
5140.076 4.8032073974609375 -1.5426126208952446 1.867704216633932 -1.8959700069823207 -1.570784870778219 -2.804042641316549 False False
5140.096 4.80322790145874 -1.5425668519786377 1.8677571455584925 -1.8959504566588343 -1.570813004170553 -2.804070774708883 False False
5140.116 4.803199768066406 -1.5426483576050778 1.8677247206317347 -1.8959504566588343 -1.5707724730121058 -2.8040793577777308 False False
5140.1359999999995 4.803178787231445 -1.5425635625473042 1.8677290121661585 -1.8959304294981898 -1.5708368460284632 -2.804058853779928 False False
5140.156 4.803199768066406 -1.5425876521370192 1.867688004170553 -1.8959266148009242 -1.570784870778219 -2.8040555159198206 False False
5140.1759999999995 4.803260326385498 -1.5425387316248198 1.8677452246295374 -1.8959742985167445 -1.5707719961749476 -2.804075066243307 False False
5140.196 4.803244590759277 -1.5424769271961232 1.8677690664874476 -1.895938058892721 -1.570801083241598 -2.8040784041034144 False False
5140.215999999999 4.803199768066406 -1.5425636407784005 1.8677776495562952 -1.8959180317320765 -1.5707686583148401 -2.804058853779928 False False
5140.236 4.803223609924316 -1.5425908968648692 1.867725674306051 -1.8959461651244105 -1.570824925099508 -2.804038111363546 False False
5140.255999999999 4.803256034851074 -1.542612663736083 1.867716137562887 -1.8959504566588343 -1.570801083241598 -2.8040369192706507 False False
5140.276 4.8032684326171875 -1.542573671122529 1.8677900473224085 -1.8959223232665003 -1.5708053747760218 -2.804063145314352 False False
5140.295999999999 4.803186893463135 -1.5425704673728724 1.8677485624896448 -1.8959185085692347 -1.570801083241598 -2.8040457407580774 False False
5140.316 4.8032073974609375 -1.542579011326172 1.8677366415606897 -1.8959337673582972 -1.5707929770099085 -2.804042641316549 False False
5140.335999999999 4.803178787231445 -1.5425549310496827 1.867744270955221 -1.895966192285055 -1.5708487669574183 -2.8040958086596888 False False
5140.356 4.803199768066406 -1.5425505985370656 1.867718521748678 -1.8959461651244105 -1.5707600752459925 -2.8041117827044886 False False
5140.376 4.80322790145874 -1.5425299771926184 1.8677576223956507 -1.8959580860533656 -1.5707967917071741 -2.804086987172262 False False
5140.396 4.8032073974609375 -1.542599632670619 1.8677290121661585 -1.8959905109801234 -1.5707767645465296 -2.804054562245504 False False
5140.416 4.8032402992248535 -1.5425840441933651 1.8677619139300745 -1.895966192285055 -1.5708454290973108 -2.804051224385397 False False
5140.436 4.80319881439209 -1.5425834015807887 1.8677662054644983 -1.8959180317320765 -1.5707934538470667 -2.8040998617755335 False False
5140.456 4.803223609924316 -1.5425668519786377 1.8677781263934534 -1.8959461651244105 -1.570813004170553 -2.804091278706686 False False
5140.476 4.803208351135254 -1.542636377071478 1.867751423512594 -1.8959185085692347 -1.5707643667804163 -2.8040717283831995 False False
5140.496 4.803195476531982 -1.5425170318088313 1.8677247206317347 -1.8959461651244105 -1.5707767645465296 -2.8040502707110804 False False
5140.516 4.803253650665283 -1.5425704673728724 1.8677499930011194 -1.8959337673582972 -1.5708053747760218 -2.804075066243307 False False
5140.536 4.803232192993164 -1.5425996252200385 1.8677528540240687 -1.8959223232665003 -1.5707724730121058 -2.8040340582477015 False False
5140.556 4.8032073974609375 -1.5426039651832362 1.8677457014666956 -1.8959337673582972 -1.5707648436175745 -2.8040016333209437 False False
5140.576 4.803244590759277 -1.5426155601492901 1.8677290121661585 -1.8959619007506312 -1.570772949849264 -2.804091278706686 False False
5140.596 4.8032073974609375 -1.5425462138703843 1.8677037397967737 -1.8959461651244105 -1.570824925099508 -2.8041074911700647 False False
5140.616 4.803215980529785 -1.5425711472383519 1.867695156727926 -1.8959461651244105 -1.5707882086383265 -2.804054562245504 False False
5140.6359999999995 4.803223609924316 -1.5425256968340655 1.8677156607257288 -1.8959461651244105 -1.5708211104022425 -2.804058853779928 False False
5140.656 4.80322790145874 -1.5425452322563906 1.8677366415606897 -1.895914217034811 -1.5707762877093714 -2.804058853779928 False False
5140.6759999999995 4.803191184997559 -1.5425549142858763 1.8677156607257288 -1.8959223232665003 -1.5708330313311976 -2.8040056864367884 False False
5140.696 4.803244590759277 -1.5425833829543372 1.8677905241595667 -1.8959619007506312 -1.5707810560809534 -2.8040717283831995 False False
5140.715999999999 4.803199768066406 -1.5426111754826088 1.867711369191305 -1.8959266148009242 -1.5707967917071741 -2.8040836493121546 False False
5140.736 4.8031744956970215 -1.5425300051322957 1.8677127997027796 -1.8959185085692347 -1.5707762877093714 -2.804046932850973 False False
5140.755999999999 4.803264617919922 -1.5425094694695254 1.8677204290973108 -1.8959461651244105 -1.5708206335650843 -2.804058853779928 False False
5140.776 4.803244590759277 -1.542608232503273 1.86769944826235 -1.8959585628905238 -1.5707925001727503 -2.804075066243307 False False
5140.795999999999 4.803256034851074 -1.5425299436650057 1.8677485624896448 -1.8959504566588343 -1.5707767645465296 -2.804054562245504 False False
5140.816 4.803219318389893 -1.542619875898101 1.8677085081683558 -1.896006246606344 -1.570784870778219 -2.8040383497821253 False False
5140.835999999999 4.80316162109375 -1.5426039279303332 1.8677008787738245 -1.895914217034811 -1.5707810560809534 -2.804058853779928 False False
5140.876 4.80323600769043 -1.5425746955773612 1.867744270955221 -1.8959499798216761 -1.5708125273333948 -2.804063145314352 False False
5140.896 4.803165912628174 -1.5425019071302195 1.8677085081683558 -1.8959704838194789 -1.5708048979388636 -2.8040133158313196 False False
5140.916 4.803260326385498 -1.5425952480039378 1.8677290121661585 -1.8959223232665003 -1.5707724730121058 -2.804014507924215 False False
5140.936 4.803220272064209 -1.542579797362425 1.8677366415606897 -1.8959504566588343 -1.570784870778219 -2.8040383497821253 False False
5140.956 4.803248882293701 -1.5425668519786377 1.8677781263934534 -1.8959619007506312 -1.5707810560809534 -2.8041074911700647 False False
5140.976 4.803219318389893 -1.5426169105670233 1.8677457014666956 -1.8959585628905238 -1.5708168188678187 -2.804063145314352 False False
5140.996 4.803182601928711 -1.5425462380847712 1.8677204290973108 -1.8959542713561 -1.5708006064044397 -2.8040674368487757 False False
5141.016 4.803243160247803 -1.5426233813962718 1.8677204290973108 -1.8959619007506312 -1.5707967917071741 -2.804063145314352 False False
5141.036 4.803191661834717 -1.5425908968648692 1.8677499930011194 -1.8959347210326136 -1.5708487669574183 -2.8040793577777308 False False
5141.056 4.803269863128662 -1.5425181791982432 1.8677204290973108 -1.8959704838194789 -1.5707967917071741 -2.804091278706686 False False
5141.076 4.803249359130859 -1.5425581590137263 1.8677204290973108 -1.8959180317320765 -1.5707767645465296 -2.8040178457843226 False False
5141.096 4.80322790145874 -1.5426083368114014 1.8676918188678187 -1.8959619007506312 -1.5708006064044397 -2.804054562245504 False False
5141.116 4.803198337554932 -1.5425834015807887 1.86769944826235 -1.89597811321401 -1.5707686583148401 -2.8040340582477015 False False
5141.1359999999995 4.80322790145874 -1.5425462138703843 1.8677337805377405 -1.895898004571432 -1.5707529226886194 -2.8040836493121546 False False
5141.156 4.803226947784424 -1.5425386738828202 1.8677786032306116 -1.895909925500387 -1.5707967917071741 -2.8040221373187464 False False
5141.1759999999995 4.803220748901367 -1.5425711677274485 1.8677857557879847 -1.8959619007506312 -1.5708206335650843 -2.804124418889181 False False
5141.196 4.80322790145874 -1.5425256614438076 1.8677156607257288 -1.8959299526610316 -1.5708006064044397 -2.804082695637838 False False
5141.215999999999 4.803277492523193 -1.5426439561745902 1.867732350026266 -1.8959304294981898 -1.5707529226886194 -2.8040221373187464 True False
5141.236 4.80326509475708 -1.542599718352296 1.8677409330951136 -1.8959619007506312 -1.5707929770099085 -2.8040013949023646 True False
5141.255999999999 4.803220748901367 -1.5425299771926184 1.8676875273333948 -1.8959347210326136 -1.5707929770099085 -2.8040102163897913 True False
5141.276 4.8032145500183105 -1.5425877452692767 1.8677499930011194 -1.8959061108031214 -1.570824925099508 -2.8040695826159876 True False
5141.295999999999 4.8031907081604 -1.542543026884534 1.8677576223956507 -1.8959948025145472 -1.570784870778219 -2.8041027227984827 True False
5141.316 4.803178310394287 -1.5424063180438061 1.8675649801837366 -1.895966192285055 -1.570784870778219 -2.8042991797076624 True False
5141.335999999999 4.803260803222656 -1.542235554461815 1.8673895041095179 -1.8959986172118128 -1.5708006064044397 -2.8045459429370325 True False
5141.356 4.803223609924316 -1.5420456931791087 1.867133919392721 -1.8959266148009242 -1.5707610289203089 -2.804939095173971 True False
5141.376 4.8032732009887695 -1.5416859996369858 1.8668912092791956 -1.8958703480162562 -1.5708330313311976 -2.8054631392108362 True False
5141.396 4.803169250488281 -1.541355113764741 1.8664920965777796 -1.8958703480162562 -1.5708168188678187 -2.8060224691974085 True False
5141.416 4.8032026290893555 -1.5408892438611765 1.8659113089190882 -1.8957387409605921 -1.5707648436175745 -2.80675179163088 True False
5141.436 4.803211688995361 -1.5403905653259535 1.8653777281390589 -1.8956300220885218 -1.570801083241598 -2.8074751535998743 True False
5141.456 4.8032026290893555 -1.5398580443910141 1.8647521177874964 -1.8955871067442835 -1.5707967917071741 -2.8083418051349085 True False
5141.476 4.803171634674072 -1.539244571035244 1.8639982382403772 -1.8955398998656214 -1.570784870778219 -2.809376064931051 True False
5141.496 4.803174018859863 -1.5385518458536644 1.8631466070758265 -1.8954674206175746 -1.5708044211017054 -2.810357395802633 True False
5141.516 4.803240776062012 -1.5376700286618252 1.8623550573932093 -1.895275732079977 -1.5708335081683558 -2.8115819136248987 True False
5141.536 4.803199768066406 -1.5369107511690636 1.8614023367511194 -1.8951755962767542 -1.570801083241598 -2.8128536383258265 True False
5141.556 4.803236961364746 -1.5360703629306336 1.86041766801943 -1.8951317272581996 -1.5707648436175745 -2.8142879644977015 True False
5141.576 4.803164005279541 -1.5351587545922776 1.8594325224505823 -1.8949762783446253 -1.5708254019366663 -2.815723482762472 True False
5141.596 4.803211688995361 -1.534104400580265 1.8583653608905237 -1.8948365650572718 -1.5707891623126429 -2.8173144499408167 True False
5141.616 4.803195476531982 -1.5330367137542744 1.8570225874530237 -1.8947130642332972 -1.5707925001727503 -2.8188913504229944 True False
5141.6359999999995 4.803196430206299 -1.5319122907570382 1.8556574026690882 -1.8945967159666957 -1.5707362333880823 -2.8206644693957728 True False
5141.656 4.80316686630249 -1.530734234755375 1.8542988936053675 -1.894416948358053 -1.5707686583148401 -2.822545830403463 True False
5141.6759999999995 4.803126335144043 -1.5294309344938775 1.8529914061175745 -1.8942581615843714 -1.5708044211017054 -2.824433151875631 True False
5141.696 4.803196430206299 -1.528100536470749 1.8515761534320276 -1.8940731487669886 -1.5708044211017054 -2.82654840150942 True False
5141.715999999999 4.803152084350586 -1.526778058414795 1.8499153296100062 -1.8939458332457484 -1.5707805792437952 -2.8286550680743616 True False
5141.736 4.80311918258667 -1.525445857351162 1.8482039610492151 -1.8938061199583949 -1.5707925001727503 -2.8309453169452112 True False
5141.755999999999 4.80315637588501 -1.5239007261446496 1.84658128419985 -1.8936110935606898 -1.5707891623126429 -2.833221499119894 True False
5141.776 4.803139686584473 -1.5222421188703557 1.8449972311602991 -1.893379350701803 -1.570784870778219 -2.8358212153064173 True False
5141.795999999999 4.803066730499268 -1.5206698042205353 1.8431323210345667 -1.8932248554625453 -1.5707891623126429 -2.8382836023913782 True False
5141.816 4.803120136260986 -1.5189642955413838 1.8411310354815882 -1.893019815484518 -1.5708048979388636 -2.8409579435931605 True False
5141.835999999999 4.803150653839111 -1.5172734309783955 1.8392017523394983 -1.8927847347655238 -1.570829216633932 -2.8437512556659144 True False
5141.856 4.8031134605407715 -1.515417208229639 1.8373315970050257 -1.892512937585348 -1.570784870778219 -2.8465502897845667 True False
5141.876 4.803068161010742 -1.513554000561573 1.8351424376117151 -1.8923913441100062 -1.5708449522601526 -2.849532429371969 True False
5141.896 4.803072452545166 -1.511621968155243 1.8327859083758753 -1.8921462498106898 -1.5707805792437952 -2.8525801340686243 True False
5141.916 4.80303955078125 -1.509619941269495 1.8306401411639612 -1.891778131524557 -1.5707762877093714 -2.8556976954089563 True False
5141.936 4.803072452545166 -1.5074494269541283 1.828376595173971 -1.8915115795531214 -1.5708168188678187 -2.8588367144214075 True False
5141.956 4.8030171394348145 -1.5053754609874268 1.8258441130267542 -1.8913036785521449 -1.5708416144000452 -2.862213198338644 True False
5141.976 4.803020477294922 -1.503218100672104 1.8233721891986292 -1.8910004101195277 -1.570801083241598 -2.865641419087545 True False
5141.996 4.8030171394348145 -1.5008624506047745 1.8208354155169886 -1.8906570873656214 -1.5707891623126429 -2.869236771260397 True False
5142.016 4.803033828735352 -1.49863816917453 1.8181350866900843 -1.8904572925963343 -1.570813004170553 -2.8728607336627405 True False
5142.036 4.802993297576904 -1.4962714177421113 1.8153985182391565 -1.8902150593199671 -1.5707529226886194 -2.8766847292529505 True False
5142.056 4.802969455718994 -1.493700460796692 1.812728230153219 -1.8897701702513636 -1.5707805792437952 -2.8804150263415735 True False
5142.076 4.802986145019531 -1.491266430621483 1.809930149708883 -1.8894993267455042 -1.570813004170553 -2.8843794504748743 True False
5142.096 4.802958011627197 -1.4886309889009972 1.807000462208883 -1.8891965351500453 -1.5707886854754847 -2.888287130986349 True False
5142.116 4.802925109863281 -1.4860619244030495 1.8040884176837366 -1.8888894520201625 -1.570784870778219 -2.892512623463766 True False
5142.1359999999995 4.8028483390808105 -1.4833479833653946 1.8010833899127405 -1.888538499871725 -1.570801083241598 -2.896670643483297 True False
5142.156 4.802926063537598 -1.480598823433258 1.7979558149920862 -1.8881546459593714 -1.5707805792437952 -2.901066605244772 True False
5142.1759999999995 4.802834510803223 -1.4777779963663598 1.7948806921588343 -1.887759347955221 -1.570784870778219 -2.905471388493673 True False
5142.196 4.802836894989014 -1.4747589242509385 1.7915781180011194 -1.8873921833434046 -1.5708335081683558 -2.910027805958883 True False
5142.215999999999 4.8028130531311035 -1.4718855333379288 1.7882574240313929 -1.8870488605894984 -1.5707967917071741 -2.91470176378359 True False
5142.236 4.802833080291748 -1.4688402128270646 1.7847674528705042 -1.88673796276235 -1.5708168188678187 -2.919272247944967 True False
5142.255999999999 4.802809238433838 -1.4658763644150277 1.7813685576068323 -1.886282583276266 -1.5707843939410608 -2.9240623156176966 True False
5142.276 4.802798271179199 -1.462595821624138 1.7777703444110315 -1.8859597645201625 -1.5708254019366663 -2.9290078322040003 True False
5142.295999999999 4.802806854248047 -1.4596275028637429 1.7744172255145472 -1.88555969814443 -1.5708087126361292 -2.933960739766256 True False
5142.316 4.802774906158447 -1.45651017994199 1.7708728949176233 -1.8851810894408167 -1.570845905934469 -2.938756767903463 True False
5142.335999999999 4.802761554718018 -1.453646869664528 1.767653767262594 -1.884805818597311 -1.5707925001727503 -2.9433322588550013 True False
5142.356 4.802708148956299 -1.450705574159958 1.7643173376666468 -1.8844224415221156 -1.5708211104022425 -2.94787842432131 True False
5142.376 4.80263614654541 -1.4479040291956444 1.7611611525165003 -1.884059568444723 -1.5707886854754847 -2.9523099104510706 True False
5142.396 4.802669048309326 -1.444910706286766 1.7579105536090296 -1.8836962185301722 -1.570853058491842 -2.9566715399371546 True False
5142.416 4.802685737609863 -1.4422442627004166 1.7548463980304163 -1.8833810291686 -1.570801083241598 -2.9610546270953577 True False
5142.436 4.802645206451416 -1.4395756137422104 1.7517293135272425 -1.8830372295775355 -1.5708406607257288 -2.9652369658099573 True False
5142.456 4.802654266357422 -1.4369158905795594 1.748833481465475 -1.8827430210509242 -1.570829216633932 -2.969388548527853 True False
5142.476 4.802596569061279 -1.4344117951444169 1.7461054960833948 -1.882371564904684 -1.5707891623126429 -2.9732607046710413 True False
5142.496 4.80262565612793 -1.4319607627442856 1.7433341185199183 -1.8820392094054164 -1.570784870778219 -2.9771550337420862 True False
5142.516 4.802559852600098 -1.4296162736466904 1.7406137625323694 -1.8818046055235804 -1.5707724730121058 -2.980900589619772 True False
5142.536 4.802609920501709 -1.4271920335343857 1.7379172484027308 -1.8813888035216273 -1.5707362333880823 -2.984589401875631 True False
5142.556 4.802577972412109 -1.424911917453148 1.7353203932391565 -1.881146093408102 -1.5707724730121058 -2.988119904194967 True False
5142.576 4.802545070648193 -1.4227409076741715 1.7328279654132288 -1.8808585606017054 -1.570813004170553 -2.9916561285602015 True False
5142.596 4.802523612976074 -1.4205196511796494 1.7303689161883753 -1.880566736260885 -1.5708335081683558 -2.9951420466052454 True False
5142.616 4.802525997161865 -1.418455333714821 1.7279523054706019 -1.880383630792135 -1.5707648436175745 -2.9984005133258265 True False
5142.6359999999995 4.802555084228516 -1.4163672637990494 1.7256620565997522 -1.8800717792906703 -1.5708087126361292 -3.0016091505633753 True False
5142.656 4.802502155303955 -1.4143687051585694 1.7234414259540003 -1.8798567257323207 -1.5707605520831507 -3.0046451727496546 True False
5142.6759999999995 4.802502155303955 -1.4125489455512543 1.721224610005514 -1.8796326122679652 -1.5708406607257288 -3.0076220671283167 True False
5142.696 4.802478313446045 -1.4106365752271195 1.7192419211017054 -1.8793570003905238 -1.5708168188678187 -3.010407272969381 True False
5142.715999999999 4.802444934844971 -1.4087466907552262 1.7173107306109827 -1.879129549066061 -1.5707648436175745 -3.013261858616964 True False
5142.736 4.802519798278809 -1.40713223934684 1.7152827421771448 -1.8789826832213343 -1.570772949849264 -3.015968386326925 True False
5142.755999999999 4.802453517913818 -1.4054997724345704 1.7135213057147425 -1.8787061176695765 -1.5708211104022425 -3.018590752278463 True False
5142.776 4.802465915679932 -1.4037868243506928 1.711755100880758 -1.8784634075560511 -1.5707925001727503 -3.0211570898639124 True False
5142.795999999999 4.8024582862854 -1.4022884231856843 1.7099469343768519 -1.8783594570555628 -1.570801083241598 -3.0235374609576624 True False
5142.816 4.802450656890869 -1.4009203177741547 1.7081463972674769 -1.8781997166075648 -1.5708048979388636 -3.0258856455432337 True False
5142.835999999999 4.802426815032959 -1.3995083284429093 1.7067516485797327 -1.8779360256590785 -1.5708168188678187 -3.028015438710348 True False
5142.856 4.802410125732422 -1.3980516207269211 1.7052744070636194 -1.8777691326537074 -1.5707805792437952 -3.0301674048053187 True False
5142.876 4.802394390106201 -1.3968518388322373 1.7037013212787073 -1.8776895008482875 -1.5708211104022425 -3.032166306172506 True False
5142.896 4.802422523498535 -1.3956471991590043 1.7022035757647913 -1.87754549602651 -1.5707648436175745 -3.0340164343463343 True False
5142.916 4.802426815032959 -1.3944306832602997 1.7011421362506312 -1.877345701257223 -1.5708087126361292 -3.035889212285177 True False
5142.936 4.802382469177246 -1.3933367443135758 1.6999061743365687 -1.877185960809225 -1.570824925099508 -3.0376396814929407 True False
5142.956 4.802341938018799 -1.3923035872033616 1.698697868977682 -1.8771630726256312 -1.570829216633932 -3.039211098347799 True False
5142.976 4.802394390106201 -1.3913665127805253 1.6974676291095179 -1.8769952259459437 -1.5707324186908167 -3.0407429377185267 True False
5142.996 4.802398681640625 -1.3904233884862442 1.6964495817767542 -1.8768750629820765 -1.5707967917071741 -3.042126480733053 True False
5143.016 4.802383899688721 -1.3896492284587403 1.6955445448504847 -1.8767506084837855 -1.5707886854754847 -3.0434051195727747 True False
5143.036 4.802377700805664 -1.388897181754448 1.6946805159198206 -1.876723428765768 -1.5707562605487269 -3.0446086565600794 True False
5143.056 4.8024001121521 -1.3881406647017975 1.69385272661318 -1.8765918217101039 -1.570784870778219 -3.0457313696490687 True False
5143.076 4.8024001121521 -1.387375370865204 1.6932151953326624 -1.8764716587462367 -1.5708168188678187 -3.046738926564352 True False
5143.096 4.802346706390381 -1.3868313145688553 1.6924760977374476 -1.8763915501036585 -1.5707767645465296 -3.0477638880359095 True False
5143.116 4.802358150482178 -1.386315332060196 1.6918209234820765 -1.8763557873167933 -1.5707805792437952 -3.048584763203756 True False
5143.1359999999995 4.802332878112793 -1.385856957440712 1.6912577787982386 -1.876336236993307 -1.5707805792437952 -3.0492873827563685 True False
5143.156 4.802379131317139 -1.3854358804276963 1.6908729712115687 -1.8762561283507289 -1.5708048979388636 -3.0499468485461634 True False
5143.1759999999995 4.802350997924805 -1.3851205271533509 1.6904643217669886 -1.8761731586852015 -1.5707925001727503 -3.0504210630999964 True False
5143.196 4.802350997924805 -1.3848410707763215 1.69019061723818 -1.8761731586852015 -1.5707843939410608 -3.0508692900287073 True False
5143.215999999999 4.802350997924805 -1.3846448224833985 1.6899550596820276 -1.8761092625060023 -1.570796314870016 -3.0511978308307093 True False
5143.236 4.802346706390381 -1.3845041257194062 1.6897462050067347 -1.8761450252928675 -1.5707767645465296 -3.0514329115497034 True False
5143.255999999999 4.802383899688721 -1.3845050793937226 1.689735237752096 -1.8761049709715785 -1.5707290808307093 -3.0515053907977503 True False
5143.276 4.802334308624268 -1.3844648164561768 1.6897428671466272 -1.8761493168272914 -1.570824925099508 -3.051476065312521 True False
5143.295999999999 4.802338600158691 -1.3844155830195923 1.6897557417498987 -1.8761092625060023 -1.5707529226886194 -3.0514965693103235 True False
5143.316 4.802326679229736 -1.3843241047910233 1.689841095601217 -1.8761731586852015 -1.570801083241598 -3.051525417958395 True False
5143.335999999999 4.802350997924805 -1.3841845256141205 1.6899564901935022 -1.8764120541014613 -1.5707925001727503 -3.0515666643725794 True False
5143.356 4.8023552894592285 -1.3840770584395905 1.690139118825094 -1.876707216302389 -1.570801083241598 -3.0515947977649134 True False
5143.376 4.8023176193237305 -1.383812503223755 1.690411392842428 -1.8772341213622035 -1.5707967917071741 -3.051650587712423 True False
5143.396 4.802313327789307 -1.383645386700966 1.69072133699526 -1.8778611622252406 -1.5707843939410608 -3.0516536871539515 True False
5143.416 4.802338600158691 -1.3833642613938828 1.6911700407611292 -1.8784882030882777 -1.5707724730121058 -3.0516086260425013 True False
5143.436 4.8024091720581055 -1.383131967192032 1.6916492621051233 -1.879270692864889 -1.5708087126361292 -3.051628891621725 True False
5143.456 4.802334308624268 -1.3828039032271882 1.6921585241900843 -1.880136629144186 -1.570784870778219 -3.051636521016256 True False
5143.476 4.802285194396973 -1.382492096429207 1.6928017775165003 -1.8810817203917445 -1.5708087126361292 -3.051624600087301 True False
5143.496 4.802326679229736 -1.3821208787015458 1.6934693495379847 -1.882280012170309 -1.5708616415606897 -3.0516212622271937 True False
5143.516 4.802362442016602 -1.3817081910422822 1.6941741148578089 -1.883385797540182 -1.5708211104022425 -3.0516536871539515 True False
5143.536 4.802347660064697 -1.3812609177878876 1.6950138250934046 -1.8845235309996546 -1.5707805792437952 -3.05169922510256 True False
5143.556 4.802350997924805 -1.380721093421318 1.695883576069967 -1.8858729801573695 -1.570784870778219 -3.051612679158346 True False
5143.576 4.802364349365234 -1.3801978689483185 1.6968019644366663 -1.8872658214964808 -1.57074481645693 -3.0516374746905726 True False
5143.596 4.802341938018799 -1.3796741527369996 1.6978252569781702 -1.8889953098692835 -1.5708087126361292 -3.051690403615133 True False
5143.616 4.802384376525879 -1.3791193676045914 1.6987884680377405 -1.8905507526793421 -1.5708377997027796 -3.0516255537616175 True False
5143.6359999999995 4.802280902862549 -1.3784578454545517 1.6999228636371058 -1.8921824894347132 -1.570784870778219 -3.051695171986715 True False
5143.656 4.802364349365234 -1.377760962848999 1.7011049429522913 -1.894031663934225 -1.570756737385885 -3.0516331831561487 True False
5143.6759999999995 4.802321910858154 -1.3769903194955369 1.7022607962237757 -1.895987173120016 -1.5708048979388636 -3.05164081255068 True False
5143.696 4.8023834228515625 -1.3762903970531006 1.7034295240985315 -1.8981591663756312 -1.570784870778219 -3.051628891621725 True False
5143.715999999999 4.8023552894592285 -1.375509263282158 1.7048733870135706 -1.9001342258849085 -1.5708087126361292 -3.051674191151754 True False
5143.736 4.8023881912231445 -1.3746740084937592 1.706341568623678 -1.9023620090880335 -1.570772949849264 -3.0516255537616175 True False
5143.755999999999 4.802362442016602 -1.3738223773292084 1.7077458540545862 -1.9047919712462367 -1.570801083241598 -3.0516536871539515 True False
5143.776 4.802301406860352 -1.3730037969401856 1.709193531666891 -1.9071680508055628 -1.5707486311541956 -3.051668945943014 True False
5143.795999999999 4.8023223876953125 -1.3720443558743973 1.7108829657184046 -1.9096905193724574 -1.5708211104022425 -3.0516212622271937 True False
5143.816 4.802362442016602 -1.3710329097560425 1.7125466505633753 -1.9123054943480433 -1.5707805792437952 -3.0516255537616175 True False
5143.835999999999 4.802346706390381 -1.3701225829175492 1.7142589727984827 -1.9149471722044886 -1.570829216633932 -3.0516331831561487 True False
5143.856 4.802313327789307 -1.3690907818130036 1.7160027662860315 -1.9178410969176234 -1.5708211104022425 -3.0516579786883753 True False
5143.876 4.802366733551025 -1.3679810029319306 1.71777850786318 -1.920683046380514 -1.5707967917071741 -3.0516625086413782 True False
5143.896 4.8023176193237305 -1.3668569040349503 1.7197440306292933 -1.9237696133055628 -1.570784870778219 -3.0515719095813196 True False
5143.916 4.802364349365234 -1.365748794083931 1.7218158880816858 -1.9268700085081996 -1.5707925001727503 -3.051674191151754 True False
5143.936 4.802350997924805 -1.3645102095654984 1.7238109747516077 -1.9299923382201136 -1.570801083241598 -3.0516656080829065 True False
5143.956 4.802330017089844 -1.3632897746614 1.725950066243307 -1.9334241352477015 -1.5707767645465296 -3.0516417662249964 True False
5143.976 4.802364349365234 -1.362120510344841 1.7282193342791956 -1.936817308465475 -1.5707891623126429 -3.0516331831561487 True False
5143.996 4.802374839782715 -1.3607457292130967 1.730466667805807 -1.9403554401793421 -1.5707686583148401 -3.05161697069277 True False
5144.016 4.802392959594727 -1.359517977838852 1.7327082792865198 -1.9439012012877406 -1.570829216633932 -3.0516493956195276 True False
5144.036 4.8023600578308105 -1.3581250619939347 1.7349446455584925 -1.947704931298727 -1.5707925001727503 -3.0516536871539515 True False
5144.056 4.802347660064697 -1.3567231011441727 1.7373626867877405 -1.951397558251852 -1.5708406607257288 -3.0516579786883753 True False
5144.076 4.802387714385986 -1.3551966410926362 1.7398131529437464 -1.9553452930846156 -1.5707524458514612 -3.0516536871539515 True False
5144.096 4.8023223876953125 -1.3538200122169037 1.7423604170428675 -1.9593812427916468 -1.570780102406637 -3.0515838305102747 True False
5144.116 4.802353858947754 -1.3522223693183442 1.7449176947223108 -1.9633480511107386 -1.5708168188678187 -3.05159575143923 True False
5144.1359999999995 4.802326679229736 -1.3507004094174881 1.7475298086749476 -1.9677072964110316 -1.570829216633932 -3.0516000429736536 True False
5144.156 4.802371025085449 -1.3491816532662888 1.7501876989947718 -1.9719983539977015 -1.5707967917071741 -3.051683012639181 True False
5144.1759999999995 4.802301406860352 -1.3475023967078705 1.753010098134176 -1.9762922726073207 -1.5708211104022425 -3.0516579786883753 True False
5144.196 4.802334308624268 -1.3458441358855744 1.755974594746725 -1.9808312855162562 -1.570801083241598 -3.0516374746905726 True False
5144.215999999999 4.802379131317139 -1.3441633147052308 1.7588942686664026 -1.9853412113585414 -1.5707805792437952 -3.051605526600973 True False
5144.236 4.8023552894592285 -1.3424481314471741 1.761876408253805 -1.9901381931700648 -1.5707891623126429 -3.0516613165484827 True False
5144.255999999999 4.802395820617676 -1.3407255870154877 1.764895264302389 -1.9948755703368128 -1.5707891623126429 -3.0516300837146204 True False
5144.276 4.802363872528076 -1.3389745664647599 1.7677848974811 -1.9995089970030726 -1.5707886854754847 -3.0516255537616175 True False
5144.295999999999 4.802399635314941 -1.337277204995491 1.7705968062030237 -2.0041915378966273 -1.570801083241598 -3.0516775290118616 True False
5144.316 4.802334308624268 -1.335708813076355 1.7734974066363733 -2.0087229214110316 -1.5707805792437952 -3.0516331831561487 True False
5144.335999999999 4.802380084991455 -1.3341151934913178 1.7763045469867151 -2.0130497417845667 -1.5708044211017054 -3.0516417662249964 True False
5144.356 4.802363872528076 -1.332469956283905 1.7790282408343714 -2.017381330529684 -1.570813004170553 -3.0515881220446985 True False
5144.376 4.802380084991455 -1.3309263598969956 1.7816131750689905 -2.0216814480223597 -1.570784870778219 -3.05161697069277 True False
5144.396 4.802350997924805 -1.3294221323779603 1.7842682043658655 -2.0257021389403285 -1.570813004170553 -3.0516212622271937 True False
5144.416 4.802399635314941 -1.327933357363083 1.7869213263141077 -2.0296818218626917 -1.5708254019366663 -3.0516086260425013 True False
5144.436 4.802289962768555 -1.3265546423247834 1.7894414106952112 -2.0335947475829066 -1.570784870778219 -3.051624600087301 True False
5144.456 4.802297592163086 -1.325126589541771 1.7918327490436 -2.0374518833556117 -1.570813004170553 -3.0516374746905726 True False
5144.476 4.802371025085449 -1.3237341505340119 1.7941649595843714 -2.0411092243590296 -1.5708087126361292 -3.0516417662249964 True False
5144.496 4.802318096160889 -1.3224171710065384 1.7963679472552698 -2.0447546444334925 -1.5707886854754847 -3.0516331831561487 True False
5144.516 4.802334308624268 -1.3211286526969452 1.798560921345846 -2.048220773736471 -1.570801083241598 -3.051612679158346 True False
5144.536 4.802338600158691 -1.3198512357524415 1.80056077638735 -2.0517426929869593 -1.5707724730121058 -3.05159575143923 True False
5144.556 4.802318096160889 -1.318650559788086 1.8027938047992151 -2.0549451313414515 -1.5708087126361292 -3.0516374746905726 True False
5144.576 4.802375316619873 -1.3174260419658204 1.8048222700702112 -2.058227678338522 -1.5707724730121058 -3.051612679158346 True False
5144.596 4.802326679229736 -1.3162466150573273 1.806910816823141 -2.0612994633116664 -1.5707925001727503 -3.05161697069277 True False
5144.616 4.8023223876953125 -1.3151994806579133 1.808664623891012 -2.0644413433470667 -1.5707925001727503 -3.0516579786883753 True False
5144.6359999999995 4.802359580993652 -1.3141203683665772 1.810575310383932 -2.0672699413695277 -1.5708335081683558 -3.0515838305102747 True False
5144.656 4.8023552894592285 -1.313039944773056 1.8123906294452112 -2.070158144036764 -1.5707686583148401 -3.0516331831561487 True False
5144.6759999999995 4.802359580993652 -1.3120318216136475 1.8141444365130823 -2.072831769982809 -1.570784870778219 -3.0516331831561487 True False
5144.696 4.802366733551025 -1.3111354273608704 1.815845791493551 -2.07552494625234 -1.5707967917071741 -3.0516536871539515 True False
5144.715999999999 4.802314758300781 -1.3101722163013 1.8174799124347132 -2.07802738765859 -1.5708168188678187 -3.0516043345080774 True False
5144.736 4.802366733551025 -1.3092482847026368 1.819038216267721 -2.0804063282408656 -1.5708168188678187 -3.05161697069277 True False
5144.755999999999 4.802366733551025 -1.308359907274582 1.820559326802389 -2.082821031610006 -1.5707686583148401 -3.0516462961779993 True False
5144.776 4.802363872528076 -1.3075784009746094 1.8218672911273401 -2.085088392297262 -1.570829216633932 -3.0516300837146204 True False
5144.795999999999 4.802396297454834 -1.3068275612643738 1.8232677618609827 -2.087113996545309 -1.5708211104022425 -3.0516656080829065 True False
5144.816 4.802338600158691 -1.3060549658587952 1.8246191183673304 -2.0892230472960414 -1.5707925001727503 -3.0516417662249964 True False
5144.835999999999 4.802358150482178 -1.305364654665329 1.8257506529437464 -2.091203352014059 -1.5707686583148401 -3.051624600087301 True False
5144.856 4.802330017089844 -1.3047145766070862 1.8268516699420374 -2.093030115167135 -1.5707925001727503 -3.0516374746905726 True False
5144.876 4.802371025085449 -1.3040332359126587 1.8279913107501429 -2.094645162621969 -1.5707805792437952 -3.0516656080829065 True False
5144.896 4.8023223876953125 -1.3034424644759675 1.8290064970599573 -2.096483369866842 -1.5707529226886194 -3.0516212622271937 True False
5144.916 4.8023552894592285 -1.3029022079757233 1.8299968878375452 -2.097966333428854 -1.570784870778219 -3.0516255537616175 True False
5144.936 4.802342891693115 -1.3023947042277833 1.830916706715719 -2.0993110142149867 -1.5708211104022425 -3.0516536871539515 True False
5144.956 4.8023223876953125 -1.301835076217987 1.831808869038717 -2.1006366215147914 -1.5708335081683558 -3.0516212622271937 True False
5144.976 4.802350997924805 -1.30141897619281 1.8326037565814417 -2.101893564263815 -1.5707967917071741 -3.0516331831561487 True False
5144.996 4.802363872528076 -1.3009801369956513 1.8332117239581507 -2.1031819782652796 -1.570801083241598 -3.0516255537616175 True False
5145.016 4.802384376525879 -1.300596998339035 1.833905045186178 -2.1042334041991175 -1.5708487669574183 -3.0516417662249964 True False
5145.036 4.802310466766357 -1.3001771134189148 1.834527317677633 -2.1050645313658656 -1.570857350026266 -3.0516343752490442 True False
5145.056 4.802375316619873 -1.2998720866492768 1.8351052443133753 -2.1059280834593714 -1.5707724730121058 -3.0516374746905726 True False
5145.076 4.802362442016602 -1.299636797314026 1.8355682531939905 -2.106743474999899 -1.570784870778219 -3.0516331831561487 True False
5145.096 4.802281379699707 -1.2994187635234375 1.8360050360309046 -2.1073066196837367 -1.5707324186908167 -3.0516043345080774 True False
5145.116 4.802334308624268 -1.299206243162491 1.8363803068744105 -2.1079045734801234 -1.5707891623126429 -3.0516625086413782 True False
5145.1359999999995 4.802359580993652 -1.2990617913058777 1.836651627217428 -2.108349939385885 -1.5708168188678187 -3.051666800175802 True False
5145.156 4.802334308624268 -1.2989480954459687 1.8368752638446253 -2.108751436273092 -1.5708368460284632 -3.0516374746905726 True False
5145.1759999999995 4.802399635314941 -1.2988696259311219 1.837017838154928 -2.1090532741942347 -1.570836369191305 -3.0516417662249964 True False
5145.196 4.802351474761963 -1.2988995474627991 1.8371031920062464 -2.109209199944967 -1.570801083241598 -3.0516374746905726 True False
5145.215999999999 4.802350997924805 -1.298830346470215 1.8371031920062464 -2.1092330418028773 -1.5708449522601526 -3.05161697069277 True False
5145.236 4.802338600158691 -1.298732118015625 1.8371313253985804 -2.109224935571188 -1.5707767645465296 -3.0516086260425013 True False
5145.255999999999 4.802342891693115 -1.29878123224292 1.8371403853045862 -2.1092006168761195 -1.5708406607257288 -3.0516203085528772 True False
5145.276 4.8023552894592285 -1.298763470058777 1.8371360937701624 -2.109209199944967 -1.570813004170553 -3.0516613165484827 True False
5145.295999999999 4.802338600158691 -1.2987454992583771 1.8371394316302698 -2.109156747857565 -1.5707686583148401 -3.0516656080829065 True False
5145.316 4.802366733551025 -1.298749939804413 1.8372085730182093 -2.1091729603209437 -1.5708087126361292 -3.0516417662249964 True False
5145.335999999999 4.802297592163086 -1.2987225514701386 1.837175194417135 -2.1091891727843226 -1.5707925001727503 -3.0516255537616175 True False
5145.356 4.802412986755371 -1.2986764770797272 1.8372486273394983 -2.1092406711974085 -1.5707929770099085 -3.0516043345080774 True False
5145.376 4.8023681640625 -1.2986481946757813 1.8371661345111292 -2.1092974148192347 -1.5707529226886194 -3.051657025014059 True False
5145.396 4.802281379699707 -1.2986765068820496 1.8372085730182093 -2.109324117700094 -1.5707967917071741 -3.0516861120807093 True False
5145.416 4.802330017089844 -1.298673467045166 1.8372152487384241 -2.1093245945372523 -1.570784870778219 -3.0516000429736536 True False
5145.436 4.802383899688721 -1.2986884278110047 1.8371828238116663 -2.109276910821432 -1.5708006064044397 -3.0516625086413782 True False
5145.456 4.802330017089844 -1.2986809474280854 1.8372152487384241 -2.1092521152892054 -1.57074481645693 -3.0515762011157435 True False
5145.476 4.802318096160889 -1.2986645859530945 1.8372276465045374 -2.109244485894674 -1.570772949849264 -3.0516040960894983 True False
5145.496 4.80232572555542 -1.2987061899951478 1.8372066656695765 -2.109276433984274 -1.5708211104022425 -3.0516086260425013 True False
5145.516 4.8023552894592285 -1.298701749449112 1.8372276465045374 -2.1092845402159632 -1.5707886854754847 -3.0516462961779993 True False
5145.536 4.802326679229736 -1.2986436647227784 1.8372190634356897 -2.1093088589110316 -1.5707967917071741 -3.051628891621725 True False
5145.556 4.802375316619873 -1.2986690264991303 1.8371828238116663 -2.109300275842184 -1.5707486311541956 -3.0516040960894983 True False
5145.576 4.802314758300781 -1.298673467045166 1.8371780554400843 -2.1093527279295863 -1.5708406607257288 -3.0515924135791224 True False
5145.596 4.802358150482178 -1.2987270218184968 1.8371995131122034 -2.109316488305563 -1.570784870778219 -3.05161697069277 True False
5145.616 4.8023223876953125 -1.2986765068820496 1.8372066656695765 -2.109340330163473 -1.5707805792437952 -3.051638666783468 True False
5145.6359999999995 4.802310466766357 -1.2987062197974701 1.8372233549701136 -2.1092850170531214 -1.5707724730121058 -3.051628891621725 True False
5145.656 4.802334308624268 -1.2987017792514344 1.8372066656695765 -2.1093040905394496 -1.570813004170553 -3.051645104085104 True False
5145.6759999999995 4.802350997924805 -1.2986182433417817 1.8372152487384241 -2.109276433984274 -1.5707886854754847 -3.0516374746905726 True False
5145.696 4.8023552894592285 -1.298692838554718 1.8372529188739222 -2.1092683277525843 -1.5707805792437952 -3.0516000429736536 True False
5145.715999999999 4.802346706390381 -1.2986853879741211 1.8371689955340784 -2.1092850170531214 -1.570784870778219 -3.0516417662249964 True False
5145.736 4.802375316619873 -1.2986854177764435 1.8372324148761194 -2.1092730961241664 -1.570801083241598 -3.0516255537616175 True False
5145.755999999999 4.802375316619873 -1.2986645859530945 1.8371952215777796 -2.1093245945372523 -1.570784870778219 -3.0516536871539515 True False
5145.776 4.802326679229736 -1.298701749449112 1.8372443358050745 -2.109288831750387 -1.5707643667804163 -3.0516255537616175 True False
5145.795999999999 4.802342891693115 -1.2986407440951844 1.8372352758990687 -2.109272619287008 -1.5707486311541956 -3.051694933568136 True False
5145.816 4.8023834228515625 -1.2987017792514344 1.8371260801898401 -2.109387537042135 -1.5707772413836878 -3.051678721104757 True False
5145.835999999999 4.802375316619873 -1.2987365883639832 1.837116543446676 -2.1094476185240687 -1.5707925001727503 -3.051621739064352 True False
5145.856 4.802334308624268 -1.2987604302218934 1.8371527830706995 -2.1094395122923792 -1.570813004170553 -3.0516462961779993 True False
5145.876 4.80233097076416 -1.298752949838974 1.8370135466205042 -2.109408041039938 -1.5707767645465296 -3.0516300837146204 True False
5145.896 4.802375316619873 -1.2987440389445801 1.8371122519122522 -2.1094237766661585 -1.5708454290973108 -3.0516300837146204 True True
5145.916 4.802309036254883 -1.2988109451583405 1.8371074835406702 -2.109443803826803 -1.5708053747760218 -3.0516417662249964 True True
5145.936 4.802338600158691 -1.2988184255412598 1.8370626608477991 -2.109392305413717 -1.5707762877093714 -3.051654879246847 True True
5145.956 4.8023223876953125 -1.2987529200366517 1.8370464483844202 -2.1092363796629847 -1.570813004170553 -3.0516462961779993 True True
5145.976 4.8023176193237305 -1.298830435877182 1.8370745817767542 -2.1089545689024867 -1.5707443396197718 -3.0516625086413782 True True
5145.996 4.802301406860352 -1.2988860470107575 1.8369081656085413 -2.10851587871694 -1.5707891623126429 -3.0516000429736536 True True
5146.016 4.8023176193237305 -1.298882619743683 1.8367269674884241 -2.108102937737936 -1.570813004170553 -3.0516000429736536 True True
5146.036 4.802366733551025 -1.2990870934775849 1.8366544882403772 -2.1075340710081996 -1.5707967917071741 -3.0516374746905726 True True
5146.056 4.802334308624268 -1.299256758098938 1.8361848036395472 -2.1070124111571253 -1.5707967917071741 -3.051617447529928 True True
5146.076 4.802341938018799 -1.299637810592987 1.8355940024005335 -2.1064793072142542 -1.5707529226886194 -3.0515969435321253 True True
5146.096 4.8023295402526855 -1.2999993127635499 1.835001293812887 -2.1056953869261683 -1.570784870778219 -3.0516656080829065 True True
5146.116 4.80232048034668 -1.30025006950412 1.8345020453082483 -2.1047445736327113 -1.5708487669574183 -3.0516417662249964 True True
5146.1359999999995 4.802358150482178 -1.3006750506213685 1.833829704915182 -2.1038385830321253 -1.5707762877093714 -3.051694933568136 True True
5146.156 4.802416801452637 -1.301130936746933 1.8330977598773401 -2.1027356586852015 -1.5707886854754847 -3.0516579786883753 True True
5146.1759999999995 4.8023552894592285 -1.301556186085083 1.8324077765094202 -2.1013909778990687 -1.5707891623126429 -3.0516212622271937 True True
5146.196 4.802337646484375 -1.3019383710673829 1.831569019948141 -2.100149770776266 -1.570784870778219 -3.0515924135791224 True True
5146.215999999999 4.802326679229736 -1.3024428647807618 1.830616299306051 -2.0988198719420375 -1.5707891623126429 -3.0516212622271937 True True
5146.236 4.802371501922607 -1.3030953270247956 1.8295677343951624 -2.097316881219381 -1.5707724730121058 -3.0516417662249964 True True
5146.255999999999 4.802337646484375 -1.3036520642093201 1.8285430113421839 -2.0956808529295863 -1.5708125273333948 -3.051579538975851 True True
5146.276 4.8023881912231445 -1.3042314809611817 1.8275187651263636 -2.093942781487936 -1.5708211104022425 -3.0516255537616175 True True
5146.295999999999 4.802380084991455 -1.3048884731582184 1.826390568410055 -2.0922676525511683 -1.570824925099508 -3.051624600087301 True True
5146.316 4.802404403686523 -1.3056500119021912 1.8252800146686 -2.090421815911764 -1.5708654562579554 -3.0516417662249964 True True
5146.335999999999 4.802380561828613 -1.3063504856875916 1.823991600667135 -2.0883408985533656 -1.5707967917071741 -3.0516255537616175 True True
5146.356 4.802350997924805 -1.3071467739394684 1.8226531187640589 -2.086132665673727 -1.570772949849264 -3.0516493956195276 True True
5146.376 4.8023600578308105 -1.307899371986725 1.8211982885943812 -2.0841275654234828 -1.5707529226886194 -3.051722828541891 True True
5146.396 4.802349090576172 -1.3087407511523743 1.8196938673602503 -2.0818759403624476 -1.5708172957049769 -3.0516656080829065 True True
5146.416 4.802350997924805 -1.3096250158599396 1.8182218710528772 -2.0793892345824183 -1.570813004170553 -3.05161697069277 True True
5146.436 4.802321910858154 -1.3105296355536957 1.816772762929098 -2.0770708523192347 -1.5707767645465296 -3.0516212622271937 True True
5146.456 4.8023552894592285 -1.3114669185927887 1.8150113264666956 -2.074547906915182 -1.570813004170553 -3.0516374746905726 True True
5146.476 4.802350997924805 -1.312549189930298 1.8132308165179651 -2.071810384789938 -1.5708048979388636 -3.0516331831561487 True True
5146.496 4.802301406860352 -1.3134937447360535 1.8116539160357874 -2.0691095791258753 -1.5708330313311976 -3.0516462961779993 True True
5146.516 4.8023552894592285 -1.3145371240428467 1.8099482695208948 -2.0660582981505335 -1.5707886854754847 -3.0516374746905726 True True
5146.536 4.8023176193237305 -1.315589503651001 1.8080351988421839 -2.063193460504049 -1.5707491079913538 -3.051628891621725 True True
5146.556 4.802350997924805 -1.316812054519989 1.806000057850973 -2.060111185113424 -1.5708006064044397 -3.051645104085104 True True
5146.576 4.8023552894592285 -1.3179218632033844 1.8040249983416956 -2.0569359264769496 -1.5708606878863733 -3.0516698996173304 True True
5146.596 4.802334308624268 -1.319084421997406 1.8021066824542444 -2.053621908227438 -1.5707967917071741 -3.051613155995504 True True
5146.616 4.802350997924805 -1.3203445833972474 1.799885098134176 -2.050194879571432 -1.5708125273333948 -3.051628891621725 True True
5146.6359999999995 4.802288055419922 -1.3216452312520524 1.797662083302633 -2.0469638309874476 -1.5707643667804163 -3.0516417662249964 True True
5146.656 4.802346706390381 -1.3228698831847687 1.795603100453512 -2.0432592831053675 -1.570784870778219 -3.0516417662249964 True True
5146.6759999999995 4.802326679229736 -1.3242044162801285 1.793253246937887 -2.039657255212301 -1.5707805792437952 -3.051608387623922 True True
5146.696 4.8023552894592285 -1.3257107448628922 1.790764633809225 -2.0360242329039515 -1.5707810560809534 -3.0516300837146204 True True
5146.715999999999 4.802280426025391 -1.3271022152951737 1.7882798353778284 -2.0320626697936 -1.5708168188678187 -3.0516374746905726 True True
5146.736 4.802366733551025 -1.3285499972156067 1.785853687916891 -2.028038641015524 -1.5708006064044397 -3.051628891621725 True True
5146.755999999999 4.802350997924805 -1.3301433336785813 1.7831466833697718 -2.0240656338133753 -1.570829216633932 -3.051690403615133 True True
5146.776 4.802375793457031 -1.331592158680298 1.7805865446673792 -2.0199338398375453 -1.570824925099508 -3.051628891621725 True True
5146.795999999999 4.802351951599121 -1.3330911558917542 1.777900520955221 -2.0155259571471156 -1.570772949849264 -3.0516331831561487 True True
5146.816 4.8023881912231445 -1.3347120446017762 1.7752354780780237 -2.0113026104369105 -1.570784870778219 -3.0516462961779993 True True
5146.835999999999 4.8023600578308105 -1.3363145601800461 1.7724369207965296 -2.0069109402098597 -1.570772949849264 -3.0516331831561487 True True
5146.856 4.802375793457031 -1.3380130988410492 1.7694838682757776 -2.0023237667479457 -1.5708335081683558 -3.0516331831561487 True True
5146.876 4.802383899688721 -1.339745209818222 1.766646687184469 -1.9976259670653285 -1.570829216633932 -3.051674191151754 True True
5146.896 4.8023552894592285 -1.3414482039264222 1.7636297384845179 -1.992880483666891 -1.57074481645693 -3.0516417662249964 True True
5146.916 4.802379131317139 -1.343249039059021 1.7606142202960413 -1.9881192646422328 -1.5707929770099085 -3.0516331831561487 True True
5146.936 4.802353382110596 -1.3448650997928162 1.7575743834124964 -1.9834772549071253 -1.570824925099508 -3.051650587712423 True True
5146.956 4.802338600158691 -1.3465564411929627 1.7547429243670862 -1.9790402851500453 -1.5707810560809534 -3.05161697069277 True True
5146.976 4.802350997924805 -1.348233551984169 1.7518904844867151 -1.9745060406126917 -1.5707929770099085 -3.0516493956195276 True True
5146.996 4.802347660064697 -1.3497826170972367 1.7491276899920862 -1.970210691491598 -1.570829216633932 -3.0516212622271937 True True
5147.016 4.802346706390381 -1.3514243972352524 1.746610466633932 -1.9658204517760218 -1.5707891623126429 -3.0516579786883753 True True
5147.036 4.802338600158691 -1.3528429430774231 1.7439377943622034 -1.961637636224264 -1.5707967917071741 -3.0516000429736536 True True
5147.056 4.8024001121521 -1.3544198286584397 1.7414210478412073 -1.9577785931029261 -1.5707805792437952 -3.051608387623922 True True
5147.076 4.802313327789307 -1.355796144609787 1.738875691090719 -1.9537025890746058 -1.5707810560809534 -3.0516579786883753 True True
5147.096 4.802334308624268 -1.3572327506593247 1.7364128271686 -1.949982305566305 -1.5708254019366663 -3.0516255537616175 True True
5147.116 4.8023552894592285 -1.3586224776557465 1.7340357939349573 -1.9461857281126917 -1.5707648436175745 -3.0516374746905726 True True
5147.1359999999995 4.802301406860352 -1.3599178057960053 1.731678311024801 -1.9424849949278773 -1.5708168188678187 -3.0515924135791224 True True
5147.156 4.802380561828613 -1.3613108855536957 1.7293694655047815 -1.9388042889037074 -1.5707967917071741 -3.0515719095813196 True True
5147.1759999999995 4.802379131317139 -1.3626764130643387 1.7271226088153284 -1.935464998284811 -1.5707810560809534 -3.051650587712423 True True
5147.196 4.802338600158691 -1.3637831670096894 1.7250965277301233 -1.9319235287108363 -1.5708006064044397 -3.051628891621725 True True
5147.215999999999 4.802338600158691 -1.3649630707553406 1.7229021231280726 -1.9287220440306605 -1.570813004170553 -3.051563326512472 True True
5147.236 4.802287578582764 -1.3662521702102204 1.7209790388690394 -1.9255691967406214 -1.5707405249225062 -3.0516579786883753 True True
5147.255999999999 4.802304267883301 -1.3672659260085602 1.7190783659564417 -1.922544618646139 -1.5707648436175745 -3.0516656080829065 True True
5147.276 4.802305698394775 -1.3684353691390534 1.7172358671771448 -1.919467111627096 -1.5707767645465296 -3.051613155995504 True True
5147.295999999999 4.802379131317139 -1.3694774818471451 1.7153309027301233 -1.916772028008932 -1.5708048979388636 -3.0516698996173304 True True
5147.316 4.802383899688721 -1.3705493372729798 1.713708225880758 -1.913870473901266 -1.5708168188678187 -3.0516374746905726 True True
5147.335999999999 4.8024001121521 -1.3714325588992615 1.712074104939596 -1.9111839733519496 -1.5707925001727503 -3.0516462961779993 True True
5147.356 4.802375793457031 -1.3723771286061783 1.710301701222555 -1.9087134800352992 -1.570784870778219 -3.051674191151754 True True
5147.376 4.802346706390381 -1.3733379703811188 1.708698574696676 -1.9061032734312953 -1.5707967917071741 -3.051674191151754 True True
5147.396 4.8023176193237305 -1.3742404741099854 1.7072528044330042 -1.9037767849364222 -1.5708087126361292 -3.051674191151754 True True
5147.416 4.8023552894592285 -1.3749975425056 1.7058518568622034 -1.9014455280699671 -1.5708206335650843 -3.0516255537616175 True True
5147.436 4.802346706390381 -1.3758226048997422 1.7043879667865198 -1.8992425403990687 -1.5707891623126429 -3.05161697069277 True True
5147.456 4.802319049835205 -1.3766124260476609 1.7030499617206019 -1.8972627125182093 -1.570768181477682 -3.0516331831561487 True True
5147.476 4.802366733551025 -1.3773878526738663 1.7017830053912562 -1.8951789341368617 -1.5708006064044397 -3.0516579786883753 True True
5147.496 4.802313327789307 -1.378015787606575 1.7007229963885706 -1.8931638203062953 -1.5707648436175745 -3.0516579786883753 True True
5147.516 4.802392959594727 -1.3786889773658295 1.6995466391192835 -1.8914991817870082 -1.5707529226886194 -3.0516255537616175 True True
5147.536 4.802314758300781 -1.3792902541211625 1.6983535925494593 -1.889874120751852 -1.5708125273333948 -3.0516210238086146 True True
5147.556 4.802350997924805 -1.3799032431891938 1.69728929201235 -1.888317724267477 -1.5708048979388636 -3.051617447529928 True True
5147.576 4.802362442016602 -1.3804025661996384 1.6964286009417933 -1.8866774044432582 -1.5708330313311976 -3.0516536871539515 True True
5147.596 4.802371501922607 -1.3809677374413987 1.6955621878253382 -1.8853603802123011 -1.5707653204547327 -3.051645104085104 True True
5147.616 4.802350997924805 -1.3814747494510193 1.6946714560138147 -1.884082933465475 -1.5708335081683558 -3.0516000429736536 True True
5147.6359999999995 4.802358150482178 -1.381984533076622 1.6939457098590296 -1.8828932247557582 -1.570784870778219 -3.05161697069277 True True
5147.656 4.802334308624268 -1.3822572988322754 1.6932814756976526 -1.8817440472044886 -1.570801083241598 -3.05161697069277 True True
5147.6759999999995 4.802305698394775 -1.3826051515391846 1.6926034132586878 -1.8806749782957972 -1.570784870778219 -3.0516579786883753 True True
5147.696 4.802350997924805 -1.3829620045474549 1.6920140425311487 -1.8797646961607875 -1.570801083241598 -3.0516417662249964 True True
5147.715999999999 4.802358150482178 -1.3832648706487198 1.69145375887026 -1.87901033977651 -1.5707767645465296 -3.0516462961779993 True True
5147.736 4.802370071411133 -1.3835949760726471 1.6909616629229944 -1.8783194027342738 -1.570768181477682 -3.0516210238086146 True True
5147.755999999999 4.802310466766357 -1.3838317108205338 1.6906827131854456 -1.8776966534056605 -1.5708091894732874 -3.051694933568136 True True
5147.776 4.802346706390381 -1.383983240728714 1.6903417746173304 -1.8772179088988246 -1.5707967917071741 -3.0516255537616175 True True
5147.795999999999 4.802346706390381 -1.384043277507164 1.6901066938983362 -1.8767787418761195 -1.5708168188678187 -3.0516417662249964 True True
5147.816 4.802343368530273 -1.3841527116349717 1.6898582617389124 -1.8765117130675257 -1.5707772413836878 -3.051608387623922 True True
5147.835999999999 4.802346706390381 -1.3842544716647645 1.6897624174701136 -1.876279970208639 -1.5707843939410608 -3.0516374746905726 True True
5147.856 4.802346706390381 -1.38424405575309 1.6897557417498987 -1.8762804470457972 -1.570813004170553 -3.0516331831561487 True True
5147.876 4.802350997924805 -1.3842904281667252 1.6897428671466272 -1.8762241802611292 -1.570756737385885 -3.0516212622271937 True True
5147.896 4.802310466766357 -1.3842517596534272 1.6897919813739222 -1.8762928448119105 -1.5708254019366663 -3.051647965108053 True True
5147.916 4.802258014678955 -1.3843415987542649 1.6897276083575647 -1.8762289486327113 -1.5707891623126429 -3.051452700291769 True True
5147.936 4.802183151245117 -1.3843342077783127 1.6897171179400843 -1.8761960468687953 -1.570813004170553 -3.0511563459979456 True True
5147.956 4.802024841308594 -1.384268121128418 1.6896279493915003 -1.8761006794371546 -1.5707886854754847 -3.050800625477926 True True
5147.976 4.801776885986328 -1.3842922014049073 1.689575497304098 -1.8760177097716273 -1.5708087126361292 -3.0503249804126185 True True
5147.996 4.8014750480651855 -1.3842770916274567 1.6895526091205042 -1.8760858974852503 -1.570801083241598 -3.0497213045703333 True True
5148.016 4.8013176918029785 -1.3842803698829194 1.6894882361041468 -1.8760339222350062 -1.5708335081683558 -3.049044195805685 True True
5148.036 4.801062107086182 -1.3842636954835434 1.6894362608539026 -1.8759814701476039 -1.570829216633932 -3.048235003148214 True True
5148.056 4.800796031951904 -1.3842982959798356 1.6893523375140589 -1.8760138950743617 -1.5707209745990198 -3.047412935887472 True True
5148.076 4.800436973571777 -1.384223298435547 1.6892598311053675 -1.875998159448141 -1.5707805792437952 -3.0464447180377405 True True
5148.096 4.800057888031006 -1.3841470044902344 1.689216438923971 -1.875970026055807 -1.5708044211017054 -3.0453696886645716 True True
5148.116 4.7996439933776855 -1.3842109453729172 1.6891172567950647 -1.8759099445738734 -1.570784870778219 -3.044154469166891 True True
5148.1359999999995 4.799103736877441 -1.3840806794217606 1.6890323797809046 -1.875941892663473 -1.5707805792437952 -3.0429208914386194 True True
5148.156 4.798664569854736 -1.3839952063611527 1.6889656225787562 -1.875862260858053 -1.5707362333880823 -3.04157001176943 True True
5148.1759999999995 4.79812479019165 -1.3837837290814896 1.6887839476214808 -1.8758388958373011 -1.570801083241598 -3.040135924016134 True True
5148.196 4.79750919342041 -1.3836984050324936 1.6887295881854456 -1.8757983646788539 -1.570784870778219 -3.0385754744159144 True True
5148.215999999999 4.796915531158447 -1.3836203825524827 1.6886141935931605 -1.875803133050436 -1.570801083241598 -3.0368955771075647 True True
5148.236 4.7962493896484375 -1.3835091155818482 1.6884172598468226 -1.8757430515685023 -1.570784870778219 -3.035140339528219 True True
5148.255999999999 4.795608997344971 -1.3834612232497712 1.6882856527911585 -1.875695367852682 -1.5707967917071741 -3.0332680384265345 True True
5148.276 4.794948577880859 -1.3833085310510178 1.6881745497332972 -1.8756715259947718 -1.5707843939410608 -3.0313499609576624 True True
5148.295999999999 4.794102191925049 -1.3832304042628785 1.687977139149801 -1.8756476841368617 -1.570784870778219 -3.029290024434225 True True
5148.316 4.793299674987793 -1.3830594581416626 1.6878955999957483 -1.8756324253477992 -1.5707486311541956 -3.0270870367633265 True True
5148.335999999999 4.792539119720459 -1.3829408448985596 1.6877153555499476 -1.8755685291686 -1.5708211104022425 -3.0248470942126673 True True
5148.356 4.791731834411621 -1.3828211736730118 1.6876128355609339 -1.8755337200560511 -1.5707805792437952 -3.0225585142718714 True True
5148.376 4.790788173675537 -1.3827173721841355 1.6874049345599573 -1.8754569492735804 -1.5707805792437952 -3.0200911203967493 True True
5148.396 4.789831638336182 -1.3825572294047852 1.687220875416891 -1.8754049740233363 -1.5708168188678187 -3.01760703722109 True True
5148.416 4.788915634155273 -1.3824370366385956 1.6870458761798304 -1.875357290307516 -1.570784870778219 -3.014975134526388 True True
5148.436 4.787911891937256 -1.3822617691806336 1.6868541876422327 -1.8752409420409144 -1.5707648436175745 -3.012205187474386 True True
5148.456 4.786797046661377 -1.3821311456016083 1.686540428792135 -1.8752266369261683 -1.5708487669574183 -3.0093398729907435 True True
5148.476 4.785794734954834 -1.381920040850975 1.6863425413714808 -1.8752314052977503 -1.5708006064044397 -3.006415907536642 True True
5148.496 4.78462553024292 -1.3818058979562302 1.6860783735858362 -1.8751598797240199 -1.5708168188678187 -3.0034223238574427 True True
5148.516 4.783465385437012 -1.3816338342479249 1.6858952681170862 -1.8750797710814417 -1.5707843939410608 -3.000266138707296 True True
5148.536 4.782322406768799 -1.3814371240190049 1.6856477896319788 -1.8750606975951136 -1.570801083241598 -2.99695593515505 True True
5148.556 4.781073570251465 -1.3812616628459473 1.6853964964496058 -1.8749438724913539 -1.5708335081683558 -2.993629757558004 True True
5148.576 4.77986478805542 -1.3810952764800568 1.6851409117328089 -1.8748694858946742 -1.5708449522601526 -2.990331474934713 True True
5148.596 4.778517723083496 -1.3808465015939255 1.6848905722247522 -1.8747645817198695 -1.570801083241598 -2.986786429082052 True True
5148.616 4.777212619781494 -1.3806501191905518 1.6845782438861292 -1.8747545681395472 -1.5707443396197718 -2.9831867853747767 True True
5148.6359999999995 4.775816440582275 -1.3804614406875153 1.6842787901507776 -1.8746944866576136 -1.5707925001727503 -2.979420010243551 True True
5148.656 4.7744221687316895 -1.3802498889020463 1.6840880552874964 -1.8745743236937464 -1.5708044211017054 -2.9755831400500696 True True
5148.6759999999995 4.773003578186035 -1.380017415886261 1.6837433020221155 -1.8745113811888636 -1.5707891623126429 -2.9716230074511927 True True
5148.696 4.771480083465576 -1.3798255783370514 1.6834972540484827 -1.8744517765440882 -1.5707972685443323 -2.967566792164938 True True
5148.715999999999 4.770029067993164 -1.3796216410449524 1.6831935087787073 -1.8743478260436 -1.5707925001727503 -2.96346623102297 True True
5148.736 4.768437385559082 -1.3794235301068802 1.6828702131854456 -1.8742639027037562 -1.5707967917071741 -2.959303919469015 True True
5148.755999999999 4.766862869262695 -1.3791732054999848 1.6825011412249964 -1.8741809330382289 -1.5707929770099085 -2.955057207738058 True True
5148.776 4.765192031860352 -1.3789677184871216 1.682227913533346 -1.874049802819723 -1.570813004170553 -2.950743023549215 True True
5148.795999999999 4.763611316680908 -1.378695086841919 1.6819327513324183 -1.8740183315672816 -1.5707967917071741 -2.9460576216327112 True True
5148.816 4.761944770812988 -1.3784476083568116 1.6816051642047327 -1.8738991222777308 -1.5707805792437952 -2.9413846174823206 True True
5148.835999999999 4.760210990905762 -1.3781535637429734 1.6812742392169397 -1.8738671741881312 -1.5708335081683558 -2.9366617838488978 True True
5148.856 4.75848913192749 -1.3778732878020783 1.6808784643756312 -1.8737274609007777 -1.5707686583148401 -2.9318934122668665 True True
5148.876 4.75661039352417 -1.377622903590538 1.6805875937091272 -1.8735963306822718 -1.570813004170553 -2.9270251433001917 True True
5148.896 4.754838466644287 -1.3773802381804963 1.680188004170553 -1.8735047779478968 -1.5708087126361292 -2.9220386187182825 True True
5148.916 4.752972602844238 -1.37704552829776 1.6797803084002894 -1.8734337292113246 -1.570772949849264 -2.916947905217306 True True
5148.936 4.7509870529174805 -1.37682397783313 1.6793649832354944 -1.8733860454955042 -1.570772949849264 -2.911682907735006 True True
5148.956 4.749068737030029 -1.3765317362597962 1.67897874513735 -1.8732782802977503 -1.5707767645465296 -2.906386439000265 True True
5148.976 4.747116565704346 -1.3762857776931305 1.678591553364889 -1.8731762371458949 -1.5707724730121058 -2.9010351339923304 True True
5148.996 4.7450103759765625 -1.3759317857078095 1.6781724135028284 -1.8730160198607386 -1.5707967917071741 -2.895491425191061 True True
5149.016 4.74299430847168 -1.3755942744067688 1.6777575651751917 -1.872964998284811 -1.5707967917071741 -2.8900087515460413 True True
5149.036 4.740845203399658 -1.375343845491745 1.6772893110858362 -1.872805734673971 -1.5708406607257288 -2.884254042302267 True True
5149.056 4.738787651062012 -1.3749947410872956 1.6768954435931605 -1.87274231533193 -1.570801083241598 -2.8784661928759974 True True
5149.076 4.736662864685059 -1.3746558290771027 1.6765206495868128 -1.8726231060423792 -1.5707686583148401 -2.872524086629049 True True
5149.096 4.734470367431641 -1.3743562263301392 1.6760571638690394 -1.8725038967528285 -1.5707686583148401 -2.8664241472827356 True True
5149.116 4.732154846191406 -1.3741192084601899 1.6755707899676722 -1.8724004230894984 -1.5707925001727503 -2.860600535069601 True True
5149.1359999999995 4.729866981506348 -1.3737697762301941 1.6750906149493616 -1.872277399102682 -1.5707524458514612 -2.854271952305929 True True
5149.156 4.7276811599731445 -1.3733949822238465 1.6746838728534144 -1.872061391870016 -1.5707925001727503 -2.8479178587542933 True True
5149.1759999999995 4.72527551651001 -1.3729917717031022 1.6742165724383753 -1.8719502888121546 -1.5707767645465296 -2.841564480458395 True True
5149.196 4.722901344299316 -1.3726979357055207 1.6737778822528284 -1.8718749485411585 -1.5708697477923792 -2.8350959459887903 True True
5149.215999999999 4.720476150512695 -1.3723184925368805 1.6733468214618128 -1.871716161767477 -1.570853058491842 -2.828630272542135 True True
5149.236 4.718046188354492 -1.371982918386795 1.6728723684894007 -1.871568342248434 -1.5707724730121058 -2.8218749205218714 True True
5149.255999999999 4.715547561645508 -1.3715000462583085 1.6723125616656702 -1.8715139828123988 -1.570784870778219 -2.815035645161764 True True
5149.276 4.713003635406494 -1.3712046456388016 1.6718195120440882 -1.871326585809225 -1.570784870778219 -2.8081448713885706 True True
5149.295999999999 4.710457801818848 -1.3708537977984925 1.6712549368487757 -1.8711873493590296 -1.5707967917071741 -2.801178042088644 True True
5149.316 4.707826137542725 -1.3704700332931061 1.6707451979266565 -1.8710724316039027 -1.5708373228656214 -2.7942596117602747 True True
5149.335999999999 4.705230236053467 -1.3700712484172364 1.6701815764056605 -1.8709169826903285 -1.5708487669574183 -2.7869868914233606 True True
5149.356 4.70254373550415 -1.3696916115335007 1.6696589628802698 -1.8707863293089808 -1.570801083241598 -2.779681984578268 True True
5149.376 4.699804306030273 -1.369282380943634 1.669102970753805 -1.8706265888609828 -1.5707891623126429 -2.772287432347433 True True
5149.396 4.6971259117126465 -1.3688627642444153 1.6685856024371546 -1.8705316982665003 -1.5708373228656214 -2.7649903933154505 True True
5149.416 4.694377422332764 -1.3685236734202881 1.6679895559894007 -1.870340486566061 -1.5708406607257288 -2.757333819066183 True True
5149.436 4.691546440124512 -1.3680589956096192 1.667438809071676 -1.8701368770995082 -1.5708168188678187 -2.7496240774737757 True True
5149.456 4.688743591308594 -1.3676977765611191 1.6668933073626917 -1.8700267277159632 -1.5707891623126429 -2.74180514017214 True True
5149.476 4.685760021209717 -1.3671910029700776 1.6663902441607874 -1.8698836765685023 -1.5707724730121058 -2.7340992132769983 True True
5149.496 4.682862758636475 -1.36676378667865 1.6657832304583948 -1.869716306725973 -1.5708091894732874 -2.7260118166552942 True True
5149.516 4.67986536026001 -1.366320089702942 1.665185276662008 -1.86962952236318 -1.570784870778219 -2.717973772679464 True True
5149.536 4.676845550537109 -1.3659121555140992 1.6644976774798792 -1.8694545231261195 -1.5707529226886194 -2.7097840944873255 True True
5149.556 4.673873424530029 -1.3654701274684449 1.663874928151266 -1.869303365746969 -1.5708254019366663 -2.7016900221454065 True True
5149.576 4.670815944671631 -1.3650260132602234 1.6632326284991663 -1.8691207371153773 -1.5707972685443323 -2.693301026021139 True True
5149.596 4.667660236358643 -1.3645190757564087 1.6626141707049769 -1.8689290485777796 -1.570801083241598 -2.6847415606128138 True True
5149.616 4.664588928222656 -1.3640441757491608 1.6620033423053187 -1.8687740765013636 -1.5708254019366663 -2.6762054602252405 True True
5149.6359999999995 4.6614813804626465 -1.3636465233615418 1.6613896528827112 -1.868603368798727 -1.5707925001727503 -2.6676414648639124 True True
5149.656 4.658226013183594 -1.363153414135315 1.6607349554644983 -1.8684526882567347 -1.5708254019366663 -2.6587498823748987 True True
5149.6759999999995 4.655006408691406 -1.362755836253502 1.6601713339435022 -1.8682414493956507 -1.5707686583148401 -2.6499975363360804 True True
5149.696 4.65173864364624 -1.362181769018509 1.6594885031329554 -1.868115087548727 -1.570772949849264 -2.6412840525256556 True True
5149.715999999999 4.648544788360596 -1.3617050510695954 1.6588972250567835 -1.8678628406920375 -1.570772949849264 -2.6325154940234583 True True
5149.736 4.6451592445373535 -1.3612089616111298 1.6582368055926722 -1.8676845035948695 -1.570780102406637 -2.6235998312579554 True True
5149.755999999999 4.642052173614502 -1.3607948285392304 1.6575525442706507 -1.86749329189443 -1.5708211104022425 -2.6147518793689173 True True
5149.776 4.638853549957275 -1.3602776390365143 1.6568263212787073 -1.8673225841917933 -1.570756737385885 -2.6061671415912073 True True
5149.795999999999 4.6355156898498535 -1.3597905200770875 1.6562536398517054 -1.8671719036498011 -1.5708335081683558 -2.5972593466388147 True True
5149.816 4.632422924041748 -1.3593182426742096 1.6555827299701136 -1.8669926128783167 -1.570813004170553 -2.588433090840475 True True
5149.835999999999 4.629276752471924 -1.3588594657233735 1.6549180189715784 -1.866826673547262 -1.5708406607257288 -2.5796836058246058 True True
5149.856 4.625926494598389 -1.3583960843137284 1.654316250477926 -1.8667026958861292 -1.5708406607257288 -2.5709930101977747 True True
5149.876 4.6227240562438965 -1.3579313170960923 1.6537154356585901 -1.8665443859496058 -1.5707724730121058 -2.5620341936694544 True True
5149.896 4.619475841522217 -1.3574516636184235 1.6530702749835413 -1.8663326702513636 -1.5707686583148401 -2.5531814734088343 True True
5149.916 4.616203308105469 -1.3569475424340744 1.6524604002581995 -1.8661543331541957 -1.5708044211017054 -2.5445387999164026 True True
5149.936 4.612916469573975 -1.3564815682223816 1.6518209616290491 -1.8659950695433558 -1.5708044211017054 -2.5357192198382776 True True
5149.956 4.609744071960449 -1.3560001415065308 1.651123348866598 -1.8657995663084925 -1.5707925001727503 -2.5267942587481897 True True
5149.976 4.606595516204834 -1.355553076868393 1.6504352728473108 -1.8656326733031214 -1.5708087126361292 -2.5181053320514124 True True
5149.996 4.6032891273498535 -1.3550332945636292 1.649761978779928 -1.8655139408507289 -1.570829216633932 -2.5094755331622522 True True
5150.016 4.600159168243408 -1.3545729678920289 1.6491687933551233 -1.8653317890562953 -1.5708168188678187 -2.5004704634295862 True True
5150.036 4.596921920776367 -1.3540930312922974 1.6485231558429163 -1.8651806316771449 -1.5707805792437952 -2.4916701952563685 True True
5150.056 4.593660831451416 -1.3536374133876343 1.6477926413165491 -1.8649889431395472 -1.5707925001727503 -2.482990566884176 True True
5150.076 4.590385437011719 -1.353169636135437 1.6472261587726038 -1.8648024998106898 -1.5708211104022425 -2.4741385618792933 True True
5150.096 4.587179660797119 -1.3527060014060517 1.6465838591205042 -1.8646718464293421 -1.570784870778219 -2.4652910868274134 True True
5150.116 4.58385705947876 -1.3521980804255982 1.6459129492389124 -1.8645087681212367 -1.5707925001727503 -2.456498448048727 True True
5150.1359999999995 4.580663681030273 -1.3517556947520752 1.6453364531146448 -1.8643495045103968 -1.570801083241598 -2.4479554335223597 True True
5150.156 4.577485084533691 -1.3512221735766907 1.6446369330035608 -1.8640943966307582 -1.5707724730121058 -2.438854757939474 True True
5150.1759999999995 4.574268817901611 -1.3507424157908936 1.6439421812640589 -1.8639680347838343 -1.5707724730121058 -2.4301021734820765 True True
5150.196 4.5710344314575195 -1.3503612738898774 1.643287483845846 -1.8637649021544398 -1.5707967917071741 -2.421394173298971 True True
5150.215999999999 4.567878246307373 -1.3498515498689194 1.6425569693194788 -1.863622327844137 -1.570784870778219 -2.412543837224142 True True
5150.236 4.564642906188965 -1.3493494850448151 1.6419966856585901 -1.863467355767721 -1.570784870778219 -2.4037285486804407 True True
5150.255999999999 4.561417102813721 -1.3487800371697922 1.64134389558901 -1.8632642231383265 -1.5707967917071741 -2.394951883946554 True True
5150.276 4.5581536293029785 -1.348394365315773 1.6407178084002894 -1.8631054363646449 -1.5707805792437952 -2.386376921330587 True True
5150.295999999999 4.554891586303711 -1.3479119104197999 1.6400545279132288 -1.86295809368276 -1.570784870778219 -2.3772924582110804 True True
5150.316 4.551638603210449 -1.347499282365181 1.6394627729998987 -1.8627587757506312 -1.5707805792437952 -2.368526283894674 True True
5150.335999999999 4.548445701599121 -1.3469281953624268 1.638787571583883 -1.8626324139037074 -1.5707925001727503 -2.3597500959979456 True True
5150.356 4.545215129852295 -1.346503810291626 1.6382272879229944 -1.8624493084349574 -1.570784870778219 -2.350959602986471 True True
5150.376 4.5419535636901855 -1.3460090172341843 1.6375129858600062 -1.8622576198973597 -1.5707886854754847 -2.342058245335714 True True
5150.396 4.538755416870117 -1.3455171597054978 1.636848274861471 -1.8620830974974574 -1.570853058491842 -2.333280150090353 True True
5150.416 4.535595893859863 -1.3451081228307267 1.6361339727984827 -1.8619080982603968 -1.5707767645465296 -2.3247183004962366 True True
5150.436 4.5323662757873535 -1.344569743876793 1.6354659239398401 -1.8616849384703578 -1.570813004170553 -2.3157652060138147 True True
5150.456 4.529094696044922 -1.3440736097148438 1.6348326841937464 -1.8615747890868128 -1.5707767645465296 -2.3069399038897913 True True
5150.476 4.525865077972412 -1.3436460059932251 1.6341989676104944 -1.8614031277098597 -1.5708168188678187 -2.29822808900942 True True
5150.496 4.522597312927246 -1.3431515258601685 1.6335786024676722 -1.861232420007223 -1.5707805792437952 -2.2894087473498743 True True
5150.516 4.519339561462402 -1.342716471557953 1.6328957716571253 -1.8610698185362757 -1.5707967917071741 -2.280529801045553 True True
5150.536 4.516133785247803 -1.3422111135772248 1.6322701613055628 -1.8608747921385707 -1.570801083241598 -2.2717302481280726 True True
5150.556 4.512907028198242 -1.341709465985634 1.6316607634173792 -1.8606797657408656 -1.5708254019366663 -2.2631056944476526 True True
5150.576 4.509711742401123 -1.3412488859942933 1.631080452595846 -1.8604809246458949 -1.5708492437945765 -2.2542417685138147 True True
5150.596 4.50657844543457 -1.3407362264445801 1.6303570906268519 -1.860366006890768 -1.5707929770099085 -2.24534780183901 True True
5150.616 4.503340721130371 -1.3403403919986268 1.6297300497638147 -1.8602072201170863 -1.5707886854754847 -2.23655349413027 True True
5150.6359999999995 4.500115394592285 -1.339864895944931 1.6290276686297815 -1.8600527248778285 -1.5707891623126429 -2.2278507391559046 True True
5150.656 4.49685525894165 -1.3393729490092774 1.6283462683307093 -1.8598209820189417 -1.5707648436175745 -2.2189458052264612 True True
5150.6759999999995 4.493608474731445 -1.338884712462761 1.627695385609762 -1.8596459827818812 -1.5707605520831507 -2.210242573414938 True True
5150.696 4.490314483642578 -1.3384344440749665 1.6270540396319788 -1.8595158062376917 -1.570829216633932 -2.201468292866842 True True
5150.715999999999 4.48705530166626 -1.3379128289273758 1.6264126936541956 -1.8592921696104945 -1.5707805792437952 -2.1926310698138636 True True
5150.736 4.483851432800293 -1.3375021678260346 1.62587815919985 -1.85917391399526 -1.5708211104022425 -2.183758560811178 True True
5150.755999999999 4.480650424957275 -1.3369311702302475 1.6252401510821741 -1.8589941463866175 -1.5707886854754847 -2.175025765095846 True True
5150.776 4.4774065017700195 -1.3365184676698227 1.6245811621295374 -1.858807226220602 -1.5707648436175745 -2.1663478056537073 True True
5150.795999999999 4.474159240722656 -1.33602528393779 1.6239503065692347 -1.8586565456786097 -1.570784870778219 -2.1574247519122522 True True
5150.816 4.471054553985596 -1.3355828088572999 1.6233485380755823 -1.8584572277464808 -1.5707805792437952 -2.148649040852682 True True
5150.835999999999 4.467762470245361 -1.33509877443824 1.6225908438311976 -1.8583423099913539 -1.57074481645693 -2.1398819128619593 True True
5150.856 4.464519023895264 -1.3346353334239502 1.621976677571432 -1.8581434688963832 -1.5707605520831507 -2.1310961882220667 True True
5150.876 4.461383819580078 -1.3341513139060517 1.6213057676898401 -1.8579641781248988 -1.5707805792437952 -2.1222079435931605 True True
5150.896 4.4580512046813965 -1.3336266738227387 1.6206548849688929 -1.8578936062254847 -1.5707767645465296 -2.11338979402651 True True
5150.916 4.454823017120361 -1.3331466180137177 1.6200555006610315 -1.857649942437643 -1.570801083241598 -2.1047056357013147 True True
5150.936 4.4516377449035645 -1.3327159893563767 1.6194170157061976 -1.857431551019186 -1.570784870778219 -2.0957959334002894 True True
5150.956 4.44841194152832 -1.3322726351073761 1.6187542120562952 -1.8572842083373011 -1.5707724730121058 -2.087055508290426 True True
5150.976 4.445147514343262 -1.3317656827024003 1.6181414763080042 -1.8571254215636195 -1.570813004170553 -2.078296963368551 True True
5150.996 4.442017555236816 -1.3312861186316987 1.6175316015826624 -1.8569351635374964 -1.5708449522601526 -2.0695517698871058 True True
5151.016 4.438745498657227 -1.3308291000178833 1.616859261189596 -1.856743951837057 -1.57074481645693 -2.0606778303729456 True True
5151.036 4.4354400634765625 -1.3303555262139817 1.6161301771747034 -1.8565927944579066 -1.5708373228656214 -2.051875416432516 True True
5151.056 4.43220853805542 -1.3298975688270112 1.615462605153219 -1.8563782177367152 -1.5707767645465296 -2.043110195790426 True True
5151.076 4.428946495056152 -1.3294192564538498 1.6148560682879847 -1.856215616265768 -1.570772949849264 -2.0342772642718714 True True
5151.096 4.425673961639404 -1.3289048981717606 1.6141937414752405 -1.8560964069762171 -1.5707929770099085 -2.02549392381777 True True
5151.116 4.4225311279296875 -1.328454853301384 1.6135333220111292 -1.8559171162047328 -1.5707891623126429 -2.016689125691549 True True
5151.1359999999995 4.419357776641846 -1.3279626232436677 1.6128671805011194 -1.8557826481261195 -1.5707772413836878 -2.00804311433901 True True
5151.156 4.416008472442627 -1.3274904948524018 1.6122739950763147 -1.8555790386595667 -1.5707686583148401 -1.9989946524249476 True True
5151.1759999999995 4.4129109382629395 -1.3270715040019532 1.6115863958941858 -1.8554126224913539 -1.5707967917071741 -1.990246597920553 True True
5151.196 4.409733772277832 -1.3265499633601685 1.6110132376300257 -1.8552576504149378 -1.570829216633932 -1.9815695921527308 True True
5151.215999999999 4.406416893005371 -1.3261365753463288 1.6104171911822718 -1.8550545177855433 -1.5708492437945765 -1.9727018515216272 True True
5151.236 4.403242588043213 -1.3255544018796463 1.6097520033465784 -1.8549076519408167 -1.5707929770099085 -1.9638760725604456 True True
5151.255999999999 4.399984836578369 -1.3251084101251145 1.609030548726217 -1.854708810845846 -1.5708449522601526 -1.955102268849508 True True
5151.276 4.396727561950684 -1.324562208061554 1.608380142842428 -1.8545223675169886 -1.570801083241598 -1.9464438597308558 True True
5151.295999999999 4.393442630767822 -1.3241107177785416 1.607690159474508 -1.8543912372984828 -1.5707605520831507 -1.9374492804156702 True True
5151.316 4.390289783477783 -1.3236842912486573 1.607032601033346 -1.854227205316061 -1.570829216633932 -1.9286792914019983 True True
5151.335999999999 4.3870649337768555 -1.3232461226037522 1.606398884450094 -1.8539968929686488 -1.570784870778219 -1.9199727217303675 True True
5151.356 4.383820056915283 -1.3227413606694718 1.6057613531695765 -1.8538900814452113 -1.5707686583148401 -1.9111669699298304 True True
5151.376 4.38065242767334 -1.3222107303193589 1.605145279561178 -1.8536387882628382 -1.5707772413836878 -1.9023168722735804 True True
5151.396 4.377472877502441 -1.3218213629773636 1.6045282522784632 -1.853488107720846 -1.5708335081683558 -1.8935826460467737 True True
5151.416 4.374189853668213 -1.3212845784476777 1.6039007345782679 -1.8533007107176722 -1.5707610289203089 -1.8849080244647425 True True
5151.436 4.370924472808838 -1.320800082092621 1.603271786366598 -1.8530942402281703 -1.5707405249225062 -1.8759754339801233 True True
5151.456 4.367702007293701 -1.3203657430461426 1.602584187184469 -1.8530274830260218 -1.5707772413836878 -1.8671706358539026 True True
5151.476 4.364384174346924 -1.3197943431190033 1.601903263722555 -1.852743764916891 -1.5707886854754847 -1.8583839575396937 True True
5151.496 4.361175537109375 -1.319384680395462 1.601220432912008 -1.852656980554098 -1.5708335081683558 -1.8495853582965296 True True
5151.516 4.35798454284668 -1.3189402681640168 1.6005972067462366 -1.8524986706175746 -1.5707767645465296 -1.840750519429342 True True
5151.536 4.354743480682373 -1.3184399765780945 1.5999591986285608 -1.852311750451559 -1.5707967917071741 -1.8320067564593714 True True
5151.556 4.351478576660156 -1.3179768186858674 1.5992468039142054 -1.85211243251943 -1.570829216633932 -1.8233173529254358 True True
5151.576 4.348324775695801 -1.3174683910659333 1.5986345450030726 -1.8520099125304164 -1.5707967917071741 -1.8143933455096644 True True
5151.596 4.345141410827637 -1.3169624370387574 1.598016087208883 -1.8518182239928187 -1.570801083241598 -1.805521313344137 True True
5151.616 4.341881275177002 -1.3165442508510132 1.5973919073687952 -1.8516236744322718 -1.5708087126361292 -1.796746079121725 True True
5151.6359999999995 4.338606357574463 -1.316091851597168 1.5967839399920862 -1.851476331750387 -1.5707362333880823 -1.7880047003375452 True True
5151.656 4.3354268074035645 -1.3155746322921296 1.5961106459247034 -1.8513137302794398 -1.5707686583148401 -1.7791250387774866 True True
5151.6759999999995 4.3321003913879395 -1.3151319783977051 1.595372502003805 -1.8511187038817347 -1.5708211104022425 -1.7703850905047815 True True
5151.696 4.328914165496826 -1.3146563929370423 1.5947631041156214 -1.8509837589659632 -1.5708449522601526 -1.7616813818561 True True
5151.715999999999 4.325779914855957 -1.3141133946231385 1.5941103140460413 -1.850809236566061 -1.5708168188678187 -1.7527926603900355 True True
5151.736 4.322460174560547 -1.3137102288058777 1.5934713522540491 -1.8506180248656214 -1.5707767645465296 -1.7439582983600062 True True
5151.755999999999 4.319291591644287 -1.3132485014251252 1.592780892048971 -1.8504640064635218 -1.5707967917071741 -1.7351725737201136 True True
5151.776 4.316122055053711 -1.3127373617938538 1.592236344014303 -1.8502761326231898 -1.5708087126361292 -1.7264612356769007 True True
5151.795999999999 4.3127875328063965 -1.3122565311244507 1.5915654341327112 -1.8500844440855921 -1.570756737385885 -1.7176182905780237 True True
5151.816 4.3095221519470215 -1.3117989760688324 1.5909364859210413 -1.8499423466124476 -1.570813004170553 -1.7088430563556116 True True
5151.835999999999 4.306359767913818 -1.3113012474826355 1.5903738180743616 -1.8496905765929164 -1.570784870778219 -1.7000821272479456 True True
5151.856 4.303105354309082 -1.3108367186835785 1.5897873083697718 -1.8495847187437953 -1.5707805792437952 -1.6912315527545374 True True
5151.876 4.299809455871582 -1.3103623551181336 1.5890515486346644 -1.8493763409056605 -1.5707886854754847 -1.6824381987201136 True True
5151.896 4.296599864959717 -1.309856341486313 1.588351074849264 -1.8492666683592738 -1.5707882086383265 -1.6736505667315882 True True
5151.916 4.293425559997559 -1.3093650203994294 1.5876472632037562 -1.849084039727682 -1.5708053747760218 -1.6649254004107874 True True
5151.936 4.290175437927246 -1.3089071673205872 1.5870006720172327 -1.8488918743529261 -1.5707805792437952 -1.6560090223895472 True True
5151.956 4.286969184875488 -1.308492974644043 1.5863383452044886 -1.8487254581847132 -1.5708053747760218 -1.6472352186786097 True True
5151.976 4.283843994140625 -1.3079639238170166 1.585726563130514 -1.8484941921629847 -1.570801083241598 -1.6384571234332483 True True
5151.996 4.280542373657227 -1.307544545536377 1.5850990454303187 -1.8483950100340785 -1.570784870778219 -1.6296775976764124 True True
5152.016 4.2772979736328125 -1.3070648473552247 1.5844600836383265 -1.8481880627074183 -1.5707967917071741 -1.6208260695086878 True True
5152.036 4.274075508117676 -1.3066204649261017 1.583796803151266 -1.847997327844137 -1.5707724730121058 -1.61204702058901 True True
5152.056 4.270800590515137 -1.3060863477042695 1.583184544240133 -1.8478266201415003 -1.570801083241598 -1.603354279194967 True True
5152.076 4.2675700187683105 -1.3056030136397858 1.5825422445880335 -1.8476554356017054 -1.5708492437945765 -1.5944421927081507 True True
5152.096 4.264342784881592 -1.3051228088191529 1.581869904194967 -1.8475333652892054 -1.5707772413836878 -1.5856264273272913 True True
5152.116 4.261173725128174 -1.3047005099109192 1.5812056700335901 -1.8472854099669398 -1.5707724730121058 -1.5768607298480433 True True
5152.1359999999995 4.257971286773682 -1.3041908603957673 1.5804880301104944 -1.8471876583495082 -1.5707967917071741 -1.5681799093829554 True True
5152.156 4.254710674285889 -1.303730623131134 1.5798428694354456 -1.8469997845091761 -1.570756737385885 -1.5592110792743128 True True
5152.1759999999995 4.251575946807861 -1.3031859558871766 1.5792248884784144 -1.8467499218382777 -1.5708168188678187 -1.5504363218890589 True True
5152.196 4.248203277587891 -1.3027917605689545 1.5786574522601526 -1.846630712548727 -1.5707805792437952 -1.5417216459857386 True True
5152.215999999999 4.245059967041016 -1.3022976380637665 1.5779879728900355 -1.8464271030821742 -1.5707805792437952 -1.5329039732562464 True True
5152.236 4.241828918457031 -1.3017678719810029 1.5773065725909632 -1.8463121853270472 -1.570784870778219 -1.52407151857485 True True
5152.255999999999 4.238534927368164 -1.3013336521438141 1.5767067114459437 -1.846109529534811 -1.5707891623126429 -1.5152352491961878 True True
5152.276 4.235285758972168 -1.300877795820572 1.5761316458331507 -1.8459741077818812 -1.5707767645465296 -1.506617848073141 True True
5152.295999999999 4.232095718383789 -1.3004063230803986 1.5754550139056605 -1.845739027062887 -1.570756737385885 -1.4976418654071253 True True
5152.316 4.228891372680664 -1.299866573219635 1.5748127142535608 -1.8456489048399867 -1.5708211104022425 -1.4888704458819788 True True
5152.335999999999 4.225661754608154 -1.2994440060905 1.5740464369403284 -1.8454414806761683 -1.5708449522601526 -1.4801724592791956 True True
5152.356 4.222444534301758 -1.2989288729480286 1.573418442402975 -1.8452707729735316 -1.570829216633932 -1.471349064503805 True True
5152.376 4.219259738922119 -1.2984681290439148 1.5727704207049769 -1.8451272449889125 -1.5707805792437952 -1.462522331868307 True True
5152.396 4.2159810066223145 -1.298007295732834 1.5721271673785608 -1.8449489078917445 -1.5707929770099085 -1.4536932150470179 True True
5152.416 4.212825298309326 -1.2975528103164216 1.5714858214007776 -1.844773908654684 -1.5707767645465296 -1.4450481573687952 True True
5152.436 4.209472179412842 -1.2970468562892457 1.5708335081683558 -1.8446227512755335 -1.570841137562887 -1.436049763356344 True True
5152.456 4.206178665161133 -1.2965431076339264 1.5701568762408655 -1.8443871937193812 -1.5708048979388636 -1.427321736012594 True True
5152.476 4.203022480010986 -1.296119825249054 1.5696595350848597 -1.84422030071401 -1.570841137562887 -1.4185479323016565 True True
5152.496 4.199857234954834 -1.2956559222987671 1.5689309279071253 -1.8440658054747523 -1.570756737385885 -1.4097803274737757 True True
5152.516 4.196522235870361 -1.2952159208110352 1.5682643095599573 -1.8439065418639125 -1.5707648436175745 -1.4009512106524866 True True
5152.536 4.193415641784668 -1.2947520476630707 1.5675681273089808 -1.843727251092428 -1.5708444754229944 -1.3921101729022425 True True
5152.556 4.190219402313232 -1.294239268904068 1.5669077078448694 -1.843593259850973 -1.5707686583148401 -1.3835199514972132 True True
5152.576 4.18691349029541 -1.2936858993819733 1.5662596861468714 -1.8434144459166468 -1.570784870778219 -1.3745649496661585 True True
5152.596 4.18370246887207 -1.2932796639255066 1.565620247517721 -1.8432628117003382 -1.5707925001727503 -1.3657177130328577 True True
5152.616 4.1804118156433105 -1.2927673620036622 1.564979378377096 -1.8430162868895472 -1.5707810560809534 -1.356950585042135 True True
5152.6359999999995 4.1771416664123535 -1.2922602754882355 1.564364258443014 -1.842837472955221 -1.570829216633932 -1.348177735005514 True True
5152.656 4.174003601074219 -1.291818456058838 1.5636985937701624 -1.8427463970580042 -1.5708006064044397 -1.3393119017230433 True True
5152.6759999999995 4.170835494995117 -1.29131634653125 1.5631197134601038 -1.8425680599608363 -1.5707762877093714 -1.330540959035055 True True
5152.696 4.167530059814453 -1.2908780735782166 1.5625394026385706 -1.8423487148680628 -1.5707648436175745 -1.3218324820147913 True True
5152.715999999999 4.164272308349609 -1.2904173594764252 1.5619238058673304 -1.8422490559019984 -1.5707929770099085 -1.3129375616656702 True True
5152.736 4.161099433898926 -1.2899085146239777 1.5611456076251429 -1.8420702419676722 -1.5708368460284632 -1.304117504750387 True True
5152.755999999999 4.157837390899658 -1.2894538205913086 1.5604808966266077 -1.8418756924071253 -1.5708006064044397 -1.2953780333148401 True True
5152.776 4.154669284820557 -1.2889898878386994 1.5598295370685022 -1.8416530094542445 -1.570784870778219 -1.2866924444781702 True True
5152.795999999999 4.151428699493408 -1.288500354891159 1.5591605345355433 -1.8415056667723597 -1.5707882086383265 -1.2777636686908167 True True
5152.816 4.148168563842773 -1.2880282563022156 1.5585363546954554 -1.8413111172118128 -1.5707967917071741 -1.2689674536334437 True True
5152.835999999999 4.14491081237793 -1.287515715961792 1.5579012076007288 -1.8411199055113734 -1.5708168188678187 -1.26024037996401 True True
5152.856 4.141714096069336 -1.287076787357666 1.5572813192950647 -1.841036935845846 -1.5707767645465296 -1.2513497511493128 True True
5152.876 4.138470649719238 -1.2865722936442872 1.5566232840167444 -1.8408385715880335 -1.570784870778219 -1.2426093260394495 True True
5152.896 4.135290145874023 -1.286059395675995 1.5560944716082972 -1.840647359887594 -1.570740048085348 -1.233849827443258 True True
5152.916 4.132082462310791 -1.2855911713889618 1.5553987661944788 -1.8404885731139125 -1.5707767645465296 -1.2251279989825647 True True
5152.936 4.128896713256836 -1.2851436895183106 1.5547707716571253 -1.8403054676451625 -1.5708048979388636 -1.2161701361285608 True True
5152.956 4.125636100769043 -1.2846376460841675 1.5541241804706019 -1.84006991008901 -1.570829216633932 -1.2074187437640589 True True
5152.976 4.1223931312561035 -1.2842138272574921 1.553354565297262 -1.839975496331686 -1.570784870778219 -1.198618237172262 True True
5152.996 4.119113922119141 -1.283758894806244 1.552690331135885 -1.8397685490050257 -1.5708006064044397 -1.189880673085348 True True
5153.016 4.115885257720947 -1.2832262080958863 1.5520580450641077 -1.839569707910055 -1.5708087126361292 -1.1810286680804651 True True
5153.036 4.112648963928223 -1.282795326118805 1.5514057318316858 -1.839386602441305 -1.5708125273333948 -1.172272030507223 True True
5153.056 4.109440803527832 -1.2822363537601014 1.5507662932025355 -1.8392235241331996 -1.5707767645465296 -1.1634834448443812 True True
5153.076 4.106208324432373 -1.2818499368480225 1.5501864592181605 -1.8390566311278285 -1.570784870778219 -1.1546371618853968 True True
5153.096 4.102976322174072 -1.2812884014895936 1.549525562916891 -1.8389255009093226 -1.5707319418536585 -1.1458171049701136 True True
5153.116 4.099738597869873 -1.2808689338019867 1.5489128271686 -1.8387586079039515 -1.5707886854754847 -1.1370552221881312 True True
