Andreas691667/Digital_Twin_UR/src/controller_monitor/test_results/test_motion1.csv
timestamp actual_q_0 actual_q_1 actual_q_2 actual_q_3 actual_q_4 actual_q_5 output_bit_register_65 output_bit_register_66
14061.912 2.018458604812622 -1.8944937191405238 -1.442946195602417 -1.3407610219768067 1.6295959949493408 0.4560035169124603 False False
14061.931999999999 2.018446683883667 -1.8945261440672816 -1.443015456199646 -1.3407770258239289 1.6295838356018066 0.4560244083404541 False False
14061.952 2.018446683883667 -1.8944760761656703 -1.4430315494537354 -1.340792940264084 1.6295597553253174 0.45595863461494446 False False
14061.972 2.0184500217437744 -1.8944937191405238 -1.4429841041564941 -1.3408134293607255 1.6296324729919434 0.4559916853904724 False False
14061.992 2.0184545516967773 -1.8945008716978968 -1.443015456199646 -1.3408093762448807 1.6295719146728516 0.45605897903442383 False False
14062.011999999999 2.018474817276001 -1.8945094547667445 -1.4429631233215332 -1.3408011061004181 1.6296038627624512 0.45605000853538513 False False
14062.032 2.0183804035186768 -1.8945137463011683 -1.4429631233215332 -1.34075282633815 1.6296038627624512 0.456045538187027 False False
14062.052 2.0184009075164795 -1.8945261440672816 -1.4429916143417358 -1.3408011061004181 1.6295719146728516 0.45604997873306274 False False
14062.072 2.0184500217437744 -1.8944608173766078 -1.4429712295532227 -1.3407527667335053 1.6295557022094727 0.4560035169124603 False False
14062.091999999999 2.0184619426727295 -1.8944937191405238 -1.4429585933685303 -1.340785102253296 1.629599928855896 0.4559961259365082 False False
14062.112 2.018474817276001 -1.8945094547667445 -1.4429713487625122 -1.3407769215158005 1.6295839548110962 0.4559990465641022 False False
14062.132 2.018446683883667 -1.8944531879820765 -1.442979097366333 -1.3408052635243912 1.6296037435531616 0.45600804686546326 False False
14062.152 2.0184009075164795 -1.894496580163473 -1.442962884902954 -1.3408376288465043 1.6295597553253174 0.45602768659591675 False False
14062.171999999999 2.0184619426727295 -1.8945337734618128 -1.4430358409881592 -1.3408170950463791 1.6295398473739624 0.45600804686546326 False False
14062.192 2.0184085369110107 -1.8945304356017054 -1.442918062210083 -1.3407929849675675 1.6295878887176514 0.45601990818977356 False False
14062.212 2.0183846950531006 -1.8945094547667445 -1.443003535270691 -1.3408334118178864 1.6295878887176514 0.4560663104057312 False False
14062.232 2.0184168815612793 -1.8944856129088343 -1.4430078268051147 -1.3408253204873581 1.6295839548110962 0.45597970485687256 False False
14062.251999999999 2.0184576511383057 -1.8945094547667445 -1.443023920059204 -1.3407646876624604 1.6296037435531616 0.4560752511024475 False False
14062.271999999999 2.0184214115142822 -1.8945304356017054 -1.443003535270691 -1.3407491010478516 1.6295959949493408 0.4560035169124603 False False
14062.292 2.018442392349243 -1.8945180378355921 -1.4429755210876465 -1.3408052933267136 1.6296077966690063 0.4559663236141205 False False
14062.312 2.0184009075164795 -1.8944894276061 -1.4429916143417358 -1.3407610070756455 1.6295918226242065 0.45599907636642456 False False
14062.331999999999 2.018442392349243 -1.8944770298399867 -1.4429832696914673 -1.340760589843132 1.6296284198760986 0.45602765679359436 False False
14062.351999999999 2.018392324447632 -1.894451757470602 -1.4429874420166016 -1.3408293587020417 1.629616379737854 0.4559827148914337 False False
14062.372 2.0183846950531006 -1.8944808445372523 -1.443003535270691 -1.3407687705806275 1.629563808441162 0.4560169577598572 False False
14062.392 2.0184338092803955 -1.894451757470602 -1.4429587125778198 -1.340752751832344 1.6295517683029175 0.45601698756217957 False False
14062.412 2.0184295177459717 -1.8945218525328578 -1.4429916143417358 -1.340804786687233 1.6295599937438965 0.45602136850357056 False False
14062.431999999999 2.018442392349243 -1.8944641552367152 -1.4429874420166016 -1.3408011061004181 1.6295679807662964 0.4560277462005615 False False
14062.452 2.0184338092803955 -1.8945423565306605 -1.442979097366333 -1.3407167357257386 1.6295959949493408 0.45600804686546326 False False
14062.472 2.0184543132781982 -1.894468446771139 -1.4429874420166016 -1.3407727491906662 1.6296242475509644 0.4559870660305023 False False
14062.492 2.018359899520874 -1.8944856129088343 -1.4429713487625122 -1.3407846701196213 1.6295759677886963 0.45605289936065674 False False
14062.511999999999 2.0183804035186768 -1.894529481927389 -1.4429585933685303 -1.340785102253296 1.6295759677886963 0.45601990818977356 False False
14062.532 2.0184500217437744 -1.8945304356017054 -1.442949891090393 -1.340752751832344 1.629563808441162 0.4560619294643402 False False
14062.552 2.0184500217437744 -1.8944980106749476 -1.4429423809051514 -1.3407569390586396 1.6295639276504517 0.4560169279575348 False False
14062.572 2.0184171199798584 -1.8945352039732875 -1.4429800510406494 -1.3408130270293732 1.6295958757400513 0.45599162578582764 False False
14062.591999999999 2.0184128284454346 -1.8944608173766078 -1.4429755210876465 -1.3407692325166245 1.6296037435531616 0.4559960961341858 False False
14062.612 2.0184295177459717 -1.8944813213744105 -1.4430080652236938 -1.340825380092003 1.6295839548110962 0.45603328943252563 False False
14062.632 2.0184009075164795 -1.8944813213744105 -1.4429755210876465 -1.3407974553159256 1.6295998096466064 0.45600804686546326 False False
14062.652 2.0184543132781982 -1.8944851360716761 -1.4429675340652466 -1.3407770258239289 1.6295597553253174 0.4559585452079773 False False
14062.671999999999 2.018437147140503 -1.8944894276061 -1.4429454803466797 -1.3408130270293732 1.629580020904541 0.4560035169124603 False False
14062.692 2.0183846950531006 -1.8944937191405238 -1.4429587125778198 -1.3408494603684922 1.6295720338821411 0.4560154378414154 False False
14062.712 2.0184543132781982 -1.8945919475951136 -1.4430080652236938 -1.3408211779645463 1.6295558214187622 0.4560035169124603 False False
14062.732 2.0184834003448486 -1.8944922886290492 -1.4429800510406494 -1.340789259677269 1.6296037435531616 0.4559871256351471 False False
14062.751999999999 2.0184500217437744 -1.894496580163473 -1.4430168867111206 -1.340776951318123 1.6295759677886963 0.45598411560058594 False False
14062.771999999999 2.0184009075164795 -1.8945094547667445 -1.4429454803466797 -1.340776951318123 1.629579782485962 0.4559961259365082 False False
14062.792 2.0184085369110107 -1.8945094547667445 -1.4429755210876465 -1.3408212524703522 1.6295759677886963 0.4560946822166443 False False
14062.812 2.0184128284454346 -1.894496580163473 -1.4429335594177246 -1.3407850575498124 1.6295597553253174 0.45600950717926025 False False
14062.831999999999 2.018442392349243 -1.8945304356017054 -1.4429830312728882 -1.3407486838153382 1.6295720338821411 0.45603659749031067 False False
14062.851999999999 2.0184457302093506 -1.8944813213744105 -1.4430242776870728 -1.340808944111206 1.6295720338821411 0.4560619294643402 False False
14062.872 2.0184338092803955 -1.89451326946401 -1.4429874420166016 -1.3407486987164994 1.629551887512207 0.45602884888648987 False False
14062.892 2.0184457302093506 -1.8945089779295863 -1.4429993629455566 -1.3407647472671052 1.629568099975586 0.4560168981552124 False False
14062.912 2.0184168815612793 -1.8945466480650843 -1.442954182624817 -1.3407446306994935 1.6295998096466064 0.45600804686546326 False False
14062.931999999999 2.0184004306793213 -1.8944770298399867 -1.442954182624817 -1.3407850873521348 1.6295958757400513 0.45594221353530884 False False
14062.952 2.0183932781219482 -1.894496580163473 -1.4429755210876465 -1.3407527667335053 1.6296281814575195 0.4559916853904724 False False
14062.972 2.018413782119751 -1.8944641552367152 -1.442937970161438 -1.3407687854817887 1.6296122074127197 0.45600804686546326 False False
14062.992 2.018463611602783 -1.8944856129088343 -1.4429625272750854 -1.3407687854817887 1.6295878887176514 0.4560169279575348 False False
14063.011999999999 2.0184428691864014 -1.894468446771139 -1.442971110343933 -1.340748668914177 1.6295839548110962 0.45602136850357056 False False
14063.032 2.0183842182159424 -1.8944813213744105 -1.4429712295532227 -1.340837539439537 1.6296120882034302 0.456045538187027 False False
14063.052 2.018413782119751 -1.8944641552367152 -1.442962408065796 -1.3407729131034394 1.6296162605285645 0.4559886157512665 False False
14063.072 2.0184123516082764 -1.8945304356017054 -1.443019986152649 -1.340808944111206 1.6295838356018066 0.456012487411499 False False
14063.091999999999 2.0184123516082764 -1.8945337734618128 -1.4429962635040283 -1.3408130270293732 1.6295719146728516 0.4560365676879883 False False
14063.112 2.0184664726257324 -1.8944770298399867 -1.4429422616958618 -1.3408334416202088 1.629555583000183 0.4559663236141205 False False
14063.132 2.0184338092803955 -1.894468446771139 -1.4429874420166016 -1.3407606047442933 1.6295961141586304 0.45603659749031067 False False
14063.152 2.0183916091918945 -1.8944894276061 -1.442926049232483 -1.3407527816346665 1.6295801401138306 0.45600804686546326 False False
14063.171999999999 2.0184664726257324 -1.8944269619383753 -1.4429292678833008 -1.3407564771226426 1.6295275688171387 0.4559990465641022 False False
14063.192 2.0184428691864014 -1.894529481927389 -1.4429668188095093 -1.3408334118178864 1.6295677423477173 0.45600056648254395 False False
14063.212 2.0183725357055664 -1.8944808445372523 -1.4429422616958618 -1.3407409501126786 1.6295478343963623 0.45603328943252563 False False
14063.232 2.0184080600738525 -1.894496580163473 -1.4429963827133179 -1.3407569241574784 1.6295878887176514 0.4559871554374695 False False
14063.251999999999 2.018402099609375 -1.8944770298399867 -1.4430243968963623 -1.3407651346972962 1.6295759677886963 0.456045538187027 False False
14063.271999999999 2.018491744995117 -1.8944765530028285 -1.442991852760315 -1.3407488030246277 1.6295838356018066 0.45600953698158264 False False
14063.292 2.0184123516082764 -1.8945051632323207 -1.4429668188095093 -1.3407607090524216 1.6295801401138306 0.45604556798934937 False False
14063.312 2.0184428691864014 -1.8944598637022914 -1.4429585933685303 -1.340825231080391 1.6295838356018066 0.4560244083404541 False False
14063.331999999999 2.0184249877929688 -1.8945261440672816 -1.4429786205291748 -1.3407929700664063 1.6296038627624512 0.45605745911598206 False False
14063.351999999999 2.0184414386749268 -1.8945585689940394 -1.4429800510406494 -1.3407973510077973 1.6295878887176514 0.45605000853538513 False False
14063.372 2.018425703048706 -1.8945094547667445 -1.4429718255996704 -1.3407728982022782 1.629591941833496 0.4559946358203888 False False
14063.392 2.0184457302093506 -1.8945094547667445 -1.44300377368927 -1.3407688003829499 1.6295843124389648 0.4559496343135834 False False
14063.412 2.0184457302093506 -1.8945218525328578 -1.4429993629455566 -1.3407128167203446 1.6295801401138306 0.45601987838745117 False False
14063.431999999999 2.0183753967285156 -1.8945008716978968 -1.442954182624817 -1.3407892298749466 1.6295759677886963 0.45600804686546326 False False
14063.452 2.0184710025787354 -1.894451757470602 -1.4429800510406494 -1.3408010464957734 1.6295719146728516 0.4560411274433136 False False
14063.472 2.018425703048706 -1.8945008716978968 -1.4429453611373901 -1.3407769811204453 1.6295998096466064 0.45597076416015625 False False
14063.492 2.0184590816497803 -1.8945542774596156 -1.4430333375930786 -1.3408012998155137 1.6295878887176514 0.4559451937675476 False False
14063.511999999999 2.0184292793273926 -1.8945380649962367 -1.4429874420166016 -1.340785102253296 1.6295396089553833 0.4560619294643402 False False
14063.532 2.0183961391448975 -1.8944808445372523 -1.4429668188095093 -1.340809167628624 1.6296120882034302 0.45605745911598206 False False
14063.552 2.0184383392333984 -1.8945423565306605 -1.442991852760315 -1.340785102253296 1.6295596361160278 0.45602884888648987 False False
14063.572 2.0184547901153564 -1.894451757470602 -1.442971110343933 -1.340817080145218 1.6295396089553833 0.456012487411499 False False
14063.591999999999 2.0184080600738525 -1.8944851360716761 -1.4429579973220825 -1.3407972317985077 1.629535436630249 0.45602884888648987 False False
14063.612 2.0184619426727295 -1.8945337734618128 -1.442971110343933 -1.340785102253296 1.6295759677886963 0.45607829093933105 False False
14063.632 2.018434524536133 -1.8945304356017054 -1.4430242776870728 -1.3408332032016297 1.6295639276504517 0.4560455083847046 False False
14063.652 2.0184428691864014 -1.8944608173766078 -1.4429993629455566 -1.340768815284111 1.6295801401138306 0.456012487411499 False False
14063.671999999999 2.0183560848236084 -1.8945218525328578 -1.44300377368927 -1.340732992892601 1.6295801401138306 0.4559990465641022 False False
14063.692 2.0183753967285156 -1.8945008716978968 -1.4430168867111206 -1.3407851171544571 1.6295639276504517 0.4560365676879883 False False
14063.712 2.0184590816497803 -1.8945347271361292 -1.4429230690002441 -1.340789185171463 1.629555583000183 0.4560365676879883 False False
14063.732 2.0184414386749268 -1.8944937191405238 -1.442949891090393 -1.340781108742096 1.629591941833496 0.4560288190841675 False False
14063.751999999999 2.0184547901153564 -1.8945137463011683 -1.4429800510406494 -1.3407729429057618 1.6295759677886963 0.4560410976409912 False False
14063.771999999999 2.0184428691864014 -1.894517560998434 -1.4429874420166016 -1.3407972019961854 1.6295878887176514 0.45600056648254395 False False
14063.792 2.0184051990509033 -1.8944937191405238 -1.4429712295532227 -1.3408090484193345 1.6295359134674072 0.45602884888648987 False False
14063.812 2.0184338092803955 -1.894468446771139 -1.4430242776870728 -1.3407610219768067 1.6295719146728516 0.4560619294643402 False False
14063.831999999999 2.018447160720825 -1.894451757470602 -1.4429755210876465 -1.340805099611618 1.6295998096466064 0.4560529887676239 False False
14063.851999999999 2.0184338092803955 -1.8944727383055628 -1.4429543018341064 -1.3408330541900177 1.6295634508132935 0.4560244381427765 False False
14063.872 2.0184214115142822 -1.8945218525328578 -1.4429543018341064 -1.3407490116408844 1.6295878887176514 0.45603328943252563 False False
14063.892 2.0184214115142822 -1.8944388828673304 -1.4430155754089355 -1.340785102253296 1.6296122074127197 0.45602884888648987 False False
14063.912 2.0183887481689453 -1.8944727383055628 -1.4430404901504517 -1.3407891553691407 1.6296287775039673 0.45601245760917664 False False
14063.931999999999 2.018430233001709 -1.8945499859251917 -1.4429874420166016 -1.3408129823258896 1.629551887512207 0.456012487411499 False False
14063.952 2.0184123516082764 -1.8944808445372523 -1.4430198669433594 -1.3407729727080842 1.6295719146728516 0.45602884888648987 False False
14063.972 2.018430233001709 -1.8945304356017054 -1.4430124759674072 -1.340764896278717 1.6295394897460938 0.456045538187027 False False
14063.992 2.0184783935546875 -1.894456525842184 -1.4429469108581543 -1.3407570582679291 1.6295396089553833 0.45600804686546326 False False
14064.011999999999 2.018467903137207 -1.8945466480650843 -1.4430242776870728 -1.340768889789917 1.629555583000183 0.4560213088989258 False False
14064.032 2.018484354019165 -1.8944641552367152 -1.4430079460144043 -1.3407689046910782 1.6295878887176514 0.45601987838745117 False False
14064.052 2.0184502601623535 -1.8944651089110316 -1.4429423809051514 -1.3407891255668183 1.6295639276504517 0.45605745911598206 False False
14064.072 2.0184428691864014 -1.8944770298399867 -1.4429917335510254 -1.340808929210045 1.6296287775039673 0.45601096749305725 False False
14064.091999999999 2.0183753967285156 -1.89451326946401 -1.4429712295532227 -1.340797023182251 1.6295801401138306 0.45598411560058594 False False
14064.112 2.0184080600738525 -1.894463678399557 -1.442992925643921 -1.3407451522401352 1.6295878887176514 0.45607081055641174 False False
14064.132 2.0184502601623535 -1.8945499859251917 -1.4430123567581177 -1.3407689493945618 1.6295920610427856 0.4560544490814209 False False
14064.152 2.018447160720825 -1.8944894276061 -1.4430036544799805 -1.340789110665657 1.6295955181121826 0.4560169279575348 False False
14064.171999999999 2.0184383392333984 -1.894517560998434 -1.4430079460144043 -1.3407687705806275 1.6295841932296753 0.45604848861694336 False False
14064.192 2.0184292793273926 -1.8945380649962367 -1.4430079460144043 -1.3407729429057618 1.629607915878296 0.4559451937675476 False False
14064.212 2.0183916091918945 -1.8945218525328578 -1.4430036544799805 -1.340752751832344 1.6295841932296753 0.4559871256351471 False False
14064.232 2.0184576511383057 -1.8944641552367152 -1.4429712295532227 -1.340764657860138 1.6295841932296753 0.456045538187027 False False
14064.251999999999 2.018425941467285 -1.8945218525328578 -1.4430036544799805 -1.3407933425954361 1.6295759677886963 0.45602884888648987 False False
14064.271999999999 2.0184547901153564 -1.894522329370016 -1.4429961442947388 -1.3407850873521348 1.6295878887176514 0.456045538187027 False False
14064.292 2.0184214115142822 -1.8944894276061 -1.442942500114441 -1.34075282633815 1.629591941833496 0.4559961259365082 False False
14064.312 2.0184531211853027 -1.8945304356017054 -1.4429755210876465 -1.3407969635776062 1.6295759677886963 0.4560410976409912 False False
14064.331999999999 2.0184502601623535 -1.8944937191405238 -1.4429755210876465 -1.3407932978919526 1.6295719146728516 0.4560827314853668 False False
14064.351999999999 2.0184590816497803 -1.8944851360716761 -1.4429669380187988 -1.3408011061004181 1.629607915878296 0.4560410976409912 False False
14064.372 2.0184080600738525 -1.8945180378355921 -1.4429502487182617 -1.3407326650670548 1.6295838356018066 0.4560410976409912 False False
14064.392 2.0184295177459717 -1.8944608173766078 -1.4429993629455566 -1.3407647025636216 1.629616379737854 0.4559663236141205 False False
14064.412 2.0183842182159424 -1.8945051632323207 -1.4429917335510254 -1.340789334183075 1.6295396089553833 0.45602884888648987 False False
14064.431999999999 2.0184004306793213 -1.8945304356017054 -1.4429874420166016 -1.3407527667335053 1.629624605178833 0.4560455083847046 False False
14064.452 2.0183842182159424 -1.8945843182005824 -1.4429330825805664 -1.3408171248487015 1.629555583000183 0.45602136850357056 False False
14064.472 2.0184078216552734 -1.8945218525328578 -1.4429951906204224 -1.3407327097705384 1.6296038627624512 0.4560410976409912 False False
14064.492 2.0184547901153564 -1.8944651089110316 -1.442967414855957 -1.3408130270293732 1.6295431852340698 0.4560410976409912 False False
14064.511999999999 2.0183887481689453 -1.8944770298399867 -1.4429712295532227 -1.3408014935306092 1.6295961141586304 0.456066370010376 False False
14064.532 2.0184123516082764 -1.8945008716978968 -1.4429712295532227 -1.3407445859960099 1.6295719146728516 0.4560619294643402 False False
14064.552 2.0183768272399902 -1.8944851360716761 -1.4430410861968994 -1.3408376586488266 1.629563570022583 0.4560035169124603 False False
14064.572 2.0184710025787354 -1.8945466480650843 -1.4429916143417358 -1.3407850724509736 1.6295355558395386 0.45598268508911133 False False
14064.591999999999 2.0184123516082764 -1.8945094547667445 -1.4429831504821777 -1.340797410612442 1.6295838356018066 0.45601987838745117 False False
14064.612 2.0183961391448975 -1.8945051632323207 -1.4429755210876465 -1.3407770258239289 1.6295878887176514 0.4560244083404541 False False
14064.632 2.018447160720825 -1.8945585689940394 -1.4429960250854492 -1.3408052635243912 1.629607915878296 0.4560619294643402 False False
14064.652 2.0184338092803955 -1.8945466480650843 -1.4429841041564941 -1.3408129823258896 1.6295759677886963 0.45607829093933105 False False
14064.671999999999 2.0183842182159424 -1.894468446771139 -1.443040132522583 -1.3407892745784302 1.6296205520629883 0.4559752941131592 False False
14064.692 2.018393039703369 -1.8944980106749476 -1.4429712295532227 -1.3407445859960099 1.6295759677886963 0.45603328943252563 False False
14064.712 2.01841402053833 -1.8945380649962367 -1.4429757595062256 -1.3407606196454545 1.6295396089553833 0.45602884888648987 False False
14064.732 2.0184621810913086 -1.8944937191405238 -1.443000316619873 -1.3408089143088837 1.6295719146728516 0.45600804686546326 False False
14064.751999999999 2.0184457302093506 -1.8945261440672816 -1.4430205821990967 -1.3407527965358277 1.6295719146728516 0.45602884888648987 False False
14064.771999999999 2.018413782119751 -1.8944727383055628 -1.443015456199646 -1.3407647025636216 1.6295838356018066 0.4560619592666626 False False
14064.792 2.0184338092803955 -1.8944937191405238 -1.4429631233215332 -1.3408334714225312 1.6296405792236328 0.45600804686546326 False False
14064.812 2.018409490585327 -1.8944851360716761 -1.4429587125778198 -1.340801180606224 1.6296324729919434 0.4560035169124603 False False
14064.831999999999 2.0184168815612793 -1.8945218525328578 -1.4429874420166016 -1.3407687854817887 1.6296080350875854 0.45605745911598206 False False
14064.851999999999 2.0184249877929688 -1.8945352039732875 -1.442962884902954 -1.3407687854817887 1.629624605178833 0.45600804686546326 False False
14064.872 2.018425703048706 -1.8945137463011683 -1.4429832696914673 -1.3407606494477768 1.629591941833496 0.456012487411499 False False
14064.892 2.0184051990509033 -1.8944813213744105 -1.4429916143417358 -1.3407486987164994 1.6295841932296753 0.456012487411499 False False
14064.912 2.0184051990509033 -1.8944608173766078 -1.443003535270691 -1.3407770258239289 1.6295677423477173 0.4560004770755768 False False
14064.931999999999 2.0184500217437744 -1.8945008716978968 -1.4429916143417358 -1.340797023182251 1.6295795440673828 0.456045538187027 False False
14064.952 2.0183961391448975 -1.8945676289000453 -1.4429670572280884 -1.3407528114369889 1.6295878887176514 0.45601987838745117 False False
14064.972 2.018467903137207 -1.8944980106749476 -1.4429746866226196 -1.340768815284111 1.629607915878296 0.456027626991272 False False
14064.992 2.0184755325317383 -1.894517560998434 -1.4429832696914673 -1.3407569092563172 1.6295759677886963 0.4559916853904724 False False
14065.011999999999 2.018463373184204 -1.8944937191405238 -1.4430122375488281 -1.3407327097705384 1.6295955181121826 0.4560619294643402 False False
14065.032 2.0184590816497803 -1.8944851360716761 -1.442962884902954 -1.3407887530377884 1.6295719146728516 0.45598265528678894 False False
14065.052 2.0184214115142822 -1.8945051632323207 -1.4429960250854492 -1.3407770258239289 1.6295678615570068 0.45605000853538513 False False
14065.072 2.0184295177459717 -1.8944922886290492 -1.4429755210876465 -1.3407770109227677 1.6295961141586304 0.45600804686546326 False False
14065.091999999999 2.0184426307678223 -1.8945008716978968 -1.4429502487182617 -1.340789259677269 1.6295838356018066 0.45605000853538513 False False
14065.112 2.0184502601623535 -1.894571920434469 -1.4429713487625122 -1.3407527667335053 1.6295394897460938 0.4560288190841675 False False
14065.132 2.0184338092803955 -1.8945352039732875 -1.4429713487625122 -1.340740905409195 1.6296039819717407 0.456045538187027 False False
14065.152 2.0184051990509033 -1.8945094547667445 -1.4429908990859985 -1.3408052635243912 1.6295758485794067 0.456012487411499 False False
14065.171999999999 2.0184051990509033 -1.894468446771139 -1.4429545402526855 -1.3407527816346665 1.629563808441162 0.4560410976409912 False False
14065.192 2.0184295177459717 -1.8944937191405238 -1.4429545402526855 -1.3408093315413971 1.6296120882034302 0.4560035169124603 False False
14065.212 2.018430233001709 -1.8945094547667445 -1.4430078268051147 -1.340793327694275 1.6295878887176514 0.4560544490814209 False False
14065.232 2.0184249877929688 -1.8945585689940394 -1.4429670572280884 -1.3407647174647828 1.629555583000183 0.45601987838745117 False False
14065.251999999999 2.0184295177459717 -1.8945304356017054 -1.4429916143417358 -1.3407409203103562 1.629535436630249 0.4560198485851288 False False
14065.271999999999 2.0184590816497803 -1.894468446771139 -1.4429960250854492 -1.3407892745784302 1.6295596361160278 0.45600804686546326 False False
14065.292 2.018425703048706 -1.8944770298399867 -1.4429502487182617 -1.3407769066146393 1.6296038627624512 0.4559916853904724 False False
14065.532 2.0184168815612793 -1.8945542774596156 -1.443000316619873 -1.340784714823105 1.629563570022583 0.45601987838745117 False False
14065.552 2.0184426307678223 -1.8945051632323207 -1.4429670572280884 -1.3407445859960099 1.6295955181121826 0.4560529589653015 False False
14065.572 2.018458843231201 -1.8944980106749476 -1.4430196285247803 -1.3408212524703522 1.629563808441162 0.4560079872608185 False False
14065.591999999999 2.0184051990509033 -1.8945023022093714 -1.4430078268051147 -1.3408416521600266 1.629591941833496 0.4559827148914337 False False
14065.612 2.0184006690979004 -1.8945027790465296 -1.4430078268051147 -1.3408171248487015 1.6296164989471436 0.4560410976409912 False False
14065.632 2.0184457302093506 -1.8945380649962367 -1.4429631233215332 -1.3407445859960099 1.629563570022583 0.45600801706314087 False False
14065.652 2.018458843231201 -1.894496580163473 -1.4430283308029175 -1.3407893043807526 1.629563570022583 0.45604220032691956 False False
14065.671999999999 2.0184051990509033 -1.8944608173766078 -1.4429916143417358 -1.3408011061004181 1.6296038627624512 0.4560288190841675 False False
14065.692 2.018409490585327 -1.8945137463011683 -1.4430077075958252 -1.340785102253296 1.6295719146728516 0.4560244381427765 False False
14065.712 2.0184125900268555 -1.8944856129088343 -1.4429960250854492 -1.3408011061004181 1.6295841932296753 0.45605000853538513 False False
14065.732 2.0184338092803955 -1.8944770298399867 -1.4429960250854492 -1.3407729429057618 1.6295961141586304 0.45602136850357056 False False
14065.751999999999 2.0184051990509033 -1.894576211968893 -1.4430077075958252 -1.3408171397498627 1.6296120882034302 0.4560079872608185 False False
14065.771999999999 2.0184383392333984 -1.8944860897459925 -1.442994475364685 -1.340785102253296 1.6295678615570068 0.4560244083404541 False False
14065.792 2.0184006690979004 -1.8944770298399867 -1.4429715871810913 -1.3407729429057618 1.6295961141586304 0.45602884888648987 False False
14065.812 2.0183682441711426 -1.8945027790465296 -1.442967176437378 -1.3408212673715134 1.6296162605285645 0.456066370010376 False False
14065.831999999999 2.018446922302246 -1.8944632015623988 -1.4429799318313599 -1.3408170503428956 1.6296038627624512 0.45604562759399414 False False
14065.851999999999 2.0184338092803955 -1.8944937191405238 -1.4429874420166016 -1.3407487136176606 1.6296080350875854 0.45600348711013794 False False
14065.872 2.0183963775634766 -1.8944894276061 -1.4429672956466675 -1.340736747985222 1.629555583000183 0.4559871256351471 False False
14065.892 2.0184338092803955 -1.894508501092428 -1.4430078268051147 -1.340797023182251 1.6295472383499146 0.45604994893074036 False False
14065.912 2.0184006690979004 -1.8945266209044398 -1.4430197477340698 -1.340756968860962 1.6295596361160278 0.4559916853904724 False False
14065.931999999999 2.018463134765625 -1.8945051632323207 -1.4430197477340698 -1.3408171248487015 1.6295998096466064 0.4560544490814209 False False
14065.952 2.018425703048706 -1.894442697564596 -1.443027377128601 -1.340776951318123 1.629591941833496 0.456033319234848 False False
14065.972 2.0183801651000977 -1.8944722614684046 -1.443015456199646 -1.3407892745784302 1.629591941833496 0.4560244381427765 False False
14065.992 2.018425226211548 -1.8945142231383265 -1.4429841041564941 -1.3407727491906662 1.6295719146728516 0.4559961259365082 False False
14066.011999999999 2.0183932781219482 -1.8944736919798792 -1.4429916143417358 -1.340764657860138 1.6295878887176514 0.45601990818977356 False False
14066.032 2.0183520317077637 -1.894430776635641 -1.4429874420166016 -1.3407770556262513 1.6296122074127197 0.4560410976409912 False False
14066.052 2.0183963775634766 -1.894484659234518 -1.4429951906204224 -1.3408130270293732 1.6296122074127197 0.456045538187027 False False
14066.072 2.0184824466705322 -1.8945051632323207 -1.443003535270691 -1.3407687854817887 1.6296164989471436 0.45600053668022156 False False
14066.091999999999 2.018387794494629 -1.8944722614684046 -1.442930817604065 -1.3407651048949738 1.6296080350875854 0.45600053668022156 False False
14066.112 2.0183889865875244 -1.8944679699339808 -1.4429841041564941 -1.34083345652137 1.6295838356018066 0.4560243785381317 False False
14066.132 2.0183963775634766 -1.8944603405394496 -1.443003535270691 -1.340752751832344 1.6296038627624512 0.45600056648254395 False False
14066.152 2.018458843231201 -1.8944937191405238 -1.4429503679275513 -1.3407733750394364 1.6295719146728516 0.4560169279575348 False False
14066.171999999999 2.0184383392333984 -1.8945142231383265 -1.4430561065673828 -1.340809316640236 1.6295394897460938 0.4560154378414154 False False
14066.192 2.018437147140503 -1.8944903812804164 -1.442929983139038 -1.3407327395728608 1.6295472383499146 0.4560213088989258 False False
14066.212 2.0183966159820557 -1.894522329370016 -1.4429799318313599 -1.3408212971738358 1.629555583000183 0.45606929063796997 False False
14066.232 2.0184383392333984 -1.894458910027975 -1.4429916143417358 -1.3407729429057618 1.6295478343963623 0.45599907636642456 False False
14066.251999999999 2.0184545516967773 -1.8944980106749476 -1.4429755210876465 -1.3408375543406983 1.6296205520629883 0.45610353350639343 False False
14066.271999999999 2.018388032913208 -1.8945094547667445 -1.4430288076400757 -1.3408333522132416 1.6296164989471436 0.45605745911598206 False False
14066.292 2.0184214115142822 -1.8945051632323207 -1.4429844617843628 -1.3407850575498124 1.6295878887176514 0.4560288190841675 False False
14066.312 2.0184545516967773 -1.8945008716978968 -1.442991852760315 -1.3407569390586396 1.629591941833496 0.456012487411499 False False
14066.331999999999 2.0183684825897217 -1.8945518932738246 -1.4430451393127441 -1.3407850873521348 1.6296038627624512 0.4560035169124603 False False
14066.351999999999 2.018446683883667 -1.8945185146727503 -1.4429800510406494 -1.3407729280046006 1.6295596361160278 0.4559916853904724 False False
14066.372 2.0183889865875244 -1.894430776635641 -1.4429963827133179 -1.3407933574965973 1.6295515298843384 0.4560288190841675 False False
14066.392 2.0184338092803955 -1.8944560490050257 -1.4429543018341064 -1.340776876812317 1.6296038627624512 0.456012487411499 False False
14066.412 2.0183846950531006 -1.8945428333678187 -1.4429585933685303 -1.340789259677269 1.6296038627624512 0.4560154378414154 False False
14066.431999999999 2.018432855606079 -1.8944398365416468 -1.4429962635040283 -1.3408334714225312 1.6295795440673828 0.45607829093933105 False False
14066.452 2.0184338092803955 -1.894480367700094 -1.4429800510406494 -1.3407811534455796 1.6295878887176514 0.4560410976409912 False False
14066.472 2.0184295177459717 -1.8944722614684046 -1.4430080652236938 -1.3407569539598008 1.629591941833496 0.4560529291629791 False False
14066.492 2.018458604812622 -1.8945094547667445 -1.4430080652236938 -1.3408093315413971 1.6295878887176514 0.4560035169124603 False False
14066.511999999999 2.0184383392333984 -1.8944603405394496 -1.442971110343933 -1.3407892745784302 1.6296043395996094 0.456012487411499 False False
14066.532 2.018479108810425 -1.8944512806334437 -1.4429469108581543 -1.340785102253296 1.6296043395996094 0.45600804686546326 False False
14066.552 2.0184500217437744 -1.8944813213744105 -1.4429831504821777 -1.3408011061004181 1.6295719146728516 0.45598262548446655 False False
14066.572 2.0184061527252197 -1.894508501092428 -1.4429755210876465 -1.3407810193351288 1.629563570022583 0.45604997873306274 False False
14066.591999999999 2.0184006690979004 -1.8944560490050257 -1.4429830312728882 -1.3407527816346665 1.6296205520629883 0.45603325963020325 False False
14066.612 2.0184500217437744 -1.8944694004454554 -1.4430243968963623 -1.3407810491374512 1.6296038627624512 0.4560410976409912 False False
14066.632 2.0184383392333984 -1.8945337734618128 -1.442949891090393 -1.3407285970500489 1.6296205520629883 0.4560169577598572 False False
14066.652 2.0183889865875244 -1.8944937191405238 -1.442954182624817 -1.340760664348938 1.6295878887176514 0.45597976446151733 False False
14066.671999999999 2.018425703048706 -1.8944441280760707 -1.4429917335510254 -1.3407933127931138 1.6295838356018066 0.4560035169124603 False False
14066.692 2.0184383392333984 -1.8945309124388636 -1.4429874420166016 -1.340813012128212 1.6296038627624512 0.4560321271419525 False False
14066.712 2.0184295177459717 -1.8944894276061 -1.442949891090393 -1.3407850575498124 1.6295961141586304 0.4560154378414154 False False
14066.732 2.0184576511383057 -1.8945051632323207 -1.4429625272750854 -1.3408052337220688 1.6295961141586304 0.4559871256351471 False False
14066.751999999999 2.0184223651885986 -1.8945142231383265 -1.4429993629455566 -1.3408010762980958 1.629591941833496 0.45601987838745117 False False
14066.771999999999 2.018462896347046 -1.8944560490050257 -1.4430125951766968 -1.3408170354417344 1.6295194625854492 0.45605745911598206 False False
14066.792 2.0184414386749268 -1.8944632015623988 -1.4430451393127441 -1.340768815284111 1.629591941833496 0.4560244083404541 False False
14066.812 2.0184426307678223 -1.8944770298399867 -1.4429668188095093 -1.3407728534987946 1.6295719146728516 0.455949604511261 False False
14066.831999999999 2.018409490585327 -1.8945051632323207 -1.442926049232483 -1.3407410395196457 1.6295514106750488 0.4559916853904724 False False
14066.851999999999 2.018425226211548 -1.8945003948607386 -1.4429512023925781 -1.3408170205405732 1.629543662071228 0.4560410976409912 False False
14066.872 2.0184295177459717 -1.8945051632323207 -1.4429800510406494 -1.3408010613969346 1.6295515298843384 0.45601987838745117 False False
14066.892 2.0184168815612793 -1.8945094547667445 -1.442954182624817 -1.3407610219768067 1.6295838356018066 0.45597076416015625 False False
14066.912 2.0184500217437744 -1.8945094547667445 -1.443015694618225 -1.3407650601914902 1.6295961141586304 0.4560648500919342 False False
14066.931999999999 2.018425226211548 -1.8945142231383265 -1.442971110343933 -1.3407209825566788 1.629575490951538 0.45600053668022156 False False
14066.952 2.018425703048706 -1.8944679699339808 -1.4429830312728882 -1.3408091974309464 1.6295961141586304 0.4559961259365082 False False
14066.972 2.018446683883667 -1.8944679699339808 -1.44300377368927 -1.3407970529845734 1.6295998096466064 0.456012487411499 False False
14066.992 2.0184295177459717 -1.8944980106749476 -1.4430214166641235 -1.340733141904213 1.6295677423477173 0.45601987838745117 False False
14067.011999999999 2.0183727741241455 -1.8945185146727503 -1.443031907081604 -1.3407569986632843 1.6295719146728516 0.4560243785381317 False False
14067.032 2.018425703048706 -1.8945142231383265 -1.4429874420166016 -1.3407371801188965 1.6296038627624512 0.45606040954589844 False False
14067.052 2.0184383392333984 -1.8945051632323207 -1.443015694618225 -1.3407729429057618 1.6295596361160278 0.4560154378414154 False False
14067.072 2.0184619426727295 -1.8944860897459925 -1.442962408065796 -1.3407729131034394 1.629563808441162 0.45598268508911133 False False
14067.091999999999 2.0183966159820557 -1.8945070705809535 -1.4429963827133179 -1.3408211034587403 1.6296566724777222 0.456012487411499 False False
14067.112 2.0184006690979004 -1.8945356808104457 -1.4430452585220337 -1.3407610219768067 1.629591941833496 0.45602768659591675 False False
14067.132 2.0184128284454346 -1.8944364986815394 -1.4430127143859863 -1.3407929998687287 1.6296324729919434 0.4560154378414154 False False
14067.152 2.0184662342071533 -1.8945094547667445 -1.4429142475128174 -1.3407811385444184 1.6295759677886963 0.4560485780239105 False False
14067.171999999999 2.0184457302093506 -1.8944860897459925 -1.4429378509521484 -1.340789185171463 1.6296122074127197 0.4560738503932953 False False
14067.192 2.0184383392333984 -1.8944603405394496 -1.442991852760315 -1.3407490265420456 1.629555583000183 0.4560377597808838 False False
14067.212 2.0184009075164795 -1.8945051632323207 -1.4429844617843628 -1.340757043366768 1.6295759677886963 0.455967515707016 False False
14067.232 2.018425226211548 -1.8944560490050257 -1.4429949522018433 -1.3407971274903794 1.6295878887176514 0.4560169279575348 False False
14067.251999999999 2.0184295177459717 -1.8945003948607386 -1.4429497718811035 -1.3407730770162125 1.6295678615570068 0.4560529291629791 False False
14067.271999999999 2.0184338092803955 -1.8945051632323207 -1.4429173469543457 -1.3407971274903794 1.6296038627624512 0.456012487411499 False False
14067.292 2.018458843231201 -1.8945051632323207 -1.442971110343933 -1.3407610368779679 1.6295719146728516 0.45600348711013794 False False
14067.312 2.018446683883667 -1.8945027790465296 -1.4429874420166016 -1.340785102253296 1.6295759677886963 0.45605000853538513 False False
14067.331999999999 2.018392324447632 -1.8945447407164515 -1.442921757698059 -1.3408209842494507 1.6295515298843384 0.45603036880493164 False False
14067.351999999999 2.0184051990509033 -1.89451326946401 -1.4430068731307983 -1.3407610219768067 1.6295719146728516 0.4559946060180664 False False
14067.372 2.0184671878814697 -1.894484659234518 -1.4430155754089355 -1.340733216410019 1.6296038627624512 0.4560410976409912 False False
14067.392 2.0184085369110107 -1.8945266209044398 -1.443021297454834 -1.3407490712455292 1.6295961141586304 0.4559752941131592 False False
14067.412 2.0183804035186768 -1.894522329370016 -1.4429844617843628 -1.3407530200532456 1.6295955181121826 0.4560485780239105 False False
14067.431999999999 2.0184457302093506 -1.8945003948607386 -1.4429800510406494 -1.340832771067955 1.6295801401138306 0.4559663236141205 False False
14067.452 2.018404245376587 -1.8944632015623988 -1.4429512023925781 -1.3407771748355408 1.6296122074127197 0.45602884888648987 False False
14067.472 2.0184128284454346 -1.8944183788695277 -1.4429874420166016 -1.3407412034324189 1.6295596361160278 0.456012487411499 False False
14067.492 2.0184383392333984 -1.8944484196104945 -1.4429668188095093 -1.340729222898819 1.6295961141586304 0.45607081055641174 False False
14067.511999999999 2.0184671878814697 -1.8945051632323207 -1.4429585933685303 -1.340760977273323 1.629547357559204 0.4560365676879883 False False
14067.532 2.0184500217437744 -1.8945003948607386 -1.4430080652236938 -1.3407292676023026 1.6295878887176514 0.4560321271419525 False False
14067.552 2.0184381008148193 -1.894484659234518 -1.4429512023925781 -1.3408009272864838 1.6296038627624512 0.45602884888648987 False False
14067.572 2.018450975418091 -1.8945685825743617 -1.4430404901504517 -1.340776876812317 1.629555583000183 0.45600801706314087 False False
14067.591999999999 2.018474817276001 -1.8944980106749476 -1.4429625272750854 -1.3407650005868454 1.629555583000183 0.45605745911598206 False False
14067.612 2.0184295177459717 -1.8944364986815394 -1.4429800510406494 -1.340797023182251 1.6295878887176514 0.455967515707016 False False
14067.632 2.018442392349243 -1.894480367700094 -1.4429993629455566 -1.3407892745784302 1.629591941833496 0.4559946060180664 False False
14067.652 2.018458604812622 -1.8944856129088343 -1.4429631233215332 -1.340801091199257 1.6295759677886963 0.4559871256351471 False False
14067.671999999999 2.018458604812622 -1.8944679699339808 -1.4429917335510254 -1.3407651048949738 1.6295838356018066 0.4560035467147827 False False
14067.692 2.0184383392333984 -1.8945385418333949 -1.4429962635040283 -1.3407774579576035 1.629591941833496 0.4560035169124603 False False
14067.712 2.0184295177459717 -1.8944441280760707 -1.4429744482040405 -1.340772957806923 1.6295961141586304 0.4560410976409912 False False
14067.732 2.018470525741577 -1.8944770298399867 -1.4429831504821777 -1.3407810193351288 1.6296038627624512 0.4560365676879883 False False
14067.751999999999 2.0183932781219482 -1.8945003948607386 -1.4430036544799805 -1.3407606345466156 1.6295878887176514 0.4559990465641022 False False
14067.771999999999 2.0184543132781982 -1.8945266209044398 -1.4430112838745117 -1.3407851171544571 1.6295838356018066 0.45604845881462097 False False
14067.792 2.0184381008148193 -1.8944937191405238 -1.4430490732192993 -1.3407729280046006 1.6295801401138306 0.4560529291629791 False False
14067.812 2.018364191055298 -1.8945266209044398 -1.4429917335510254 -1.340776951318123 1.6296038627624512 0.4560440480709076 False False
14067.831999999999 2.0184338092803955 -1.894484659234518 -1.4430124759674072 -1.3407729429057618 1.6295678615570068 0.4559961259365082 False False
14067.851999999999 2.018425703048706 -1.8945142231383265 -1.4429831504821777 -1.3408171248487015 1.6295918226242065 0.4560455083847046 False False
14067.872 2.0184009075164795 -1.894522329370016 -1.442954421043396 -1.3407973957112809 1.6295397281646729 0.4560244083404541 False False
14067.892 2.018420934677124 -1.8944603405394496 -1.442962646484375 -1.3408134442618866 1.6296285390853882 0.4560244083404541 False False
14067.912 2.018470525741577 -1.8945385418333949 -1.443015694618225 -1.3407687854817887 1.629607915878296 0.45606929063796997 False False
14067.931999999999 2.018418073654175 -1.894529481927389 -1.4429755210876465 -1.3407810193351288 1.6295959949493408 0.45601686835289 False False
14067.952 2.0184338092803955 -1.8944980106749476 -1.4429831504821777 -1.3407810193351288 1.6295678615570068 0.456012487411499 False False
14067.972 2.0184662342071533 -1.8944679699339808 -1.4429950714111328 -1.3407973957112809 1.6295878887176514 0.4560169279575348 False False
14067.992 2.0184500217437744 -1.8944860897459925 -1.4429306983947754 -1.3407404732755204 1.6296244859695435 0.4560288190841675 False False
14068.011999999999 2.018458604812622 -1.894522329370016 -1.4430079460144043 -1.3408170652440567 1.6295878887176514 0.4560544490814209 False False
14068.032 2.0184128284454346 -1.8945356808104457 -1.4430208206176758 -1.3407564771226426 1.629580020904541 0.4560035467147827 False False
14068.052 2.0184414386749268 -1.8945094547667445 -1.4429755210876465 -1.3408494156650086 1.6295596361160278 0.45603325963020325 False False
14068.072 2.0183966159820557 -1.8944937191405238 -1.4429832696914673 -1.340797023182251 1.629616379737854 0.45605745911598206 False False
14068.091999999999 2.0184168815612793 -1.8944560490050257 -1.4429799318313599 -1.3407527816346665 1.629563808441162 0.456012487411499 False False
14068.112 2.0184662342071533 -1.8945232830443324 -1.4429842233657837 -1.3407482516816636 1.629591941833496 0.45600056648254395 False False
14068.132 2.0184457302093506 -1.894475599328512 -1.4430240392684937 -1.3407810193351288 1.6295998096466064 0.4559946060180664 False False
14068.152 2.0184168815612793 -1.894480367700094 -1.4430078268051147 -1.3407569390586396 1.6295838356018066 0.4559870958328247 False False
14068.171999999999 2.0184383392333984 -1.8945094547667445 -1.4429470300674438 -1.3407367777875443 1.6295838356018066 0.4559495747089386 False False
14068.192 2.0183842182159424 -1.8945337734618128 -1.4430036544799805 -1.3407610368779679 1.6295720338821411 0.456012487411499 False False
14068.212 2.0184590816497803 -1.8944813213744105 -1.4429627656936646 -1.3407646876624604 1.6295719146728516 0.4560244381427765 False False
14068.232 2.0184004306793213 -1.8944937191405238 -1.4430197477340698 -1.3408171397498627 1.629591941833496 0.4560035169124603 False False
14068.251999999999 2.0184123516082764 -1.8945003948607386 -1.4429832696914673 -1.340772957806923 1.629563808441162 0.45601987838745117 False False
14068.271999999999 2.0184051990509033 -1.8945838413634242 -1.4429470300674438 -1.3407810193351288 1.6296324729919434 0.456012487411499 False False
14068.292 2.018425941467285 -1.8944722614684046 -1.4429950714111328 -1.3407810193351288 1.6295956373214722 0.45602884888648987 False False
14068.312 2.0184547901153564 -1.8945309124388636 -1.4429545402526855 -1.3407527816346665 1.6295719146728516 0.4560365676879883 False False
14068.331999999999 2.0184295177459717 -1.8945385418333949 -1.4429789781570435 -1.3407688003829499 1.629579782485962 0.45602884888648987 False False
14068.351999999999 2.0184214115142822 -1.8944894276061 -1.4429993629455566 -1.3407728236964722 1.6295720338821411 0.45600053668022156 False False
14068.372 2.0184004306793213 -1.8944422207274378 -1.4429502487182617 -1.3408212971738358 1.6295759677886963 0.4560529589653015 False False
14068.392 2.018425703048706 -1.894458910027975 -1.4430358409881592 -1.3407850724509736 1.6296159029006958 0.45600804686546326 False False
14068.412 2.018479824066162 -1.8944694004454554 -1.4429383277893066 -1.3408170652440567 1.629591941833496 0.4560258388519287 False False
14068.431999999999 2.0183842182159424 -1.8945185146727503 -1.443031668663025 -1.3407851320556183 1.629579782485962 0.45601245760917664 False False
14068.452 2.0184080600738525 -1.8944770298399867 -1.4429874420166016 -1.34078103423629 1.6295998096466064 0.456012487411499 False False
14068.472 2.0183796882629395 -1.8945266209044398 -1.4430122375488281 -1.3408129823258896 1.6295597553253174 0.45599907636642456 False False
14068.492 2.018451690673828 -1.8945204220213832 -1.4430078268051147 -1.3407687705806275 1.6295720338821411 0.45600056648254395 False False
14068.511999999999 2.0184004306793213 -1.8945142231383265 -1.4429670572280884 -1.3407569390586396 1.629563808441162 0.45604851841926575 False False
14068.532 2.0184383392333984 -1.8944860897459925 -1.4429670572280884 -1.3407974255136033 1.6295998096466064 0.4560035169124603 False False
14068.552 2.0184214115142822 -1.8944961033263148 -1.4429470300674438 -1.34080524862323 1.6295558214187622 0.4559960663318634 False False
14068.572 2.0184214115142822 -1.8944560490050257 -1.4429755210876465 -1.3407933425954361 1.6295878887176514 0.45602884888648987 False False
14068.591999999999 2.0184874534606934 -1.8944679699339808 -1.4429460763931274 -1.3407647025636216 1.629591703414917 0.456045538187027 False False
14068.612 2.0183887481689453 -1.894522329370016 -1.4430078268051147 -1.3407770258239289 1.6295878887176514 0.4560244381427765 False False
14068.632 2.018425703048706 -1.8944894276061 -1.4429715871810913 -1.3407404136708756 1.6295720338821411 0.4560708701610565 False False
14068.652 2.0183842182159424 -1.8944646320738734 -1.4429993629455566 -1.3407851469567795 1.629580020904541 0.4560244381427765 False False
14068.671999999999 2.0184051990509033 -1.8945385418333949 -1.4429179430007935 -1.3407327097705384 1.6296037435531616 0.45603322982788086 False False
14068.692 2.0184168815612793 -1.8944722614684046 -1.4429587125778198 -1.3407687854817887 1.629628300666809 0.4560529291629791 False False
14068.712 2.0184710025787354 -1.8944694004454554 -1.443003535270691 -1.340789259677269 1.6295597553253174 0.456037700176239 False False
14068.732 2.0184457302093506 -1.8945356808104457 -1.4429264068603516 -1.3407851171544571 1.6295558214187622 0.456045538187027 False False
14068.751999999999 2.018393039703369 -1.894517560998434 -1.443000316619873 -1.340776966219284 1.6295677423477173 0.45605000853538513 False False
14068.771999999999 2.0184619426727295 -1.8945385418333949 -1.4429874420166016 -1.3408094209483643 1.6296156644821167 0.4560321569442749 False False
14068.792 2.0183887481689453 -1.894541402856344 -1.4429670572280884 -1.3407409650138398 1.6296037435531616 0.45597535371780396 False False
14068.812 2.0184338092803955 -1.8945094547667445 -1.4429426193237305 -1.3408416372588654 1.6295878887176514 0.45604997873306274 False False
14068.831999999999 2.0183606147766113 -1.8944722614684046 -1.4429916143417358 -1.3407207888415833 1.629568099975586 0.45601987838745117 False False
14068.851999999999 2.0184547901153564 -1.8945275745787562 -1.4429832696914673 -1.3407769215158005 1.6295918226242065 0.45594969391822815 False False
14068.872 2.0184051990509033 -1.8944722614684046 -1.442918062210083 -1.3408011061004181 1.6295759677886963 0.45600807666778564 False False
14068.892 2.0184428691864014 -1.8945027790465296 -1.4430078268051147 -1.3408171248487015 1.6295878887176514 0.4560198485851288 False False
14068.912 2.0184051990509033 -1.8945309124388636 -1.4429993629455566 -1.3407610219768067 1.6295280456542969 0.45607832074165344 False False
14068.931999999999 2.0184621810913086 -1.8944469890990199 -1.4429713487625122 -1.3407486838153382 1.6296076774597168 0.4560169279575348 False False
14068.952 2.0183725357055664 -1.89455046276235 -1.4429587125778198 -1.3408011061004181 1.6295597553253174 0.4560288190841675 False False
14068.972 2.018430233001709 -1.8945003948607386 -1.4429874420166016 -1.340808929210045 1.6295597553253174 0.45602887868881226 False False
14068.992 2.0184295177459717 -1.8945142231383265 -1.4429789781570435 -1.3407687854817887 1.6295839548110962 0.45606929063796997 False False
14069.011999999999 2.0184004306793213 -1.8944422207274378 -1.4429587125778198 -1.3408011359027405 1.6295958757400513 0.45598718523979187 False False
14069.032 2.0184500217437744 -1.8945003948607386 -1.4429960250854492 -1.3407687854817887 1.6295558214187622 0.4560079872608185 False False
14069.052 2.018381357192993 -1.8945094547667445 -1.4429383277893066 -1.3408171248487015 1.629551887512207 0.4559752345085144 False False
14069.072 2.018430233001709 -1.8945142231383265 -1.442967176437378 -1.340752751832344 1.6296076774597168 0.4559946060180664 False False
14069.091999999999 2.018447160720825 -1.8944937191405238 -1.4429867267608643 -1.3407770258239289 1.6296037435531616 0.4560288190841675 False False
14069.112 2.018425941467285 -1.8944980106749476 -1.4429545402526855 -1.3407811236432572 1.629551887512207 0.4560410678386688 False False
14069.132 2.0184123516082764 -1.8945094547667445 -1.4429960250854492 -1.340760589843132 1.6296204328536987 0.45600804686546326 False False
14069.152 2.0184338092803955 -1.894475599328512 -1.4429545402526855 -1.3407933574965973 1.6295677423477173 0.4560244083404541 False False
14069.171999999999 2.0184004306793213 -1.8944913349547328 -1.4429470300674438 -1.340789259677269 1.629515290260315 0.4560154378414154 False False
14069.192 2.0184738636016846 -1.8945051632323207 -1.4430078268051147 -1.340776951318123 1.629607915878296 0.45600804686546326 False False
14069.212 2.018425703048706 -1.8944531879820765 -1.4429670572280884 -1.3407610219768067 1.6296122074127197 0.45602771639823914 False False
14069.232 2.0184214115142822 -1.894545694390768 -1.443006992340088 -1.3408253502896805 1.6296122074127197 0.4559960961341858 False False
14069.251999999999 2.018404960632324 -1.8944722614684046 -1.4429993629455566 -1.3407605749419709 1.6295878887176514 0.456045538187027 False False
14069.271999999999 2.018479824066162 -1.8945094547667445 -1.4430028200149536 -1.3407810193351288 1.6295838356018066 0.45607075095176697 False False
14069.292 2.0184168815612793 -1.894484659234518 -1.4429503679275513 -1.3407646876624604 1.6295998096466064 0.45604851841926575 False False
14069.312 2.0184500217437744 -1.8944679699339808 -1.4429755210876465 -1.3407687705806275 1.629563808441162 0.4560544490814209 False False
14069.331999999999 2.0184338092803955 -1.8945003948607386 -1.4429755210876465 -1.3407564175179978 1.6295961141586304 0.45603659749031067 False False
14069.351999999999 2.018409490585327 -1.894480367700094 -1.4429799318313599 -1.3408535730889817 1.6295838356018066 0.4560020864009857 False False
14069.372 2.0184168815612793 -1.8945051632323207 -1.4429670572280884 -1.340785102253296 1.6295270919799805 0.45601987838745117 False False
14069.392 2.0184428691864014 -1.8944632015623988 -1.4430358409881592 -1.340785102253296 1.6295759677886963 0.45602133870124817 False False
14069.412 2.0184292793273926 -1.8945518932738246 -1.4429789781570435 -1.340821312074997 1.629591941833496 0.4560169279575348 False False
14069.431999999999 2.0184168815612793 -1.8945476017394007 -1.4429874420166016 -1.3408052933267136 1.629600167274475 0.4559961259365082 False False
14069.452 2.018409490585327 -1.8944722614684046 -1.4430283308029175 -1.3407610219768067 1.6295801401138306 0.456012487411499 False False
14069.472 2.0184168815612793 -1.8944961033263148 -1.4429916143417358 -1.3407892745784302 1.6295838356018066 0.4560288190841675 False False
14069.492 2.018479824066162 -1.8944646320738734 -1.4430121183395386 -1.3407450032285233 1.6295878887176514 0.4560243785381317 False False
14069.732 2.0184500217437744 -1.8944813213744105 -1.4430121183395386 -1.340740979915001 1.6295801401138306 0.4560125172138214 False False
14069.751999999999 2.0184576511383057 -1.8944980106749476 -1.4429631233215332 -1.3407892745784302 1.6295878887176514 0.4560169279575348 False False
14069.771999999999 2.018447160720825 -1.8944651089110316 -1.443003535270691 -1.3408416521600266 1.629563808441162 0.4560169279575348 False False
14069.792 2.0184590816497803 -1.8945051632323207 -1.4429832696914673 -1.3408171248487015 1.6295719146728516 0.4560648500919342 False False
14069.812 2.0184664726257324 -1.8944980106749476 -1.4430121183395386 -1.3407687705806275 1.6295514106750488 0.4559990465641022 False False
14069.831999999999 2.0184383392333984 -1.8945094547667445 -1.4429916143417358 -1.3408212524703522 1.6296038627624512 0.456045538187027 False False
14069.851999999999 2.0184547901153564 -1.8945428333678187 -1.4429832696914673 -1.3408093464425583 1.6295430660247803 0.4560244083404541 False False
14069.872 2.0184547901153564 -1.894484659234518 -1.4430238008499146 -1.3407727491906662 1.6295318603515625 0.45605745911598206 False False
14069.892 2.0183932781219482 -1.894522329370016 -1.442967176437378 -1.3407810193351288 1.6295678615570068 0.456045538187027 False False
14069.912 2.0183796882629395 -1.8944679699339808 -1.4429832696914673 -1.3407404881766816 1.629563808441162 0.45600348711013794 False False
14069.931999999999 2.0184338092803955 -1.894522329370016 -1.4429874420166016 -1.3408211034587403 1.6296120882034302 0.456033319234848 False False
14069.952 2.018409490585327 -1.8945003948607386 -1.442991852760315 -1.340797410612442 1.6296122074127197 0.4560079872608185 False False
14069.972 2.0184292793273926 -1.8945142231383265 -1.4430006742477417 -1.3408011061004181 1.6295719146728516 0.45602884888648987 False False
14069.992 2.0184338092803955 -1.894522329370016 -1.442949891090393 -1.3407610219768067 1.629555583000183 0.45601245760917664 False False
14070.011999999999 2.0184168815612793 -1.894522329370016 -1.4430170059204102 -1.3407728236964722 1.62958824634552 0.456045538187027 False False
14070.032 2.018409490585327 -1.8945185146727503 -1.4430214166641235 -1.3408052337220688 1.6295477151870728 0.45602884888648987 False False
14070.052 2.018463611602783 -1.8945051632323207 -1.4430155754089355 -1.3408214908889313 1.629600167274475 0.45601245760917664 False False
14070.072 2.0184123516082764 -1.8944603405394496 -1.4429993629455566 -1.3407367926887055 1.6295801401138306 0.4560169279575348 False False
14070.091999999999 2.018409490585327 -1.8945595226683558 -1.4429755210876465 -1.3407331270030518 1.6295841932296753 0.4560243487358093 False False
14070.112 2.018463611602783 -1.8944937191405238 -1.442949891090393 -1.340768815284111 1.6295596361160278 0.4559842050075531 False False
14070.132 2.0184123516082764 -1.8944770298399867 -1.4429631233215332 -1.340797023182251 1.6296120882034302 0.4560169279575348 False False
14070.152 2.0183677673339844 -1.8944894276061 -1.4430125951766968 -1.3407892149737854 1.6295998096466064 0.4559961259365082 False False
14070.171999999999 2.0183932781219482 -1.8945118389525355 -1.4429874420166016 -1.3407769811204453 1.6295841932296753 0.456045538187027 False False
14070.192 2.0184755325317383 -1.8945428333678187 -1.44300377368927 -1.340797321205475 1.629591941833496 0.4559990465641022 False False
14070.212 2.0184168815612793 -1.8944632015623988 -1.4429874420166016 -1.340793029671051 1.629616379737854 0.45600804686546326 False False
14070.232 2.0184051990509033 -1.894522329370016 -1.442971110343933 -1.3408292841962357 1.6295801401138306 0.45604848861694336 False False
14070.251999999999 2.0183961391448975 -1.8944894276061 -1.442991852760315 -1.3407450777343293 1.6295838356018066 0.4560365676879883 False False
14070.271999999999 2.018463373184204 -1.8945385418333949 -1.4429423809051514 -1.340785102253296 1.6296038627624512 0.45596936345100403 False False
14070.292 2.018447160720825 -1.894522329370016 -1.4429874420166016 -1.340817005639412 1.6295795440673828 0.4560169279575348 False False
14070.312 2.0184123516082764 -1.8944961033263148 -1.4430080652236938 -1.3407610070756455 1.6296038627624512 0.4560168981552124 False False
14070.331999999999 2.0184295177459717 -1.8945094547667445 -1.4430125951766968 -1.3407770705274125 1.6295956373214722 0.4560619294643402 False False
14070.351999999999 2.018425703048706 -1.8945685825743617 -1.4429712295532227 -1.3408091527274628 1.6295472383499146 0.4560125172138214 False False
14070.372 2.018381118774414 -1.8945266209044398 -1.4429543018341064 -1.3408169460347672 1.629591941833496 0.4560244083404541 False False
14070.392 2.0183961391448975 -1.8944813213744105 -1.4430170059204102 -1.3408210289529343 1.629660725593567 0.45600804686546326 False False
14070.671999999999 2.0184383392333984 -1.8945094547667445 -1.4429668188095093 -1.3407811385444184 1.6295713186264038 0.4560648500919342 False False
14070.692 2.018425703048706 -1.8944856129088343 -1.44300377368927 -1.3408009868911286 1.629563570022583 0.45605000853538513 False False
14070.712 2.0183961391448975 -1.894522329370016 -1.4430081844329834 -1.3407850873521348 1.6295961141586304 0.4559946060180664 False False
14070.732 2.0184214115142822 -1.8944937191405238 -1.4429993629455566 -1.3407370311072846 1.629551887512207 0.4560169279575348 False False
14070.751999999999 2.0184426307678223 -1.8944722614684046 -1.442971110343933 -1.3408288073590775 1.6295961141586304 0.4560827314853668 False False
14070.771999999999 2.0184051990509033 -1.8945266209044398 -1.4429467916488647 -1.3407689046910782 1.629555583000183 0.45607829093933105 False False
14070.792 2.0184338092803955 -1.8944813213744105 -1.4429874420166016 -1.3407134276679535 1.629563570022583 0.4560244083404541 False False
14070.812 2.0184295177459717 -1.894517560998434 -1.442954182624817 -1.3407689046910782 1.6295477151870728 0.4560410976409912 False False
14070.831999999999 2.0184051990509033 -1.8944770298399867 -1.442933440208435 -1.3408169162324448 1.629591941833496 0.45601239800453186 False False
14070.851999999999 2.0184500217437744 -1.8945266209044398 -1.4429874420166016 -1.340808944111206 1.6295514106750488 0.456045538187027 False False
14070.872 2.0184619426727295 -1.894442697564596 -1.4429755210876465 -1.3407649558833619 1.629591941833496 0.45600059628486633 False False
14070.892 2.018375873565674 -1.894475599328512 -1.442949891090393 -1.3408089590123673 1.6295838356018066 0.45603659749031067 False False
14070.912 2.0184168815612793 -1.8944937191405238 -1.4430170059204102 -1.3408488196185608 1.6295394897460938 0.456012487411499 False False
14070.931999999999 2.0183889865875244 -1.8944770298399867 -1.4430080652236938 -1.3407570880702515 1.6295998096466064 0.4560244083404541 True False
14070.952 2.018413782119751 -1.894517560998434 -1.442971110343933 -1.3408130270293732 1.6296122074127197 0.4560410976409912 True False
14070.972 2.0183932781219482 -1.8944770298399867 -1.4429993629455566 -1.3407687705806275 1.6295878887176514 0.45601245760917664 True False
14070.992 2.018381357192993 -1.894491811791891 -1.443019986152649 -1.3407733601382752 1.6295759677886963 0.4559871256351471 True False
14071.011999999999 2.0184338092803955 -1.8945027790465296 -1.4430832862854004 -1.3405611676028748 1.6295961141586304 0.4559990465641022 True False
14071.032 2.018425226211548 -1.894480367700094 -1.4433482885360718 -1.340237857108452 1.629543662071228 0.45606040954589844 True False
14071.052 2.018481492996216 -1.8944632015623988 -1.44356369972229 -1.33999818683181 1.6295841932296753 0.4561125338077545 True False
14071.072 2.0184857845306396 -1.8945094547667445 -1.443861961364746 -1.3396267604878922 1.6295998096466064 0.4562714993953705 True False
14071.091999999999 2.0186028480529785 -1.8944350681700648 -1.444404125213623 -1.3391880255988617 1.629551887512207 0.4564676284790039 True False
14071.112 2.018690824508667 -1.8944484196104945 -1.4449529647827148 -1.3385888052037735 1.629499912261963 0.45667123794555664 True False
14071.132 2.018714189529419 -1.8945142231383265 -1.4457453489303589 -1.3377586019090195 1.6293714046478271 0.4569123685359955 True False
14071.152 2.018841505050659 -1.8945027790465296 -1.4467730522155762 -1.336772845392563 1.6293681859970093 0.4571059048175812 True False
14071.171999999999 2.018995761871338 -1.8944770298399867 -1.44808030128479 -1.3353834015182038 1.629219651222229 0.4575112760066986 True False
14071.192 2.0191338062286377 -1.8944736919798792 -1.4495971202850342 -1.3340224486640473 1.6291157007217407 0.45792293548583984 True False
14071.212 2.019334077835083 -1.894482751885885 -1.4514175653457642 -1.3321895015290757 1.6289955377578735 0.4584081172943115 True False
14071.232 2.019549608230591 -1.8944255314269007 -1.4535129070281982 -1.3300455969623108 1.628891944885254 0.4590039849281311 True False
14071.251999999999 2.0197417736053467 -1.8943869076170863 -1.4560084342956543 -1.3274067652276536 1.6286633014678955 0.459686815738678 True False
14071.271999999999 2.0200178623199463 -1.8943373165526332 -1.458743691444397 -1.3247369837811966 1.6285035610198975 0.460472971200943 True False
14071.292 2.020273447036743 -1.8943268261351527 -1.461745262145996 -1.321430505519249 1.6283435821533203 0.4613531231880188 True False
14071.312 2.020634412765503 -1.8941947422423304 -1.4650073051452637 -1.3181176048568268 1.628159523010254 0.46229085326194763 True False
14071.331999999999 2.020982503890991 -1.89418425182485 -1.4686371088027954 -1.3144854766181489 1.6278951168060303 0.4632715880870819 True False
14071.591999999999 2.02817964553833 -1.8931728802123011 -1.540079951286316 -1.2408829492381592 1.6232261657714844 0.4835459291934967 True False
14071.612 2.028923273086548 -1.8930913410582484 -1.5476065874099731 -1.2332758170417328 1.622701644897461 0.4857228100299835 True False
14071.632 2.029663562774658 -1.8929926357665003 -1.5552281141281128 -1.2253757578185578 1.6221814155578613 0.4878847897052765 True False
14071.652 2.030430555343628 -1.8928824863829554 -1.5629825592041016 -1.2172764402678986 1.6216336488723755 0.49015188217163086 True False
14071.671999999999 2.0312838554382324 -1.8927375278868617 -1.571211576461792 -1.2086945933154603 1.6211050748825073 0.49244096875190735 True False
14071.692 2.032149076461792 -1.8926621876158656 -1.5799031257629395 -1.2000958186439057 1.6205893754959106 0.4948602020740509 True False
14071.712 2.0330495834350586 -1.892564435998434 -1.5885660648345947 -1.1911436480334778 1.6199774742126465 0.4973619282245636 True False
14071.732 2.0338871479034424 -1.892393251458639 -1.5973681211471558 -1.18166075766597 1.6193809509277344 0.4998382329940796 True False
14071.751999999999 2.0348966121673584 -1.8922044239439906 -1.606787085533142 -1.1719912749579926 1.6187888383865356 0.5025359988212585 True False
14071.771999999999 2.035792112350464 -1.8922010860838832 -1.61662757396698 -1.1624946159175416 1.6181368827819824 0.5052117705345154 True False
14071.792 2.036780595779419 -1.8920675716795863 -1.6262662410736084 -1.1522733134082337 1.6175163984298706 0.5079919099807739 True False
14071.812 2.0379140377044678 -1.8918005428709925 -1.6362186670303345 -1.1418184799006958 1.616936445236206 0.5109236240386963 True False
14071.831999999999 2.0388567447662354 -1.8916965923705042 -1.6465446949005127 -1.1314823490432282 1.6162281036376953 0.513815701007843 True False
14071.851999999999 2.039780855178833 -1.8916789493956507 -1.6563574075698853 -1.121453807955124 1.615507960319519 0.5166060924530029 True False
14071.872 2.0408284664154053 -1.8914014301695765 -1.6657789945602417 -1.111230031853058 1.6149036884307861 0.519354522228241 True False
14071.892 2.041813850402832 -1.8912707767882289 -1.6752777099609375 -1.101741449241974 1.6142672300338745 0.5219792723655701 True False
14071.912 2.0425727367401123 -1.891261716882223 -1.6843832731246948 -1.0927149516395112 1.6136837005615234 0.5245572328567505 True False
14071.931999999999 2.0435051918029785 -1.8911038837828578 -1.6929839849472046 -1.0833370846560975 1.6131031513214111 0.5270618796348572 True False
14071.952 2.0444703102111816 -1.8908993206419886 -1.7014977931976318 -1.0745589894107361 1.6126275062561035 0.5294066667556763 True False
14071.972 2.0451653003692627 -1.8908950291075648 -1.709972620010376 -1.0662906926921387 1.6119868755340576 0.5317690968513489 True False
14071.992 2.0459487438201904 -1.8908077679076136 -1.7177791595458984 -1.0579871100238343 1.61137855052948 0.5340282320976257 True False
14072.011999999999 2.046842575073242 -1.8905579052367152 -1.7252968549728394 -1.0498800438693543 1.61102294921875 0.5362421870231628 True False
14072.032 2.047513246536255 -1.8904663525023402 -1.7329740524291992 -1.042315201168396 1.6105185747146606 0.5383235812187195 True False
14072.052 2.048105001449585 -1.8904530010619105 -1.740296721458435 -1.0350732964328309 1.6099977493286133 0.5403906106948853 True False
14072.072 2.048884630203247 -1.8903504810728968 -1.7469286918640137 -1.0278746646693726 1.609602689743042 0.5423067808151245 True False
14072.091999999999 2.0496466159820557 -1.890158315698141 -1.7534372806549072 -1.0209602874568482 1.6091502904891968 0.5442189574241638 True False
14072.112 2.050206184387207 -1.8901306591429652 -1.760097622871399 -1.014559583072998 1.608674168586731 0.5460466146469116 True False
14072.132 2.0508129596710205 -1.8900910816588343 -1.7663617134094238 -1.0083510440639039 1.608249545097351 0.5477415323257446 True False
14072.152 2.0513970851898193 -1.8899947605528773 -1.7719157934188843 -1.0022792381099244 1.6079179048538208 0.5494407415390015 True False
14072.171999999999 2.0519773960113525 -1.889862676660055 -1.7773191928863525 -0.9966377180865784 1.6075501441955566 0.5510190725326538 True False
14072.192 2.0524613857269287 -1.8898426494994105 -1.7825042009353638 -0.9912163776210328 1.6071616411209106 0.5525181293487549 True False
14072.212 2.052990436553955 -1.889773508111471 -1.787644863128662 -0.9860175412944336 1.606898307800293 0.5539171695709229 True False
14072.232 2.05346941947937 -1.8896657429137171 -1.7924482822418213 -0.9811504048160096 1.6065938472747803 0.5552407503128052 True False
14072.251999999999 2.0538690090179443 -1.8896051845946253 -1.7970242500305176 -0.97669471920047 1.6062737703323364 0.5565375685691833 True False
14072.271999999999 2.054321765899658 -1.8896190128722132 -1.8011837005615234 -0.9723470372012635 1.6060057878494263 0.5576925277709961 True False
14072.292 2.0547540187835693 -1.889567037621969 -1.8049678802490234 -0.9683062595180054 1.605785608291626 0.5587742328643799 True False
14072.312 2.055121660232544 -1.8894382915892542 -1.8084660768508911 -0.964553491478302 1.6054694652557373 0.5598347187042236 True False
14072.331999999999 2.055418014526367 -1.889446874658102 -1.8118363618850708 -0.9610485595515748 1.6052852869033813 0.5607366561889648 True False
14072.351999999999 2.0557124614715576 -1.889409681359762 -1.8149807453155518 -0.957909957771637 1.6050653457641602 0.5616539716720581 True False
14072.372 2.0560338497161865 -1.8893376789488734 -1.8178287744522095 -0.9550350469401856 1.6049171686172485 0.5624810457229614 True False
14072.392 2.0563182830810547 -1.8892861805357875 -1.8203835487365723 -0.9524521392634888 1.604769229888916 0.5632112622261047 True False
14072.412 2.056501626968384 -1.8892580471434535 -1.8227895498275757 -0.9501285713962098 1.6046010255813599 0.563824474811554 True False
14072.431999999999 2.0566976070404053 -1.8893023929991664 -1.8248060941696167 -0.9479488891414185 1.6044447422027588 0.5643930435180664 True False
14072.452 2.0568909645080566 -1.8892055950560511 -1.826513648033142 -0.9461484712413331 1.6043572425842285 0.5648596286773682 True False
14072.472 2.057013750076294 -1.8891774616637171 -1.8279716968536377 -0.9446503680995484 1.6042492389678955 0.5653563141822815 True False
14072.492 2.057060956954956 -1.8892022571959437 -1.8292686939239502 -0.943529800777771 1.6041690111160278 0.5656209588050842 True False
14072.511999999999 2.0571792125701904 -1.8891369305052699 -1.8300633430480957 -0.9425128263286133 1.6041290760040283 0.5659142136573792 True False
14072.532 2.0572586059570312 -1.8891617260374964 -1.8306407928466797 -0.9416866463473816 1.6041090488433838 0.5660431385040283 True False
14072.552 2.0572335720062256 -1.8891335926451625 -1.8310766220092773 -0.9413637083819886 1.6040570735931396 0.5661458373069763 True False
14072.572 2.0572736263275146 -1.8891531429686488 -1.8311967849731445 -0.9413517278483887 1.6040935516357422 0.5661368370056152 True False
14072.591999999999 2.057269334793091 -1.889186521569723 -1.831157922744751 -0.9413116735270997 1.6040493249893188 0.5660624504089355 True False
14072.612 2.057288646697998 -1.8891822300352992 -1.8311816453933716 -0.9413157266429444 1.6040492057800293 0.5661116242408752 True False
14072.632 2.057342529296875 -1.8891498051085414 -1.8311290740966797 -0.9413719338229676 1.6040172576904297 0.5661759376525879 True False
14072.652 2.057332754135132 -1.8891369305052699 -1.8311290740966797 -0.9413395088962098 1.603976845741272 0.5661880970001221 True False
14072.671999999999 2.057340383529663 -1.8892151317992152 -1.8311853408813477 -0.9413399261287232 1.604029655456543 0.5662417411804199 True False
14072.692 2.057389974594116 -1.88914217571401 -1.831160545349121 -0.9413600128940125 1.6040256023406982 0.5662539601325989 True False
14072.712 2.0573694705963135 -1.8891378841795863 -1.8312346935272217 -0.9413357538035889 1.604029655456543 0.5662569403648376 True False
14072.732 2.057332754135132 -1.8891650638976039 -1.8312010765075684 -0.9412874144366761 1.6040089130401611 0.5662270784378052 True False
14072.751999999999 2.0573856830596924 -1.8891335926451625 -1.8312216997146606 -0.9413719338229676 1.6039726734161377 0.5662970542907715 True False
14072.771999999999 2.0574018955230713 -1.8891822300352992 -1.8312259912490845 -0.9413276475718995 1.6040089130401611 0.5662315487861633 True False
14072.792 2.057332754135132 -1.889170309106344 -1.8312010765075684 -0.9413480323604126 1.6040256023406982 0.5662717819213867 True False
14072.812 2.0573489665985107 -1.8891250095763148 -1.831302523612976 -0.9413194221309205 1.603976845741272 0.5662103295326233 True False
14072.831999999999 2.0573618412017822 -1.8891669712462367 -1.8312216997146606 -0.9412833017161866 1.6040256023406982 0.5662717819213867 True False
14072.851999999999 2.057360887527466 -1.8891340694823207 -1.8311643600463867 -0.9413157266429444 1.604121446609497 0.5662598609924316 True False
14072.872 2.0574328899383545 -1.8890606365599574 -1.831164836883545 -0.9412961167148133 1.6040971279144287 0.5662598609924316 True False
14072.892 2.057352066040039 -1.8891016445555628 -1.8311967849731445 -0.9412792486003418 1.6039845943450928 0.5662926435470581 True False
14072.912 2.0573174953460693 -1.8890930614867152 -1.8311909437179565 -0.9414120477489014 1.6038810014724731 0.5662182569503784 True False
14072.931999999999 2.0572335720062256 -1.8878513775267542 -1.830030918121338 -0.9408838909915467 1.603252649307251 0.5664393901824951 True False
14072.952 2.057197332382202 -1.8876453838744105 -1.82927668094635 -0.9397793573192139 1.603448748588562 0.5664498209953308 True False
14072.972 2.0573606491088867 -1.8877603016295375 -1.8293126821517944 -0.9398189944079895 1.6033687591552734 0.5663435459136963 True False
14072.992 2.0573019981384277 -1.8879443607726039 -1.82927668094635 -0.9398272794536133 1.603621006011963 0.566318154335022 True False
14073.011999999999 2.0573904514312744 -1.8881217441954554 -1.8293601274490356 -0.9400117558291932 1.6036291122436523 0.5662538409233093 True False
14073.032 2.0573816299438477 -1.8882338009276332 -1.829439640045166 -0.939958469276764 1.6037887334823608 0.5663164854049683 True False
14073.052 2.057307243347168 -1.8883410892882289 -1.8295801877975464 -0.9400748175433655 1.6038570404052734 0.5662450194358826 True False
14073.072 2.057372570037842 -1.888414045373434 -1.8296765089035034 -0.9401626151851197 1.6039011478424072 0.5661747455596924 True False
14073.091999999999 2.0573770999908447 -1.8884326420226039 -1.8297162055969238 -0.940166251068451 1.6039769649505615 0.5661669373512268 True False
14073.112 2.057401418685913 -1.8885671101012171 -1.8298048973083496 -0.9402337831309815 1.6040211915969849 0.566192626953125 True False
14073.132 2.057368040084839 -1.8885933361449183 -1.829965591430664 -0.9403138321689148 1.6040611267089844 0.5661684274673462 True False
14073.152 2.0574536323547363 -1.8886810741820277 -1.8299907445907593 -0.9404580754092713 1.6040332317352295 0.5662208199501038 True False
14073.171999999999 2.0574862957000732 -1.888799329797262 -1.8301448822021484 -0.9404538434794922 1.6040213108062744 0.5661759376525879 True False
14073.192 2.0574698448181152 -1.8887940845885218 -1.8302515745162964 -0.9404018086246033 1.6040130853652954 0.5661520957946777 True False
14073.212 2.0574564933776855 -1.8888613186278285 -1.8304373025894165 -0.9403298658183594 1.604101300239563 0.566168487071991 True False
14073.232 2.0574684143066406 -1.8889037571349085 -1.830466866493225 -0.9402542275241395 1.6041295528411865 0.5662298202514648 True False
14073.251999999999 2.057454824447632 -1.8890453777708949 -1.8304556608200073 -0.9402100008777161 1.6040890216827393 0.5661759376525879 True False
14073.271999999999 2.0574684143066406 -1.8891297779478968 -1.8304715156555176 -0.9402223390391846 1.6041131019592285 0.5661357045173645 True False
14073.292 2.057446002960205 -1.889146467248434 -1.8305166959762573 -0.9401863378337403 1.6041213274002075 0.5662090182304382 True True
14073.312 2.057474374771118 -1.8890911541380824 -1.8304669857025146 -0.9402223390391846 1.6040771007537842 0.5662000179290771 True True
14073.331999999999 2.0573458671569824 -1.8883773289122523 -1.8307682275772095 -0.9404617112926026 1.6040692329406738 0.566192626953125 True True
14073.351999999999 2.0573174953460693 -1.8882752857603968 -1.8306959867477417 -0.9413002890399476 1.604093074798584 0.5660535097122192 True True
14073.372 2.057220220565796 -1.8883396587767542 -1.8302981853485107 -0.9418788713267823 1.6041896343231201 0.5658438801765442 True True
14073.392 2.0571446418762207 -1.8885628185667933 -1.8294988870620728 -0.9431836766055604 1.6042134761810303 0.5655359625816345 True True
14073.412 2.0570504665374756 -1.8888055286803187 -1.828287959098816 -0.9451795977405091 1.6042808294296265 0.5651572942733765 True True
14073.431999999999 2.056837320327759 -1.8892394504942835 -1.8268461227416992 -0.9470680517009278 1.6045061349868774 0.5647354125976562 True True
14073.452 2.056640625 -1.8895908794798792 -1.825192928314209 -0.9493515652469178 1.6045249700546265 0.5641759634017944 True True
14073.472 2.0563838481903076 -1.890081068078512 -1.823328971862793 -0.9517280024341126 1.604701280593872 0.5635804533958435 True True
14073.492 2.056116819381714 -1.8904792271056117 -1.8213883638381958 -0.9542907041362305 1.6048415899276733 0.5629597306251526 True True
14073.511999999999 2.0558009147644043 -1.890907426873678 -1.8191672563552856 -0.9571855825236817 1.6050653457641602 0.5621851086616516 True True
14073.532 2.0555500984191895 -1.891083379785055 -1.8166576623916626 -0.960335986023285 1.6053059101104736 0.5613620281219482 True True
14073.552 2.055171251296997 -1.8910919628539027 -1.8138090372085571 -0.9637661737254639 1.6054654121398926 0.5605588555335999 True True
14073.572 2.0547947883605957 -1.891038557092184 -1.8101744651794434 -0.9668078583529969 1.6056097745895386 0.5594819188117981 True True
14073.591999999999 2.054584503173828 -1.890529295007223 -1.8053144216537476 -0.9697591227344056 1.605982780456543 0.5583793520927429 True True
14073.612 2.054280996322632 -1.8899904690184535 -1.8002667427062988 -0.9739192885211487 1.6061655282974243 0.5572260022163391 True True
14073.632 2.053708076477051 -1.889907022515768 -1.7957009077072144 -0.9786829513362427 1.6063700914382935 0.5560007095336914 True True
14073.652 2.053257942199707 -1.8898335895934046 -1.790921688079834 -0.9832300704768677 1.6066898107528687 0.5546771287918091 True True
14073.671999999999 2.0528557300567627 -1.8897181950011195 -1.7855103015899658 -0.9879012864879151 1.6070382595062256 0.5532737970352173 True True
14073.692 2.0522427558898926 -1.889738222161764 -1.7805174589157104 -0.9932637971690674 1.6073589324951172 0.5519212484359741 True True
14073.712 2.0517444610595703 -1.8898951015868128 -1.775625467300415 -0.9990669053843995 1.6077197790145874 0.5503730177879333 True True
14073.732 2.0511415004730225 -1.889853139916891 -1.7698254585266113 -1.0046117466739197 1.60807466506958 0.5487728118896484 True True
14073.751999999999 2.0506207942962646 -1.8898941479124964 -1.7637072801589966 -1.0107561510852356 1.6084742546081543 0.5470896363258362 True True
14073.771999999999 2.049992084503174 -1.8900186024107875 -1.7574132680892944 -1.0171284240535279 1.608854055404663 0.5453212857246399 True True
14073.792 2.0492916107177734 -1.8901006184019984 -1.7510180473327637 -1.0238320988467713 1.6093111038208008 0.5434966087341309 True True
14073.812 2.0486207008361816 -1.890233655969137 -1.7442994117736816 -1.030632035141327 1.6097098588943481 0.541607141494751 True True
14073.831999999999 2.047929048538208 -1.8903051815428675 -1.7373565435409546 -1.0378216069987793 1.6101830005645752 0.539591908454895 True True
14073.851999999999 2.047203302383423 -1.890543600121969 -1.7300457954406738 -1.0454114836505433 1.6106674671173096 0.537509560585022 True True
14073.872 2.046504259109497 -1.8905865154662074 -1.7224830389022827 -1.0531190794757386 1.611127257347107 0.5354292392730713 True True
14073.892 2.045654058456421 -1.8906260929503382 -1.7146836519241333 -1.0611325067332764 1.61167573928833 0.5331894159317017 True True
14073.912 2.044886827468872 -1.8908349476256312 -1.7067351341247559 -1.0694982570460816 1.6122159957885742 0.5309165716171265 True True
14073.931999999999 2.0440709590911865 -1.8909717998900355 -1.6983274221420288 -1.0782849055579682 1.6127915382385254 0.5285450220108032 True True
14073.952 2.0431199073791504 -1.8910309276976527 -1.6895146369934082 -1.086939201956131 1.613361120223999 0.526093065738678 True True
14073.972 2.042249917984009 -1.8910252056517542 -1.6806827783584595 -1.0959856671145936 1.6139451265335083 0.5234925150871277 True True
14073.992 2.0412750244140625 -1.8913442097105921 -1.6715831756591797 -1.1056630474380036 1.6144845485687256 0.5208966135978699 True True
14074.011999999999 2.0404391288757324 -1.8914748630919398 -1.6621509790420532 -1.1154281956008454 1.6151766777038574 0.518230140209198 True True
14074.032 2.039381980895996 -1.8915559254088343 -1.6522890329360962 -1.1252263647368927 1.6158294677734375 0.5154518485069275 True True
14074.052 2.038442611694336 -1.891627927819723 -1.6423107385635376 -1.135621802215912 1.616449236869812 0.5126813650131226 True True
14074.072 2.0374326705932617 -1.8918997249998988 -1.6323317289352417 -1.1460617047599335 1.6171327829360962 0.5097841024398804 True True
14074.091999999999 2.036372184753418 -1.891937871972555 -1.6221762895584106 -1.1562176805785676 1.617685079574585 0.5068533420562744 True True
14074.112 2.035465955734253 -1.8919855556883753 -1.612459659576416 -1.166330413227417 1.6184101104736328 0.5042071342468262 True True
14074.132 2.0345542430877686 -1.8922974071898402 -1.6031297445297241 -1.176119552259781 1.6190816164016724 0.5014661550521851 True True
14074.152 2.033527135848999 -1.8924290142455042 -1.593827486038208 -1.1855523151210328 1.6197024583816528 0.4989076256752014 True True
14074.171999999999 2.032604217529297 -1.8924533329405726 -1.5849682092666626 -1.1945869487575074 1.6202499866485596 0.49632537364959717 True True
14074.192 2.031830310821533 -1.8925234280028285 -1.576444149017334 -1.2037562292865296 1.620829701423645 0.4938611686229706 True True
14074.212 2.0309720039367676 -1.892801900903219 -1.5680310726165771 -1.2121941906264802 1.6213141679763794 0.4914700388908386 True True
14074.232 2.0301437377929688 -1.8927885494627894 -1.5599337816238403 -1.220409409408905 1.621902346611023 0.4891885221004486 True True
14074.251999999999 2.02935791015625 -1.8928843937315882 -1.552079677581787 -1.228556291466095 1.6223660707473755 0.48692500591278076 True True
14074.271999999999 2.0286059379577637 -1.8930489025511683 -1.544610619544983 -1.236515925531723 1.6229304075241089 0.4847795069217682 True True
14074.292 2.027916193008423 -1.8931557140746058 -1.5373014211654663 -1.2438879770091553 1.6233984231948853 0.48275020718574524 True True
14074.312 2.027240753173828 -1.8931666813292445 -1.5300546884536743 -1.2509644788554688 1.6238425970077515 0.48073479533195496 True True
14074.351999999999 2.025881767272949 -1.8934527836241664 -1.517176628112793 -1.2648551327041169 1.6247236728668213 0.47694337368011475 True True
14074.412 2.0240519046783447 -1.8936172924437464 -1.499082326889038 -1.2829307180694123 1.6259162425994873 0.4719937741756439 True True
14074.591999999999 2.020212411880493 -1.8942257366576136 -1.4606471061706543 -1.3227352660945435 1.6284202337265015 0.46093282103538513 True True
14074.612 2.0198843479156494 -1.8941971264281214 -1.4576451778411865 -1.3259805750897904 1.6286078691482544 0.4601166844367981 True True
14074.831999999999 2.018465042114258 -1.8943916759886683 -1.4430763721466064 -1.3406892579844971 1.6295520067214966 0.4561244547367096 True True
14074.851999999999 2.0179765224456787 -1.8944250545897425 -1.443054437637329 -1.3406692904284974 1.629563808441162 0.4559871554374695 True True
14074.872 2.017252206802368 -1.894416948358053 -1.4431629180908203 -1.3404938292554398 1.629559874534607 0.4558642506599426 True True
14074.892 2.0165560245513916 -1.8944207630553187 -1.443410873413086 -1.3402341169169922 1.6295597553253174 0.4557397961616516 True True
14074.912 2.0154340267181396 -1.8944293461241664 -1.4437716007232666 -1.3399501901916047 1.629531979560852 0.4556094706058502 True True
14074.931999999999 2.0138819217681885 -1.894388814965719 -1.4441957473754883 -1.3395474267056962 1.6295039653778076 0.455425500869751 True True
14074.952 2.0122594833374023 -1.8943778477110804 -1.4446799755096436 -1.33904022098098 1.6294560432434082 0.4552174210548401 True True
14074.972 2.0103042125701904 -1.8943568668761195 -1.4452385902404785 -1.338461236362793 1.6293156147003174 0.4549659192562103 True True
14074.992 2.0079426765441895 -1.8943053684630335 -1.4459012746810913 -1.3378187876990815 1.629207730293274 0.45467981696128845 True True
14075.011999999999 2.00533127784729 -1.8942586384215296 -1.4466567039489746 -1.3370238554528733 1.629164218902588 0.454349160194397 True True
14075.032 2.002641439437866 -1.8940707645811976 -1.4475346803665161 -1.336186484699585 1.6290514469146729 0.45403116941452026 True True
14075.052 1.9995510578155518 -1.8940125904478968 -1.4485642910003662 -1.3352322441390534 1.6289955377578735 0.45369166135787964 True True
14075.072 1.9960377216339111 -1.8939124546446742 -1.4495065212249756 -1.3343863648227234 1.6287753582000732 0.45325732231140137 True True
14075.091999999999 1.992426872253418 -1.89378084758901 -1.4505717754364014 -1.3333595109036942 1.6286952495574951 0.4527888298034668 True True
14075.112 1.9885504245758057 -1.8936854801573695 -1.4516907930374146 -1.3321262311986466 1.6286392211914062 0.4523351192474365 True True
14075.132 1.9842196702957153 -1.8935414753355921 -1.4529683589935303 -1.3309646856835862 1.6284716129302979 0.45183178782463074 True True
14075.152 1.9796152114868164 -1.8934651813902796 -1.4543325901031494 -1.329655261044838 1.6283152103424072 0.4512481093406677 True True
14075.171999999999 1.9749325513839722 -1.893336912194723 -1.4557572603225708 -1.3280983877233048 1.6281429529190063 0.45063257217407227 True True
14075.192 1.9698656797409058 -1.893184324304098 -1.4572025537490845 -1.3266925823739548 1.6279834508895874 0.4500052332878113 True True
14075.212 1.9645133018493652 -1.8930245838561 -1.4587615728378296 -1.3252320003560563 1.6278756856918335 0.4493957757949829 True True
14075.232 1.958989143371582 -1.892855783502096 -1.4603270292282104 -1.3235467088273545 1.627683162689209 0.44872817397117615 True True
14075.251999999999 1.953066349029541 -1.8927041492857875 -1.4620466232299805 -1.321791098718979 1.6275031566619873 0.4479762613773346 True True
14075.271999999999 1.9467747211456299 -1.8925525150694789 -1.4639002084732056 -1.3200228673270722 1.6272993087768555 0.4472064971923828 True True
14075.292 1.940268635749817 -1.8924204311766566 -1.4657294750213623 -1.3182619673064728 1.6270225048065186 0.4464329779148102 True True
14075.312 1.9335438013076782 -1.8921834431090296 -1.4676936864852905 -1.3162401479533692 1.626939296722412 0.44558605551719666 True True
14075.331999999999 1.9266740083694458 -1.89201082805776 -1.4698457717895508 -1.3141514223865052 1.6266666650772095 0.4447276294231415 True True
14075.351999999999 1.9193804264068604 -1.8917814693846644 -1.4719154834747314 -1.3121627134135743 1.626447081565857 0.44386938214302063 True True
14075.372 1.9116250276565552 -1.8915897808470667 -1.474195957183838 -1.3099105817130585 1.6262025833129883 0.44293010234832764 True True
14075.392 1.9038286209106445 -1.8914076290526332 -1.4765756130218506 -1.3075309556773682 1.6258987188339233 0.44197165966033936 True True
14075.412 1.895775318145752 -1.8912025890746058 -1.478990912437439 -1.3053113681128998 1.6256544589996338 0.44096553325653076 True True
14075.431999999999 1.8873642683029175 -1.8909994564452113 -1.4814659357070923 -1.3027995091727753 1.6254065036773682 0.43993082642555237 True True
14075.452 1.8784418106079102 -1.8907839260497035 -1.484000325202942 -1.3001414698413392 1.6250861883163452 0.43884819746017456 True True
14075.472 1.8695673942565918 -1.8905188045897425 -1.4866492748260498 -1.2977138024619599 1.6248223781585693 0.43770909309387207 True True
14075.492 1.8604354858398438 -1.8902784786620082 -1.48918616771698 -1.2950274509242554 1.6246428489685059 0.4366008937358856 True True
14075.511999999999 1.8508875370025635 -1.8900100193419398 -1.4919570684432983 -1.2922052902034302 1.6243864297866821 0.43545839190483093 True True
14075.532 1.84089195728302 -1.8896657429137171 -1.4947690963745117 -1.2894392770579834 1.623918056488037 0.43429338932037354 True True
14075.552 1.8309168815612793 -1.8893891773619593 -1.4977205991744995 -1.2863773268512269 1.6236903667449951 0.4329923093318939 True True
14075.572 1.820671558380127 -1.8892175159850062 -1.5007137060165405 -1.2834439140609284 1.623426079750061 0.4316849708557129 True True
14075.591999999999 1.8099253177642822 -1.8889042339720667 -1.5038353204727173 -1.280539022093155 1.6229016780853271 0.4304109513759613 True True
14075.612 1.7995617389678955 -1.8886290989317835 -1.5069583654403687 -1.277401940231659 1.6226301193237305 0.4291589856147766 True True
14075.632 1.7892297506332397 -1.8883615932860316 -1.510009527206421 -1.2743490201285859 1.622437834739685 0.427802711725235 True True
14075.652 1.7785066366195679 -1.8880726299681605 -1.5132206678390503 -1.271267370586731 1.6218851804733276 0.42653289437294006 True True
14075.671999999999 1.7680621147155762 -1.8878332577147425 -1.5162814855575562 -1.2683212024024506 1.6215535402297974 0.4253257215023041 True True
14075.692 1.7579026222229004 -1.8875209293761195 -1.5192078351974487 -1.2651972037604828 1.6214901208877563 0.4240037202835083 True True
14075.712 1.7472273111343384 -1.8871947727599085 -1.5222032070159912 -1.262275682096817 1.6209728717803955 0.4226472079753876 True True
14075.732 1.7365734577178955 -1.8868676624693812 -1.5253443717956543 -1.2591584485820313 1.6205530166625977 0.42145997285842896 True True
14075.751999999999 1.7264243364334106 -1.8866759739317835 -1.5282195806503296 -1.25611366451297 1.6204895973205566 0.4201330244541168 True True
14075.771999999999 1.715902328491211 -1.886343618432516 -1.5313626527786255 -1.253123329286911 1.6200648546218872 0.41890087723731995 True True
14075.792 1.705204963684082 -1.886099477807516 -1.534454345703125 -1.2501475673964997 1.6195333003997803 0.41759058833122253 True True
14075.812 1.6949023008346558 -1.8858362636961878 -1.5375844240188599 -1.247092382316925 1.619460940361023 0.4162597954273224 True True
14075.831999999999 1.684495210647583 -1.885566850701803 -1.5406690835952759 -1.2439656418612977 1.6190567016601562 0.41504794359207153 True True
14075.851999999999 1.673858880996704 -1.8852540455260218 -1.5438103675842285 -1.2410826844028016 1.6185450553894043 0.41376620531082153 True True
14075.872 1.6634823083877563 -1.8850318394102992 -1.546842098236084 -1.2378235322288056 1.618396520614624 0.4124065935611725 True True
14075.892 1.6529779434204102 -1.8847185573973597 -1.5497525930404663 -1.234912322168686 1.6180487871170044 0.4111699163913727 True True
14075.912 1.6424431800842285 -1.8843985996642054 -1.5528749227523804 -1.231847957973816 1.6176725625991821 0.4099123477935791 True True
14075.931999999999 1.6320854425430298 -1.884179254571432 -1.5558725595474243 -1.2288331550410767 1.6174324750900269 0.40857720375061035 True True
14075.952 1.621671438217163 -1.8838373623290003 -1.5588866472244263 -1.2257661086371918 1.6171444654464722 0.40728524327278137 True True
14075.972 1.6110824346542358 -1.883556982079977 -1.5619337558746338 -1.2227712732604523 1.616655945777893 0.4060400724411011 True True
14075.992 1.6006824970245361 -1.8832689724364222 -1.5649826526641846 -1.2197920841029664 1.6164922714233398 0.4047420918941498 True True
14076.011999999999 1.590111494064331 -1.882989069024557 -1.5680749416351318 -1.2166005832007905 1.6160924434661865 0.4034862220287323 True True
14076.032 1.5796018838882446 -1.882704874078268 -1.5712255239486694 -1.2137253743461152 1.6156518459320068 0.40218859910964966 True True
14076.052 1.5692405700683594 -1.8824612102904261 -1.5743426084518433 -1.2105866533568879 1.6154723167419434 0.4008534848690033 True True
14076.072 1.5587340593338013 -1.8822337589659632 -1.5773820877075195 -1.2075549823096772 1.6150476932525635 0.39960193634033203 True True
14076.091999999999 1.5481815338134766 -1.8818208179869593 -1.5804520845413208 -1.2046198707870026 1.6146554946899414 0.3983250558376312 True True
14076.112 1.5377672910690308 -1.8816453419127406 -1.583412766456604 -1.2015607219985505 1.614467740058899 0.39710497856140137 True True
14076.132 1.5272941589355469 -1.8813682995238246 -1.586505651473999 -1.1985135537436982 1.6141360998153687 0.39576998353004456 True True
14076.152 1.5167478322982788 -1.881068845788473 -1.5894665718078613 -1.1954102975181122 1.6136832237243652 0.3945096433162689 True True
14076.171999999999 1.5065407752990723 -1.8807651005186976 -1.5924657583236694 -1.1924796563437958 1.613507866859436 0.39316269755363464 True True
14076.192 1.4959789514541626 -1.8805095158019007 -1.5956001281738281 -1.1893386107734223 1.6130790710449219 0.39188578724861145 True True
14076.212 1.4853533506393433 -1.8801776371397914 -1.5986332893371582 -1.1863975387862702 1.6127156019210815 0.39058828353881836 True True
14076.232 1.4750280380249023 -1.8799225292601527 -1.6018739938735962 -1.1833415788463135 1.6125355958938599 0.3893396556377411 True True
14076.251999999999 1.4645196199417114 -1.8797189197936 -1.6049416065216064 -1.1802523595145722 1.612147331237793 0.3880797326564789 True True
14076.271999999999 1.4539389610290527 -1.8793312511839808 -1.6080899238586426 -1.1772545141032715 1.611727237701416 0.38679811358451843 True True
14076.292 1.4435709714889526 -1.8790532551207484 -1.6111308336257935 -1.1740946632674714 1.61151921749115 0.38548019528388977 True True
14076.312 1.43310546875 -1.878749509850973 -1.6141220331192017 -1.1712494057467957 1.6111385822296143 0.3842034935951233 True True
14076.331999999999 1.4224306344985962 -1.8784901104369105 -1.6171671152114868 -1.168188826446869 1.6107628345489502 0.3828740417957306 True True
14076.351999999999 1.412217378616333 -1.8782807789244593 -1.62003755569458 -1.165111706858017 1.6105705499649048 0.38159218430519104 True True
14076.372 1.4017343521118164 -1.8779074154295863 -1.6231833696365356 -1.1619464319995423 1.6101945638656616 0.3803374171257019 True True
14076.392 1.3910592794418335 -1.8777419529356898 -1.6262648105621338 -1.1590736371329804 1.6096701622009277 0.3790607154369354 True True
14076.412 1.3807387351989746 -1.8774053059019984 -1.629334568977356 -1.1560602945140381 1.6095623970031738 0.37775537371635437 True True
14076.431999999999 1.3702974319458008 -1.877141614953512 -1.6323784589767456 -1.1529034537127991 1.6091904640197754 0.3765028715133667 True True
14076.452 1.3595880270004272 -1.8768145046629847 -1.6355416774749756 -1.1500823956779023 1.6086856126785278 0.3751838803291321 True True
14076.472 1.3492697477340698 -1.876594682733053 -1.6386202573776245 -1.1468773645213624 1.6085301637649536 0.3738621771335602 True True
14076.492 1.3388500213623047 -1.8763038120665492 -1.6416288614273071 -1.1439289909652253 1.60819411277771 0.37266314029693604 True True
14076.511999999999 1.3282926082611084 -1.8759633503355921 -1.6446703672409058 -1.1408834916404267 1.6077539920806885 0.3713951110839844 True True
14076.532 1.3179105520248413 -1.8756681881346644 -1.6476197242736816 -1.137838528757431 1.607546091079712 0.37003031373023987 True True
14076.552 1.3073714971542358 -1.875453611413473 -1.6506834030151367 -1.1346659821322937 1.6071451902389526 0.3687548339366913 True True
14076.572 1.2968941926956177 -1.8751408062376917 -1.6537761688232422 -1.131728933458664 1.606745958328247 0.3674556314945221 True True
14076.591999999999 1.286491870880127 -1.874873777429098 -1.656834602355957 -1.1287430387786408 1.6066179275512695 0.36620891094207764 True True
14076.612 1.2759875059127808 -1.8746568165221156 -1.6599410772323608 -1.125613347893097 1.6061614751815796 0.3649442195892334 True True
14076.632 1.2654328346252441 -1.8742858372130335 -1.6630958318710327 -1.1226826471141358 1.6058337688446045 0.3636297881603241 True True
14076.652 1.2550404071807861 -1.8740416965880335 -1.666130542755127 -1.1195409160903473 1.6055810451507568 0.3623559772968292 True True
14076.671999999999 1.2445107698440552 -1.8738399944701136 -1.6692423820495605 -1.1166149836829682 1.6051567792892456 0.36110448837280273 True True
14076.692 1.2340459823608398 -1.8734828434386195 -1.6723713874816895 -1.113505409365036 1.6047204732894897 0.3597649037837982 True True
14076.712 1.223677158355713 -1.873239656487936 -1.675345540046692 -1.1104471546462555 1.6045929193496704 0.3584640920162201 True True
14076.732 1.2131969928741455 -1.8729320965208949 -1.6784284114837646 -1.1074246627143403 1.604192852973938 0.3572053015232086 True True
14076.751999999999 1.2025645971298218 -1.872632165948385 -1.6814042329788208 -1.1045352679542084 1.6037732362747192 0.3559631407260895 True True
14076.771999999999 1.1923270225524902 -1.8723203144469203 -1.68435537815094 -1.101361022596695 1.6037172079086304 0.35462915897369385 True True
14076.792 1.1817221641540527 -1.8720766506590785 -1.6873506307601929 -1.0983190697482605 1.6031923294067383 0.35338813066482544 True True
14076.812 1.1711760759353638 -1.871777196923727 -1.6905574798583984 -1.0954328042319794 1.6027841567993164 0.3520324230194092 True True
14076.831999999999 1.160840392112732 -1.871514459649557 -1.6935960054397583 -1.0922506314567109 1.6026966571807861 0.3507496118545532 True True
14076.851999999999 1.1502608060836792 -1.8712135754027308 -1.6966774463653564 -1.0892367225936432 1.6022326946258545 0.3495071232318878 True True
14076.872 1.1397327184677124 -1.8708740673460902 -1.6998534202575684 -1.0862349730781098 1.6018401384353638 0.34821662306785583 True True
14076.892 1.1294699907302856 -1.8707720241942347 -1.7029480934143066 -1.083196983938553 1.6016322374343872 0.34694141149520874 True True
14076.912 1.1188817024230957 -1.8704034290709437 -1.7059130668640137 -1.0801388782313843 1.601199984550476 0.3456786870956421 True True
14076.931999999999 1.108406901359558 -1.870108266870016 -1.708959698677063 -1.0771607917598267 1.6007921695709229 0.344409704208374 True True
14076.952 1.0980775356292725 -1.8698932133116664 -1.7119028568267822 -1.074107126598694 1.6007041931152344 0.3430471420288086 True True
14076.972 1.0874449014663696 -1.8696047268309535 -1.7149080038070679 -1.0709732931903382 1.6002280712127686 0.3418455421924591 True True
14076.992 1.0769356489181519 -1.8692900143065394 -1.717980980873108 -1.0680394929698487 1.5998280048370361 0.3405303955078125 True True
14077.011999999999 1.0666557550430298 -1.868993421594137 -1.7210081815719604 -1.06489713609729 1.59969961643219 0.33920666575431824 True True
14077.032 1.0559662580490112 -1.8687101803221644 -1.724115014076233 -1.061932460670807 1.5991874933242798 0.33794382214546204 True True
14077.052 1.0455000400543213 -1.8683935604491175 -1.727355718612671 -1.0589527052691956 1.5988595485687256 0.3366484045982361 True True
14077.072 1.0353070497512817 -1.8682342968382777 -1.730360507965088 -1.0558057588389893 1.5987437963485718 0.3353540897369385 True True
14077.091999999999 1.0246295928955078 -1.8678542576231898 -1.7335397005081177 -1.0528019231608887 1.5982234477996826 0.3341110646724701 True True
14077.112 1.0140116214752197 -1.867575307885641 -1.7364903688430786 -1.0498076242259522 1.5977751016616821 0.332803338766098 True True
14077.132 1.0038983821868896 -1.867350240746969 -1.7395151853561401 -1.0468242329410096 1.5977354049682617 0.3315480649471283 True True
14077.152 0.9931871891021729 -1.8670956097044886 -1.742590069770813 -1.0437299770167847 1.5971623659133911 0.3302002251148224 True True
14077.171999999999 0.9826030135154724 -1.8667642078795375 -1.7456494569778442 -1.0407427710345765 1.5968351364135742 0.3289794325828552 True True
14077.192 0.9724571108818054 -1.86662020305776 -1.7486519813537598 -1.0375840824893494 1.596754550933838 0.32765424251556396 True True
14077.212 0.9618400931358337 -1.866258283654684 -1.7516868114471436 -1.0346537393382569 1.596282958984375 0.32637614011764526 True True
14077.232 0.9512010812759399 -1.8658749065794886 -1.7549140453338623 -1.0316863817027588 1.5958547592163086 0.3250527083873749 True True
14077.251999999999 0.940995991230011 -1.8656665287413539 -1.7579376697540283 -1.0285397332957764 1.595810890197754 0.3237442672252655 True True
14077.271999999999 0.930431067943573 -1.8652798138060511 -1.7610565423965454 -1.0255371493152161 1.5952823162078857 0.3225475549697876 True True
14077.292 0.9198826551437378 -1.86511292080068 -1.7641493082046509 -1.0224783581546326 1.5948668718338013 0.3212519884109497 True True
