Andreas691667/Digital_Twin_UR/src/controller_monitor/test_results/test_motion1.csv
timestamp actual_q_0 actual_q_1 actual_q_2 actual_q_3 actual_q_4 actual_q_5 output_bit_register_65 output_bit_register_66
500.741 0.6957170963287354 -1.7702213726439417 -1.4705098867416382 -1.444449098115303 1.5261526107788086 0.370205283164978 False False
500.76099999999997 0.6957376599311829 -1.7702185116209925 -1.4705023765563965 -1.4444770228913804 1.5261729955673218 0.3702126741409302 False False
500.78099999999995 0.695692241191864 -1.770238538781637 -1.4704651832580566 -1.44441673279319 1.5261242389678955 0.3701963722705841 False False
500.801 0.6957041621208191 -1.7702585659422816 -1.4704890251159668 -1.4444289964488526 1.5261648893356323 0.37024569511413574 False False
500.82099999999997 0.6957700848579407 -1.7702585659422816 -1.4704844951629639 -1.4444248241237183 1.526132583618164 0.37026649713516235 False False
500.84099999999995 0.6956965923309326 -1.770205637017721 -1.4705098867416382 -1.4444370728782197 1.5260883569717407 0.3702038824558258 False False
500.861 0.6957409381866455 -1.770205637017721 -1.4704934358596802 -1.4444530767253418 1.526132583618164 0.3702259957790375 False False
500.881 0.6957170963287354 -1.7701903782286585 -1.4704681634902954 -1.4444530767253418 1.5261406898498535 0.37024569511413574 False False
500.90099999999995 0.6957085132598877 -1.7701932392516078 -1.4704681634902954 -1.4444248390248795 1.5261083841323853 0.37021711468696594 False False
500.921 0.6957581639289856 -1.7702018223204554 -1.4705053567886353 -1.4444411557963868 1.5261526107788086 0.37025898694992065 False False
500.941 0.6957085132598877 -1.7701975307860316 -1.470481514930725 -1.4444613319686432 1.5261609554290771 0.37022164463996887 False False
500.96099999999996 0.6956965923309326 -1.7702628574767054 -1.4704651832580566 -1.4444970947555085 1.5261485576629639 0.3702470362186432 False False
500.981 0.6957333087921143 -1.770177503625387 -1.4705307483673096 -1.4444847267917176 1.526132583618164 0.3702096939086914 False False
501.001 0.6956846117973328 -1.7702256641783656 -1.4704397916793823 -1.4444565039924164 1.5261001586914062 0.37024569511413574 False False
501.02099999999996 0.6957614421844482 -1.7702466450133265 -1.4704636335372925 -1.4444647294333954 1.5261567831039429 0.37020084261894226 False False
501.041 0.6956837177276611 -1.7702671490111292 -1.4705144166946411 -1.4444206965020676 1.5261164903640747 0.37020841240882874 False False
501.061 0.6957051753997803 -1.7702185116209925 -1.4704726934432983 -1.4444565188935776 1.526132583618164 0.37025007605552673 False False
501.08099999999996 0.6957170963287354 -1.7702423534789027 -1.4704681634902954 -1.4444450002959748 1.5261284112930298 0.37023377418518066 False False
501.101 0.6957700848579407 -1.770259519616598 -1.4705382585525513 -1.444453091626503 1.526160717010498 0.37022069096565247 False False
501.121 0.6957409381866455 -1.7702185116209925 -1.4704771041870117 -1.4444484126618882 1.5261526107788086 0.3702545166015625 False False
501.14099999999996 0.6957085132598877 -1.770205637017721 -1.4705053567886353 -1.4444408875754853 1.5261403322219849 0.37023821473121643 False False
501.161 0.6957376599311829 -1.7702099285521449 -1.4705218076705933 -1.444461317067482 1.5261890888214111 0.3702259659767151 False False
501.181 0.6957657933235168 -1.7702213726439417 -1.470486044883728 -1.4444450449994584 1.526120662689209 0.3702303469181061 False False
501.20099999999996 0.6957485675811768 -1.7702471218504847 -1.470463752746582 -1.4444571298411866 1.5261406898498535 0.37024256587028503 False False
501.221 0.69569993019104 -1.7702671490111292 -1.4704771041870117 -1.4444452834180375 1.5261566638946533 0.37022942304611206 False False
501.241 0.6957376003265381 -1.7702142200865687 -1.4705054759979248 -1.4444607210210343 1.526168942451477 0.37023377418518066 False False
501.26099999999997 0.6956836581230164 -1.7701689205565394 -1.470497965812683 -1.4444491279176255 1.526104211807251 0.3702501058578491 False False
501.28099999999995 0.6957204341888428 -1.770212312737936 -1.4704934358596802 -1.4443969291499634 1.5261001586914062 0.3702181875705719 False False
501.301 0.695720374584198 -1.7702142200865687 -1.470451831817627 -1.4444491279176255 1.5261443853378296 0.37024569511413574 False False
501.32099999999997 0.6957247257232666 -1.7702256641783656 -1.4704771041870117 -1.4444607359221955 1.5261284112930298 0.3702140748500824 False False
501.34099999999995 0.6957452297210693 -1.7702299557127894 -1.4705172777175903 -1.444480837588646 1.5261448621749878 0.3702216148376465 False False
501.361 0.6957690715789795 -1.7702051601805628 -1.4705262184143066 -1.4444886159947892 1.5260965824127197 0.37023377418518066 False False
501.381 0.6957323551177979 -1.7702061138548792 -1.470486044883728 -1.4444170755198975 1.5261489152908325 0.37025874853134155 False False
501.40099999999995 0.6957572102546692 -1.7701770267882289 -1.4704800844192505 -1.4444290113500138 1.526120662689209 0.3701965808868408 False False
501.421 0.6956846714019775 -1.7701689205565394 -1.4705142974853516 -1.4444607657245179 1.5261284112930298 0.3702457547187805 False False
501.441 0.6957982182502747 -1.7702466450133265 -1.470524787902832 -1.4444329899600525 1.5261284112930298 0.3702009618282318 False False
501.46099999999996 0.6957614421844482 -1.7701837025084437 -1.470459222793579 -1.444492907529213 1.5261526107788086 0.370192289352417 False False
501.481 0.6958024501800537 -1.7702142200865687 -1.4705337285995483 -1.4444686335376282 1.5261083841323853 0.3702128827571869 False False
501.501 0.6957657337188721 -1.7702557049193324 -1.4704920053482056 -1.4444610637477417 1.5261366367340088 0.3702172040939331 False False
501.52099999999996 0.6956880688667297 -1.7702390156187953 -1.4704965353012085 -1.4443972271731873 1.5261729955673218 0.3702009916305542 False False
501.541 0.6957170963287354 -1.7702299557127894 -1.470463752746582 -1.4444766652635117 1.5261729955673218 0.3701847493648529 False False
501.561 0.6957333087921143 -1.7702142200865687 -1.4704935550689697 -1.4444884669831772 1.5261609554290771 0.3702413737773895 False False
501.58099999999996 0.6957333087921143 -1.7702185116209925 -1.4704800844192505 -1.4444491577199479 1.5261526107788086 0.3702171742916107 False False
501.601 0.6957118511199951 -1.7702838383116664 -1.4705023765563965 -1.444441170697548 1.5261648893356323 0.3702129125595093 False False
501.621 0.6957699656486511 -1.7702390156187953 -1.4704726934432983 -1.4444686335376282 1.5261284112930298 0.3702043294906616 False False
501.64099999999996 0.6957818865776062 -1.7702208958067835 -1.4705097675323486 -1.4444530618241807 1.5261366367340088 0.3702129125595093 False False
501.661 0.6957074403762817 -1.7701732120909632 -1.4704890251159668 -1.4444411557963868 1.5261768102645874 0.3702327013015747 False False
501.681 0.6957409381866455 -1.7702166042723597 -1.4704430103302002 -1.444453091626503 1.526120662689209 0.37019670009613037 False False
501.70099999999996 0.6957364082336426 -1.770215173760885 -1.4704904556274414 -1.4444007736495514 1.5261731147766113 0.37024569511413574 False False
501.721 0.6957781314849854 -1.7702256641783656 -1.4704726934432983 -1.4444769483855744 1.5261485576629639 0.37017178535461426 False False
501.741 0.695798933506012 -1.7702228031554164 -1.4704726934432983 -1.4444089096835633 1.5261443853378296 0.3702251613140106 False False
501.76099999999997 0.6957290172576904 -1.7702051601805628 -1.4705009460449219 -1.4445294600776215 1.5261566638946533 0.370196670293808 False False
501.78099999999995 0.695749819278717 -1.7702094517149867 -1.4704771041870117 -1.444457159643509 1.5261247158050537 0.370201051235199 False False
501.801 0.695732057094574 -1.7701970539488734 -1.4705218076705933 -1.4444450002959748 1.5261648893356323 0.3702172338962555 False False
501.82099999999997 0.6957157254219055 -1.7702142200865687 -1.4704594612121582 -1.4444207412055512 1.5261366367340088 0.37024998664855957 False False
501.84099999999995 0.6957647800445557 -1.770247598687643 -1.4705097675323486 -1.4444531065276642 1.5261648893356323 0.37020862102508545 False False
501.861 0.6957201361656189 -1.7702719173827113 -1.4704978466033936 -1.444457159643509 1.5261406898498535 0.37022167444229126 False False
501.881 0.6957126259803772 -1.7702061138548792 -1.4704593420028687 -1.4444167178920289 1.5261166095733643 0.3702629804611206 False False
501.90099999999995 0.6957542300224304 -1.7701903782286585 -1.4705097675323486 -1.4444531065276642 1.5261242389678955 0.37019672989845276 False False
501.921 0.6957811713218689 -1.7701927624144496 -1.4704890251159668 -1.444509358411171 1.5261247158050537 0.3702259063720703 False False
501.941 0.6956962943077087 -1.7702018223204554 -1.470468282699585 -1.4444807034781952 1.5261366367340088 0.37021294236183167 False False
501.96099999999996 0.6957423090934753 -1.7702166042723597 -1.4705305099487305 -1.44441673279319 1.5261366367340088 0.37019985914230347 False False
501.981 0.6957573294639587 -1.7702228031554164 -1.4704771041870117 -1.4444207561067124 1.5261485576629639 0.37024569511413574 False False
502.001 0.695757269859314 -1.770243307153219 -1.4705053567886353 -1.4444370877793808 1.5261648893356323 0.37019675970077515 False False
502.02099999999996 0.6957201361656189 -1.7702375851073207 -1.4705172777175903 -1.4444089245847245 1.526132583618164 0.37021294236183167 False False
502.041 0.6957484483718872 -1.7702018223204554 -1.4704846143722534 -1.4444371324828644 1.5261609554290771 0.3702344596385956 False False
502.061 0.6957037448883057 -1.7702185116209925 -1.470514178276062 -1.444481061106064 1.5261932611465454 0.3702009916305542 False False
502.08099999999996 0.6956666111946106 -1.7701970539488734 -1.4704563617706299 -1.4444491130164643 1.526132583618164 0.37017616629600525 False False
502.101 0.695708155632019 -1.7701598606505335 -1.47048020362854 -1.4444647294333954 1.5261443853378296 0.3702499568462372 False False
502.121 0.6957170367240906 -1.7702676258482875 -1.47048020362854 -1.444416807298996 1.5260924100875854 0.37021294236183167 False False
502.14099999999996 0.6957007050514221 -1.7702752552428187 -1.4704684019088745 -1.444488765006401 1.5261567831039429 0.3702749013900757 False False
502.161 0.6956962943077087 -1.7702228031554164 -1.4704921245574951 -1.4444971245578309 1.5261082649230957 0.3702053725719452 False False
502.181 0.6956949234008789 -1.7702275715269984 -1.4705172777175903 -1.444484831099846 1.5261164903640747 0.3702172040939331 False False
502.20099999999996 0.6957290172576904 -1.7701970539488734 -1.4704978466033936 -1.4444411259940644 1.5261485576629639 0.3702129125595093 False False
502.221 0.6957038044929504 -1.7702676258482875 -1.4705053567886353 -1.4444770228913804 1.5261083841323853 0.37024566531181335 False False
502.241 0.6957573294639587 -1.7702275715269984 -1.4705259799957275 -1.4445134562304993 1.526128888130188 0.37028682231903076 False False
502.26099999999997 0.6957528591156006 -1.770182271996969 -1.4705379009246826 -1.444468767648079 1.5261164903640747 0.37023815512657166 False False
502.28099999999995 0.6957170367240906 -1.7701770267882289 -1.4705379009246826 -1.444449083214142 1.5261772871017456 0.37027060985565186 False False
502.301 0.6957007050514221 -1.77014221767568 -1.4704684019088745 -1.4444289964488526 1.5261648893356323 0.37027060985565186 False False
502.32099999999997 0.6957453489303589 -1.7702380619444789 -1.4704934358596802 -1.4444330644658585 1.5261043310165405 0.37024998664855957 False False
502.34099999999995 0.6957528591156006 -1.7702061138548792 -1.4704934358596802 -1.4444047522595902 1.5261526107788086 0.37022948265075684 False False
502.361 0.6957706212997437 -1.770247598687643 -1.4704684019088745 -1.4445249450257798 1.5261164903640747 0.37023377418518066 False False
502.381 0.6957036852836609 -1.770210405389303 -1.4705302715301514 -1.444464774136879 1.5261366367340088 0.37022948265075684 False False
502.40099999999995 0.6956828832626343 -1.770210405389303 -1.470472812652588 -1.4444847714952012 1.526160717010498 0.37024569511413574 False False
502.421 0.6957082152366638 -1.7702061138548792 -1.470509648323059 -1.4444728356650849 1.5261729955673218 0.3702054023742676 False False
502.441 0.6957245469093323 -1.7702228031554164 -1.4705084562301636 -1.444464774136879 1.5261567831039429 0.3702172636985779 False False
502.46099999999996 0.6957334876060486 -1.770247598687643 -1.470513939857483 -1.4444647592357178 1.5261526107788086 0.3702172338962555 False False
502.481 0.695708155632019 -1.7702018223204554 -1.4704477787017822 -1.4444248241237183 1.5261526107788086 0.37024998664855957 False False
502.501 0.695708155632019 -1.7702061138548792 -1.4704489707946777 -1.4444654297879715 1.5261526107788086 0.3702446520328522 False False
502.52099999999996 0.6957542896270752 -1.7702299557127894 -1.470484733581543 -1.4444047224572678 1.5261566638946533 0.3702259063720703 False False
502.541 0.6957126259803772 -1.7702390156187953 -1.4704890251159668 -1.4444290113500138 1.5261527299880981 0.37026354670524597 False False
502.561 0.6957200765609741 -1.7702318630614222 -1.4704445600509644 -1.4444888693145295 1.5261973142623901 0.3701799511909485 False False
502.58099999999996 0.6957170963287354 -1.7702375851073207 -1.4704641103744507 -1.4444654297879715 1.526160717010498 0.3702412545681 False False
502.601 0.6957215666770935 -1.7702018223204554 -1.470484733581543 -1.444468767648079 1.5261083841323853 0.3702383041381836 False False
502.621 0.6957617998123169 -1.7702375851073207 -1.4704564809799194 -1.444445015197136 1.5260961055755615 0.3702141344547272 False False
502.64099999999996 0.6957379579544067 -1.770210405389303 -1.4705290794372559 -1.4445010733655472 1.526132583618164 0.37019631266593933 False False
502.661 0.6956709623336792 -1.770243307153219 -1.4705334901809692 -1.4444126349738617 1.5260882377624512 0.3702383041381836 False False
502.681 0.6957587599754333 -1.770210405389303 -1.470542073249817 -1.4444370728782197 1.5261485576629639 0.37019336223602295 False False
502.70099999999996 0.6956843137741089 -1.770165582696432 -1.4704608917236328 -1.4444613319686432 1.526095986366272 0.3702292740345001 False False
502.721 0.6957082152366638 -1.7702185116209925 -1.4704976081848145 -1.4444490683129807 1.5261485576629639 0.3702501058578491 False False
502.741 0.6957306265830994 -1.7702018223204554 -1.470524787902832 -1.4444007140449067 1.5261849164962769 0.37019187211990356 False False
502.76099999999997 0.6956992745399475 -1.7702142200865687 -1.4704760313034058 -1.4444613319686432 1.5261567831039429 0.3702293038368225 False False
502.78099999999995 0.6957126259803772 -1.7702676258482875 -1.4705095291137695 -1.444449083214142 1.5261969566345215 0.37019187211990356 False False
502.801 0.695749819278717 -1.7701970539488734 -1.4704771041870117 -1.4444530767253418 1.526132583618164 0.37021705508232117 False False
502.82099999999997 0.6957200765609741 -1.7702390156187953 -1.4704890251159668 -1.4444769781878968 1.5261812210083008 0.3702082335948944 False False
502.84099999999995 0.6957409381866455 -1.7702051601805628 -1.4705463647842407 -1.444468767648079 1.5261366367340088 0.3702006936073303 False False
502.861 0.6957364678382874 -1.7701970539488734 -1.4705009460449219 -1.4444565039924164 1.5261242389678955 0.37022605538368225 False False
502.881 0.6957364678382874 -1.7702299557127894 -1.4704890251159668 -1.4444606763175507 1.5261485576629639 0.3702082633972168 False False
502.90099999999995 0.6957082152366638 -1.7702514133849085 -1.4704771041870117 -1.4444370728782197 1.526132583618164 0.3702096939086914 False False
502.921 0.6957260370254517 -1.7702018223204554 -1.4704316854476929 -1.4444248539260407 1.526132583618164 0.37022602558135986 False False
502.941 0.6957454085350037 -1.7702557049193324 -1.4704890251159668 -1.4444290113500138 1.5261526107788086 0.3702383041381836 False False
502.96099999999996 0.6957290172576904 -1.7702342472472132 -1.470443606376648 -1.4444330644658585 1.5261485576629639 0.3701799511909485 False False
502.981 0.6957781314849854 -1.7702185116209925 -1.4704804420471191 -1.4444047671607514 1.5261284112930298 0.37021708488464355 False False
503.001 0.6957200765609741 -1.7702661953368128 -1.4704804420471191 -1.444457159643509 1.5261366367340088 0.3702007234096527 False False
503.02099999999996 0.6957170963287354 -1.770210405389303 -1.4704803228378296 -1.444461317067482 1.526168942451477 0.37024274468421936 False False
503.041 0.6957706809043884 -1.770236154595846 -1.4704598188400269 -1.444476680164673 1.5261205434799194 0.37021708488464355 False False
503.061 0.6957290172576904 -1.7701927624144496 -1.4704521894454956 -1.444457159643509 1.526168942451477 0.37025466561317444 False False
503.08099999999996 0.6957245469093323 -1.7701813183226527 -1.470468521118164 -1.4444290411523362 1.526132583618164 0.3701888918876648 False False
503.101 0.695749819278717 -1.7702633343138636 -1.4704803228378296 -1.4444450300982972 1.5261284112930298 0.37019622325897217 False False
503.121 0.6957170963287354 -1.7701927624144496 -1.4704608917236328 -1.444461242561676 1.5261648893356323 0.37021416425704956 False False
503.14099999999996 0.6957364678382874 -1.7701598606505335 -1.4704608917236328 -1.4444687378457566 1.526128888130188 0.370259165763855 False False
503.161 0.6957364678382874 -1.7701770267882289 -1.4704890251159668 -1.444449098115303 1.526168942451477 0.370259165763855 False False
503.181 0.6957736611366272 -1.7702061138548792 -1.470484733581543 -1.444472761159279 1.5260924100875854 0.3702007532119751 False False
503.20099999999996 0.6957572102546692 -1.7702766857542933 -1.4705009460449219 -1.4444571149400254 1.526132583618164 0.37019625306129456 False False
503.221 0.6957007050514221 -1.7702228031554164 -1.4704684019088745 -1.4444330495646973 1.5261485576629639 0.3702006936073303 False False
503.241 0.6957662105560303 -1.7702886066832484 -1.470472812652588 -1.4444169116071244 1.5261892080307007 0.3702216148376465 False False
503.26099999999997 0.6957528591156006 -1.7702275715269984 -1.4704598188400269 -1.4444409620812912 1.526120662689209 0.3702501356601715 False False
503.28099999999995 0.6957082152366638 -1.7702256641783656 -1.4704890251159668 -1.4444491428187867 1.5261406898498535 0.37019622325897217 False False
503.301 0.6956754922866821 -1.7702342472472132 -1.4705214500427246 -1.4444927436164399 1.526168942451477 0.3701753318309784 False False
503.32099999999997 0.6957170963287354 -1.7702599964537562 -1.4704641103744507 -1.4444651913693924 1.5261001586914062 0.3702216148376465 False False
503.34099999999995 0.6957334876060486 -1.7702299557127894 -1.4704760313034058 -1.4444607508233567 1.526168942451477 0.37024569511413574 False False
503.361 0.695737898349762 -1.7701903782286585 -1.470496654510498 -1.4444570255330582 1.5261485576629639 0.3702591359615326 False False
503.381 0.695712685585022 -1.7701646290221156 -1.4704803228378296 -1.4444651317647477 1.5260961055755615 0.37022608518600464 False False
503.40099999999995 0.6957409381866455 -1.7702142200865687 -1.470513939857483 -1.4444570702365418 1.5261528491973877 0.37021705508232117 False False
503.421 0.6957038044929504 -1.7702185116209925 -1.470497727394104 -1.444433019762375 1.526132345199585 0.37022608518600464 False False
503.441 0.6957661509513855 -1.7701837025084437 -1.4704813957214355 -1.4444451940110703 1.5261077880859375 0.37023377418518066 False False
503.46099999999996 0.6957661509513855 -1.7701531849303187 -1.4704771041870117 -1.4444686484387894 1.5261608362197876 0.370238333940506 False False
503.481 0.6957780122756958 -1.7701879940428675 -1.4705215692520142 -1.44441311181102 1.5261366367340088 0.37024277448654175 False False
503.501 0.6956949830055237 -1.7701856098570765 -1.4705095291137695 -1.4444452089122315 1.5261648893356323 0.370208203792572 False False
503.52099999999996 0.6957321166992188 -1.7702766857542933 -1.4705009460449219 -1.4444650274566193 1.5261889696121216 0.370262086391449 False False
503.541 0.6957497596740723 -1.7702676258482875 -1.4705171585083008 -1.4444131714156647 1.5261043310165405 0.37017977237701416 False False
503.561 0.6957736015319824 -1.7701813183226527 -1.4705171585083008 -1.4444492024234314 1.5261366367340088 0.37023377418518066 False False
503.58099999999996 0.695695161819458 -1.7701970539488734 -1.4704890251159668 -1.4444171500257035 1.5261648893356323 0.37020814418792725 False False
503.601 0.6957290172576904 -1.7702342472472132 -1.4705142974853516 -1.4444452983191987 1.5261648893356323 0.37022164463996887 False False
503.621 0.6957365274429321 -1.7702018223204554 -1.470547080039978 -1.4444685888341446 1.5261043310165405 0.3702428340911865 False False
503.64099999999996 0.6957082748413086 -1.7702061138548792 -1.47053062915802 -1.4444765609553833 1.526132583618164 0.37014248967170715 False False
503.661 0.6957854628562927 -1.7701927624144496 -1.4704890251159668 -1.4444970202497025 1.5261485576629639 0.37026360630989075 False False
503.681 0.6957215070724487 -1.7702423534789027 -1.470463752746582 -1.444404737358429 1.5261566638946533 0.37019333243370056 False False
503.70099999999996 0.695712685585022 -1.7702018223204554 -1.4704800844192505 -1.4444728654674073 1.5261366367340088 0.37024277448654175 False False
503.721 0.6957484483718872 -1.7701927624144496 -1.4704800844192505 -1.4444687229445954 1.5261443853378296 0.37026360630989075 False False
503.741 0.6957258582115173 -1.7702542744078578 -1.4705218076705933 -1.4444330644658585 1.5261443853378296 0.3702546954154968 False False
503.76099999999997 0.695712685585022 -1.770243307153219 -1.4704444408416748 -1.444424883728363 1.5261526107788086 0.370212584733963 False False
503.78099999999995 0.6957452893257141 -1.7702390156187953 -1.4705053567886353 -1.444440857773163 1.526132583618164 0.370208203792572 False False
503.801 0.6958068013191223 -1.7701970539488734 -1.4704607725143433 -1.4444724929383774 1.526096224784851 0.37023377418518066 False False
503.82099999999997 0.695712685585022 -1.7702342472472132 -1.4705262184143066 -1.444453091626503 1.5261043310165405 0.370238333940506 False False
503.84099999999995 0.6957202553749084 -1.7702766857542933 -1.470502495765686 -1.4444126349738617 1.526160717010498 0.3701917827129364 False False
503.861 0.6957735419273376 -1.7701689205565394 -1.470475673675537 -1.4444728207639237 1.5261404514312744 0.3701682686805725 False False
503.881 0.6957083940505981 -1.7702390156187953 -1.470481514930725 -1.4444888544133683 1.5261406898498535 0.37023380398750305 False False
503.90099999999995 0.6957572102546692 -1.7701646290221156 -1.4704681634902954 -1.4444408279708405 1.5261290073394775 0.3702874481678009 False False
503.921 0.6957170367240906 -1.7702166042723597 -1.4704890251159668 -1.44448475659404 1.5261485576629639 0.3702472448348999 False False
503.941 0.6957735419273376 -1.7702256641783656 -1.4705098867416382 -1.4443925482085724 1.5261688232421875 0.3701932430267334 False False
503.96099999999996 0.6957615613937378 -1.7702275715269984 -1.4705098867416382 -1.4445093137076874 1.5261688232421875 0.37026357650756836 False False
503.981 0.6957127451896667 -1.770167966882223 -1.4704934358596802 -1.4444930118373414 1.5261366367340088 0.37023377418518066 False False
504.001 0.6957452297210693 -1.7702557049193324 -1.4704890251159668 -1.444417120223381 1.526160717010498 0.3702349066734314 False False
504.02099999999996 0.6957127451896667 -1.7701646290221156 -1.4704934358596802 -1.444472850566246 1.526140570640564 0.3702471852302551 False False
504.041 0.6957202553749084 -1.7702466450133265 -1.4704443216323853 -1.4444888246110459 1.5261324644088745 0.3702383041381836 False False
504.061 0.695748507976532 -1.770215173760885 -1.47048020362854 -1.4444571298411866 1.5261366367340088 0.3702590763568878 False False
504.08099999999996 0.6957409381866455 -1.7702061138548792 -1.470410943031311 -1.4444449555924912 1.5261285305023193 0.3702620565891266 False False
504.101 0.6957452893257141 -1.7702299557127894 -1.4705053567886353 -1.4444647294333954 1.5261167287826538 0.3702216148376465 False False
504.121 0.6957290172576904 -1.7702633343138636 -1.4704234600067139 -1.4444370579770585 1.526132583618164 0.370242714881897 False False
504.14099999999996 0.6957127451896667 -1.7702390156187953 -1.470475673675537 -1.4444770228913804 1.526152491569519 0.370242714881897 False False
504.161 0.6957290172576904 -1.770215173760885 -1.4704800844192505 -1.444449083214142 1.526168704032898 0.3702382743358612 False False
504.181 0.6956965327262878 -1.7701360187926234 -1.4703974723815918 -1.4444807928851624 1.5261605978012085 0.3702324330806732 False False
504.20099999999996 0.6957409381866455 -1.7702275715269984 -1.4704934358596802 -1.4444047075561066 1.5261167287826538 0.3702709972858429 False False
504.221 0.6957160234451294 -1.7701598606505335 -1.4705053567886353 -1.4444411408952256 1.5261647701263428 0.3702096939086914 False False
504.241 0.6957084536552429 -1.7702275715269984 -1.4704890251159668 -1.4444126051715394 1.526140809059143 0.3702501058578491 False False
504.26099999999997 0.6957051753997803 -1.7702342472472132 -1.4705218076705933 -1.4444207412055512 1.5261485576629639 0.3702337443828583 False False
504.28099999999995 0.6957246661186218 -1.7702185116209925 -1.4705053567886353 -1.4444411557963868 1.526168704032898 0.37027525901794434 False False
504.301 0.6957170963287354 -1.770247598687643 -1.4704681634902954 -1.4444207412055512 1.5261167287826538 0.37020525336265564 False False
504.32099999999997 0.6957084536552429 -1.7702256641783656 -1.4704681634902954 -1.4445011031678696 1.5261765718460083 0.37024128437042236 False False
504.34099999999995 0.6957700252532959 -1.7702342472472132 -1.4705172777175903 -1.444457159643509 1.5261286497116089 0.37024128437042236 False False
504.361 0.6957571506500244 -1.7701927624144496 -1.4704725742340088 -1.44442072630439 1.5261287689208984 0.37021711468696594 False False
504.381 0.6957170963287354 -1.7702542744078578 -1.4705098867416382 -1.4444888693145295 1.526152491569519 0.3702007830142975 False False
504.40099999999995 0.695679247379303 -1.7702585659422816 -1.4705142974853516 -1.4444490683129807 1.5261168479919434 0.37020084261894226 False False
504.421 0.6957495212554932 -1.7702342472472132 -1.4705188274383545 -1.4444167625955124 1.5261286497116089 0.3702457845211029 False False
504.441 0.6957008838653564 -1.7702332935728968 -1.4704309701919556 -1.4444490683129807 1.5261286497116089 0.37027525901794434 False False
504.46099999999996 0.6957247257232666 -1.770229002038473 -1.4704562425613403 -1.444481076007225 1.526152491569519 0.3702545464038849 False False
504.481 0.6957464218139648 -1.7702270946898402 -1.4704651832580566 -1.4444289666465302 1.5261485576629639 0.3702545166015625 False False
504.501 0.6957128047943115 -1.7701355419554652 -1.4704651832580566 -1.4444043797305604 1.5261366367340088 0.3702250123023987 False False
504.52099999999996 0.6957495212554932 -1.7702633343138636 -1.4704800844192505 -1.4445252579501648 1.5261485576629639 0.3701845109462738 False False
504.541 0.6957128047943115 -1.7701732120909632 -1.4705009460449219 -1.4444207710078736 1.5261361598968506 0.3702532649040222 False False
504.561 0.6957495808601379 -1.7702099285521449 -1.470463752746582 -1.4444126349738617 1.526120662689209 0.3702663481235504 False False
504.58099999999996 0.6957247257232666 -1.7702557049193324 -1.4704487323760986 -1.444457159643509 1.5261526107788086 0.3702632486820221 False False
504.601 0.6957290172576904 -1.7702018223204554 -1.4704771041870117 -1.444433094268181 1.5261485576629639 0.37023380398750305 False False
504.621 0.6957571506500244 -1.7702018223204554 -1.4704725742340088 -1.44448475659404 1.5261648893356323 0.3702171742916107 False False
504.64099999999996 0.6957452297210693 -1.7701646290221156 -1.4704771041870117 -1.4444289964488526 1.5261731147766113 0.3702097237110138 False False
504.661 0.6956965327262878 -1.7702228031554164 -1.4705009460449219 -1.444437102680542 1.5261284112930298 0.37016433477401733 False False
504.681 0.6957128047943115 -1.7702542744078578 -1.4704935550689697 -1.4444647592357178 1.526112675666809 0.37024569511413574 False False
504.70099999999996 0.6957528591156006 -1.7702018223204554 -1.4705551862716675 -1.4443887186101456 1.526128888130188 0.3701774477958679 False False
504.721 0.6956803202629089 -1.7702208958067835 -1.4704562425613403 -1.4444449853948136 1.5261443853378296 0.37024253606796265 False False
504.741 0.6957128047943115 -1.7702208958067835 -1.4704471826553345 -1.4444289666465302 1.5261448621749878 0.3701965808868408 False False
504.76099999999997 0.6957464814186096 -1.7701884708800257 -1.4705218076705933 -1.4444289964488526 1.5261166095733643 0.3702544569969177 False False
504.78099999999995 0.6957657933235168 -1.770156045953268 -1.470442771911621 -1.4444687527469178 1.5261166095733643 0.37024569511413574 False False
504.801 0.6956965327262878 -1.7702332935728968 -1.4705053567886353 -1.4445050966790696 1.526140809059143 0.37025874853134155 False False
504.82099999999997 0.6957247257232666 -1.770184179345602 -1.4705173969268799 -1.4444647592357178 1.5261366367340088 0.37025442719459534 False False
504.84099999999995 0.6957290172576904 -1.7701903782286585 -1.4704517126083374 -1.4444449853948136 1.526205062866211 0.3702053725719452 False False
504.861 0.6956965327262878 -1.7702228031554164 -1.4704890251159668 -1.4444530618241807 1.526132583618164 0.3702259361743927 False False
504.881 0.6957452297210693 -1.7701989612975062 -1.4705172777175903 -1.4444725078395386 1.5261166095733643 0.37025874853134155 False False
504.90099999999995 0.6957247257232666 -1.7701975307860316 -1.4705188274383545 -1.4444728803685685 1.526132583618164 0.370270699262619 False False
504.921 0.6957409381866455 -1.7702051601805628 -1.4704681634902954 -1.4444647592357178 1.5261284112930298 0.3702467978000641 False False
504.941 0.6957376003265381 -1.7701975307860316 -1.4704771041870117 -1.4444848012975235 1.5261448621749878 0.3701760768890381 False False
504.96099999999996 0.6957452297210693 -1.7702228031554164 -1.4704726934432983 -1.4444888544133683 1.526168942451477 0.3702586889266968 False False
504.981 0.6957128047943115 -1.7701603374876917 -1.4704443216323853 -1.4444289666465302 1.5261608362197876 0.37023815512657166 False False
505.001 0.6957376003265381 -1.770181795159811 -1.4704935550689697 -1.444433094268181 1.5261406898498535 0.3702749013900757 False False
505.02099999999996 0.6957171559333801 -1.7702299557127894 -1.4705381393432617 -1.4444848012975235 1.5261284112930298 0.3702499568462372 False False
505.041 0.6957452297210693 -1.7702166042723597 -1.4704846143722534 -1.444476993089058 1.526168942451477 0.37023019790649414 False False
505.061 0.6957409381866455 -1.770172735253805 -1.4704771041870117 -1.444492982035019 1.5261449813842773 0.37025439739227295 False False
505.08099999999996 0.6957204341888428 -1.7702967129149378 -1.4705009460449219 -1.4444571447423478 1.5261651277542114 0.370201051235199 False False
505.101 0.6956879496574402 -1.770276208917135 -1.4704846143722534 -1.4444613021663208 1.5261648893356323 0.37014803290367126 False False
505.121 0.6957213878631592 -1.7702342472472132 -1.4705263376235962 -1.4444647592357178 1.526132583618164 0.3702618479728699 False False
505.14099999999996 0.6957042217254639 -1.770210405389303 -1.470451831817627 -1.4444571298411866 1.5261164903640747 0.37022945284843445 False False
505.161 0.6957128047943115 -1.7702185116209925 -1.4704399108886719 -1.4445131135037919 1.5261485576629639 0.370209664106369 False False
505.181 0.6957862377166748 -1.7702380619444789 -1.4704636335372925 -1.4444289964488526 1.5261526107788086 0.37017327547073364 False False
505.20099999999996 0.69569993019104 -1.7702061138548792 -1.4705218076705933 -1.4444493812373658 1.5261366367340088 0.3702215850353241 False False
505.221 0.6957980990409851 -1.770304342309469 -1.4705597162246704 -1.4444169116071244 1.5261485576629639 0.37022164463996887 False False
505.241 0.695734441280365 -1.7702628574767054 -1.4704562425613403 -1.4444929373315354 1.5261485576629639 0.3702054023742676 False False
505.26099999999997 0.6957733631134033 -1.7702142200865687 -1.4704399108886719 -1.4444450599006196 1.5261526107788086 0.3702129125595093 False False
505.28099999999995 0.6957290172576904 -1.7702299557127894 -1.4705009460449219 -1.4444248986295243 1.5260841846466064 0.3702208697795868 False False
505.301 0.6956965923309326 -1.7701860866942347 -1.470447301864624 -1.4444611829570313 1.5261002779006958 0.3702586591243744 False False
505.32099999999997 0.6957733631134033 -1.7701860866942347 -1.470479965209961 -1.444480688577034 1.5261731147766113 0.37023815512657166 False False
505.34099999999995 0.6957247257232666 -1.770210405389303 -1.4705084562301636 -1.4444530618241807 1.5261566638946533 0.37019240856170654 False False
505.361 0.6957366466522217 -1.770259519616598 -1.4705009460449219 -1.4444806438735505 1.5261485576629639 0.3702586889266968 False False
505.381 0.6957733035087585 -1.770231386224264 -1.470512866973877 -1.444425181751587 1.5260882377624512 0.37021398544311523 False False
505.40099999999995 0.6957290172576904 -1.7702299557127894 -1.4705172777175903 -1.4444411110929032 1.5261284112930298 0.3702337443828583 False False
505.421 0.6957082152366638 -1.7701693973936976 -1.4704607725143433 -1.444437177186348 1.5261123180389404 0.3702749013900757 False False
505.441 0.6957617402076721 -1.7702800236144007 -1.470497965812683 -1.4444766503623505 1.5261083841323853 0.37023815512657166 False False
505.46099999999996 0.6956993341445923 -1.7702509365477503 -1.4705218076705933 -1.4444333177855988 1.5261123180389404 0.37019672989845276 False False
505.481 0.6957082152366638 -1.77016081432485 -1.4705232381820679 -1.444441170697548 1.5261648893356323 0.3702413737773895 False False
505.501 0.6957365274429321 -1.7702061138548792 -1.470459222793579 -1.444441170697548 1.5261284112930298 0.37026724219322205 False False
505.52099999999996 0.6957409381866455 -1.7702671490111292 -1.4705053567886353 -1.4444725972465058 1.526132583618164 0.37019237875938416 False False
505.541 0.6957157850265503 -1.770153661767477 -1.47048020362854 -1.4444765758565445 1.5260919332504272 0.3702128827571869 False False
505.561 0.695687472820282 -1.7702380619444789 -1.470468282699585 -1.4444492024234314 1.526132583618164 0.37021294236183167 False False
505.58099999999996 0.6957453489303589 -1.770233770410055 -1.4704846143722534 -1.4444492024234314 1.5261809825897217 0.3702259063720703 False False
505.601 0.6957945227622986 -1.7701946697630824 -1.4705053567886353 -1.4444806289723893 1.5261284112930298 0.3702259063720703 False False
505.621 0.6957528591156006 -1.7702142200865687 -1.4704934358596802 -1.4444492173245926 1.5261406898498535 0.37021398544311523 False False
505.64099999999996 0.6957572102546692 -1.7702142200865687 -1.4705009460449219 -1.4444330793670197 1.526168942451477 0.37025436758995056 False False
505.661 0.6957126259803772 -1.770299573937887 -1.4705172777175903 -1.4444490683129807 1.5261485576629639 0.37026292085647583 False False
505.681 0.6957334280014038 -1.770212789575094 -1.470481514930725 -1.4444687527469178 1.5261164903640747 0.3701719343662262 False False
505.70099999999996 0.6957855820655823 -1.7702099285521449 -1.4704431295394897 -1.4444453132203598 1.5261083841323853 0.3702586591243744 False False
505.721 0.6957215070724487 -1.770177503625387 -1.4705053567886353 -1.4444613468698044 1.526160717010498 0.3702259063720703 False False
505.741 0.6957334876060486 -1.7702061138548792 -1.4704281091690063 -1.444424868827202 1.526160717010498 0.37026283144950867 False False
505.76099999999997 0.6957007050514221 -1.770214696923727 -1.4705216884613037 -1.444461317067482 1.5261485576629639 0.3702670931816101 False False
505.78099999999995 0.6957409381866455 -1.7702342472472132 -1.4705172777175903 -1.4444047224572678 1.5261731147766113 0.37023815512657166 False False
505.801 0.6957573294639587 -1.7701903782286585 -1.4704726934432983 -1.444396750336029 1.5261403322219849 0.3702172338962555 False False
505.82099999999997 0.6957409381866455 -1.7702342472472132 -1.4705053567886353 -1.4444530767253418 1.5261443853378296 0.37023812532424927 False False
505.84099999999995 0.6957007646560669 -1.7702466450133265 -1.4704726934432983 -1.444449083214142 1.5261609554290771 0.37019044160842896 False False
505.861 0.6957706212997437 -1.7702342472472132 -1.470468282699585 -1.444437028174736 1.5261443853378296 0.37020111083984375 False False
505.881 0.6957692503929138 -1.770210405389303 -1.4704607725143433 -1.444436715250351 1.5261448621749878 0.37020108103752136 False False
505.90099999999995 0.6957423090934753 -1.7702061138548792 -1.4705053567886353 -1.4444530767253418 1.5261164903640747 0.3702215552330017 False False
505.921 0.6957334876060486 -1.770259519616598 -1.4704432487487793 -1.4444807332805176 1.5261001586914062 0.37024274468421936 False False
505.941 0.6957661509513855 -1.7701932392516078 -1.4704846143722534 -1.4444530767253418 1.5261731147766113 0.3702293336391449 False False
505.96099999999996 0.6957409381866455 -1.770292421380514 -1.4704726934432983 -1.4444530767253418 1.526132583618164 0.3702620565891266 False False
505.981 0.6957706809043884 -1.7702061138548792 -1.470502257347107 -1.4445011031678696 1.5261485576629639 0.37019625306129456 False False
506.001 0.6957454085350037 -1.7702018223204554 -1.470468282699585 -1.4444687080434342 1.5262011289596558 0.37023377418518066 False False
506.02099999999996 0.6957259774208069 -1.7702342472472132 -1.4705215692520142 -1.444437102680542 1.526132583618164 0.3702709972858429 False False
506.041 0.6957201361656189 -1.7702099285521449 -1.470524787902832 -1.44448475659404 1.5261609554290771 0.37022605538368225 False False
506.061 0.695732057094574 -1.7702466450133265 -1.4704639911651611 -1.4444970053485413 1.5261123180389404 0.37025466561317444 False False
506.08099999999996 0.6958115696907043 -1.7702471218504847 -1.4705336093902588 -1.4444530767253418 1.5261284112930298 0.37024569511413574 False False
506.101 0.6957498788833618 -1.7702185116209925 -1.470530390739441 -1.4444047969630738 1.5261403322219849 0.37026649713516235 False False
506.121 0.695712685585022 -1.7701932392516078 -1.4705346822738647 -1.4444807779840012 1.5261648893356323 0.370230495929718 False False
506.14099999999996 0.6957170963287354 -1.7702270946898402 -1.4705021381378174 -1.4444408130696793 1.5261566638946533 0.3701919615268707 False False
506.161 0.695773720741272 -1.7702299557127894 -1.4705215692520142 -1.4444612872651597 1.526132583618164 0.3702412545681 False False
506.181 0.6957319974899292 -1.7702747784056605 -1.470509648323059 -1.444457159643509 1.5261526107788086 0.3702007532119751 False False
506.20099999999996 0.6957706809043884 -1.770271440545553 -1.4705009460449219 -1.444472850566246 1.5261366367340088 0.3702368140220642 False False
506.221 0.6957617402076721 -1.7702471218504847 -1.4704900979995728 -1.4444289368442078 1.5260924100875854 0.3701888918876648 False False
506.241 0.695712685585022 -1.7702747784056605 -1.4705052375793457 -1.4444530767253418 1.5261973142623901 0.370208203792572 False False
506.26099999999997 0.6957454085350037 -1.7701975307860316 -1.470509648323059 -1.4444370579770585 1.526132583618164 0.3702293634414673 False False
506.28099999999995 0.6957306265830994 -1.770238538781637 -1.4705302715301514 -1.4444770228913804 1.5261485576629639 0.37020525336265564 False False
506.301 0.6957634091377258 -1.7702628574767054 -1.4705009460449219 -1.4444047671607514 1.5261366367340088 0.3702412247657776 False False
506.32099999999997 0.6957245469093323 -1.770238538781637 -1.470472812652588 -1.4444648039392014 1.526132583618164 0.3702383041381836 False False
506.34099999999995 0.6957692503929138 -1.7702142200865687 -1.4705020189285278 -1.4444370877793808 1.526128888130188 0.3702383041381836 False False
506.361 0.6957290172576904 -1.7702466450133265 -1.4705095291137695 -1.4444411259940644 1.526128888130188 0.3701799511909485 False False
506.381 0.6956979036331177 -1.7702228031554164 -1.470525860786438 -1.444457159643509 1.5261284112930298 0.37024274468421936 False False
506.40099999999995 0.6957334876060486 -1.7701932392516078 -1.4705334901809692 -1.4444929671338578 1.526132583618164 0.3703084886074066 False False
506.421 0.6957825422286987 -1.7702299557127894 -1.470509648323059 -1.444493056540825 1.5261164903640747 0.3702383041381836 False False
506.441 0.695688784122467 -1.7702342472472132 -1.4704933166503906 -1.4444289964488526 1.5261366367340088 0.37027543783187866 False False
506.46099999999996 0.6957036852836609 -1.7701732120909632 -1.4704240560531616 -1.4444408279708405 1.526168942451477 0.37024572491645813 False False
506.481 0.6957870721817017 -1.7702509365477503 -1.4705631732940674 -1.4444289964488526 1.5261406898498535 0.3702007234096527 False False
506.501 0.6956628561019897 -1.770238538781637 -1.470468521118164 -1.444472850566246 1.526132583618164 0.37022164463996887 False False
506.52099999999996 0.6957454085350037 -1.7702628574767054 -1.4704771041870117 -1.4444728356650849 1.5261648893356323 0.37025147676467896 False False
506.541 0.6956932544708252 -1.7701975307860316 -1.4704976081848145 -1.4444490683129807 1.5261526107788086 0.3702096939086914 False False
506.561 0.6957007050514221 -1.7701975307860316 -1.470472812652588 -1.4444490683129807 1.5261731147766113 0.37020522356033325 False False
506.58099999999996 0.6957334876060486 -1.7701932392516078 -1.4705009460449219 -1.4444452834180375 1.5261526107788086 0.37024277448654175 False False
506.601 0.695712685585022 -1.770238538781637 -1.4704641103744507 -1.444457159643509 1.5261001586914062 0.3701874017715454 False False
506.621 0.695708155632019 -1.770238538781637 -1.470525860786438 -1.444445328121521 1.5261731147766113 0.37020522356033325 False False
506.64099999999996 0.6957454085350037 -1.7702342472472132 -1.470525860786438 -1.4444370728782197 1.526140809059143 0.3702006936073303 False False
506.661 0.6957126259803772 -1.7702628574767054 -1.470468521118164 -1.4444888693145295 1.526120662689209 0.3702546954154968 False False
506.681 0.6957334876060486 -1.7701903782286585 -1.470509648323059 -1.4444290113500138 1.526132583618164 0.37021705508232117 False False
506.70099999999996 0.6957036852836609 -1.770238538781637 -1.4705009460449219 -1.4444807332805176 1.5261485576629639 0.37023380398750305 False False
506.721 0.6957215666770935 -1.7702213726439417 -1.470496654510498 -1.4444606763175507 1.5261366367340088 0.37022608518600464 False False
506.741 0.6957409381866455 -1.7702142200865687 -1.470537781715393 -1.4444524061730881 1.5261526107788086 0.3702006936073303 False False
506.76099999999997 0.6957170963287354 -1.7702185116209925 -1.4704771041870117 -1.4444330644658585 1.526132583618164 0.3701888620853424 False False
506.78099999999995 0.6957662105560303 -1.7702638111510218 -1.4704771041870117 -1.4444167625955124 1.5261731147766113 0.3701843023300171 False False
506.801 0.6957170963287354 -1.7702213726439417 -1.470484733581543 -1.4444654297879715 1.526104211807251 0.37025758624076843 False False
506.82099999999997 0.6957036852836609 -1.7702228031554164 -1.4704434871673584 -1.444453091626503 1.526160717010498 0.37022486329078674 False False
506.84099999999995 0.6957290172576904 -1.7702228031554164 -1.4704608917236328 -1.444476680164673 1.5261284112930298 0.37024277448654175 False False
506.861 0.6957126259803772 -1.7702185116209925 -1.4704771041870117 -1.444437102680542 1.5261443853378296 0.3701917827129364 False False
506.881 0.6957125663757324 -1.7702018223204554 -1.4704976081848145 -1.4444247794202347 1.5261850357055664 0.37022486329078674 False False
506.90099999999995 0.6957454085350037 -1.7702256641783656 -1.470509648323059 -1.4444565039924164 1.5261164903640747 0.37021708488464355 False False
506.921 0.6957825422286987 -1.770242830316061 -1.4704726934432983 -1.4444613617709656 1.5261485576629639 0.37017273902893066 False False
506.941 0.6957453489303589 -1.770153661767477 -1.470456600189209 -1.444457159643509 1.5261448621749878 0.370259165763855 False False
506.96099999999996 0.6956993341445923 -1.770188947717184 -1.470525860786438 -1.4444411855987092 1.526132583618164 0.37023380398750305 False False
506.981 0.6957007050514221 -1.77016081432485 -1.4704598188400269 -1.4444687378457566 1.5261083841323853 0.37022608518600464 False False
507.001 0.6957454085350037 -1.7702299557127894 -1.470472812652588 -1.4444248390248795 1.526132583618164 0.37027108669281006 False False
507.02099999999996 0.6957855820655823 -1.7702061138548792 -1.4705291986465454 -1.4444530767253418 1.5261731147766113 0.3702547252178192 False False
507.041 0.6957290172576904 -1.7702051601805628 -1.4705214500427246 -1.4444888246110459 1.5261648893356323 0.370259165763855 False False
507.061 0.6957037448883057 -1.7702061138548792 -1.4704564809799194 -1.4444047820619126 1.5261166095733643 0.3702546954154968 False False
507.08099999999996 0.6957408785820007 -1.7702142200865687 -1.4704813957214355 -1.444449098115303 1.5261850357055664 0.3702126145362854 False False
507.101 0.6957364678382874 -1.770210405389303 -1.4704933166503906 -1.4444810313037415 1.5261403322219849 0.3702349364757538 False False
507.121 0.6957215666770935 -1.7701689205565394 -1.4704803228378296 -1.4444727909616013 1.526168942451477 0.3702472448348999 False False
507.14099999999996 0.6957334280014038 -1.7702208958067835 -1.4704523086547852 -1.444449098115303 1.5261566638946533 0.3701798617839813 False False
507.161 0.6956993937492371 -1.7702051601805628 -1.4705052375793457 -1.4444887054017563 1.5261366367340088 0.3702620267868042 False False
507.181 0.6957616806030273 -1.7702719173827113 -1.4704760313034058 -1.4444530767253418 1.5261123180389404 0.3702305257320404 False False
507.20099999999996 0.6957201957702637 -1.770215173760885 -1.4704641103744507 -1.4444452685168763 1.5261284112930298 0.370238333940506 False False
507.221 0.695712685585022 -1.7702390156187953 -1.4704813957214355 -1.4444291454604645 1.5261406898498535 0.3702126145362854 False False
507.241 0.6957497596740723 -1.7702423534789027 -1.470484733581543 -1.4444886905005951 1.5261284112930298 0.3702292740345001 False False
507.26099999999997 0.6957290172576904 -1.7702342472472132 -1.4704478979110718 -1.444476680164673 1.526095986366272 0.3701917827129364 False False
507.28099999999995 0.6957201957702637 -1.7702318630614222 -1.4704651832580566 -1.444468693142273 1.526132583618164 0.37027108669281006 False False
507.301 0.6957453489303589 -1.770243307153219 -1.4705052375793457 -1.4444491428187867 1.5261526107788086 0.37023377418518066 False False
507.32099999999997 0.6956918835639954 -1.7702390156187953 -1.4705214500427246 -1.4444452387145539 1.5261284112930298 0.3701917827129364 False False
507.34099999999995 0.6957528591156006 -1.7702928982176722 -1.470496654510498 -1.4444169712117692 1.5261001586914062 0.37019622325897217 False False
507.361 0.695724606513977 -1.7702299557127894 -1.4704478979110718 -1.4444530767253418 1.526132583618164 0.37020519375801086 False False
507.381 0.6957082748413086 -1.7701856098570765 -1.4704813957214355 -1.4444926542094727 1.5261729955673218 0.3702546954154968 False False
507.40099999999995 0.6957823634147644 -1.7702299557127894 -1.4704684019088745 -1.4444290411523362 1.5260965824127197 0.3702472448348999 False False
507.421 0.6957158446311951 -1.7702342472472132 -1.470496654510498 -1.4444767099669953 1.526185393333435 0.37020960450172424 False False
507.441 0.6957453489303589 -1.770285268823141 -1.470496654510498 -1.4444452089122315 1.526132583618164 0.37018436193466187 False False
507.46099999999996 0.6957202553749084 -1.7702752552428187 -1.470468521118164 -1.4444371920875092 1.5261366367340088 0.3702383041381836 False False
507.481 0.6957409381866455 -1.7702590427794398 -1.4704846143722534 -1.4444965434125443 1.5261729955673218 0.37026649713516235 False False
507.501 0.6957083344459534 -1.7701856098570765 -1.4704562425613403 -1.444437177186348 1.5261406898498535 0.3702293336391449 False False
507.52099999999996 0.6957453489303589 -1.7702723942198695 -1.4705262184143066 -1.4444686335376282 1.526132583618164 0.37021708488464355 False False
507.541 0.6957258582115173 -1.770219465295309 -1.4704771041870117 -1.4444452238133927 1.52611243724823 0.37021711468696594 False False
507.561 0.6957290172576904 -1.7702061138548792 -1.4705098867416382 -1.4444492024234314 1.5261485576629639 0.37020522356033325 False False
507.58099999999996 0.6957158446311951 -1.7702051601805628 -1.4704278707504272 -1.4444492024234314 1.5261485576629639 0.3702216148376465 False False
507.601 0.6957616209983826 -1.7702166042723597 -1.4704934358596802 -1.4444649827531357 1.5262091159820557 0.3702620267868042 False False
507.621 0.6957246661186218 -1.7701770267882289 -1.4705262184143066 -1.4444606316140671 1.5261366367340088 0.37022605538368225 False False
507.64099999999996 0.6957083344459534 -1.7701598606505335 -1.4705172777175903 -1.444449083214142 1.526148796081543 0.37025463581085205 False False
507.661 0.695712685585022 -1.7702390156187953 -1.4704726934432983 -1.4444330793670197 1.5261238813400269 0.3702215850353241 False False
507.681 0.6957528591156006 -1.7701574764647425 -1.470512866973877 -1.4444408428720017 1.5261443853378296 0.3702591061592102 False False
507.70099999999996 0.6957203149795532 -1.7702390156187953 -1.4704725742340088 -1.444461317067482 1.5261889696121216 0.37024128437042236 False False
507.721 0.695733368396759 -1.7702886066832484 -1.4705053567886353 -1.444468767648079 1.5261002779006958 0.3701963424682617 False False
507.741 0.695733368396759 -1.7702590427794398 -1.4704726934432983 -1.444505126481392 1.5261811017990112 0.37021711468696594 False False
507.76099999999997 0.6957203149795532 -1.7702299557127894 -1.4704771041870117 -1.444457159643509 1.5261526107788086 0.3702293634414673 False False
507.78099999999995 0.6957083940505981 -1.7701598606505335 -1.4705262184143066 -1.4444847416928788 1.5262048244476318 0.3701963722705841 False False
507.801 0.6957572102546692 -1.7701856098570765 -1.47046959400177 -1.4444490236094971 1.5261648893356323 0.37018445134162903 False False
507.82099999999997 0.6957203149795532 -1.7702332935728968 -1.4705218076705933 -1.44448475659404 1.5261728763580322 0.3702007830142975 False False
507.84099999999995 0.695721447467804 -1.7702299557127894 -1.4705053567886353 -1.444441170697548 1.5261485576629639 0.3702293634414673 False False
507.861 0.6957083344459534 -1.7702390156187953 -1.4704725742340088 -1.444449083214142 1.5261443853378296 0.37023380398750305 False False
507.881 0.6957203149795532 -1.7702142200865687 -1.4705172777175903 -1.4444606763175507 1.5261406898498535 0.3702426552772522 False False
507.90099999999995 0.6957008838653564 -1.7701770267882289 -1.4704399108886719 -1.4444571745446702 1.5261366367340088 0.37027087807655334 False False
507.921 0.6957452893257141 -1.7702676258482875 -1.4705142974853516 -1.444457159643509 1.526096224784851 0.3702501356601715 False False
507.941 0.6956964731216431 -1.7701927624144496 -1.4705216884613037 -1.4444571149400254 1.5261003971099854 0.37021273374557495 False False
507.96099999999996 0.6957213878631592 -1.7701813183226527 -1.470512866973877 -1.4444290411523362 1.5261647701263428 0.37021714448928833 False False
507.981 0.695789635181427 -1.7702228031554164 -1.4704846143722534 -1.444468767648079 1.5261445045471191 0.37023377418518066 False False
508.001 0.6957452893257141 -1.7701884708800257 -1.4704890251159668 -1.4444207561067124 1.526140809059143 0.37021276354789734 False False
508.02099999999996 0.6957452893257141 -1.7702342472472132 -1.4705685377120972 -1.444457159643509 1.526152491569519 0.370205283164978 False False
508.041 0.6957734823226929 -1.7701989612975062 -1.4705053567886353 -1.44448076308284 1.5261485576629639 0.3702470064163208 False False
508.061 0.6957041025161743 -1.770236154595846 -1.4705098867416382 -1.4444565933993836 1.5261565446853638 0.3702382445335388 False False
508.08099999999996 0.695761501789093 -1.7702142200865687 -1.4705009460449219 -1.4444408875754853 1.5261605978012085 0.3702259957790375 False False
508.101 0.6957083940505981 -1.7702299557127894 -1.470447301864624 -1.4444490683129807 1.5261447429656982 0.3702382445335388 False False
508.121 0.6957571506500244 -1.770285268823141 -1.4704562425613403 -1.4443444621614 1.5261247158050537 0.37024569511413574 False False
508.14099999999996 0.6957213878631592 -1.7701598606505335 -1.470451831817627 -1.444420800810196 1.5261567831039429 0.3702675998210907 False False
508.161 0.6956997513771057 -1.7702018223204554 -1.470486044883728 -1.444493056540825 1.5261605978012085 0.3702588677406311 False False
508.181 0.6957442164421082 -1.7701813183226527 -1.4704890251159668 -1.444457159643509 1.5261125564575195 0.3702053129673004 False False
508.20099999999996 0.6957572102546692 -1.7702142200865687 -1.4704844951629639 -1.4444408428720017 1.5261445045471191 0.37018901109695435 False False
508.221 0.6957528591156006 -1.7701646290221156 -1.4704934358596802 -1.444472850566246 1.5261566638946533 0.37023818492889404 False False
508.241 0.6956472396850586 -1.7702342472472132 -1.4704725742340088 -1.444468767648079 1.5261486768722534 0.37023377418518066 False False
508.26099999999997 0.6957571506500244 -1.7701927624144496 -1.4704681634902954 -1.4444490385106583 1.5261727571487427 0.37024256587028503 False False
508.28099999999995 0.6957128047943115 -1.7702061138548792 -1.4705218076705933 -1.4444571447423478 1.5261485576629639 0.3702128231525421 False False
508.301 0.6957041621208191 -1.7702423534789027 -1.4705218076705933 -1.4444330793670197 1.5261647701263428 0.3702053427696228 False False
508.32099999999997 0.6957290172576904 -1.7702795467772425 -1.470497965812683 -1.4444289964488526 1.526140570640564 0.3702171742916107 False False
508.34099999999995 0.6957409977912903 -1.7701927624144496 -1.4704965353012085 -1.4444847416928788 1.5261647701263428 0.37020421028137207 False False
508.361 0.6956965923309326 -1.7702118359007777 -1.4704800844192505 -1.4444530618241807 1.5261485576629639 0.37025880813598633 False False
508.381 0.6957333087921143 -1.7702599964537562 -1.4704890251159668 -1.4444530767253418 1.526152491569519 0.37025004625320435 False False
508.40099999999995 0.6956965923309326 -1.7701970539488734 -1.4704890251159668 -1.4444166880897065 1.526140570640564 0.37024572491645813 False False
508.421 0.6957008838653564 -1.7702208958067835 -1.4704800844192505 -1.4444330644658585 1.5261647701263428 0.37022945284843445 False False
508.441 0.6957170367240906 -1.7702142200865687 -1.4704890251159668 -1.4444653701833268 1.526152491569519 0.37026193737983704 False False
508.46099999999996 0.695692241191864 -1.770210405389303 -1.4705098867416382 -1.444453091626503 1.5261445045471191 0.37020862102508545 False False
508.481 0.6957170963287354 -1.770153661767477 -1.4704846143722534 -1.444396973853447 1.5261564254760742 0.3702096939086914 False False
508.501 0.695692241191864 -1.7702342472472132 -1.4704545736312866 -1.4444769781878968 1.5261366367340088 0.37020859122276306 False False
508.52099999999996 0.6957128047943115 -1.7702933750548304 -1.4704846143722534 -1.444481061106064 1.5261766910552979 0.3702216148376465 False False
508.541 0.6957333087921143 -1.7702380619444789 -1.4704651832580566 -1.444376454954483 1.5261647701263428 0.3702053725719452 False False
508.561 0.6957452297210693 -1.7702514133849085 -1.4705218076705933 -1.4444411408952256 1.5261446237564087 0.37024572491645813 False False
508.58099999999996 0.6957127451896667 -1.7701770267882289 -1.4704428911209106 -1.4444770228913804 1.5261168479919434 0.37020862102508545 False False
508.601 0.6957495212554932 -1.7701689205565394 -1.4704844951629639 -1.4444888693145295 1.5261485576629639 0.37025439739227295 False False
508.621 0.6957452297210693 -1.7701946697630824 -1.4704890251159668 -1.4444530767253418 1.526152491569519 0.37024569511413574 False False
508.64099999999996 0.6957485675811768 -1.7702843151488246 -1.4705687761306763 -1.4444770228913804 1.5261528491973877 0.3702172338962555 False False
508.661 0.6956721544265747 -1.7701779804625453 -1.4704890251159668 -1.4444612723639985 1.5261366367340088 0.3702749013900757 False False
508.681 0.6957366466522217 -1.7702542744078578 -1.4704800844192505 -1.4444248241237183 1.5261366367340088 0.3702172338962555 False False
508.70099999999996 0.6956965923309326 -1.7702557049193324 -1.4704844951629639 -1.4444047224572678 1.5261166095733643 0.370291143655777 False False
508.721 0.6957128047943115 -1.7701484165587367 -1.4704681634902954 -1.4444207561067124 1.526120662689209 0.37026622891426086 False False
508.741 0.695651650428772 -1.7701837025084437 -1.4704725742340088 -1.4444129926017304 1.5261485576629639 0.3702499568462372 False False
508.76099999999997 0.6957495212554932 -1.7702423534789027 -1.470497965812683 -1.4444847863963624 1.5261526107788086 0.37018051743507385 False False
508.78099999999995 0.6957257390022278 -1.7701555691161097 -1.4704651832580566 -1.4444411557963868 1.526160717010498 0.3702251613140106 False False
508.801 0.695753812789917 -1.7701689205565394 -1.4704846143722534 -1.4444170904210587 1.5261166095733643 0.3702576160430908 False False
508.82099999999997 0.6957657933235168 -1.770210405389303 -1.4705054759979248 -1.4445092988065262 1.5261403322219849 0.37024998664855957 False False
508.84099999999995 0.6957290172576904 -1.7701970539488734 -1.4704681634902954 -1.4444728803685685 1.5261403322219849 0.37025102972984314 False False
508.861 0.6957094669342041 -1.7702633343138636 -1.470490574836731 -1.4444530469230195 1.5261485576629639 0.37018048763275146 False False
508.881 0.6957863569259644 -1.7702299557127894 -1.4704725742340088 -1.4444530767253418 1.5261648893356323 0.3701934814453125 False False
508.90099999999995 0.6957418918609619 -1.7702723942198695 -1.4704636335372925 -1.4444571745446702 1.5261366367340088 0.37021297216415405 False False
508.921 0.6957280039787292 -1.7701927624144496 -1.4705098867416382 -1.4444129926017304 1.5261164903640747 0.37023377418518066 False False
508.941 0.6957452297210693 -1.7702061138548792 -1.4705262184143066 -1.4444411855987092 1.5261566638946533 0.37019240856170654 False False
508.96099999999996 0.6956846714019775 -1.7702061138548792 -1.4705009460449219 -1.444468767648079 1.5261485576629639 0.3702172338962555 False False
508.981 0.695688009262085 -1.7701989612975062 -1.4704532623291016 -1.4444606763175507 1.5261043310165405 0.37022948265075684 False False
509.001 0.6957289576530457 -1.7702557049193324 -1.4704562425613403 -1.4445051860860367 1.5261973142623901 0.3702413737773895 False False
509.02099999999996 0.6957085132598877 -1.7702208958067835 -1.4705098867416382 -1.444449083214142 1.5261485576629639 0.37025439739227295 False False
509.041 0.6957409381866455 -1.7702723942198695 -1.4704846143722534 -1.4444493663362046 1.5261366367340088 0.37024998664855957 False False
509.061 0.6957290172576904 -1.7701903782286585 -1.470512866973877 -1.4444571447423478 1.5261485576629639 0.37023377418518066 False False
509.08099999999996 0.6956846714019775 -1.7701732120909632 -1.4704681634902954 -1.4444530767253418 1.5261772871017456 0.3702337443828583 False False
509.101 0.6957247257232666 -1.770252367059225 -1.4704890251159668 -1.4444929671338578 1.5261969566345215 0.3702586889266968 False False
509.121 0.6957734227180481 -1.7701903782286585 -1.4705098867416382 -1.4444530767253418 1.526132583618164 0.3702344596385956 False False
509.14099999999996 0.6957733631134033 -1.7702375851073207 -1.470496416091919 -1.4444450449994584 1.526120662689209 0.3702749013900757 False False
509.161 0.6957614421844482 -1.7701879940428675 -1.4704890251159668 -1.444453091626503 1.5261448621749878 0.37020862102508545 False False
509.181 0.6957571506500244 -1.7702557049193324 -1.4704771041870117 -1.4444571149400254 1.5261083841323853 0.3702586591243744 False False
509.20099999999996 0.6957581043243408 -1.7702514133849085 -1.4704800844192505 -1.4444208306125184 1.526168942451477 0.3702543377876282 False False
509.221 0.6957095265388489 -1.7701903782286585 -1.4704965353012085 -1.4444009971669693 1.526128888130188 0.37021398544311523 False False
509.241 0.6957042217254639 -1.7702275715269984 -1.4705098867416382 -1.4444371324828644 1.5261485576629639 0.3702129125595093 False False
509.26099999999997 0.6956965923309326 -1.7702051601805628 -1.4704397916793823 -1.4444491130164643 1.526193380355835 0.3702054023742676 False False
509.28099999999995 0.6957409381866455 -1.7702723942198695 -1.4705098867416382 -1.444465236072876 1.5261567831039429 0.37024998664855957 False False
509.301 0.6957376003265381 -1.7702752552428187 -1.4705009460449219 -1.4444611829570313 1.5261567831039429 0.37025436758995056 False False
509.32099999999997 0.6957290172576904 -1.7702723942198695 -1.4704636335372925 -1.444457085137703 1.5261813402175903 0.3702586591243744 False False
509.34099999999995 0.6957247257232666 -1.7702514133849085 -1.4704471826553345 -1.4444530767253418 1.526132583618164 0.3702748715877533 False False
509.361 0.6957247257232666 -1.7701813183226527 -1.470459222793579 -1.444405050282814 1.5261043310165405 0.3702252209186554 False False
509.381 0.6957366466522217 -1.770215173760885 -1.4705172777175903 -1.4444371622851868 1.5261123180389404 0.3702172338962555 False False
509.40099999999995 0.6957409381866455 -1.770215173760885 -1.4704890251159668 -1.444437177186348 1.5261002779006958 0.3702370822429657 False False
509.421 0.6957085132598877 -1.7702766857542933 -1.4704474210739136 -1.4444492024234314 1.5261001586914062 0.3702371418476105 False False
509.441 0.6956965327262878 -1.7702390156187953 -1.470496416091919 -1.4444686633399506 1.5261164903640747 0.37019675970077515 False False
509.46099999999996 0.6957818865776062 -1.7702299557127894 -1.470497965812683 -1.444472612147667 1.5261485576629639 0.3702705204486847 False False
509.481 0.6957894563674927 -1.7702018223204554 -1.4704800844192505 -1.4444371920875092 1.5261729955673218 0.37026190757751465 False False
509.501 0.6957366466522217 -1.7701722584166468 -1.470497965812683 -1.4444925648025055 1.5261443853378296 0.37024569511413574 False False
509.52099999999996 0.695724606513977 -1.7701813183226527 -1.470496416091919 -1.4444766503623505 1.5261083841323853 0.3702591061592102 False False
509.541 0.6957780718803406 -1.7702256641783656 -1.4705278873443604 -1.4444289964488526 1.526104211807251 0.3701843023300171 False False
509.561 0.6957365274429321 -1.7702514133849085 -1.4704800844192505 -1.4443972569755097 1.5261366367340088 0.37021708488464355 False False
509.58099999999996 0.695724606513977 -1.7702061138548792 -1.4704935550689697 -1.4444570255330582 1.526168942451477 0.37025904655456543 False False
509.601 0.6957647204399109 -1.7702061138548792 -1.4704965353012085 -1.444445253615715 1.5261366367340088 0.37018883228302 False False
509.621 0.6957037448883057 -1.7702318630614222 -1.4704681634902954 -1.4444371920875092 1.5261443853378296 0.3702126443386078 False False
509.64099999999996 0.6957334280014038 -1.7702752552428187 -1.4704771041870117 -1.4444126200727005 1.5261526107788086 0.37020379304885864 False False
509.661 0.6957409381866455 -1.7702299557127894 -1.4704771041870117 -1.4444766652635117 1.5261366367340088 0.3702216148376465 False False
509.681 0.6956949234008789 -1.770247598687643 -1.4705053567886353 -1.4444330793670197 1.5261366367340088 0.3702383041381836 False False
509.70099999999996 0.6957409381866455 -1.7702514133849085 -1.4705053567886353 -1.4444887799075623 1.5261526107788086 0.3702753782272339 False False
509.721 0.6957082152366638 -1.7701722584166468 -1.470468282699585 -1.4444370877793808 1.526177167892456 0.3702141344547272 False False
509.741 0.6957781910896301 -1.7701903782286585 -1.4704934358596802 -1.4444970947555085 1.5261567831039429 0.37023380398750305 False False
509.76099999999997 0.695757269859314 -1.7702061138548792 -1.470512866973877 -1.444441170697548 1.5261526107788086 0.37023377418518066 False False
509.78099999999995 0.6956993341445923 -1.7702228031554164 -1.4704726934432983 -1.4444654297879715 1.5261406898498535 0.37020379304885864 False False
509.801 0.6957334876060486 -1.7702142200865687 -1.4705424308776855 -1.444424883728363 1.526132583618164 0.37020525336265564 False False
509.82099999999997 0.6957423090934753 -1.7702795467772425 -1.4704651832580566 -1.4444647592357178 1.526168942451477 0.37020522356033325 False False
509.84099999999995 0.695743978023529 -1.7702390156187953 -1.470512866973877 -1.444457159643509 1.5261284112930298 0.37021708488464355 False False
509.861 0.695712685585022 -1.770247598687643 -1.4704934358596802 -1.4444130522063752 1.5261648893356323 0.3702259957790375 False False
509.881 0.6956962943077087 -1.7701879940428675 -1.470512866973877 -1.4444530618241807 1.5261443853378296 0.37025466561317444 False False
509.90099999999995 0.6957617402076721 -1.7702514133849085 -1.4704726934432983 -1.4444330793670197 1.526160717010498 0.37019631266593933 False False
509.921 0.6957409381866455 -1.7702037296690882 -1.4705593585968018 -1.4444207561067124 1.5261526107788086 0.3702126145362854 False False
509.941 0.6956918239593506 -1.7702719173827113 -1.4704607725143433 -1.4444166731885453 1.5261690616607666 0.37024274468421936 False False
509.96099999999996 0.6957170367240906 -1.7702018223204554 -1.4704638719558716 -1.4444613617709656 1.5260759592056274 0.37024715542793274 False False
509.981 0.6957662105560303 -1.7702185116209925 -1.4704594612121582 -1.444445328121521 1.5261648893356323 0.3702501654624939 False False
510.001 0.6957454085350037 -1.7702466450133265 -1.4704712629318237 -1.4444970202497025 1.5261609554290771 0.37021708488464355 False False
510.02099999999996 0.6957245469093323 -1.7702051601805628 -1.4704846143722534 -1.444437102680542 1.5261043310165405 0.3702412545681 False False
510.041 0.6957290172576904 -1.7702256641783656 -1.4704759120941162 -1.4444728356650849 1.5261648893356323 0.37022605538368225 False False
510.061 0.6957082152366638 -1.7702390156187953 -1.4705053567886353 -1.444445015197136 1.526132583618164 0.370209664106369 False False
510.08099999999996 0.6957528591156006 -1.7701603374876917 -1.4704726934432983 -1.4444370877793808 1.5261406898498535 0.37025466561317444 False False
510.101 0.6956962943077087 -1.770151277581686 -1.4704651832580566 -1.4444647592357178 1.526168942451477 0.370209664106369 False False
510.121 0.6957781314849854 -1.7702957592406214 -1.4704726934432983 -1.4444971096566697 1.5261001586914062 0.3702249228954315 False False
510.14099999999996 0.695757269859314 -1.7702208958067835 -1.4704846143722534 -1.4444411557963868 1.5261526107788086 0.37022608518600464 False False
510.161 0.6957170963287354 -1.7702390156187953 -1.4704890251159668 -1.44448475659404 1.526160717010498 0.37024277448654175 False False
510.181 0.6957529187202454 -1.7702185116209925 -1.4704934358596802 -1.4444647890380402 1.5261366367340088 0.3702546954154968 False False
510.20099999999996 0.6957215666770935 -1.7702466450133265 -1.4704519510269165 -1.4444370728782197 1.526160717010498 0.37026357650756836 False False
510.221 0.6957245469093323 -1.7702275715269984 -1.4705053567886353 -1.4444888842156907 1.5261284112930298 0.3702006936073303 False False
510.241 0.6957603693008423 -1.770182271996969 -1.470512866973877 -1.4444847416928788 1.5261526107788086 0.37023377418518066 False False
510.26099999999997 0.6957051753997803 -1.7702299557127894 -1.470452070236206 -1.4445011478713532 1.5261485576629639 0.37023377418518066 False False
510.28099999999995 0.6957334876060486 -1.7701970539488734 -1.4704564809799194 -1.444440872674324 1.526120662689209 0.37023380398750305 False False
510.301 0.6957037448883057 -1.7701689205565394 -1.4705302715301514 -1.444376454954483 1.5261567831039429 0.37021705508232117 False False
510.32099999999997 0.6957290172576904 -1.7702599964537562 -1.4704726934432983 -1.4444330644658585 1.5261486768722534 0.37017983198165894 False False
510.34099999999995 0.695724606513977 -1.7702557049193324 -1.4704445600509644 -1.4444490683129807 1.5261526107788086 0.3702412247657776 False False
510.361 0.6957156658172607 -1.7702208958067835 -1.4705052375793457 -1.444517121916153 1.5261527299880981 0.37023377418518066 False False
510.381 0.6957498788833618 -1.7702275715269984 -1.470509648323059 -1.4444129478982468 1.526168942451477 0.37024569511413574 False False
510.40099999999995 0.6957826018333435 -1.7702332935728968 -1.4704521894454956 -1.4444289964488526 1.5261164903640747 0.37024277448654175 False False
510.421 0.6957454085350037 -1.7702318630614222 -1.470485806465149 -1.4444450002959748 1.5261567831039429 0.370259165763855 False False
510.441 0.6957170367240906 -1.7701732120909632 -1.4704890251159668 -1.4444687527469178 1.5261366367340088 0.3702412247657776 False False
510.46099999999996 0.6957097053527832 -1.7701989612975062 -1.4705183506011963 -1.4444370728782197 1.5261485576629639 0.37020525336265564 False False
510.481 0.6957245469093323 -1.7702018223204554 -1.4705171585083008 -1.4444530767253418 1.5261366367340088 0.3702591359615326 False False
510.501 0.6957259774208069 -1.7702208958067835 -1.4704813957214355 -1.4444606763175507 1.5261485576629639 0.3701888620853424 False False
510.52099999999996 0.695696234703064 -1.7701770267882289 -1.4705009460449219 -1.444465385084488 1.5261485576629639 0.3701843023300171 False False
510.541 0.6957290172576904 -1.770238538781637 -1.4704933166503906 -1.4444248390248795 1.5261526107788086 0.37020814418792725 False False
510.561 0.6957126259803772 -1.7702299557127894 -1.4704684019088745 -1.4444725078395386 1.5261485576629639 0.3701888620853424 False False
510.58099999999996 0.6957170963287354 -1.7702228031554164 -1.4704933166503906 -1.4444530618241807 1.526132583618164 0.3702006936073303 False False
510.601 0.6957170963287354 -1.7702318630614222 -1.4705215692520142 -1.4444289964488526 1.5261526107788086 0.37020066380500793 False False
510.621 0.6957617998123169 -1.7701779804625453 -1.4705009460449219 -1.444468767648079 1.5261567831039429 0.3702293038368225 False False
510.64099999999996 0.6957200765609741 -1.7701975307860316 -1.470509648323059 -1.4444411557963868 1.5261648893356323 0.3702215850353241 False False
510.661 0.69575434923172 -1.7702423534789027 -1.470484733581543 -1.4444530767253418 1.526120662689209 0.3702739477157593 False False
510.681 0.69575434923172 -1.7702518902220667 -1.4705301523208618 -1.4444207412055512 1.5261485576629639 0.37023377418518066 False False
510.70099999999996 0.6957051753997803 -1.7702228031554164 -1.4705095291137695 -1.4444530767253418 1.5261366367340088 0.3702755272388458 False False
510.721 0.6957334876060486 -1.7702509365477503 -1.470468521118164 -1.4444971245578309 1.526149034500122 0.37026652693748474 False False
510.741 0.6957498788833618 -1.7701860866942347 -1.470496654510498 -1.444497064953186 1.5261731147766113 0.3702293932437897 False False
510.76099999999997 0.6957170963287354 -1.7702509365477503 -1.4705171585083008 -1.444505200987198 1.526160717010498 0.3701917827129364 False False
510.78099999999995 0.6957498788833618 -1.7702185116209925 -1.4704608917236328 -1.4444449853948136 1.5261443853378296 0.37027108669281006 False False
510.801 0.6957170963287354 -1.7702228031554164 -1.4705009460449219 -1.4444408130696793 1.5261247158050537 0.3702096939086914 False False
510.82099999999997 0.6957409381866455 -1.7702466450133265 -1.470509648323059 -1.44441673279319 1.526160717010498 0.3702006936073303 False False
510.84099999999995 0.6957706212997437 -1.7702185116209925 -1.4704532623291016 -1.4444289666465302 1.5261406898498535 0.37022608518600464 False False
510.861 0.6957334876060486 -1.7701946697630824 -1.470468521118164 -1.4444770228913804 1.526160717010498 0.37024569511413574 False False
510.881 0.6956798434257507 -1.770172735253805 -1.470512866973877 -1.444472850566246 1.5261648893356323 0.3702216148376465 False False
510.90099999999995 0.6957409381866455 -1.7702166042723597 -1.470509648323059 -1.4444330793670197 1.5261526107788086 0.3702591061592102 False False
510.921 0.6957007646560669 -1.7701975307860316 -1.470497727394104 -1.4444006991437455 1.5261485576629639 0.37020814418792725 False False
510.941 0.6957350373268127 -1.7702380619444789 -1.4704715013504028 -1.444468767648079 1.5261284112930298 0.37019622325897217 False False
510.96099999999996 0.6957156658172607 -1.7702342472472132 -1.4704976081848145 -1.4444450002959748 1.526124358177185 0.3702126145362854 False False
510.981 0.6957364678382874 -1.7701975307860316 -1.4704478979110718 -1.444437102680542 1.5261608362197876 0.37026360630989075 False False
511.001 0.6957662105560303 -1.7702228031554164 -1.4705171585083008 -1.4444370728782197 1.5261890888214111 0.3702141344547272 False False
511.02099999999996 0.6957170963287354 -1.7701975307860316 -1.4705301523208618 -1.4444330346635361 1.5261001586914062 0.3702141344547272 False False
511.041 0.6956843137741089 -1.7702380619444789 -1.4704933166503906 -1.4444724780372162 1.5261526107788086 0.37019631266593933 False False
511.061 0.695662796497345 -1.7702676258482875 -1.4704890251159668 -1.444457159643509 1.5261123180389404 0.3702126741409302 False False
511.08099999999996 0.6957038044929504 -1.7702628574767054 -1.4704760313034058 -1.4444490683129807 1.52611243724823 0.37025022506713867 False False
511.101 0.6957617402076721 -1.770247598687643 -1.4704651832580566 -1.4444370877793808 1.526132583618164 0.37027841806411743 False False
511.121 0.6956888437271118 -1.7702018223204554 -1.4705171585083008 -1.4444449853948136 1.5261443853378296 0.3702007234096527 False False
511.14099999999996 0.695708155632019 -1.7702228031554164 -1.4705052375793457 -1.4444727909616013 1.5261366367340088 0.3702293336391449 False False
511.161 0.6957007050514221 -1.770231386224264 -1.470481514930725 -1.4444928926280518 1.5261406898498535 0.37023377418518066 False False
511.181 0.6957126259803772 -1.770242830316061 -1.470525860786438 -1.444488675599434 1.5261406898498535 0.3702293932437897 False False
511.20099999999996 0.6957157254219055 -1.7701975307860316 -1.4705009460449219 -1.4444687229445954 1.526168942451477 0.3702382743358612 False False
511.221 0.6957334280014038 -1.7702380619444789 -1.4705052375793457 -1.444441170697548 1.5261489152908325 0.3702709674835205 False False
511.241 0.6957454085350037 -1.7702585659422816 -1.470563292503357 -1.4444607359221955 1.5261731147766113 0.37025463581085205 False False
511.26099999999997 0.6957037448883057 -1.770181795159811 -1.470481514930725 -1.4444371473840256 1.5261731147766113 0.370209664106369 False False
511.28099999999995 0.6957126259803772 -1.770238538781637 -1.470509648323059 -1.4444531214288254 1.526160717010498 0.3702501058578491 False False
511.301 0.6956994533538818 -1.7702256641783656 -1.4705182313919067 -1.444420875316002 1.5261485576629639 0.3702501058578491 False False
511.32099999999997 0.6957409381866455 -1.7701946697630824 -1.4704804420471191 -1.4444886457971116 1.5261566638946533 0.37023043632507324 False False
511.34099999999995 0.6957855820655823 -1.7702299557127894 -1.4704890251159668 -1.4444411557963868 1.5261731147766113 0.37021711468696594 False False
511.361 0.6957825422286987 -1.770238538781637 -1.4705171585083008 -1.4444209051183243 1.5261567831039429 0.3702293634414673 False False
511.381 0.6957484483718872 -1.7702051601805628 -1.4705052375793457 -1.4444451493075867 1.526168942451477 0.3702501058578491 False False
511.40099999999995 0.695749819278717 -1.7702228031554164 -1.4705464839935303 -1.4444130224040528 1.5261448621749878 0.37027832865715027 False False
511.421 0.6957453489303589 -1.770238538781637 -1.4704890251159668 -1.4444687080434342 1.5261485576629639 0.37014302611351013 False False
511.441 0.6957660913467407 -1.7701903782286585 -1.4704890251159668 -1.4444686633399506 1.5261406898498535 0.37025460600852966 False False
511.46099999999996 0.6957378387451172 -1.770238538781637 -1.470525860786438 -1.4443971675685425 1.526132583618164 0.3702096939086914 False False
511.481 0.6957616806030273 -1.770177503625387 -1.470468521118164 -1.4444252413562317 1.5261166095733643 0.37025007605552673 False False
511.501 0.6957452893257141 -1.7702719173827113 -1.4704564809799194 -1.4444452089122315 1.5261565446853638 0.37020084261894226 False False
511.52099999999996 0.695724606513977 -1.7702299557127894 -1.4704651832580566 -1.444437177186348 1.5261485576629639 0.37025895714759827 False False
511.541 0.6956995129585266 -1.7702342472472132 -1.4705020189285278 -1.4444650274566193 1.5261043310165405 0.3702053427696228 False False
511.561 0.6957067847251892 -1.7701932392516078 -1.470496654510498 -1.4444610935500641 1.5261648893356323 0.37025895714759827 False False
511.58099999999996 0.6957170963287354 -1.7702213726439417 -1.4705333709716797 -1.444464997654297 1.526132583618164 0.3702545464038849 False False
511.601 0.6957113742828369 -1.770181795159811 -1.4705009460449219 -1.4444570255330582 1.5261489152908325 0.37020838260650635 False False
511.621 0.6957083344459534 -1.7702342472472132 -1.470513939857483 -1.4444924306920548 1.5261485576629639 0.37026330828666687 False False
511.64099999999996 0.6957170963287354 -1.7702099285521449 -1.470513939857483 -1.4444528383067627 1.526168942451477 0.3702041506767273 False False
511.661 0.6957942843437195 -1.7702509365477503 -1.4704933166503906 -1.4444770228913804 1.526160717010498 0.3701730966567993 False False
511.681 0.6957572102546692 -1.770242830316061 -1.470513939857483 -1.4445051413825531 1.5261203050613403 0.37026748061180115 False False
511.70099999999996 0.6957647800445557 -1.770181795159811 -1.4704890251159668 -1.4444289666465302 1.5261485576629639 0.37023380398750305 False False
511.721 0.6957854628562927 -1.7701932392516078 -1.4704598188400269 -1.4444490534118195 1.5261166095733643 0.37023818492889404 False False
511.741 0.6957647204399109 -1.7701860866942347 -1.470472812652588 -1.444484682088234 1.5261366367340088 0.37023821473121643 False False
511.76099999999997 0.6957409381866455 -1.770238538781637 -1.4705095291137695 -1.4444411259940644 1.5261443853378296 0.37020090222358704 False False
511.78099999999995 0.6957496404647827 -1.7701903782286585 -1.4704642295837402 -1.4444888097098847 1.5261443853378296 0.37025004625320435 False False
511.801 0.6957572102546692 -1.7701860866942347 -1.4704651832580566 -1.4444085371545334 1.5261443853378296 0.37025004625320435 False False
511.82099999999997 0.6957083940505981 -1.770210405389303 -1.470444679260254 -1.4444490683129807 1.5261445045471191 0.3701643645763397 False False
511.84099999999995 0.6957377195358276 -1.7702299557127894 -1.4705381393432617 -1.4444687378457566 1.5261366367340088 0.3702085316181183 False False
511.861 0.6957322359085083 -1.7702962360777796 -1.4704934358596802 -1.4444289666465302 1.5261688232421875 0.3701934516429901 False False
511.881 0.6956921219825745 -1.7702142200865687 -1.4704726934432983 -1.444453091626503 1.526160717010498 0.37026306986808777 False False
511.90099999999995 0.6957290172576904 -1.7702018223204554 -1.4705009460449219 -1.4444289666465302 1.5261447429656982 0.37026315927505493 False False
511.921 0.6957409381866455 -1.7702228031554164 -1.4705009460449219 -1.444476680164673 1.5261566638946533 0.370270699262619 False False
511.941 0.6957821846008301 -1.7702018223204554 -1.4704681634902954 -1.444472850566246 1.52610445022583 0.3701966106891632 False False
511.96099999999996 0.6957170963287354 -1.7702552280821742 -1.4705218076705933 -1.4444289368442078 1.5261485576629639 0.37027499079704285 False False
511.981 0.6957452893257141 -1.7702552280821742 -1.4704562425613403 -1.4445089262774964 1.5261247158050537 0.3702172040939331 False False
512.001 0.6957528591156006 -1.7702142200865687 -1.4704846143722534 -1.4444330644658585 1.5261847972869873 0.37024247646331787 False False
512.021 0.6957409381866455 -1.7701975307860316 -1.47053062915802 -1.4444769632867356 1.5261324644088745 0.3702129125595093 False False
512.0409999999999 0.6957290172576904 -1.7702142200865687 -1.4704934358596802 -1.4444530618241807 1.5261281728744507 0.37028345465660095 False False
512.0609999999999 0.6957409381866455 -1.7702299557127894 -1.4704800844192505 -1.4444490683129807 1.5261526107788086 0.370209664106369 False False
512.081 0.6956921815872192 -1.7702380619444789 -1.4704771041870117 -1.4444208306125184 1.5261526107788086 0.3702216148376465 False False
512.101 0.6957247257232666 -1.7702299557127894 -1.4704890251159668 -1.4444088202765961 1.5261688232421875 0.370225191116333 False False
512.121 0.6957539319992065 -1.7702228031554164 -1.4704265594482422 -1.4444807183793564 1.52610445022583 0.37024998664855957 False False
512.141 0.6957409381866455 -1.7702299557127894 -1.4704890251159668 -1.4445294749787827 1.5261565446853638 0.3702009916305542 False False
512.161 0.6957170963287354 -1.770210405389303 -1.4705009460449219 -1.44448076308284 1.5261526107788086 0.3702010214328766 False False
512.1809999999999 0.6956998109817505 -1.7702084980406703 -1.4705009460449219 -1.4444170606187363 1.5261406898498535 0.37023377418518066 False False
512.201 0.6957863569259644 -1.7703076801695765 -1.4704800844192505 -1.4444847863963624 1.5261247158050537 0.3702096939086914 False False
512.221 0.6957170963287354 -1.7702747784056605 -1.4704771041870117 -1.4444606614163895 1.5261167287826538 0.3702543377876282 False False
512.241 0.6957452297210693 -1.7702270946898402 -1.470463752746582 -1.44441673279319 1.5261688232421875 0.37024569511413574 False False
512.261 0.6957571506500244 -1.77016081432485 -1.4704725742340088 -1.4444370728782197 1.526152491569519 0.3702424466609955 False False
512.281 0.6956921815872192 -1.7702833614745082 -1.4704726934432983 -1.4444490683129807 1.5261485576629639 0.3702946901321411 False False
512.3009999999999 0.6957290172576904 -1.7702342472472132 -1.470451831817627 -1.444449083214142 1.5261526107788086 0.37019670009613037 False False
512.321 0.6956965923309326 -1.7702299557127894 -1.4704846143722534 -1.4444007140449067 1.5261765718460083 0.37026187777519226 False False
512.341 0.6957128047943115 -1.7702509365477503 -1.4704771041870117 -1.4444170457175751 1.5261485576629639 0.37025001645088196 False False
512.361 0.6957733631134033 -1.7702299557127894 -1.4705218076705933 -1.4444490683129807 1.5261485576629639 0.3702010214328766 False False
512.381 0.6957366466522217 -1.7702671490111292 -1.4704844951629639 -1.4444407981685181 1.5261846780776978 0.37027060985565186 False False
512.401 0.6957204341888428 -1.7702790699400843 -1.4704562425613403 -1.4444490683129807 1.5261485576629639 0.37022945284843445 False False
512.4209999999999 0.6957182288169861 -1.7701975307860316 -1.470481514930725 -1.4444370579770585 1.5261327028274536 0.37023815512657166 False False
512.441 0.6957008838653564 -1.7701651058592738 -1.4704725742340088 -1.4444530767253418 1.5261647701263428 0.3702085614204407 False False
512.461 0.6957170963287354 -1.7701932392516078 -1.4704965353012085 -1.4444370728782197 1.526092290878296 0.37019670009613037 False False
512.481 0.6957170963287354 -1.7702099285521449 -1.4704606533050537 -1.4444126349738617 1.526168704032898 0.37022948265075684 False False
512.501 0.6957452297210693 -1.7701975307860316 -1.4704265594482422 -1.444461317067482 1.52610445022583 0.3702129125595093 False False
512.521 0.695692241191864 -1.7701736889281214 -1.4704934358596802 -1.4444289964488526 1.5261446237564087 0.37026187777519226 False False
512.5409999999999 0.6957008838653564 -1.7702061138548792 -1.4704681634902954 -1.4444289666465302 1.5261247158050537 0.37023818492889404 False False
512.5609999999999 0.6957247257232666 -1.7702299557127894 -1.470447301864624 -1.4444530767253418 1.526192545890808 0.37024572491645813 False False
512.581 0.6956879496574402 -1.7702552280821742 -1.470497965812683 -1.444469468002655 1.5261564254760742 0.37023377418518066 False False
512.601 0.6957170963287354 -1.7702018223204554 -1.4704771041870117 -1.4444450002959748 1.5261006355285645 0.3702216148376465 False False
512.621 0.6957743763923645 -1.77016081432485 -1.470430850982666 -1.4444330793670197 1.526140570640564 0.3702215850353241 False False
512.641 0.6957452297210693 -1.7702256641783656 -1.4705098867416382 -1.4444047820619126 1.5261446237564087 0.37019670009613037 False False
512.661 0.6957051753997803 -1.770238538781637 -1.4705053567886353 -1.4444530767253418 1.526168704032898 0.3702216148376465 False False
512.6809999999999 0.6956803202629089 -1.7702628574767054 -1.4705009460449219 -1.4444654297879715 1.5261690616607666 0.37025439739227295 False False
512.701 0.6957204341888428 -1.770181795159811 -1.470497965812683 -1.4444687825492402 1.526160478591919 0.37024998664855957 False False
512.721 0.6957290172576904 -1.770210405389303 -1.4705054759979248 -1.444461317067482 1.526140570640564 0.37024253606796265 False False
512.741 0.6957452297210693 -1.7702628574767054 -1.4704935550689697 -1.4444007140449067 1.5261406898498535 0.3701934814453125 False False
512.761 0.6956889629364014 -1.7702228031554164 -1.4704562425613403 -1.444468767648079 1.5261564254760742 0.37025439739227295 False False
512.781 0.6956889033317566 -1.770181795159811 -1.4704935550689697 -1.4444490683129807 1.5260967016220093 0.3702543079853058 False False
512.8009999999999 0.6957495212554932 -1.7702585659422816 -1.4704771041870117 -1.4445011031678696 1.5261567831039429 0.3702791631221771 False False
512.821 0.6957333087921143 -1.7702628574767054 -1.4705098867416382 -1.4444330644658585 1.5261526107788086 0.37023022770881653 False False
512.841 0.6957669258117676 -1.7702185116209925 -1.4704816341400146 -1.4444571298411866 1.5261485576629639 0.3702216148376465 False False
512.861 0.6957051753997803 -1.770205637017721 -1.4705382585525513 -1.4444370728782197 1.5261164903640747 0.3702748715877533 False False
512.881 0.695692241191864 -1.7702061138548792 -1.4705308675765991 -1.4443967056325455 1.526132583618164 0.37025436758995056 False False
512.901 0.6957290172576904 -1.7702423534789027 -1.470497965812683 -1.444433094268181 1.526132583618164 0.37023377418518066 False False
512.9209999999999 0.6957257390022278 -1.7702061138548792 -1.4704844951629639 -1.4444248241237183 1.52611243724823 0.370209664106369 False False
512.941 0.6957117915153503 -1.770242830316061 -1.4705009460449219 -1.444380671983101 1.5261123180389404 0.37023016810417175 False False
512.961 0.6957213878631592 -1.770287653008932 -1.470496416091919 -1.444484831099846 1.5261526107788086 0.3702172338962555 False False
512.981 0.6957776546478271 -1.7702018223204554 -1.4705337285995483 -1.4444531065276642 1.5261526107788086 0.37022948265075684 False False
513.001 0.6957409381866455 -1.7702466450133265 -1.4704771041870117 -1.4444330793670197 1.5261002779006958 0.3702705502510071 False False
513.021 0.6956631541252136 -1.7702142200865687 -1.4704965353012085 -1.444461317067482 1.526132583618164 0.37023377418518066 False False
513.0409999999999 0.6957128047943115 -1.7702061138548792 -1.4704800844192505 -1.4444490683129807 1.526120662689209 0.3702414035797119 False False
513.0609999999999 0.6957247257232666 -1.7701412640013636 -1.4704725742340088 -1.4444728356650849 1.526120662689209 0.37026292085647583 False False
513.081 0.6957247257232666 -1.7701975307860316 -1.4704890251159668 -1.4444289964488526 1.5261284112930298 0.37019672989845276 False False
513.101 0.6957690715789795 -1.7702099285521449 -1.4704606533050537 -1.444420800810196 1.5262049436569214 0.370238333940506 False False
513.121 0.69569993019104 -1.7702423534789027 -1.470502495765686 -1.4444571447423478 1.5261366367340088 0.3702412545681 False False
513.141 0.6957333087921143 -1.7702256641783656 -1.4705142974853516 -1.4444491279176255 1.5261485576629639 0.37022605538368225 False False
513.161 0.6957333087921143 -1.770217081109518 -1.4704681634902954 -1.4444208306125184 1.5261850357055664 0.3702383041381836 False False
513.1809999999999 0.6957366466522217 -1.7702342472472132 -1.4704562425613403 -1.4444168669036408 1.5261609554290771 0.3702216148376465 False False
513.201 0.6957170963287354 -1.770177503625387 -1.4704844951629639 -1.4444089394858857 1.5261247158050537 0.37025463581085205 False False
513.221 0.6956999897956848 -1.7702342472472132 -1.4704800844192505 -1.4444491130164643 1.5261403322219849 0.37024715542793274 False False
513.241 0.6957008838653564 -1.770205637017721 -1.4704890251159668 -1.4444571149400254 1.5261927843093872 0.37020525336265564 False False
513.261 0.6957247257232666 -1.7702342472472132 -1.4704844951629639 -1.4444371324828644 1.5261164903640747 0.37024569511413574 False False
513.281 0.6957485675811768 -1.7701932392516078 -1.4704355001449585 -1.4444727313569565 1.5261242389678955 0.37025460600852966 False False
513.3009999999999 0.6957452297210693 -1.7702228031554164 -1.4704890251159668 -1.4445049476674576 1.5261448621749878 0.3702501356601715 False False
513.321 0.6957334876060486 -1.7702256641783656 -1.4704352617263794 -1.4444491428187867 1.5261526107788086 0.37019631266593933 False False
513.341 0.6957409381866455 -1.770188947717184 -1.4705144166946411 -1.4444289964488526 1.5261443853378296 0.3702126443386078 False False
513.361 0.6957334280014038 -1.770275732079977 -1.4704965353012085 -1.4444251221469422 1.5261001586914062 0.3702249228954315 False False
513.381 0.6956754922866821 -1.7702270946898402 -1.4704890251159668 -1.4444491577199479 1.526132583618164 0.37019631266593933 False False
513.401 0.6957616806030273 -1.7702638111510218 -1.4704800844192505 -1.444445253615715 1.5261850357055664 0.37019631266593933 False False
513.4209999999999 0.6956962943077087 -1.770153661767477 -1.4704726934432983 -1.444445164208748 1.5261448621749878 0.37020525336265564 False False
513.441 0.6957334876060486 -1.7702299557127894 -1.4705173969268799 -1.4444726270488282 1.526132583618164 0.3702216148376465 False False
513.461 0.6957201361656189 -1.7702342472472132 -1.4705054759979248 -1.4444292795709153 1.5261125564575195 0.37019631266593933 False False
513.481 0.6957454085350037 -1.7702061138548792 -1.470430850982666 -1.4444611233523865 1.5261247158050537 0.3702126145362854 False False
513.501 0.6957334876060486 -1.7702099285521449 -1.4705337285995483 -1.4444806438735505 1.526120662689209 0.3702590763568878 False False
513.521 0.6957617402076721 -1.7702251873412074 -1.4704844951629639 -1.4444530767253418 1.5261247158050537 0.37020525336265564 False False
513.5409999999999 0.6957112550735474 -1.7702099285521449 -1.470496416091919 -1.444476680164673 1.5261485576629639 0.3701874911785126 False False
513.5609999999999 0.6957661509513855 -1.7701689205565394 -1.4705308675765991 -1.4444329601577302 1.5260965824127197 0.3702216148376465 False False
513.581 0.6956993937492371 -1.770205637017721 -1.4704636335372925 -1.4444371920875092 1.526160717010498 0.37019631266593933 False False
513.601 0.6957484483718872 -1.7701946697630824 -1.4704934358596802 -1.4444051396897812 1.5261205434799194 0.3702007234096527 False False
513.621 0.6957365274429321 -1.7702142200865687 -1.4704428911209106 -1.4444530767253418 1.5261329412460327 0.3702501356601715 False False
513.641 0.6957259774208069 -1.7702514133849085 -1.47046959400177 -1.444445164208748 1.5261485576629639 0.3702412545681 False False
513.661 0.6957661509513855 -1.7701813183226527 -1.4704726934432983 -1.4444091481021424 1.5260965824127197 0.370242714881897 False False
513.6809999999999 0.6957201361656189 -1.7702342472472132 -1.470463752746582 -1.4444132459214707 1.5261975526809692 0.3702412545681 False False
513.701 0.6957617402076721 -1.7701488933958949 -1.4705144166946411 -1.4444047671607514 1.5261406898498535 0.37021705508232117 False False
513.721 0.6957082152366638 -1.7702390156187953 -1.4704382419586182 -1.444476993089058 1.52611243724823 0.37025463581085205 False False
513.741 0.6957290172576904 -1.7702390156187953 -1.4705382585525513 -1.4444330793670197 1.5261284112930298 0.3702126443386078 False False
513.761 0.695757269859314 -1.7701813183226527 -1.470486044883728 -1.4444728207639237 1.5261366367340088 0.3702546954154968 False False
513.781 0.6957454085350037 -1.7702142200865687 -1.4704844951629639 -1.44441710532222 1.5261729955673218 0.37024274468421936 False False
513.8009999999999 0.6957587003707886 -1.7702466450133265 -1.4705173969268799 -1.4444047671607514 1.5261284112930298 0.3702305257320404 False False
513.821 0.6957409381866455 -1.7702228031554164 -1.4705009460449219 -1.444465385084488 1.526168942451477 0.3701772689819336 False False
513.841 0.6957082152366638 -1.7702514133849085 -1.4705098867416382 -1.4445134413293381 1.5261485576629639 0.3702184855937958 False False
513.861 0.6956949234008789 -1.7701903782286585 -1.470475673675537 -1.4444571447423478 1.526128888130188 0.37021711468696594 False False
513.881 0.6957126259803772 -1.7702003918089808 -1.4704934358596802 -1.4444330644658585 1.5261284112930298 0.37026360630989075 False False
513.901 0.6957170963287354 -1.7702275715269984 -1.4704593420028687 -1.4444370728782197 1.5261445045471191 0.37021708488464355 False False
513.9209999999999 0.695724606513977 -1.7702256641783656 -1.4704771041870117 -1.4444530767253418 1.5261648893356323 0.370238333940506 False False
513.941 0.6957259178161621 -1.7702299557127894 -1.4704978466033936 -1.444493056540825 1.5261485576629639 0.37021705508232117 False False
513.961 0.6957126259803772 -1.7702142200865687 -1.4705098867416382 -1.4444687229445954 1.526095986366272 0.37027549743652344 False False
513.981 0.695696234703064 -1.7702208958067835 -1.470512866973877 -1.4444571745446702 1.5261324644088745 0.3701843321323395 False False
514.001 0.695712685585022 -1.7702390156187953 -1.4704562425613403 -1.444408805375435 1.5261567831039429 0.3702472448348999 False False
514.021 0.6957290172576904 -1.7702299557127894 -1.4705216884613037 -1.4444129926017304 1.5260800123214722 0.3701799511909485 False False
514.0409999999999 0.695696234703064 -1.7702390156187953 -1.4705337285995483 -1.44442072630439 1.5261164903640747 0.37021708488464355 False False
514.0609999999999 0.6957125663757324 -1.7702838383116664 -1.4704771041870117 -1.4444970798543473 1.526160717010498 0.37026357650756836 False False
514.081 0.6957215666770935 -1.7702390156187953 -1.470463752746582 -1.4444647443345566 1.5261123180389404 0.3702215850353241 False False
514.101 0.6956873536109924 -1.7702208958067835 -1.4705053567886353 -1.4444450300982972 1.5261205434799194 0.37016379833221436 False False
514.121 0.695712685585022 -1.7702256641783656 -1.4704726934432983 -1.444396750336029 1.5261403322219849 0.3702097237110138 False False
514.141 0.6956754326820374 -1.7702857456602992 -1.4704978466033936 -1.4444530469230195 1.5261001586914062 0.3702126741409302 False False
514.161 0.6957334876060486 -1.7702423534789027 -1.4704846143722534 -1.4444330644658585 1.526120662689209 0.37024572491645813 False False
514.1809999999999 0.6957781910896301 -1.7701903782286585 -1.4705172777175903 -1.444457159643509 1.5261366367340088 0.3702126145362854 False False
514.201 0.6957037448883057 -1.7702542744078578 -1.4705053567886353 -1.4444330495646973 1.5261526107788086 0.3702126145362854 False False
514.221 0.6957334876060486 -1.7701722584166468 -1.4705291986465454 -1.444472850566246 1.5261242389678955 0.3702006936073303 False False
514.241 0.6957036852836609 -1.770243307153219 -1.4705216884613037 -1.4445171666196366 1.5261927843093872 0.37022608518600464 False False
514.261 0.6956948041915894 -1.7702723942198695 -1.4704726934432983 -1.4444888246110459 1.5261123180389404 0.3702141344547272 False False
514.281 0.6956709623336792 -1.7702061138548792 -1.4704965353012085 -1.44441673279319 1.5261443853378296 0.37024569511413574 False False
514.3009999999999 0.6957126259803772 -1.7702390156187953 -1.4704875946044922 -1.4444524508765717 1.5261164903640747 0.37028294801712036 False False
514.321 0.6957379579544067 -1.7702228031554164 -1.4704400300979614 -1.4444613319686432 1.5261808633804321 0.37018436193466187 False False
514.341 0.6957126259803772 -1.770247598687643 -1.470512866973877 -1.4444449853948136 1.5261406898498535 0.3702547252178192 False False
514.361 0.6956992745399475 -1.7702342472472132 -1.4704890251159668 -1.4444728207639237 1.5261648893356323 0.3701843023300171 False False
514.381 0.6957334876060486 -1.7702208958067835 -1.4705053567886353 -1.4444330644658585 1.5261043310165405 0.37022608518600464 False False
514.401 0.6957170963287354 -1.7702342472472132 -1.4705216884613037 -1.4444530767253418 1.5260759592056274 0.37023383378982544 False False
514.4209999999999 0.6957781910896301 -1.7702557049193324 -1.4705009460449219 -1.4444370728782197 1.5261567831039429 0.37022167444229126 False False
514.441 0.6956917643547058 -1.7702018223204554 -1.4705305099487305 -1.4444207561067124 1.5261164903640747 0.3702293038368225 False False
514.461 0.6957752108573914 -1.7702390156187953 -1.4704608917236328 -1.4444047224572678 1.526132583618164 0.3702037036418915 False False
514.481 0.6957170963287354 -1.7703048191466273 -1.4704978466033936 -1.4444565337947388 1.5261731147766113 0.37022489309310913 False False
514.501 0.6957662105560303 -1.7702142200865687 -1.4705084562301636 -1.4444613319686432 1.5261890888214111 0.370238333940506 False False
514.521 0.6957334876060486 -1.7702390156187953 -1.470542311668396 -1.4444530767253418 1.5261164903640747 0.37025463581085205 False False
514.5409999999999 0.6957573890686035 -1.7702061138548792 -1.4704476594924927 -1.4445010733655472 1.5261567831039429 0.3701682686805725 False False
514.5609999999999 0.6956583857536316 -1.7701722584166468 -1.4704771041870117 -1.444445328121521 1.526104211807251 0.3702216148376465 False False
514.581 0.695696234703064 -1.7702228031554164 -1.47046959400177 -1.4444289666465302 1.5261448621749878 0.37024566531181335 False False
514.601 0.6957290172576904 -1.7702185116209925 -1.4705215692520142 -1.44448475659404 1.5261366367340088 0.37019625306129456 False False
514.621 0.6957170963287354 -1.7702423534789027 -1.4705171585083008 -1.4444290113500138 1.5261366367340088 0.3702516555786133 False False
514.641 0.6957290172576904 -1.7701856098570765 -1.4704726934432983 -1.4444290113500138 1.5261766910552979 0.37021416425704956 False False
514.661 0.6957126259803772 -1.7702094517149867 -1.4705216884613037 -1.4444129926017304 1.526095986366272 0.37026652693748474 False False
514.6809999999999 0.6957870721817017 -1.7702390156187953 -1.4704432487487793 -1.444453091626503 1.5261366367340088 0.3702215850353241 False False
514.701 0.6957036852836609 -1.7702185116209925 -1.4704965353012085 -1.4444330644658585 1.526160717010498 0.37029513716697693 False False
514.721 0.6957007050514221 -1.7702299557127894 -1.4705421924591064 -1.44441673279319 1.5261648893356323 0.3702383041381836 False False
514.741 0.6957423686981201 -1.770215173760885 -1.4705215692520142 -1.444493056540825 1.5261366367340088 0.3702216148376465 False False
