Andreas691667/Digital_Twin_UR/src/controller_monitor/test_results/test_motion1.csv
timestamp actual_q_0 actual_q_1 actual_q_2 actual_q_3 actual_q_4 actual_q_5 output_bit_register_65 output_bit_register_66
2470.879 0.039038196206092834 -1.5768519840636195 -0.034760527312755585 -0.017919616108276415 0.030352216213941574 0.010804529301822186 True False
2470.899 0.03900844231247902 -1.5768104992308558 -0.034776702523231506 -0.017862991695739794 0.030348120257258415 0.010796846821904182 True False
2470.919 0.039017435163259506 -1.5767790279784144 -0.034793511033058167 -0.017887548809387255 0.030372612178325653 0.010808778926730156 True False
2470.939 0.03898755460977554 -1.5768104992308558 -0.03480055183172226 -0.017875151043273974 0.03037261962890625 0.010820708237588406 True False
2470.959 0.03900960832834244 -1.5768443546690882 -0.034739941358566284 -0.017858938579895067 0.03038862906396389 0.010767688974738121 True False
2470.979 0.039051469415426254 -1.5768233738341273 -0.03478538617491722 -0.017919496898986864 0.03034815564751625 0.010796070098876953 True False
2470.999 0.038963623344898224 -1.5767866573729457 -0.03475173935294151 -0.017899469738342333 0.03038857690989971 0.010776197537779808 True False
2471.019 0.03899624943733215 -1.5768233738341273 -0.0347679927945137 -0.017887548809387255 0.030412470921874046 0.010759280994534492 True False
2471.0389999999998 0.03897559642791748 -1.5768443546690882 -0.0347767099738121 -0.017875270252563524 0.03040463849902153 0.010747421532869339 True False
2471.0589999999997 0.03899623453617096 -1.5768519840636195 -0.03474314510822296 -0.01789160192523198 0.030368531122803688 0.010836828500032425 True False
2471.0789999999997 0.03904249519109726 -1.576827188531393 -0.034763723611831665 -0.017883376484252977 0.030368531122803688 0.010792642831802368 True False
2471.0989999999997 0.038991887122392654 -1.576839109460348 -0.03476807102560997 -0.017855243091918993 0.03031609207391739 0.010751577094197273 True False
2471.1189999999997 0.039030592888593674 -1.5768758259215296 -0.03475617244839668 -0.017923788433410692 0.030428824946284294 0.010803783312439919 True False
2471.1389999999997 0.03900954872369766 -1.5768519840636195 -0.03473992273211479 -0.017851189976074266 0.030408406630158424 0.010824907571077347 False False
2471.159 0.03902922943234444 -1.5768443546690882 -0.03482166677713394 -0.017851070766784716 0.03037681058049202 0.010775732807815075 False False
2471.179 0.039029255509376526 -1.5767866573729457 -0.034747444093227386 -0.01785929620776372 0.030356289818882942 0.010784149169921875 False False
2471.199 0.03904246538877487 -1.5767866573729457 -0.03480496630072594 -0.017859057789184618 0.03037220425903797 0.010796846821904182 False False
2471.219 0.03896366059780121 -1.5768681965269984 -0.034760475158691406 -0.01789124429736333 0.030384523794054985 0.010775766335427761 False False
2471.239 0.039021771401166916 -1.5768801174559535 -0.03473224118351936 -0.01783926904711919 0.030392318964004517 0.01076348964124918 False False
2471.259 0.03899627551436424 -1.5768186054625453 -0.03473132103681564 -0.01785929620776372 0.030376778915524483 0.010771989822387695 False False
2471.279 0.03895186260342598 -1.576827188531393 -0.03474747762084007 -0.017915324573852587 0.03041245974600315 0.010775724425911903 False False
2471.299 0.03901289030909538 -1.576876779595846 -0.03475600853562355 -0.01792784154925542 0.030376385897397995 0.010759280994534492 False False
2471.319 0.03901602700352669 -1.5768639049925746 -0.03475602716207504 -0.017875389461853075 0.03033621795475483 0.010755861178040504 False False
2471.339 0.038979992270469666 -1.5768562755980433 -0.03472772240638733 -0.017835335140564013 0.03033621795475483 0.010807965882122517 False False
2471.359 0.03898882865905762 -1.5768605671324671 -0.034772396087646484 -0.01788707197222905 0.030376363545656204 0.010796846821904182 False False
2471.379 0.038979992270469666 -1.5768276653685511 -0.03475147485733032 -0.017939881687500048 0.030376410111784935 0.010820699855685234 False False
2471.399 0.03900425136089325 -1.5768400631346644 -0.03475894033908844 -0.017883376484252977 0.030384540557861328 0.010832536034286022 False False
2471.419 0.03898446634411812 -1.5768033466734828 -0.034732185304164886 -0.017919616108276415 0.030404655262827873 0.01076348964124918 False False
2471.439 0.03899630904197693 -1.576778074304098 -0.03477685526013374 -0.017823175793029833 0.03038046881556511 0.010779941454529762 False False
2471.459 0.039005111902952194 -1.5768476925291957 -0.03475603088736534 -0.017919258480407763 0.030368538573384285 0.01076348964124918 False False
2471.479 0.03899629786610603 -1.5768519840636195 -0.03483547642827034 -0.01789923131976323 0.03034811094403267 0.010788441635668278 False False
2471.499 0.039005111902952194 -1.5768314800658167 -0.03477685526013374 -0.017903046017028856 0.030396461486816406 0.010816407389938831 False False
2471.519 0.039079226553440094 -1.5768190822997035 -0.03475151211023331 -0.01785917699847417 0.030340246856212616 0.010747360065579414 False False
2471.5389999999998 0.03902917355298996 -1.5768147907652796 -0.03475148230791092 -0.017843322162963915 0.030368555337190628 0.010784165933728218 False False
2471.5589999999997 0.039005108177661896 -1.5768681965269984 -0.03479380160570145 -0.017927722339965868 0.030364442616701126 0.010772006586194038 False False
2471.5789999999997 0.03902169689536095 -1.5768190822997035 -0.03476337343454361 -0.0178794425776978 0.03041655942797661 0.010755898430943489 False False
2471.5989999999997 0.038988836109638214 -1.5768400631346644 -0.03473513573408127 -0.01789923131976323 0.030384523794054985 0.01082832831889391 False False
2471.6189999999997 0.03902916982769966 -1.576855321923727 -0.03472331911325455 -0.0178794425776978 0.030412916094064713 0.010755861178040504 False False
2471.6389999999997 0.039033595472574234 -1.5768233738341273 -0.03475151211023331 -0.017883376484252977 0.030384590849280357 0.010722928680479527 False False
2471.659 0.03900856897234917 -1.5768605671324671 -0.03482209891080856 -0.017831520443298388 0.030340256169438362 0.010739806108176708 False False
2471.679 0.03899632394313812 -1.576806207696432 -0.034772396087646484 -0.01789136350665288 0.03038862906396389 0.01078845001757145 False False
2471.699 0.03902916982769966 -1.5767904720702113 -0.034742552787065506 -0.01789136350665288 0.030368531122803688 0.010767717845737934 False False
2471.719 0.039026014506816864 -1.5768314800658167 -0.03477241471409798 -0.01791115224871831 0.030392363667488098 0.010807991027832031 False False
2471.739 0.03898003697395325 -1.5768763027586878 -0.034727759659290314 -0.01794810712847905 0.030348103493452072 0.010804621502757072 False False
2471.759 0.03897692635655403 -1.5768925152220667 -0.034755997359752655 -0.01792796075854497 0.030380912125110626 0.010755861178040504 False False
2471.779 0.038944173604249954 -1.5768233738341273 -0.0348006971180439 -0.017871217136718798 0.030356289818882942 0.010807991027832031 False False
2471.799 0.03898882865905762 -1.5767823658385218 -0.034772396087646484 -0.017915443783142138 0.03042064979672432 0.010776197537779808 False False
2471.819 0.03900076821446419 -1.5768276653685511 -0.034751467406749725 -0.01786704481158452 0.030360378324985504 0.010747360065579414 False False
2471.839 0.03900507837533951 -1.5768033466734828 -0.03474409133195877 -0.01787932336840825 0.030376790091395378 0.010775773786008358 False False
2471.859 0.03902597725391388 -1.5768357716002406 -0.034751467406749725 -0.017899350529052782 0.030437037348747253 0.010796070098876953 False False
2471.879 0.038947638124227524 -1.5768400631346644 -0.034789349883794785 -0.017875151043273974 0.03041655942797661 0.01077624037861824 False False
2471.899 0.039021626114845276 -1.5768400631346644 -0.034772396087646484 -0.017911748295166063 0.030336182564496994 0.01079264935106039 False False
2471.919 0.0390007421374321 -1.576799055139059 -0.034784793853759766 -0.017887548809387255 0.030424755066633224 0.010788599029183388 False False
2471.939 0.03900507092475891 -1.5768400631346644 -0.03477684408426285 -0.017927722339965868 0.030376378446817398 0.010791701264679432 False False
2471.959 0.038968276232481 -1.5768519840636195 -0.034751445055007935 -0.01786704481158452 0.03041655942797661 0.010784139856696129 False False
2471.979 0.038971565663814545 -1.576799055139059 -0.034772396087646484 -0.01796002805743413 0.03040463849902153 0.01077977754175663 False False
2471.999 0.03897576034069061 -1.5768562755980433 -0.0347633883357048 -0.017843322162963915 0.030392799526453018 0.01079169288277626 False False
2472.019 0.039012908935546875 -1.576787611047262 -0.03472774103283882 -0.01789577425036626 0.030364451929926872 0.010800421237945557 False False
2472.0389999999998 0.03897255286574364 -1.5768763027586878 -0.034800708293914795 -0.01787932336840825 0.030384540557861328 0.010784149169921875 False False
2472.0589999999997 0.038996368646621704 -1.5769130192198695 -0.034772370010614395 -0.01782269895587163 0.03038087859749794 0.010788599029183388 False False
2472.0789999999997 0.0389801450073719 -1.5768314800658167 -0.03476783633232117 -0.017842964535095263 0.030384540557861328 0.010829893872141838 False False
2472.0989999999997 0.039008598774671555 -1.576820512811178 -0.034775830805301666 -0.017895297413208056 0.03040880151093006 0.010760094970464706 False False
2472.1189999999997 0.039026010781526566 -1.5768476925291957 -0.034814294427633286 -0.017932013874389696 0.030352218076586723 0.010791727341711521 False False
2472.1389999999997 0.038984514772892 -1.5768400631346644 -0.03477393835783005 -0.017870978718139696 0.030384540557861328 0.010751279070973396 False False
2472.159 0.039033547043800354 -1.5767866573729457 -0.03475145250558853 -0.017838673000671434 0.030376363545656204 0.010792962275445461 False False
2472.179 0.0390450544655323 -1.5768104992308558 -0.034760475158691406 -0.01787932336840825 0.030384540557861328 0.010816717520356178 False False
2472.199 0.038948412984609604 -1.5768801174559535 -0.03482217341661453 -0.017875270252563524 0.03037261962890625 0.010816717520356178 False False
2472.219 0.03904952108860016 -1.5768033466734828 -0.03481307998299599 -0.01792355001483159 0.030376765877008438 0.010784149169921875 False False
2472.239 0.03902163356542587 -1.5767747364439906 -0.03477691113948822 -0.01790352285418706 0.030372191220521927 0.010803639888763428 False False
2472.259 0.038947585970163345 -1.5767656765379847 -0.03476785495877266 -0.01790352285418706 0.030364442616701126 0.0107588404789567 False False
2472.279 0.03901730105280876 -1.5767742596068324 -0.03478935360908508 -0.017826990490295458 0.030376363545656204 0.010772007517516613 False False
2472.299 0.038956426084041595 -1.5768314800658167 -0.03475148603320122 -0.017826990490295458 0.030344458296895027 0.010784149169921875 False False
2472.319 0.039005063474178314 -1.5767785511412562 -0.034772396087646484 -0.017875270252563524 0.030388178303837776 0.010771989822387695 False False
2472.339 0.03902165964245796 -1.5768605671324671 -0.034772396087646484 -0.017899350529052782 0.030392799526453018 0.010763176716864109 False False
2472.359 0.03903357312083244 -1.5768076382079066 -0.034784793853759766 -0.017862991695739794 0.03037261962890625 0.010751280002295971 False False
2472.379 0.039000749588012695 -1.5768763027586878 -0.03471864387392998 -0.01790364206347661 0.03036855161190033 0.01077977754175663 False False
2472.399 0.038968276232481 -1.5768643818297328 -0.034764938056468964 -0.017851070766784716 0.03036043606698513 0.010837404057383537 False False
2472.419 0.03896502032876015 -1.5767866573729457 -0.03474407270550728 -0.017883376484252977 0.03034811094403267 0.010779859498143196 False False
2472.439 0.039012908935546875 -1.57678284267568 -0.03479384630918503 -0.01784701765093999 0.030396461486816406 0.01077542919665575 False False
2472.459 0.03900936618447304 -1.5768596134581507 -0.034732162952423096 -0.017887548809387255 0.030368531122803688 0.010746928863227367 False False
2472.479 0.03894418478012085 -1.576860090295309 -0.03477686643600464 -0.017883376484252977 0.03041282668709755 0.010776340961456299 False False
2472.499 0.03901294246315956 -1.5767790279784144 -0.03478580713272095 -0.017870978718139696 0.030400549992918968 0.010771989822387695 False False
2472.519 0.03900507465004921 -1.5768476925291957 -0.03476337343454361 -0.017838673000671434 0.03036453202366829 0.010784149169921875 False False
2472.5389999999998 0.03893909603357315 -1.576827188531393 -0.034780342131853104 -0.017895655041076708 0.030372191220521927 0.010776419192552567 False False
2472.5589999999997 0.0389920137822628 -1.576806207696432 -0.034760475158691406 -0.017899350529052782 0.03035220131278038 0.01079171895980835 False False
2472.5789999999997 0.03901292756199837 -1.5768314800658167 -0.034744057804346085 -0.01789124429736333 0.03038862906396389 0.010776340961456299 False False
2472.5989999999997 0.0389757864177227 -1.5768357716002406 -0.03480526804924011 -0.017883376484252977 0.03041655942797661 0.010760068893432617 False False
2472.6189999999997 0.03898884728550911 -1.5768801174559535 -0.03472767025232315 -0.017895297413208056 0.030368531122803688 0.010809246450662613 False False
2472.6389999999997 0.03902482986450195 -1.576831956902975 -0.034789327532052994 -0.01786704481158452 0.030396461486816406 0.010754424147307873 False False
2472.659 0.03896387666463852 -1.5768233738341273 -0.03475600481033325 -0.017830924396850634 0.030336182564496994 0.010763176716864109 False False
2472.679 0.03901730105280876 -1.5768681965269984 -0.034760475158691406 -0.01789160192523198 0.03036046028137207 0.010825465433299541 False False
2472.699 0.03896390274167061 -1.5768686733641566 -0.034744083881378174 -0.017919616108276415 0.030408810824155807 0.01073497161269188 False False
2472.719 0.03895961493253708 -1.5768233738341273 -0.034789346158504486 -0.01792355001483159 0.030368531122803688 0.010763176716864109 False False
2472.739 0.03900935500860214 -1.5768605671324671 -0.03477690368890762 -0.017850951557495165 0.030368531122803688 0.010767539963126183 False False
2472.759 0.03898013383150101 -1.576888223687643 -0.03476785495877266 -0.017895297413208056 0.03038862906396389 0.010755705647170544 False False
2472.779 0.03901805356144905 -1.5768233738341273 -0.034751445055007935 -0.01789124429736333 0.03035220131278038 0.010746866464614868 False False
2472.799 0.038984544575214386 -1.576827188531393 -0.03478935360908508 -0.017851070766784716 0.030400549992918968 0.01079735066741705 False False
2472.819 0.0390833243727684 -1.5768562755980433 -0.03482205420732498 -0.01787932336840825 0.03033619001507759 0.010816717520356178 False False
2472.839 0.038968317210674286 -1.5768147907652796 -0.034793805330991745 -0.01786704481158452 0.030368531122803688 0.010763165540993214 False False
2472.859 0.03900441154837608 -1.5767785511412562 -0.03478935360908508 -0.017907218342163134 0.030392806977033615 0.010816717520356178 False False
2472.879 0.0389888621866703 -1.5768476925291957 -0.03478032350540161 -0.01786704481158452 0.030360426753759384 0.010768930427730083 False False
2472.899 0.039012908935546875 -1.5767666302123011 -0.03478935360908508 -0.01791127145800786 0.03036046028137207 0.010775375179946423 False False
2472.919 0.03900967910885811 -1.5768147907652796 -0.03479381650686264 -0.01789124429736333 0.030368637293577194 0.010784157551825047 False False
2472.939 0.03902482986450195 -1.5768357716002406 -0.034784767776727676 -0.01784737527880864 0.03038860484957695 0.010791648179292679 False False
2472.959 0.0390174426138401 -1.5768715343871058 -0.034752972424030304 -0.017915443783142138 0.03041655942797661 0.010755693539977074 False False
2472.979 0.03897244855761528 -1.5768639049925746 -0.03477688878774643 -0.01789124429736333 0.030344022437930107 0.010760086588561535 False False
2472.999 0.03893936425447464 -1.5767909489073695 -0.03480526804924011 -0.017899350529052782 0.03039276786148548 0.010775399394333363 False False
2473.019 0.03902924060821533 -1.5768147907652796 -0.03476785868406296 -0.017878727321960497 0.03040463849902153 0.010800445452332497 False False
2473.0389999999998 0.039005208760499954 -1.5768481693663539 -0.0347350612282753 -0.01789124429736333 0.03038863278925419 0.01082562655210495 False False
2473.0589999999997 0.03902188315987587 -1.5768233738341273 -0.03476785123348236 -0.017899350529052782 0.030368531122803688 0.010816765017807484 False False
2473.0789999999997 0.038997720927000046 -1.5768681965269984 -0.03477686643600464 -0.01787932336840825 0.03041289933025837 0.010771989822387695 False False
2473.0989999999997 0.03902190923690796 -1.5768190822997035 -0.03475600481033325 -0.017883376484252977 0.030339928343892097 0.010791660286486149 False False
2473.1189999999997 0.038984399288892746 -1.5768596134581507 -0.03478133678436279 -0.01791127145800786 0.030372636392712593 0.010751213878393173 False False
2473.1389999999997 0.03899330273270607 -1.5768190822997035 -0.03480527549982071 -0.017887548809387255 0.03043699450790882 0.010755693539977074 False False
2473.159 0.039033811539411545 -1.5767909489073695 -0.03477686643600464 -0.01789124429736333 0.030384540557861328 0.010776376351714134 False False
2473.179 0.038963478058576584 -1.5768190822997035 -0.034760482609272 -0.01786704481158452 0.030368559062480927 0.010779762640595436 False False
2473.199 0.03904270380735397 -1.5768147907652796 -0.034781314432621 -0.01785929620776372 0.03043285384774208 0.010767514817416668 False False
2473.219 0.039021916687488556 -1.5768314800658167 -0.034751445055007935 -0.01791127145800786 0.030324313789606094 0.010812287218868732 False False
2473.239 0.03901742771267891 -1.576831956902975 -0.034772396087646484 -0.017851070766784716 0.030380476266145706 0.010779744945466518 False False
2473.259 0.03901290148496628 -1.5768519840636195 -0.034772396087646484 -0.017875270252563524 0.03039301373064518 0.010784149169921875 False False
2473.279 0.03902189061045647 -1.576822896996969 -0.03478477522730827 -0.017875270252563524 0.030372338369488716 0.010809282772243023 False False
2473.299 0.03899956867098808 -1.5767909489073695 -0.034772396087646484 -0.017830924396850634 0.030368590727448463 0.010760068893432617 False False
2473.319 0.03899956867098808 -1.576827188531393 -0.03475602716207504 -0.01786704481158452 0.030392728745937347 0.010764440521597862 False False
2473.339 0.03898882865905762 -1.5769087276854457 -0.03475604206323624 -0.017875151043273974 0.03041275590658188 0.01080043613910675 False False
2473.359 0.03897244855761528 -1.576855321923727 -0.03476051241159439 -0.017899350529052782 0.030392728745937347 0.010816734284162521 False False
2473.379 0.03898439183831215 -1.5767666302123011 -0.03477684408426285 -0.017939881687500048 0.030376125127077103 0.01077537052333355 False False
2473.399 0.03897539898753166 -1.5768357716002406 -0.03476788103580475 -0.01786704481158452 0.030388569459319115 0.0108255660161376 False False
2473.419 0.039000749588012695 -1.576799055139059 -0.034754570573568344 -0.01790352285418706 0.030360495671629906 0.010788570158183575 False False
2473.439 0.0390620194375515 -1.5768076382079066 -0.03480519726872444 -0.01787932336840825 0.030356155708432198 0.010760068893432617 False False
2473.459 0.03893035650253296 -1.576799055139059 -0.034717410802841187 -0.01786716402087407 0.030368465930223465 0.010760104283690453 False False
2473.479 0.038987357169389725 -1.576770921746725 -0.034772396087646484 -0.017907575970031786 0.030376475304365158 0.010788596235215664 False False
2473.499 0.039021871984004974 -1.5768314800658167 -0.03472330421209335 -0.017932013874389696 0.030364561825990677 0.01073506847023964 False False
2473.519 0.039000749588012695 -1.5768276653685511 -0.03477240353822708 -0.017855243091918993 0.03038075938820839 0.010776367038488388 False False
2473.5389999999998 0.03904535621404648 -1.576806207696432 -0.03480517119169235 -0.01784737527880864 0.03035634197294712 0.010779798030853271 False False
2473.5589999999997 0.03895164653658867 -1.5768233738341273 -0.03475604206323624 -0.017927603130676317 0.030396461486816406 0.010797289200127125 False False
2473.5789999999997 0.038988836109638214 -1.5768076382079066 -0.03475605696439743 -0.017915324573852587 0.030420426279306412 0.010776358656585217 False False
2473.5989999999997 0.039017435163259506 -1.576851030389303 -0.034800659865140915 -0.017875270252563524 0.030388280749320984 0.010807947255671024 False False
2473.6189999999997 0.0389874204993248 -1.5767785511412562 -0.034735169261693954 -0.017851189976074266 0.03033239021897316 0.010784149169921875 False False
2473.6389999999997 0.039012908935546875 -1.5768147907652796 -0.03477680683135986 -0.017899588947631884 0.03034830279648304 0.010788548737764359 False False
2473.659 0.03902927786111832 -1.576855321923727 -0.034784793853759766 -0.017887429600097704 0.030408542603254318 0.01077202521264553 False False
2473.679 0.038991767913103104 -1.576860090295309 -0.034760475158691406 -0.017903046017028856 0.030392631888389587 0.010747025720775127 False False
2473.699 0.03900519758462906 -1.5768724880614222 -0.034775979816913605 -0.01786704481158452 0.030400466173887253 0.010812356136739254 False False
2473.719 0.03900842368602753 -1.5768033466734828 -0.034751564264297485 -0.01789124429736333 0.030368458479642868 0.010776342824101448 False False
2473.739 0.03898433595895767 -1.576799055139059 -0.034772396087646484 -0.017875389461853075 0.030368458479642868 0.010784149169921875 False False
2473.759 0.03909195587038994 -1.5768562755980433 -0.03476794809103012 -0.017907337551452684 0.03034043125808239 0.010751345194876194 False False
2473.779 0.03903543949127197 -1.576799055139059 -0.034802526235580444 -0.01789148271594243 0.030384540557861328 0.010738302022218704 False False
2473.799 0.03900521993637085 -1.5768147907652796 -0.03478929027915001 -0.01787932336840825 0.03040534071624279 0.01077547762542963 False False
2473.819 0.038996174931526184 -1.576888223687643 -0.034800637513399124 -0.017895297413208056 0.03039257600903511 0.010779822245240211 False False
2473.839 0.03900075703859329 -1.5768400631346644 -0.034796204417943954 -0.017907456760742235 0.03040044754743576 0.010767576284706593 False False
2473.859 0.039026401937007904 -1.5768715343871058 -0.034751612693071365 -0.017883376484252977 0.030368633568286896 0.010816645808517933 False False
2473.879 0.03898882865905762 -1.5768476925291957 -0.03477241471409798 -0.01784725606951909 0.030408529564738274 0.010804811492562294 False False
2473.899 0.039021946489810944 -1.57684387783193 -0.03475300967693329 -0.01785917699847417 0.030364345759153366 0.010804804973304272 False False
2473.919 0.038970947265625 -1.5768314800658167 -0.03474721685051918 -0.017843322162963915 0.03037261962890625 0.010776296257972717 False False
2473.939 0.03899618983268738 -1.576860090295309 -0.034748625010252 -0.01791115224871831 0.03035241737961769 0.010779816657304764 False False
2473.959 0.03898733854293823 -1.5768076382079066 -0.0347980260848999 -0.017931656246521044 0.030368605628609657 0.0108123067766428 False False
2473.979 0.03897979110479355 -1.5768434009947718 -0.03472791612148285 -0.017939643268920946 0.030344534665346146 0.010800385847687721 False False
2473.999 0.03897535428404808 -1.5768763027586878 -0.03478481248021126 -0.017887429600097704 0.030420292168855667 0.010813417844474316 False False
2474.019 0.038951575756073 -1.5768276653685511 -0.034769244492053986 -0.017887429600097704 0.030388502404093742 0.0107600511983037 False False
2474.0389999999998 0.03904280066490173 -1.5768357716002406 -0.034793607890605927 -0.017907218342163134 0.03040440008044243 0.010754655115306377 False False
2474.0589999999997 0.03896800056099892 -1.5767213306822718 -0.034784793853759766 -0.017919139271118212 0.030372612178325653 0.010767608880996704 False False
2474.0789999999997 0.03896501287817955 -1.576872011224264 -0.03474419191479683 -0.017863349323608446 0.03036470338702202 0.010788582265377045 False False
2474.0989999999997 0.039066560566425323 -1.576827188531393 -0.03477673977613449 -0.01789136350665288 0.030400419607758522 0.010755791328847408 False False
2474.1189999999997 0.03902486711740494 -1.5768314800658167 -0.03477679193019867 -0.01785929620776372 0.03032866306602955 0.010809066705405712 False False
2474.1389999999997 0.03898882865905762 -1.5768076382079066 -0.034751661121845245 -0.017863230114318895 0.030336638912558556 0.01075578574091196 False False
2474.159 0.039000749588012695 -1.5768476925291957 -0.034784793853759766 -0.01793547094378667 0.03035244159400463 0.010767600499093533 False False
2474.179 0.039045363664627075 -1.576789995233053 -0.03476360812783241 -0.017883376484252977 0.0303884856402874 0.010812303051352501 False False
2474.199 0.038963451981544495 -1.5768519840636195 -0.034767959266901016 -0.017899350529052782 0.030356435105204582 0.010751434601843357 False False
2474.219 0.03899334371089935 -1.576822896996969 -0.03477237746119499 -0.017895297413208056 0.030420685186982155 0.010776281356811523 False False
2474.239 0.03896340727806091 -1.576799055139059 -0.03473985195159912 -0.01786704481158452 0.03037261962890625 0.010807991027832031 False False
2474.259 0.03901747241616249 -1.5768190822997035 -0.034759264439344406 -0.017875151043273974 0.03037634678184986 0.010784149169921875 False False
2474.279 0.039051830768585205 -1.5767494640746058 -0.034727904945611954 -0.01787932336840825 0.030364442616701126 0.010796070098876953 False False
2474.299 0.03897977992892265 -1.5768400631346644 -0.03477673605084419 -0.01785929620776372 0.030368566513061523 0.010751400142908096 False False
2474.319 0.039063334465026855 -1.5768400631346644 -0.034789182245731354 -0.017842845325805712 0.030356314033269882 0.010816541500389576 False False
2474.339 0.03898882120847702 -1.5768772564330042 -0.03479355201125145 -0.01786716402087407 0.03037261962890625 0.01082843728363514 False False
2474.359 0.038979798555374146 -1.5768686733641566 -0.034821782261133194 -0.017858819370605516 0.030400549992918968 0.01077553816139698 False False
2474.379 0.039012908935546875 -1.5768057308592738 -0.034772396087646484 -0.017887548809387255 0.030412470921874046 0.010779869742691517 False False
2474.399 0.03898733854293823 -1.5768491230406703 -0.034772396087646484 -0.017883376484252977 0.030360477045178413 0.010791790671646595 False False
2474.419 0.03900521993637085 -1.576897760430807 -0.034739941358566284 -0.017875151043273974 0.030384540557861328 0.010775590315461159 False False
2474.439 0.03900521993637085 -1.5767823658385218 -0.034751757979393005 -0.017843322162963915 0.030384540557861328 0.010767636820673943 False False
2474.459 0.03898884728550911 -1.5768476925291957 -0.03477673977613449 -0.01785929620776372 0.030360443517565727 0.010837042704224586 False False
2474.479 0.039049915969371796 -1.5768233738341273 -0.034763678908348083 -0.017895297413208056 0.03036046028137207 0.010808007791638374 False False
2474.499 0.03900405764579773 -1.5768519840636195 -0.034772396087646484 -0.01792366922412114 0.03038087859749794 0.010797063820064068 False False
2474.519 0.03900521993637085 -1.5767775974669398 -0.0347517654299736 -0.017919496898986864 0.030368531122803688 0.010791742242872715 False False
2474.5389999999998 0.038963451981544495 -1.5768104992308558 -0.034804947674274445 -0.017883376484252977 0.030388645827770233 0.01081225834786892 False False
2474.5589999999997 0.0389828085899353 -1.5768314800658167 -0.03478047624230385 -0.01790352285418706 0.030400559306144714 0.010763369500637054 False False
2474.5789999999997 0.03899621590971947 -1.5768639049925746 -0.03480495512485504 -0.01792796075854497 0.03035220131278038 0.010791754350066185 False False
2474.5989999999997 0.03899618983268738 -1.5768119297423304 -0.0347767099738121 -0.017851070766784716 0.030348556116223335 0.010792797431349754 False False
2474.6189999999997 0.03901746869087219 -1.5768104992308558 -0.03477240353822708 -0.01783509672198491 0.030336234718561172 0.010816508904099464 False False
2474.6389999999997 0.0390007421374321 -1.576799055139059 -0.034812964498996735 -0.017899350529052782 0.030420657247304916 0.010735304094851017 False False
2474.659 0.03904992341995239 -1.5768639049925746 -0.03475620225071907 -0.017875270252563524 0.030404679477214813 0.010735304094851017 False False
2474.679 0.03901746869087219 -1.5767909489073695 -0.0347679927945137 -0.017911509876586962 0.030364442616701126 0.010820843279361725 False False
2474.699 0.03903832286596298 -1.5768233738341273 -0.0347679927945137 -0.017831043606140184 0.030400549992918968 0.01079274620860815 False False
2474.719 0.03899618983268738 -1.5768314800658167 -0.03478102758526802 -0.01784701765093999 0.030400514602661133 0.01075912918895483 False False
2474.739 0.03905447572469711 -1.5767790279784144 -0.034694232046604156 -0.01787932336840825 0.030392808839678764 0.01077627670019865 False False
2474.759 0.038979798555374146 -1.5768057308592738 -0.034739941358566284 -0.017875151043273974 0.03038453310728073 0.010808928869664669 False False
2474.779 0.03900521993637085 -1.5768443546690882 -0.03480495512485504 -0.017842845325805712 0.03041655942797661 0.010816479101777077 False False
2474.799 0.03898435831069946 -1.576799055139059 -0.03475616127252579 -0.017899827366210985 0.030388645827770233 0.010776233859360218 False False
2474.819 0.03897983953356743 -1.5768729648985804 -0.03479192405939102 -0.017851070766784716 0.03037266805768013 0.010808886960148811 False False
2474.839 0.038963433355093 -1.5768033466734828 -0.03475932776927948 -0.01789160192523198 0.03036448173224926 0.010767661035060883 False False
2474.859 0.03898882865905762 -1.576799055139059 -0.03478533402085304 -0.01786704481158452 0.03034805878996849 0.010804642923176289 False False
2474.879 0.039009690284729004 -1.5768057308592738 -0.03474745154380798 -0.017936186199523974 0.03038862906396389 0.010776247829198837 False False
2474.899 0.03899618983268738 -1.5768519840636195 -0.034769147634506226 -0.01791139066729741 0.030408810824155807 0.010808893479406834 False False
2474.919 0.03895607963204384 -1.5768519840636195 -0.03474745899438858 -0.017851070766784716 0.0303603895008564 0.01079269777983427 False False
2474.939 0.038956087082624435 -1.576799055139059 -0.03475616127252579 -0.017887548809387255 0.030376385897397995 0.010760068893432617 False False
2474.959 0.03902636468410492 -1.5768190822997035 -0.03476480022072792 -0.01787932336840825 0.030368555337190628 0.010760068893432617 False False
2474.979 0.038996197283267975 -1.5768076382079066 -0.03477242961525917 -0.017883376484252977 0.0304083414375782 0.010767676867544651 False False
2474.999 0.038970947265625 -1.576799055139059 -0.034789152443408966 -0.017895297413208056 0.030412470921874046 0.010788478888571262 False False
2475.019 0.039000749588012695 -1.576855321923727 -0.03480501472949982 -0.017915324573852587 0.03038044273853302 0.010796070098876953 False False
2475.0389999999998 0.03903081268072128 -1.5768639049925746 -0.034760475158691406 -0.017907218342163134 0.030400559306144714 0.010788478888571262 False False
2475.0589999999997 0.039033807814121246 -1.5768434009947718 -0.034772370010614395 -0.017871217136718798 0.030368559062480927 0.010808814316987991 False False
2475.0789999999997 0.03902195021510124 -1.576827188531393 -0.034804921597242355 -0.017887548809387255 0.030392823740839958 0.010759245604276657 False False
2475.0989999999997 0.03898439556360245 -1.5768357716002406 -0.03475615009665489 -0.017919616108276415 0.03043285384774208 0.010788465850055218 False False
2475.1189999999997 0.0390174426138401 -1.576839109460348 -0.0347767099738121 -0.017907218342163134 0.030364561825990677 0.010747288353741169 False False
2475.1389999999997 0.03900075703859329 -1.5768400631346644 -0.034760475158691406 -0.017826871281005907 0.030360443517565727 0.010816430673003197 False False
2475.159 0.03898436948657036 -1.576855321923727 -0.03474312648177147 -0.01789124429736333 0.030328132212162018 0.01080880593508482 False False
2475.179 0.03899621590971947 -1.5768033466734828 -0.03475175052881241 -0.017858938579895067 0.030364442616701126 0.01076346542686224 False False
2475.199 0.038971006870269775 -1.5768104992308558 -0.0347604937851429 -0.017883376484252977 0.030436882749199867 0.010804594494402409 False False
2475.219 0.03900410607457161 -1.5768400631346644 -0.03476050868630409 -0.01789160192523198 0.03040056675672531 0.010800302028656006 False False
2475.239 0.038991767913103104 -1.5768190822997035 -0.0347767099738121 -0.017895297413208056 0.03036036156117916 0.010792681947350502 False False
2475.259 0.039000749588012695 -1.5768476925291957 -0.03478919714689255 -0.017907218342163134 0.03039688989520073 0.010804577730596066 False False
2475.279 0.03903825953602791 -1.576827188531393 -0.034760475158691406 -0.01787932336840825 0.03034811094403267 0.010808867402374744 False False
2475.299 0.03898441419005394 -1.5768147907652796 -0.034780506044626236 -0.017883376484252977 0.030368490144610405 0.010788478888571262 False False
2475.319 0.038971107453107834 -1.5768190822997035 -0.03477241471409798 -0.01794810712847905 0.030440803617239 0.010808857157826424 False False
2475.339 0.0389769971370697 -1.5768434009947718 -0.03478100895881653 -0.017858938579895067 0.03038046322762966 0.010800289921462536 False False
2475.359 0.039000749588012695 -1.5767909489073695 -0.034813545644283295 -0.01787932336840825 0.03042064979672432 0.010804618708789349 False False
2475.379 0.038988836109638214 -1.5768400631346644 -0.0347679927945137 -0.017875151043273974 0.030356289818882942 0.010747288353741169 False False
2475.399 0.0390007309615612 -1.5768400631346644 -0.03476801514625549 -0.01791127145800786 0.030380846932530403 0.0108292605727911 False False
2475.419 0.039008453488349915 -1.5768400631346644 -0.03473559394478798 -0.017855243091918993 0.030360357835888863 0.010764331556856632 False False
2475.439 0.03897690773010254 -1.576789995233053 -0.034772396087646484 -0.017838673000671434 0.030408810824155807 0.0107642887160182 False False
2475.459 0.03897550702095032 -1.5767866573729457 -0.034768007695674896 -0.017919496898986864 0.030396461486816406 0.010751544497907162 False False
2475.479 0.03898440673947334 -1.5768639049925746 -0.03476802632212639 -0.017899350529052782 0.030384574085474014 0.010771989822387695 False False
2475.499 0.03895920515060425 -1.5767775974669398 -0.03477237746119499 -0.017842845325805712 0.03037639521062374 0.010776221752166748 False False
2475.519 0.03903814032673836 -1.5768314800658167 -0.03482206538319588 -0.01792355001483159 0.03037261962890625 0.01077568531036377 False False
2475.5389999999998 0.0389755442738533 -1.576839109460348 -0.03472325950860977 -0.01787932336840825 0.030384540557861328 0.010763448663055897 False False
2475.5589999999997 0.03902924060821533 -1.5768434009947718 -0.03473063185811043 -0.017923788433410692 0.030376793816685677 0.010743104852735996 False False
2475.5789999999997 0.039004191756248474 -1.5768233738341273 -0.03476344048976898 -0.017902926807739306 0.03038455732166767 0.010796070098876953 False False
2475.5989999999997 0.0389549657702446 -1.5768033466734828 -0.034805260598659515 -0.017875151043273974 0.03038862906396389 0.01079605333507061 False False
2475.6189999999997 0.039033714681863785 -1.5768434009947718 -0.034781314432621 -0.01792784154925542 0.030388621613383293 0.010784813202917576 False False
2475.6389999999997 0.03898130729794502 -1.5768357716002406 -0.034772396087646484 -0.017899350529052782 0.030384523794054985 0.01075151190161705 False False
2475.659 0.03900514915585518 -1.5768524609007777 -0.03477684408426285 -0.01790352285418706 0.030336182564496994 0.010775675065815449 False False
2475.679 0.038993217051029205 -1.576799055139059 -0.034772396087646484 -0.017919616108276415 0.03035220131278038 0.010767685249447823 False False
2475.699 0.03905840218067169 -1.5768701038756312 -0.03472321480512619 -0.017907218342163134 0.030360352247953415 0.01082077156752348 False False
2475.719 0.03898758068680763 -1.576773305932516 -0.034775882959365845 -0.017915443783142138 0.030380459502339363 0.010816463269293308 False False
2475.739 0.03899628669023514 -1.5767690143980921 -0.03477687016129494 -0.017883376484252977 0.030380854383111 0.01076008565723896 False False
2475.759 0.03901738300919533 -1.576822420159811 -0.03475143387913704 -0.017927603130676317 0.03033619001507759 0.010747281834483147 False False
2475.779 0.03899629786610603 -1.5768476925291957 -0.03482313081622124 -0.017871217136718798 0.03040463849902153 0.010751544497907162 False False
2475.799 0.039012908935546875 -1.5768324337401332 -0.03475601598620415 -0.01790352285418706 0.03040880151093006 0.010808814316987991 False False
2475.819 0.038979992270469666 -1.5768357716002406 -0.034814078360795975 -0.01789124429736333 0.030368518084287643 0.010796070098876953 False False
2475.839 0.039021722972393036 -1.5768119297423304 -0.03475602716207504 -0.01786704481158452 0.030376790091395378 0.010804611258208752 False False
2475.859 0.039033692330121994 -1.5768076382079066 -0.03477684408426285 -0.01784701765093999 0.03034811094403267 0.010820761322975159 False False
2475.879 0.03898321092128754 -1.5768190822997035 -0.034751467406749725 -0.01789124429736333 0.030380455777049065 0.010804652236402035 False False
2475.899 0.03900855407118797 -1.5768119297423304 -0.03477685526013374 -0.017858938579895067 0.030400555580854416 0.010772024281322956 False False
2475.919 0.03902918100357056 -1.5768190822997035 -0.034751493483781815 -0.017875270252563524 0.03038862906396389 0.010796070098876953 False False
2475.939 0.039005111902952194 -1.5768610439696253 -0.03475602716207504 -0.017831043606140184 0.030368531122803688 0.010776209644973278 False False
2475.959 0.03902482986450195 -1.5768314800658167 -0.034767840057611465 -0.017915324573852587 0.030404599383473396 0.010820708237588406 False False
2475.979 0.038996338844299316 -1.5767818890013636 -0.03478129953145981 -0.017919377689697313 0.030400583520531654 0.010776197537779808 False False
2475.999 0.03896820545196533 -1.576757093469137 -0.034739669412374496 -0.017883376484252977 0.030384540557861328 0.01078847050666809 False False
2476.019 0.03896820545196533 -1.5767699680724085 -0.03478936105966568 -0.017907456760742235 0.03033619001507759 0.01079264935106039 False False
2476.0389999999998 0.03899632394313812 -1.576794286767477 -0.03480071574449539 -0.017899350529052782 0.030380452051758766 0.01081991195678711 False False
2476.0589999999997 0.03900076821446419 -1.576799055139059 -0.034751445055007935 -0.017911509876586962 0.030424820259213448 0.010808812454342842 False False
2476.0789999999997 0.03897571563720703 -1.5767952404417933 -0.034772396087646484 -0.017907218342163134 0.030380452051758766 0.010735483840107918 False False
2476.0989999999997 0.039030350744724274 -1.5768491230406703 -0.03475899621844292 -0.017907218342163134 0.03037261962890625 0.010792640969157219 False False
2476.1189999999997 0.03903793543577194 -1.5767775974669398 -0.03472764045000076 -0.01786716402087407 0.030436979606747627 0.010788441635668278 False False
2476.1389999999997 0.03898448869585991 -1.5768119297423304 -0.03473956137895584 -0.017895297413208056 0.030412470921874046 0.010755861178040504 False False
2476.159 0.0389845184981823 -1.5768104992308558 -0.03477686643600464 -0.017899350529052782 0.03033985197544098 0.010824907571077347 False False
2476.179 0.039029113948345184 -1.5768848858275355 -0.03477237746119499 -0.017859057789184618 0.03033619001507759 0.01076768059283495 False False
2476.199 0.03898009657859802 -1.5767909489073695 -0.0347694531083107 -0.017919616108276415 0.030368531122803688 0.010751575231552124 False False
2476.219 0.03901731222867966 -1.5768138370909632 -0.03478481248021126 -0.017875389461853075 0.03038087859749794 0.010760102421045303 False False
2476.239 0.03900507837533951 -1.576799055139059 -0.034744083881378174 -0.01784725606951909 0.03035629726946354 0.01079267356544733 False False
2476.259 0.0389801450073719 -1.5768076382079066 -0.03473961353302002 -0.017923788433410692 0.03038862906396389 0.010779941454529762 False False
2476.279 0.038956355303525925 -1.5768443546690882 -0.034784793853759766 -0.017895297413208056 0.030376790091395378 0.010771989822387695 False False
2476.299 0.039021626114845276 -1.5768314800658167 -0.03475143760442734 -0.017919258480407763 0.03040097840130329 0.010820604860782623 False False
2476.319 0.038968276232481 -1.576827188531393 -0.034772396087646484 -0.017875389461853075 0.030364464968442917 0.010807957500219345 False False
2476.339 0.039005063474178314 -1.5767866573729457 -0.03474855422973633 -0.01791115224871831 0.030364442616701126 0.01079264935106039 False False
2476.359 0.03900861740112305 -1.5768434009947718 -0.034772396087646484 -0.01789136350665288 0.03035220131278038 0.010755861178040504 False False
2476.379 0.03898884728550911 -1.576799055139059 -0.03477241471409798 -0.01791127145800786 0.030368531122803688 0.010816407389938831 False False
2476.399 0.03897582367062569 -1.5768076382079066 -0.0347396656870842 -0.01783950746569829 0.030380452051758766 0.010800291784107685 False False
2476.419 0.038952041417360306 -1.5767461262144984 -0.034772396087646484 -0.017863230114318895 0.03034021519124508 0.010812144726514816 False False
2476.439 0.03896830976009369 -1.5767747364439906 -0.03475145250558853 -0.01789923131976323 0.03042064979672432 0.01077157724648714 False False
2476.459 0.038960687816143036 -1.5768524609007777 -0.03474699333310127 -0.017887429600097704 0.03038087859749794 0.010812198743224144 False False
2476.479 0.03900502249598503 -1.5768276653685511 -0.03477685898542404 -0.017851309185363817 0.030404672026634216 0.010788441635668278 False False
2476.499 0.0390007309615612 -1.5768314800658167 -0.03478936105966568 -0.017883376484252977 0.030376790091395378 0.01079602725803852 False False
2476.519 0.03906240314245224 -1.5768434009947718 -0.03473961353302002 -0.017927603130676317 0.030408810824155807 0.010763530619442463 False False
2476.5389999999998 0.039012908935546875 -1.5768033466734828 -0.03473058342933655 -0.017907218342163134 0.030356289818882942 0.010771989822387695 False False
2476.5589999999997 0.03900075703859329 -1.576799055139059 -0.03474696725606918 -0.017883376484252977 0.03035220131278038 0.010747421532869339 False False
2476.5789999999997 0.039021652191877365 -1.5768610439696253 -0.03473960608243942 -0.0179402393153687 0.030376339331269264 0.010804570280015469 False False
2476.5989999999997 0.03898013010621071 -1.5768033466734828 -0.03475600481033325 -0.017862991695739794 0.030376790091395378 0.01076351385563612 False False
2476.6189999999997 0.03898780420422554 -1.5768033466734828 -0.03477686643600464 -0.017875151043273974 0.03040463849902153 0.010751618072390556 False False
2476.6389999999997 0.039053775370121 -1.5768639049925746 -0.034758858382701874 -0.01787932336840825 0.030408810824155807 0.01078845839947462 False False
2476.659 0.038992032408714294 -1.576836725274557 -0.034859560430049896 -0.01792366922412114 0.03034023940563202 0.010787644423544407 False False
2476.679 0.03906681388616562 -1.5768610439696253 -0.03478031978011131 -0.017887548809387255 0.03038862906396389 0.010836828500032425 False False
2476.699 0.03899634629487991 -1.5768276653685511 -0.03480072692036629 -0.017915324573852587 0.03035220131278038 0.01079186238348484 False False
2476.719 0.038980111479759216 -1.5768400631346644 -0.03474855422973633 -0.017875270252563524 0.030392799526453018 0.010848987847566605 False False
2476.739 0.038952041417360306 -1.576839109460348 -0.03478936478495598 -0.017911748295166063 0.030424747616052628 0.01076348964124918 False False
2476.759 0.03895533084869385 -1.5768186054625453 -0.034720197319984436 -0.017895297413208056 0.030335819348692894 0.010780439712107182 False False
2476.779 0.0390051044523716 -1.576799055139059 -0.03481420874595642 -0.017919496898986864 0.030396461486816406 0.010801118798553944 False False
2476.799 0.03904648497700691 -1.5768681965269984 -0.03475598618388176 -0.01786704481158452 0.03037261962890625 0.010804546996951103 False False
2476.819 0.03898882865905762 -1.576881547967428 -0.034790366888046265 -0.017875270252563524 0.030368566513061523 0.010848987847566605 False False
2476.839 0.038975849747657776 -1.576822896996969 -0.0348052904009819 -0.01790352285418706 0.030404599383473396 0.010808812454342842 False False
2476.859 0.039038825780153275 -1.5768772564330042 -0.034767843782901764 -0.017875270252563524 0.03037261962890625 0.010767734609544277 False False
2476.879 0.03902914375066757 -1.5768434009947718 -0.034732162952423096 -0.017838673000671434 0.030400816351175308 0.010824044235050678 False False
2476.899 0.03894421458244324 -1.5768104992308558 -0.03479383885860443 -0.01783497751269536 0.03038489632308483 0.01081991195678711 False False
2476.919 0.038987744599580765 -1.5768033466734828 -0.034772396087646484 -0.0178794425776978 0.030364489182829857 0.010812181979417801 False False
2476.939 0.0390043631196022 -1.576766153375143 -0.03476334363222122 -0.017899350529052782 0.030340056866407394 0.010784149169921875 False False
2476.959 0.038956355303525925 -1.5768019161620082 -0.03479383885860443 -0.017915324573852587 0.03036046028137207 0.010775732807815075 False False
2476.979 0.03900434076786041 -1.5768400631346644 -0.034751445055007935 -0.01786692560229497 0.030368566513061523 0.010694577358663082 False False
2476.999 0.039021674543619156 -1.5768357716002406 -0.03474247455596924 -0.017875270252563524 0.030328191816806793 0.010784149169921875 False False
2477.019 0.03905375674366951 -1.5768147907652796 -0.03477686643600464 -0.017919496898986864 0.03039645403623581 0.01082492433488369 False False
2477.0389999999998 0.038980111479759216 -1.5768443546690882 -0.03481757640838623 -0.01786704481158452 0.030372295528650284 0.010816383175551891 False False
2477.0589999999997 0.03895211219787598 -1.576827188531393 -0.03474699333310127 -0.017883376484252977 0.03040049411356449 0.010771989822387695 False False
2477.0789999999997 0.03903348743915558 -1.5768357716002406 -0.034781355410814285 -0.017936066990234423 0.030376458540558815 0.010779785923659801 False False
2477.0989999999997 0.038988810032606125 -1.5768357716002406 -0.03477686643600464 -0.017883376484252977 0.030388573184609413 0.010745637118816376 False False
2477.1189999999997 0.039000749588012695 -1.5768276653685511 -0.034769415855407715 -0.017838673000671434 0.030376482754945755 0.010807991027832031 False False
2477.1389999999997 0.03901729732751846 -1.5768357716002406 -0.03480973839759827 -0.01791127145800786 0.030420934781432152 0.010807937942445278 False False
2477.159 0.03898013383150101 -1.5768276653685511 -0.034814197570085526 -0.017871097927429247 0.030396461486816406 0.010767578147351742 False False
2477.179 0.039044976234436035 -1.5768233738341273 -0.03482208400964737 -0.01786704481158452 0.030408447608351707 0.010767552070319653 False False
2477.199 0.039008572697639465 -1.5768681965269984 -0.03473959490656853 -0.01789124429736333 0.03034781478345394 0.010784149169921875 False False
2477.219 0.03899312764406204 -1.576806207696432 -0.03479382395744324 -0.017939881687500048 0.030372602865099907 0.01073497161269188 False False
2477.239 0.038971662521362305 -1.576876779595846 -0.034781314432621 -0.01787932336840825 0.03038855828344822 0.010754533112049103 False False
2477.259 0.039012908935546875 -1.576839109460348 -0.034784793853759766 -0.017919496898986864 0.030380522832274437 0.010782893747091293 False False
2477.279 0.03902913257479668 -1.576799055139059 -0.034802667796611786 -0.017915443783142138 0.030360443517565727 0.01078411377966404 False False
2477.299 0.03902189061045647 -1.5768639049925746 -0.03476337343454361 -0.017842964535095263 0.03040061891078949 0.010797332972288132 False False
2477.319 0.039009641855955124 -1.5768519840636195 -0.03479824960231781 -0.017943934803344774 0.030404455959796906 0.010763176716864109 False False
2477.339 0.038988810032606125 -1.5768233738341273 -0.0347803570330143 -0.017915443783142138 0.030356217175722122 0.010760068893432617 False False
2477.359 0.03899621590971947 -1.5768104992308558 -0.03476341441273689 -0.017887548809387255 0.030400466173887253 0.010751255787909031 False False
2477.379 0.038984380662441254 -1.5767866573729457 -0.034760475158691406 -0.017895297413208056 0.030364593490958214 0.010829893872141838 False False
2477.399 0.0389813669025898 -1.5768357716002406 -0.034739695489406586 -0.017883376484252977 0.03038450889289379 0.010825548321008682 False False
2477.419 0.038958992809057236 -1.5768476925291957 -0.034800682216882706 -0.01783497751269536 0.030364632606506348 0.01074694562703371 False False
2477.439 0.03904715180397034 -1.5768147907652796 -0.03474410995841026 -0.01792366922412114 0.03040444850921631 0.010755735449492931 False False
2477.459 0.03901292756199837 -1.5768443546690882 -0.03477241471409798 -0.017895297413208056 0.030388541519641876 0.0108048589900136 False False
2477.479 0.038991767913103104 -1.5768233738341273 -0.03481151536107063 -0.017927722339965868 0.030416712164878845 0.010739421471953392 False False
2477.499 0.03902188315987587 -1.576892992059225 -0.03477237746119499 -0.017895297413208056 0.030376577749848366 0.010809246450662613 False False
2477.519 0.038975365459918976 -1.5768119297423304 -0.03475605323910713 -0.01786704481158452 0.030388522893190384 0.010780716314911842 False False
2477.5389999999998 0.03899620473384857 -1.5768605671324671 -0.03477241471409798 -0.017911748295166063 0.03037664107978344 0.010775446891784668 False False
2477.5589999999997 0.0390007309615612 -1.5767704449095667 -0.034826505929231644 -0.017883376484252977 0.030396461486816406 0.010800412856042385 False False
2477.5789999999997 0.039000749588012695 -1.5768562755980433 -0.03473226726055145 -0.017875151043273974 0.030376708135008812 0.010797316208481789 False False
2477.5989999999997 0.039021898061037064 -1.576864858666891 -0.03475154936313629 -0.017875151043273974 0.030400585383176804 0.010763200931251049 False False
2477.6189999999997 0.03901291638612747 -1.5768844089903773 -0.03480515629053116 -0.017858938579895067 0.030420292168855667 0.010784149169921875 False False
2477.6389999999997 0.0390007309615612 -1.576822896996969 -0.0347604937851429 -0.01789577425036626 0.030360734090209007 0.010779785923659801 False False
2477.659 0.038970984518527985 -1.5768357716002406 -0.03478929400444031 -0.017871217136718798 0.03038850985467434 0.01081991195678711 False False
2477.679 0.039049871265888214 -1.5768724880614222 -0.034727852791547775 -0.017907218342163134 0.030388498678803444 0.01080488320440054 False False
2477.699 0.03900966793298721 -1.5768233738341273 -0.03478926420211792 -0.017842845325805712 0.030404377728700638 0.010763176716864109 False False
2477.719 0.03900524228811264 -1.5768019161620082 -0.03475157544016838 -0.017887548809387255 0.030372120440006256 0.010779771953821182 False False
2477.739 0.03900516778230667 -1.5768434009947718 -0.03476790711283684 -0.01787932336840825 0.030384572222828865 0.01079168077558279 False False
2477.759 0.0390128567814827 -1.5767823658385218 -0.034796230494976044 -0.01785464704547124 0.030384540557861328 0.010767552070319653 False False
2477.779 0.03900078684091568 -1.576806207696432 -0.034772396087646484 -0.01785464704547124 0.030448324978351593 0.01080488320440054 False False
2477.799 0.039012908935546875 -1.5768362484373988 -0.03478478640317917 -0.017842964535095263 0.030380919575691223 0.010841814801096916 True False
2477.819 0.038979846984148026 -1.5768357716002406 -0.03471894934773445 -0.017915324573852587 0.03038453310728073 0.010784149169921875 True False
2477.839 0.03907551243901253 -1.5768476925291957 -0.03474719822406769 -0.01786704481158452 0.030420657247304916 0.010760068893432617 True False
2477.859 0.03893488645553589 -1.5767823658385218 -0.034776750952005386 -0.017895655041076708 0.03038056567311287 0.010779785923659801 True False
2477.879 0.03895282745361328 -1.5767866573729457 -0.03472471237182617 -0.017902926807739306 0.03035220131278038 0.010784149169921875 True False
2477.899 0.03877079486846924 -1.5768147907652796 -0.03464389592409134 -0.017875270252563524 0.0302886962890625 0.010751255787909031 True False
2477.919 0.03869008272886276 -1.5767866573729457 -0.03453749790787697 -0.017855600719787645 0.030104348435997963 0.010763194411993027 True False
2477.939 0.03844640776515007 -1.5768562755980433 -0.03436784818768501 -0.017759279613830614 0.029961442574858665 0.01068714540451765 True False
2477.959 0.03816542029380798 -1.576831956902975 -0.03412838652729988 -0.017503218059875536 0.029681481420993805 0.01062386017292738 True False
2477.979 0.03793267905712128 -1.5767222843565882 -0.03388993814587593 -0.01732690752062993 0.029538210481405258 0.010545467957854271 True False
2477.999 0.037588659673929214 -1.5766550503172816 -0.033488377928733826 -0.01716335237536626 0.029286528006196022 0.010373517870903015 True False
2478.0389999999998 0.03645177558064461 -1.5765606365599574 -0.03257531672716141 -0.016699151401855516 0.028380122035741806 0.010016269981861115 True False
2478.0589999999997 0.03577088564634323 -1.5762940845885218 -0.03182950243353844 -0.016484217052795458 0.02782541699707508 0.009861743077635765 True False
2478.0789999999997 0.03486967831850052 -1.576212068597311 -0.03110361099243164 -0.016067222957946825 0.027251053601503372 0.009662581607699394 True False
2478.0989999999997 0.03384646028280258 -1.5760442219176234 -0.03015924245119095 -0.015554980640747118 0.026452509686350822 0.009386872872710228 True False
2478.1189999999997 0.03256124258041382 -1.5758120022215785 -0.029091406613588333 -0.014890508060791063 0.025514187291264534 0.009027576074004173 True False
2478.1389999999997 0.031228572130203247 -1.5756007633604945 -0.02778048627078533 -0.014181808834411669 0.02433248981833458 0.008638759143650532 True False
2478.159 0.02966635301709175 -1.5752846203246058 -0.02643708325922489 -0.01357479513201909 0.023127086460590363 0.008223988115787506 True False
2478.179 0.027936697006225586 -1.575059553185934 -0.02492528036236763 -0.012802438145019579 0.0217773225158453 0.00780151505023241 True False
2478.199 0.02613673359155655 -1.5748287640013636 -0.02341543883085251 -0.012046055202819872 0.020324114710092545 0.0072324806824326515 True False
2478.219 0.024246973916888237 -1.5745941601195277 -0.02163550816476345 -0.011157945995666552 0.01890728808939457 0.006717544514685869 True False
2478.239 0.022114591673016548 -1.5742656193175257 -0.019798139110207558 -0.010243372326232958 0.017230255529284477 0.006144402083009481 True False
2478.259 0.019898997619748116 -1.5739294491209925 -0.017784040421247482 -0.009167627697326708 0.015482363291084766 0.0055286940187215805 True False
2478.279 0.017625194042921066 -1.57346834758901 -0.015771660953760147 -0.008049325352050829 0.013661774806678295 0.004917955491691828 True False
2478.299 0.015437906607985497 -1.5731097660460414 -0.013770303688943386 -0.007001833324768114 0.012057604268193245 0.004283303394913673 True False
2478.339 0.011562734842300415 -1.5725656948485316 -0.01037228386849165 -0.0054250520518799306 0.009028161875903606 0.0032829404808580875 True False
2478.359 0.009821804240345955 -1.5723096332945765 -0.008842546492815018 -0.004527286892272997 0.007634557317942381 0.0027635637670755386 True False
2478.379 0.008284538052976131 -1.572094579736227 -0.007384876720607281 -0.0038042825511475087 0.006410060916095972 0.002342796418815851 True False
2478.399 0.006800284143537283 -1.5718580685057582 -0.006053863558918238 -0.003177480106689501 0.005351747386157513 0.0019475703593343496 True False
2478.419 0.005551105365157127 -1.5716096363463343 -0.004867475479841232 -0.0025701087764282704 0.004298401065170765 0.0015447735786437988 True False
2478.439 0.004335370380431414 -1.5714665851988734 -0.003833900671452284 -0.002046183948852587 0.0033122538588941097 0.001278367475606501 True False
2478.459 0.0032284557819366455 -1.5712529621519984 -0.0029485845007002354 -0.0015593332103271962 0.002554178237915039 0.0009937882423400879 True False
2478.479 0.002351433038711548 -1.5711409054198207 -0.002186811063438654 -0.0011081260493774892 0.0017991199856624007 0.0007348060607910156 True False
2478.499 0.001600116491317749 -1.5711189709105433 -0.0015115737915039062 -0.0007112783244629384 0.0012003929587081075 0.0004935528850182891 True False
2478.519 0.0010330379009246826 -1.5710555515685023 -0.0009103337652049959 -0.00045152128253178603 0.000773995416238904 0.0003501415194477886 True False
2478.5389999999998 0.000527643715031445 -1.570958753625387 -0.0005202337633818388 -0.0002437394908447743 0.0003064289048779756 0.00025847554206848145 True False
2478.5589999999997 0.00018618706963025033 -1.5709597072997035 -0.00030258705373853445 -0.00020082414660649306 7.082400406943634e-05 0.00022405385971069336 True False
2478.5789999999997 5.094417429063469e-05 -1.570827146569723 -1.3306917026056908e-05 -0.00022883832965092665 7.576775533379987e-05 0.0001957416534423828 True False
2478.5989999999997 4.64320182800293e-05 -1.5708962879576625 -9.888924250844866e-05 -0.0001967710307617665 7.167907460825518e-05 0.00011919164535356686 True False
2478.6189999999997 0.00012877583503723145 -1.570911546746725 -0.0001773791154846549 -0.0002088111690063954 7.484078378183767e-05 0.00010581636161077768 True False
2478.6389999999997 0.00045601697638630867 -1.5708509884276332 -0.00032520294189453125 -0.00020869195971684462 0.0002708983374759555 0.00015974044799804688 True False
2478.659 0.0007109344005584717 -1.570932527581686 -0.0006019362481310964 -0.0002525609782715321 0.0005065798759460449 0.00013589859008789062 True False
2478.679 0.0011140704154968262 -1.570944448510641 -0.000985348247922957 -0.00048048913989262587 0.0008133423398248851 0.0002931294438894838 True False
2478.699 0.0017303228378295898 -1.5709840259947718 -0.0014872463652864099 -0.0007879298976440907 0.001393102458678186 0.000409966945881024 True False
2478.719 0.002523798029869795 -1.5711199245848597 -0.0022367897909134626 -0.0011677306941528798 0.001975713763386011 0.0007511854055337608 True False
2478.739 0.003419059794396162 -1.571275373498434 -0.0030386445578187704 -0.001671747570373583 0.0027141571044921875 0.0009651723084971309 True False
2478.759 0.004434055183082819 -1.571374078790182 -0.0039568934589624405 -0.0021509689143677235 0.003473004326224327 0.0013620243407785892 True False
2478.779 0.005690753925591707 -1.5715614757933558 -0.005066483747214079 -0.002674893741943407 0.004458575509488583 0.0016091139987111092 True False
2478.799 0.007046401966363192 -1.5718747578062953 -0.006430682726204395 -0.003273801212646532 0.005508743226528168 0.0020026261918246746 True False
2478.819 0.008587915450334549 -1.5721632442870082 -0.007714713923633099 -0.003889755611755419 0.006666873581707478 0.0023844956886023283 True False
2478.839 0.010202709585428238 -1.572334428826803 -0.009165933355689049 -0.004669384365417528 0.0078077539801597595 0.002814376261085272 True False
2478.859 0.011840194463729858 -1.5725113354124964 -0.010698659345507622 -0.005488471393920946 0.009301207028329372 0.003330764127895236 True False
2478.879 0.01382125448435545 -1.572761674920553 -0.012396975420415401 -0.006287412052490282 0.010721812956035137 0.003878825344145298 True False
2478.899 0.015877384692430496 -1.5731083355345667 -0.014194099232554436 -0.00732322156939702 0.012439019978046417 0.004408970009535551 True False
2478.919 0.0180853009223938 -1.57350554088735 -0.01613618992269039 -0.008310155277587938 0.014007266610860825 0.005003121681511402 True False
2478.939 0.020416302606463432 -1.5739060841002406 -0.018202349543571472 -0.009437159901001024 0.01590387336909771 0.005626118276268244 True False
2478.959 0.02283366769552231 -1.5742455921568812 -0.02037256769835949 -0.010488466625549364 0.01778007298707962 0.006272697355598211 True False
2478.979 0.025419171899557114 -1.5746609173216761 -0.022679202258586884 -0.011623219852783251 0.019819246605038643 0.0070736343041062355 True False
2478.999 0.028205927461385727 -1.5750442943968714 -0.02503645047545433 -0.012915806179382372 0.021899299696087837 0.007765769958496094 True False
2479.019 0.031067494302988052 -1.5754553280272425 -0.027630874887108803 -0.01416368902239995 0.024194249883294106 0.008593347854912281 True False
2479.0389999999998 0.03403756022453308 -1.5760733089842738 -0.03032505139708519 -0.015671567325927782 0.026605412364006042 0.009404337964951992 True False
2479.0589999999997 0.0372764952480793 -1.576519628564352 -0.033195510506629944 -0.017111973171569872 0.028936883434653282 0.010298291221261024 True False
2479.0789999999997 0.04047708585858345 -1.5771175823607386 -0.03617183864116669 -0.018503622417785692 0.03162715211510658 0.01115979254245758 True False
2479.0989999999997 0.04390586167573929 -1.5775629482665003 -0.03929392993450165 -0.02010829866442876 0.0342937596142292 0.012126819230616093 True False
2479.1189999999997 0.047421541064977646 -1.5781589947142542 -0.04241415485739708 -0.02174098909411626 0.036996882408857346 0.01310910377651453 True False
2479.1389999999997 0.051192741841077805 -1.5787598095335902 -0.045704808086156845 -0.023548917179443407 0.03989743813872337 0.01416730135679245 True False
2479.159 0.055130988359451294 -1.579355855981344 -0.04910099133849144 -0.025225238209106493 0.0428818054497242 0.015193120576441288 True False
2479.179 0.059114228934049606 -1.5799709759154261 -0.05269520357251167 -0.027000622158386278 0.04604272171854973 0.016275502741336823 True False
2479.199 0.06327603757381439 -1.580557485620016 -0.05629918351769447 -0.028961972599365282 0.04925157129764557 0.017462704330682755 True False
2479.219 0.06755747646093369 -1.5812136135497035 -0.06005576252937317 -0.031005577450134325 0.05259961634874344 0.01869315840303898 True False
2479.239 0.07193583250045776 -1.5819131336607875 -0.06400546431541443 -0.03299005449328618 0.056056492030620575 0.01985817961394787 True False
2479.259 0.0763687714934349 -1.5825439892210902 -0.0681225061416626 -0.034950093632080126 0.059552934020757675 0.02110246941447258 True False
2479.279 0.08103018999099731 -1.583325048486227 -0.07230424880981445 -0.03723843515429692 0.0631895512342453 0.022384069859981537 True False
2479.299 0.0859246701002121 -1.5841065845885218 -0.07663442939519882 -0.03933473051104741 0.06697379797697067 0.023705866187810898 True False
2479.319 0.09088804572820663 -1.5849477253355921 -0.08105141669511795 -0.04159923017535405 0.07079082727432251 0.02506374381482601 True False
2479.339 0.09608011692762375 -1.5856243572630824 -0.08558835089206696 -0.04401631773028569 0.07485190778970718 0.026453273370862007 True False
2479.359 0.10127928107976913 -1.5864654980101527 -0.0901794359087944 -0.04630322874102788 0.07895266264677048 0.027980025857686996 True False
2479.379 0.10650712251663208 -1.5872637234129847 -0.09489376097917557 -0.0486636918834229 0.08299681544303894 0.029342882335186005 True False
2479.399 0.11170190572738647 -1.5880481205382289 -0.09955661743879318 -0.0512046378901978 0.08708968013525009 0.030772773548960686 True False
2479.419 0.11702929437160492 -1.588879247704977 -0.10427771508693695 -0.05353637159381108 0.09118646383285522 0.03222650662064552 True False
2479.439 0.12223884463310242 -1.5897184811034144 -0.10887406021356583 -0.055868343716003466 0.09533558040857315 0.03366827219724655 True False
2479.459 0.12748408317565918 -1.5905519924559535 -0.11352378875017166 -0.05845363557849126 0.09931923449039459 0.035122014582157135 True False
2479.479 0.1327960342168808 -1.591321130792135 -0.11806638538837433 -0.060813741093017626 0.1034054085612297 0.03657902032136917 True False
2479.499 0.13788707554340363 -1.5921784840025843 -0.12269602715969086 -0.06309397638354497 0.10746127367019653 0.038033947348594666 True False
2479.519 0.14308513700962067 -1.5929247341551722 -0.12738196551799774 -0.06560571611437993 0.11158346384763718 0.03945225849747658 True False
2479.5389999999998 0.14835433661937714 -1.5937487087645472 -0.13225260376930237 -0.06799467027697759 0.11570626497268677 0.04090907797217369 True False
2479.5589999999997 0.15361493825912476 -1.5945950947203578 -0.13689185678958893 -0.07028623045001225 0.11978490650653839 0.04232313856482506 True False
2479.5789999999997 0.15889234840869904 -1.5954510174193324 -0.14156605303287506 -0.0728188318065186 0.12387942522764206 0.04378640279173851 True False
2479.5989999999997 0.16410882771015167 -1.596266885797018 -0.14605079591274261 -0.07508643091235356 0.1278543770313263 0.045229800045490265 True False
2479.6189999999997 0.16931647062301636 -1.5969892940916957 -0.15063118934631348 -0.07745035112414556 0.1319371461868286 0.046598974615335464 True False
2479.6389999999997 0.1744677722454071 -1.597847124139303 -0.15534521639347076 -0.07999809206042485 0.13604046404361725 0.04811132699251175 True False
2479.659 0.17981712520122528 -1.5986291370787562 -0.16007477045059204 -0.08223708093676763 0.14005817472934723 0.049498461186885834 True False
2479.679 0.18499545753002167 -1.5994917354979457 -0.16479021310806274 -0.0846976798823853 0.144325852394104 0.050944987684488297 True False
2479.699 0.19035950303077698 -1.6002942524352015 -0.1694629192352295 -0.08715649068865972 0.1483035534620285 0.052461620420217514 True False
2479.719 0.19558016955852509 -1.6010858021178187 -0.17404702305793762 -0.08948858202014165 0.15241467952728271 0.05384720861911774 True False
2479.739 0.20071962475776672 -1.6019164524474085 -0.17861834168434143 -0.09185989320788579 0.15648184716701508 0.05529090389609337 True False
2479.759 0.20591747760772705 -1.602682729760641 -0.18330655992031097 -0.09431953847918706 0.16063590347766876 0.05672689154744148 True False
2479.779 0.2111855149269104 -1.603436132470602 -0.1881130188703537 -0.09661884725604253 0.16464559733867645 0.05814836174249649 True False
2479.799 0.21649275720119476 -1.6042849026122035 -0.1927952915430069 -0.09911902368579106 0.16863925755023956 0.059596266597509384 True False
2479.819 0.221739262342453 -1.6051136455931605 -0.19755879044532776 -0.10151727617297368 0.17282156646251678 0.06106413155794144 True False
2479.839 0.22699794173240662 -1.6059404812254847 -0.20209437608718872 -0.10377712667498784 0.1768806427717209 0.062499187886714935 True False
2479.859 0.2318594604730606 -1.6067186794676722 -0.2064509093761444 -0.1061970752528687 0.18082307279109955 0.06380175054073334 True False
2479.879 0.23617330193519592 -1.6074878178038539 -0.21031546592712402 -0.10810037076983647 0.1841278225183487 0.06502062827348709 True False
2479.899 0.23979562520980835 -1.6079384289183558 -0.21342229843139648 -0.10968764246020513 0.1869518756866455 0.06600754708051682 True False
2479.919 0.24276983737945557 -1.60827698330068 -0.21595674753189087 -0.11104758203540044 0.1892477422952652 0.06689153611660004 True False
2479.939 0.24511057138442993 -1.6086541614928187 -0.21809375286102295 -0.11222727716479497 0.1911102831363678 0.06748228520154953 True False
2479.959 0.24683649837970734 -1.608925004998678 -0.21968185901641846 -0.11302669466052251 0.19244015216827393 0.06798608601093292 True False
2479.979 0.24790669977664948 -1.609141012231344 -0.22059392929077148 -0.1134990018657227 0.19320091605186462 0.06827852129936218 True False
2479.999 0.24820655584335327 -1.609141012231344 -0.22090820968151093 -0.11357076585803227 0.19344525039196014 0.06832646578550339 True False
2480.019 0.2481555938720703 -1.6089641056456507 -0.22085916996002197 -0.11357899129901128 0.19338878989219666 0.06829359382390976 True False
2480.0389999999998 0.24813272058963776 -1.608903547326559 -0.22076623141765594 -0.11352308214221196 0.1934293955564499 0.06826099008321762 True False
2480.0589999999997 0.24818381667137146 -1.6090241871275843 -0.22091472148895264 -0.11354263246569829 0.19338488578796387 0.06836012005805969 True False
2480.0789999999997 0.2481631338596344 -1.6090971432127894 -0.22101810574531555 -0.11356265962634282 0.19345755875110626 0.06829705089330673 True False
2480.0989999999997 0.24814999103546143 -1.6090852222838343 -0.22098971903324127 -0.11351056516680913 0.19340099394321442 0.06829357147216797 True False
2480.1189999999997 0.2481675148010254 -1.6090156040587367 -0.22098630666732788 -0.11351473749194341 0.1934371292591095 0.06830139458179474 True False
2480.1389999999997 0.24823173880577087 -1.6090766392149867 -0.2210225760936737 -0.11349840581927495 0.193441241979599 0.06830140203237534 True False
2480.159 0.24830061197280884 -1.6092006168761195 -0.22102391719818115 -0.11354668558154302 0.19347314536571503 0.06836562603712082 True False
2480.179 0.24822290241718292 -1.6091519794859828 -0.2210940718650818 -0.11351068437609868 0.19348929822444916 0.0684112086892128 True False
2480.199 0.24829189479351044 -1.6091724834837855 -0.22104188799858093 -0.113583044414856 0.19348925352096558 0.06837431341409683 True False
2480.219 0.24823077023029327 -1.609204431573385 -0.22104184329509735 -0.1135586065104981 0.1935412883758545 0.06840239465236664 True False
2480.239 0.2482394576072693 -1.6092587910094203 -0.22105376422405243 -0.11357040823016362 0.19356556236743927 0.06838181614875793 True False
2480.259 0.2482590228319168 -1.6092287502684535 -0.22103293240070343 -0.11362286031756597 0.1935412883758545 0.06837748736143112 True False
2480.279 0.24822646379470825 -1.6091562710204066 -0.22106125950813293 -0.11358220994982915 0.19351303577423096 0.0683731734752655 True False
2480.299 0.24829623103141785 -1.6091720066466273 -0.22104932367801666 -0.11364252985034184 0.19357739388942719 0.06836877018213272 True False
2480.319 0.24827206134796143 -1.6091920338072718 -0.22107470035552979 -0.11357815683398442 0.19352936744689941 0.06837315857410431 True False
2480.339 0.24827203154563904 -1.6092130146422328 -0.22102545201778412 -0.11364658296618657 0.19354912638664246 0.06837748736143112 True False
2480.359 0.24831676483154297 -1.6092287502684535 -0.22107471525669098 -0.11361463487658696 0.1935613751411438 0.06842222809791565 True False
2480.379 0.24824710190296173 -1.6092049084105433 -0.22106575965881348 -0.11359425008807378 0.1935614049434662 0.068348228931427 True False
2480.399 0.24819807708263397 -1.6092201671996058 -0.22105823457241058 -0.11360640943560796 0.1935335397720337 0.06841029226779938 True False
2480.419 0.2482764571905136 -1.609159608880514 -0.22104638814926147 -0.1136588615230103 0.193561390042305 0.06836125999689102 True False
2480.439 0.24825143814086914 -1.6092001400389613 -0.22102385759353638 -0.1135823291591187 0.19354954361915588 0.06841027736663818 True False
2480.459 0.24823950231075287 -1.6092244587340296 -0.22101649641990662 -0.11361868799243169 0.19350889325141907 0.06840158998966217 True False
2480.479 0.24830923974514008 -1.6091834507384242 -0.2210119664669037 -0.11364252985034184 0.19352127611637115 0.06839368492364883 True False
2480.499 0.24830050766468048 -1.609208723107809 -0.22102096676826477 -0.11357040823016362 0.19353720545768738 0.06834936141967773 True False
2480.519 0.2482796013355255 -1.609215875665182 -0.22102543711662292 -0.1135983032039185 0.1935252845287323 0.06837429106235504 True False
2480.5389999999998 0.2482590228319168 -1.609215875665182 -0.22105823457241058 -0.11366291463885503 0.19357331097126007 0.06840157508850098 True False
2480.5589999999997 0.24826335906982422 -1.6091639004149378 -0.22102099657058716 -0.11364252985034184 0.1935335248708725 0.06839804351329803 True False
2480.5789999999997 0.24824278056621552 -1.6091720066466273 -0.22106578946113586 -0.11361058176074224 0.19352936744689941 0.0683731809258461 True False
2480.5989999999997 0.2482427954673767 -1.6092006168761195 -0.22101649641990662 -0.1135823291591187 0.19351288676261902 0.06835366785526276 True False
2480.6189999999997 0.24825464189052582 -1.609204431573385 -0.22104637324810028 -0.11360235631976323 0.19352936744689941 0.06836557388305664 True False
2480.6389999999997 0.24826766550540924 -1.6091958485045375 -0.22104187309741974 -0.11358995855364995 0.1935209035873413 0.06834585219621658 True False
2480.659 0.24832867085933685 -1.6092287502684535 -0.2210703194141388 -0.11361868799243169 0.19356930255889893 0.06836989521980286 True False
2480.679 0.2482178509235382 -1.6092287502684535 -0.221016526222229 -0.11357827604327397 0.19350899755954742 0.06834502518177032 True False
2480.699 0.248222216963768 -1.6092006168761195 -0.2210119664669037 -0.11361058176074224 0.1935252994298935 0.06837749481201172 True False
2480.719 0.24826766550540924 -1.6092201671996058 -0.22096262872219086 -0.11361058176074224 0.19349707663059235 0.06840676069259644 True False
2480.739 0.2483004778623581 -1.6092330418028773 -0.22104185819625854 -0.11364658296618657 0.1935732662677765 0.0683569610118866 True False
2480.759 0.24829183518886566 -1.6092616520323695 -0.22101353108882904 -0.11361868799243169 0.1935453563928604 0.06835365295410156 True False
2480.779 0.24827206134796143 -1.6091920338072718 -0.22102096676826477 -0.11364252985034184 0.1935453563928604 0.06834934651851654 True False
2480.799 0.24822211265563965 -1.6092006168761195 -0.2210046350955963 -0.11362655580554204 0.19354532659053802 0.06842219829559326 True False
2480.819 0.24824713170528412 -1.609236856500143 -0.22100907564163208 -0.11363060892138677 0.19351308047771454 0.06833277642726898 True False
2480.839 0.24816882610321045 -1.6091963253416957 -0.22101354598999023 -0.11362274110827641 0.19355325400829315 0.06840236485004425 True False
2480.859 0.24823519587516785 -1.609232564965719 -0.22097615897655487 -0.11360652864489751 0.19353319704532623 0.06833206117153168 True False
2480.879 0.24824713170528412 -1.609236856500143 -0.2209920883178711 -0.11360652864489751 0.1934797465801239 0.06838496774435043 True False
2480.899 0.24826453626155853 -1.6091920338072718 -0.22104933857917786 -0.11362250268969731 0.19351308047771454 0.06843512505292892 True False
2480.919 0.24821428954601288 -1.6092130146422328 -0.22102101147174835 -0.11362667501483159 0.19348500669002533 0.06835697591304779 True False
2480.939 0.24825464189052582 -1.6092173061766566 -0.22102993726730347 -0.11360652864489751 0.19355325400829315 0.06841108947992325 True False
2480.959 0.24826768040657043 -1.609208723107809 -0.2210344523191452 -0.11358650148425298 0.19351720809936523 0.06837747991085052 True False
2480.979 0.24824278056621552 -1.609236856500143 -0.22102996706962585 -0.11358650148425298 0.19350457191467285 0.06836557388305664 True False
2480.999 0.24824711680412292 -1.6092244587340296 -0.22103454172611237 -0.11362250268969731 0.1935453563928604 0.06840676069259644 True False
2481.0389999999998 0.24826768040657043 -1.6092244587340296 -0.22100013494491577 -0.11363442361865239 0.19354134798049927 0.0683569461107254 True False
2481.0589999999997 0.24823834002017975 -1.609180589715475 -0.22104184329509735 -0.11362274110827641 0.19358977675437927 0.06842655688524246 True False
2481.0789999999997 0.2482590675354004 -1.6092239818968714 -0.22103290259838104 -0.11363060892138677 0.1935012936592102 0.06836557388305664 True False
2481.0989999999997 0.24825023114681244 -1.6092130146422328 -0.22102543711662292 -0.11357446134600835 0.1935414969921112 0.06838496774435043 True False
2481.1189999999997 0.24822653830051422 -1.6092239818968714 -0.22104188799858093 -0.11360652864489751 0.19353331625461578 0.06836988776922226 True False
2481.1389999999997 0.24826331436634064 -1.609159608880514 -0.22103899717330933 -0.11361856878314214 0.19350506365299225 0.06838180869817734 True False
2481.159 0.24827644228935242 -1.609232564965719 -0.22100013494491577 -0.11361082017932134 0.19352935254573822 0.06840236485004425 True False
2481.179 0.24823839962482452 -1.6091677151122035 -0.22100462019443512 -0.11362667501483159 0.19356127083301544 0.06840673089027405 True False
2481.199 0.24826335906982422 -1.6092373333373011 -0.2210463434457779 -0.1136666101268311 0.19352936744689941 0.06836125999689102 True False
2481.219 0.2482309341430664 -1.6092201671996058 -0.22102993726730347 -0.11355872571978765 0.19353331625461578 0.06841030716896057 True False
2481.239 0.24823085963726044 -1.6092201671996058 -0.22104185819625854 -0.1136503976634522 0.19353345036506653 0.06832847744226456 True False
2481.259 0.2482752799987793 -1.6092115841307582 -0.22107025980949402 -0.1136503976634522 0.19349724054336548 0.06838180869817734 True False
2481.279 0.24824707210063934 -1.6091591320433558 -0.22106270492076874 -0.11363454282794194 0.1935334950685501 0.06836122274398804 True False
2481.299 0.2482796013355255 -1.609199663201803 -0.2210090607404709 -0.11363454282794194 0.19352936744689941 0.06838180869817734 True False
2481.319 0.2482265681028366 -1.6092153988280238 -0.22101353108882904 -0.11363454282794194 0.19353729486465454 0.06841027736663818 True False
2481.339 0.24819374084472656 -1.6091920338072718 -0.22103449702262878 -0.11367853105578618 0.19350527226924896 0.06841550022363663 True False
2481.359 0.24824711680412292 -1.6092130146422328 -0.22103452682495117 -0.11365874231372075 0.19354130327701569 0.06836989521980286 True False
2481.379 0.24827639758586884 -1.6092201671996058 -0.22100907564163208 -0.11358268678698735 0.19350530207157135 0.06839805841445923 True False
2481.399 0.2483004927635193 -1.6092335186400355 -0.22102996706962585 -0.11362274110827641 0.19352516531944275 0.06839801371097565 True False
2481.419 0.24827200174331665 -1.6092201671996058 -0.22102101147174835 -0.11365445077929692 0.19354526698589325 0.06832843273878098 True False
2481.439 0.24821865558624268 -1.609166761437887 -0.22101810574531555 -0.11366303384814458 0.1935211569070816 0.06838180869817734 True False
2481.459 0.24823839962482452 -1.609182973901266 -0.2210254669189453 -0.11361058176074224 0.19350126385688782 0.06838180869817734 True False
2481.479 0.24825145304203033 -1.6091538868346156 -0.22100114822387695 -0.1135900777629395 0.1935373991727829 0.06834933906793594 True False
2481.499 0.24827194213867188 -1.6092153988280238 -0.22097620368003845 -0.11363478124652104 0.1935373842716217 0.0683894157409668 True False
2481.519 0.24827957153320312 -1.6092282734312953 -0.2209763079881668 -0.11361463487658696 0.193549245595932 0.06839369982481003 True False
2481.5389999999998 0.2483198195695877 -1.6092130146422328 -0.22101354598999023 -0.11363466203723149 0.1935412883758545 0.06841449439525604 True False
2481.5589999999997 0.24824713170528412 -1.6092201671996058 -0.2210056483745575 -0.11365480840716558 0.19359764456748962 0.06838610023260117 True False
2481.5789999999997 0.24827197194099426 -1.6092244587340296 -0.2210462987422943 -0.1136588615230103 0.19355319440364838 0.06842648983001709 True False
2481.5989999999997 0.24821440875530243 -1.6092220745482386 -0.22108370065689087 -0.11363883436236577 0.19356516003608704 0.06839372217655182 True False
2481.6189999999997 0.24827957153320312 -1.6091591320433558 -0.22102992236614227 -0.11366696775469975 0.19350478053092957 0.06840671598911285 True False
2481.6389999999997 0.2482881397008896 -1.609175821343893 -0.2210165560245514 -0.11359425008807378 0.1935211718082428 0.06839796155691147 True False
2481.659 0.2482546865940094 -1.609269758264059 -0.22100910544395447 -0.11367114007983403 0.19351300597190857 0.06839800626039505 True False
2481.679 0.24826781451702118 -1.6092130146422328 -0.22099660336971283 -0.11362286031756597 0.19351719319820404 0.06836557388305664 True False
2481.699 0.2482183575630188 -1.6092130146422328 -0.22101354598999023 -0.11363060892138677 0.19355717301368713 0.06833704560995102 True False
2481.719 0.24829638004302979 -1.6091920338072718 -0.22099661827087402 -0.11362286031756597 0.1935611069202423 0.06839370727539062 True False
2481.739 0.24830535054206848 -1.609204431573385 -0.2210373729467392 -0.11363096654925542 0.19350114464759827 0.06834504753351212 True False
2481.759 0.24825890362262726 -1.609175821343893 -0.22105078399181366 -0.11361058176074224 0.19352151453495026 0.06837307661771774 True False
2481.779 0.24826781451702118 -1.6091920338072718 -0.22102545201778412 -0.11365480840716558 0.1935092657804489 0.06834504008293152 True False
2481.799 0.24830836057662964 -1.6092373333373011 -0.22102247178554535 -0.11354203641925054 0.1935376226902008 0.06841887533664703 True False
2481.819 0.24820196628570557 -1.6092244587340296 -0.22104626893997192 -0.11363466203723149 0.19350120425224304 0.068370021879673 True False
2481.839 0.2482558637857437 -1.6091920338072718 -0.22099569439888 -0.11362691343341069 0.19350895285606384 0.06836557388305664 True False
2481.859 0.2483053207397461 -1.6091724834837855 -0.22101356089115143 -0.11364252985034184 0.1935453712940216 0.06833579391241074 True False
2481.879 0.24823351204395294 -1.6092244587340296 -0.22102251648902893 -0.11364658296618657 0.1935335397720337 0.06837304681539536 True False
2481.899 0.24827682971954346 -1.6091896496214808 -0.22103886306285858 -0.11359425008807378 0.19351303577423096 0.06837303936481476 True False
2481.919 0.2483171969652176 -1.609241624871725 -0.22099663317203522 -0.11364252985034184 0.19350895285606384 0.06839381903409958 True False
2481.939 0.2482350617647171 -1.6091786823668421 -0.2210506945848465 -0.11363871515307622 0.19352936744689941 0.06836557388305664 True False
2481.959 0.248246967792511 -1.609208723107809 -0.22104623913764954 -0.11365468919787602 0.19349704682826996 0.06832365691661835 True False
2481.979 0.24827682971954346 -1.609171529809469 -0.2210373878479004 -0.11363466203723149 0.1935453712940216 0.06833577901124954 True False
2481.999 0.24828419089317322 -1.6091920338072718 -0.22100913524627686 -0.11361868799243169 0.19351303577423096 0.06832362711429596 True False
2482.019 0.2482604682445526 -1.6092244587340296 -0.22103877365589142 -0.11365468919787602 0.1935252845287323 0.06836557388305664 True False
2482.0389999999998 0.24826334416866302 -1.60917391399526 -0.22103437781333923 -0.1136428874782105 0.19352130591869354 0.06838196516036987 True False
2482.0589999999997 0.24828863143920898 -1.6092130146422328 -0.22102105617523193 -0.1135983032039185 0.1935453712940216 0.06841058284044266 True False
2482.0789999999997 0.24825142323970795 -1.6092130146422328 -0.2210373878479004 -0.11364658296618657 0.1934851109981537 0.06837749481201172 True False
2482.0989999999997 0.24823060631752014 -1.6091920338072718 -0.22099226713180542 -0.11361833036456304 0.19352129101753235 0.06833579391241074 True False
2482.1189999999997 0.24829639494419098 -1.609142919579977 -0.22100113332271576 -0.11366696775469975 0.1935453712940216 0.06836114823818207 True False
2482.1389999999997 0.24822905659675598 -1.6091848812498988 -0.22100915014743805 -0.11363883436236577 0.19350895285606384 0.06836557388305664 True False
2482.159 0.24827073514461517 -1.609208723107809 -0.22098785638809204 -0.11363060892138677 0.1935211420059204 0.06840161234140396 True False
2482.179 0.24826334416866302 -1.609241624871725 -0.22100478410720825 -0.11361868799243169 0.19355730712413788 0.06837750226259232 True False
2482.199 0.2483009546995163 -1.60915007213735 -0.2210254669189453 -0.11361868799243169 0.19352936744689941 0.06835214793682098 True False
2482.219 0.24820496141910553 -1.6092502079405726 -0.22102110087871552 -0.11363466203723149 0.19350484013557434 0.06839833408594131 True False
2482.239 0.24827226996421814 -1.6091872654356898 -0.2209959328174591 -0.11362655580554204 0.19350869953632355 0.06839383393526077 True False
2482.259 0.2482350766658783 -1.6091591320433558 -0.22101353108882904 -0.1135900777629395 0.1935536414384842 0.06841503828763962 True False
2482.279 0.24822621047496796 -1.6092177830138148 -0.2210373878479004 -0.11361058176074224 0.1935293972492218 0.06836112588644028 True False
2482.299 0.24829642474651337 -1.609208723107809 -0.2209959626197815 -0.1135983032039185 0.19350895285606384 0.06838642060756683 True False
2482.319 0.24828296899795532 -1.6092378101744593 -0.22101671993732452 -0.11362655580554204 0.1935335099697113 0.06836556643247604 True False
2482.339 0.2482963651418686 -1.6091920338072718 -0.22101671993732452 -0.11363060892138677 0.19350895285606384 0.06838639080524445 True False
2482.359 0.24827972054481506 -1.6092502079405726 -0.22101226449012756 -0.11361833036456304 0.19353310763835907 0.06834923475980759 True False
2482.379 0.24820499122142792 -1.6092244587340296 -0.22100041806697845 -0.11364252985034184 0.19356964528560638 0.0683894157409668 True False
2482.399 0.24823950231075287 -1.6091634235777796 -0.2209923416376114 -0.11361868799243169 0.1935376226902008 0.06838641315698624 True False
2482.419 0.2482093870639801 -1.6092006168761195 -0.22102980315685272 -0.1136588615230103 0.19348518550395966 0.06837906688451767 True False
2482.439 0.2483009696006775 -1.609204431573385 -0.2210460752248764 -0.11356587827716069 0.1935495138168335 0.0683521181344986 True False
2482.459 0.248226135969162 -1.6092220745482386 -0.22102981805801392 -0.11360223711047368 0.19350869953632355 0.06832361966371536 True False
2482.479 0.2482706904411316 -1.6092201671996058 -0.22100113332271576 -0.1136588615230103 0.19355736672878265 0.068370021879673 True False
2482.499 0.24826781451702118 -1.6092130146422328 -0.22103427350521088 -0.11363883436236577 0.19350120425224304 0.06839092075824738 True False
2482.519 0.24828137457370758 -1.6091262302794398 -0.2210298329591751 -0.11361046255145268 0.19348090887069702 0.06835366785526276 True False
2482.5389999999998 0.248246967792511 -1.6091352901854457 -0.22103425860404968 -0.11365480840716558 0.19354583323001862 0.06834475696086884 True False
2482.5589999999997 0.2482920140028 -1.609182973901266 -0.22100484371185303 -0.1136588615230103 0.193561390042305 0.06834923475980759 True False
2482.5789999999997 0.24828866124153137 -1.609171529809469 -0.22101354598999023 -0.11356575906787114 0.1935655176639557 0.06838194280862808 True False
2482.5989999999997 0.24826335906982422 -1.6092292271056117 -0.22103425860404968 -0.11361058176074224 0.19351720809936523 0.06838639080524445 True False
2482.6189999999997 0.24827228486537933 -1.6092373333373011 -0.2210048884153366 -0.11361868799243169 0.19360238313674927 0.06836557388305664 True False
2482.6389999999997 0.24828869104385376 -1.6092053852477015 -0.2209722399711609 -0.11361046255145268 0.19349300861358643 0.06839386373758316 True False
2482.659 0.24832186102867126 -1.609175821343893 -0.22099672257900238 -0.11359425008807378 0.19351306557655334 0.0683700293302536 True False
2482.679 0.2482723593711853 -1.6091543636717738 -0.22099235653877258 -0.11363835752520757 0.1935613453388214 0.06832056492567062 True False
2482.699 0.24826624989509583 -1.6092373333373011 -0.22100548446178436 -0.11365480840716558 0.19353757798671722 0.06837305426597595 True False
2482.719 0.2482379525899887 -1.6092244587340296 -0.22097231447696686 -0.11362286031756597 0.1935335397720337 0.06841500103473663 True False
2482.739 0.2482469528913498 -1.609208723107809 -0.2210092395544052 -0.11363466203723149 0.19348101317882538 0.06841952353715897 True False
2482.759 0.24827231466770172 -1.6092292271056117 -0.22103740274906158 -0.11363430440936284 0.19351303577423096 0.06836850941181183 True False
2482.779 0.24826045334339142 -1.6092053852477015 -0.2210048884153366 -0.11362655580554204 0.19354954361915588 0.06838194280862808 True False
2482.799 0.24830098450183868 -1.609232564965719 -0.2210123986005783 -0.11360652864489751 0.193561390042305 0.06836557388305664 True False
2482.819 0.24827979505062103 -1.609171529809469 -0.2210005670785904 -0.11357827604327397 0.1935495138168335 0.06835665553808212 True False
2482.839 0.24830541014671326 -1.6091963253416957 -0.22104598581790924 -0.11369522035632329 0.19350524246692657 0.06837749481201172 True False
2482.859 0.24824701249599457 -1.6092502079405726 -0.22102980315685272 -0.1136428874782105 0.1935376077890396 0.06834475696086884 True False
2482.879 0.24825595319271088 -1.6092130146422328 -0.2210417091846466 -0.11359425008807378 0.1934729516506195 0.06836109608411789 True False
2482.899 0.2482469230890274 -1.6091515026488246 -0.2209962010383606 -0.11359425008807378 0.19352129101753235 0.06839397549629211 True False
2482.919 0.24826782941818237 -1.6092130146422328 -0.22099672257900238 -0.1136506360820313 0.19350115954875946 0.06838196516036987 True False
2482.939 0.24827228486537933 -1.6092549763121546 -0.2210168093442917 -0.11364300668750005 0.19358566403388977 0.0683775246143341 True False
2482.959 0.24825145304203033 -1.6091963253416957 -0.22100487351417542 -0.1135905546000977 0.193521186709404 0.06837302446365356 True False
2482.979 0.2483009248971939 -1.609208723107809 -0.22101356089115143 -0.11357827604327397 0.19351720809936523 0.06837749481201172 True False
2482.999 0.24829640984535217 -1.609208723107809 -0.2210417240858078 -0.11367114007983403 0.19352120161056519 0.06835663318634033 True False
2483.019 0.24827975034713745 -1.6092292271056117 -0.2210373878479004 -0.11360652864489751 0.193545401096344 0.0684150829911232 True False
2483.0389999999998 0.24827229976654053 -1.6092153988280238 -0.2210579216480255 -0.11361868799243169 0.19352936744689941 0.06841060519218445 True False
2483.0589999999997 0.24826493859291077 -1.6092335186400355 -0.2211039662361145 -0.11360235631976323 0.19349293410778046 0.06837749481201172 True False
2483.0789999999997 0.2482559233903885 -1.609175821343893 -0.2210504710674286 -0.11362286031756597 0.1935453712940216 0.06837749481201172 True False
2483.0989999999997 0.24825426936149597 -1.609208723107809 -0.22097931802272797 -0.1135983032039185 0.19353356957435608 0.06835664063692093 True False
2483.1189999999997 0.24823954701423645 -1.6092244587340296 -0.2210373878479004 -0.11361868799243169 0.19354958832263947 0.06837749481201172 True False
2483.1389999999997 0.24826782941818237 -1.609241624871725 -0.2210579365491867 -0.1136588615230103 0.1935335397720337 0.06840285658836365 True False
2483.159 0.24825428426265717 -1.6092201671996058 -0.22102226316928864 -0.11361868799243169 0.19354958832263947 0.06837005913257599 True False
2483.179 0.2482350766658783 -1.6092621288695277 -0.2210092693567276 -0.11361463487658696 0.193537637591362 0.06831611692905426 True False
2483.199 0.24821709096431732 -1.6092335186400355 -0.22102978825569153 -0.11367114007983403 0.1935335248708725 0.06831440329551697 True False
2483.219 0.24829325079917908 -1.609180589715475 -0.22098380327224731 -0.11362238348040776 0.19354130327701569 0.06827880442142487 True False
2483.239 0.24826335906982422 -1.6091920338072718 -0.2210211455821991 -0.11365468919787602 0.1935252547264099 0.06842699646949768 True False
2483.259 0.2482752650976181 -1.6091848812498988 -0.2210417240858078 -0.11362238348040776 0.1935293972492218 0.06839388608932495 True False
2483.279 0.24824410676956177 -1.6092716656126917 -0.22098806500434875 -0.11361868799243169 0.1935376226902008 0.06837302446365356 True False
2483.299 0.24825145304203033 -1.6092006168761195 -0.22103852033615112 -0.11360652864489751 0.193569615483284 0.06833118200302124 True False
2483.319 0.24827685952186584 -1.6092578373351039 -0.22100059688091278 -0.11362274110827641 0.19347694516181946 0.06838197261095047 True False
2483.339 0.24825595319271088 -1.609208723107809 -0.22098810970783234 -0.11362655580554204 0.19350895285606384 0.06838199496269226 True False
2483.359 0.24827229976654053 -1.609204431573385 -0.22104601562023163 -0.11360652864489751 0.1935417205095291 0.06834918260574341 True False
2483.379 0.24827975034713745 -1.6092220745482386 -0.2210254818201065 -0.1135905546000977 0.19357739388942719 0.06838196516036987 True False
2483.399 0.24823054671287537 -1.609171529809469 -0.221004918217659 -0.11358244836840825 0.19348099827766418 0.06840738654136658 True False
2483.419 0.2482919692993164 -1.6092006168761195 -0.22097666561603546 -0.11366672933612065 0.1935252845287323 0.06838196516036987 True False
2483.439 0.24825432896614075 -1.6091677151122035 -0.22101353108882904 -0.11361070097003179 0.1935335397720337 0.06841057538986206 True False
2483.459 0.24826782941818237 -1.6092292271056117 -0.2210341840982437 -0.11366672933612065 0.1935252845287323 0.0683610737323761 True False
2483.479 0.24826334416866302 -1.60925354580068 -0.22102980315685272 -0.1136668485454102 0.19352936744689941 0.06833244860172272 True False
2483.499 0.24829639494419098 -1.609175821343893 -0.22108305990695953 -0.11360652864489751 0.1935376226902008 0.06838195770978928 True False
2483.519 0.24828428030014038 -1.6091896496214808 -0.22102978825569153 -0.1135985416224976 0.1935376226902008 0.06836110353469849 True False
2483.5389999999998 0.24821385741233826 -1.6091677151122035 -0.22106672823429108 -0.1136586231044312 0.19351720809936523 0.06832799315452576 True False
2483.5589999999997 0.248246967792511 -1.6092006168761195 -0.22106225788593292 -0.11366267622027593 0.19347286224365234 0.0683894157409668 True False
2483.5789999999997 0.24825888872146606 -1.6092244587340296 -0.22103850543498993 -0.11358673990283208 0.1935335397720337 0.06840738654136658 True False
2483.5989999999997 0.24827533960342407 -1.609180589715475 -0.22100114822387695 -0.1135985416224976 0.19351303577423096 0.06832358986139297 True False
2483.6189999999997 0.24825894832611084 -1.6092468700804652 -0.22102978825569153 -0.11361463487658696 0.1935252696275711 0.06838196516036987 True False
2483.6389999999997 0.24823057651519775 -1.6092006168761195 -0.2210254818201065 -0.1135985416224976 0.19355320930480957 0.06838644295930862 True False
2483.659 0.24824406206607819 -1.6092153988280238 -0.2210341840982437 -0.11357863367114263 0.19352129101753235 0.06838645786046982 True False
2483.679 0.24824249744415283 -1.6092220745482386 -0.22100922465324402 -0.11362274110827641 0.19350528717041016 0.06839102506637573 True False
2483.699 0.24825437366962433 -1.6091634235777796 -0.22099675238132477 -0.11364658296618657 0.1935252845287323 0.06832344084978104 True False
2483.719 0.24832919239997864 -1.6092244587340296 -0.2210622876882553 -0.11359067380938725 0.1935335099697113 0.06838642805814743 True False
2483.739 0.2482558786869049 -1.6091953716673792 -0.22102974355220795 -0.11358662069354253 0.1935655176639557 0.06830247491598129 True False
2483.759 0.2482350766658783 -1.6092006168761195 -0.2210417091846466 -0.11360247552905278 0.19352936744689941 0.06837460398674011 True False
2483.779 0.2482350766658783 -1.6091591320433558 -0.2210416942834854 -0.11363060892138677 0.19351303577423096 0.06838196516036987 True False
2483.799 0.24825143814086914 -1.6092130146422328 -0.22106221318244934 -0.11360247552905278 0.1935536414384842 0.06834915280342102 True False
2483.819 0.2482842057943344 -1.6091872654356898 -0.2210211604833603 -0.11360247552905278 0.19348928332328796 0.06837005168199539 True False
2483.839 0.24829193949699402 -1.609262605706686 -0.22103841602802277 -0.11360676706347661 0.1935495287179947 0.06838196516036987 True False
2483.859 0.2482752948999405 -1.6092335186400355 -0.221004918217659 -0.11364646375689702 0.19351305067539215 0.0684150755405426 True False
2483.879 0.24825440347194672 -1.6091591320433558 -0.22099246084690094 -0.11363060892138677 0.19353720545768738 0.06837749481201172 True False
2483.899 0.24826335906982422 -1.6091848812498988 -0.2210211604833603 -0.11362274110827641 0.1935453712940216 0.06839391589164734 True False
2483.919 0.24830080568790436 -1.6091848812498988 -0.2210416942834854 -0.11361868799243169 0.1935335397720337 0.06834470480680466 True False
2483.939 0.24823951721191406 -1.6091963253416957 -0.22104167938232422 -0.113574818973877 0.19350528717041016 0.0683894008398056 True False
2483.959 0.2482440173625946 -1.6092549763121546 -0.22099655866622925 -0.11363883436236577 0.1935453712940216 0.06832805275917053 True False
2483.979 0.24819953739643097 -1.6091872654356898 -0.2210090607404709 -0.11360235631976323 0.19350120425224304 0.06836556643247604 True False
2483.999 0.2482677847146988 -1.609204431573385 -0.22102992236614227 -0.11358638227496343 0.19350485503673553 0.0683700442314148 True False
2484.019 0.24824258685112 -1.6092244587340296 -0.2210463136434555 -0.11361463487658696 0.19349288940429688 0.0683235228061676 True False
2484.0389999999998 0.24820959568023682 -1.6092177830138148 -0.22104185819625854 -0.11360235631976323 0.1935412883758545 0.06839387863874435 True False
2484.0589999999997 0.24830831587314606 -1.6092177830138148 -0.22102989256381989 -0.11363883436236577 0.1935453712940216 0.06841962039470673 True False
2484.0789999999997 0.24827967584133148 -1.609175821343893 -0.22103440761566162 -0.1136588615230103 0.19352936744689941 0.06830254197120667 True False
2484.0989999999997 0.24825897812843323 -1.6092382870116175 -0.2210254818201065 -0.1136588615230103 0.19354954361915588 0.06838641315698624 True False
2484.1189999999997 0.24827218055725098 -1.6091939411559046 -0.22102992236614227 -0.11365468919787602 0.19350895285606384 0.06838192045688629 True False
2484.1389999999997 0.2482306957244873 -1.609204431573385 -0.220955029129982 -0.11357827604327397 0.1935335397720337 0.06838198751211166 True False
2484.159 0.2482677847146988 -1.609180589715475 -0.221013605594635 -0.11365480840716558 0.19347289204597473 0.0683983564376831 True False
2484.179 0.24826334416866302 -1.609180589715475 -0.2210373878479004 -0.11366291463885503 0.1935211718082428 0.06836557388305664 True False
2484.199 0.2481933832168579 -1.6092282734312953 -0.22102990746498108 -0.11363060892138677 0.19352936744689941 0.06835666298866272 True False
2484.219 0.24826335906982422 -1.6091939411559046 -0.2210254669189453 -0.1136428874782105 0.19358156621456146 0.06837750971317291 True False
2484.239 0.24825896322727203 -1.6092201671996058 -0.22101354598999023 -0.11358638227496343 0.19347284734249115 0.06835208833217621 True False
2484.259 0.2482263296842575 -1.6091920338072718 -0.22107020020484924 -0.11359425008807378 0.19348517060279846 0.06836109608411789 True False
2484.279 0.2482633888721466 -1.6091677151122035 -0.2210373878479004 -0.11361058176074224 0.19353356957435608 0.0683894008398056 True False
2484.299 0.2482721358537674 -1.6092130146422328 -0.2210582047700882 -0.11363060892138677 0.19351303577423096 0.0683356449007988 True False
2484.319 0.24824266135692596 -1.6091381512083949 -0.22100016474723816 -0.11366696775469975 0.19354954361915588 0.06833566725254059 True False
2484.339 0.24831393361091614 -1.609208723107809 -0.22098322212696075 -0.1135905546000977 0.19354954361915588 0.06835207343101501 True False
2484.359 0.24829290807247162 -1.6092177830138148 -0.22102101147174835 -0.11364658296618657 0.1935334950685501 0.06837749481201172 True False
2484.379 0.2482677400112152 -1.6091677151122035 -0.22103890776634216 -0.11365480840716558 0.1935252845287323 0.06838196516036987 True False
2484.399 0.2482796609401703 -1.6092220745482386 -0.22101657092571259 -0.11363466203723149 0.193521186709404 0.06832799315452576 True False
