Andreas691667/Digital_Twin_UR/src/controller_monitor/test_results/test_motion1.csv
timestamp actual_q_0 actual_q_1 actual_q_2 actual_q_3 actual_q_4 actual_q_5 output_bit_register_65 output_bit_register_66
2014.0269999999998 -7.94569598596695e-05 -1.5708328686156214 2.748170961552887e-05 -6.717494507313404e-07 -9.6623097554982e-05 4.00543212890625e-05 False False
2014.0469999999998 -3.7495289937794496e-05 -1.5708285770811976 -2.6261424864060245e-05 -4.4898395874071184e-05 -5.6568776265919496e-05 5.6758195569273084e-05 False False
2014.067 -4.116688863575746e-06 -1.5707549706751998 1.5560780660450746e-05 -4.895151171879775e-05 -3.606477846318512e-05 2.3677974240854383e-05 False False
2014.087 -4.655519594365387e-05 -1.570803781548971 -1.9073486328125e-06 3.926336254878038e-05 -9.2808400289357e-05 4.339194128988311e-05 False False
2014.107 -2.843538393193512e-05 -1.5707877439311524 2.0329152242481996e-05 -4.844074585008684e-06 -6.80128680627945e-05 1.915145003295038e-05 False False
2014.127 -8.408223287403871e-06 -1.5708004436888636 -5.103491639601998e-05 -2.4871235229539934e-05 -4.846254457646637e-05 -1.732503072560121e-06 False False
2014.147 -6.705919374638825e-05 -1.5707961521544398 -9.329319254902657e-06 3.0237385253428783e-06 -3.606477846318512e-05 1.1774831364164129e-05 False False
2014.167 -2.080598940068512e-05 -1.5707387462901643 1.8421803609669496e-05 -1.2950306274461809e-05 -8.851686586552887e-05 2.828603101079352e-06 False False
2014.187 -1.6514454976856996e-05 -1.5708490810790003 -3.073040352319367e-05 -1.0293773193836842e-06 -8.851686586552887e-05 1.915123539220076e-05 False False
2014.2069999999999 -2.843538393193512e-05 -1.5708123646178187 2.3190175191700746e-05 -4.844074585008684e-06 -5.227724184209137e-05 8.198275463655591e-05 False False
2014.2269999999999 -4.178682436162262e-05 -1.5707387462901643 -1.742839958751574e-05 -4.844074585008684e-06 -7.230440248662262e-05 7.319451469811611e-06 False False
2014.2469999999998 -4.655519594365387e-05 -1.5707669089536758 -2.1791784092783928e-05 -3.679216418461806e-05 -8.041063417607575e-05 2.3698807126493193e-05 False False
2014.2669999999998 -4.464784731084137e-05 -1.570784174315424 -2.6226043701171875e-05 -4.513681445317275e-05 -7.18275653284195e-05 1.1783706213464029e-05 False False
2014.2869999999998 -6.276765932256012e-05 -1.5707798966635274 2.209340230763246e-06 2.698480572504991e-05 -6.372133363896637e-05 6.408088665921241e-05 False False
2014.307 -4.941621889287262e-05 -1.5708114109435023 -9.353638233733363e-06 -9.101680298329029e-07 -4.846254457646637e-05 4.8947331379167736e-05 False False
2014.327 -5.0846730367481996e-05 -1.5707791608623047 -6.29425039733178e-06 -2.4990444519090715e-05 -0.00011235872377568512 2.8133392333984375e-05 False False
2014.347 -7.516542543584137e-05 -1.570726586946268 2.3190175191700746e-05 -1.0293773193836842e-06 -8.470216859990387e-05 3.10723771690391e-05 False False
2014.367 7.152557373046875e-06 -1.5708123646178187 -3.940338137908839e-05 2.904529235792097e-06 -8.851686586552887e-05 5.221366882324219e-05 False False
2014.387 -6.6105519429982e-05 -1.5707625881480745 -2.6173194783041254e-05 -4.963283874559465e-06 -6.80128680627945e-05 6.86019629938528e-05 False False
2014.407 -7.087389101201325e-05 -1.5707834404759815 -4.650759728974663e-05 1.4944667480421003e-05 -8.470216859990387e-05 2.822232090693433e-05 False False
2014.427 -6.705919374638825e-05 -1.5708157024779261 2.209340230763246e-06 -3.679216418461806e-05 -6.80128680627945e-05 2.3695760319242254e-05 False False
2014.447 -4.178682436162262e-05 -1.5707994900145472 -6.325329741230235e-05 -2.8805141784715715e-05 -7.230440248662262e-05 1.4704943168908358e-05 False False
2014.4669999999999 -2.5097523824513246e-05 -1.5707711950602352 -9.377956303069368e-06 -2.4871235229539934e-05 -5.227724184209137e-05 3.552459384081885e-05 False False
2014.4869999999999 -4.464784731084137e-05 -1.5707834609623497 -1.8191336494055577e-05 -2.8805141784715715e-05 -8.041063417607575e-05 1.915145003295038e-05 False False
2014.5069999999998 -3.2726918355763246e-05 -1.5707961521544398 -6.2671715568285435e-06 1.8759364746046003e-05 -1.2222920553028871e-05 9.358556417282671e-05 False False
2014.5269999999998 -1.1746083394825746e-05 -1.5707791435600775 2.209340230763246e-06 -4.1083698608446184e-05 -3.606477846318512e-05 1.466894264012808e-05 False False
2014.5469999999998 -5.0846730367481996e-05 -1.5707961521544398 -1.3828277587890625e-05 -6.087244067387587e-05 -0.000100437794820607 7.312264642678201e-05 False False
2014.567 -7.087389101201325e-05 -1.5707921212959555 -2.2530555725097656e-05 2.2693271301221785e-05 -5.6568776265919496e-05 7.75541047914885e-05 False False
2014.587 -4.178682436162262e-05 -1.5707464116897718 -4.6452922106254846e-05 -3.297746691899306e-05 -2.7958546773731996e-05 5.677342414855957e-05 False False
2014.607 -5.0846730367481996e-05 -1.5707712072183604 -1.9424087440711446e-06 -8.897190429735247e-06 -9.6623097554982e-05 6.860494613647461e-05 False False
2014.627 4.76837158203125e-07 -1.5707877439311524 -7.182465924415737e-05 -5.3481464721727434e-05 -6.372133363896637e-05 7.316470146179199e-05 False False
2014.647 -7.94569598596695e-05 -1.5707953733256836 1.5560780660450746e-05 -4.724865295457903e-06 -8.470216859990387e-05 8.650690142530948e-05 False False
2014.667 -4.116688863575746e-06 -1.5707550188347632 -2.6226043701171875e-05 -5.336225543217665e-05 -8.851686586552887e-05 8.466839790344238e-05 False False
2014.687 4.76837158203125e-07 -1.5708285770811976 2.271333803349762e-05 7.196063659620222e-06 -7.611909975224762e-05 5.6782562751322985e-05 False False
2014.7069999999999 -2.843538393193512e-05 -1.570803781548971 -3.494973498163745e-05 3.0237385253428783e-06 -3.987947572881012e-05 1.1742115020751953e-05 False False
2014.7269999999999 -7.454548970997621e-06 -1.5707921054948493 -4.641127452487126e-05 -5.336225543217665e-05 -4.846254457646637e-05 3.549456596374512e-05 False False
2014.7469999999998 -3.7495289937794496e-05 -1.5707953733256836 -1.9073486328125e-06 -1.700342211918837e-05 -8.422533144170075e-05 5.221366882324219e-05 False False
2014.7669999999998 -6.6105519429982e-05 -1.5707748276657476 -3.49257024936378e-05 1.1249179504346785e-05 -5.6568776265919496e-05 5.677342414855957e-05 False False
2014.7869999999998 -5.799928774052887e-05 -1.5708490810790003 -2.6191175493295304e-05 -8.125722918705947e-05 -4.846254457646637e-05 5.677342414855957e-05 False False
2014.807 -2.843538393193512e-05 -1.5708157024779261 -2.620864506752696e-05 1.1368388793897566e-05 -3.1773244039356996e-05 1.4660044143965933e-05 False False
2014.827 -7.94569598596695e-05 -1.570762660150951 -5.111219252285082e-06 -4.525602374272353e-05 -0.00012046495546513825 3.7146008253330365e-05 False False
2014.847 -2.5097523824513246e-05 -1.5708490810790003 -3.49102629115805e-05 -8.897190429735247e-06 -6.0383473531544496e-05 1.6301868527079932e-05 False False
2014.867 -1.3176594869435121e-05 -1.5707104584037843 1.4130269185841371e-05 -1.2950306274461809e-05 -6.372133363896637e-05 3.549456596374512e-05 False False
2014.887 -5.3707753316700746e-05 -1.5708004436888636 -9.438753295398783e-06 -2.4871235229539934e-05 -1.985231508427887e-05 4.774332046508789e-05 False False
2014.907 -2.366701234990387e-05 -1.5707266847424144 -3.058962829527445e-05 1.4944667480421003e-05 -0.000104252492086232 7.763504981994629e-05 False False
2014.927 -4.6078358785450746e-05 -1.5708080730833949 -1.9073486328125e-06 -1.700342211918837e-05 -5.6568776265919496e-05 7.313406058528926e-06 False False
2014.947 -7.516542543584137e-05 -1.5708328686156214 -3.494310294627212e-05 -4.525602374272353e-05 -3.606477846318512e-05 6.124377250671387e-05 False False
2014.9669999999999 -2.080598940068512e-05 -1.5707791847037988 -1.3828277587890625e-05 2.317010845942491e-05 -4.846254457646637e-05 8.21414141682908e-05 False False
2014.9869999999999 -4.655519594365387e-05 -1.5707910817912598 2.271333803349762e-05 2.7342433593702253e-05 -5.6568776265919496e-05 4.4497865019366145e-05 False False
2015.0069999999998 -7.94569598596695e-05 -1.5708285770811976 -9.421331924386322e-06 -8.912504229741103e-05 -3.987947572881012e-05 7.766210183035582e-05 False False
2015.0269999999998 -5.799928774052887e-05 -1.5707910817912598 -5.501794657902792e-05 -1.700342211918837e-05 -6.372133363896637e-05 4.00543212890625e-05 False False
2015.0469999999998 -7.087389101201325e-05 -1.5708166561522425 -1.059881196852075e-05 -8.897190429735247e-06 -0.00010472932924443512 4.00543212890625e-05 False False
2015.067 -2.5097523824513246e-05 -1.5707834211628615 3.892580141240387e-05 1.5302295349073347e-05 -4.4171010152638246e-05 3.5503526305546984e-05 False False
2015.087 -0.000104252492086232 -1.57076697413898 -5.0666571041801944e-05 -2.4871235229539934e-05 -8.041063417607575e-05 3.544411083566956e-05 False False
2015.107 -6.6105519429982e-05 -1.5707669397637183 -7.958424248499796e-07 -3.297746691899306e-05 -6.086031068974762e-05 7.570982415927574e-05 False False
2015.127 -4.178682436162262e-05 -1.5707507478985754 2.209340230763246e-06 -4.525602374272353e-05 -8.851686586552887e-05 -1.732503072560121e-06 False False
2015.147 -3.415742983037262e-05 -1.5707994900145472 6.500874654591371e-06 -1.6645794250536028e-05 -3.606477846318512e-05 9.366281301481649e-05 False False
2015.167 -3.2726918355763246e-05 -1.5707922672080095 5.513826479131012e-05 -4.942834887700087e-05 -5.6568776265919496e-05 -1.3653432027638246e-05 False False
2015.187 -3.892580141240387e-05 -1.5708071194090785 -4.351717507233843e-05 -4.525602374272353e-05 -5.6568776265919496e-05 1.9103288650512695e-05 False False
2015.2069999999999 -2.080598940068512e-05 -1.5708338222899378 6.500874654591371e-06 -2.8924351074266497e-05 -1.2222920553028871e-05 4.003640424343757e-05 False False
2015.2269999999999 -3.892580141240387e-05 -1.57074284971198 -1.3828277587890625e-05 -2.8924351074266497e-05 -4.4171010152638246e-05 4.453362635103986e-05 False False
2015.2469999999998 -5.0846730367481996e-05 -1.570803781548971 -9.438753295398783e-06 3.1429478148936596e-06 -6.467500795537262e-05 4.001855995738879e-05 False False
2015.2669999999998 -6.276765932256012e-05 -1.5708381138243617 -2.6747404263005592e-05 -6.8978672363329e-05 -8.851686586552887e-05 2.8133392333984375e-05 False False
2015.2869999999998 -4.178682436162262e-05 -1.570788977031345 1.4130269185841371e-05 -3.703058276371962e-05 -8.851686586552887e-05 7.763504981994629e-05 False False
2015.307 -4.178682436162262e-05 -1.570742873555293 -9.452640370000154e-06 -3.71497920532704e-05 -5.6568776265919496e-05 6.860494613647461e-05 False False
2015.327 -4.178682436162262e-05 -1.570808549920553 -3.496921999612823e-05 7.196063659620222e-06 -6.086031068974762e-05 2.712012246774975e-06 False False
2015.347 -6.705919374638825e-05 -1.570812841454977 -3.494310294627212e-05 2.317010845942491e-05 -4.4171010152638246e-05 4.0036487916950136e-05 False False
2015.367 -9.09010516565445e-05 -1.570751742725708 -6.222725460247602e-06 -8.897190429735247e-06 -7.931386129200746e-06 2.82049168163212e-05 False False
2015.387 -4.6078358785450746e-05 -1.5707636636546631 -4.1968043660745025e-05 -1.2950306274461809e-05 -8.470216859990387e-05 2.370808579144068e-05 False False
2015.407 -7.7549611226857e-05 -1.5707953733256836 1.5083943502247621e-05 7.076854370069441e-06 -5.6568776265919496e-05 8.21535722934641e-05 False False
2015.427 -1.3176594869435121e-05 -1.570750298382638 -2.6226043701171875e-05 -1.2950306274461809e-05 -2.748170961552887e-05 3.102421760559082e-05 False False
2015.447 2.4114608095260337e-05 -1.570783312263604 -2.6226043701171875e-05 -3.297746691899306e-05 -6.896654237920075e-05 3.549456596374512e-05 False False
2015.4669999999999 -5.799928774052887e-05 -1.570796628991598 -5.070256884209812e-05 -4.942834887700087e-05 -0.00011283556093388825 7.271767572092358e-06 False False
2015.4869999999999 -1.6514454976856996e-05 -1.570803781548971 -9.435379979549907e-06 7.196063659620222e-06 -3.987947572881012e-05 4.3335501686669886e-05 False False
2015.5069999999998 -1.7468129293263246e-05 -1.5707592024449077 -3.491902316454798e-05 -5.525401611805592e-07 -6.372133363896637e-05 7.766210183035582e-05 False False
2015.5269999999998 -6.705919374638825e-05 -1.5707726217300042 -4.6296034270199016e-05 -2.4871235229539934e-05 -5.227724184209137e-05 5.9708756452891976e-05 False False
2015.5469999999998 -2.843538393193512e-05 -1.570766626721099 6.500874654591371e-06 -1.0293773193836842e-06 -5.227724184209137e-05 6.860494613647461e-05 False False
2015.567 1.5132665794226341e-05 -1.5707636636546631 -1.9073486328125e-06 -4.724865295457903e-06 -0.00010472932924443512 2.3663043975830078e-05 False False
2015.587 -7.516542543584137e-05 -1.5707428735189133 -3.064519478357397e-05 -1.6645794250536028e-05 -4.846254457646637e-05 4.45246696472168e-05 False False
2015.607 -7.94569598596695e-05 -1.5708204708495082 -3.0603408958995715e-05 -8.897190429735247e-06 -3.1773244039356996e-05 3.260374069213867e-05 False False
2015.627 -1.3176594869435121e-05 -1.570759237918839 3.034273256474762e-05 2.7342433593702253e-05 -7.230440248662262e-05 5.680568938259967e-05 False False
2015.647 -3.2726918355763246e-05 -1.5707844389174461 1.0792409078419496e-05 -6.717494507313404e-07 -6.086031068974762e-05 7.762598397675902e-05 False False
2015.667 -5.0846730367481996e-05 -1.5707503160341112 -3.917811773135327e-05 1.947462048335069e-05 -6.80128680627945e-05 8.212352986447513e-05 False False
2015.687 -4.178682436162262e-05 -1.5707666508008806 -5.4856925999047235e-05 3.0237385253428783e-06 -5.6568776265919496e-05 3.7092006095917895e-05 False False
2015.7069999999999 -2.557436098271637e-05 -1.5707592678630427 -1.3836818652634975e-05 -8.897190429735247e-06 -3.1773244039356996e-05 7.474422454833984e-05 False False
2015.7269999999999 4.76837158203125e-06 -1.5707383772026624 6.500874654591371e-06 5.178033795161241e-05 -3.987947572881012e-05 -4.593526021778871e-06 False False
2015.7469999999998 -2.9865895406544496e-05 -1.5707547057939628 -4.632173295249231e-05 7.076854370069441e-06 -9.6623097554982e-05 2.812443381117191e-05 False False
2015.7669999999998 -4.941621889287262e-05 -1.570803781548971 -9.450912330066785e-06 -2.4871235229539934e-05 -4.846254457646637e-05 7.308697968255728e-05 False False
2015.7869999999998 -2.9865895406544496e-05 -1.5708204708495082 -2.2387503122445196e-05 -4.942834887700087e-05 -3.1773244039356996e-05 4.001855995738879e-05 False False
2015.807 -5.3707753316700746e-05 -1.570803781548971 -5.159171450941358e-06 -3.71497920532704e-05 -8.470216859990387e-05 5.219547892920673e-05 False False
2015.827 -4.178682436162262e-05 -1.5707755845836182 -4.6652079618070275e-05 -4.930913958745009e-05 -4.4171010152638246e-05 4.00543212890625e-05 False False
2015.847 -1.6514454976856996e-05 -1.5707877439311524 3.0819569722950746e-05 2.317010845942491e-05 -8.851686586552887e-05 7.581710815429688e-05 False False
2015.867 -8.660951723271637e-05 -1.5707368787592095 3.511110414677887e-05 -2.4871235229539934e-05 -8.422533144170075e-05 6.854835373815149e-05 False False
2015.887 -9.423891176396637e-05 -1.570808549920553 -5.9050231357105076e-05 -5.336225543217665e-05 -9.2808400289357e-05 8.466839790344238e-05 False False
2015.907 -2.9865895406544496e-05 -1.5707666774599893 -2.180655428674072e-05 -4.525602374272353e-05 -6.80128680627945e-05 7.767105125822127e-05 False False
2015.927 4.9091337132267654e-05 -1.5707832646279094 6.977711812794496e-06 -4.1202907897996965e-05 -7.230440248662262e-05 1.4588103113055695e-05 False False
2015.947 -5.9429799215138246e-05 -1.5707710613063064 -1.9073486328125e-06 -3.703058276371962e-05 -8.851686586552887e-05 2.0745770598296076e-05 False False
2015.9669999999999 -2.1282826558888246e-05 -1.5708171329894007 -1.2895363397547044e-05 3.1276340148878035e-05 -6.086031068974762e-05 7.2389420893159695e-06 False False
2015.9869999999999 -8.408223287403871e-06 -1.570812841454977 3.0819569722950746e-05 1.0891551635694441e-05 -8.851686586552887e-05 4.00543212890625e-05 False False
2016.0069999999998 -3.8448964254200746e-05 -1.5707383502779813 -6.365775789163308e-06 3.0237385253428783e-06 -7.611909975224762e-05 2.8133392333984375e-05 False False
2016.0269999999998 -7.039705385381012e-05 -1.5706845220450596 -1.3828277587890625e-05 2.317010845942491e-05 -6.80128680627945e-05 2.8133392333984375e-05 False False
2016.0469999999998 -8.184114565068512e-05 -1.5708381138243617 2.209340230763246e-06 1.0891551635694441e-05 -5.6568776265919496e-05 7.574577466584742e-05 False False
2016.067 -9.948412050420075e-05 -1.570792365317022 -5.556312680710107e-05 7.196063659620222e-06 -4.4171010152638246e-05 2.815122570609674e-05 False False
2016.087 -1.3176594869435121e-05 -1.5707429150500793 -3.080613896599971e-05 1.1368388793897566e-05 -8.470216859990387e-05 2.3683864128543064e-05 False False
2016.107 -3.415742983037262e-05 -1.570803781548971 -1.3828277587890625e-05 -4.930913958745009e-05 -4.0356312887013246e-05 2.3648197384318337e-05 False False
2016.127 -1.3176594869435121e-05 -1.5707710613063064 1.889864076787262e-05 -3.309667620854384e-05 -3.987947572881012e-05 3.104829738731496e-05 False False
2016.147 -7.039705385381012e-05 -1.5707592290676367 -4.879265361523721e-06 3.0237385253428783e-06 -6.086031068974762e-05 8.920150139601901e-05 False False
2016.167 -8.184114565068512e-05 -1.5707800191670067 -9.292841241403949e-06 -2.4871235229539934e-05 -5.227724184209137e-05 1.1709361388057005e-05 False False
2016.187 -4.6078358785450746e-05 -1.5707710613063064 -4.211664054309949e-05 1.1249179504346785e-05 -7.230440248662262e-05 3.5536810173653066e-05 False False
2016.2069999999999 -1.7468129293263246e-05 -1.5707547653585898 -2.6226043701171875e-05 -1.700342211918837e-05 -7.18275653284195e-05 -1.255665914356996e-06 False False
2016.2269999999999 -1.7468129293263246e-05 -1.5707666508008806 -1.9073486328125e-06 3.53294559936046e-05 -7.611909975224762e-05 1.1828544302261434e-05 False False
2016.2469999999998 -4.6078358785450746e-05 -1.570796628991598 -1.0824202945514116e-05 -3.703058276371962e-05 -5.2754079000294496e-05 2.7840151233249344e-06 False False
2016.2669999999998 -6.2290822164357e-05 -1.570803781548971 3.0819569722950746e-05 -3.297746691899306e-05 -3.225008119756012e-05 3.10723771690391e-05 False False
2016.2869999999998 -5.513826479131012e-05 -1.570808549920553 -5.5506017815787345e-05 -2.4871235229539934e-05 -4.846254457646637e-05 4.8947331379167736e-05 False False
2016.307 -2.557436098271637e-05 -1.5707844537540332 -5.109858466312289e-05 -3.703058276371962e-05 -6.41981707971695e-05 5.672791667166166e-05 False False
2016.327 -2.9865895406544496e-05 -1.5707592290676367 -1.8245162209495902e-05 1.4944667480421003e-05 -1.985231508427887e-05 1.471410632802872e-05 False False
2016.347 -7.039705385381012e-05 -1.570742873555293 -9.280682206735946e-06 3.0237385253428783e-06 -6.0383473531544496e-05 5.217783836997114e-05 False False
2016.367 -5.3707753316700746e-05 -1.5707922817794788 -1.3810350537823979e-05 -1.676500354008681e-05 -0.000108067189351857 2.3707658328930847e-05 False False
2016.387 -2.6051198140919496e-05 -1.570808549920553 -4.214369255350903e-05 -6.5163975097704e-05 -4.0356312887013246e-05 5.673694613506086e-05 False False
2016.407 0.0 -1.5707681486076872 -1.8277805793331936e-05 -4.918993029789931e-05 -0.00010472932924443512 7.343292963923886e-06 False False
2016.427 -3.7495289937794496e-05 -1.5707922762729432 -1.3819379091728479e-05 1.8997783325147566e-05 -8.422533144170075e-05 5.2231622248655185e-05 False False
2016.447 -4.6078358785450746e-05 -1.570754672622872 -3.5232067602919415e-05 -5.082493164110247e-06 -4.0356312887013246e-05 6.413459777832031e-05 False False
2016.4669999999999 -5.799928774052887e-05 -1.5707844715282882 -1.3828277587890625e-05 -1.2950306274461809e-05 -7.611909975224762e-05 6.411690992536023e-05 False False
2016.4869999999999 -6.658235658818512e-05 -1.5707877258385743 -2.1776515495730564e-05 -2.081811938481337e-05 -8.851686586552887e-05 3.110263787675649e-05 False False
2016.5069999999998 -7.468858827763825e-05 -1.5707081960466276 -3.969049430452287e-05 -1.700342211918837e-05 -8.041063417607575e-05 4.00543212890625e-05 False False
2016.5269999999998 -2.1282826558888246e-05 -1.5707621921358914 -1.3828277587890625e-05 4.343568768305772e-05 -6.467500795537262e-05 4.007201278000139e-05 False False
2016.5469999999998 -3.415742983037262e-05 -1.570803781548971 -3.965449286624789e-05 -4.907072100834853e-05 -9.233156313115387e-05 2.3701864847680554e-05 False False
2016.567 -2.9865895406544496e-05 -1.5707994900145472 -2.625291745061986e-05 2.904529235792097e-06 -2.4143849508106996e-05 2.3713670088909566e-05 False False
2016.587 -1.6514454976856996e-05 -1.5708009205260218 -2.7248279366176575e-05 -6.492555651860243e-05 -5.6568776265919496e-05 5.331306965672411e-05 False False
2016.607 -4.941621889287262e-05 -1.5707293614217015 -1.8286704289494082e-05 2.904529235792097e-06 -8.851686586552887e-05 2.8124588425271213e-05 False False
2016.627 -8.374849428349762e-05 -1.570824762383932 6.977711812794496e-06 2.904529235792097e-06 -0.000100437794820607 3.110912075499073e-05 False False
2016.647 -4.274049867802887e-05 -1.5707486738650296 -1.3819200830766931e-05 2.904529235792097e-06 -7.18275653284195e-05 6.112336996011436e-05 False False
2016.667 -5.799928774052887e-05 -1.570836683312887 -4.668505789595656e-05 -3.679216418461806e-05 -8.422533144170075e-05 5.221366882324219e-05 False False
2016.687 0.0 -1.570824762383932 2.3190175191700746e-05 2.904529235792097e-06 -6.0383473531544496e-05 5.668273297487758e-05 False False
2016.7069999999999 -5.036989320927887e-05 -1.570742849715618 2.209340230763246e-06 -3.679216418461806e-05 -4.846254457646637e-05 4.0036728023551404e-05 False False
2016.7269999999999 -0.00011617342104131012 -1.5707546996385027 -1.8713252529778401e-06 3.497182812495225e-05 -4.846254457646637e-05 6.553411367349327e-05 False False
2016.7469999999998 -5.799928774052887e-05 -1.5707681368570157 2.0329152242481996e-05 -1.688421282963759e-05 -4.464784731084137e-05 4.00543212890625e-05 False False
2016.7669999999998 -3.7495289937794496e-05 -1.5708323917784632 1.889864076787262e-05 -6.480634722905165e-05 -2.4143849508106996e-05 1.482232710259268e-05 False False
2016.7869999999998 -2.1282826558888246e-05 -1.5707922824502312 -5.117058753967285e-05 2.904529235792097e-06 -5.6568776265919496e-05 4.8851965402718633e-05 False False
2016.807 -6.658235658818512e-05 -1.5707710278732812 -5.900859832763672e-05 -1.2950306274461809e-05 -6.80128680627945e-05 3.552334237610921e-05 False False
2016.827 -2.8912221090138246e-05 -1.5707665785597165 -3.079493762925267e-05 2.904529235792097e-06 -4.846254457646637e-05 5.66618655284401e-05 False False
2016.847 -6.2290822164357e-05 -1.570824762383932 -5.460120883071795e-05 -5.082493164110247e-06 -5.2754079000294496e-05 6.549811223521829e-05 False False
2016.867 -6.2290822164357e-05 -1.5708548031248988 -4.212856219965033e-05 -3.71497920532704e-05 -6.0383473531544496e-05 5.217822399572469e-05 False False
2016.887 -5.799928774052887e-05 -1.5708157024779261 -6.35683536529541e-05 -2.4871235229539934e-05 1.1444091796875e-05 5.668830999638885e-05 False False
2016.907 -6.2290822164357e-05 -1.5707726813819427 -5.111661084811203e-05 -4.942834887700087e-05 -7.18275653284195e-05 3.5579680115915835e-05 False False
2016.927 -1.699129213506012e-05 -1.5707294212664529 -3.5292123357066885e-05 -4.895151171879775e-05 -0.00012427965273076325 1.1778203770518303e-05 False False
2016.947 -3.7495289937794496e-05 -1.5707863134196778 2.3190175191700746e-05 7.196063659620222e-06 -7.18275653284195e-05 5.5431126384064555e-05 False False
2016.9669999999999 -5.799928774052887e-05 -1.570808549920553 -9.280682206735946e-06 -2.9043560363817278e-05 -5.2754079000294496e-05 1.7484556025237907e-07 False False
2016.9869999999999 -3.0199159795074593e-07 -1.5707922793674989 9.838734762013246e-06 -2.057970080571181e-05 -0.000104252492086232 3.56007476511877e-05 False False
2017.0069999999998 -1.2699757711231996e-05 -1.570845743218893 -9.241467523679603e-06 -8.542955432133681e-05 -5.2754079000294496e-05 1.4876158275001217e-05 False False
2017.0269999999998 -4.6078358785450746e-05 -1.5707994900145472 -1.3828277587890625e-05 2.317010845942491e-05 -4.0356312887013246e-05 -8.885060445606996e-06 False False
2017.0469999999998 -6.2290822164357e-05 -1.5707592141264577 -7.687186007387936e-05 -1.6645794250536028e-05 -5.6568776265919496e-05 4.3515996367204934e-05 False False
2017.067 -7.94569598596695e-05 -1.570829530755514 1.889864076787262e-05 -3.703058276371962e-05 -6.0383473531544496e-05 6.542610935866833e-05 False False
2017.087 -5.4661427633106996e-05 -1.570829530755514 2.0329152242481996e-05 -1.2950306274461809e-05 -0.000104252492086232 3.250837471568957e-05 False False
2017.107 -8.885060445606996e-06 -1.5707546215347357 1.889864076787262e-05 -2.8924351074266497e-05 -4.0356312887013246e-05 2.8133392333984375e-05 False False
2017.127 -6.181398500615387e-05 -1.5707592052279615 -9.280682206735946e-06 -4.942834887700087e-05 -6.80128680627945e-05 2.8168391509098e-05 False False
2017.147 -2.462068666631012e-05 -1.5708185635008753 -4.822254595637787e-06 3.938257183833116e-05 -5.6568776265919496e-05 -8.885060445606996e-06 False False
2017.167 -4.5124684469044496e-05 -1.5707832166593398 -1.9162471289746463e-06 -1.0293773193836842e-06 -4.8939381734669496e-05 2.8133392333984375e-05 False False
2017.187 -9.042421449834137e-05 -1.5707710491463622 -5.113458610139787e-05 -1.700342211918837e-05 -9.6623097554982e-05 3.563029895303771e-05 False False
2017.2069999999999 -6.2290822164357e-05 -1.570803781548971 -4.822254595637787e-06 -2.069891009526259e-05 -7.611909975224762e-05 4.87804391013924e-05 False False
2017.2269999999999 -4.178682436162262e-05 -1.570747296220663 -4.212856219965033e-05 1.9116992614698347e-05 -5.227724184209137e-05 -1.255665914356996e-06 False False
2017.2469999999998 -3.320375551396637e-05 -1.5707383322045025 2.3190175191700746e-05 -5.082493164110247e-06 -6.086031068974762e-05 9.326934377895668e-05 False False
2017.2669999999998 -3.320375551396637e-05 -1.570784501437931 6.977711812794496e-06 -6.945550952153212e-05 -0.00011283556093388825 4.00543212890625e-05 False False
2017.2869999999998 -3.7495289937794496e-05 -1.5707665848934376 -3.32027739204932e-05 -2.4871235229539934e-05 -4.4171010152638246e-05 3.124093927908689e-05 False False
2017.307 -0.00010377565492802887 -1.5708157024779261 -1.3828277587890625e-05 -4.930913958745009e-05 -4.0356312887013246e-05 4.00543212890625e-05 False False
2017.327 -2.1282826558888246e-05 -1.5707710491481812 -9.27156816032948e-06 -6.123006854252822e-05 -4.750887026006012e-05 -2.557436098271637e-05 False False
2017.347 -0.00010282198061162262 -1.5707788509174243 -4.2095871322089806e-05 -2.069891009526259e-05 -6.372133363896637e-05 4.00543212890625e-05 False False
2017.367 -0.000111881886617482 -1.570742849715618 -6.352325726766139e-05 -3.71497920532704e-05 -5.227724184209137e-05 3.0982519092503935e-06 False False
2017.387 -4.6078358785450746e-05 -1.5707249388982127 9.838734762013246e-06 3.0237385253428783e-06 -8.851686586552887e-05 4.358114892966114e-05 False False
2017.407 -3.415742983037262e-05 -1.5707576738098687 -3.5207987821195275e-05 -1.2950306274461809e-05 -7.230440248662262e-05 1.4992954675108194e-05 False False
2017.427 -9.47157489221695e-05 -1.5707666143701609 -2.1791458493680693e-05 -2.1175747253465715e-05 -5.227724184209137e-05 6.100296741351485e-05 False False
2017.447 -2.9865895406544496e-05 -1.5708204708495082 1.4130269185841371e-05 -9.25481829838759e-06 -8.041063417607575e-05 8.440876263193786e-05 False False
2017.4669999999999 -7.468858827763825e-05 -1.5707665785597165 -3.5159828257746994e-05 2.317010845942491e-05 -7.931386129200746e-06 3.126501906081103e-05 False False
2017.4869999999999 -5.7522450582325746e-05 -1.57075920823657 -5.97942853346467e-05 -5.525401611805592e-07 -6.372133363896637e-05 1.936817352543585e-05 False False
2017.5069999999998 -7.898012270146637e-05 -1.5707591904504916 -4.847792297368869e-06 -1.700342211918837e-05 -5.6568776265919496e-05 3.247260974603705e-05 False False
2017.5269999999998 -6.6105519429982e-05 -1.5707832409028306 -4.823520612262655e-06 -1.6645794250536028e-05 -9.233156313115387e-05 3.562831989256665e-05 False False
2017.5469999999998 -5.895296205693512e-05 -1.570824762383932 -3.073716288781725e-05 -8.897190429735247e-06 -2.7958546773731996e-05 4.4393538701115176e-05 False False
2017.567 -6.658235658818512e-05 -1.5707501902691838 -5.102658178657293e-05 -2.8924351074266497e-05 -3.1773244039356996e-05 7.289982022484764e-05 False False
2017.587 -2.557436098271637e-05 -1.5708323917784632 -4.655596785596572e-05 -6.123006854252822e-05 -5.990663637334137e-05 6.097888763179071e-05 False False
2017.607 -6.6105519429982e-05 -1.5707877617172308 -5.0999420636799186e-05 -8.897190429735247e-06 -6.80128680627945e-05 1.1902439837285783e-05 False False
2017.627 -2.6051198140919496e-05 -1.570812841454977 -4.206895755487494e-05 4.3674106262159285e-05 -0.00010854402651006012 4.7886369429761544e-05 False False
2017.647 -3.7495289937794496e-05 -1.5707744044123793 6.977711812794496e-06 -2.4871235229539934e-05 -5.6568776265919496e-05 5.217870420892723e-05 False False
2017.667 -1.7468129293263246e-05 -1.570733867771498 -1.076927401300054e-05 -8.897190429735247e-06 -6.80128680627945e-05 4.439028998604044e-05 False False
2017.687 -8.32716571252945e-05 -1.570812841454977 -6.773346831323579e-05 -6.540239367680556e-05 -7.230440248662262e-05 6.528210360556841e-05 False False
2017.7069999999999 -5.799928774052887e-05 -1.5707832974261073 -3.0695213354192674e-05 -2.4871235229539934e-05 -4.846254457646637e-05 1.621246337890625e-05 False False
2017.7269999999999 -3.7495289937794496e-05 -1.5707382334588438 -1.8215179807157256e-05 -2.8924351074266497e-05 -5.6568776265919496e-05 5.221366882324219e-05 False False
2017.7469999999998 -7.039705385381012e-05 -1.5707382334588438 -4.648122558137402e-05 -2.9043560363817278e-05 -7.611909975224762e-05 3.2452051527798176e-05 False False
2017.7669999999998 -5.799928774052887e-05 -1.5707922346385494 -3.067961733904667e-05 -1.2950306274461809e-05 -8.851686586552887e-05 6.093058982514776e-05 False False
2017.7869999999998 -8.408223287403871e-06 -1.5708157024779261 -4.652530697057955e-05 -3.309667620854384e-05 -6.41981707971695e-05 1.622107629373204e-05 False False
2017.807 -7.087389101201325e-05 -1.570757709629408 -4.990815796190873e-06 -4.724865295457903e-06 -6.372133363896637e-05 2.380609657848254e-05 False False
2017.827 -2.557436098271637e-05 -1.570750235205498 -3.502183244563639e-05 -4.724865295457903e-06 -3.606477846318512e-05 7.392853876808658e-05 False False
2017.847 4.76837158203125e-07 -1.5707666026413172 2.209340230763246e-06 -5.3481464721727434e-05 -4.846254457646637e-05 1.087188684323337e-05 False False
2017.867 -4.655519594365387e-05 -1.570742849715618 2.3190175191700746e-05 3.0237385253428783e-06 -3.1773244039356996e-05 1.1905700375791639e-05 False False
2017.887 -7.94569598596695e-05 -1.5707832855044508 -4.648351750802249e-05 -4.942834887700087e-05 -9.6623097554982e-05 6.0956845118198544e-05 False False
2017.907 -1.1746083394825746e-05 -1.5707621561344531 -1.3828277587890625e-05 2.317010845942491e-05 -3.606477846318512e-05 4.003710637334734e-05 False False
2017.927 -4.178682436162262e-05 -1.5707412374980159 -1.924752950799302e-06 -2.1056537963914934e-05 -4.846254457646637e-05 -4.116688863575746e-06 False False
2017.947 -4.178682436162262e-05 -1.5707546756060147 -1.959909013748984e-06 -4.930913958745009e-05 -9.6623097554982e-05 2.377484634052962e-05 False False
2017.9669999999999 -6.276765932256012e-05 -1.570717067876405 -1.3828277587890625e-05 -2.1175747253465715e-05 -0.00010854402651006012 5.7402132370043546e-05 False False
2017.9869999999999 -8.422533144170075e-05 -1.5707665605117036 -5.8770179748535156e-05 -2.1175747253465715e-05 -3.225008119756012e-05 1.5074840121087618e-05 False False
2018.0069999999998 -7.94569598596695e-05 -1.570803781548971 6.500874654591371e-06 1.9116992614698347e-05 -4.846254457646637e-05 6.093072806834243e-05 False False
2018.0269999999998 -1.3176594869435121e-05 -1.5707832974261073 -1.323437118116999e-05 7.196063659620222e-06 -0.00011665025819951325 5.6624172430019826e-05 False False
2018.0469999999998 -9.09010516565445e-05 -1.570796628991598 -2.6226043701171875e-05 1.1368388793897566e-05 -5.6568776265919496e-05 3.2457417546538636e-05 False False
2018.067 -2.5097523824513246e-05 -1.5707666026394982 5.547200338185121e-06 3.0237385253428783e-06 -0.00010854402651006012 6.090651004342362e-05 False False
2018.087 -2.557436098271637e-05 -1.570803781548971 -3.063107578782365e-05 1.0891551635694441e-05 -8.851686586552887e-05 1.6281854186672717e-05 False False
2018.107 -1.6514454976856996e-05 -1.5707591602698194 -2.1872419893043116e-05 -1.700342211918837e-05 -5.6568776265919496e-05 5.658930604113266e-05 False False
2018.127 1.621246337890625e-05 -1.5707833242270972 3.1773244039356996e-05 -4.1202907897996965e-05 -8.470216859990387e-05 3.1800282158656046e-06 False False
2018.147 -2.557436098271637e-05 -1.5707800042876734 -1.3819407286064234e-05 -4.525602374272353e-05 -4.846254457646637e-05 4.86850731249433e-05 False False
2018.167 -7.516542543584137e-05 -1.5707591962930856 2.209340230763246e-06 -6.540239367680556e-05 -8.470216859990387e-05 6.093072806834243e-05 False False
2018.187 -2.9865895406544496e-05 -1.5707922525655995 6.500874654591371e-06 -6.540239367680556e-05 -0.00012046495546513825 1.6247229723376222e-05 False False
2018.2069999999999 -2.080598940068512e-05 -1.5708219013609828 1.8421803609669496e-05 -5.717695269780165e-05 -7.230440248662262e-05 3.2457417546538636e-05 False False
2018.2269999999999 -4.6078358785450746e-05 -1.5707788509174243 -1.3828277587890625e-05 -5.082493164110247e-06 -5.227724184209137e-05 1.6264591977233067e-05 False False
2018.2469999999998 -5.799928774052887e-05 -1.5708009205260218 -5.4397194617195055e-05 -2.8924351074266497e-05 -7.611909975224762e-05 3.565263614291325e-05 False False
2018.2669999999998 -5.990663637334137e-05 -1.570759217149618 -1.9245621842856053e-06 -4.724865295457903e-06 -3.1773244039356996e-05 9.307861182605848e-05 False False
2018.2869999999998 -2.080598940068512e-05 -1.5708381138243617 -3.921371899195947e-05 3.0237385253428783e-06 -2.4143849508106996e-05 4.4369699025992304e-05 False False
2018.307 -1.3176594869435121e-05 -1.570829530755514 1.5083943502247621e-05 -4.930913958745009e-05 -6.80128680627945e-05 8.6326490418287e-06 False False
2018.327 -4.116688863575746e-06 -1.5707097214875212 -6.2227245507529005e-06 2.7223224304151472e-05 -4.846254457646637e-05 3.2332063710782677e-06 False False
2018.347 -5.3707753316700746e-05 -1.5707800519451958 2.209340230763246e-06 -4.1202907897996965e-05 -3.987947572881012e-05 1.9440205505816266e-05 False False
2018.367 -4.116688863575746e-06 -1.570808549920553 -3.49257024936378e-05 1.0891551635694441e-05 -4.846254457646637e-05 2.3809367121430114e-05 False False
2018.387 -8.851686586552887e-05 -1.5707383051488542 -9.435379979549907e-06 -2.4871235229539934e-05 -3.1773244039356996e-05 4.7898291086312383e-05 False False
2018.407 -5.513826479131012e-05 -1.5707877439311524 -4.636311496142298e-05 1.4944667480421003e-05 -4.846254457646637e-05 2.3818016416043974e-05 False False
2018.427 -2.5097523824513246e-05 -1.5707923276221045 -3.49123147316277e-05 -1.700342211918837e-05 -0.0001328627215784195 4.116582567803562e-05 False False
2018.447 -2.9865895406544496e-05 -1.5707367258185805 -3.065380951738916e-05 2.305089916987413e-05 -4.4171010152638246e-05 1.1853571777464822e-05 False False
2018.4669999999999 -1.6514454976856996e-05 -1.5707922793674989 -3.0615567084169015e-05 -5.336225543217665e-05 -0.00010472932924443512 1.1922961675736587e-05 False False
2018.4869999999999 -7.087389101201325e-05 -1.5707744044123793 -1.9073486328125e-06 -2.8924351074266497e-05 -1.985231508427887e-05 -1.3176594869435121e-05 False False
2018.5069999999998 -2.5097523824513246e-05 -1.5707502800581388 -9.417773071618285e-06 -6.528318438725478e-05 -7.230440248662262e-05 5.653717744280584e-05 False False
2018.5269999999998 -9.09010516565445e-05 -1.5707710580575913 6.500874654591371e-06 7.076854370069441e-06 -4.4171010152638246e-05 6.093072806834243e-05 False False
2018.5469999999998 -2.9865895406544496e-05 -1.570829530755514 2.271333803349762e-05 1.4944667480421003e-05 -8.851686586552887e-05 2.3818016416043974e-05 False False
2018.567 -6.6105519429982e-05 -1.570753234275191 3.034273256474762e-05 3.115713085932725e-05 -5.6568776265919496e-05 2.38213124248432e-05 False False
2018.587 -2.175966371709137e-05 -1.5707502979388046 2.209340230763246e-06 -6.921709094243056e-05 -8.470216859990387e-05 3.1378691346617416e-05 False False
2018.607 1.1920928955078125e-05 -1.570803781548971 -2.6226043701171875e-05 -4.844074585008684e-06 -8.851686586552887e-05 3.128699245280586e-05 False False
2018.627 -7.087389101201325e-05 -1.5707547057939628 -3.3380634704371914e-05 -2.8924351074266497e-05 -8.041063417607575e-05 9.74203139776364e-05 False False
2018.647 -2.5097523824513246e-05 -1.5707844537549427 -4.197359157842584e-05 -8.897190429735247e-06 -1.2222920553028871e-05 -5.070363179981996e-06 False False
2018.667 -8.422533144170075e-05 -1.570726190930447 -3.0615567084169015e-05 -3.285825762944228e-05 -6.086031068974762e-05 3.188432856404688e-06 False False
2018.687 -8.408223287403871e-06 -1.5707637347698729 -3.494310294627212e-05 1.0891551635694441e-05 -6.80128680627945e-05 7.281733996933326e-05 False False
2018.7069999999999 -2.080598940068512e-05 -1.570808549920553 6.500874654591371e-06 2.698480572504991e-05 -8.470216859990387e-05 6.093072806834243e-05 False False
2018.7269999999999 4.76837158203125e-07 -1.5707383948941533 3.034273256474762e-05 2.2931689880323347e-05 -4.846254457646637e-05 1.939225330715999e-05 False False
2018.7469999999998 -2.9865895406544496e-05 -1.5707755845836182 -5.0702572480076924e-05 -4.907072100834853e-05 -9.709993471318512e-05 5.220488310442306e-05 False False
2018.7669999999998 -2.5097523824513246e-05 -1.5708381138243617 1.4130269185841371e-05 1.1010760925245222e-05 -0.00010472932924443512 4.436108429217711e-05 False False
2018.7869999999998 -4.116688863575746e-06 -1.5708171329894007 2.271333803349762e-05 2.904529235792097e-06 -6.80128680627945e-05 2.3878412321209908e-05 False False
2018.807 -4.116688863575746e-06 -1.5707592409892932 3.129640688115387e-05 -1.700342211918837e-05 -1.985231508427887e-05 1.621246337890625e-05 False False
2018.827 -0.00010329881776982575 -1.5707547298737445 2.209340230763246e-06 -1.0293773193836842e-06 -6.086031068974762e-05 4.00543212890625e-05 False False
2018.847 -2.843538393193512e-05 -1.570796628991598 -5.864887134521268e-05 -4.5017605163621965e-05 -4.846254457646637e-05 8.004617848200724e-05 False False
2018.867 -1.7468129293263246e-05 -1.5708261928954066 1.8421803609669496e-05 4.701196636958116e-05 -2.4143849508106996e-05 3.5656208638101816e-05 False False
2018.887 -9.566942323857575e-05 -1.5707800043058633 -4.1994160710601136e-05 -8.897190429735247e-06 -4.4171010152638246e-05 2.815086190821603e-05 False False
2018.907 -7.94569598596695e-05 -1.570812841454977 1.8421803609669496e-05 -4.963283874559465e-06 -8.470216859990387e-05 3.6798908695345744e-05 False False
2018.927 -6.181398500615387e-05 -1.5707429744837391 -3.491902316454798e-05 -2.4871235229539934e-05 -3.1773244039356996e-05 5.221366882324219e-05 False False
2018.947 -1.6514454976856996e-05 -1.5707843704679654 -9.468214557273313e-06 -3.27390483398915e-05 -9.2808400289357e-05 5.221366882324219e-05 False False
2018.9669999999999 2.86102294921875e-06 -1.570783333189258 -2.243518792965915e-05 -1.2950306274461809e-05 -3.606477846318512e-05 7.713102968409657e-05 False False
2018.9869999999999 -6.276765932256012e-05 -1.5707922428894854 -3.0615567084169015e-05 3.485261883540147e-05 -1.2222920553028871e-05 1.6229594621108845e-05 False False
2019.0069999999998 -1.6514454976856996e-05 -1.5707592529109498 -3.0615567084169015e-05 -3.667295489506728e-05 -5.227724184209137e-05 2.3885098926257342e-05 False False
2019.0269999999998 -3.7495289937794496e-05 -1.5707755670249135 -5.492210038937628e-05 -3.27390483398915e-05 -4.4171010152638246e-05 -8.408223287403871e-06 False False
2019.0469999999998 -0.000108067189351857 -1.570808549920553 -5.0630569603526965e-05 -1.2950306274461809e-05 -9.2808400289357e-05 6.52000744594261e-05 False False
2019.067 4.76837158203125e-06 -1.5707459625449083 -7.435083534801379e-05 2.904529235792097e-06 -1.985231508427887e-05 2.384185791015625e-05 False False
2019.087 -7.516542543584137e-05 -1.5707711067410237 -1.811981201171875e-05 3.0237385253428783e-06 -5.6568776265919496e-05 4.4357777369441465e-05 False False
2019.107 -5.799928774052887e-05 -1.570792257316345 -3.334736902615987e-05 3.950178112788194e-05 -5.227724184209137e-05 5.660319220623933e-05 False False
2019.127 -3.2726918355763246e-05 -1.5707922925060593 -6.20748323854059e-06 -6.1349277832079e-05 -0.000100437794820607 1.944041287060827e-05 False False
2019.147 -8.660951723271637e-05 -1.5707054923880897 -9.442140253668185e-06 -1.6645794250536028e-05 -5.6568776265919496e-05 1.1891759641002864e-05 False False
2019.167 -2.5097523824513246e-05 -1.570709979180112 -1.810789035516791e-05 -2.4871235229539934e-05 -3.987947572881012e-05 3.2588774047326297e-05 False False
2019.187 -4.116688863575746e-06 -1.5707473439036512 -1.8383420865575317e-06 -4.1202907897996965e-05 -0.00010472932924443512 7.008862303337082e-05 False False
2019.2069999999999 -2.080598940068512e-05 -1.5707548460671497 4.2263661519825746e-05 -2.069891009526259e-05 -8.041063417607575e-05 6.413459777832031e-05 False False
2019.2269999999999 -9.566942323857575e-05 -1.570796628991598 -3.0731440347153693e-05 -2.4871235229539934e-05 -6.80128680627945e-05 1.176595742435893e-05 False False
2019.2469999999998 2.86102294921875e-06 -1.5708009205260218 2.3190175191700746e-05 -3.309667620854384e-05 -4.4171010152638246e-05 2.3707658328930847e-05 False False
2019.2669999999998 -2.080598940068512e-05 -1.5707623087076463 -1.9162596345267957e-06 -6.717494507313404e-07 -5.227724184209137e-05 1.9109320419374853e-05 False False
2019.2869999999998 -0.000108067189351857 -1.5707799627292225 -3.965449286624789e-05 -3.703058276371962e-05 -5.990663637334137e-05 1.623021307750605e-05 False False
2019.307 7.152557373046875e-06 -1.57075038866272 -7.242518768180162e-05 -1.2473469116258684e-05 -7.230440248662262e-05 7.012444257270545e-05 False False
2019.327 -8.408223287403871e-06 -1.570730774972919 -3.518390440149233e-05 -1.0293773193836842e-06 -6.80128680627945e-05 -4.593526021778871e-06 False False
2019.347 -7.993379701787262e-05 -1.5707922185709613 -4.846335286856629e-06 -3.297746691899306e-05 -5.227724184209137e-05 6.123774073785171e-05 False False
2019.367 -1.603761781865387e-05 -1.5707504152126894 3.0819569722950746e-05 3.0237385253428783e-06 -5.6568776265919496e-05 1.915145003295038e-05 False False
2019.387 -3.7495289937794496e-05 -1.5707473558253078 -5.452331970445812e-05 -2.4871235229539934e-05 -5.1800404683888246e-05 -2.1282826558888246e-05 False False
2019.407 -7.087389101201325e-05 -1.5707799714858375 -2.2703541617374867e-05 7.076854370069441e-06 -7.230440248662262e-05 4.00543212890625e-05 False False
2019.427 -9.900728334599762e-05 -1.5707877439311524 6.977711812794496e-06 -1.700342211918837e-05 -2.7958546773731996e-05 4.8965157475322485e-05 False False
2019.447 -4.178682436162262e-05 -1.5707636636546631 -3.7670135498046875e-05 -4.525602374272353e-05 -4.0356312887013246e-05 4.003653521067463e-05 False False
2019.4669999999999 -5.799928774052887e-05 -1.5707298241580538 -1.3837128790328279e-05 -6.540239367680556e-05 -8.470216859990387e-05 4.450082633411512e-05 False False
2019.4869999999999 -5.3707753316700746e-05 -1.5707953733256836 3.511110414677887e-05 -2.1175747253465715e-05 -5.6568776265919496e-05 4.450082633411512e-05 False False
2019.5069999999998 -2.175966371709137e-05 -1.5707711310099803 -1.3828277587890625e-05 -6.717494507313404e-07 -8.851686586552887e-05 1.915145003295038e-05 False False
2019.5269999999998 -2.843538393193512e-05 -1.5707592414112987 1.5560780660450746e-05 -4.724865295457903e-06 -3.987947572881012e-05 3.262773680035025e-05 False False
2019.5469999999998 -1.6514454976856996e-05 -1.5707877260332062 -6.371676590788411e-06 -8.897190429735247e-06 -5.2754079000294496e-05 6.858110282337293e-05 False False
2019.567 -8.660951723271637e-05 -1.570778941084729 -2.1791458493680693e-05 -2.8924351074266497e-05 -4.4171010152638246e-05 3.107251905021258e-05 False False
2019.587 -5.799928774052887e-05 -1.570796628991598 -3.521686085150577e-05 -1.0293773193836842e-06 -6.467500795537262e-05 7.3731280281208456e-06 False False
2019.607 -5.799928774052887e-05 -1.5708443127074183 -4.217926471028477e-05 -1.700342211918837e-05 -5.6568776265919496e-05 5.674910426023416e-05 False False
2019.627 -4.178682436162262e-05 -1.570812841454977 -3.076147913816385e-05 1.947462048335069e-05 -8.851686586552887e-05 2.7840142138302326e-06 False False
2019.647 -7.516542543584137e-05 -1.5707953733256836 1.889864076787262e-05 2.317010845942491e-05 -0.00010091463197881012 6.119561294326559e-05 False False
2019.667 -8.851686586552887e-05 -1.5707504512141277 -5.559301280300133e-05 -2.1175747253465715e-05 -5.990663637334137e-05 7.756304694339633e-05 False False
2019.687 -7.325807680302887e-05 -1.5708114109435023 2.209340230763246e-06 -1.2950306274461809e-05 -7.611909975224762e-05 -8.885060445606996e-06 False False
2019.7069999999999 -1.3176594869435121e-05 -1.5707636549453419 -2.6235071345581673e-05 -5.082493164110247e-06 -3.987947572881012e-05 7.311675290111452e-05 False False
2019.7269999999999 -7.087389101201325e-05 -1.5708052120604457 -1.3828277587890625e-05 -2.4871235229539934e-05 -5.6568776265919496e-05 5.677597800968215e-05 False False
2019.7469999999998 -7.516542543584137e-05 -1.5707593794616805 -2.2727333998773247e-05 1.1368388793897566e-05 -4.116688863575746e-06 3.5518885852070525e-05 False False
2019.7669999999998 -4.655519594365387e-05 -1.570808549920553 -7.03811674611643e-05 -5.336225543217665e-05 -5.6568776265919496e-05 9.360312833450735e-05 False False
2019.7869999999998 -1.7468129293263246e-05 -1.5708171329894007 -2.2732889192411676e-05 1.1368388793897566e-05 -4.4171010152638246e-05 5.674910426023416e-05 False False
2019.807 -8.408223287403871e-06 -1.5708452663817347 9.838734762013246e-06 -5.300462756352431e-05 -8.851686586552887e-05 -4.593526021778871e-06 False False
2019.827 -1.6514454976856996e-05 -1.5707994900145472 1.1269246236622621e-05 -4.942834887700087e-05 -7.611909975224762e-05 5.221366882324219e-05 False False
2019.847 -4.655519594365387e-05 -1.5707877086782283 -3.965472205891274e-05 -8.897190429735247e-06 -7.611909975224762e-05 2.739318006206304e-06 False False
2019.867 -4.6078358785450746e-05 -1.5707667712016082 1.1269246236622621e-05 -5.082493164110247e-06 -4.846254457646637e-05 7.319451469811611e-06 False False
2019.887 -3.7495289937794496e-05 -1.5708080730833949 -4.822254595637787e-06 7.196063659620222e-06 -9.6623097554982e-05 1.4704943168908358e-05 False False
2019.907 -1.7468129293263246e-05 -1.57081999401235 -4.216768138576299e-05 -7.327020678715712e-05 -5.6568776265919496e-05 5.221366882324219e-05 False False
2019.927 -3.2726918355763246e-05 -1.5707994900145472 -1.3828277587890625e-05 -4.1202907897996965e-05 -0.00010091463197881012 5.794142634840682e-05 False False
2019.947 -3.2726918355763246e-05 -1.570796628991598 -5.114373561809771e-05 2.7223224304151472e-05 -6.80128680627945e-05 1.7484556025237907e-07 False False
2019.9669999999999 -1.1746083394825746e-05 -1.5707298911477956 5.547200338185121e-06 -3.297746691899306e-05 -2.7958546773731996e-05 6.123139610281214e-05 False False
2019.9869999999999 -5.0846730367481996e-05 -1.5707711375274194 -4.2137638956774026e-05 -1.2950306274461809e-05 -7.18275653284195e-05 2.3674965632380918e-05 False False
2020.0069999999998 -6.6105519429982e-05 -1.570771155280756 -5.901770055061206e-05 -3.309667620854384e-05 -5.6568776265919496e-05 3.902520256815478e-05 False False
2020.0269999999998 -3.2726918355763246e-05 -1.5707799563864064 -7.244920561788604e-05 -8.897190429735247e-06 -0.00011665025819951325 3.5518885852070525e-05 False False
2020.0469999999998 -7.516542543584137e-05 -1.5707877787393336 -5.9080517530674115e-05 -1.0293773193836842e-06 -4.846254457646637e-05 9.10634989850223e-05 False False
2020.067 -1.6514454976856996e-05 -1.5707711165999463 -2.1755695343017578e-05 7.196063659620222e-06 -6.0383473531544496e-05 -8.885060445606996e-06 False False
2020.087 -5.0846730367481996e-05 -1.5707790416530152 -4.822254595637787e-06 -1.2950306274461809e-05 -8.422533144170075e-05 6.858110282337293e-05 False False
2020.107 -1.2222920553028871e-05 -1.570803781548971 -3.638278940343298e-07 -3.309667620854384e-05 -7.230440248662262e-05 8.217128925025463e-05 False False
2020.127 -4.178682436162262e-05 -1.5707790480012882 -3.077363726333715e-05 -3.309667620854384e-05 -4.4171010152638246e-05 1.617634370632004e-05 False False
2020.147 -5.799928774052887e-05 -1.57081999401235 -1.381003858114127e-05 -1.2950306274461809e-05 -5.6568776265919496e-05 3.549456596374512e-05 False False
2020.167 -7.135072817021637e-05 -1.5708452663817347 -9.28975896385964e-06 -4.724865295457903e-06 -8.851686586552887e-05 7.271767572092358e-06 False False
2020.187 -9.996095766240387e-05 -1.5707961521544398 -2.6226043701171875e-05 3.0237385253428783e-06 -6.80128680627945e-05 8.922815322875977e-05 False False
2020.2069999999999 -4.178682436162262e-05 -1.570758141028211 1.1269246236622621e-05 -6.1349277832079e-05 -5.2754079000294496e-05 5.677342414855957e-05 False False
2020.2269999999999 -4.941621889287262e-05 -1.5707834307307458 -3.079493762925267e-05 -1.700342211918837e-05 -8.422533144170075e-05 4.774332046508789e-05 False False
2020.2469999999998 -3.415742983037262e-05 -1.5707921699343679 3.225008119756012e-05 7.553691528272566e-06 -8.041063417607575e-05 -2.6051198140919496e-05 False False
2020.2669999999998 -3.2726918355763246e-05 -1.5707517951417067 -1.3828277587890625e-05 -3.309667620854384e-05 -0.000104252492086232 -3.034273256474762e-05 False False
2020.2869999999998 -9.519258608037262e-05 -1.5707921699334584 -4.798174813913647e-06 -2.1175747253465715e-05 -4.4171010152638246e-05 4.0090442780638114e-05 False False
2020.307 -3.2726918355763246e-05 -1.5707790654945093 -6.002474401611835e-05 -6.123006854252822e-05 -5.2754079000294496e-05 -8.885060445606996e-06 False False
2020.327 -3.7495289937794496e-05 -1.5707755845836182 -8.388439891859889e-05 -2.8924351074266497e-05 -8.041063417607575e-05 6.124377250671387e-05 False False
2020.347 -2.557436098271637e-05 -1.5707834047119213 -9.295505151385441e-06 -6.1349277832079e-05 -7.18275653284195e-05 9.370745829073712e-05 False False
2020.367 -3.8448964254200746e-05 -1.5707668193648097 -5.008581865695305e-05 -8.897190429735247e-06 -7.611909975224762e-05 7.271766662597656e-06 False False
2020.387 -5.513826479131012e-05 -1.5707833380341363 -1.9073486328125e-06 3.1276340148878035e-05 -4.846254457646637e-05 4.0063459891825914e-05 False False
2020.407 -7.94569598596695e-05 -1.5707953733256836 -2.274513099109754e-05 -4.1202907897996965e-05 -5.2754079000294496e-05 6.859602581243962e-05 False False
2020.427 -5.799928774052887e-05 -1.570783369756402 -1.8259830540046096e-05 -1.700342211918837e-05 -4.0356312887013246e-05 4.00543212890625e-05 False False
2020.447 -2.9865895406544496e-05 -1.57081999401235 -2.6226043701171875e-05 -3.309667620854384e-05 -6.0383473531544496e-05 3.549456596374512e-05 False False
2020.4669999999999 -3.7495289937794496e-05 -1.5708123646178187 -4.671204078476876e-05 -8.897190429735247e-06 -9.233156313115387e-05 6.124377250671387e-05 False False
2020.4869999999999 -7.516542543584137e-05 -1.5708004436888636 -3.9735634345561266e-05 1.9116992614698347e-05 -0.00011235872377568512 7.316470146179199e-05 False False
2020.5069999999998 -1.3176594869435121e-05 -1.5707877439311524 -1.728534698486328e-05 -8.897190429735247e-06 -4.0356312887013246e-05 3.1057374144438654e-05 False False
2020.5269999999998 -4.178682436162262e-05 -1.5708257160582484 -4.212856219965033e-05 3.0237385253428783e-06 -2.4143849508106996e-05 7.315574475796893e-05 False False
2020.5469999999998 -6.181398500615387e-05 -1.5708662472166957 -9.280682206735946e-06 -1.2950306274461809e-05 -5.6568776265919496e-05 7.76260276325047e-05 False False
2020.567 -6.705919374638825e-05 -1.5707712434690002 -1.9073486328125e-06 1.8997783325147566e-05 -6.0383473531544496e-05 6.857778498670086e-05 False False
2020.587 -3.415742983037262e-05 -1.5707668849230068 2.209340230763246e-06 3.0237385253428783e-06 -7.993379701787262e-05 3.549456596374512e-05 False False
2020.607 -1.7468129293263246e-05 -1.570803781548971 -1.3828277587890625e-05 7.196063659620222e-06 -6.80128680627945e-05 2.712012246774975e-06 False False
2020.627 1.1444091796875e-05 -1.5707419570538441 2.209340230763246e-06 -4.525602374272353e-05 -5.6568776265919496e-05 5.6800301535986364e-05 False False
2020.647 -7.516542543584137e-05 -1.570754946595418 -6.416478299797745e-06 -4.724865295457903e-06 -0.000104252492086232 6.572293204953894e-05 False False
2020.667 -4.6078358785450746e-05 -1.5707994900145472 -1.3819319065078162e-05 -3.297746691899306e-05 -5.2754079000294496e-05 4.9003974709194154e-05 False False
2020.687 -9.09010516565445e-05 -1.5708166561522425 -3.9636564906686544e-05 -6.528318438725478e-05 -5.2754079000294496e-05 6.408059562090784e-05 False False
2020.7069999999999 -7.039705385381012e-05 -1.5707300795368901 1.1269246236622621e-05 1.5302295349073347e-05 -4.846254457646637e-05 7.307850864890497e-06 False False
2020.7269999999999 -3.320375551396637e-05 -1.5708080730833949 -2.17586821236182e-05 1.4944667480421003e-05 -3.225008119756012e-05 7.2538496169727296e-06 False False
2020.7469999999998 -2.557436098271637e-05 -1.570831914941305 1.889864076787262e-05 -1.0293773193836842e-06 -6.80128680627945e-05 6.124377250671387e-05 False False
2020.7669999999998 -9.519258608037262e-05 -1.570743170552607 -6.349635077640414e-05 -4.525602374272353e-05 -6.0383473531544496e-05 7.316470146179199e-05 False False
2020.7869999999998 -2.1282826558888246e-05 -1.5707594035596522 -1.3828277587890625e-05 7.076854370069441e-06 -4.464784731084137e-05 4.0072416595648974e-05 False False
2020.807 -8.804002870732575e-05 -1.570779914220413 2.209340230763246e-06 3.926336254878038e-05 -8.041063417607575e-05 -1.794496645146637e-05 False False
2020.827 -3.7495289937794496e-05 -1.5707994900145472 -5.542258804780431e-05 -4.513681445317275e-05 -8.851686586552887e-05 1.9121311197523028e-05 False False
2020.847 -1.7468129293263246e-05 -1.5707059730378496 2.209340230763246e-06 7.076854370069441e-06 -4.4171010152638246e-05 7.762598397675902e-05 False False
2020.867 -2.9865895406544496e-05 -1.5707755845836182 2.3190175191700746e-05 2.2931689880323347e-05 -7.18275653284195e-05 3.549456596374512e-05 False False
2020.887 -5.799928774052887e-05 -1.5707791370189916 -2.6226043701171875e-05 -2.4871235229539934e-05 1.52587890625e-05 6.571412086486816e-05 False False
2020.907 -2.1282826558888246e-05 -1.5707798880396986 3.225008119756012e-05 -3.703058276371962e-05 -6.41981707971695e-05 3.549456596374512e-05 False False
2020.927 -7.468858827763825e-05 -1.570803781548971 -1.823021739255637e-05 2.2931689880323347e-05 -9.233156313115387e-05 6.85958075337112e-05 False False
2020.947 -5.799928774052887e-05 -1.5707711950602352 3.034273256474762e-05 1.8878574035596785e-05 -6.372133363896637e-05 4.8995018005371094e-05 False False
2020.9669999999999 -6.6105519429982e-05 -1.5707222455788106 -2.182410389650613e-05 -8.897190429735247e-06 -0.00010472932924443512 6.127960659796372e-05 False False
2020.9869999999999 -1.3176594869435121e-05 -1.570746363763039 -3.7670135498046875e-05 -1.2950306274461809e-05 -6.372133363896637e-05 3.10243594867643e-05 False False
2021.0069999999998 -1.7468129293263246e-05 -1.5708285770811976 -3.511166505631991e-05 -3.285825762944228e-05 -0.00012857118715459137 7.316470146179199e-05 False False
2021.0269999999998 -3.415742983037262e-05 -1.57081999401235 -3.511152317514643e-05 -4.09644893188954e-05 -7.611909975224762e-05 1.9103288650512695e-05 False False
2021.0469999999998 -2.1282826558888246e-05 -1.5707464116897718 -1.823902130126953e-05 -1.688421282963759e-05 -7.611909975224762e-05 3.549456596374512e-05 False False
2021.067 -3.320375551396637e-05 -1.5707669156839366 -1.3828277587890625e-05 3.497182812495225e-05 -9.2808400289357e-05 2.3663043975830078e-05 False False
2021.087 0.0 -1.5707506583897448 1.8421803609669496e-05 -2.069891009526259e-05 -6.372133363896637e-05 5.219547892920673e-05 False False
2021.107 -7.468858827763825e-05 -1.5707636895243304 -3.511152317514643e-05 1.4825458190870222e-05 -7.230440248662262e-05 6.123774073785171e-05 False False
2021.127 -5.4661427633106996e-05 -1.5707798880396986 -3.070388629566878e-05 -2.0937328674364153e-05 -7.931386129200746e-06 0.00010262143041472882 False False
2021.147 -3.320375551396637e-05 -1.570831914941305 3.511110414677887e-05 -4.1083698608446184e-05 -0.000100437794820607 4.00543212890625e-05 False False
2021.167 -2.9865895406544496e-05 -1.5707798966635274 -3.070068487431854e-05 -6.885946307377822e-05 -5.6568776265919496e-05 5.221366882324219e-05 False False
2021.187 1.5735626220703125e-05 -1.5707723325543448 -2.6226043701171875e-05 -1.0293773193836842e-06 -4.846254457646637e-05 3.549456596374512e-05 False False
2021.2069999999999 -4.6078358785450746e-05 -1.5707474046033276 -3.073246625717729e-05 -1.2950306274461809e-05 -4.0356312887013246e-05 4.8995018005371094e-05 False False
2021.2269999999999 -7.7549611226857e-05 -1.5708123646178187 -3.506350549287163e-05 2.2812480590772566e-05 -0.000100437794820607 4.007251118309796e-05 False False
2021.2469999999998 -5.799928774052887e-05 -1.5707841676515564 -1.9426015569479205e-06 -5.288541827397353e-05 -0.000100437794820607 6.122574995970353e-05 False False
2021.2669999999998 -7.94569598596695e-05 -1.5707431596568604 -3.505708446027711e-05 2.2693271301221785e-05 -5.6568776265919496e-05 -8.885060445606996e-06 False False
2021.2869999999998 -1.2222920553028871e-05 -1.5707712072183604 -9.351586413686164e-06 -6.480634722905165e-05 -3.606477846318512e-05 -1.732503072560121e-06 False False
2021.307 -2.557436098271637e-05 -1.5708157024779261 -1.8191336494055577e-05 -4.963283874559465e-06 -5.6568776265919496e-05 2.3663043975830078e-05 False False
2021.327 -5.799928774052887e-05 -1.5707798794504306 6.500874654591371e-06 2.904529235792097e-06 -5.6568776265919496e-05 -1.794496645146637e-05 False False
2021.347 -2.8912221090138246e-05 -1.5708157024779261 -1.3828277587890625e-05 -2.4871235229539934e-05 -5.227724184209137e-05 4.774332046508789e-05 False False
2021.367 1.5735626220703125e-05 -1.570831914941305 -5.950406193733215e-05 -3.297746691899306e-05 -3.1773244039356996e-05 5.220453022047877e-05 False False
2021.387 -3.7495289937794496e-05 -1.5708123646178187 -3.503942571114749e-05 -2.9043560363817278e-05 -0.00010854402651006012 4.773436376126483e-05 False False
2021.407 -1.6514454976856996e-05 -1.5707431596568604 2.209340230763246e-06 -8.897190429735247e-06 -3.1773244039356996e-05 2.8133392333984375e-05 False False
2021.427 -5.3707753316700746e-05 -1.5707953733256836 -1.8258102500112727e-05 -6.1349277832079e-05 -5.227724184209137e-05 2.712012246774975e-06 False False
2021.447 -4.941621889287262e-05 -1.5708209476866664 2.3190175191700746e-05 3.0237385253428783e-06 -8.041063417607575e-05 4.336237907409668e-05 False False
2021.4669999999999 -3.320375551396637e-05 -1.5707953733256836 -3.4997799957636744e-05 -2.4871235229539934e-05 -8.422533144170075e-05 -3.511110414677887e-05 False False
2021.4869999999999 -2.1282826558888246e-05 -1.5707549706751998 -4.193652421236038e-05 -6.945550952153212e-05 -7.611909975224762e-05 9.365388541482389e-05 False False
2021.5069999999998 -9.423891176396637e-05 -1.5708404980101527 -5.868756852578372e-05 -1.2473469116258684e-05 -4.4171010152638246e-05 2.3654085453017615e-05 False False
2021.5269999999998 -7.468858827763825e-05 -1.5708157024779261 -3.070065940846689e-05 -1.6645794250536028e-05 -0.00011665025819951325 1.624822471057996e-05 False False
2021.5469999999998 -9.85304461877945e-05 -1.5707994900145472 -3.49912625097204e-05 2.317010845942491e-05 -3.606477846318512e-05 5.676432192558423e-05 False False
2021.567 -3.7495289937794496e-05 -1.5707910817912598 -5.5035452533047646e-05 -4.724865295457903e-06 -4.0356312887013246e-05 7.316470146179199e-05 False False
2021.587 -2.557436098271637e-05 -1.5707834318512433 2.209340230763246e-06 7.076854370069441e-06 -4.4171010152638246e-05 -1.699129213506012e-05 False False
2021.607 -2.1282826558888246e-05 -1.5707420256406586 -1.0614250641083345e-05 -4.1202907897996965e-05 -5.6568776265919496e-05 1.1771833669627085e-05 False False
2021.627 -2.9865895406544496e-05 -1.5707420342626683 1.8421803609669496e-05 -1.6645794250536028e-05 -5.227724184209137e-05 5.343857264961116e-05 False False
2021.647 -7.7549611226857e-05 -1.5708080730833949 -2.2459029423771426e-05 -2.8924351074266497e-05 -4.846254457646637e-05 4.4557706132764e-05 False False
2021.667 -4.6078358785450746e-05 -1.570730199226393 -4.354304473963566e-05 -8.897190429735247e-06 -5.227724184209137e-05 4.898904444416985e-05 False False
2021.687 -5.3707753316700746e-05 -1.570783440476891 -1.915937673402368e-06 -3.297746691899306e-05 -7.611909975224762e-05 4.00543212890625e-05 False False
2021.7069999999999 -2.175966371709137e-05 -1.5707953733256836 -4.197359157842584e-05 -2.4871235229539934e-05 -8.851686586552887e-05 1.9127368432236835e-05 False False
2021.7269999999999 -5.799928774052887e-05 -1.5707506672191194 3.034273256474762e-05 1.542150463862413e-05 -6.086031068974762e-05 3.547080996213481e-05 False False
2021.7469999999998 -1.6514454976856996e-05 -1.5707921334554449 -2.6226043701171875e-05 -3.309667620854384e-05 -8.851686586552887e-05 -8.885060445606996e-06 False False
2021.7669999999998 -2.9865895406544496e-05 -1.5707507117879977 -1.924609705383773e-06 -3.71497920532704e-05 -7.18275653284195e-05 2.367783417867031e-05 False False
2021.7869999999998 -2.462068666631012e-05 -1.570779867552421 -1.3819516425428446e-05 -2.069891009526259e-05 -3.606477846318512e-05 2.3660189981455915e-05 False False
2021.807 -4.178682436162262e-05 -1.570771221033585 2.209340230763246e-06 -4.724865295457903e-06 -9.6623097554982e-05 5.219552622293122e-05 False False
2021.827 -2.557436098271637e-05 -1.570852895776266 -2.6835117751033977e-05 -5.705774340825087e-05 -5.990663637334137e-05 3.5518885852070525e-05 False False
2021.847 -6.181398500615387e-05 -1.5707507032205577 -2.6278172299498692e-05 -1.2950306274461809e-05 -9.6623097554982e-05 -1.3176594869435121e-05 False False
2021.867 -2.1282826558888246e-05 -1.57081999401235 1.0792409078419496e-05 -1.0293773193836842e-06 -6.372133363896637e-05 -8.885060445606996e-06 False False
2021.887 -6.658235658818512e-05 -1.570770491964442 -1.3828277587890625e-05 -3.703058276371962e-05 -4.846254457646637e-05 -1.255665914356996e-06 False False
2021.907 -1.699129213506012e-05 -1.5707506583897448 2.209340230763246e-06 7.196063659620222e-06 -9.2808400289357e-05 6.119561294326559e-05 False False
2021.927 -4.274049867802887e-05 -1.5708004436888636 3.892580141240387e-05 -4.525602374272353e-05 -4.846254457646637e-05 6.117152952356264e-05 False False
2021.947 -7.94569598596695e-05 -1.570803781548971 -3.491902316454798e-05 3.1395549438428816e-05 -4.0356312887013246e-05 4.775210254592821e-05 False False
2021.9669999999999 -9.519258608037262e-05 -1.570803781548971 -4.636311496142298e-05 -2.8924351074266497e-05 -5.227724184209137e-05 4.8923528083832934e-05 False False
2021.9869999999999 -8.885060445606996e-06 -1.5707549947549815 -1.7595291865291074e-05 -6.540239367680556e-05 -6.372133363896637e-05 4.4488908315543085e-05 False False
2022.0069999999998 -9.042421449834137e-05 -1.570803781548971 -1.8143653505831026e-05 7.076854370069441e-06 -5.990663637334137e-05 4.889965202892199e-05 False False
2022.0269999999998 -1.699129213506012e-05 -1.5707877439311524 1.0792409078419496e-05 -2.069891009526259e-05 -0.00010472932924443512 1.4776945135963615e-05 False False
2022.0469999999998 -8.374849428349762e-05 -1.5707704440413472 1.4130269185841371e-05 1.9116992614698347e-05 -8.470216859990387e-05 -2.557436098271637e-05 False False
2022.067 -2.557436098271637e-05 -1.5707755845836182 2.209340230763246e-06 5.166112866206163e-05 -1.985231508427887e-05 5.979170236969367e-05 False False
2022.087 -2.9865895406544496e-05 -1.570726586946268 6.500874654591371e-06 -2.4871235229539934e-05 -6.372133363896637e-05 7.749104406684637e-05 False False
2022.107 -7.898012270146637e-05 -1.5707626241495127 -1.8899983160736156e-06 -6.717494507313404e-07 -2.7958546773731996e-05 7.306838233489543e-05 False False
2022.127 -4.941621889287262e-05 -1.5707711950602352 -2.2459029423771426e-05 1.1249179504346785e-05 -6.372133363896637e-05 7.001937046879902e-05 False False
2022.147 -3.7495289937794496e-05 -1.570771181523316 -3.062772884732112e-05 -8.897190429735247e-06 -5.990663637334137e-05 3.2588613976258785e-05 False False
2022.167 -4.941621889287262e-05 -1.5708157024779261 -3.491888492135331e-05 -2.069891009526259e-05 -4.0356312887013246e-05 2.8169029974378645e-05 False False
2022.187 -8.885060445606996e-06 -1.5707712072183604 -4.357385478215292e-05 -2.8924351074266497e-05 -6.467500795537262e-05 4.00543212890625e-05 False False
2022.2069999999999 -5.799928774052887e-05 -1.5708276234068812 -1.3828277587890625e-05 -8.897190429735247e-06 -8.041063417607575e-05 1.621246337890625e-05 False False
2022.2269999999999 -6.2290822164357e-05 -1.5707791370208106 -4.638719474314712e-05 1.5063876769971785e-05 -4.4171010152638246e-05 1.621246337890625e-05 False False
2022.2469999999998 -6.181398500615387e-05 -1.5707593601985828 -2.6217221602564678e-05 -8.897190429735247e-06 -5.227724184209137e-05 3.695487976074219e-05 False False
2022.2669999999998 -8.32716571252945e-05 -1.5707961521544398 -4.635253571905196e-05 7.196063659620222e-06 -3.606477846318512e-05 2.936587407020852e-06 False False
2022.2869999999998 -6.658235658818512e-05 -1.5707910817912598 2.209340230763246e-06 -2.4871235229539934e-05 -7.611909975224762e-05 4.445314334589057e-05 False False
2022.307 -3.320375551396637e-05 -1.5707877524967735 3.034273256474762e-05 -5.3481464721727434e-05 -0.000100437794820607 4.00543212890625e-05 False False
2022.327 -4.6078358785450746e-05 -1.5708114109435023 -1.8128412193618715e-05 -1.700342211918837e-05 -7.230440248662262e-05 5.670046812156215e-05 False False
2022.347 -5.036989320927887e-05 -1.5708285770811976 -3.0615567084169015e-05 -5.082493164110247e-06 -6.80128680627945e-05 4.8851965402718633e-05 False False
2022.367 -3.415742983037262e-05 -1.5707135905070864 -3.489494338282384e-05 -1.2950306274461809e-05 -6.896654237920075e-05 3.6907196772517636e-05 False False
2022.387 -3.7495289937794496e-05 -1.5707668916041548 -2.1903275410295464e-05 2.7342433593702253e-05 -6.80128680627945e-05 -1.255665914356996e-06 False False
2022.407 -2.9865895406544496e-05 -1.5708328686156214 -3.062078030779958e-05 -5.717695269780165e-05 -0.00011235872377568512 8.615684055257589e-05 False False
2022.427 -6.6105519429982e-05 -1.5708123646178187 -3.0603408958995715e-05 -2.8924351074266497e-05 -3.606477846318512e-05 2.8150940124760382e-05 False False
2022.447 -3.415742983037262e-05 -1.5707222455788106 -1.3828277587890625e-05 -1.0293773193836842e-06 -3.1773244039356996e-05 2.3746490114717744e-05 False False
2022.4669999999999 -2.557436098271637e-05 -1.5708157024779261 3.163014547169496e-06 3.1395549438428816e-05 -9.6623097554982e-05 4.7782530600670725e-05 False False
2022.4869999999999 -7.135072817021637e-05 -1.5707593601985828 3.034273256474762e-05 3.1276340148878035e-05 -5.227724184209137e-05 -1.255665914356996e-06 False False
2022.5069999999998 -8.422533144170075e-05 -1.5708443127074183 -8.418719517067075e-07 -2.9043560363817278e-05 -5.227724184209137e-05 7.295441901078448e-05 False False
2022.5269999999998 4.76837158203125e-07 -1.5707679811606177 -1.9073486328125e-06 3.1276340148878035e-05 -2.366701234990387e-05 1.1834353244921658e-05 False False
2022.5469999999998 -5.799928774052887e-05 -1.5708114109435023 -1.3828277587890625e-05 -4.525602374272353e-05 -4.4171010152638246e-05 3.121685949736275e-05 False False
2022.567 4.76837158203125e-07 -1.5708285770811976 -3.0603408958995715e-05 -1.700342211918837e-05 -4.4171010152638246e-05 1.933106977958232e-05 False False
2022.587 -5.0846730367481996e-05 -1.5708080730833949 -3.7652349419659004e-05 1.1368388793897566e-05 -6.086031068974762e-05 2.8133392333984375e-05 False False
2022.607 -8.660951723271637e-05 -1.5707755845836182 -2.6226043701171875e-05 2.317010845942491e-05 -8.851686586552887e-05 3.559184187906794e-05 False False
2022.627 -2.843538393193512e-05 -1.5707464632872252 2.3190175191700746e-05 -4.525602374272353e-05 -0.00010472932924443512 2.8133392333984375e-05 False False
2022.647 -6.276765932256012e-05 -1.5707877439311524 -2.6226043701171875e-05 -2.069891009526259e-05 -7.611909975224762e-05 4.4417382014216855e-05 False False
2022.667 -6.276765932256012e-05 -1.570841451684469 2.3190175191700746e-05 -1.6645794250536028e-05 -6.80128680627945e-05 9.200513159157708e-05 False False
2022.687 -2.080598940068512e-05 -1.570803781548971 -7.03811674611643e-05 -1.700342211918837e-05 -1.985231508427887e-05 4.4438071199692786e-05 True False
2022.7069999999999 -8.422533144170075e-05 -1.5707755845836182 6.977711812794496e-06 -1.2950306274461809e-05 -2.4143849508106996e-05 5.6676148233236745e-05 True False
2022.7269999999999 -2.080598940068512e-05 -1.5707464116897718 -1.3837367077940144e-05 -5.3481464721727434e-05 -6.372133363896637e-05 2.6921457902062684e-05 True False
2022.7469999999998 -1.0315571920216371e-05 -1.5707712158185423 -2.1710975488531403e-05 -5.082493164110247e-06 -5.6568776265919496e-05 2.8133392333984375e-05 True False
2022.7669999999998 3.0040740966796875e-05 -1.5708157024779261 -0.00010222196578979492 -3.309667620854384e-05 -5.227724184209137e-05 3.124093927908689e-05 True False
2022.7869999999998 0.00017535066581331193 -1.5707994900145472 -0.00016929529374465346 -3.703058276371962e-05 2.7418136596679688e-05 6.412588845705613e-05 True False
2022.807 0.00023107591550797224 -1.5708157024779261 -0.00026220656582154334 -0.00012917936358647353 0.0002270460536237806 3.133477730443701e-05 True False
2022.827 0.00047101921518333256 -1.5707953733256836 -0.00042551755905151367 -0.0002525609782715321 0.00035071372985839844 0.00014032257604412735 True False
2022.847 0.0007138252258300781 -1.5708853207030238 -0.0005962550640106201 -0.0002883237651367665 0.0006346924346871674 0.0002239465684397146 True False
2022.867 0.0010345696937292814 -1.5708915195860804 -0.0009121805778704584 -0.0005524915507812977 0.000813354505226016 0.00029158592224121094 True False
2022.887 0.0014306959928944707 -1.5709954700865687 -0.0012568888487294316 -0.0007801812938232899 0.0011493549682199955 0.0003742537519428879 True False
2022.907 0.0018910999642685056 -1.5710565052428187 -0.0016969144344329834 -0.000995950107910204 0.0014563084114342928 0.0006161010242067277 True False
2022.927 0.0024980069138109684 -1.571083208123678 -0.002248072298243642 -0.00126846254382329 0.001963792834430933 0.0007261537830345333 True False
2022.947 0.0032267505303025246 -1.5712877712645472 -0.0029070612508803606 -0.0016039174846191884 0.002506256103515625 0.0009459765860810876 True False
2022.9669999999999 0.004114741459488869 -1.5713778934874476 -0.0037175354082137346 -0.0019559425166626454 0.0032053024042397738 0.0011899471282958984 True False
2022.9869999999999 0.005201646592468023 -1.5716320476927699 -0.0047251880168914795 -0.0024551910213013173 0.004039655905216932 0.0014816068578511477 True False
2023.0069999999998 0.006437678821384907 -1.5718022785582484 -0.005881845951080322 -0.002987102871276903 0.005013500340282917 0.0018213748699054122 True False
2023.0269999999998 0.007890450768172741 -1.5720182857909144 -0.007190769538283348 -0.0036385816386719227 0.0060753608122467995 0.0022254381328821182 True False
2023.0469999999998 0.009481609798967838 -1.5722290478148402 -0.008522085845470428 -0.004289583568908739 0.0072087389416992664 0.0026764783542603254 True False
2023.067 0.011105741374194622 -1.572454114953512 -0.010008007287979126 -0.005080894832946825 0.00866279099136591 0.0030705928802490234 True False
2023.087 0.012912590987980366 -1.5727669201292933 -0.011622254736721516 -0.005960897808410692 0.01005920022726059 0.0036344442050904036 True False
2023.107 0.01494016032665968 -1.5730473003783167 -0.013364325277507305 -0.006876186733581591 0.011648199521005154 0.004145002458244562 True False
2023.127 0.017060665413737297 -1.573350568810934 -0.015253815799951553 -0.007806496029235888 0.013280783779919147 0.004731988999992609 True False
2023.147 0.01930326782166958 -1.5737134418883265 -0.01720285415649414 -0.008974508648254442 0.014965076930820942 0.005371031817048788 True False
2023.167 0.02173141948878765 -1.5740820370116175 -0.019402964040637016 -0.009997324352600145 0.01692943274974823 0.006013798527419567 True False
2023.187 0.024272602051496506 -1.5745750866331996 -0.02161683514714241 -0.011148766880371141 0.018865462392568588 0.006721370853483677 True False
2023.2069999999999 0.026910388842225075 -1.5749536953368128 -0.02397887222468853 -0.01232798517260747 0.020925018936395645 0.0074639590457081795 True False
2023.2269999999999 0.029775628820061684 -1.5753561458983363 -0.026412665843963623 -0.013551549320556688 0.02318469248712063 0.008168736472725868 True False
2023.2469999999998 0.03265247866511345 -1.5758043728270472 -0.029066890478134155 -0.014956192379333544 0.025475304573774338 0.009035876952111721 True False
2023.2669999999998 0.03577203303575516 -1.5763164959349574 -0.03185759857296944 -0.016532496815063524 0.027858849614858627 0.009915580973029137 True False
2023.2869999999998 0.039010174572467804 -1.5767961941161097 -0.03480261191725731 -0.017924622898437548 0.03035789355635643 0.01079315785318613 True False
2023.307 0.042354803532361984 -1.5773068867125453 -0.037847694009542465 -0.01938827455554204 0.0330522283911705 0.011739825829863548 True False
2023.327 0.0457359254360199 -1.5779601536192835 -0.040984611958265305 -0.020948843365051317 0.035761233419179916 0.012701988220214844 True False
2023.347 0.04947575554251671 -1.5784498653807582 -0.044219061732292175 -0.022725061779357958 0.038597505539655685 0.01368363481014967 True False
2023.367 0.053213875740766525 -1.5790630779662074 -0.04758080840110779 -0.02455790460620122 0.041537921875715256 0.014726486057043076 True False
2023.387 0.05720748379826546 -1.5797168217101039 -0.051009733229875565 -0.026177601223327684 0.044594526290893555 0.01584053598344326 True False
2023.407 0.061406150460243225 -1.5802370510497035 -0.05459000915288925 -0.028032855396606493 0.04775603115558624 0.01689697429537773 True False
2023.427 0.06559960544109344 -1.5809413395323695 -0.058353275060653687 -0.030082420711853075 0.051025424152612686 0.018083706498146057 True False
2023.447 0.06992819160223007 -1.581590314904684 -0.06222483515739441 -0.032056884174682665 0.05451805144548416 0.019289908930659294 True False
2023.4669999999999 0.07435336709022522 -1.5822769604124964 -0.06627565622329712 -0.0339852136424561 0.05789056420326233 0.020518237724900246 True False
2023.4869999999999 0.07888519018888474 -1.5830594501891078 -0.07043265551328659 -0.03614516675982671 0.061603374779224396 0.021793778985738754 True False
2023.5069999999998 0.08374768495559692 -1.5838600597777308 -0.07465138286352158 -0.03838570535693364 0.06528893113136292 0.02312305197119713 True False
2023.5269999999998 0.08862585574388504 -1.5845405064024867 -0.07904911041259766 -0.04059358060870366 0.06904441863298416 0.024485042318701744 True False
2023.5469999999998 0.09379390627145767 -1.5853477917113246 -0.08347804844379425 -0.042841748600341845 0.07298259437084198 0.025817861780524254 True False
2023.567 0.09895645081996918 -1.5860678158202113 -0.0880422368645668 -0.045318202381469774 0.0770985409617424 0.027275733649730682 True False
2023.587 0.10411302000284195 -1.5869118175902308 -0.09271826595067978 -0.04763825357470708 0.08116715401411057 0.028672147542238235 True False
2023.607 0.10931965708732605 -1.58776917080068 -0.09744852036237717 -0.050036267643310595 0.08530402928590775 0.030170883983373642 True False
2023.627 0.11465394496917725 -1.5885287723936976 -0.10215671360492706 -0.05251236379656987 0.08946461975574493 0.031570617109537125 True False
2023.647 0.11984523385763168 -1.5893517933287562 -0.10678079724311829 -0.054824427967407274 0.09341322630643845 0.033050473779439926 True False
2023.667 0.125102698802948 -1.5902162990965785 -0.11141297966241837 -0.05724080026660161 0.09756527841091156 0.03445393219590187 True False
2023.687 0.1303575038909912 -1.5909363232054652 -0.11597418785095215 -0.059708909397460985 0.1016252338886261 0.03591518849134445 True False
2023.7069999999999 0.1355685293674469 -1.5917698345580042 -0.12059488147497177 -0.06201322496447759 0.10559074580669403 0.037344399839639664 True False
2023.7269999999999 0.1407933533191681 -1.5925561390318812 -0.12523087859153748 -0.06452174604449468 0.10974102467298508 0.038804370909929276 True False
2023.7469999999998 0.1459261029958725 -1.593332906762594 -0.13000096380710602 -0.06687756002459722 0.11388131976127625 0.04020306095480919 True False
2023.7669999999998 0.1512189358472824 -1.5942112408080042 -0.13477341830730438 -0.0692102474025269 0.11796846985816956 0.04165320470929146 True False
2023.7869999999998 0.1565258651971817 -1.5950929127135218 -0.13945816457271576 -0.07167036951098638 0.12194943428039551 0.04316670447587967 True False
2023.807 0.16179940104484558 -1.595896383325094 -0.14400015771389008 -0.07409055650744634 0.126032754778862 0.044524140655994415 True False
2023.827 0.16696268320083618 -1.596630712548727 -0.14856089651584625 -0.07637067258868413 0.13012374937534332 0.04604199901223183 True False
2023.847 0.17214761674404144 -1.597443243066305 -0.15319688618183136 -0.07889016092333989 0.13403759896755219 0.04744693264365196 True False
2023.867 0.17742767930030823 -1.5982138119139613 -0.15789535641670227 -0.08121712625537114 0.13831660151481628 0.048865754157304764 True False
2023.887 0.18264439702033997 -1.5991221867003382 -0.1627165675163269 -0.08356972158465581 0.1423797756433487 0.05030910670757294 True False
2023.907 0.1879575252532959 -1.5999318561949671 -0.16744737327098846 -0.08606048048052983 0.1465028077363968 0.05176037922501564 True False
2023.927 0.19324025511741638 -1.6007424793639125 -0.17200450599193573 -0.0884208244136353 0.15059620141983032 0.05322025343775749 True False
2023.947 0.1983793079853058 -1.601466795007223 -0.17657901346683502 -0.09074421346698003 0.15457922220230103 0.05459414795041084 True False
2023.9669999999999 0.20356649160385132 -1.602290769616598 -0.18120278418064117 -0.09325929105792241 0.15879414975643158 0.056082360446453094 True False
2023.9869999999999 0.2088346630334854 -1.6031180820860804 -0.18587824702262878 -0.09556694448504643 0.1628074049949646 0.057488828897476196 True False
2024.0069999999998 0.21402451395988464 -1.6039425335326136 -0.1906435787677765 -0.09795089185748296 0.16689421236515045 0.058990105986595154 True False
2024.0269999999998 0.21934571862220764 -1.604757925073141 -0.19538816809654236 -0.1004818242839356 0.17095215618610382 0.0604606568813324 True False
2024.0469999999998 0.22463257610797882 -1.6055571041502894 -0.1999926120042801 -0.10275752962146001 0.17503893375396729 0.0618717223405838 True False
2024.067 0.22980764508247375 -1.6063891849913539 -0.2046358287334442 -0.10519369066271977 0.17922644317150116 0.06329129636287689 True False
2024.087 0.23500744998455048 -1.607164045373434 -0.20918011665344238 -0.10764880598101811 0.18322429060935974 0.06468886137008667 True False
2024.107 0.24021880328655243 -1.607959886590475 -0.21377989649772644 -0.10988803327593999 0.18724550306797028 0.06614875048398972 True False
2024.127 0.24543945491313934 -1.608657022515768 -0.2185031622648239 -0.11228366315875249 0.19138513505458832 0.06761232763528824 True False
2024.147 0.2507989704608917 -1.6094814739623011 -0.2232435941696167 -0.11480744302783208 0.19538354873657227 0.0690925344824791 True False
2024.167 0.25601789355278015 -1.6103583774962367 -0.22796587646007538 -0.11706645906481938 0.1994892805814743 0.07050217688083649 True False
2024.187 0.26124250888824463 -1.6112290821471156 -0.23264774680137634 -0.11953862131152349 0.20358450710773468 0.07193326205015182 True False
2024.2069999999999 0.2664197087287903 -1.6120315990843714 -0.23718774318695068 -0.12205441415820317 0.2078113853931427 0.0734010711312294 True False
2024.2269999999999 0.27170029282569885 -1.6127821407713832 -0.24175868928432465 -0.12424953401599126 0.2117968499660492 0.07482295483350754 True False
2024.2469999999998 0.27689164876937866 -1.6136208973326625 -0.24635431170463562 -0.12676186979327397 0.21586334705352783 0.07626327872276306 True False
2024.2669999999998 0.2821842432022095 -1.6143423519530238 -0.2511233389377594 -0.12914104879412847 0.22004659473896027 0.07768624275922775 True False
2024.2869999999998 0.2874048054218292 -1.6152492962279261 -0.2559588849544525 -0.13149674356494145 0.22404085099697113 0.07915370911359787 True False
2024.307 0.29257887601852417 -1.6160842380919398 -0.2607148587703705 -0.13401182115588384 0.22815212607383728 0.0805928036570549 True False
2024.327 0.29784268140792847 -1.6169372997679652 -0.26522573828697205 -0.13637550294909673 0.23217518627643585 0.08204416930675507 True False
2024.347 0.3030652403831482 -1.6177011928954066 -0.2696857452392578 -0.13861866415057378 0.23632533848285675 0.08342554420232773 True False
2024.367 0.308294415473938 -1.6184193096556605 -0.2743159532546997 -0.14106591165576177 0.24039572477340698 0.08485732227563858 True False
2024.387 0.3135734796524048 -1.6192518673338832 -0.27903467416763306 -0.1435665649226685 0.24445974826812744 0.0863126814365387 True False
2024.407 0.318851113319397 -1.6202122173705042 -0.28383708000183105 -0.14580543458972173 0.2485683411359787 0.08777254074811935 True False
2024.427 0.3240258991718292 -1.6209975681700648 -0.288556843996048 -0.14838524282489018 0.2525602877140045 0.08919145911931992 True False
2024.447 0.3292543292045593 -1.6217833958067835 -0.2932546138763428 -0.15069683015856938 0.25667604804039 0.09067041426897049 True False
2024.4669999999999 0.3345801830291748 -1.6225882969298304 -0.29783895611763 -0.15301640451464849 0.2607364356517792 0.0920979306101799 True False
2024.4869999999999 0.3397061228752136 -1.6233388386168421 -0.30243149399757385 -0.15555556238208013 0.26484033465385437 0.09352440387010574 True False
2024.5069999999998 0.3450217843055725 -1.6241723499693812 -0.30702438950538635 -0.15785093725238042 0.2689965069293976 0.09492001682519913 True False
2024.5269999999998 0.35027214884757996 -1.6250177822508753 -0.31164851784706116 -0.16018648565325933 0.2730122208595276 0.09639215469360352 True False
2024.5469999999998 0.3554310202598572 -1.6258708439269007 -0.31646600365638733 -0.16273422658953862 0.27713650465011597 0.09785522520542145 True False
2024.567 0.3606502115726471 -1.6267343960204066 -0.3211648166179657 -0.16507764280352788 0.2812328338623047 0.09930162131786346 True False
2024.587 0.3658839464187622 -1.6274687252440394 -0.32581889629364014 -0.16742546976123052 0.2853570580482483 0.10072349011898041 True False
2024.607 0.37115636467933655 -1.6282245121397914 -0.3303692936897278 -0.1698729556849976 0.2894446551799774 0.1021886020898819 True False
2024.627 0.3764888644218445 -1.6290017567076625 -0.33501413464546204 -0.17217226446185308 0.29340580105781555 0.10362521559000015 True False
2024.647 0.38172733783721924 -1.629861970941061 -0.33958736062049866 -0.17456813276324468 0.297503262758255 0.10507230460643768 True False
2024.667 0.3869006633758545 -1.6306525669493617 -0.34435316920280457 -0.1770913165858765 0.30164629220962524 0.1065744012594223 True False
2024.687 0.39206042885780334 -1.6315232716002406 -0.34909117221832275 -0.17942722261462407 0.30570337176322937 0.10797841101884842 True False
2024.7069999999999 0.39724522829055786 -1.6322561703123988 -0.35378411412239075 -0.1818952125361939 0.3097538352012634 0.10934929549694061 True False
2024.7269999999999 0.4025063216686249 -1.6331631145873011 -0.35839834809303284 -0.18432588995013433 0.313823938369751 0.11081881821155548 True False
2024.7469999999998 0.4078691303730011 -1.6339875660338343 -0.3629942536354065 -0.18668206155810552 0.3179657757282257 0.11232580989599228 True False
2024.7669999999998 0.4131180942058563 -1.6347738705077113 -0.36759716272354126 -0.18904097497973638 0.32192403078079224 0.113745778799057 True False
2024.7869999999998 0.41831421852111816 -1.6355511150755824 -0.37225058674812317 -0.1914646190455933 0.3260650634765625 0.11510049551725388 True False
2024.807 0.4235655963420868 -1.63627352337026 -0.3770328164100647 -0.19379253805194097 0.3302074372768402 0.11663135141134262 True False
2024.827 0.42872852087020874 -1.6370932064452113 -0.3817846477031708 -0.19621510923419194 0.3341895639896393 0.11799772083759308 True False
2024.847 0.43344515562057495 -1.638043066064352 -0.386108934879303 -0.19847150266680913 0.33798789978027344 0.11932335793972015 True False
2024.867 0.43743932247161865 -1.638688703576559 -0.3896320164203644 -0.20028145731005864 0.34103623032569885 0.12044459581375122 True False
2024.887 0.4407925009727478 -1.6391803226866664 -0.39242982864379883 -0.20166643083605962 0.34368887543678284 0.12132453918457031 True False
2024.907 0.44358891248703003 -1.6393715343871058 -0.394554078578949 -0.20304103315386968 0.34590762853622437 0.12216073274612427 True False
2024.927 0.4455549716949463 -1.639623304406637 -0.39638790488243103 -0.20393557966265874 0.3473955988883972 0.12270594388246536 True False
2024.947 0.44697123765945435 -1.6399594746031703 -0.3977997303009033 -0.20467467725787358 0.3485407531261444 0.12302315980195999 True False
2024.9669999999999 0.44786423444747925 -1.6400734386839808 -0.3986234962940216 -0.20497782648120122 0.3491916358470917 0.12325215339660645 True False
2024.9869999999999 0.4479506313800812 -1.6400462589659632 -0.39867064356803894 -0.2048853200725098 0.34917527437210083 0.12325512617826462 True False
2025.0069999999998 0.4479006230831146 -1.6398188076415003 -0.39840102195739746 -0.20480950296435552 0.3491232395172119 0.12323133647441864 True False
2025.0269999999998 0.44787049293518066 -1.6398636303343714 -0.39852386713027954 -0.20483370245013433 0.34911131858825684 0.12325064837932587 True False
2025.0469999999998 0.44792303442955017 -1.6399666271605433 -0.39870643615722656 -0.20491357267413335 0.3491436839103699 0.12322691828012466 True False
2025.067 0.44794201850891113 -1.6400062046446742 -0.39874547719955444 -0.20489378393206792 0.34910303354263306 0.12330157309770584 True False
2025.087 0.4479386806488037 -1.6399203739561976 -0.39871084690093994 -0.20492179811511235 0.3491513729095459 0.12326700985431671 True False
2025.107 0.44793766736984253 -1.6399828396239222 -0.3986978828907013 -0.20483727872882085 0.34915924072265625 0.1232926994562149 True False
2025.127 0.44798263907432556 -1.640050550500387 -0.3987530469894409 -0.20492537439379888 0.34914693236351013 0.12329711765050888 True False
2025.147 0.44799020886421204 -1.6400910816588343 -0.39880621433258057 -0.2049974960139771 0.34928345680236816 0.12327495217323303 True False
2025.167 0.4479738771915436 -1.6400710544981898 -0.39879411458969116 -0.204960898762085 0.3492792248725891 0.1233358383178711 True False
2025.187 0.4479488432407379 -1.6400414905943812 -0.3987249433994293 -0.2050134700587769 0.3492632806301117 0.12333886325359344 True False
2025.2069999999999 0.4479444622993469 -1.6400896511473597 -0.39878231287002563 -0.20500119150195317 0.3492874205112457 0.1233731061220169 True False
2025.2269999999999 0.4479362666606903 -1.640092512170309 -0.39874979853630066 -0.20502157629046636 0.34925511479377747 0.12336857616901398 True False
2025.2469999999998 0.4480020999908447 -1.640099664727682 -0.39880624413490295 -0.2049613755992432 0.34920674562454224 0.12335674464702606 True False
2025.2669999999998 0.44797709584236145 -1.6400824985899867 -0.3987693190574646 -0.2049970191768189 0.3492993116378784 0.12334328889846802 True False
2025.2869999999998 0.44799768924713135 -1.6400777302184046 -0.3987606465816498 -0.2049892705729981 0.3492833077907562 0.12332369387149811 True False
2025.307 0.4479576051235199 -1.6400782070555628 -0.39880621433258057 -0.2050296825221558 0.34925511479377747 0.12334482371807098 True False
2025.327 0.44797271490097046 -1.6401235065855921 -0.3987574875354767 -0.2049732965281983 0.3492231070995331 0.12336412817239761 True False
2025.347 0.448027104139328 -1.6400867901244105 -0.398842990398407 -0.20499737680468755 0.3492873013019562 0.12332694232463837 True False
2025.367 0.4479978084564209 -1.6400953731932582 -0.3988180458545685 -0.20504565656695561 0.34928739070892334 0.12333138287067413 True False
2025.387 0.44799020886421204 -1.6401149235167445 -0.3987974524497986 -0.20500929773364263 0.3492550849914551 0.12335967272520065 True False
2025.407 0.44799771904945374 -1.6401354275145472 -0.39880073070526123 -0.20502562940631108 0.3492431640625 0.12335221469402313 True False
2025.427 0.4480552673339844 -1.6401235065855921 -0.3988018333911896 -0.20500119150195317 0.34928739070892334 0.12331464886665344 True False
2025.447 0.44798147678375244 -1.6400734386839808 -0.3987888991832733 -0.20499308527026372 0.349210649728775 0.12334775924682617 True False
2025.4669999999999 0.4480020999908447 -1.6400824985899867 -0.39881041646003723 -0.20498521745715337 0.3492550849914551 0.12335968017578125 True False
2025.4869999999999 0.4479977488517761 -1.6400734386839808 -0.3988180160522461 -0.2050052446177979 0.3492550849914551 0.12336554378271103 True False
2025.5069999999998 0.44799017906188965 -1.6401001415648402 -0.39879414439201355 -0.20499713838610845 0.3492468595504761 0.12334776669740677 True False
2025.5269999999998 0.4480346739292145 -1.6401311359801234 -0.3987811803817749 -0.2049730581096192 0.34924280643463135 0.12329830229282379 True False
2025.5469999999998 0.44793641567230225 -1.640151163140768 -0.39879748225212097 -0.2050493520549317 0.3492632508277893 0.12336858361959457 True False
2025.567 0.44794899225234985 -1.6401149235167445 -0.3988093137741089 -0.2050212186625977 0.3492874205112457 0.12332252413034439 True False
2025.587 0.44799885153770447 -1.6400987110533656 -0.3988093435764313 -0.2049653095057984 0.34929516911506653 0.12334037572145462 True False
2025.607 0.4480183720588684 -1.6401015720763148 -0.3988180458545685 -0.2049732965281983 0.34928345680236816 0.12336414307355881 True False
2025.627 0.44802165031433105 -1.6400944195189417 -0.39879322052001953 -0.20500929773364263 0.3492550849914551 0.12330569326877594 True False
2025.647 0.4479944705963135 -1.6400824985899867 -0.39880621433258057 -0.20498533666644292 0.34923499822616577 0.12333136796951294 True False
2025.667 0.44798916578292847 -1.6401483021178187 -0.3988018035888672 -0.20498521745715337 0.3492673933506012 0.12333585321903229 True False
2025.687 0.4479825794696808 -1.640085359612936 -0.39879319071769714 -0.20499713838610845 0.3492751717567444 0.12332694977521896 True False
2025.7069999999999 0.44796961545944214 -1.6400824985899867 -0.3988505005836487 -0.20499320447955327 0.3492390811443329 0.12334775924682617 True False
2025.7269999999999 0.44800642132759094 -1.6401235065855921 -0.39884617924690247 -0.20506103456530766 0.3492468595504761 0.12330275774002075 True False
2025.7469999999998 0.4480020999908447 -1.6400910816588343 -0.3988018035888672 -0.20502133787188725 0.34927916526794434 0.12332689762115479 True False
2025.7669999999998 0.4480140209197998 -1.640132566491598 -0.39879411458969116 -0.20503325880084233 0.3492792844772339 0.12335227429866791 True False
2025.7869999999998 0.44799017906188965 -1.6400615177550257 -0.3987163007259369 -0.20502527177844243 0.34921082854270935 0.12334775924682617 True False
2025.807 0.44797295331954956 -1.6401401958861292 -0.3988061547279358 -0.20502133787188725 0.3492431342601776 0.1233837753534317 True False
2025.827 0.4480020999908447 -1.6400944195189417 -0.3987693786621094 -0.20500941694293218 0.3492550551891327 0.12335225939750671 True False
2025.847 0.4480140209197998 -1.640057226220602 -0.3987898826599121 -0.20502133787188725 0.3492472469806671 0.12330275028944016 True False
2025.867 0.4479901194572449 -1.6401058636107386 -0.3988345265388489 -0.20495350778613286 0.3492591977119446 0.12333136796951294 True False
2025.887 0.4480020999908447 -1.6400824985899867 -0.3987601697444916 -0.20500119150195317 0.349198579788208 0.12330007553100586 True False
2025.907 0.44803890585899353 -1.6400944195189417 -0.3987809121608734 -0.20497734964404302 0.349251389503479 0.12331914156675339 True False
2025.927 0.44800639152526855 -1.6400777302184046 -0.39881372451782227 -0.20499320447955327 0.3492431342601776 0.1233072429895401 True False
2025.947 0.4479858875274658 -1.6401354275145472 -0.39875271916389465 -0.20502527177844243 0.3492792248725891 0.12335676699876785 True False
2025.9669999999999 0.447940856218338 -1.6400777302184046 -0.39881813526153564 -0.2049449247172852 0.34927108883857727 0.12336859852075577 True False
2025.9869999999999 0.44802266359329224 -1.6401554546751917 -0.3988017737865448 -0.20497699201617436 0.3493075370788574 0.12335676699876785 True False
2026.0069999999998 0.4480358064174652 -1.6400867901244105 -0.3988092839717865 -0.20497699201617436 0.34925466775894165 0.12334774434566498 True False
2026.0269999999998 0.44804006814956665 -1.6401354275145472 -0.3987884521484375 -0.2049810451320191 0.34925100207328796 0.12336415797472 True False
2026.0469999999998 0.44797396659851074 -1.6400987110533656 -0.39882275462150574 -0.2050052446177979 0.34925106167793274 0.12338053435087204 True False
2026.067 0.44802698493003845 -1.6400824985899867 -0.3987809121608734 -0.2049970191768189 0.3491867184638977 0.12334777414798737 True False
2026.087 0.44801071286201477 -1.6401177845396937 -0.39885538816452026 -0.20502109945330815 0.3492390811443329 0.12326141446828842 True False
2026.107 0.4479452073574066 -1.6401106319823207 -0.39883455634117126 -0.20500929773364263 0.3491867184638977 0.12332691997289658 True False
2026.127 0.44799450039863586 -1.640085359612936 -0.3988434374332428 -0.20501752317462163 0.3492308259010315 0.12333138287067413 True False
2026.147 0.4480140209197998 -1.6400944195189417 -0.3987973630428314 -0.20496101797137456 0.3492591679096222 0.12334035336971283 True False
2026.167 0.4479609727859497 -1.6401225529112757 -0.39885544776916504 -0.20506127298388677 0.34925100207328796 0.12333434075117111 True False
2026.187 0.4479534327983856 -1.6401392422118128 -0.3987942636013031 -0.2050052446177979 0.3492509722709656 0.12333881109952927 True False
2026.2069999999999 0.44799017906188965 -1.6401149235167445 -0.3988315165042877 -0.20502157629046636 0.3492390811443329 0.12335221469402313 True False
2026.2269999999999 0.4479988217353821 -1.640085359612936 -0.39884787797927856 -0.20502527177844243 0.3492756187915802 0.1233358383178711 True False
2026.2469999999998 0.4480149745941162 -1.6401192150511683 -0.39879733324050903 -0.2050376695445557 0.34917837381362915 0.12334777414798737 True False
2026.2669999999998 0.4479653239250183 -1.6401072941222132 -0.3988391160964966 -0.20502932489428716 0.3492674231529236 0.12333136051893234 True False
2026.2869999999998 0.4480312764644623 -1.6400658092894496 -0.3987973630428314 -0.20500929773364263 0.3492390811443329 0.12334779649972916 True False
2026.307 0.44803884625434875 -1.6400944195189417 -0.3988300859928131 -0.20503349721942143 0.3492591679096222 0.12332688271999359 True False
2026.327 0.448018342256546 -1.6401268444456996 -0.3987898826599121 -0.20501335084948735 0.34921491146087646 0.12333138287067413 True False
2026.347 0.4480096995830536 -1.6401149235167445 -0.3988315165042877 -0.20504947126422124 0.3492550849914551 0.12335216999053955 True False
2026.367 0.44802266359329224 -1.6401030025877894 -0.39880630373954773 -0.2049970191768189 0.3492792844772339 0.12334775924682617 True False
2026.387 0.4479978382587433 -1.640139719048971 -0.3987690210342407 -0.20504172266040044 0.34932345151901245 0.12333141267299652 True False
2026.407 0.4479534327983856 -1.640177389184469 -0.3987690210342407 -0.2049892705729981 0.34925100207328796 0.12331175804138184 True False
2026.427 0.4479978084564209 -1.6400782070555628 -0.3987690210342407 -0.20499296606097417 0.3492189645767212 0.12336862087249756 True False
2026.447 0.44798585772514343 -1.6400987110533656 -0.39872869849205017 -0.2049970191768189 0.3492390811443329 0.12334774434566498 True False
2026.4669999999999 0.44797393679618835 -1.640132566491598 -0.3987928628921509 -0.20505721986804204 0.3492472469806671 0.12331464886665344 True False
2026.4869999999999 0.44798704981803894 -1.640090127984518 -0.3988063633441925 -0.20502157629046636 0.3492591679096222 0.1234135553240776 True False
2026.5069999999998 0.44796526432037354 -1.6401149235167445 -0.39882999658584595 -0.2049970191768189 0.34921082854270935 0.1233358308672905 True False
2026.5269999999998 0.4479815661907196 -1.6400448284544886 -0.3987690210342407 -0.20501335084948735 0.3492189645767212 0.12332982569932938 True False
2026.5469999999998 0.4479696452617645 -1.6400329075255335 -0.3988063633441925 -0.20507367075000005 0.34925100207328796 0.12334039062261581 True False
2026.567 0.4480150043964386 -1.640151163140768 -0.3988509774208069 -0.2049970191768189 0.34927108883857727 0.12337765842676163 True False
2026.587 0.44799017906188965 -1.6401235065855921 -0.39874815940856934 -0.20501752317462163 0.34923499822616577 0.12335222959518433 True False
2026.607 0.447949081659317 -1.6401030025877894 -0.3987616300582886 -0.20500941694293218 0.3492431640625 0.12336415797472 True False
2026.627 0.447981595993042 -1.6401282749571742 -0.3988509774208069 -0.20501335084948735 0.34923502802848816 0.12334776669740677 True False
2026.647 0.4479652941226959 -1.640115877191061 -0.39879733324050903 -0.20500941694293218 0.3492550849914551 0.12335223704576492 True False
2026.667 0.44799017906188965 -1.6400748691954554 -0.3987615704536438 -0.20497317731890874 0.349275141954422 0.12337611615657806 True False
2026.687 0.4479663372039795 -1.6401030025877894 -0.3987482190132141 -0.2049688857844849 0.3492189645767212 0.12335221469402313 True False
2026.7069999999999 0.44802260398864746 -1.6401001415648402 -0.39876455068588257 -0.2049810451320191 0.3492390811443329 0.12338200211524963 True False
2026.7269999999999 0.44798585772514343 -1.6400953731932582 -0.3987853229045868 -0.2049970191768189 0.3492468297481537 0.12338059395551682 True False
