Andreas691667/Digital_Twin_UR/src/controller_monitor/test_results/test_motion1.csv
timestamp actual_q_0 actual_q_1 actual_q_2 actual_q_3 actual_q_4 actual_q_5 output_bit_register_65 output_bit_register_66
10969.404999999999 1.5108584193512797e-05 -1.5707961521544398 6.977711812794496e-06 -1.5708095035948695 -1.6514454976856996e-05 -7.931386129200746e-06 False False
10969.425 2.2530555725097656e-05 -1.5707910817912598 -1.8262862795381807e-05 -1.5707415350992342 2.785401011351496e-05 -3.639851705372621e-06 False False
10969.445 -3.511110414677887e-05 -1.5708242855467738 -4.8489615437574685e-05 -1.570777628398293 1.5497207641601562e-05 -1.6514454976856996e-05 False False
10969.465 1.9492741557769477e-05 -1.5708028278746546 1.889864076787262e-05 -1.5708056888976039 -2.843538393193512e-05 -1.9375477926075746e-05 False False
10969.484999999999 -3.511110414677887e-05 -1.5708447895445765 -2.2739111955161206e-05 -1.5707980595030726 -7.788287561538709e-07 2.0553783542709425e-05 False False
10969.505 3.883838508045301e-05 -1.5707994900145472 -3.9582911995239556e-05 -1.570794181947651 1.150745629274752e-05 -3.225008119756012e-05 False False
10969.525 -4.3217335836231996e-05 -1.5707953733256836 3.987947572881012e-05 -1.5708052120604457 -4.593526021778871e-06 4.291534423828125e-06 False False
10969.545 -1.3176594869435121e-05 -1.5707791847056178 2.209340230763246e-06 -1.5708099804320277 1.559636802994646e-05 2.8133392333984375e-05 False False
10969.564999999999 1.068568235496059e-05 -1.5708157024779261 1.889864076787262e-05 -1.5707858365825196 -2.0329152242481996e-05 -2.080598940068512e-05 False False
10969.585 -1.5083943502247621e-05 -1.5708443127074183 -1.9073486328125e-06 -1.5707576462085235 -2.843538393193512e-05 1.1897086551471148e-05 False False
10969.605 1.810221692721825e-05 -1.5708514652647914 -1.943015377037227e-06 -1.5708219013609828 -2.080598940068512e-05 -1.2222920553028871e-05 False False
10969.625 2.6981353585142642e-05 -1.57077444017553 3.0819569722950746e-05 -1.5708300075926722 -8.408223287403871e-06 2.4905442842282355e-05 False False
10969.644999999999 3.006736187671777e-05 -1.5707877620237305 1.4130269185841371e-05 -1.570785693531736 -1.6514454976856996e-05 -1.2222920553028871e-05 False False
10969.664999999999 -1.7468129293263246e-05 -1.5707592290712746 2.209340230763246e-06 -1.5707576462085235 -8.408223287403871e-06 4.291534423828125e-06 False False
10969.685 4.767608697875403e-05 -1.570762281455547 -2.7167796361027285e-05 -1.57080139736318 -3.0199159795074593e-07 8.693218660482671e-06 False False
10969.705 7.49034879845567e-05 -1.5708190403380335 -3.0788352887611836e-05 -1.5707858485023571 2.380600562901236e-05 4.291534423828125e-06 False False
10969.725 -1.5083943502247621e-05 -1.5708323917784632 -3.962768823839724e-05 -1.5707858323060755 -2.5097523824513246e-05 1.621246337890625e-05 False False
10969.744999999999 -6.086031068974762e-05 -1.5708447895445765 5.547200338185121e-06 -1.5708137951292933 3.607234975788742e-05 -3.6541615621388246e-05 False False
10969.765 -6.024037496388246e-06 -1.5708323917784632 2.209340230763246e-06 -1.5707817911118873 -8.885060445606996e-06 3.2428259146399796e-05 False False
10969.785 -2.175966371709137e-05 -1.5708204708495082 6.977711812794496e-06 -1.5707615326685591 3.569422187865712e-05 -4.116688863575746e-06 False False
10969.805 2.249479257443454e-05 -1.5707833181971473 9.838734762013246e-06 -1.5707655457921028 4.7566249122610316e-05 -1.2222920553028871e-05 False False
10969.824999999999 -2.209340230763246e-06 -1.57077444017553 -3.972641206928529e-05 -1.5708290539183558 -4.116688863575746e-06 8.672297553857788e-06 False False
10969.845 3.0040740966796875e-05 -1.5707877439311524 6.848970522099762e-05 -1.570817609826559 2.3756940208841115e-05 -3.225008119756012e-05 False False
10969.865 -1.0315571920216371e-05 -1.5708071194090785 -1.3828277587890625e-05 -1.5708052120604457 2.7418136596679688e-05 2.0527841115836054e-05 False False
10969.885 2.69572719844291e-05 -1.5707877439311524 2.6051198140919496e-05 -1.570793987398094 1.1408328646211885e-05 -4.0356312887013246e-05 False False
10969.904999999999 1.81840641744202e-06 -1.570803781548971 4.7032033101856996e-05 -1.5707971058287562 5.943775249761529e-05 4.2223364289384335e-06 False False
10969.925 -1.5083943502247621e-05 -1.5708323917784632 -1.9073486328125e-06 -1.5708371601500453 1.5497207641601562e-05 4.5498709368985146e-05 False False
10969.945 1.8503801584301982e-06 -1.5707788986022315 7.788287561538709e-07 -1.57080139736318 2.375674193899613e-05 8.705377695150673e-06 False False
10969.965 4.943371095578186e-06 -1.5707654823130106 3.8448964254200746e-05 -1.5707899221577755 -3.0199159795074593e-07 2.92449003609363e-05 False False
10969.984999999999 4.75802444270812e-05 -1.5708114109435023 4.7032033101856996e-05 -1.5707656382295063 2.3732096451567486e-05 -2.7958546773731996e-05 False False
10970.005 9.428561497770716e-06 -1.5708323917784632 -3.081841714447364e-05 -1.5707777303508301 1.5497207641601562e-05 -1.5083943502247621e-05 False False
10970.025 2.24828709178837e-05 -1.5708233318724574 -1.3828277587890625e-05 -1.5708052120604457 4.3855427065864205e-05 -2.080598940068512e-05 False False
10970.045 -1.3176594869435121e-05 -1.5708323917784632 -1.9073486328125e-06 -1.5707696393804618 -7.788287561538709e-07 -1.2222920553028871e-05 False False
10970.064999999999 2.24828709178837e-05 -1.570796628991598 -1.0800360541907139e-05 -1.5708538494505824 1.1408328646211885e-05 8.69321775098797e-06 False False
10970.085 3.122533962596208e-05 -1.5707863134196778 1.4130269185841371e-05 -1.5707777469436515 3.337860107421875e-06 4.5455191866494715e-05 False False
10970.105 2.6909110601991415e-05 -1.5707710613063064 1.603761781865387e-05 -1.5708056888976039 -4.8939381734669496e-05 4.3003801692975685e-06 False False
10970.125 -1.732503072560121e-06 -1.5708114109435023 2.209340230763246e-06 -1.5707617918418073 -1.2699757711231996e-05 -1.9375477926075746e-05 False False
10970.144999999999 -1.0315571920216371e-05 -1.5707655599874961 2.6051198140919496e-05 -1.570817609826559 2.7418136596679688e-05 2.8090275009162724e-05 False False
10970.164999999999 -3.9402638570606996e-05 -1.5708323917784632 -1.8271890439791605e-05 -1.5708095035948695 2.7418136596679688e-05 -2.7958546773731996e-05 False False
10970.185 -2.209340230763246e-06 -1.570824762383932 -1.8713252529778401e-06 -1.5707458297877857 -4.593526021778871e-06 1.736734702717513e-05 False False
10970.205 1.494660864409525e-05 -1.5708157024779261 -1.3828277587890625e-05 -1.570765809421875 3.150701377307996e-05 3.672931052278727e-05 False False
10970.225 3.437995837884955e-05 -1.5708581409850062 -3.5207987821195275e-05 -1.5708538494505824 7.434932740579825e-06 4.76837158203125e-07 False False
10970.244999999999 5.069899998488836e-05 -1.570783321266692 1.889864076787262e-05 -1.5708290539183558 -2.0329152242481996e-05 -1.6514454976856996e-05 False False
10970.265 -1.0315571920216371e-05 -1.5708290539183558 -1.8331305909669027e-05 -1.5708095035948695 3.976654988946393e-05 -1.6514454976856996e-05 False False
10970.285 5.4979325796011835e-05 -1.5708323917784632 2.6051198140919496e-05 -1.5707859200286585 1.966786294360645e-05 3.2422893127659336e-05 False False
10970.305 -6.024037496388246e-06 -1.5708157024779261 9.838734762013246e-06 -1.5707859200286585 1.966786294360645e-05 6.518522422993556e-05 False False
10970.324999999999 -1.4607106344044496e-05 -1.570824762383932 -6.353855496854521e-06 -1.5707975826659144 -2.080598940068512e-05 1.7484556025237907e-07 False False
10970.345 -6.500874654591371e-06 -1.5707503250381087 -9.292840331909247e-06 -1.570749915070639 1.5497207641601562e-05 -4.0356312887013246e-05 False False
10970.365 2.6876336050918326e-05 -1.5707953733256836 -9.30500027607195e-06 -1.5707617722803953 3.337860107421875e-06 -2.9865895406544496e-05 False False
10970.385 -2.175966371709137e-05 -1.5707922815298225 1.889864076787262e-05 -1.57076574195192 1.966786294360645e-05 4.5498709368985146e-05 False False
10970.404999999999 -1.3176594869435121e-05 -1.5708323917784632 -6.341933840303682e-06 -1.570749907172587 -3.0199159795074593e-07 1.7484556025237907e-07 False False
10970.425 1.4940022992959712e-05 -1.5708071194090785 2.209340230763246e-06 -1.570817609826559 2.375674193899613e-05 2.0489978851401247e-05 False False
10970.445 5.9357404097681865e-05 -1.5707922640893521 2.175966371709137e-05 -1.5707934659770508 2.7418136596679688e-05 4.30874797530123e-06 False False
10970.465 -6.024037496388246e-06 -1.570812841454977 -3.073716288781725e-05 -1.5707459494263567 -2.843538393193512e-05 8.684432032168843e-06 False False
10970.484999999999 3.117947562714107e-05 -1.5707833212657825 2.748170961552887e-05 -1.5708333454527796 3.567767271306366e-05 -4.0356312887013246e-05 False False
10970.505 -4.274049867802887e-05 -1.570796628991598 -1.825094295782037e-05 -1.5707975826659144 3.567767271306366e-05 -1.6514454976856996e-05 False False
10970.525 1.4940231267246418e-05 -1.5708157024779261 3.034273256474762e-05 -1.570813318292135 -7.788287561538709e-07 -1.2222920553028871e-05 False False
10970.545 -1.732503072560121e-06 -1.5708157024779261 -2.2691332560498267e-05 -1.5708052120604457 2.7434736693976447e-05 8.73656063049566e-06 False False
10970.564999999999 -3.4634266988575746e-05 -1.5707610477259841 -3.5177727113477886e-05 -1.5708052120604457 2.7845619115396403e-05 -3.225008119756012e-05 False False
10970.585 1.8835071387002245e-06 -1.5708490810790003 9.838734762013246e-06 -1.5708219013609828 3.976654988946393e-05 5.30440011061728e-05 False False
10970.605 -6.024037496388246e-06 -1.570845743218893 5.547200338185121e-06 -1.5707658139511587 -3.2726918355763246e-05 -1.2222920553028871e-05 False False
10970.625 2.241467882413417e-05 -1.5708204708495082 3.8448964254200746e-05 -1.5707896512797852 3.567767271306366e-05 -3.225008119756012e-05 False False
10970.644999999999 6.198883056640625e-06 -1.570766626721099 -1.3845919966115616e-05 -1.5707375153982248 3.567767271306366e-05 -1.2222920553028871e-05 False False
10970.664999999999 -1.0792409078419496e-05 -1.570757757548865 -4.390931280795485e-05 -1.5708018742003382 -3.6541615621388246e-05 -2.080598940068512e-05 False False
10970.685 -6.024037496388246e-06 -1.570808549920553 -1.9073486328125e-06 -1.5708219013609828 -1.2699757711231996e-05 1.7484556025237907e-07 False False
10970.705 2.6821588107850403e-05 -1.5707953733256836 -4.654919030144811e-05 -1.5707934659770508 2.375674193899613e-05 8.714223440620117e-06 False False
10970.725 5.167875497136265e-05 -1.570803781548971 -6.2797967075312044e-06 -1.5707735596955281 1.966786294360645e-05 1.617759517102968e-05 False False
10970.744999999999 -6.024037496388246e-06 -1.5707744670401844 3.034273256474762e-05 -1.570841451684469 -2.462068666631012e-05 -7.931386129200746e-06 False False
10970.765 1.8102509784512222e-05 -1.5708204708495082 3.1773244039356996e-05 -1.5708261928954066 -4.464784731084137e-05 -1.2222920553028871e-05 False False
10970.785 -2.175966371709137e-05 -1.5708157024779261 -2.6988982426701114e-05 -1.5708376369872035 -2.462068666631012e-05 -4.116688863575746e-06 False False
10970.805 -6.024037496388246e-06 -1.570803781548971 1.1269246236622621e-05 -1.5708137951292933 3.152356657665223e-05 1.621246337890625e-05 False False
10970.824999999999 -2.209340230763246e-06 -1.5708190403380335 -5.0891307182610035e-05 -1.5707777220271346 1.5497207641601562e-05 1.1871177775901742e-05 False False
10970.845 -1.0315571920216371e-05 -1.570840974847311 -1.821199111873284e-05 -1.5708095035948695 1.965137926163152e-05 -1.6514454976856996e-05 False False
10970.865 -6.024037496388246e-06 -1.5707788747607374 -1.5119790077733342e-05 -1.5707980595030726 -2.080598940068512e-05 -1.6514454976856996e-05 False False
10970.885 1.0576248314464465e-05 -1.5707953733256836 -6.291097179200733e-06 -1.5708261928954066 1.1408328646211885e-05 -2.080598940068512e-05 False False
10970.904999999999 -2.6051198140919496e-05 -1.5707788747607374 3.4634266988575746e-05 -1.5708137951292933 1.1515617188706528e-05 -7.931386129200746e-06 False False
10970.925 2.1243928131298162e-05 -1.5707339156909548 -1.916056589834625e-06 -1.5707694783926236 3.150701377307996e-05 8.702038940100465e-06 False False
10970.945 6.27707049716264e-05 -1.5708323917784632 -5.520963532035239e-05 -1.5708219013609828 1.1515616279211827e-05 -3.225008119756012e-05 False False
10970.965 1.489186252001673e-05 -1.5708357296385707 1.8421803609669496e-05 -1.5708219013609828 2.3781019990565255e-05 -2.7958546773731996e-05 False False
10970.984999999999 3.5419703635852784e-05 -1.570803781548971 -1.5040037396829575e-05 -1.5708180866637171 1.5604495274601504e-05 -7.931386129200746e-06 False False
10971.005 -1.4607106344044496e-05 -1.570803781548971 -6.252746970858425e-06 -1.570785787937286 -1.2699757711231996e-05 2.8133392333984375e-05 False False
10971.025 -1.889864076787262e-05 -1.570845743218893 -3.0664203222841024e-05 -1.5708180866637171 -2.0329152242481996e-05 -7.931386129200746e-06 False False
10971.045 3.112486956524663e-05 -1.5707547057939628 1.1269246236622621e-05 -1.5708261928954066 1.1515616279211827e-05 2.4929522624006495e-05 False False
10971.064999999999 -7.18275653284195e-05 -1.570836683312887 -6.2584881561633665e-06 -1.5708137951292933 -4.116688863575746e-06 1.188843907584669e-05 False False
10971.085 1.8085040210280567e-05 -1.5708323917784632 -2.2565398467122577e-05 -1.570845743218893 2.7418136596679688e-05 3.67469183402136e-05 False False
10971.105 -2.6051198140919496e-05 -1.5707710613081254 -2.6226043701171875e-05 -1.5708137951292933 -7.788287561538709e-07 -7.931386129200746e-06 False False
10971.125 1.811981201171875e-05 -1.570796628991598 1.4130269185841371e-05 -1.5707654098990425 -4.593526021778871e-06 2.0539759134408087e-05 False False
10971.144999999999 -1.4607106344044496e-05 -1.5708447895445765 3.034273256474762e-05 -1.5708300075926722 3.150701377307996e-05 -1.2222920553028871e-05 False False
10971.164999999999 2.384185791015625e-06 -1.5708114109435023 6.500874654591371e-06 -1.5708056888976039 -1.2699757711231996e-05 -1.2222920553028871e-05 False False
10971.185 -2.6051198140919496e-05 -1.5707547057939628 3.4634266988575746e-05 -1.5707291604233724 -2.080598940068512e-05 -1.6514454976856996e-05 False False
10971.205 3.5419703635852784e-05 -1.5708204708495082 9.838734762013246e-06 -1.5707777303508301 1.1515616279211827e-05 2.053648859146051e-05 False False
10971.225 -1.732503072560121e-06 -1.570812841454977 -1.9160208921675803e-06 -1.570834299127096 -3.0199159795074593e-07 -4.0356312887013246e-05 False False
10971.244999999999 1.4943710084480699e-05 -1.570845743218893 9.838734762013246e-06 -1.5708095035948695 -7.707277406865387e-05 3.244876643293537e-05 False False
10971.265 -2.6051198140919496e-05 -1.570783365474501 -3.500200909911655e-05 -1.5707971058287562 -1.6514454976856996e-05 3.2478033972438425e-05 False False
10971.285 -8.885060445606996e-06 -1.5707503338674833 -1.3845503417542204e-05 -1.5708261928954066 -1.2699757711231996e-05 -7.931386129200746e-06 False False
10971.305 1.4867781828797888e-05 -1.5707788986022315 1.4130269185841371e-05 -1.5707898814801702 2.3756743757985532e-05 3.677275890368037e-05 False False
10971.324999999999 -6.500874654591371e-06 -1.570783321266692 2.6051198140919496e-05 -1.570794060354121 2.7845620934385806e-05 1.621246337890625e-05 False False
10971.345 -1.3176594869435121e-05 -1.5708204708495082 6.500874654591371e-06 -1.5707653819375373 -8.885060445606996e-06 3.793549331021495e-05 False False
10971.365 -6.324449648076325e-05 -1.570864816705221 -1.3828277587890625e-05 -1.5707493639350396 1.1421324416005518e-05 1.7484556025237907e-07 False False
10971.385 -3.892580141240387e-05 -1.5707953733256836 -1.9073486328125e-06 -1.5707898569879326 -8.408223287403871e-06 8.69321775098797e-06 False False
10971.404999999999 5.1644085033331066e-05 -1.570783309345945 -6.2108047131914645e-06 -1.570769446736751 -4.593526021778871e-06 -2.080598940068512e-05 False False
10971.425 4.725827602669597e-05 -1.5707877439311524 -4.352593532530591e-05 -1.57080139736318 -8.408223287403871e-06 2.4929522624006495e-05 False False
10971.445 -5.895296205693512e-05 -1.5707833181971473 1.8421803609669496e-05 -1.57080139736318 1.1801718756032642e-05 1.7484556025237907e-07 False False
10971.465 1.9330800569150597e-06 -1.57086243251943 1.7468129293263246e-05 -1.5707694708165327 4.7977246140362695e-05 3.244877007091418e-05 False False
10971.484999999999 1.9257435269537382e-05 -1.5707906049541016 6.500874654591371e-06 -1.5708056888976039 3.304100800960441e-06 2.4929522624006495e-05 False False
10971.505 6.198883056640625e-06 -1.570824762383932 -1.3819505511492025e-05 -1.5707095803121156 -1.2699757711231996e-05 1.7484556025237907e-07 False False
10971.525 -2.557436098271637e-05 -1.570792291525624 -9.47678017837461e-06 -1.5708095035948695 -3.0199159795074593e-07 2.9244898541946895e-05 False False
10971.545 -1.0315571920216371e-05 -1.570736806756333 -4.794150299858302e-05 -1.570781819228916 1.1777877261920366e-05 1.621246337890625e-05 False False
10971.564999999999 4.734063259093091e-05 -1.5707832974251978 -2.6702880859375e-05 -1.570781819228916 -7.788287561538709e-07 -4.116688863575746e-06 False False
10971.585 3.540238685673103e-05 -1.5708447895445765 -1.8901828298112378e-06 -1.5707698982990514 -4.593526021778871e-06 1.7484556025237907e-07 False False
10971.605 1.9231320038670674e-05 -1.5708447895445765 3.892580141240387e-05 -1.5707735596937091 3.1830379157327116e-05 -2.080598940068512e-05 False False
10971.625 -2.175966371709137e-05 -1.570745770663354 1.7468129293263246e-05 -1.5707817282639844 5.56805134692695e-05 8.693216841493268e-06 False False
10971.644999999999 -4.7032033101856996e-05 -1.570741342195408 9.838734762013246e-06 -1.5707654342152928 -3.0199159795074593e-07 2.0527841115836054e-05 False False
10971.664999999999 -1.889864076787262e-05 -1.5707863134196778 -3.9186477806651965e-05 -1.57080139736318 -2.0329152242481996e-05 2.4929522624006495e-05 False False
10971.685 5.058582974015735e-05 -1.570840974847311 3.4634266988575746e-05 -1.5707613409834558 -2.0329152242481996e-05 -2.366701234990387e-05 False False
10971.705 -1.4607106344044496e-05 -1.5707788092079973 3.034273256474762e-05 -1.5707898896983643 4.368722875369713e-05 4.00543212890625e-05 False False
10971.725 -2.6051198140919496e-05 -1.5707815450480958 -1.8157605154556222e-05 -1.5707817365885894 -4.846254457646637e-05 2.0548432075884193e-05 False False
10971.744999999999 1.811981201171875e-05 -1.5708157024779261 -3.063298936467618e-05 -1.5708056888976039 -2.080598940068512e-05 4.30874797530123e-06 False False
10971.765 6.015213148202747e-05 -1.570836683312887 -5.0630569603526965e-05 -1.5707694708165327 7.390975497401087e-06 -3.225008119756012e-05 False False
10971.785 6.198883056640625e-06 -1.5707577275209879 -2.6677183996071108e-05 -1.5707575498857587 1.5497207641601562e-05 8.707069355295971e-06 False False
10971.805 -3.415742983037262e-05 -1.5707800310904823 -9.481941560807172e-06 -1.570773534982738 4.3711661419365555e-05 -1.6514454976856996e-05 False False
10971.824999999999 -1.0315571920216371e-05 -1.570812841454977 -2.2426393115893006e-05 -1.570789174442627 -7.788287561538709e-07 -4.116688863575746e-06 False False
10971.845 2.678857526916545e-05 -1.570757709629408 -6.198883966135327e-06 -1.5707817119421925 7.415505479002604e-06 -7.931386129200746e-06 False False
10971.865 2.6764631911646575e-05 -1.5708338222899378 6.324449648076325e-05 -1.570829530755514 -3.6541615621388246e-05 4.76837158203125e-07 False False
10971.885 -6.024037496388246e-06 -1.5707877439311524 3.034273256474762e-05 -1.5707940603550306 -8.885060445606996e-06 3.244877007091418e-05 False False
10971.904999999999 -2.6051198140919496e-05 -1.570803781548971 9.838734762013246e-06 -1.5707735596937091 -7.788287561538709e-07 4.291534423828125e-06 False False
10971.925 5.920503463130444e-05 -1.5708157024779261 1.8421803609669496e-05 -1.5708018742003382 -2.843538393193512e-05 -2.366701234990387e-05 False False
10971.945 3.104424467892386e-05 -1.570840974847311 -2.192258762079291e-05 -1.5707534199066977 -2.0329152242481996e-05 2.92449003609363e-05 False False
10971.965 -4.274049867802887e-05 -1.5708538494505824 9.838734762013246e-06 -1.5707857888995314 1.1388366147002671e-05 -7.931386129200746e-06 False False
10971.984999999999 1.4843702047073748e-05 -1.5708157024779261 -1.0522883712837938e-05 -1.5707898896983643 3.956225555157289e-05 4.1165829316014424e-05 False False
10972.005 -6.500874654591371e-06 -1.5707980595030726 6.500874654591371e-06 -1.5707777303508301 -3.6541615621388246e-05 -1.6514454976856996e-05 False False
10972.025 1.4828139683231711e-05 -1.5707531049959762 1.8421803609669496e-05 -1.5707534610085823 -3.2726918355763246e-05 2.810738078551367e-05 False False
10972.045 -1.4607106344044496e-05 -1.5707832974251978 -1.0490416570974048e-05 -1.5707411288497788 -4.083315004521637e-05 8.69321775098797e-06 False False
10972.064999999999 -1.3176594869435121e-05 -1.5707755845836182 5.0846730367481996e-05 -1.5707817119076317 2.3636341211386025e-05 -2.080598940068512e-05 False False
10972.085 -3.415742983037262e-05 -1.5708114109435023 -6.181752269185381e-06 -1.5707980595030726 -2.080598940068512e-05 3.357778041390702e-05 False False
10972.105 -3.892580141240387e-05 -1.570733867771498 -1.81403574970318e-05 -1.5707777303508301 -7.788287561538709e-07 -7.931386129200746e-06 False False
10972.125 1.07221603684593e-05 -1.570836683312887 -1.3828277587890625e-05 -1.570781819228916 -1.6514454976856996e-05 2.491212399036158e-05 False False
10972.144999999999 6.198883056640625e-06 -1.5708490810790003 2.271333803349762e-05 -1.5707452832542295 -4.0356312887013246e-05 2.051922638202086e-05 False False
10972.164999999999 3.448724601184949e-05 -1.5707531292831227 3.129640688115387e-05 -1.5707940850673658 -2.4143849508106996e-05 -1.2222920553028871e-05 False False
10972.185 -3.415742983037262e-05 -1.570812841454977 9.838734762013246e-06 -1.5707980595030726 2.7418136596679688e-05 1.7484556025237907e-07 False False
10972.205 2.7077672712039202e-05 -1.5707832974251978 3.3680592672169496e-05 -1.570781721199939 -7.788287561538709e-07 -3.639851705372621e-06 False False
10972.225 -4.178682436162262e-05 -1.5708204708495082 -1.9073486328125e-06 -1.5707653819375373 5.950617924099788e-05 -3.6541615621388246e-05 False False
10972.244999999999 1.9591330783441663e-05 -1.5708233318724574 -6.204114924912574e-06 -1.5707534610085823 4.733393870992586e-05 8.702038940100465e-06 False False
10972.265 -3.511110414677887e-05 -1.5707832348019402 -1.8987719840879436e-06 -1.5707857432328929 3.157854007440619e-05 4.291534423828125e-06 False False
10972.285 4.0461345633957535e-05 -1.5707877620728432 5.547200338185121e-06 -1.5707374346169054 -8.408223287403871e-06 -7.931386129200746e-06 False False
10972.305 1.5180826267169323e-05 -1.5708157024779261 4.655519594365387e-05 -1.5707898239505376 3.5509303415892646e-05 8.684432032168843e-06 False False
10972.324999999999 2.2554395400220528e-05 -1.570775602286023 2.271333803349762e-05 -1.5707653211178076 1.5783309208927676e-05 2.4929522624006495e-05 False False
10972.345 -6.848970522099762e-05 -1.5708157024779261 1.8421803609669496e-05 -1.5708180866637171 2.358817982894834e-05 8.69321775098797e-06 False False
10972.365 3.447532799327746e-05 -1.5707863134196778 2.209340230763246e-06 -1.5707971058287562 3.550911060301587e-05 8.69321775098797e-06 False False
10972.385 -1.9375477926075746e-05 -1.5707710225236333 -2.2387503122445196e-05 -1.5707694379091954 1.5480914953514002e-05 4.116582567803562e-05 False False
10972.404999999999 3.890084917657077e-05 -1.570803781548971 2.209340230763246e-06 -1.5707775873000465 3.337860107421875e-06 2.8133392333984375e-05 False False
10972.425 1.3652656889462378e-05 -1.5707832974251978 -1.9073486328125e-06 -1.5707817119421925 3.140367698506452e-05 6.171751010697335e-05 False False
10972.445 1.7434658730053343e-06 -1.570824762383932 6.977711812794496e-06 -1.57080139736318 -5.227724184209137e-05 4.108667417312972e-05 False False
10972.465 -4.3217335836231996e-05 -1.5708114109435023 -3.5201606806367636e-05 -1.57080139736318 -1.2222920553028871e-05 2.490565020707436e-05 False False
10972.484999999999 1.7642978491494432e-06 -1.570836683312887 -3.7670135498046875e-05 -1.5707694706182629 -2.462068666631012e-05 -2.7958546773731996e-05 False False
10972.505 -1.5083943502247621e-05 -1.5708157024779261 -4.210472252452746e-05 -1.5707971058287562 1.5497207641601562e-05 4.116582567803562e-05 False False
10972.525 -1.5083943502247621e-05 -1.5708233318724574 2.175966371709137e-05 -1.5707898896983643 -8.408223287403871e-06 1.7484556025237907e-07 False False
10972.545 -1.9375477926075746e-05 -1.5708204708495082 9.838734762013246e-06 -1.5708180866637171 1.5513132893829606e-05 2.490351107553579e-05 False False
10972.564999999999 6.198883056640625e-06 -1.5708157024779261 -6.341933840303682e-06 -1.5707575498857587 -2.462068666631012e-05 3.2422893127659336e-05 False False
10972.585 4.6396256948355585e-05 -1.570796628991598 5.547200338185121e-06 -1.5707653819375373 1.9558428903110325e-05 -2.080598940068512e-05 False False
10972.605 -2.686177388966371e-06 -1.570812841454977 1.889864076787262e-05 -1.5707575498857587 7.319450105569558e-06 2.4929522624006495e-05 False False
10972.625 -1.732503072560121e-06 -1.5708276234068812 5.547200338185121e-06 -1.5707735596955281 -4.593526021778871e-06 4.1174684156430885e-05 False False
10972.644999999999 -1.9375477926075746e-05 -1.570836683312887 5.547200338185121e-06 -1.5707613340276403 -1.2222920553028871e-05 1.7484556025237907e-07 False False
10972.664999999999 1.07221603684593e-05 -1.5708157024779261 2.6051198140919496e-05 -1.5707858008202784 2.339648926863447e-05 -7.931386129200746e-06 False False
10972.685 -2.686177388966371e-06 -1.5708533726134242 -4.40530784544535e-05 -1.5707735596955281 2.3532007617177442e-05 4.544657713267952e-05 False False
10972.705 -6.977711812794496e-06 -1.570803781548971 2.209340230763246e-06 -1.570781711941283 1.5505345800193027e-05 -4.8939381734669496e-05 False False
10972.725 3.151225973851979e-05 -1.570759217149618 9.838734762013246e-06 -1.570845743218893 3.138780448352918e-05 2.491212399036158e-05 False False
10972.744999999999 -1.5083943502247621e-05 -1.570808549920553 2.209340230763246e-06 -1.5707898896983643 -4.7985707418263246e-05 -7.931386129200746e-06 False False
10972.765 2.259876055177301e-05 -1.5707744044123793 1.889864076787262e-05 -1.5707534691722067 -1.2222920553028871e-05 -4.8939381734669496e-05 False False
10972.785 1.518103999842424e-05 -1.570745788700453 -1.8262862795381807e-05 -1.5708538494505824 6.720215606037527e-05 4.113981412956491e-05 False False
10972.805 3.1503408536082134e-05 -1.5707994900145472 -6.321185992419487e-06 -1.5708333454527796 1.5497207641601562e-05 -7.931386129200746e-06 False False
10972.824999999999 3.4478372981538996e-05 -1.5707922793674989 -9.305002095061354e-06 -1.570841451684469 8.336639439221472e-05 3.6764144169865176e-05 False False
10972.845 3.151225973851979e-05 -1.5707922793661346 9.838734762013246e-06 -1.5707898815374683 2.7418136596679688e-05 -7.931386129200746e-06 False False
10972.865 -1.0315571920216371e-05 -1.570808549920553 6.977711812794496e-06 -1.5707617205446986 -3.0199159795074593e-07 2.0327206584624946e-09 False False
10972.885 6.216620931809302e-06 -1.570824762383932 1.889864076787262e-05 -1.5707776312250026 1.953411083377432e-05 2.0501618564594537e-05 False False
10972.904999999999 1.07221603684593e-05 -1.5708323917784632 -2.269744800287299e-05 -1.5707980595030726 1.1253356205997989e-05 8.702038940100465e-06 False False
10972.925 3.9053356886142865e-05 -1.570824762383932 -1.3828277587890625e-05 -1.570785908108821 3.5420878703007475e-05 3.244877007091418e-05 False False
10972.945 -6.024037496388246e-06 -1.5708290539183558 -1.8262862795381807e-05 -1.5708056888976039 -8.408223287403871e-06 -8.408223287403871e-06 False False
10972.965 -3.892580141240387e-05 -1.5708023510374964 -1.9073486328125e-06 -1.5708137951292933 -1.2222920553028871e-05 -7.931386129200746e-06 False False
10972.984999999999 -1.732503072560121e-06 -1.5708233318724574 -1.0770508197310846e-05 -1.5707653293360018 1.517534110462293e-05 -1.2222920553028871e-05 False False
10973.005 5.9866571973543614e-05 -1.570757691628689 -2.7087480702903122e-05 -1.570761293060361 -8.408223287403871e-06 -3.639851705372621e-06 False False
10973.025 5.533695002668537e-05 -1.570774440173711 -1.9073486328125e-06 -1.5708095035948695 -3.606477846318512e-05 2.9244898541946895e-05 False False
10973.045 8.848629659041762e-05 -1.570824762383932 -3.0719329515704885e-05 -1.5708300075926722 3.537289012456313e-05 -1.2222920553028871e-05 False False
10973.064999999999 1.3741973816649988e-05 -1.5708323917784632 -5.249712557997555e-07 -1.5708219013609828 2.7418136596679688e-05 -1.2222920553028871e-05 False False
10973.085 8.988380432128906e-05 -1.5708500347533167 -6.151199340820312e-05 -1.570773534982738 3.928993464796804e-05 -7.931386129200746e-06 False False
10973.105 0.0002460390387568623 -1.5708071194090785 -0.00010221004049526528 -1.5708018742003382 0.0001594066561665386 2.4953602405730635e-05 False False
10973.125 0.0005112290382385254 -1.5707788509192433 -0.0002770423889160156 -1.5707940603550306 0.000358476594556123 3.561432458809577e-05 False False
10973.144999999999 0.0008022189140319824 -1.5708404980101527 -0.0005049705505371094 -1.5707617205446986 0.0005981152062304318 0.00017281742475461215 False False
10973.164999999999 0.001138240098953247 -1.5709072552123011 -0.0007493793964385986 -1.5707497996157436 0.0008776020840741694 0.0003166187962051481 False False
10973.185 0.0016422569751739502 -1.5709597072997035 -0.0011059612734243274 -1.5707740930359542 0.001301356009207666 0.0004115104675292969 False False
10973.205 0.002337968209758401 -1.5709992847838343 -0.0015846788883209229 -1.5706263822397268 0.0018720492953434587 0.000679060525726527 False False
10973.225 0.003160962602123618 -1.5711232624449671 -0.002176612615585327 -1.5705787437367071 0.0025103650987148285 0.0008500870317220688 False False
10973.244999999999 0.0042976378463208675 -1.5712553463377894 -0.002964228391647339 -1.5704306062583164 0.003320455551147461 0.0011507486924529076 False False
10973.265 0.005675638094544411 -1.571505685845846 -0.003906243946403265 -1.5703031820342694 0.004362951032817364 0.001453399658203125 False False
10973.285 0.0072714099660515785 -1.571620603600973 -0.0051447865553200245 -1.5702157777598877 0.0056203873828053474 0.001917264424264431 False False
10973.305 0.009210268035531044 -1.5719520054259242 -0.0065378365106880665 -1.5700440687108603 0.007057574577629566 0.002448453800752759 False False
10973.324999999999 0.011409759521484375 -1.572195669213766 -0.00817155372351408 -1.5698727537276973 0.008694015443325043 0.003044164041057229 False False
10973.345 0.014119879342615604 -1.5723825893797816 -0.010000073350965977 -1.5696336771691968 0.010858304798603058 0.0037912256084382534 False False
10973.365 0.01699325442314148 -1.5726944408812464 -0.012144497595727444 -1.569458035785221 0.013157326728105545 0.004489231389015913 False False
10973.385 0.02023252844810486 -1.5731655559935511 -0.014345101080834866 -1.5692230027965088 0.015596731565892696 0.005363438278436661 False False
10973.404999999999 0.02381940744817257 -1.573498865167135 -0.0167896319180727 -1.5689557242770498 0.018222618848085403 0.006261882372200489 False False
10973.425 0.027589820325374603 -1.5739451847472132 -0.019408436492085457 -1.5686408938239147 0.021116992458701134 0.007266839034855366 False False
10973.445 0.031621336936950684 -1.5744224987425746 -0.022190548479557037 -1.5683057676399876 0.02433500997722149 0.008345439098775387 False False
10973.465 0.03599455952644348 -1.574930330316061 -0.02535608410835266 -1.5679982123295595 0.02777591533958912 0.009520291350781918 False False
10973.484999999999 0.04054883122444153 -1.5754238567748011 -0.028603574261069298 -1.5676636975589027 0.03127288073301315 0.0107453977689147 False False
10973.505 0.04542933776974678 -1.5761376820006312 -0.0320810042321682 -1.5672249121456225 0.03506851941347122 0.012043575756251812 False False
10973.525 0.050573837012052536 -1.576766153375143 -0.03591293841600418 -1.566814307389297 0.03901783749461174 0.013457839377224445 False False
10973.545 0.05614495277404785 -1.577339311639303 -0.03972737863659859 -1.5664597314647217 0.043211113661527634 0.014898302033543587 False False
10973.564999999999 0.06192539259791374 -1.5780583820738734 -0.04376494884490967 -1.5659655763632436 0.04765169695019722 0.01638823375105858 False False
10973.585 0.06795278191566467 -1.578808446923727 -0.047952983528375626 -1.565499057793506 0.05226851627230644 0.017956137657165527 False False
10973.605 0.0741811990737915 -1.5794440708556117 -0.05236274003982544 -1.565000371342041 0.057117391377687454 0.01963757537305355 False False
10973.625 0.08065131306648254 -1.5802623234190882 -0.056942008435726166 -1.5644654210521658 0.062178969383239746 0.02139940857887268 False False
10973.644999999999 0.08750128000974655 -1.581038614312643 -0.061843618750572205 -1.563923401558288 0.06730309873819351 0.02319909632205963 False False
10973.664999999999 0.09471970051527023 -1.5818430385985316 -0.06693635880947113 -1.5632688959925254 0.07279665768146515 0.02507982775568962 False False
10973.685 0.10219462215900421 -1.5827580891051234 -0.07223391532897949 -1.5627347270822902 0.07870139926671982 0.02702903375029564 False False
10973.705 0.10982903838157654 -1.5838166675963343 -0.07769469171762466 -1.562200478543975 0.08447445183992386 0.029032308608293533 False False
10973.725 0.1177772581577301 -1.584691663781637 -0.08321450650691986 -1.5615139289623876 0.09068753570318222 0.031164465472102165 False False
10973.744999999999 0.12608367204666138 -1.5855986080565394 -0.0889827311038971 -1.560895806444325 0.0970940813422203 0.03332887589931488 False False
10973.765 0.13458263874053955 -1.58656706432485 -0.09504721313714981 -1.5601175933009763 0.10352370887994766 0.03561689332127571 False False
10973.785 0.14333513379096985 -1.5876218281187953 -0.10132253915071487 -1.5594433474219223 0.11040152609348297 0.03793321177363396 False False
10973.805 0.15236583352088928 -1.5887299976744593 -0.10769835114479065 -1.5587895301035424 0.11747138947248459 0.04034937545657158 False False
10973.824999999999 0.16192591190338135 -1.5898314915099085 -0.11430323123931885 -1.5580716173029323 0.12460220605134964 0.04283958300948143 False False
10973.845 0.17151981592178345 -1.5910340748228968 -0.12102147936820984 -1.5572421115687867 0.13191889226436615 0.045435477048158646 False False
10973.865 0.18137335777282715 -1.5920459232726039 -0.12805038690567017 -1.5564623123830934 0.13950027525424957 0.04803682118654251 False False
10973.885 0.19163911044597626 -1.5932179890074671 -0.13534873723983765 -1.5556037680110713 0.1472378969192505 0.05072740092873573 False False
10973.904999999999 0.20210199058055878 -1.5945202312865199 -0.14275462925434113 -1.5549583949944754 0.15558792650699615 0.053510017693042755 False False
10973.925 0.21288083493709564 -1.5959187946715296 -0.15026000142097473 -1.5540876642665644 0.1639028787612915 0.056405793875455856 False False
10973.945 0.22396892309188843 -1.5971933803954066 -0.15807406604290009 -1.5531829514405509 0.17237605154514313 0.059227343648672104 False False
10973.965 0.23522363603115082 -1.5983950100340785 -0.16607490181922913 -1.5522416711649676 0.18110142648220062 0.06228594854474068 False False
10973.984999999999 0.24670517444610596 -1.599818845788473 -0.17420555651187897 -1.5513729632696887 0.1899615377187729 0.06533648818731308 False False
10974.005 0.25875818729400635 -1.6013051472105921 -0.18259894847869873 -1.5504122369787474 0.19901442527770996 0.06849385052919388 False False
10974.025 0.2708341181278229 -1.6026174030699671 -0.19128479063510895 -1.5493512724391003 0.208522230386734 0.0717276856303215 False False
10974.045 0.28331121802330017 -1.604112287560934 -0.20016254484653473 -1.5484257613173504 0.21791326999664307 0.07501887530088425 False False
10974.064999999999 0.2960319519042969 -1.6055332622923792 -0.20900878310203552 -1.547540596952178 0.227894127368927 0.07836522907018661 False False
10974.085 0.30901604890823364 -1.6070262394347132 -0.21807369589805603 -1.546515706261136 0.237976536154747 0.08178572356700897 False False
10974.105 0.32233530282974243 -1.6084424457945765 -0.2276361733675003 -1.5453622576645394 0.24809473752975464 0.08533775806427002 False False
10974.125 0.33583587408065796 -1.6101228199400843 -0.2371748685836792 -1.5444137279740353 0.25837188959121704 0.08890293538570404 False False
10974.144999999999 0.3497890532016754 -1.611845155755514 -0.24686352908611298 -1.543185607796051 0.26910871267318726 0.09251189976930618 False False
10974.164999999999 0.36357951164245605 -1.613424917260641 -0.25699183344841003 -1.542060961281397 0.2796887457370758 0.09620257467031479 False False
10974.185 0.3776504099369049 -1.6150747738280238 -0.2666599750518799 -1.541067973976471 0.2906860113143921 0.09992370754480362 False False
10974.205 0.39154472947120667 -1.6167870960631312 -0.2763078212738037 -1.5400229965201397 0.3015013635158539 0.10364336520433426 False False
10974.225 0.4054828882217407 -1.6183864078917445 -0.2863369286060333 -1.538822927778103 0.3121035397052765 0.10745643824338913 False False
10974.244999999999 0.4195873439311981 -1.6200148067870082 -0.2962743937969208 -1.5378015910140057 0.32274171710014343 0.11104150861501694 False False
10974.265 0.4334448277950287 -1.6217786274352015 -0.3059562146663666 -1.5366733607700844 0.3337422013282776 0.11474151164293289 False False
10974.285 0.4474639594554901 -1.6233240566649378 -0.3159010708332062 -1.5354080472937603 0.3441246747970581 0.11846411973237991 False False
10974.305 0.46131882071495056 -1.624894758264059 -0.32577112317085266 -1.5344570514610787 0.35506272315979004 0.1221284344792366 False False
10974.324999999999 0.47544169425964355 -1.6266399822630824 -0.33551284670829773 -1.5333708685687562 0.3659966289997101 0.12581467628479004 False False
10974.345 0.4892522394657135 -1.6282540760436 -0.34545427560806274 -1.532310989951231 0.37652289867401123 0.12953510880470276 False False
10974.365 0.5032250285148621 -1.6298562488951625 -0.3554023802280426 -1.531194084589817 0.3871612548828125 0.1332249939441681 False False
10974.385 0.5171446204185486 -1.6316024265685023 -0.36506664752960205 -1.5300693784705182 0.3982251286506653 0.13700592517852783 False False
10974.404999999999 0.5311979055404663 -1.6331964931883753 -0.37488484382629395 -1.528862041687109 0.4087473750114441 0.14066670835018158 False False
10974.425 0.5451521277427673 -1.634714742700094 -0.38496148586273193 -1.5277409826270123 0.41949716210365295 0.14430002868175507 False False
10974.445 0.5590603351593018 -1.636453767816061 -0.3946705460548401 -1.526812033062317 0.4305708110332489 0.14796747267246246 False False
10974.465 0.5731836557388306 -1.6381031475462855 -0.4044473469257355 -1.5257076893797894 0.4410889744758606 0.1516627073287964 False False
10974.484999999999 0.5870264172554016 -1.639616151849264 -0.41444480419158936 -1.5245384250632306 0.45161429047584534 0.15537096560001373 False False
10974.505 0.6010354161262512 -1.641195913354391 -0.4242934286594391 -1.5235182915678998 0.46265581250190735 0.1590586006641388 False False
10974.525 0.6149568557739258 -1.6428848705687464 -0.4340992271900177 -1.522257262175419 0.4732067286968231 0.16277900338172913 False False
10974.545 0.6289542317390442 -1.6444364986815394 -0.44403281807899475 -1.5211046387306233 0.4839894771575928 0.166486918926239 False False
10974.564999999999 0.6428166627883911 -1.6461297474303187 -0.4539034366607666 -1.520188183789589 0.4949800968170166 0.17020276188850403 False False
10974.585 0.6568410396575928 -1.6479231319823207 -0.46363765001296997 -1.519155816440918 0.5055427551269531 0.17385874688625336 False False
10974.605 0.670905590057373 -1.6494504414000453 -0.4735666513442993 -1.5179588732174416 0.5161345601081848 0.17754915356636047 False False
10974.625 0.6846714019775391 -1.6510898075499476 -0.4835588335990906 -1.516869993214943 0.5270248651504517 0.18125732243061066 False False
10974.644999999999 0.6987292766571045 -1.6528150043883265 -0.4932061433792114 -1.5157491502216835 0.537814736366272 0.1849653571844101 False False
10974.664999999999 0.7127301692962646 -1.6544567547240199 -0.5031464695930481 -1.5145367060652752 0.5485259294509888 0.18864966928958893 False False
10974.685 0.7266212105751038 -1.656046529809469 -0.5131322145462036 -1.5136002463153382 0.5593323707580566 0.19235815107822418 False False
10974.705 0.7405300140380859 -1.6577950916686 -0.5227027535438538 -1.5124628108790894 0.5699045062065125 0.19608472287654877 False False
10974.725 0.7546306252479553 -1.6594063244261683 -0.5325907468795776 -1.5113387753120442 0.5807100534439087 0.1997809112071991 False False
10974.744999999999 0.7685511112213135 -1.6609612903990687 -0.5426525473594666 -1.5102663908949872 0.5914878249168396 0.2033872753381729 False False
10974.765 0.7824937701225281 -1.662703653375143 -0.5524207353591919 -1.5091370467892666 0.6023213863372803 0.20713698863983154 False False
10974.785 0.7965242862701416 -1.6642834148802699 -0.5621318817138672 -1.5079368960908432 0.6130629181861877 0.21090121567249298 False False
10974.805 0.8104519844055176 -1.6658340893187464 -0.5721209645271301 -1.5068324816278 0.6237106323242188 0.21454282104969025 False False
10974.824999999999 0.824422299861908 -1.6674772701659144 -0.5820208787918091 -1.5059275192073365 0.6343916654586792 0.2182880938053131 False False
10974.845 0.8383798003196716 -1.6691967449583949 -0.5917741060256958 -1.504762665634491 0.6452081799507141 0.22186249494552612 False False
10974.865 0.8523870706558228 -1.6707664928831996 -0.6016771197319031 -1.503690892165043 0.6558164358139038 0.22561024129390717 False False
10974.885 0.86622154712677 -1.672316690484518 -0.6115460991859436 -1.5025715467384835 0.6667228937149048 0.2293177992105484 False False
10974.904999999999 0.8802550435066223 -1.673986097375387 -0.6212530136108398 -1.5013084200075646 0.6775980591773987 0.2330320030450821 False False
10974.925 0.8942185640335083 -1.6755439243712367 -0.6313299536705017 -1.5003107276609917 0.6881527304649353 0.23674768209457397 False False
10974.945 0.9081241488456726 -1.6772319279112757 -0.6411737203598022 -1.49930293977771 0.6988596320152283 0.24044081568717957 False False
10974.965 0.9221996665000916 -1.678953310052389 -0.6508409976959229 -1.4981561985662957 0.7098064422607422 0.24411237239837646 False False
10974.984999999999 0.9361433982849121 -1.680575510064596 -0.6606955528259277 -1.496989556854107 0.7203089594841003 0.24783222377300262 False False
10975.005 0.9500726461410522 -1.6821543178954066 -0.6707333326339722 -1.4959744972041626 0.7311496734619141 0.2514296770095825 False False
10975.025 0.963959276676178 -1.6839310131468714 -0.6804800033569336 -1.4948473510197182 0.7421543002128601 0.2551693022251129 False False
10975.045 0.9779849648475647 -1.6856285534300746 -0.6903589367866516 -1.4935965475491066 0.7525424957275391 0.25886642932891846 False False
10975.064999999999 0.9919108748435974 -1.6870838604369105 -0.7003768682479858 -1.4926299837282677 0.7632745504379272 0.2625810503959656 False False
10975.085 1.0059000253677368 -1.6888343296446742 -0.7100409269332886 -1.4915623602322121 0.7742511034011841 0.2662956118583679 False False
10975.105 1.0199553966522217 -1.6904713116087855 -0.7198923826217651 -1.4903834250620385 0.7848606109619141 0.2700534164905548 False False
10975.125 1.03387451171875 -1.6919809780516566 -0.7299025654792786 -1.4893007066896935 0.7956770062446594 0.27369534969329834 False False
10975.144999999999 1.0477474927902222 -1.6937128506102503 -0.7397101521492004 -1.488242008989193 0.8066549301147461 0.2773981988430023 False False
10975.164999999999 1.0617750883102417 -1.6954032383360804 -0.7493650317192078 -1.4870318186334153 0.8171271085739136 0.2810705602169037 False False
10975.185 1.0758631229400635 -1.6969343624510707 -0.7593976855278015 -1.4859643590501328 0.8277234435081482 0.2846936583518982 False False
10975.205 1.0895971059799194 -1.6986357174315394 -0.7692990899085999 -1.4850449201515694 0.8386853337287903 0.2884477376937866 False False
10975.225 1.1036845445632935 -1.7003003559508265 -0.7789590954780579 -1.4838742402246972 0.8493202924728394 0.29211223125457764 False False
10975.244999999999 1.117653727531433 -1.7018686733641566 -0.7888349294662476 -1.48273557544265 0.8601768016815186 0.2957821190357208 False False
10975.265 1.1316051483154297 -1.7033583126463832 -0.7988173961639404 -1.4816367712667962 0.8709357976913452 0.29958170652389526 False False
10975.285 1.1455293893814087 -1.7051083050169886 -0.8085522651672363 -1.4804060471108933 0.8815932273864746 0.3032473027706146 False False
10975.305 1.1595243215560913 -1.7066556415953578 -0.8183925151824951 -1.4793311145952721 0.8922765851020813 0.30690351128578186 False False
10975.324999999999 1.1734797954559326 -1.7082749805846156 -0.8285136222839355 -1.4783996430090447 0.9031407833099365 0.31062325835227966 False False
10975.345 1.1873960494995117 -1.7101298771300257 -0.8381898999214172 -1.4772447508624573 0.9137660264968872 0.31427276134490967 False False
10975.365 1.2014561891555786 -1.7116567097105921 -0.8480584621429443 -1.476101854150631 0.9246495366096497 0.3180397152900696 False False
10975.385 1.215363621711731 -1.7133118114867152 -0.8579822778701782 -1.4749554258636017 0.9354586601257324 0.3217122256755829 False False
10975.404999999999 1.2293096780776978 -1.7149950466551722 -0.867760181427002 -1.4738843751004715 0.9459859728813171 0.3254421353340149 False False
10975.425 1.2432670593261719 -1.716649671594137 -0.8776023983955383 -1.4727738362601777 0.9567530155181885 0.3291572332382202 False False
10975.445 1.2573304176330566 -1.7181593380370082 -0.8875489234924316 -1.4717024725726624 0.9675512909889221 0.3327982425689697 False False
10975.465 1.2712472677230835 -1.719947954217428 -0.8973785638809204 -1.4706829574755211 0.9784700274467468 0.33650845289230347 False False
10975.484999999999 1.2851170301437378 -1.7215553722777308 -0.9071207642555237 -1.469588504438736 0.9891427755355835 0.3402145802974701 False False
10975.505 1.2991787195205688 -1.7230855427184046 -0.9170313477516174 -1.4684181821397324 0.9999157786369324 0.3438575565814972 False False
10975.525 1.3131309747695923 -1.724805017510885 -0.9269168972969055 -1.4672707107714196 1.0105119943618774 0.3475266993045807 False False
10975.545 1.3270198106765747 -1.7264591656126917 -0.9367098808288574 -1.4661677044681092 1.021256685256958 0.351287305355072 False False
10975.564999999999 1.3410240411758423 -1.7280451260008753 -0.9466204643249512 -1.4650212091258545 1.031920075416565 0.35499307513237 False False
10975.585 1.3550097942352295 -1.7296945057311 -0.9565269947052002 -1.4640897822431107 1.0428975820541382 0.35868874192237854 False False
10975.605 1.3689788579940796 -1.7313977680602015 -0.9662668704986572 -1.4628746894053002 1.0537261962890625 0.36237069964408875 False False
10975.625 1.3829220533370972 -1.7328664265074671 -0.9762142896652222 -1.461796448831894 1.0643051862716675 0.36605969071388245 False False
10975.644999999999 1.396892786026001 -1.7344633541502894 -0.9861973524093628 -1.4606857013753434 1.074986219406128 0.3698008358478546 False False
10975.664999999999 1.410803198814392 -1.7362657986082972 -0.9958691596984863 -1.4595705804279824 1.085742473602295 0.37345266342163086 False False
10975.685 1.4248182773590088 -1.7377802334227503 -1.0056178569793701 -1.4584235933474083 1.0964430570602417 0.37710610032081604 False False
10975.705 1.4387599229812622 -1.7393890819945277 -1.0157103538513184 -1.4573844534209748 1.1073591709136963 0.3808352053165436 False False
10975.725 1.4527356624603271 -1.7411853275694789 -1.0254100561141968 -1.4564295646599312 1.118152141571045 0.3845561742782593 False False
10975.744999999999 1.4667924642562866 -1.7427898846068324 -1.0352222919464111 -1.4551706922105332 1.1287771463394165 0.3881866931915283 False False
10975.765 1.4807071685791016 -1.7443624935545863 -1.0451687574386597 -1.4540799495628853 1.139357328414917 0.39195379614830017 False False
10975.785 1.4945586919784546 -1.7461391888060511 -1.0549983978271484 -1.4529688668302079 1.1502856016159058 0.3956122100353241 False False
10975.805 1.5085598230361938 -1.7477942905821742 -1.0648823976516724 -1.4517935824445267 1.1608909368515015 0.39932551980018616 False False
10975.824999999999 1.5225245952606201 -1.7493306599059046 -1.0748411417007446 -1.450775147681572 1.1718223094940186 0.4030466377735138 False False
10975.845 1.5364477634429932 -1.7509857616820277 -1.0847035646438599 -1.4497434210828324 1.1826422214508057 0.40671876072883606 False False
10975.865 1.5505516529083252 -1.7527276478209437 -1.0943838357925415 -1.448593260054924 1.193251132965088 0.41039952635765076 False False
10975.885 1.5644991397857666 -1.7541748485960902 -1.1042698621749878 -1.4474388521960755 1.2038582563400269 0.4141128957271576 False False
10975.904999999999 1.5783079862594604 -1.755857606927389 -1.1141797304153442 -1.4464357656291504 1.2146786451339722 0.4178546667098999 False False
10975.925 1.5924081802368164 -1.7575866184630335 -1.1238956451416016 -1.4452930998853226 1.2255462408065796 0.42152315378189087 False False
10975.945 1.6064445972442627 -1.7591048679747523 -1.1338335275650024 -1.4441175621799012 1.2362369298934937 0.4252532422542572 False False
10975.965 1.6202489137649536 -1.7608500919737757 -1.1439112424850464 -1.443153978591301 1.2471030950546265 0.4289622902870178 False False
10975.984999999999 1.634153962135315 -1.7625791035094203 -1.153498649597168 -1.4420596075109025 1.257642149925232 0.4325993061065674 False False
10976.005 1.648280143737793 -1.7639814815916957 -1.1633517742156982 -1.4408718061498185 1.2683734893798828 0.43628960847854614 False False
10976.025 1.6622017621994019 -1.7655564747252406 -1.1734954118728638 -1.4398034375957032 1.2791881561279297 0.4399660527706146 False False
10976.045 1.6761207580566406 -1.7673279247679652 -1.1831964254379272 -1.4386309844306489 1.2899473905563354 0.4436947703361511 False False
10976.064999999999 1.690106987953186 -1.7688805065550746 -1.1929570436477661 -1.4375467610410233 1.3007818460464478 0.44733625650405884 False False
10976.085 1.7039234638214111 -1.770421644250387 -1.2028391361236572 -1.4365387719920655 1.311464548110962 0.45107027888298035 False False
10976.105 1.717479944229126 -1.7722627125182093 -1.212391972541809 -1.4355659943870087 1.3218116760253906 0.4546036720275879 False False
10976.125 1.7306997776031494 -1.7738281689085902 -1.2216448783874512 -1.4344214063933869 1.3318302631378174 0.4581338167190552 False False
10976.144999999999 1.7437797784805298 -1.7751795254149378 -1.230828046798706 -1.433233307009079 1.3420698642730713 0.4615759253501892 False False
10976.164999999999 1.7564750909805298 -1.7767821751036585 -1.2398502826690674 -1.4323285830071946 1.3518192768096924 0.46499407291412354 False False
10976.185 1.7689106464385986 -1.7784096203246058 -1.2486417293548584 -1.4314280611327668 1.3613587617874146 0.46826422214508057 False False
10976.205 1.7811527252197266 -1.779675146142477 -1.2570719718933105 -1.430306838159897 1.3708505630493164 0.47145509719848633 False False
10976.225 1.793046236038208 -1.7810307941832484 -1.2657570838928223 -1.4294697654298325 1.3797935247421265 0.4745981693267822 False False
10976.244999999999 1.804623007774353 -1.7824369869627894 -1.2739214897155762 -1.4286447775414963 1.3887534141540527 0.47767767310142517 False False
10976.265 1.8159291744232178 -1.7838241062560023 -1.281646728515625 -1.4276601535132905 1.3975450992584229 0.48067358136177063 False False
10976.285 1.8269360065460205 -1.7849942646422328 -1.289494514465332 -1.426755742435791 1.4059293270111084 0.48361465334892273 False False
10976.305 1.8377368450164795 -1.7862211666502894 -1.2973172664642334 -1.4258782130530854 1.4143890142440796 0.48648396134376526 False False
10976.324999999999 1.848187804222107 -1.787600656548971 -1.3046780824661255 -1.4251454186490555 1.422448992729187 0.48928508162498474 False False
10976.345 1.8584316968917847 -1.7887770138182582 -1.311707615852356 -1.4242275220206757 1.4303382635116577 0.49196216464042664 False False
10976.365 1.8683961629867554 -1.7898527584471644 -1.318697452545166 -1.4235263627818604 1.4379301071166992 0.4945831000804901 False False
10976.385 1.8779205083847046 -1.791044374505514 -1.3257555961608887 -1.4228402835181733 1.4452471733093262 0.49713748693466187 False False
10976.404999999999 1.887384295463562 -1.792309423486227 -1.3325239419937134 -1.4221343857100983 1.4524815082550049 0.4995376467704773 False False
10976.425 1.8966561555862427 -1.7932688198485316 -1.3386346101760864 -1.4212613564780732 1.4595476388931274 0.5019795298576355 False False
10976.445 1.9051976203918457 -1.7940761051573695 -1.3446927070617676 -1.4206839811852952 1.4662470817565918 0.5043134689331055 False False
10976.465 1.9136834144592285 -1.7951017818846644 -1.350859522819519 -1.4200060826591034 1.4728649854660034 0.5065752267837524 False False
10976.484999999999 1.922232747077942 -1.7962376079955042 -1.3569632768630981 -1.4193285268596192 1.4793999195098877 0.5087984800338745 False False
10976.505 1.9301419258117676 -1.7971369228758753 -1.3625887632369995 -1.4186863166144867 1.4854600429534912 0.5108111500740051 False False
10976.525 1.9376214742660522 -1.797896524468893 -1.3677940368652344 -1.417988733654358 1.4912408590316772 0.512935221195221 False False
10976.545 1.9452391862869263 -1.7987481556334437 -1.3728147745132446 -1.4173711103251954 1.497056484222412 0.5149266719818115 False False
10976.564999999999 1.952513575553894 -1.7997118435301722 -1.3779332637786865 -1.4169080716422577 1.5025097131729126 0.5168221592903137 False False
10976.585 1.959141731262207 -1.80051912883901 -1.382974624633789 -1.4164779645255585 1.5077192783355713 0.5186372995376587 False False
10976.605 1.965616226196289 -1.801342626611227 -1.3876882791519165 -1.415907935505249 1.5127453804016113 0.5203444957733154 False False
10976.625 1.9720325469970703 -1.8019448719420375 -1.392075777053833 -1.4152811181596299 1.5176597833633423 0.5219792723655701 False False
10976.644999999999 1.9781049489974976 -1.8026963673033656 -1.3962880373001099 -1.4148874890855332 1.522306203842163 0.5235885381698608 False False
10976.664999999999 1.9838393926620483 -1.8034020862975062 -1.400270700454712 -1.4144450438073655 1.5267096757888794 0.5251399874687195 False False
10976.685 1.9893338680267334 -1.8040954075255335 -1.4041352272033691 -1.4140177828124543 1.5309940576553345 0.5266048908233643 False False
10976.705 1.9944125413894653 -1.8046652279295863 -1.4077448844909668 -1.4135838013938447 1.5349605083465576 0.5279650092124939 False False
10976.725 1.999254584312439 -1.8052107296385707 -1.411306381225586 -1.4132893693498154 1.5387272834777832 0.5291543006896973 False False
10976.744999999999 2.0039258003234863 -1.805777212182516 -1.4146620035171509 -1.412786216740944 1.5423827171325684 0.5304416418075562 False False
10976.765 2.0083470344543457 -1.8062941036620082 -1.4177123308181763 -1.412495420580246 1.5456619262695312 0.5316311717033386 False False
10976.785 2.012394428253174 -1.806744237939352 -1.4206180572509766 -1.412144423728325 1.5487490892410278 0.5326759219169617 False False
10976.805 2.0162250995635986 -1.807234903375143 -1.4232467412948608 -1.411873684530594 1.551632285118103 0.5337228178977966 False False
10976.824999999999 2.0196783542633057 -1.8076778850951136 -1.4256556034088135 -1.4115542781404038 1.5543519258499146 0.534586489200592 False False
10976.845 2.0228660106658936 -1.8080083332457484 -1.427966594696045 -1.411298782830574 1.5567868947982788 0.5354242324829102 False False
10976.865 2.0258145332336426 -1.8083025417723597 -1.4299455881118774 -1.411104069357254 1.5591785907745361 0.5362380146980286 False False
10976.885 2.028529644012451 -1.8086406193175257 -1.4318203926086426 -1.4109046918204804 1.5612014532089233 0.5369648337364197 False False
10976.904999999999 2.0309252738952637 -1.8089734516539515 -1.4334774017333984 -1.4107853782228013 1.562912940979004 0.5376195311546326 False False
10976.925 2.0329647064208984 -1.8092128239073695 -1.4350850582122803 -1.410605714922287 1.5646049976348877 0.5381573438644409 False False
10976.945 2.034869909286499 -1.8093487224974574 -1.4363257884979248 -1.4104502511075516 1.566057562828064 0.5386152267456055 False False
10976.965 2.0364367961883545 -1.809561391870016 -1.43739652633667 -1.4103428435376664 1.5672810077667236 0.5390381217002869 False False
10976.984999999999 2.0376646518707275 -1.8096944294371546 -1.4382822513580322 -1.4102472376874466 1.5682564973831177 0.5393896698951721 False False
10977.005 2.0386972427368164 -1.8097597561278285 -1.438978910446167 -1.4101391446641465 1.5689915418624878 0.5396683216094971 False False
10977.025 2.0394368171691895 -1.809922834435934 -1.4395381212234497 -1.410071240072586 1.5694785118103027 0.5398284196853638 False False
10977.045 2.0398356914520264 -1.8099242649474085 -1.4398868083953857 -1.4100996118834992 1.5698111057281494 0.5398643612861633 False False
10977.064999999999 2.039930582046509 -1.8099256954588832 -1.439949631690979 -1.4100312155536194 1.5698864459991455 0.5399076342582703 False False
10977.085 2.0399200916290283 -1.8099657497801722 -1.440066933631897 -1.4097444278052826 1.569826364517212 0.5398955941200256 False False
10977.105 2.039808511734009 -1.810007711450094 -1.4405485391616821 -1.4092938613942643 1.5698188543319702 0.5398738384246826 False False
10977.125 2.039952039718628 -1.8101545772948207 -1.4412832260131836 -1.408771739607193 1.5697674751281738 0.5400316715240479 False False
10977.144999999999 2.0398995876312256 -1.810333868066305 -1.4421896934509277 -1.4078428757241745 1.5695310831069946 0.5401370525360107 False False
10977.164999999999 2.039956569671631 -1.8105155430235804 -1.443310022354126 -1.4066388320973893 1.569362998008728 0.5400872230529785 False False
10977.185 2.0400094985961914 -1.810681482354635 -1.4447698593139648 -1.4049393695643921 1.5690913200378418 0.5401427745819092 False False
10977.205 2.0399770736694336 -1.8109446964659632 -1.4465750455856323 -1.4032500696233292 1.5687304735183716 0.5401939749717712 False False
10977.225 2.039975881576538 -1.8112050495543421 -1.4486052989959717 -1.401223899131157 1.5683140754699707 0.540306806564331 False False
10977.244999999999 2.0399715900421143 -1.811458250085348 -1.4509294033050537 -1.3988879483989258 1.5678505897521973 0.5403460264205933 False False
10977.265 2.0399672985076904 -1.8118277988829554 -1.4533926248550415 -1.3961371344378968 1.5673834085464478 0.5404712557792664 False False
10977.285 2.0399954319000244 -1.8121372661986292 -1.4562166929244995 -1.3932942760041733 1.5667792558670044 0.5405421257019043 False False
10977.305 2.0399672985076904 -1.812570711175436 -1.4592965841293335 -1.3900764149478455 1.5661193132400513 0.5406745076179504 False False
10977.324999999999 2.0400583744049072 -1.8129879436888636 -1.4625271558761597 -1.3866561663201828 1.5654791593551636 0.5407321453094482 False False
10977.345 2.040013074874878 -1.8134666881956996 -1.466151475906372 -1.382792742257454 1.564771294593811 0.5409215688705444 False False
10977.365 2.0400280952453613 -1.814021726647848 -1.4700223207473755 -1.3788209718516846 1.5639591217041016 0.5410870313644409 False False
10977.385 2.0399832725524902 -1.8146029911436976 -1.4742302894592285 -1.3744931381991883 1.5631352663040161 0.5411695837974548 False False
10977.404999999999 2.0399506092071533 -1.8151704273619593 -1.4788060188293457 -1.3699186158231278 1.5622355937957764 0.5413329005241394 False False
10977.425 2.0399670600891113 -1.8157807789244593 -1.4835145473480225 -1.3650482308915635 1.5613882541656494 0.5414558053016663 False False
10977.445 2.0399625301361084 -1.8165513477721156 -1.4884381294250488 -1.359846980576851 1.560371994972229 0.541590690612793 False False
10977.465 2.0400161743164062 -1.817179342309469 -1.493600606918335 -1.3544583332589646 1.5592193603515625 0.5417745113372803 False False
10977.484999999999 2.0400116443634033 -1.8178683720030726 -1.4988752603530884 -1.3487617832473298 1.5581318140029907 0.5419943332672119 False False
10977.505 2.040004253387451 -1.8186384640135707 -1.5047777891159058 -1.3428568851998826 1.5570203065872192 0.5421620607376099 False False
10977.525 2.0400116443634033 -1.8194958172240199 -1.5109798908233643 -1.3365256202271958 1.5557972192764282 0.5423325300216675 False False
10977.545 2.0399997234344482 -1.8203584156432093 -1.517386794090271 -1.330023781662323 1.5545815229415894 0.5425480604171753 False False
10977.564999999999 2.0399744510650635 -1.8211914501585902 -1.523756980895996 -1.323137105708458 1.5532492399215698 0.5427917838096619 False False
10977.585 2.0399909019470215 -1.8221079311766566 -1.5304889678955078 -1.3160659235766907 1.551853895187378 0.5429952144622803 False False
10977.605 2.0399699211120605 -1.8230468235411585 -1.5377269983291626 -1.308688001041748 1.550490140914917 0.5432382225990295 False False
10977.625 2.0400073528289795 -1.824050088922018 -1.5453163385391235 -1.3009520036033173 1.5489336252212524 0.5434609055519104 False False
10977.644999999999 2.0399832725524902 -1.825083395043844 -1.5530003309249878 -1.293071375494339 1.5474985837936401 0.5437418222427368 False False
10977.664999999999 2.0399773120880127 -1.8260895214476527 -1.5607167482376099 -1.284788118009903 1.545923113822937 0.544058084487915 False False
10977.685 2.0399997234344482 -1.8271128139891566 -1.5688745975494385 -1.276255653505661 1.5442242622375488 0.544324517250061 False False
10977.705 2.0399625301361084 -1.8282824955382289 -1.5775107145309448 -1.2675815385631104 1.5425232648849487 0.5445674061775208 False False
10977.725 2.0399832725524902 -1.8294836483397425 -1.5863456726074219 -1.25857766092334 1.540824055671692 0.5448501706123352 False False
10977.744999999999 2.039971351623535 -1.8306142292418421 -1.5948494672775269 -1.2492380899241944 1.5390000343322754 0.545120894908905 False False
10977.765 2.03999662399292 -1.831651350060934 -1.6035988330841064 -1.2402409476092835 1.537208080291748 0.5454680919647217 False False
10977.785 2.04002046585083 -1.8330584965147914 -1.6123896837234497 -1.2315870088389893 1.5355126857757568 0.5457326173782349 False False
10977.805 2.0399835109710693 -1.8341828785338343 -1.6204862594604492 -1.2231049102595826 1.5338972806930542 0.5460196733474731 False False
10977.824999999999 2.0400116443634033 -1.8349997005858363 -1.6280806064605713 -1.2147927743247529 1.5323891639709473 0.546258270740509 False False
10977.845 2.0399997234344482 -1.8360864124693812 -1.6357742547988892 -1.206769512300827 1.5307708978652954 0.5465221405029297 False False
10977.865 2.040024995803833 -1.8371716938414515 -1.6434162855148315 -1.1995221835425873 1.5293933153152466 0.5467694997787476 False False
10977.885 2.0400116443634033 -1.838090559045309 -1.6503448486328125 -1.1920131605914612 1.5279325246810913 0.5470412969589233 False False
10977.904999999999 2.04002046585083 -1.8388554058470667 -1.6568366289138794 -1.1848189693740387 1.5266790390014648 0.5472565293312073 False False
10977.925 2.03999662399292 -1.8397094211974085 -1.6635146141052246 -1.178059772854187 1.525325059890747 0.5474429130554199 False False
10977.945 2.0400116443634033 -1.840773721734518 -1.670147180557251 -1.171682522898056 1.5240719318389893 0.5476505756378174 False False
10977.965 2.040032386779785 -1.8415380916991175 -1.6761682033538818 -1.1653846961310883 1.5228137969970703 0.547853946685791 False False
10977.984999999999 2.040004253387451 -1.8422352276244105 -1.6816115379333496 -1.1593315464309235 1.521668791770935 0.5480825304985046 False False
10978.005 2.0399506092071533 -1.8428598843016566 -1.6870025396347046 -1.1536886555007477 1.520571231842041 0.5482663512229919 False False
10978.025 2.0400071144104004 -1.8436724148192347 -1.6923024654388428 -1.148412899380066 1.519637107849121 0.5483684539794922 False False
10978.045 2.0399909019470215 -1.844313760797018 -1.6972897052764893 -1.1433219474605103 1.5185259580612183 0.5485240817070007 False False
10978.064999999999 2.0399298667907715 -1.844945570031637 -1.7019821405410767 -1.13842065752063 1.517588496208191 0.5487286448478699 False False
10978.085 2.0399951934814453 -1.8455783329405726 -1.706429123878479 -1.1338364344886322 1.5167832374572754 0.5488355159759521 False False
10978.105 2.0399551391601562 -1.8460823498167933 -1.7104592323303223 -1.1296984416297455 1.515916109085083 0.5490083694458008 False False
10978.125 2.040008544921875 -1.8465620479979457 -1.7142361402511597 -1.1255871814540406 1.515138030052185 0.5491597652435303 False False
10978.144999999999 2.0400235652923584 -1.847055574456686 -1.7176934480667114 -1.1219183665565033 1.5143548250198364 0.5492541790008545 False False
10978.164999999999 2.039975881576538 -1.8474976025023402 -1.721052646636963 -1.1184606415084382 1.5137604475021362 0.5493745803833008 False False
10978.185 2.0399997234344482 -1.8479706249632777 -1.7241733074188232 -1.1153151255897065 1.5132020711898804 0.5494697093963623 False False
10978.205 2.0399997234344482 -1.848281045953268 -1.7269829511642456 -1.1123629373363038 1.5125541687011719 0.5495621562004089 False False
10978.225 2.0399832725524902 -1.8485962353148402 -1.7295145988464355 -1.1098911625197907 1.5121320486068726 0.549657940864563 False False
10978.244999999999 2.0399744510650635 -1.8489610157408656 -1.7318984270095825 -1.1074512165835877 1.511612892150879 0.5497131943702698 False False
10978.265 2.04002046585083 -1.8492232761778773 -1.7338863611221313 -1.1054566961577912 1.5112135410308838 0.5497808456420898 False False
10978.285 2.0400495529174805 -1.8494445286192835 -1.7354148626327515 -1.1036930543235322 1.510878324508667 0.5498209595680237 False False
10978.305 2.0399670600891113 -1.8495294056334437 -1.7368438243865967 -1.1022477906993409 1.5106112957000732 0.5499132871627808 False False
10978.324999999999 2.0399951934814453 -1.8497401676573695 -1.7380706071853638 -1.1010458332351227 1.5103830099105835 0.5499046444892883 False False
10978.345 2.0399997234344482 -1.8498193226256312 -1.7389211654663086 -1.100067899828293 1.5102359056472778 0.5499647855758667 False False
10978.365 2.0400326251983643 -1.8498126469054164 -1.7395024299621582 -1.099473999147751 1.510128140449524 0.5499188899993896 False False
10978.385 2.039987802505493 -1.8499599895873011 -1.7398935556411743 -1.0991147619536896 1.5101560354232788 0.5499680042266846 False False
10978.404999999999 2.0399951934814453 -1.8498813114561976 -1.7399086952209473 -1.0990705651095887 1.5101242065429688 0.5499430298805237 False False
10978.425 2.0400450229644775 -1.849910398522848 -1.7398760318756104 -1.0990749162486573 1.5100998878479004 0.5499755144119263 False False
10978.445 2.0399951934814453 -1.8499084911742152 -1.7398929595947266 -1.099070892935135 1.5100841522216797 0.5499395132064819 False False
10978.465 2.0399832725524902 -1.8499661884703578 -1.73992919921875 -1.0990949434093018 1.5101207494735718 0.5500213503837585 False False
10978.484999999999 2.0400116443634033 -1.850006719628805 -1.739912986755371 -1.0990466934493561 1.510048508644104 0.550004780292511 False False
10978.505 2.0400161743164062 -1.8500052891173304 -1.73992919921875 -1.0990871053985138 1.510088562965393 0.5499874353408813 False False
10978.525 2.0400688648223877 -1.8499824009337367 -1.7399342060089111 -1.099067048435547 1.5100685358047485 0.5499755144119263 False False
10978.545 2.040020704269409 -1.8499938450255335 -1.7399649620056152 -1.0989869695952912 1.5100206136703491 0.5500004291534424 False False
10978.564999999999 2.0399997234344482 -1.8499566517271937 -1.74000084400177 -1.0990830224803467 1.5099602937698364 0.550028920173645 False False
10978.585 2.0399861335754395 -1.849985261956686 -1.7400206327438354 -1.0990027052215119 1.5100046396255493 0.5499755144119263 False False
10978.605 2.0400025844573975 -1.8499771557249964 -1.7400050163269043 -1.099006937151291 1.5100206136703491 0.5499874353408813 False False
10978.625 2.0400569438934326 -1.850018163720602 -1.7399206161499023 -1.0989950758269806 1.5100082159042358 0.5500566959381104 False False
10978.644999999999 2.0399997234344482 -1.8500544033446253 -1.7400093078613281 -1.0989869993976136 1.5100206136703491 0.5500159859657288 False False
10978.664999999999 2.040004253387451 -1.8500305614867152 -1.7400009632110596 -1.0990510743907471 1.5099525451660156 0.5499798655509949 False False
10978.685 2.040029525756836 -1.8500663242735804 -1.7400009632110596 -1.0989991289428254 1.5099722146987915 0.5500319004058838 False False
10978.705 2.0399909019470215 -1.850018163720602 -1.740029215812683 -1.09897072732959 1.5100083351135254 0.5500361323356628 False False
10978.725 2.0400280952453613 -1.8499771557249964 -1.739992618560791 -1.0990110498717804 1.5099520683288574 0.5500202178955078 False False
10978.744999999999 2.0399997234344482 -1.849985261956686 -1.7400686740875244 -1.099031464462616 1.5099763870239258 0.5500332117080688 False False
10978.765 2.039975881576538 -1.8499194584288539 -1.7399811744689941 -1.0989109140685578 1.5100964307785034 0.5500808954238892 False False
10978.785 2.0400145053863525 -1.8498279056944789 -1.739862322807312 -1.098859654074051 1.5100042819976807 0.5500116348266602 False False
10978.805 2.040032386779785 -1.8498951397337855 -1.7398221492767334 -1.098803387289383 1.5100324153900146 0.5500231981277466 False False
10978.824999999999 2.0399861335754395 -1.8499027691283167 -1.739830732345581 -1.098807380800583 1.5100243091583252 0.5500360727310181 False False
10978.845 2.0399580001831055 -1.8498865566649378 -1.7398064136505127 -1.0987755221179505 1.5099960565567017 0.5500646829605103 False False
10978.865 2.0399580001831055 -1.8498412571349085 -1.7398419380187988 -1.0987755221179505 1.5100041627883911 0.550055980682373 False False
10978.885 2.04002046585083 -1.8498112163939417 -1.7398133277893066 -1.0987556141665955 1.51005220413208 0.55002760887146 False False
10978.904999999999 2.0400280952453613 -1.849931379357809 -1.739832878112793 -1.0987755221179505 1.5099999904632568 0.5500481128692627 False False
10978.925 2.040020704269409 -1.8498898945250453 -1.7397570610046387 -1.098839895134308 1.510080337524414 0.5500245094299316 False False
10978.945 2.039954900741577 -1.8499475918211878 -1.7397934198379517 -1.098819063310959 1.5100767612457275 0.549995481967926 False False
10978.965 2.0399997234344482 -1.8499061069884242 -1.7397483587265015 -1.0988190931132813 1.5100159645080566 0.5499997735023499 False False
10978.984999999999 2.040036916732788 -1.8498856029906214 -1.7398062944412231 -1.0988228184035798 1.5100603103637695 0.5499345064163208 False False
10979.005 2.0399997234344482 -1.8499018154540003 -1.7398048639297485 -1.0989157122424622 1.5100685358047485 0.5500404238700867 False False
10979.025 2.0400071144104004 -1.8499099216856898 -1.7398247718811035 -1.0988436502269288 1.5100243091583252 0.5500127077102661 False False
10979.045 2.0399789810180664 -1.8499142132201136 -1.739804983139038 -1.0988868337920685 1.5100362300872803 0.5500202178955078 False False
10979.064999999999 2.0400161743164062 -1.8499413929381312 -1.7398247718811035 -1.098919467335083 1.509995937347412 0.5500117540359497 False False
10979.085 2.0400660037994385 -1.8499499760069789 -1.7398937940597534 -1.09891893089328 1.5100563764572144 0.5499135851860046 False False
10979.105 2.040032386779785 -1.8500076733031214 -1.739832878112793 -1.0989349347404023 1.5100243091583252 0.5500621199607849 False False
10979.125 2.0400025844573975 -1.8499251804747523 -1.739861011505127 -1.0989471238902588 1.5100123882293701 0.5500040054321289 False False
10979.144999999999 2.0400235652923584 -1.8499661884703578 -1.739861011505127 -1.098886714582779 1.510048508644104 0.5499842166900635 False False
10979.164999999999 2.0399861335754395 -1.849961896935934 -1.7398366928100586 -1.098959044819214 1.5100001096725464 0.5499885678291321 False False
10979.185 2.0398058891296387 -1.8500267467894496 -1.7399342060089111 -1.0990393620780488 1.5100845098495483 0.5500375628471375 False False
10979.205 2.039419174194336 -1.8499943218626917 -1.7398681640625 -1.0990590018085022 1.5101158618927002 0.5499124526977539 False False
10979.225 2.038775682449341 -1.8499099216856898 -1.739811897277832 -1.0992943209460755 1.5101159811019897 0.5497448444366455 False False
10979.244999999999 2.037656784057617 -1.849833150903219 -1.7398854494094849 -1.0994306367686768 1.510120153427124 0.5495455861091614 False False
10979.265 2.0362794399261475 -1.8497940502562464 -1.7397980690002441 -1.099677638416626 1.5101361274719238 0.5492945909500122 False False
10979.285 2.0346579551696777 -1.849699159661764 -1.7397375106811523 -1.099949375992157 1.510136604309082 0.5489593148231506 False False
10979.305 2.0327727794647217 -1.849541803399557 -1.739673137664795 -1.1003483694842835 1.510108232498169 0.5485914945602417 False False
10979.324999999999 2.030517578125 -1.8494063816466273 -1.7395849227905273 -1.1006878775409241 1.5101319551467896 0.548136830329895 False False
10979.345 2.0282161235809326 -1.8492709598936976 -1.7394700050354004 -1.1011468333056946 1.510279893875122 0.5476570725440979 False False
10979.365 2.0254077911376953 -1.8490544758238734 -1.7392776012420654 -1.101642594938614 1.5103278160095215 0.5471144318580627 False False
10979.385 2.022395610809326 -1.8488909206786097 -1.7390861511230469 -1.1020654004863282 1.5105319023132324 0.5465689301490784 False False
10979.404999999999 2.019207239151001 -1.848459859887594 -1.7385019063949585 -1.102264479999878 1.5107228755950928 0.5459792017936707 False False
10979.425 2.015702962875366 -1.847872873345846 -1.7378005981445312 -1.102663443689682 1.5108308792114258 0.5452210307121277 False False
10979.445 2.0118045806884766 -1.8474518261351527 -1.7372584342956543 -1.1033866268447419 1.51095449924469 0.5445032119750977 False False
10979.465 2.0076751708984375 -1.847250600854391 -1.7368086576461792 -1.1040774148753663 1.5111991167068481 0.5436437129974365 False False
10979.484999999999 2.0033679008483887 -1.8468224010863246 -1.736238956451416 -1.104684368973114 1.511338472366333 0.5428276062011719 False False
10979.505 1.9987038373947144 -1.8462373218932093 -1.7355799674987793 -1.1053670209697266 1.511489748954773 0.5419049859046936 False False
10979.525 1.9937787055969238 -1.845780988732809 -1.7350987195968628 -1.106229768400528 1.5115770101547241 0.540891170501709 False False
10979.545 1.9886083602905273 -1.8453766308226527 -1.734650731086731 -1.1069672864726563 1.5118610858917236 0.5398460626602173 False False
10979.564999999999 1.9831175804138184 -1.8448153934874476 -1.7340174913406372 -1.1078542929938813 1.512000560760498 0.538784921169281 False False
10979.585 1.9771701097488403 -1.8442417583861292 -1.733413577079773 -1.1087764364532013 1.5121960639953613 0.5376438498497009 False False
10979.605 1.9711089134216309 -1.8436581097044886 -1.7328358888626099 -1.1097663205913086 1.5124403238296509 0.5364232063293457 False False
10979.625 1.9648629426956177 -1.8431712589659632 -1.732184886932373 -1.1106959146312256 1.5126631259918213 0.5352057218551636 False False
10979.644999999999 1.958314299583435 -1.842538972894186 -1.7314057350158691 -1.1116786164096375 1.5128910541534424 0.5339749455451965 False False
10979.664999999999 1.9513565301895142 -1.8418590031065882 -1.7305934429168701 -1.1127124589732666 1.5131182670593262 0.5324962139129639 False False
10979.685 1.9440844058990479 -1.841257711450094 -1.7298002243041992 -1.1138185423663636 1.5133821964263916 0.5311610698699951 False False
10979.705 1.936633825302124 -1.8406068287291468 -1.729020357131958 -1.115024284725525 1.513573408126831 0.529688835144043 False False
10979.725 1.9289226531982422 -1.8398758373656214 -1.7282687425613403 -1.1162652534297486 1.5138609409332275 0.5281633138656616 False False
10979.744999999999 1.9210036993026733 -1.839076658288473 -1.7273294925689697 -1.117547170524933 1.5142126083374023 0.5266287326812744 False False
10979.765 1.9127418994903564 -1.8383695087828578 -1.726561427116394 -1.1187964540771027 1.514427661895752 0.5248717665672302 False False
10979.785 1.904052972793579 -1.8375541172423304 -1.7256604433059692 -1.1200618606856843 1.5147432088851929 0.5232479572296143 False False
10979.805 1.8953133821487427 -1.836722036401266 -1.7247819900512695 -1.1215160650065918 1.5150983333587646 0.5215253233909607 False False
10979.824999999999 1.8862214088439941 -1.8360144100584925 -1.7237972021102905 -1.1230089229396363 1.5154457092285156 0.5196843147277832 False False
10979.845 1.8766249418258667 -1.8351708851256312 -1.722807765007019 -1.1244090360454102 1.5157496929168701 0.5178909301757812 False False
10979.865 1.8670085668563843 -1.8341995678343714 -1.7216821908950806 -1.1257911783507843 1.5160810947418213 0.5159181952476501 False False
10979.885 1.857170581817627 -1.8332654438414515 -1.7206048965454102 -1.127396212225296 1.5164157152175903 0.5139465928077698 False False
10979.904999999999 1.8467918634414673 -1.8323389492430628 -1.7196530103683472 -1.1290296477130433 1.5167793035507202 0.511967658996582 False False
10979.925 1.8361763954162598 -1.8314434490599574 -1.7185856103897095 -1.1308572453311463 1.517066478729248 0.5099670886993408 False False
10979.945 1.8255751132965088 -1.8304158649840296 -1.717516303062439 -1.1324103337577363 1.5175609588623047 0.5077795386314392 False False
10979.965 1.8143911361694336 -1.8293944797911585 -1.716292142868042 -1.1339576107314606 1.5179768800735474 0.505548894405365 False False
10979.984999999999 1.8029134273529053 -1.828311105767721 -1.7149920463562012 -1.1357341271689911 1.5182090997695923 0.5033696889877319 False False
10980.005 1.7914938926696777 -1.827310701409811 -1.7137696743011475 -1.1377699238112946 1.5189194679260254 0.5010308623313904 False False
10980.025 1.7793980836868286 -1.8262387714781703 -1.7125693559646606 -1.1395453971675416 1.5192146301269531 0.49871334433555603 False False
10980.045 1.7671756744384766 -1.825048109094137 -1.711397647857666 -1.141401306991913 1.5192979574203491 0.4963398873806 False False
10980.064999999999 1.7548282146453857 -1.824019571343893 -1.7099767923355103 -1.1432048243335267 1.5202445983886719 0.4938298761844635 False False
10980.085 1.7420614957809448 -1.8227955303587855 -1.7086317539215088 -1.1452877682498475 1.5204037427902222 0.49130430817604065 False False
10980.105 1.7288786172866821 -1.8215447864928187 -1.7072370052337646 -1.1473514598659058 1.5207079648971558 0.4887012243270874 False False
10980.125 1.7157548666000366 -1.820359846154684 -1.705782175064087 -1.149302439098694 1.5215058326721191 0.4860970377922058 False False
10980.144999999999 1.7020982503890991 -1.819108625451559 -1.704399824142456 -1.1516011220267792 1.5217218399047852 0.48341476917266846 False False
10980.164999999999 1.6881073713302612 -1.8178535900511683 -1.7030609846115112 -1.1537404221347352 1.5223844051361084 0.4807054400444031 False False
10980.185 1.6742520332336426 -1.8165222607054652 -1.701461911201477 -1.1557633739760895 1.5228111743927002 0.47791945934295654 False False
10980.205 1.6602942943572998 -1.8153120479979457 -1.6997687816619873 -1.1578469437411805 1.5234417915344238 0.47521984577178955 False False
10980.225 1.6462721824645996 -1.8139187298216761 -1.6984312534332275 -1.1602856677821656 1.5237531661987305 0.47253498435020447 False False
10980.244999999999 1.632352352142334 -1.8127919636168421 -1.6971327066421509 -1.1623563331416626 1.5243288278579712 0.46974775195121765 False False
10980.265 1.6184874773025513 -1.8114844761290492 -1.695525050163269 -1.1645717185786744 1.5248949527740479 0.4669438898563385 False False
10980.285 1.6044820547103882 -1.8101216755309046 -1.6938954591751099 -1.1666222375682374 1.5252424478530884 0.46423807740211487 False False
10980.305 1.5904017686843872 -1.8088909588255824 -1.692452311515808 -1.1688208442977448 1.5258535146713257 0.4614497423171997 False False
10980.324999999999 1.5764491558074951 -1.807634016076559 -1.691165804862976 -1.1710599523833771 1.526260495185852 0.4587152302265167 False False
10980.345 1.5625996589660645 -1.8063622913756312 -1.6897058486938477 -1.173279420738556 1.52688729763031 0.4560084640979767 False False
10980.365 1.54853355884552 -1.8050719700255335 -1.6882178783416748 -1.1753418904593964 1.5271666049957275 0.45323696732521057 False False
10980.385 1.5344732999801636 -1.8037682972350062 -1.6866589784622192 -1.1774695378592988 1.5277776718139648 0.4504699409008026 False False
10980.404999999999 1.5206472873687744 -1.8025537929930628 -1.6851897239685059 -1.1797434252551575 1.5282126665115356 0.44777950644493103 False False
10980.425 1.5067274570465088 -1.8012825451292933 -1.6839244365692139 -1.1819388431361695 1.5287238359451294 0.4450050890445709 False False
10980.445 1.4926897287368774 -1.8000465832152308 -1.6824065446853638 -1.1839656990817566 1.529282808303833 0.4422239065170288 False False
10980.465 1.4787912368774414 -1.798687597314352 -1.6807968616485596 -1.186296985750534 1.5297338962554932 0.4395788013935089 False False
10980.484999999999 1.4648908376693726 -1.797403951684469 -1.6793410778045654 -1.1882635814002533 1.5302603244781494 0.4367179572582245 False False
10980.505 1.4508203268051147 -1.7961846790709437 -1.6779123544692993 -1.1904748243144532 1.5306196212768555 0.4340068995952606 False False
10980.525 1.4369094371795654 -1.7949468098082484 -1.676507592201233 -1.1928900343230744 1.5312715768814087 0.43120241165161133 False False
10980.545 1.4229336977005005 -1.7936631641783656 -1.6750879287719727 -1.1949374836734314 1.5316596031188965 0.4284971356391907 False False
10980.564999999999 1.408925175666809 -1.792309423486227 -1.6734099388122559 -1.1970228117755433 1.5321906805038452 0.4257301986217499 False False
10980.585 1.3949979543685913 -1.7910567722716273 -1.6718730926513672 -1.1992391508868714 1.5327235460281372 0.42296671867370605 False False
10980.605 1.381011724472046 -1.7897840938963832 -1.6705257892608643 -1.2015395027450104 1.533174991607666 0.4202767312526703 False False
10980.625 1.3670164346694946 -1.788558145562643 -1.6692047119140625 -1.2035837334445496 1.5336545705795288 0.41749295592308044 False False
10980.644999999999 1.3530573844909668 -1.7872430286803187 -1.667480707168579 -1.2057488423636933 1.534106731414795 0.4147634506225586 False False
10980.664999999999 1.3391122817993164 -1.7858873806395472 -1.6658856868743896 -1.207929329281189 1.5346752405166626 0.41198182106018066 False False
10980.685 1.3251779079437256 -1.784656663934225 -1.6645307540893555 -1.2100737255862732 1.5350505113601685 0.40923479199409485 False False
10980.705 1.311249852180481 -1.7833906612791957 -1.6631418466567993 -1.2122863096049805 1.5356543064117432 0.4064761698246002 False False
10980.725 1.2972127199172974 -1.7821647129454554 -1.6617451906204224 -1.214566634302475 1.5360221862792969 0.4037264585494995 False False
10980.744999999999 1.2832428216934204 -1.7808286152281703 -1.660120964050293 -1.2165828806212922 1.536698579788208 0.40103763341903687 False False
10980.765 1.269323706626892 -1.7794529400267542 -1.6585465669631958 -1.2185880106738587 1.5371302366256714 0.39824292063713074 False False
10980.785 1.2553075551986694 -1.7782026729979457 -1.6571054458618164 -1.2208767396262665 1.5375778675079346 0.39550065994262695 False False
10980.805 1.2412978410720825 -1.7770120106139125 -1.65586519241333 -1.2231848400882264 1.5381262302398682 0.3926977813243866 False False
10980.824999999999 1.227493166923523 -1.775759836236471 -1.6543833017349243 -1.225249932413437 1.5385217666625977 0.39000025391578674 False False
10980.845 1.2135260105133057 -1.774426122704977 -1.652712106704712 -1.2274219554713746 1.5391218662261963 0.38726356625556946 False False
10980.865 1.1994913816452026 -1.7730738125243128 -1.6512261629104614 -1.2295947235873719 1.5395255088806152 0.38452500104904175 False False
10980.885 1.185572624206543 -1.7718974552550257 -1.649933934211731 -1.231771544819214 1.5401537418365479 0.3818000257015228 False False
10980.904999999999 1.1716694831848145 -1.7706552944579066 -1.6485087871551514 -1.2340435248664399 1.540557861328125 0.3790309429168701 False False
10980.925 1.157604455947876 -1.7693525753416957 -1.6470091342926025 -1.2361771327308197 1.5410776138305664 0.3762308657169342 False False
10980.945 1.1436960697174072 -1.7680160007872523 -1.6454060077667236 -1.2381650668433686 1.5414454936981201 0.3735954463481903 False False
10980.965 1.129737377166748 -1.766757150689596 -1.6439682245254517 -1.2404699188521882 1.5419403314590454 0.37078794836997986 False False
10980.984999999999 1.1156593561172485 -1.7655302486815394 -1.6426398754119873 -1.2427023512176056 1.5424854755401611 0.3679825961589813 False False
10981.005 1.101760745048523 -1.7642585239806117 -1.6412713527679443 -1.244923399095871 1.542985200881958 0.36526909470558167 False False
10981.025 1.0877904891967773 -1.7629662952818812 -1.6395660638809204 -1.2468875807574769 1.5435407161712646 0.362501859664917 False False
10981.045 1.0738751888275146 -1.7616116009154261 -1.6380001306533813 -1.2492166620543976 1.54397714138031 0.3596830666065216 False False
10981.064999999999 1.0598934888839722 -1.7604171238341273 -1.6366311311721802 -1.2512125235847016 1.5444921255111694 0.35700085759162903 False False
10981.085 1.0459569692611694 -1.7591735325255335 -1.6352099180221558 -1.2535260778716584 1.5448963642120361 0.3542684018611908 False False
10981.105 1.0319839715957642 -1.7578379116454066 -1.6337347030639648 -1.2557648879340668 1.54550039768219 0.3514595329761505 False False
10981.125 1.0179882049560547 -1.756578107873434 -1.6321851015090942 -1.2578539115241547 1.5458965301513672 0.3487379848957062 False False
10981.144999999999 1.0041085481643677 -1.7552133999266566 -1.6305750608444214 -1.2599307757667084 1.5464726686477661 0.3460880517959595 False False
10981.164999999999 0.9900422096252441 -1.7539988956847132 -1.6291056871414185 -1.2622702282718201 1.546972632408142 0.34321334958076477 False False
10981.185 0.9760302305221558 -1.7527500591673792 -1.6278815269470215 -1.2644863289645691 1.5473960638046265 0.34059759974479675 False False
10981.205 0.9621874690055847 -1.7515002689757289 -1.6263558864593506 -1.2664553088000794 1.547964096069336 0.3377872705459595 False False
10981.225 0.9484195709228516 -1.7501946888365687 -1.6247375011444092 -1.2686841648868104 1.5483527183532715 0.33498820662498474 False False
10981.244999999999 0.9350454211235046 -1.7488752804198207 -1.6233845949172974 -1.2706998151591797 1.5488876104354858 0.3324151337146759 False False
10981.265 0.9218543767929077 -1.7477852306761683 -1.6220742464065552 -1.2727371913245697 1.5492279529571533 0.3298383355140686 False False
10981.285 0.9089378118515015 -1.7466403446593226 -1.6207891702651978 -1.2747458082488556 1.5497994422912598 0.3272714912891388 False False
10981.305 0.896294116973877 -1.7454515896239222 -1.619461178779602 -1.2768421036056061 1.5501991510391235 0.32479241490364075 False False
10981.324999999999 0.8840876221656799 -1.7442857227721156 -1.6180274486541748 -1.27858720839534 1.5506274700164795 0.32241156697273254 False False
10981.345 0.871986985206604 -1.7431632481017054 -1.616737961769104 -1.2803774339011689 1.5511633157730103 0.31994307041168213 False False
10981.365 0.8601356744766235 -1.7421590290465296 -1.6156097650527954 -1.282378451233246 1.5514150857925415 0.31770431995391846 False False
10981.385 0.8487588167190552 -1.741099020043844 -1.6145689487457275 -1.2841884654811402 1.5519474744796753 0.3154369592666626 False False
10981.404999999999 0.8375606536865234 -1.7400781116881312 -1.6133099794387817 -1.2858897906592865 1.552310824394226 0.31321993470191956 False False
10981.425 0.8264557123184204 -1.738965173760885 -1.6120545864105225 -1.287604199056961 1.552546739578247 0.3111094534397125 False False
10981.445 0.8159905672073364 -1.7381202183165492 -1.6108214855194092 -1.2892783743194123 1.5531388521194458 0.30906203389167786 False False
10981.465 0.8055285215377808 -1.7371751270689906 -1.6097660064697266 -1.2909160119346161 1.5533782243728638 0.3069060146808624 False False
10981.484999999999 0.7954167127609253 -1.736255785027975 -1.6087831258773804 -1.2925106149962922 1.5536788702011108 0.3049170970916748 False False
10981.505 0.7857708930969238 -1.7353283367552699 -1.6077001094818115 -1.293857918386795 1.5542423725128174 0.30297598242759705 False False
10981.525 0.7760764956474304 -1.7344604931273402 -1.6067025661468506 -1.2954645615867157 1.554386019706726 0.3011684715747833 False False
10981.545 0.7666898965835571 -1.7335864506163539 -1.6057757139205933 -1.2970541578582306 1.5546663999557495 0.29927361011505127 False False
10981.564999999999 0.7580153942108154 -1.7329560718932093 -1.604671835899353 -1.2982063752463837 1.5551660060882568 0.2975084185600281 False False
10981.585 0.7491402626037598 -1.732009073297018 -1.6037636995315552 -1.2995853883079072 1.5553901195526123 0.2958284616470337 False False
10981.605 0.7405380010604858 -1.731211324731344 -1.6028341054916382 -1.3008203667453309 1.5555224418640137 0.29416561126708984 False False
10981.625 0.7327181100845337 -1.7305270634093226 -1.6020399332046509 -1.3021837037852784 1.556058406829834 0.29261016845703125 False False
10981.644999999999 0.7248861193656921 -1.7298628292479457 -1.601248025894165 -1.3034707468799134 1.5562739372253418 0.2910107374191284 False False
10981.664999999999 0.7169679999351501 -1.7291027508177699 -1.6005202531814575 -1.3046072584441681 1.5564098358154297 0.2895073890686035 False False
10981.685 0.7097485661506653 -1.7284304104247035 -1.5997920036315918 -1.3056987088969727 1.5567657947540283 0.28808924555778503 False False
10981.705 0.7030015587806702 -1.7278267345824183 -1.598927617073059 -1.3067589861205597 1.5571134090423584 0.2867186367511749 False False
10981.725 0.6960983276367188 -1.727199216882223 -1.5982297658920288 -1.3078315419009705 1.5572137832641602 0.28542035818099976 False False
10981.744999999999 0.6895148754119873 -1.726537366906637 -1.5975064039230347 -1.3088921171477814 1.5574737787246704 0.2841370701789856 False False
10981.765 0.6833839416503906 -1.7259546718993128 -1.5967904329299927 -1.3098721665195008 1.5577138662338257 0.2829192578792572 False False
10981.785 0.6776127219200134 -1.7254473171629847 -1.5962316989898682 -1.3107532125762482 1.5579620599746704 0.28170016407966614 False False
10981.805 0.6719286441802979 -1.7250219784178675 -1.5957130193710327 -1.311569706802704 1.558093547821045 0.2806098759174347 False False
10981.824999999999 0.6666064858436584 -1.7244531116881312 -1.5951662063598633 -1.3124795121005555 1.558261752128601 0.27955541014671326 False False
10981.845 0.661523699760437 -1.7240354023375453 -1.5946948528289795 -1.3132004898837586 1.5584495067596436 0.2785685956478119 False False
10981.865 0.6566112637519836 -1.7235437832274378 -1.594165563583374 -1.3138735455325623 1.5586214065551758 0.27763044834136963 False False
10981.885 0.6521275043487549 -1.7231899700560511 -1.5936617851257324 -1.3146275144866486 1.558733582496643 0.2767435312271118 False False
10981.904999999999 0.6479570269584656 -1.7227570019164027 -1.5932153463363647 -1.3153768342784424 1.5589696168899536 0.27592670917510986 False False
10981.925 0.6440012454986572 -1.7224356136717738 -1.5928276777267456 -1.316049949531891 1.559020757675171 0.2751127779483795 False False
10981.945 0.6403487920761108 -1.7220632038512171 -1.5924079418182373 -1.316596196298935 1.5591894388198853 0.27437537908554077 False False
10981.965 0.6370763182640076 -1.7217723331847132 -1.5920019149780273 -1.3170908254436036 1.5593734979629517 0.2737477421760559 False False
10981.984999999999 0.6338788270950317 -1.7214447460570277 -1.5915886163711548 -1.317580596809723 1.5594213008880615 0.2731247544288635 False False
10982.005 0.6309894323348999 -1.7211934528746546 -1.591386318206787 -1.3180116576007386 1.559513807296753 0.27259087562561035 False False
10982.025 0.6284880042076111 -1.720978399316305 -1.5911226272583008 -1.3183303636363526 1.55961275100708 0.27209627628326416 False False
10982.045 0.6261478662490845 -1.7208148441710414 -1.590854525566101 -1.318714366560318 1.5596929788589478 0.2715994119644165 False False
10982.064999999999 0.6241612434387207 -1.720614572564596 -1.5906672477722168 -1.3190535765937348 1.5597535371780396 0.2712932825088501 False False
10982.085 0.6224231719970703 -1.7204615078368128 -1.590507984161377 -1.3193292778781434 1.559780478477478 0.27091777324676514 False False
10982.105 0.6211028099060059 -1.7203670940794886 -1.5904046297073364 -1.319528416996338 1.5599092245101929 0.2705931067466736 False False
10982.125 0.6198421120643616 -1.720271726647848 -1.5902800559997559 -1.3196639877608796 1.5599089860916138 0.27035748958587646 False False
10982.144999999999 0.6189544200897217 -1.720194479028219 -1.5901923179626465 -1.3197396260550995 1.5599336624145508 0.2702018916606903 False False
10982.164999999999 0.6184298992156982 -1.72013582805776 -1.5901517868041992 -1.3197716635516663 1.559977412223816 0.2701582908630371 False False
10982.185 0.6180899739265442 -1.7200876675047816 -1.5901246070861816 -1.3198314768126984 1.560009241104126 0.270126610994339 False False
10982.205 0.6180384159088135 -1.7201129398741664 -1.5900959968566895 -1.3198638719371338 1.5599732398986816 0.2701135575771332 False False
10982.225 0.6181471943855286 -1.7202207050719203 -1.5900797843933105 -1.3198397916606446 1.5600932836532593 0.2699904441833496 False False
10982.244999999999 0.6180179119110107 -1.720572134057516 -1.5901203155517578 -1.3196639579585572 1.560001015663147 0.26976707577705383 False False
10982.265 0.6180822849273682 -1.721266885797018 -1.5902312994003296 -1.3193366092494507 1.5600171089172363 0.26952633261680603 False False
10982.285 0.6180822849273682 -1.722393652001852 -1.5904960632324219 -1.3187859815410157 1.56002938747406 0.26934337615966797 False False
10982.305 0.6179723739624023 -1.7238246403136195 -1.5908644199371338 -1.3180591028979798 1.5599929094314575 0.2689458429813385 False False
10982.324999999999 0.6180986762046814 -1.7254754505553187 -1.5912184715270996 -1.3172001105597992 1.5600371360778809 0.26855146884918213 False False
10982.345 0.6180779933929443 -1.7274676762022914 -1.5917556285858154 -1.3162354987910767 1.5600411891937256 0.2681038975715637 False False
10982.365 0.6180867552757263 -1.7297264538206996 -1.5923306941986084 -1.3151160341552277 1.560017466545105 0.2675776183605194 False False
10982.385 0.6181135773658752 -1.732199331323141 -1.5929052829742432 -1.3137964469245453 1.5600252151489258 0.2669619619846344 False False
10982.404999999999 0.6181091070175171 -1.7348433933653773 -1.593571662902832 -1.312591866855957 1.5599970817565918 0.2662670314311981 False False
10982.425 0.6182183623313904 -1.7379285297789515 -1.5944126844406128 -1.3110178273967286 1.5600050687789917 0.2655152678489685 False False
10982.445 0.6182019710540771 -1.7412897549071253 -1.5952324867248535 -1.3094077569297333 1.5599970817565918 0.2646526098251343 False False
10982.465 0.6182410717010498 -1.7448774776854457 -1.596098780632019 -1.307487116461136 1.5600135326385498 0.2637854218482971 False False
10982.484999999999 0.6183464527130127 -1.748850008050436 -1.5970642566680908 -1.3055842977813263 1.560045838356018 0.26279541850090027 False False
10982.505 0.618374764919281 -1.7529446087279261 -1.5982635021209717 -1.303527520304062 1.5599809885025024 0.2618093192577362 False False
10982.525 0.618446946144104 -1.7574292622008265 -1.599439024925232 -1.3013155323318024 1.5599486827850342 0.2606334686279297 False False
10982.545 0.6184696555137634 -1.7621051273741664 -1.6005641222000122 -1.2988325518420716 1.559960961341858 0.259496808052063 False False
10982.564999999999 0.6185088753700256 -1.7669464550414027 -1.6018767356872559 -1.2965971690467377 1.5600135326385498 0.25823742151260376 False False
10982.585 0.6186271905899048 -1.7721687755980433 -1.6031084060668945 -1.2938301426223298 1.559981107711792 0.25693994760513306 False False
10982.605 0.6186898946762085 -1.777802129785055 -1.6044516563415527 -1.2909759444049378 1.5599970817565918 0.25550708174705505 False False
10982.625 0.6187649369239807 -1.783830305139059 -1.606067419052124 -1.2882579428008576 1.560057520866394 0.2541106641292572 False False
10982.644999999999 0.6188385486602783 -1.7899710140623988 -1.6077117919921875 -1.2851365965655823 1.559976577758789 0.2525528371334076 False False
10982.664999999999 0.6189273595809937 -1.7962194881834925 -1.6091619729995728 -1.2819710832885285 1.5600011348724365 0.25102317333221436 False False
10982.685 0.6190484762191772 -1.8026906452574671 -1.6107323169708252 -1.2785282594016572 1.5600051879882812 0.24934566020965576 False False
10982.705 0.6191251277923584 -1.8090478382506312 -1.6122620105743408 -1.2754073303988953 1.559981107711792 0.2477637529373169 False False
10982.725 0.619191586971283 -1.8153921566405238 -1.6139862537384033 -1.272338644867279 1.559981107711792 0.24624231457710266 False False
10982.744999999999 0.6192591190338135 -1.8213345013060511 -1.6154305934906006 -1.2694603365710755 1.5599766969680786 0.24462231993675232 False False
10982.765 0.6193186640739441 -1.8268934688963832 -1.61665678024292 -1.2665754121593018 1.5599809885025024 0.2432897984981537 False False
10982.785 0.6193956732749939 -1.8319937191405238 -1.6179141998291016 -1.2639450591853638 1.559981107711792 0.24200908839702606 False False
10982.805 0.6194274425506592 -1.837015291253561 -1.6191649436950684 -1.26146952927623 1.559981107711792 0.2406853586435318 False False
10982.824999999999 0.6194706559181213 -1.8419081173338832 -1.6204032897949219 -1.2589340966990967 1.5599929094314575 0.2395523339509964 False False
10982.845 0.619584321975708 -1.846447607079977 -1.6215907335281372 -1.2568384271911164 1.559960961341858 0.23838545382022858 False False
10982.865 0.619619607925415 -1.8506413898863734 -1.622689962387085 -1.2548164886287232 1.5599970817565918 0.23737601935863495 False False
10982.885 0.6196969747543335 -1.854551454583639 -1.6235476732254028 -1.252715365295746 1.5600374937057495 0.2363606095314026 False False
10982.904999999999 0.6196330189704895 -1.8581296406187953 -1.6243820190429688 -1.250943885450699 1.559981107711792 0.2354867160320282 False False
10982.925 0.619764506816864 -1.8614121876158656 -1.6253474950790405 -1.2493293446353455 1.5600173473358154 0.23464709520339966 False False
10982.945 0.6197542548179626 -1.8643814525999964 -1.6261005401611328 -1.2477401953986664 1.5599929094314575 0.23392236232757568 False False
