Andreas691667/Digital_Twin_UR/src/controller_monitor/test_results/test_motion1.csv
timestamp actual_q_0 actual_q_1 actual_q_2 actual_q_3 actual_q_4 actual_q_5 output_int_register_0
1262.434 -1.6006999999999998 -1.7271 -2.2029999999999994 -0.8079999999999998 1.5951 -0.030999999999999694 0
1262.454 -1.6006999999999998 -1.7271 -2.2029999999999994 -0.8079999999999998 1.5951 -0.030999999999999694 0
1262.474 -1.6006999999999998 -1.7271 -2.2029999999999994 -0.8079999999999998 1.5951 -0.030999999999999694 0
1262.494 -1.6006999999999998 -1.7271 -2.2029999999999994 -0.8079999999999998 1.5951 -0.030999999999999694 0
1262.514 -1.6006999999999998 -1.7271 -2.2029999999999994 -0.8079999999999998 1.5951 -0.030999999999999694 0
1262.5339999999999 -1.6006999999999998 -1.7271 -2.2029999999999994 -0.8079999999999998 1.5951 -0.030999999999999694 0
1262.5539999999999 -1.6006999999999998 -1.7271 -2.2029999999999994 -0.8079999999999998 1.5951 -0.030999999999999694 0
1262.5739999999998 -1.6006999999999998 -1.7271 -2.2029999999999994 -0.8079999999999998 1.5951 -0.030999999999999694 0
1262.594 -1.6006999999999998 -1.7271 -2.2029999999999994 -0.8079999999999998 1.5951 -0.030999999999999694 0
1262.614 -1.6006999999999998 -1.7271 -2.2029999999999994 -0.8079999999999998 1.5951 -0.030999999999999694 0
1262.634 -1.6006999999999998 -1.7271 -2.2029999999999994 -0.8079999999999998 1.5951 -0.030999999999999694 0
1262.654 -1.6006999999999998 -1.7271 -2.2029999999999994 -0.8079999999999998 1.5951 -0.030999999999999694 0
1262.674 -1.6006999999999998 -1.7271 -2.2029999999999994 -0.8079999999999998 1.5951 -0.030999999999999694 0
1262.694 -1.6006999999999998 -1.7271 -2.2029999999999994 -0.8079999999999998 1.5951 -0.030999999999999694 0
1262.714 -1.6006999999999998 -1.7271 -2.2029999999999994 -0.8079999999999998 1.5951 -0.030999999999999694 0
1262.734 -1.6006999999999998 -1.7271 -2.2029999999999994 -0.8079999999999998 1.5951 -0.030999999999999694 0
1262.754 -1.6006999999999998 -1.7271 -2.2029999999999994 -0.8079999999999998 1.5951 -0.030999999999999694 0
1262.774 -1.6006999999999998 -1.7271 -2.2029999999999994 -0.8079999999999998 1.5951 -0.030999999999999694 0
1262.7939999999999 -1.6006999999999998 -1.7271 -2.2029999999999994 -0.8079999999999998 1.5951 -0.030999999999999694 0
1262.8139999999999 -1.6006999999999998 -1.7271 -2.2029999999999994 -0.8079999999999998 1.5951 -0.030999999999999694 0
1262.8339999999998 -1.6006999999999998 -1.7271 -2.2029999999999994 -0.8079999999999998 1.5951 -0.030999999999999694 0
1262.854 -1.6006999999999998 -1.7271 -2.2029999999999994 -0.8079999999999998 1.5951 -0.030999999999999694 0
1262.874 -1.6006999999999998 -1.7271 -2.2029999999999994 -0.8079999999999998 1.5951 -0.030999999999999694 0
1262.894 -1.6006999999999998 -1.7271 -2.2029999999999994 -0.8079999999999998 1.5951 -0.030999999999999694 0
1262.914 -1.6006999999999998 -1.7271 -2.2029999999999994 -0.8079999999999998 1.5951 -0.030999999999999694 0
1262.934 -1.6006999999999998 -1.7271 -2.2029999999999994 -0.8079999999999998 1.5951 -0.030999999999999694 0
1262.954 -1.6006999999999998 -1.7271 -2.2029999999999994 -0.8079999999999998 1.5951 -0.030999999999999694 0
1262.974 -1.6006999999999998 -1.7271 -2.2029999999999994 -0.8079999999999998 1.5951 -0.030999999999999694 0
1262.994 -1.6006999999999998 -1.7271 -2.2029999999999994 -0.8079999999999998 1.5951 -0.030999999999999694 0
1263.014 -1.6006999999999998 -1.7271 -2.2029999999999994 -0.8079999999999998 1.5951 -0.030999999999999694 0
1263.0339999999999 -1.6006999999999998 -1.7271 -2.2029999999999994 -0.8079999999999998 1.5951 -0.030999999999999694 0
1263.0539999999999 -1.6006999999999998 -1.7271 -2.2029999999999994 -0.8079999999999998 1.5951 -0.030999999999999694 0
1263.0739999999998 -1.6006999999999998 -1.7271 -2.2029999999999994 -0.8079999999999998 1.5951 -0.030999999999999694 0
1263.094 -1.6006999999999998 -1.7271 -2.2029999999999994 -0.8079999999999998 1.5951 -0.030999999999999694 0
1263.114 -1.6006999999999998 -1.7271 -2.2029999999999994 -0.8079999999999998 1.5951 -0.030999999999999694 0
1263.134 -1.6006999999999998 -1.7271 -2.2029999999999994 -0.8079999999999998 1.5951 -0.030999999999999694 0
1263.154 -1.6006999999999998 -1.7271 -2.2029999999999994 -0.8079999999999998 1.5951 -0.030999999999999694 0
1263.174 -1.6006999999999998 -1.7271 -2.2029999999999994 -0.8079999999999998 1.5951 -0.030999999999999694 0
1263.194 -1.6006999999999998 -1.7271 -2.2029999999999994 -0.8079999999999998 1.5951 -0.030999999999999694 0
1263.214 -1.6006999999999998 -1.7271 -2.2029999999999994 -0.8079999999999998 1.5951 -0.030999999999999694 0
1263.234 -1.6006999999999998 -1.7271 -2.2029999999999994 -0.8079999999999998 1.5951 -0.030999999999999694 0
1263.254 -1.6006999999999998 -1.7271 -2.2029999999999994 -0.8079999999999998 1.5951 -0.030999999999999694 0
1263.274 -1.6006999999999998 -1.7271 -2.2029999999999994 -0.8079999999999998 1.5951 -0.030999999999999694 0
1263.2939999999999 -1.6006999999999998 -1.7271 -2.2029999999999994 -0.8079999999999998 1.5951 -0.030999999999999694 0
1263.3139999999999 -1.6006999999999998 -1.7271 -2.2029999999999994 -0.8079999999999998 1.5951 -0.030999999999999694 0
1263.3339999999998 -1.6006999999999998 -1.7271 -2.2029999999999994 -0.8079999999999998 1.5951 -0.030999999999999694 0
1263.354 -1.6006999999999998 -1.7271 -2.2029999999999994 -0.8079999999999998 1.5951 -0.030999999999999694 0
1263.374 -1.6006999999999998 -1.7271 -2.2029999999999994 -0.8079999999999998 1.5951 -0.030999999999999694 0
1263.394 -1.6006999999999998 -1.7271 -2.2029999999999994 -0.8079999999999998 1.5951 -0.030999999999999694 0
1263.414 -1.6006999999999998 -1.7271 -2.2029999999999994 -0.8079999999999998 1.5951 -0.030999999999999694 0
1263.434 -1.6006999999999998 -1.7271 -2.2029999999999994 -0.8079999999999998 1.5951 -0.030999999999999694 0
1263.454 -1.6006999999999998 -1.7271 -2.2029999999999994 -0.8079999999999998 1.5951 -0.030999999999999694 0
1263.474 -1.6006999999999998 -1.7271 -2.2029999999999994 -0.8079999999999998 1.5951 -0.030999999999999694 0
1263.494 -1.6006999999999998 -1.7271 -2.2029999999999994 -0.8079999999999998 1.5951 -0.030999999999999694 0
1263.514 -1.6006999999999998 -1.7271 -2.2029999999999994 -0.8079999999999998 1.5951 -0.030999999999999694 0
1263.5339999999999 -1.6006999999999998 -1.7271 -2.2029999999999994 -0.8079999999999998 1.5951 -0.030999999999999694 0
1263.5539999999999 -1.6006999999999998 -1.7271 -2.2029999999999994 -0.8079999999999998 1.5951 -0.030999999999999694 0
1263.5739999999998 -1.6006999999999998 -1.7271 -2.2029999999999994 -0.8079999999999998 1.5951 -0.030999999999999694 0
1263.594 -1.6006999999999998 -1.7271 -2.2029999999999994 -0.8079999999999998 1.5951 -0.030999999999999694 0
1263.614 -1.6006999999999998 -1.7271 -2.2029999999999994 -0.8079999999999998 1.5951 -0.030999999999999694 0
1263.634 -1.6006999999999998 -1.7271 -2.2029999999999994 -0.8079999999999998 1.5951 -0.030999999999999694 0
1263.654 -1.6006999999999998 -1.7271 -2.2029999999999994 -0.8079999999999998 1.5951 -0.030999999999999694 0
1263.674 -1.6006999999999998 -1.7271 -2.2029999999999994 -0.8079999999999998 1.5951 -0.030999999999999694 0
1263.694 -1.6006999999999998 -1.7271 -2.2029999999999994 -0.8079999999999998 1.5951 -0.030999999999999694 0
1263.714 -1.6006999999999998 -1.7271 -2.2029999999999994 -0.8079999999999998 1.5951 -0.030999999999999694 0
1263.734 -1.6006999999999998 -1.7271 -2.2029999999999994 -0.8079999999999998 1.5951 -0.030999999999999694 0
1263.754 -1.6006999999999998 -1.7271 -2.2029999999999994 -0.8079999999999998 1.5951 -0.030999999999999694 0
1263.774 -1.6006999999999998 -1.7271 -2.2029999999999994 -0.8079999999999998 1.5951 -0.030999999999999694 0
1263.7939999999999 -1.6006999999999998 -1.7271 -2.2029999999999994 -0.8079999999999998 1.5951 -0.030999999999999694 0
1263.8139999999999 -1.6006999999999998 -1.7271 -2.2029999999999994 -0.8079999999999998 1.5951 -0.030999999999999694 0
1263.8339999999998 -1.6006999999999998 -1.7271 -2.2029999999999994 -0.8079999999999998 1.5951 -0.030999999999999694 0
1263.854 -1.6006999999999998 -1.7271 -2.2029999999999994 -0.8079999999999998 1.5951 -0.030999999999999694 0
1263.874 -1.6006999999999998 -1.7271 -2.2029999999999994 -0.8079999999999998 1.5951 -0.030999999999999694 0
1263.894 -1.6006999999999998 -1.7271 -2.2029999999999994 -0.8079999999999998 1.5951 -0.030999999999999694 0
1263.914 -1.6006999999999998 -1.7271 -2.2029999999999994 -0.8079999999999998 1.5951 -0.030999999999999694 0
1263.934 -1.6006999999999998 -1.7271 -2.2029999999999994 -0.8079999999999998 1.5951 -0.030999999999999694 0
1263.954 -1.6006999999999998 -1.7271 -2.2029999999999994 -0.8079999999999998 1.5951 -0.030999999999999694 0
1263.974 -1.6006999999999998 -1.7271 -2.2029999999999994 -0.8079999999999998 1.5951 -0.030999999999999694 0
1263.994 -1.6006999999999998 -1.7271 -2.2029999999999994 -0.8079999999999998 1.5951 -0.030999999999999694 0
1264.014 -1.6006999999999998 -1.7271 -2.2029999999999994 -0.8079999999999998 1.5951 -0.030999999999999694 0
1264.0339999999999 -1.6006999999999998 -1.7271 -2.2029999999999994 -0.8079999999999998 1.5951 -0.030999999999999694 0
1264.0539999999999 -1.6006999999999998 -1.7271 -2.2029999999999994 -0.8079999999999998 1.5951 -0.030999999999999694 0
1264.0739999999998 -1.6006999999999998 -1.7271 -2.2029999999999994 -0.8079999999999998 1.5951 -0.030999999999999694 0
1264.094 -1.6006999999999998 -1.7271 -2.2029999999999994 -0.8079999999999998 1.5951 -0.030999999999999694 0
1264.114 -1.6006999999999998 -1.7271 -2.2029999999999994 -0.8079999999999998 1.5951 -0.030999999999999694 0
1264.134 -1.6006999999999998 -1.7271 -2.2029999999999994 -0.8079999999999998 1.5951 -0.030999999999999694 0
1264.154 -1.6006999999999998 -1.7271 -2.2029999999999994 -0.8079999999999998 1.5951 -0.030999999999999694 0
1264.174 -1.6006999999999998 -1.7271 -2.2029999999999994 -0.8079999999999998 1.5951 -0.030999999999999694 0
1264.194 -1.6006999999999998 -1.7271 -2.2029999999999994 -0.8079999999999998 1.5951 -0.030999999999999694 0
1264.214 -1.6006999999999998 -1.7271 -2.2029999999999994 -0.8079999999999998 1.5951 -0.030999999999999694 0
1264.234 -1.6006999999999998 -1.7271 -2.2029999999999994 -0.8079999999999998 1.5951 -0.030999999999999694 0
1264.254 -1.6006999999999998 -1.7271 -2.2029999999999994 -0.8079999999999998 1.5951 -0.030999999999999694 0
1264.274 -1.6006999999999998 -1.7271 -2.2029999999999994 -0.8079999999999998 1.5951 -0.030999999999999694 0
1264.2939999999999 -1.6006999999999998 -1.7271 -2.2029999999999994 -0.8079999999999998 1.5951 -0.030999999999999694 0
1264.3139999999999 -1.6006999999999998 -1.7271 -2.2029999999999994 -0.8079999999999998 1.5951 -0.030999999999999694 0
1264.3339999999998 -1.6006999999999998 -1.7271 -2.2029999999999994 -0.8079999999999998 1.5951 -0.030999999999999694 0
1264.354 -1.6006999999999998 -1.7271 -2.2029999999999994 -0.8079999999999998 1.5951 -0.030999999999999694 0
1264.374 -1.6006999999999998 -1.7271 -2.2029999999999994 -0.8079999999999998 1.5951 -0.030999999999999694 0
1264.394 -1.6006999999999998 -1.7271 -2.2029999999999994 -0.8079999999999998 1.5951 -0.030999999999999694 0
1264.414 -1.6006999999999998 -1.7271 -2.2029999999999994 -0.8079999999999998 1.5951 -0.030999999999999694 0
1264.434 -1.6006999999999998 -1.7271 -2.2029999999999994 -0.8079999999999998 1.5951 -0.030999999999999694 0
1264.454 -1.6006999999999998 -1.7271 -2.2029999999999994 -0.8079999999999998 1.5951 -0.030999999999999694 0
1264.474 -1.6006999999999998 -1.7271 -2.2029999999999994 -0.8079999999999998 1.5951 -0.030999999999999694 0
1264.494 -1.6006999999999998 -1.7271 -2.2029999999999994 -0.8079999999999998 1.5951 -0.030999999999999694 0
1264.514 -1.6006999999999998 -1.7271 -2.2029999999999994 -0.8079999999999998 1.5951 -0.030999999999999694 0
1264.5339999999999 -1.6006999999999998 -1.7271 -2.2029999999999994 -0.8079999999999998 1.5951 -0.030999999999999694 0
1264.5539999999999 -1.6006999999999998 -1.7271 -2.2029999999999994 -0.8079999999999998 1.5951 -0.030999999999999694 0
1264.5739999999998 -1.6006999999999998 -1.7271 -2.2029999999999994 -0.8079999999999998 1.5951 -0.030999999999999694 0
1264.594 -1.6006999999999998 -1.7271 -2.2029999999999994 -0.8079999999999998 1.5951 -0.030999999999999694 0
1264.614 -1.6006999999999998 -1.7271 -2.2029999999999994 -0.8079999999999998 1.5951 -0.030999999999999694 0
1264.634 -1.6006999999999998 -1.7271 -2.2029999999999994 -0.8079999999999998 1.5951 -0.030999999999999694 0
1264.654 -1.6006999999999998 -1.7271 -2.2029999999999994 -0.8079999999999998 1.5951 -0.030999999999999694 0
1264.674 -1.6006999999999998 -1.7271 -2.2029999999999994 -0.8079999999999998 1.5951 -0.030999999999999694 0
1264.694 -1.6006999999999998 -1.7271 -2.2029999999999994 -0.8079999999999998 1.5951 -0.030999999999999694 0
1264.714 -1.6006999999999998 -1.7271 -2.2029999999999994 -0.8079999999999998 1.5951 -0.030999999999999694 0
1264.734 -1.6006999999999998 -1.7271 -2.2029999999999994 -0.8079999999999998 1.5951 -0.030999999999999694 0
1264.754 -1.6006999999999998 -1.7271 -2.2029999999999994 -0.8079999999999998 1.5951 -0.030999999999999694 0
1264.774 -1.6006999999999998 -1.7271 -2.2029999999999994 -0.8079999999999998 1.5951 -0.030999999999999694 0
1264.7939999999999 -1.6006999999999998 -1.7271 -2.2029999999999994 -0.8079999999999998 1.5951 -0.030999999999999694 0
1264.8139999999999 -1.6006999999999998 -1.7271 -2.2029999999999994 -0.8079999999999998 1.5951 -0.030999999999999694 0
1264.8339999999998 -1.6006999999999998 -1.7271 -2.2029999999999994 -0.8079999999999998 1.5951 -0.030999999999999694 0
1264.854 -1.6006999999999998 -1.7271 -2.2029999999999994 -0.8079999999999998 1.5951 -0.030999999999999694 0
1264.874 -1.6006999999999998 -1.7271 -2.2029999999999994 -0.8079999999999998 1.5951 -0.030999999999999694 0
1264.894 -1.6006999999999998 -1.7271 -2.2029999999999994 -0.8079999999999998 1.5951 -0.030999999999999694 0
1264.914 -1.6006999999999998 -1.7271 -2.2029999999999994 -0.8079999999999998 1.5951 -0.030999999999999694 0
1264.934 -1.6006999999999998 -1.7271 -2.2029999999999994 -0.8079999999999998 1.5951 -0.030999999999999694 0
1264.954 -1.6006999999999998 -1.7271 -2.2029999999999994 -0.8079999999999998 1.5951 -0.030999999999999694 0
1264.974 -1.6006999999999998 -1.7271 -2.2029999999999994 -0.8079999999999998 1.5951 -0.030999999999999694 0
1264.994 -1.6006999999999998 -1.7271 -2.2029999999999994 -0.8079999999999998 1.5951 -0.030999999999999694 0
1265.014 -1.6006999999999998 -1.7271 -2.2029999999999994 -0.8079999999999998 1.5951 -0.030999999999999694 0
1265.0339999999999 -1.6006999999999998 -1.7271 -2.2029999999999994 -0.8079999999999998 1.5951 -0.030999999999999694 0
1265.0539999999999 -1.6006999999999998 -1.7271 -2.2029999999999994 -0.8079999999999998 1.5951 -0.030999999999999694 0
1265.0739999999998 -1.6006999999999998 -1.7271 -2.2029999999999994 -0.8079999999999998 1.5951 -0.030999999999999694 0
1265.094 -1.6006999999999998 -1.7271 -2.2029999999999994 -0.8079999999999998 1.5951 -0.030999999999999694 0
1265.114 -1.6006999999999998 -1.7271 -2.2029999999999994 -0.8079999999999998 1.5951 -0.030999999999999694 0
1265.134 -1.6006999999999998 -1.7271 -2.2029999999999994 -0.8079999999999998 1.5951 -0.030999999999999694 0
1265.154 -1.6006999999999998 -1.7271 -2.2029999999999994 -0.8079999999999998 1.5951 -0.030999999999999694 0
1265.174 -1.6006999999999998 -1.7271 -2.2029999999999994 -0.8079999999999998 1.5951 -0.030999999999999694 0
1265.194 -1.6006999999999998 -1.7271 -2.2029999999999994 -0.8079999999999998 1.5951 -0.030999999999999694 0
1265.214 -1.6006999999999998 -1.7271 -2.2029999999999994 -0.8079999999999998 1.5951 -0.030999999999999694 0
1265.234 -1.6006999999999998 -1.7271 -2.2029999999999994 -0.8079999999999998 1.5951 -0.030999999999999694 0
1265.254 -1.6006999999999998 -1.7271 -2.2029999999999994 -0.8079999999999998 1.5951 -0.030999999999999694 0
1265.274 -1.6006999999999998 -1.7271 -2.2029999999999994 -0.8079999999999998 1.5951 -0.030999999999999694 0
1265.2939999999999 -1.6006999999999998 -1.7271 -2.2029999999999994 -0.8079999999999998 1.5951 -0.030999999999999694 0
1265.3139999999999 -1.6006999999999998 -1.7271 -2.2029999999999994 -0.8079999999999998 1.5951 -0.030999999999999694 0
1265.3339999999998 -1.6006999999999998 -1.7271 -2.2029999999999994 -0.8079999999999998 1.5951 -0.030999999999999694 0
1265.354 -1.6006999999999998 -1.7271 -2.2029999999999994 -0.8079999999999998 1.5951 -0.030999999999999694 0
1265.374 -1.6006999999999998 -1.7271 -2.2029999999999994 -0.8079999999999998 1.5951 -0.030999999999999694 0
1265.394 -1.6006999999999998 -1.7271 -2.2029999999999994 -0.8079999999999998 1.5951 -0.030999999999999694 0
1265.414 -1.6006999999999998 -1.7271 -2.2029999999999994 -0.8079999999999998 1.5951 -0.030999999999999694 0
1265.434 -1.6006999999999998 -1.7271 -2.2029999999999994 -0.8079999999999998 1.5951 -0.030999999999999694 0
1265.454 -1.6006999999999998 -1.7271 -2.2029999999999994 -0.8079999999999998 1.5951 -0.030999999999999694 0
1265.474 -1.6006999999999998 -1.7271 -2.2029999999999994 -0.8079999999999998 1.5951 -0.030999999999999694 0
1265.494 -1.6006999999999998 -1.7271 -2.2029999999999994 -0.8079999999999998 1.5951 -0.030999999999999694 0
1265.514 -1.6006999999999998 -1.7271 -2.2029999999999994 -0.8079999999999998 1.5951 -0.030999999999999694 0
1265.5339999999999 -1.6006999999999998 -1.7271 -2.2029999999999994 -0.8079999999999998 1.5951 -0.030999999999999694 0
1265.5539999999999 -1.6006999999999998 -1.7271 -2.2029999999999994 -0.8079999999999998 1.5951 -0.030999999999999694 0
1265.5739999999998 -1.6006999999999998 -1.7271 -2.2029999999999994 -0.8079999999999998 1.5951 -0.030999999999999694 0
1265.594 -1.6006999999999998 -1.7271 -2.2029999999999994 -0.8079999999999998 1.5951 -0.030999999999999694 0
1265.614 -1.6006999999999998 -1.7271 -2.2029999999999994 -0.8079999999999998 1.5951 -0.030999999999999694 0
1265.634 -1.6006999999999998 -1.7271 -2.2029999999999994 -0.8079999999999998 1.5951 -0.030999999999999694 0
1265.654 -1.6006999999999998 -1.7271 -2.2029999999999994 -0.8079999999999998 1.5951 -0.030999999999999694 0
1265.674 -1.6006999999999998 -1.7271 -2.2029999999999994 -0.8079999999999998 1.5951 -0.030999999999999694 0
1265.694 -1.6006999999999998 -1.7271 -2.2029999999999994 -0.8079999999999998 1.5951 -0.030999999999999694 0
1265.714 -1.6006999999999998 -1.7271 -2.2029999999999994 -0.8079999999999998 1.5951 -0.030999999999999694 0
1265.734 -1.6006999999999998 -1.7271 -2.2029999999999994 -0.8079999999999998 1.5951 -0.030999999999999694 0
1265.754 -1.6006999999999998 -1.7271 -2.2029999999999994 -0.8079999999999998 1.5951 -0.030999999999999694 0
1265.774 -1.6006999999999998 -1.7271 -2.2029999999999994 -0.8079999999999998 1.5951 -0.030999999999999694 0
1265.7939999999999 -1.6006999999999998 -1.7271 -2.2029999999999994 -0.8079999999999998 1.5951 -0.030999999999999694 0
1265.8139999999999 -1.6006999999999998 -1.7271 -2.2029999999999994 -0.8079999999999998 1.5951 -0.030999999999999694 0
1265.8339999999998 -1.6006999999999998 -1.7271 -2.2029999999999994 -0.8079999999999998 1.5951 -0.030999999999999694 0
1265.854 -1.6006999999999998 -1.7271 -2.2029999999999994 -0.8079999999999998 1.5951 -0.030999999999999694 0
1265.874 -1.6006999999999998 -1.7271 -2.2029999999999994 -0.8079999999999998 1.5951 -0.030999999999999694 0
1265.894 -1.6006999999999998 -1.7271 -2.2029999999999994 -0.8079999999999998 1.5951 -0.030999999999999694 0
1265.914 -1.6006999999999998 -1.7271 -2.2029999999999994 -0.8079999999999998 1.5951 -0.030999999999999694 0
1265.934 -1.6006999999999998 -1.7271 -2.2029999999999994 -0.8079999999999998 1.5951 -0.030999999999999694 0
1265.954 -1.6006999999999998 -1.7271 -2.2029999999999994 -0.8079999999999998 1.5951 -0.030999999999999694 0
1265.974 -1.6006999999999998 -1.7271 -2.2029999999999994 -0.8079999999999998 1.5951 -0.030999999999999694 0
1265.994 -1.6006999999999998 -1.7271 -2.2029999999999994 -0.8079999999999998 1.5951 -0.030999999999999694 0
1266.014 -1.6006999999999998 -1.7271 -2.2029999999999994 -0.8079999999999998 1.5951 -0.030999999999999694 0
1266.0339999999999 -1.6006999999999998 -1.7271 -2.2029999999999994 -0.8079999999999998 1.5951 -0.030999999999999694 0
1266.0539999999999 -1.6006999999999998 -1.7271 -2.2029999999999994 -0.8079999999999998 1.5951 -0.030999999999999694 0
1266.0739999999998 -1.6006999999999998 -1.7271 -2.2029999999999994 -0.8079999999999998 1.5951 -0.030999999999999694 0
1266.094 -1.6006999999999998 -1.7271 -2.2029999999999994 -0.8079999999999998 1.5951 -0.030999999999999694 0
1266.114 -1.6006999999999998 -1.7271 -2.2029999999999994 -0.8079999999999998 1.5951 -0.030999999999999694 0
1266.134 -1.6006999999999998 -1.7271 -2.2029999999999994 -0.8079999999999998 1.5951 -0.030999999999999694 0
1266.154 -1.6006999999999998 -1.7271 -2.2029999999999994 -0.8079999999999998 1.5951 -0.030999999999999694 0
1266.174 -1.6006999999999998 -1.7271 -2.2029999999999994 -0.8079999999999998 1.5951 -0.030999999999999694 0
1266.194 -1.6006999999999998 -1.7271 -2.2029999999999994 -0.8079999999999998 1.5951 -0.030999999999999694 0
1266.214 -1.6006999999999998 -1.7271 -2.2029999999999994 -0.8079999999999998 1.5951 -0.030999999999999694 0
1266.234 -1.6006999999999998 -1.7271 -2.2029999999999994 -0.8079999999999998 1.5951 -0.030999999999999694 0
1266.254 -1.6006999999999998 -1.7271 -2.2029999999999994 -0.8079999999999998 1.5951 -0.030999999999999694 0
1266.274 -1.6006999999999998 -1.7271 -2.2029999999999994 -0.8079999999999998 1.5951 -0.030999999999999694 0
1266.2939999999999 -1.6006999999999998 -1.7271 -2.2029999999999994 -0.8079999999999998 1.5951 -0.030999999999999694 0
1266.3139999999999 -1.6006999999999998 -1.7271 -2.2029999999999994 -0.8079999999999998 1.5951 -0.030999999999999694 0
1266.3339999999998 -1.6006999999999998 -1.7271 -2.2029999999999994 -0.8079999999999998 1.5951 -0.030999999999999694 0
1266.354 -1.6006999999999998 -1.7271 -2.2029999999999994 -0.8079999999999998 1.5951 -0.030999999999999694 0
1266.374 -1.6006999999999998 -1.7271 -2.2029999999999994 -0.8079999999999998 1.5951 -0.030999999999999694 0
1266.394 -1.6006999999999998 -1.7271 -2.2029999999999994 -0.8079999999999998 1.5951 -0.030999999999999694 0
1266.414 -1.6006999999999998 -1.7271 -2.2029999999999994 -0.8079999999999998 1.5951 -0.030999999999999694 0
1266.434 -1.6006999999999998 -1.7271 -2.2029999999999994 -0.8079999999999998 1.5951 -0.030999999999999694 0
1266.454 -1.6006999999999998 -1.7271 -2.2029999999999994 -0.8079999999999998 1.5951 -0.030999999999999694 0
1266.474 -1.6006999999999998 -1.7271 -2.2029999999999994 -0.8079999999999998 1.5951 -0.030999999999999694 0
1266.494 -1.6006999999999998 -1.7271 -2.2029999999999994 -0.8079999999999998 1.5951 -0.030999999999999694 0
1266.514 -1.6006999999999998 -1.7271 -2.2029999999999994 -0.8079999999999998 1.5951 -0.030999999999999694 0
1266.5339999999999 -1.6006999999999998 -1.7271 -2.2029999999999994 -0.8079999999999998 1.5951 -0.030999999999999694 0
1266.5539999999999 -1.6006999999999998 -1.7271 -2.2029999999999994 -0.8079999999999998 1.5951 -0.030999999999999694 0
1266.5739999999998 -1.6006999999999998 -1.7271 -2.2029999999999994 -0.8079999999999998 1.5951 -0.030999999999999694 0
1266.594 -1.6006999999999998 -1.7271 -2.2029999999999994 -0.8079999999999998 1.5951 -0.030999999999999694 0
1266.614 -1.6006999999999998 -1.7271 -2.2029999999999994 -0.8079999999999998 1.5951 -0.030999999999999694 0
1266.634 -1.6006999999999998 -1.7271 -2.2029999999999994 -0.8079999999999998 1.5951 -0.030999999999999694 0
1266.654 -1.6006999999999998 -1.7271 -2.2029999999999994 -0.8079999999999998 1.5951 -0.030999999999999694 0
1266.674 -1.6006999999999998 -1.7271 -2.2029999999999994 -0.8079999999999998 1.5951 -0.030999999999999694 0
1266.694 -1.6006999999999998 -1.7271 -2.2029999999999994 -0.8079999999999998 1.5951 -0.030999999999999694 0
1266.714 -1.6006999999999998 -1.7271 -2.2029999999999994 -0.8079999999999998 1.5951 -0.030999999999999694 0
1266.734 -1.6006999999999998 -1.7271 -2.2029999999999994 -0.8079999999999998 1.5951 -0.030999999999999694 0
1266.754 -1.6006999999999998 -1.7271 -2.2029999999999994 -0.8079999999999998 1.5951 -0.030999999999999694 0
1266.774 -1.6006999999999998 -1.7271 -2.2029999999999994 -0.8079999999999998 1.5951 -0.030999999999999694 0
1266.7939999999999 -1.6006999999999998 -1.7271 -2.2029999999999994 -0.8079999999999998 1.5951 -0.030999999999999694 0
1266.8139999999999 -1.6006999999999998 -1.7271 -2.2029999999999994 -0.8079999999999998 1.5951 -0.030999999999999694 0
1266.8339999999998 -1.6006999999999998 -1.7271 -2.2029999999999994 -0.8079999999999998 1.5951 -0.030999999999999694 0
1266.854 -1.6006999999999998 -1.7271 -2.2029999999999994 -0.8079999999999998 1.5951 -0.030999999999999694 0
1266.874 -1.6006999999999998 -1.7271 -2.2029999999999994 -0.8079999999999998 1.5951 -0.030999999999999694 0
1266.894 -1.6006999999999998 -1.7271 -2.2029999999999994 -0.8079999999999998 1.5951 -0.030999999999999694 0
1266.914 -1.6006999999999998 -1.7271 -2.2029999999999994 -0.8079999999999998 1.5951 -0.030999999999999694 0
1266.934 -1.6006999999999998 -1.7271 -2.2029999999999994 -0.8079999999999998 1.5951 -0.030999999999999694 0
1266.954 -1.6006999999999998 -1.7271 -2.2029999999999994 -0.8079999999999998 1.5951 -0.030999999999999694 0
1266.974 -1.6006999999999998 -1.7271 -2.2029999999999994 -0.8079999999999998 1.5951 -0.030999999999999694 0
1266.994 -1.6006999999999998 -1.7271 -2.2029999999999994 -0.8079999999999998 1.5951 -0.030999999999999694 0
1267.014 -1.6006999999999998 -1.7271 -2.2029999999999994 -0.8079999999999998 1.5951 -0.030999999999999694 0
1267.0339999999999 -1.6006999999999998 -1.7271 -2.2029999999999994 -0.8079999999999998 1.5951 -0.030999999999999694 0
1267.0539999999999 -1.6006999999999998 -1.7271 -2.2029999999999994 -0.8079999999999998 1.5951 -0.030999999999999694 0
1267.0739999999998 -1.6006999999999998 -1.7271 -2.2029999999999994 -0.8079999999999998 1.5951 -0.030999999999999694 0
1267.094 -1.6006999999999998 -1.7271 -2.2029999999999994 -0.8079999999999998 1.5951 -0.030999999999999694 0
1267.114 -1.6006999999999998 -1.7271 -2.2029999999999994 -0.8079999999999998 1.5951 -0.030999999999999694 0
1267.134 -1.6006999999999998 -1.7271 -2.2029999999999994 -0.8079999999999998 1.5951 -0.030999999999999694 0
1267.154 -1.6006999999999998 -1.7271 -2.2029999999999994 -0.8079999999999998 1.5951 -0.030999999999999694 0
1267.174 -1.6006999999999998 -1.7271 -2.2029999999999994 -0.8079999999999998 1.5951 -0.030999999999999694 0
1267.194 -1.6006999999999998 -1.7271 -2.2029999999999994 -0.8079999999999998 1.5951 -0.030999999999999694 0
1267.214 -1.6006999999999998 -1.7271 -2.2029999999999994 -0.8079999999999998 1.5951 -0.030999999999999694 0
1267.234 -1.6006999999999998 -1.7271 -2.2029999999999994 -0.8079999999999998 1.5951 -0.030999999999999694 0
1267.254 -1.6006999999999998 -1.7271 -2.2029999999999994 -0.8079999999999998 1.5951 -0.030999999999999694 0
1267.274 -1.6006999999999998 -1.7271 -2.2029999999999994 -0.8079999999999998 1.5951 -0.030999999999999694 0
1267.2939999999999 -1.6006999999999998 -1.7271 -2.2029999999999994 -0.8079999999999998 1.5951 -0.030999999999999694 0
1267.3139999999999 -1.6006999999999998 -1.7271 -2.2029999999999994 -0.8079999999999998 1.5951 -0.030999999999999694 0
1267.3339999999998 -1.6006999999999998 -1.7271 -2.2029999999999994 -0.8079999999999998 1.5951 -0.030999999999999694 0
1267.354 -1.6006999999999998 -1.7271 -2.2029999999999994 -0.8079999999999998 1.5951 -0.030999999999999694 0
1267.374 -1.6006999999999998 -1.7271 -2.2029999999999994 -0.8079999999999998 1.5951 -0.030999999999999694 0
1267.394 -1.6006999999999998 -1.7271 -2.2029999999999994 -0.8079999999999998 1.5951 -0.030999999999999694 0
1267.414 -1.6006999999999998 -1.7271 -2.2029999999999994 -0.8079999999999998 1.5951 -0.030999999999999694 0
1267.434 -1.6006999999999998 -1.7271 -2.2029999999999994 -0.8079999999999998 1.5951 -0.030999999999999694 0
1267.454 -1.6006999999999998 -1.7271 -2.2029999999999994 -0.8079999999999998 1.5951 -0.030999999999999694 0
1267.474 -1.6006999999999998 -1.7271 -2.2029999999999994 -0.8079999999999998 1.5951 -0.030999999999999694 0
1267.494 -1.6006999999999998 -1.7271 -2.2029999999999994 -0.8079999999999998 1.5951 -0.030999999999999694 0
1267.5159999999998 -1.6006999999999998 -1.7271 -2.2029999999999994 -0.8079999999999998 1.5951 -0.030999999999999694 0
1267.55 -1.6006999999999998 -1.7271 -2.2029999999999994 -0.8079999999999998 1.5951 -0.030999999999999694 0
1267.5539999999999 -1.6006999999999998 -1.7271 -2.2029999999999994 -0.8079999999999998 1.5951 -0.030999999999999694 0
1267.5739999999998 -1.6006999999999998 -1.7271 -2.2029999999999994 -0.8079999999999998 1.5951 -0.030999999999999694 0
1267.594 -1.6006999999999998 -1.7271 -2.2029999999999994 -0.8079999999999998 1.5951 -0.030999999999999694 0
1267.614 -1.6006999999999998 -1.7271 -2.2029999999999994 -0.8079999999999998 1.5951 -0.030999999999999694 0
1267.634 -1.6006999999999998 -1.7271 -2.2029999999999994 -0.8079999999999998 1.5951 -0.030999999999999694 0
1267.6599999999999 -1.6006999999999998 -1.7271 -2.2029999999999994 -0.8079999999999998 1.5951 -0.030999999999999694 0
1267.674 -1.6006999999999998 -1.7271 -2.2029999999999994 -0.8079999999999998 1.5951 -0.030999999999999694 0
1267.694 -1.6006999999999998 -1.7271 -2.2029999999999994 -0.8079999999999998 1.5951 -0.030999999999999694 0
1267.714 -1.6006999999999998 -1.7271 -2.2029999999999994 -0.8079999999999998 1.5951 -0.030999999999999694 0
1267.734 -1.6006999999999998 -1.7271 -2.2029999999999994 -0.8079999999999998 1.5951 -0.030999999999999694 0
1267.754 -1.6006999999999998 -1.7271 -2.2029999999999994 -0.8079999999999998 1.5951 -0.030999999999999694 0
1267.774 -1.6006999999999998 -1.7271 -2.2029999999999994 -0.8079999999999998 1.5951 -0.030999999999999694 0
1267.7939999999999 -1.6006999999999998 -1.7271 -2.2029999999999994 -0.8079999999999998 1.5951 -0.030999999999999694 0
1267.8139999999999 -1.6006999999999998 -1.7271 -2.2029999999999994 -0.8079999999999998 1.5951 -0.030999999999999694 0
1267.8339999999998 -1.6006999999999998 -1.7271 -2.2029999999999994 -0.8079999999999998 1.5951 -0.030999999999999694 0
1267.854 -1.6006999999999998 -1.7271 -2.2029999999999994 -0.8079999999999998 1.5951 -0.030999999999999694 0
1267.874 -1.6006999999999998 -1.7271 -2.2029999999999994 -0.8079999999999998 1.5951 -0.030999999999999694 0
1267.894 -1.6006999999999998 -1.7271 -2.2029999999999994 -0.8079999999999998 1.5951 -0.030999999999999694 0
1267.914 -1.6006999999999998 -1.7271 -2.2029999999999994 -0.8079999999999998 1.5951 -0.030999999999999694 0
1267.934 -1.6006999999999998 -1.7271 -2.2029999999999994 -0.8079999999999998 1.5951 -0.030999999999999694 0
1267.954 -1.6006999999999998 -1.7271 -2.2029999999999994 -0.8079999999999998 1.5951 -0.030999999999999694 0
1267.974 -1.6006999999999998 -1.7271 -2.2029999999999994 -0.8079999999999998 1.5951 -0.030999999999999694 0
1267.994 -1.6006999999999998 -1.7271 -2.2029999999999994 -0.8079999999999998 1.5951 -0.030999999999999694 0
1268.014 -1.6006999999999998 -1.7271 -2.2029999999999994 -0.8079999999999998 1.5951 -0.030999999999999694 0
1268.0339999999999 -1.6006999999999998 -1.7271 -2.2029999999999994 -0.8079999999999998 1.5951 -0.030999999999999694 0
1268.0539999999999 -1.6006999999999998 -1.7271 -2.2029999999999994 -0.8079999999999998 1.5951 -0.030999999999999694 0
1268.0739999999998 -1.6006999999999998 -1.7271 -2.2029999999999994 -0.8079999999999998 1.5951 -0.030999999999999694 0
1268.094 -1.6006999999999998 -1.7271 -2.2029999999999994 -0.8079999999999998 1.5951 -0.030999999999999694 0
1268.1219999999998 -1.6006999999999998 -1.7271 -2.2029999999999994 -0.8079999999999998 1.5951 -0.030999999999999694 0
1268.158 -1.6006999999999998 -1.7271 -2.2029999999999994 -0.8079999999999998 1.5951 -0.030999999999999694 0
1268.1799999999998 -1.6006999999999998 -1.7271 -2.2029999999999994 -0.8079999999999998 1.5951 -0.030999999999999694 0
1268.1979999999999 -1.6006999999999998 -1.7271 -2.2029999999999994 -0.8079999999999998 1.5951 -0.030999999999999694 0
1268.214 -1.6006999999999998 -1.7271 -2.2029999999999994 -0.8079999999999998 1.5951 -0.030999999999999694 0
1268.2359999999999 -1.6006999999999998 -1.7271 -2.2029999999999994 -0.8079999999999998 1.5951 -0.030999999999999694 0
1268.254 -1.6006999999999998 -1.7271 -2.2029999999999994 -0.8079999999999998 1.5951 -0.030999999999999694 0
1268.274 -1.6006999999999998 -1.7271 -2.2029999999999994 -0.8079999999999998 1.5951 -0.030999999999999694 0
1268.298 -1.6006999999999998 -1.7271 -2.2029999999999994 -0.8079999999999998 1.5951 -0.030999999999999694 0
1268.3139999999999 -1.6006999999999998 -1.7271 -2.2029999999999994 -0.8079999999999998 1.5951 -0.030999999999999694 0
1268.3519999999999 -1.6006999999999998 -1.7271 -2.2029999999999994 -0.8079999999999998 1.5951 -0.030999999999999694 0
1268.354 -1.6006999999999998 -1.7271 -2.2029999999999994 -0.8079999999999998 1.5951 -0.030999999999999694 0
1268.392 -1.6006999999999998 -1.7271 -2.2029999999999994 -0.8079999999999998 1.5951 -0.030999999999999694 0
1268.394 -1.6006999999999998 -1.7271 -2.2029999999999994 -0.8079999999999998 1.5951 -0.030999999999999694 0
1268.432 -1.6006999999999998 -1.7271 -2.2029999999999994 -0.8079999999999998 1.5951 -0.030999999999999694 0
1268.434 -1.6006999999999998 -1.7271 -2.2029999999999994 -0.8079999999999998 1.5951 -0.030999999999999694 0
1268.454 -1.6006999999999998 -1.7271 -2.2029999999999994 -0.8079999999999998 1.5951 -0.030999999999999694 0
1268.474 -1.6006999999999998 -1.7271 -2.2029999999999994 -0.8079999999999998 1.5951 -0.030999999999999694 0
1268.494 -1.6006999999999998 -1.7271 -2.2029999999999994 -0.8079999999999998 1.5951 -0.030999999999999694 0
1268.514 -1.6006999999999998 -1.7271 -2.2029999999999994 -0.8079999999999998 1.5951 -0.030999999999999694 0
1268.5339999999999 -1.6006999999999998 -1.7271 -2.2029999999999994 -0.8079999999999998 1.5951 -0.030999999999999694 0
1268.5539999999999 -1.6006999999999998 -1.7271 -2.2029999999999994 -0.8079999999999998 1.5951 -0.030999999999999694 0
1268.5739999999998 -1.6006999999999998 -1.7271 -2.2029999999999994 -0.8079999999999998 1.5951 -0.030999999999999694 0
1268.594 -1.6006999999999998 -1.7271 -2.2029999999999994 -0.8079999999999998 1.5951 -0.030999999999999694 0
1268.614 -1.6006999999999998 -1.7271 -2.2029999999999994 -0.8079999999999998 1.5951 -0.030999999999999694 0
1268.634 -1.6006999999999998 -1.7271 -2.2029999999999994 -0.8079999999999998 1.5951 -0.030999999999999694 0
1268.654 -1.6006999999999998 -1.7271 -2.2029999999999994 -0.8079999999999998 1.5951 -0.030999999999999694 0
1268.674 -1.6006999999999998 -1.7271 -2.2029999999999994 -0.8079999999999998 1.5951 -0.030999999999999694 0
1268.694 -1.6006999999999998 -1.7271 -2.2029999999999994 -0.8079999999999998 1.5951 -0.030999999999999694 0
1268.714 -1.6006999999999998 -1.7271 -2.2029999999999994 -0.8079999999999998 1.5951 -0.030999999999999694 0
1268.734 -1.6006999999999998 -1.7271 -2.2029999999999994 -0.8079999999999998 1.5951 -0.030999999999999694 0
1268.754 -1.6006999999999998 -1.7271 -2.2029999999999994 -0.8079999999999998 1.5951 -0.030999999999999694 0
1268.774 -1.6006999999999998 -1.7271 -2.2029999999999994 -0.8079999999999998 1.5951 -0.030999999999999694 0
1268.7939999999999 -1.6006999999999998 -1.7271 -2.2029999999999994 -0.8079999999999998 1.5951 -0.030999999999999694 0
1268.8139999999999 -1.6006999999999998 -1.7271 -2.2029999999999994 -0.8079999999999998 1.5951 -0.030999999999999694 0
1268.8339999999998 -1.6006999999999998 -1.7271 -2.2029999999999994 -0.8079999999999998 1.5951 -0.030999999999999694 0
1268.854 -1.6006999999999998 -1.7271 -2.2029999999999994 -0.8079999999999998 1.5951 -0.030999999999999694 0
1268.874 -1.6006999999999998 -1.7271 -2.2029999999999994 -0.8079999999999998 1.5951 -0.030999999999999694 0
1268.894 -1.6006999999999998 -1.7271 -2.2029999999999994 -0.8079999999999998 1.5951 -0.030999999999999694 0
1268.914 -1.6006999999999998 -1.7271 -2.2029999999999994 -0.8079999999999998 1.5951 -0.030999999999999694 0
1268.934 -1.6006999999999998 -1.7271 -2.2029999999999994 -0.8079999999999998 1.5951 -0.030999999999999694 0
1268.954 -1.6006999999999998 -1.7271 -2.2029999999999994 -0.8079999999999998 1.5951 -0.030999999999999694 0
1268.974 -1.6006999999999998 -1.7271 -2.2029999999999994 -0.8079999999999998 1.5951 -0.030999999999999694 0
1268.994 -1.6006999999999998 -1.7271 -2.2029999999999994 -0.8079999999999998 1.5951 -0.030999999999999694 0
1269.014 -1.6006999999999998 -1.7271 -2.2029999999999994 -0.8079999999999998 1.5951 -0.030999999999999694 0
1269.0339999999999 -1.6006999999999998 -1.7271 -2.2029999999999994 -0.8079999999999998 1.5951 -0.030999999999999694 0
1269.0539999999999 -1.6006999999999998 -1.7271 -2.2029999999999994 -0.8079999999999998 1.5951 -0.030999999999999694 0
1269.0739999999998 -1.6006999999999998 -1.7271 -2.2029999999999994 -0.8079999999999998 1.5951 -0.030999999999999694 0
1269.094 -1.6006999999999998 -1.7271 -2.2029999999999994 -0.8079999999999998 1.5951 -0.030999999999999694 0
1269.114 -1.6006999999999998 -1.7271 -2.2029999999999994 -0.8079999999999998 1.5951 -0.030999999999999694 0
1269.134 -1.6006999999999998 -1.7271 -2.2029999999999994 -0.8079999999999998 1.5951 -0.030999999999999694 0
1269.154 -1.6006999999999998 -1.7271 -2.2029999999999994 -0.8079999999999998 1.5951 -0.030999999999999694 0
1269.174 -1.6006999999999998 -1.7271 -2.2029999999999994 -0.8079999999999998 1.5951 -0.030999999999999694 0
1269.194 -1.6006999999999998 -1.7271 -2.2029999999999994 -0.8079999999999998 1.5951 -0.030999999999999694 0
1269.214 -1.6006999999999998 -1.7271 -2.2029999999999994 -0.8079999999999998 1.5951 -0.030999999999999694 0
1269.234 -1.6006999999999998 -1.7271 -2.2029999999999994 -0.8079999999999998 1.5951 -0.030999999999999694 0
1269.254 -1.6006999999999998 -1.7271 -2.2029999999999994 -0.8079999999999998 1.5951 -0.030999999999999694 0
1269.274 -1.6006999999999998 -1.7271 -2.2029999999999994 -0.8079999999999998 1.5951 -0.030999999999999694 0
1269.2939999999999 -1.6006999999999998 -1.7271 -2.2029999999999994 -0.8079999999999998 1.5951 -0.030999999999999694 0
1269.3139999999999 -1.6006999999999998 -1.7271 -2.2029999999999994 -0.8079999999999998 1.5951 -0.030999999999999694 0
1269.3339999999998 -1.6006999999999998 -1.7271 -2.2029999999999994 -0.8079999999999998 1.5951 -0.030999999999999694 0
1269.354 -1.6006999999999998 -1.7271 -2.2029999999999994 -0.8079999999999998 1.5951 -0.030999999999999694 0
1269.374 -1.6006999999999998 -1.7271 -2.2029999999999994 -0.8079999999999998 1.5951 -0.030999999999999694 0
1269.394 -1.6006999999999998 -1.7271 -2.2029999999999994 -0.8079999999999998 1.5951 -0.030999999999999694 0
1269.414 -1.6006999999999998 -1.7271 -2.2029999999999994 -0.8079999999999998 1.5951 -0.030999999999999694 0
1269.434 -1.6006999999999998 -1.7271 -2.2029999999999994 -0.8079999999999998 1.5951 -0.030999999999999694 0
1269.454 -1.6006999999999998 -1.7271 -2.2029999999999994 -0.8079999999999998 1.5951 -0.030999999999999694 0
1269.474 -1.6006999999999998 -1.7271 -2.2029999999999994 -0.8079999999999998 1.5951 -0.030999999999999694 0
1269.494 -1.6006999999999998 -1.7271 -2.2029999999999994 -0.8079999999999998 1.5951 -0.030999999999999694 0
1269.514 -1.6006999999999998 -1.7271 -2.2029999999999994 -0.8079999999999998 1.5951 -0.030999999999999694 0
1269.5339999999999 -1.6006999999999998 -1.7271 -2.2029999999999994 -0.8079999999999998 1.5951 -0.030999999999999694 0
1269.5539999999999 -1.6006999999999998 -1.7271 -2.2029999999999994 -0.8079999999999998 1.5951 -0.030999999999999694 0
1269.5739999999998 -1.6006999999999998 -1.7271 -2.2029999999999994 -0.8079999999999998 1.5951 -0.030999999999999694 0
1269.594 -1.6006999999999998 -1.7271 -2.2029999999999994 -0.8079999999999998 1.5951 -0.030999999999999694 0
1269.614 -1.6006999999999998 -1.7271 -2.2029999999999994 -0.8079999999999998 1.5951 -0.030999999999999694 0
1269.634 -1.6006999999999998 -1.7271 -2.2029999999999994 -0.8079999999999998 1.5951 -0.030999999999999694 0
1269.654 -1.6006999999999998 -1.7271 -2.2029999999999994 -0.8079999999999998 1.5951 -0.030999999999999694 0
1269.674 -1.6006999999999998 -1.7271 -2.2029999999999994 -0.8079999999999998 1.5951 -0.030999999999999694 0
1269.694 -1.6006999999999998 -1.7271 -2.2029999999999994 -0.8079999999999998 1.5951 -0.030999999999999694 0
1269.714 -1.6006999999999998 -1.7271 -2.2029999999999994 -0.8079999999999998 1.5951 -0.030999999999999694 0
1269.734 -1.6006999999999998 -1.7271 -2.2029999999999994 -0.8079999999999998 1.5951 -0.030999999999999694 0
1269.754 -1.6006999999999998 -1.7271 -2.2029999999999994 -0.8079999999999998 1.5951 -0.030999999999999694 0
1269.774 -1.6006999999999998 -1.7271 -2.2029999999999994 -0.8079999999999998 1.5951 -0.030999999999999694 0
1269.7939999999999 -1.6006999999999998 -1.7271 -2.2029999999999994 -0.8079999999999998 1.5951 -0.030999999999999694 0
1269.8139999999999 -1.6006999999999998 -1.7271 -2.2029999999999994 -0.8079999999999998 1.5951 -0.030999999999999694 0
1269.8339999999998 -1.6006999999999998 -1.7271 -2.2029999999999994 -0.8079999999999998 1.5951 -0.030999999999999694 0
1269.854 -1.6006999999999998 -1.7271 -2.2029999999999994 -0.8079999999999998 1.5951 -0.030999999999999694 0
1269.874 -1.6006999999999998 -1.7271 -2.2029999999999994 -0.8079999999999998 1.5951 -0.030999999999999694 0
1269.894 -1.6006999999999998 -1.7271 -2.2029999999999994 -0.8079999999999998 1.5951 -0.030999999999999694 0
1269.914 -1.6006999999999998 -1.7271 -2.2029999999999994 -0.8079999999999998 1.5951 -0.030999999999999694 0
1269.934 -1.6006999999999998 -1.7271 -2.2029999999999994 -0.8079999999999998 1.5951 -0.030999999999999694 0
1269.954 -1.6006999999999998 -1.7271 -2.2029999999999994 -0.8079999999999998 1.5951 -0.030999999999999694 0
1269.974 -1.6006999999999998 -1.7271 -2.2029999999999994 -0.8079999999999998 1.5951 -0.030999999999999694 0
1269.994 -1.6006999999999998 -1.7271 -2.2029999999999994 -0.8079999999999998 1.5951 -0.030999999999999694 0
1270.014 -1.6006999999999998 -1.7271 -2.2029999999999994 -0.8079999999999998 1.5951 -0.030999999999999694 0
1270.0339999999999 -1.6006999999999998 -1.7271 -2.2029999999999994 -0.8079999999999998 1.5951 -0.030999999999999694 0
1270.0539999999999 -1.6006999999999998 -1.7271 -2.2029999999999994 -0.8079999999999998 1.5951 -0.030999999999999694 0
1270.0739999999998 -1.6006999999999998 -1.7271 -2.2029999999999994 -0.8079999999999998 1.5951 -0.030999999999999694 0
1270.094 -1.6006999999999998 -1.7271 -2.2029999999999994 -0.8079999999999998 1.5951 -0.030999999999999694 0
1270.114 -1.6006999999999998 -1.7271 -2.2029999999999994 -0.8079999999999998 1.5951 -0.030999999999999694 0
1270.134 -1.6006999999999998 -1.7271 -2.2029999999999994 -0.8079999999999998 1.5951 -0.030999999999999694 0
1270.154 -1.6006999999999998 -1.7271 -2.2029999999999994 -0.8079999999999998 1.5951 -0.030999999999999694 0
1270.174 -1.6006999999999998 -1.7271 -2.2029999999999994 -0.8079999999999998 1.5951 -0.030999999999999694 0
1270.194 -1.6006999999999998 -1.7271 -2.2029999999999994 -0.8079999999999998 1.5951 -0.030999999999999694 0
1270.214 -1.6006999999999998 -1.7271 -2.2029999999999994 -0.8079999999999998 1.5951 -0.030999999999999694 0
1270.234 -1.6006999999999998 -1.7271 -2.2029999999999994 -0.8079999999999998 1.5951 -0.030999999999999694 0
1270.254 -1.6006999999999998 -1.7271 -2.2029999999999994 -0.8079999999999998 1.5951 -0.030999999999999694 0
1270.274 -1.6006999999999998 -1.7271 -2.2029999999999994 -0.8079999999999998 1.5951 -0.030999999999999694 0
1270.2939999999999 -1.6006999999999998 -1.7271 -2.2029999999999994 -0.8079999999999998 1.5951 -0.030999999999999694 0
1270.3139999999999 -1.6006999999999998 -1.7271 -2.2029999999999994 -0.8079999999999998 1.5951 -0.030999999999999694 0
1270.3339999999998 -1.6006999999999998 -1.7271 -2.2029999999999994 -0.8079999999999998 1.5951 -0.030999999999999694 0
1270.354 -1.6006999999999998 -1.7271 -2.2029999999999994 -0.8079999999999998 1.5951 -0.030999999999999694 0
1270.374 -1.6006999999999998 -1.7271 -2.2029999999999994 -0.8079999999999998 1.5951 -0.030999999999999694 0
1270.394 -1.6006999999999998 -1.7271 -2.2029999999999994 -0.8079999999999998 1.5951 -0.030999999999999694 0
1270.414 -1.6006999999999998 -1.7271 -2.2029999999999994 -0.8079999999999998 1.5951 -0.030999999999999694 0
1270.434 -1.6006999999999998 -1.7271 -2.2029999999999994 -0.8079999999999998 1.5951 -0.030999999999999694 0
1270.454 -1.6006999999999998 -1.7271 -2.2029999999999994 -0.8079999999999998 1.5951 -0.030999999999999694 0
1270.474 -1.6006999999999998 -1.7271 -2.2029999999999994 -0.8079999999999998 1.5951 -0.030999999999999694 0
1270.494 -1.6006999999999998 -1.7271 -2.2029999999999994 -0.8079999999999998 1.5951 -0.030999999999999694 0
1270.514 -1.6006999999999998 -1.7271 -2.2029999999999994 -0.8079999999999998 1.5951 -0.030999999999999694 0
1270.5339999999999 -1.6006999999999998 -1.7271 -2.2029999999999994 -0.8079999999999998 1.5951 -0.030999999999999694 0
1270.5539999999999 -1.6006999999999998 -1.7271 -2.2029999999999994 -0.8079999999999998 1.5951 -0.030999999999999694 0
1270.5739999999998 -1.6006999999999998 -1.7271 -2.2029999999999994 -0.8079999999999998 1.5951 -0.030999999999999694 0
1270.594 -1.6006999999999998 -1.7271 -2.2029999999999994 -0.8079999999999998 1.5951 -0.030999999999999694 0
1270.614 -1.6006999999999998 -1.7271 -2.2029999999999994 -0.8079999999999998 1.5951 -0.030999999999999694 0
1270.634 -1.6006999999999998 -1.7271 -2.2029999999999994 -0.8079999999999998 1.5951 -0.030999999999999694 0
1270.654 -1.6006999999999998 -1.7271 -2.2029999999999994 -0.8079999999999998 1.5951 -0.030999999999999694 0
1270.674 -1.6006999999999998 -1.7271 -2.2029999999999994 -0.8079999999999998 1.5951 -0.030999999999999694 0
1270.694 -1.6006999999999998 -1.7271 -2.2029999999999994 -0.8079999999999998 1.5951 -0.030999999999999694 0
1270.714 -1.6006999999999998 -1.7271 -2.2029999999999994 -0.8079999999999998 1.5951 -0.030999999999999694 0
1270.734 -1.6006999999999998 -1.7271 -2.2029999999999994 -0.8079999999999998 1.5951 -0.030999999999999694 0
1270.754 -1.6006999999999998 -1.7271 -2.2029999999999994 -0.8079999999999998 1.5951 -0.030999999999999694 0
1270.774 -1.6006999999999998 -1.7271 -2.2029999999999994 -0.8079999999999998 1.5951 -0.030999999999999694 0
1270.7939999999999 -1.6006999999999998 -1.7271 -2.2029999999999994 -0.8079999999999998 1.5951 -0.030999999999999694 0
1270.8139999999999 -1.6006999999999998 -1.7271 -2.2029999999999994 -0.8079999999999998 1.5951 -0.030999999999999694 0
1270.8339999999998 -1.6006999999999998 -1.7271 -2.2029999999999994 -0.8079999999999998 1.5951 -0.030999999999999694 0
1270.854 -1.6006999999999998 -1.7271 -2.2029999999999994 -0.8079999999999998 1.5951 -0.030999999999999694 0
1270.874 -1.6006999999999998 -1.7271 -2.2029999999999994 -0.8079999999999998 1.5951 -0.030999999999999694 0
1270.894 -1.6006999999999998 -1.7271 -2.2029999999999994 -0.8079999999999998 1.5951 -0.030999999999999694 0
1270.914 -1.6006999999999998 -1.7271 -2.2029999999999994 -0.8079999999999998 1.5951 -0.030999999999999694 0
1270.934 -1.6006999999999998 -1.7271 -2.2029999999999994 -0.8079999999999998 1.5951 -0.030999999999999694 0
1270.954 -1.6006999999999998 -1.7271 -2.2029999999999994 -0.8079999999999998 1.5951 -0.030999999999999694 0
1270.974 -1.6006999999999998 -1.7271 -2.2029999999999994 -0.8079999999999998 1.5951 -0.030999999999999694 0
1270.994 -1.6006999999999998 -1.7271 -2.2029999999999994 -0.8079999999999998 1.5951 -0.030999999999999694 0
1271.014 -1.6006999999999998 -1.7271 -2.2029999999999994 -0.8079999999999998 1.5951 -0.030999999999999694 0
1271.0339999999999 -1.6006999999999998 -1.7271 -2.2029999999999994 -0.8079999999999998 1.5951 -0.030999999999999694 0
1271.0539999999999 -1.6006999999999998 -1.7271 -2.2029999999999994 -0.8079999999999998 1.5951 -0.030999999999999694 0
1271.0739999999998 -1.6006999999999998 -1.7271 -2.2029999999999994 -0.8079999999999998 1.5951 -0.030999999999999694 0
1271.094 -1.6006999999999998 -1.7271 -2.2029999999999994 -0.8079999999999998 1.5951 -0.030999999999999694 0
1271.114 -1.6006999999999998 -1.7271 -2.2029999999999994 -0.8079999999999998 1.5951 -0.030999999999999694 0
1271.134 -1.6006999999999998 -1.7271 -2.2029999999999994 -0.8079999999999998 1.5951 -0.030999999999999694 0
1271.154 -1.6006999999999998 -1.7271 -2.2029999999999994 -0.8079999999999998 1.5951 -0.030999999999999694 0
1271.174 -1.6006999999999998 -1.7271 -2.2029999999999994 -0.8079999999999998 1.5951 -0.030999999999999694 0
1271.194 -1.6006999999999998 -1.7271 -2.2029999999999994 -0.8079999999999998 1.5951 -0.030999999999999694 0
1271.214 -1.6006999999999998 -1.7271 -2.2029999999999994 -0.8079999999999998 1.5951 -0.030999999999999694 0
1271.234 -1.6006999999999998 -1.7271 -2.2029999999999994 -0.8079999999999998 1.5951 -0.030999999999999694 0
1271.254 -1.6006999999999998 -1.7271 -2.2029999999999994 -0.8079999999999998 1.5951 -0.030999999999999694 0
1271.274 -1.6006999999999998 -1.7271 -2.2029999999999994 -0.8079999999999998 1.5951 -0.030999999999999694 0
1271.2939999999999 -1.6006999999999998 -1.7271 -2.2029999999999994 -0.8079999999999998 1.5951 -0.030999999999999694 0
1271.3139999999999 -1.6006999999999998 -1.7271 -2.2029999999999994 -0.8079999999999998 1.5951 -0.030999999999999694 0
1271.3339999999998 -1.6006999999999998 -1.7271 -2.2029999999999994 -0.8079999999999998 1.5951 -0.030999999999999694 0
1271.354 -1.6006999999999998 -1.7271 -2.2029999999999994 -0.8079999999999998 1.5951 -0.030999999999999694 0
1271.374 -1.6006999999999998 -1.7271 -2.2029999999999994 -0.8079999999999998 1.5951 -0.030999999999999694 0
1271.394 -1.6006999999999998 -1.7271 -2.2029999999999994 -0.8079999999999998 1.5951 -0.030999999999999694 0
1271.414 -1.6006999999999998 -1.7271 -2.2029999999999994 -0.8079999999999998 1.5951 -0.030999999999999694 0
1271.434 -1.6006999999999998 -1.7271 -2.2029999999999994 -0.8079999999999998 1.5951 -0.030999999999999694 0
1271.454 -1.6006999999999998 -1.7271 -2.2029999999999994 -0.8079999999999998 1.5951 -0.030999999999999694 0
1271.474 -1.6006999999999998 -1.7271 -2.2029999999999994 -0.8079999999999998 1.5951 -0.030999999999999694 0
1271.494 -1.6006999999999998 -1.7271 -2.2029999999999994 -0.8079999999999998 1.5951 -0.030999999999999694 0
1271.514 -1.6006999999999998 -1.7271 -2.2029999999999994 -0.8079999999999998 1.5951 -0.030999999999999694 0
1271.5339999999999 -1.6006999999999998 -1.7271 -2.2029999999999994 -0.8079999999999998 1.5951 -0.030999999999999694 0
1271.5539999999999 -1.6006999999999998 -1.7271 -2.2029999999999994 -0.8079999999999998 1.5951 -0.030999999999999694 0
1271.5739999999998 -1.6006999999999998 -1.7271 -2.2029999999999994 -0.8079999999999998 1.5951 -0.030999999999999694 0
1271.594 -1.6006999999999998 -1.7271 -2.2029999999999994 -0.8079999999999998 1.5951 -0.030999999999999694 0
1271.614 -1.6006999999999998 -1.7271 -2.2029999999999994 -0.8079999999999998 1.5951 -0.030999999999999694 0
1271.634 -1.6006999999999998 -1.7271 -2.2029999999999994 -0.8079999999999998 1.5951 -0.030999999999999694 0
1271.654 -1.6006999999999998 -1.7271 -2.2029999999999994 -0.8079999999999998 1.5951 -0.030999999999999694 0
1271.674 -1.6006999999999998 -1.7271 -2.2029999999999994 -0.8079999999999998 1.5951 -0.030999999999999694 0
1271.694 -1.6006999999999998 -1.7271 -2.2029999999999994 -0.8079999999999998 1.5951 -0.030999999999999694 0
1271.714 -1.6006999999999998 -1.7271 -2.2029999999999994 -0.8079999999999998 1.5951 -0.030999999999999694 0
1271.734 -1.6006999999999998 -1.7271 -2.2029999999999994 -0.8079999999999998 1.5951 -0.030999999999999694 0
1271.754 -1.6006999999999998 -1.7271 -2.2029999999999994 -0.8079999999999998 1.5951 -0.030999999999999694 0
1271.774 -1.6006999999999998 -1.7271 -2.2029999999999994 -0.8079999999999998 1.5951 -0.030999999999999694 0
1271.7939999999999 -1.6006999999999998 -1.7271 -2.2029999999999994 -0.8079999999999998 1.5951 -0.030999999999999694 0
1271.8139999999999 -1.6006999999999998 -1.7271 -2.2029999999999994 -0.8079999999999998 1.5951 -0.030999999999999694 0
1271.8339999999998 -1.6006999999999998 -1.7271 -2.2029999999999994 -0.8079999999999998 1.5951 -0.030999999999999694 0
1271.854 -1.6006999999999998 -1.7271 -2.2029999999999994 -0.8079999999999998 1.5951 -0.030999999999999694 0
1271.874 -1.6006999999999998 -1.7271 -2.2029999999999994 -0.8079999999999998 1.5951 -0.030999999999999694 0
1271.894 -1.6006999999999998 -1.7271 -2.2029999999999994 -0.8079999999999998 1.5951 -0.030999999999999694 0
1271.914 -1.6006999999999998 -1.7271 -2.2029999999999994 -0.8079999999999998 1.5951 -0.030999999999999694 0
1271.934 -1.6006999999999998 -1.7271 -2.2029999999999994 -0.8079999999999998 1.5951 -0.030999999999999694 0
1271.954 -1.6006999999999998 -1.7271 -2.2029999999999994 -0.8079999999999998 1.5951 -0.030999999999999694 0
1271.974 -1.6006999999999998 -1.7271 -2.2029999999999994 -0.8079999999999998 1.5951 -0.030999999999999694 0
1271.994 -1.6006999999999998 -1.7271 -2.2029999999999994 -0.8079999999999998 1.5951 -0.030999999999999694 0
1272.014 -1.6006999999999998 -1.7271 -2.2029999999999994 -0.8079999999999998 1.5951 -0.030999999999999694 0
1272.0339999999999 -1.6006999999999998 -1.7271 -2.2029999999999994 -0.8079999999999998 1.5951 -0.030999999999999694 0
1272.0539999999999 -1.6006999999999998 -1.7271 -2.2029999999999994 -0.8079999999999998 1.5951 -0.030999999999999694 0
1272.0739999999998 -1.6006999999999998 -1.7271 -2.2029999999999994 -0.8079999999999998 1.5951 -0.030999999999999694 0
1272.094 -1.6006999999999998 -1.7271 -2.2029999999999994 -0.8079999999999998 1.5951 -0.030999999999999694 0
1272.114 -1.6006999999999998 -1.7271 -2.2029999999999994 -0.8079999999999998 1.5951 -0.030999999999999694 0
1272.134 -1.6006999999999998 -1.7271 -2.2029999999999994 -0.8079999999999998 1.5951 -0.030999999999999694 0
1272.154 -1.6006999999999998 -1.7271 -2.2029999999999994 -0.8079999999999998 1.5951 -0.030999999999999694 0
1272.174 -1.6006999999999998 -1.7271 -2.2029999999999994 -0.8079999999999998 1.5951 -0.030999999999999694 0
1272.194 -1.6006999999999998 -1.7271 -2.2029999999999994 -0.8079999999999998 1.5951 -0.030999999999999694 0
1272.214 -1.6006999999999998 -1.7271 -2.2029999999999994 -0.8079999999999998 1.5951 -0.030999999999999694 0
1272.234 -1.6006999999999998 -1.7271 -2.2029999999999994 -0.8079999999999998 1.5951 -0.030999999999999694 0
1272.254 -1.6006999999999998 -1.7271 -2.2029999999999994 -0.8079999999999998 1.5951 -0.030999999999999694 0
1272.274 -1.6006999999999998 -1.7271 -2.2029999999999994 -0.8079999999999998 1.5951 -0.030999999999999694 0
1272.2939999999999 -1.6006999999999998 -1.7271 -2.2029999999999994 -0.8079999999999998 1.5951 -0.030999999999999694 0
1272.3139999999999 -1.6006999999999998 -1.7271 -2.2029999999999994 -0.8079999999999998 1.5951 -0.030999999999999694 0
1272.3339999999998 -1.6006999999999998 -1.7271 -2.2029999999999994 -0.8079999999999998 1.5951 -0.030999999999999694 0
1272.354 -1.6006999999999998 -1.7271 -2.2029999999999994 -0.8079999999999998 1.5951 -0.030999999999999694 0
1272.374 -1.6006999999999998 -1.7271 -2.2029999999999994 -0.8079999999999998 1.5951 -0.030999999999999694 0
1272.394 -1.6006999999999998 -1.7271 -2.2029999999999994 -0.8079999999999998 1.5951 -0.030999999999999694 0
1272.414 -1.6006999999999998 -1.7271 -2.2029999999999994 -0.8079999999999998 1.5951 -0.030999999999999694 0
1272.434 -1.6006999999999998 -1.7271 -2.2029999999999994 -0.8079999999999998 1.5951 -0.030999999999999694 0
1272.454 -1.6006999999999998 -1.7271 -2.2029999999999994 -0.8079999999999998 1.5951 -0.030999999999999694 0
1272.474 -1.6006999999999998 -1.7271 -2.2029999999999994 -0.8079999999999998 1.5951 -0.030999999999999694 0
1272.494 -1.6006999999999998 -1.7271 -2.2029999999999994 -0.8079999999999998 1.5951 -0.030999999999999694 0
1272.514 -1.6006999999999998 -1.7271 -2.2029999999999994 -0.8079999999999998 1.5951 -0.030999999999999694 0
1272.5339999999999 -1.6006999999999998 -1.7271 -2.2029999999999994 -0.8079999999999998 1.5951 -0.030999999999999694 0
1272.5539999999999 -1.6006999999999998 -1.7271 -2.2029999999999994 -0.8079999999999998 1.5951 -0.030999999999999694 0
1272.5739999999998 -1.6006999999999998 -1.7271 -2.2029999999999994 -0.8079999999999998 1.5951 -0.030999999999999694 0
1272.594 -1.6006999999999998 -1.7271 -2.2029999999999994 -0.8079999999999998 1.5951 -0.030999999999999694 0
1272.614 -1.6006999999999998 -1.7271 -2.2029999999999994 -0.8079999999999998 1.5951 -0.030999999999999694 0
1272.634 -1.6006999999999998 -1.7271 -2.2029999999999994 -0.8079999999999998 1.5951 -0.030999999999999694 0
1272.654 -1.6006999999999998 -1.7271 -2.2029999999999994 -0.8079999999999998 1.5951 -0.030999999999999694 0
1272.674 -1.6006999999999998 -1.7271 -2.2029999999999994 -0.8079999999999998 1.5951 -0.030999999999999694 0
1272.694 -1.6006999999999998 -1.7271 -2.2029999999999994 -0.8079999999999998 1.5951 -0.030999999999999694 0
1272.714 -1.6006999999999998 -1.7271 -2.2029999999999994 -0.8079999999999998 1.5951 -0.030999999999999694 0
1272.734 -1.6006999999999998 -1.7271 -2.2029999999999994 -0.8079999999999998 1.5951 -0.030999999999999694 0
1272.754 -1.6006999999999998 -1.7271 -2.2029999999999994 -0.8079999999999998 1.5951 -0.030999999999999694 0
1272.774 -1.6006999999999998 -1.7271 -2.2029999999999994 -0.8079999999999998 1.5951 -0.030999999999999694 0
1272.7939999999999 -1.6006999999999998 -1.7271 -2.2029999999999994 -0.8079999999999998 1.5951 -0.030999999999999694 0
1272.8139999999999 -1.6006999999999998 -1.7271 -2.2029999999999994 -0.8079999999999998 1.5951 -0.030999999999999694 0
1272.8339999999998 -1.6006999999999998 -1.7271 -2.2029999999999994 -0.8079999999999998 1.5951 -0.030999999999999694 0
1272.854 -1.6006999999999998 -1.7271 -2.2029999999999994 -0.8079999999999998 1.5951 -0.030999999999999694 0
1272.874 -1.6006999999999998 -1.7271 -2.2029999999999994 -0.8079999999999998 1.5951 -0.030999999999999694 0
1272.894 -1.6006999999999998 -1.7271 -2.2029999999999994 -0.8079999999999998 1.5951 -0.030999999999999694 0
1272.914 -1.6006999999999998 -1.7271 -2.2029999999999994 -0.8079999999999998 1.5951 -0.030999999999999694 0
1272.934 -1.6006999999999998 -1.7271 -2.2029999999999994 -0.8079999999999998 1.5951 -0.030999999999999694 0
1272.954 -1.6006999999999998 -1.7271 -2.2029999999999994 -0.8079999999999998 1.5951 -0.030999999999999694 0
1272.974 -1.6006999999999998 -1.7271 -2.2029999999999994 -0.8079999999999998 1.5951 -0.030999999999999694 0
1272.994 -1.6006999999999998 -1.7271 -2.2029999999999994 -0.8079999999999998 1.5951 -0.030999999999999694 0
1273.014 -1.6006999999999998 -1.7271 -2.2029999999999994 -0.8079999999999998 1.5951 -0.030999999999999694 0
1273.0339999999999 -1.6006999999999998 -1.7271 -2.2029999999999994 -0.8079999999999998 1.5951 -0.030999999999999694 0
1273.0539999999999 -1.6006999999999998 -1.7271 -2.2029999999999994 -0.8079999999999998 1.5951 -0.030999999999999694 0
1273.0739999999998 -1.6006999999999998 -1.7271 -2.2029999999999994 -0.8079999999999998 1.5951 -0.030999999999999694 0
1273.094 -1.6006999999999998 -1.7271 -2.2029999999999994 -0.8079999999999998 1.5951 -0.030999999999999694 0
1273.114 -1.6006999999999998 -1.7271 -2.2029999999999994 -0.8079999999999998 1.5951 -0.030999999999999694 0
1273.134 -1.6006999999999998 -1.7271 -2.2029999999999994 -0.8079999999999998 1.5951 -0.030999999999999694 0
1273.154 -1.6006999999999998 -1.7271 -2.2029999999999994 -0.8079999999999998 1.5951 -0.030999999999999694 0
1273.174 -1.6006999999999998 -1.7271 -2.2029999999999994 -0.8079999999999998 1.5951 -0.030999999999999694 0
1273.194 -1.6006999999999998 -1.7271 -2.2029999999999994 -0.8079999999999998 1.5951 -0.030999999999999694 0
1273.214 -1.6006999999999998 -1.7271 -2.2029999999999994 -0.8079999999999998 1.5951 -0.030999999999999694 0
1273.234 -1.6006999999999998 -1.7271 -2.2029999999999994 -0.8079999999999998 1.5951 -0.030999999999999694 0
1273.254 -1.6006999999999998 -1.7271 -2.2029999999999994 -0.8079999999999998 1.5951 -0.030999999999999694 0
1273.274 -1.6006999999999998 -1.7271 -2.2029999999999994 -0.8079999999999998 1.5951 -0.030999999999999694 0
1273.2939999999999 -1.6006999999999998 -1.7271 -2.2029999999999994 -0.8079999999999998 1.5951 -0.030999999999999694 0
1273.3139999999999 -1.6006999999999998 -1.7271 -2.2029999999999994 -0.8079999999999998 1.5951 -0.030999999999999694 0
1273.3339999999998 -1.6006999999999998 -1.7271 -2.2029999999999994 -0.8079999999999998 1.5951 -0.030999999999999694 0
1273.354 -1.6006999999999998 -1.7271 -2.2029999999999994 -0.8079999999999998 1.5951 -0.030999999999999694 0
1273.374 -1.6006999999999998 -1.7271 -2.2029999999999994 -0.8079999999999998 1.5951 -0.030999999999999694 0
1273.394 -1.6006999999999998 -1.7271 -2.2029999999999994 -0.8079999999999998 1.5951 -0.030999999999999694 0
1273.414 -1.6006999999999998 -1.7271 -2.2029999999999994 -0.8079999999999998 1.5951 -0.030999999999999694 0
1273.434 -1.6006999999999998 -1.7271 -2.2029999999999994 -0.8079999999999998 1.5951 -0.030999999999999694 0
1273.454 -1.6006999999999998 -1.7271 -2.2029999999999994 -0.8079999999999998 1.5951 -0.030999999999999694 0
1273.474 -1.6006999999999998 -1.7271 -2.2029999999999994 -0.8079999999999998 1.5951 -0.030999999999999694 0
1273.494 -1.6006999999999998 -1.7271 -2.2029999999999994 -0.8079999999999998 1.5951 -0.030999999999999694 0
1273.514 -1.6006999999999998 -1.7271 -2.2029999999999994 -0.8079999999999998 1.5951 -0.030999999999999694 0
1273.5339999999999 -1.6006999999999998 -1.7271 -2.2029999999999994 -0.8079999999999998 1.5951 -0.030999999999999694 0
1273.5539999999999 -1.6006999999999998 -1.7271 -2.2029999999999994 -0.8079999999999998 1.5951 -0.030999999999999694 0
1273.5739999999998 -1.6006999999999998 -1.7271 -2.2029999999999994 -0.8079999999999998 1.5951 -0.030999999999999694 0
1273.594 -1.6006999999999998 -1.7271 -2.2029999999999994 -0.8079999999999998 1.5951 -0.030999999999999694 0
1273.614 -1.6006999999999998 -1.7271 -2.2029999999999994 -0.8079999999999998 1.5951 -0.030999999999999694 0
1273.634 -1.6006999999999998 -1.7271 -2.2029999999999994 -0.8079999999999998 1.5951 -0.030999999999999694 0
1273.654 -1.6006999999999998 -1.7271 -2.2029999999999994 -0.8079999999999998 1.5951 -0.030999999999999694 0
1273.674 -1.6006999999999998 -1.7271 -2.2029999999999994 -0.8079999999999998 1.5951 -0.030999999999999694 0
1273.694 -1.6006999999999998 -1.7271 -2.2029999999999994 -0.8079999999999998 1.5951 -0.030999999999999694 0
1273.714 -1.6006999999999998 -1.7271 -2.2029999999999994 -0.8079999999999998 1.5951 -0.030999999999999694 0
1273.734 -1.6006999999999998 -1.7271 -2.2029999999999994 -0.8079999999999998 1.5951 -0.030999999999999694 0
1273.754 -1.6006999999999998 -1.7271 -2.2029999999999994 -0.8079999999999998 1.5951 -0.030999999999999694 0
1273.774 -1.6006999999999998 -1.7271 -2.2029999999999994 -0.8079999999999998 1.5951 -0.030999999999999694 0
1273.7939999999999 -1.6006999999999998 -1.7271 -2.2029999999999994 -0.8079999999999998 1.5951 -0.030999999999999694 0
1273.8139999999999 -1.6006999999999998 -1.7271 -2.2029999999999994 -0.8079999999999998 1.5951 -0.030999999999999694 0
1273.8339999999998 -1.6006999999999998 -1.7271 -2.2029999999999994 -0.8079999999999998 1.5951 -0.030999999999999694 0
1273.854 -1.6006999999999998 -1.7271 -2.2029999999999994 -0.8079999999999998 1.5951 -0.030999999999999694 0
1273.874 -1.6006999999999998 -1.7271 -2.2029999999999994 -0.8079999999999998 1.5951 -0.030999999999999694 0
1273.894 -1.6006999999999998 -1.7271 -2.2029999999999994 -0.8079999999999998 1.5951 -0.030999999999999694 0
1273.914 -1.6006999999999998 -1.7271 -2.2029999999999994 -0.8079999999999998 1.5951 -0.030999999999999694 0
1273.934 -1.6006999999999998 -1.7271 -2.2029999999999994 -0.8079999999999998 1.5951 -0.030999999999999694 0
1273.954 -1.6006999999999998 -1.7271 -2.2029999999999994 -0.8079999999999998 1.5951 -0.030999999999999694 0
1273.974 -1.6006999999999998 -1.7271 -2.2029999999999994 -0.8079999999999998 1.5951 -0.030999999999999694 0
1273.994 -1.6006999999999998 -1.7271 -2.2029999999999994 -0.8079999999999998 1.5951 -0.030999999999999694 0
1274.014 -1.6006999999999998 -1.7271 -2.2029999999999994 -0.8079999999999998 1.5951 -0.030999999999999694 0
1274.0339999999999 -1.6006999999999998 -1.7271 -2.2029999999999994 -0.8079999999999998 1.5951 -0.030999999999999694 0
1274.0539999999999 -1.6006999999999998 -1.7271 -2.2029999999999994 -0.8079999999999998 1.5951 -0.030999999999999694 0
1274.0739999999998 -1.6006999999999998 -1.7271 -2.2029999999999994 -0.8079999999999998 1.5951 -0.030999999999999694 0
1274.094 -1.6006999999999998 -1.7271 -2.2029999999999994 -0.8079999999999998 1.5951 -0.030999999999999694 0
1274.114 -1.6006999999999998 -1.7271 -2.2029999999999994 -0.8079999999999998 1.5951 -0.030999999999999694 0
1274.134 -1.6006999999999998 -1.7271 -2.2029999999999994 -0.8079999999999998 1.5951 -0.030999999999999694 0
1274.154 -1.6006999999999998 -1.7271 -2.2029999999999994 -0.8079999999999998 1.5951 -0.030999999999999694 0
1274.174 -1.6006999999999998 -1.7271 -2.2029999999999994 -0.8079999999999998 1.5951 -0.030999999999999694 0
1274.194 -1.6006999999999998 -1.7271 -2.2029999999999994 -0.8079999999999998 1.5951 -0.030999999999999694 0
1274.214 -1.6006999999999998 -1.7271 -2.2029999999999994 -0.8079999999999998 1.5951 -0.030999999999999694 0
1274.234 -1.6006999999999998 -1.7271 -2.2029999999999994 -0.8079999999999998 1.5951 -0.030999999999999694 0
1274.254 -1.6006999999999998 -1.7271 -2.2029999999999994 -0.8079999999999998 1.5951 -0.030999999999999694 0
1274.274 -1.6006999999999998 -1.7271 -2.2029999999999994 -0.8079999999999998 1.5951 -0.030999999999999694 0
1274.2939999999999 -1.6006999999999998 -1.7271 -2.2029999999999994 -0.8079999999999998 1.5951 -0.030999999999999694 0
1274.3139999999999 -1.6006999999999998 -1.7271 -2.2029999999999994 -0.8079999999999998 1.5951 -0.030999999999999694 0
1274.3339999999998 -1.6006999999999998 -1.7271 -2.2029999999999994 -0.8079999999999998 1.5951 -0.030999999999999694 0
1274.354 -1.6006999999999998 -1.7271 -2.2029999999999994 -0.8079999999999998 1.5951 -0.030999999999999694 0
1274.374 -1.6006999999999998 -1.7271 -2.2029999999999994 -0.8079999999999998 1.5951 -0.030999999999999694 0
1274.394 -1.6006999999999998 -1.7271 -2.2029999999999994 -0.8079999999999998 1.5951 -0.030999999999999694 0
1274.414 -1.6006999999999998 -1.7271 -2.2029999999999994 -0.8079999999999998 1.5951 -0.030999999999999694 0
1274.434 -1.6006999999999998 -1.7271 -2.2029999999999994 -0.8079999999999998 1.5951 -0.030999999999999694 0
1274.454 -1.6006999999999998 -1.7271 -2.2029999999999994 -0.8079999999999998 1.5951 -0.030999999999999694 0
1274.474 -1.6006999999999998 -1.7271 -2.2029999999999994 -0.8079999999999998 1.5951 -0.030999999999999694 0
1274.494 -1.6006999999999998 -1.7271 -2.2029999999999994 -0.8079999999999998 1.5951 -0.030999999999999694 0
1274.514 -1.6006999999999998 -1.7271 -2.2029999999999994 -0.8079999999999998 1.5951 -0.030999999999999694 0
1274.5339999999999 -1.6006999999999998 -1.7271 -2.2029999999999994 -0.8079999999999998 1.5951 -0.030999999999999694 0
1274.5539999999999 -1.6006999999999998 -1.7271 -2.2029999999999994 -0.8079999999999998 1.5951 -0.030999999999999694 0
1274.5739999999998 -1.6006999999999998 -1.7271 -2.2029999999999994 -0.8079999999999998 1.5951 -0.030999999999999694 0
1274.594 -1.6006999999999998 -1.7271 -2.2029999999999994 -0.8079999999999998 1.5951 -0.030999999999999694 0
1274.614 -1.6006999999999998 -1.7271 -2.2029999999999994 -0.8079999999999998 1.5951 -0.030999999999999694 0
1274.634 -1.6006999999999998 -1.7271 -2.2029999999999994 -0.8079999999999998 1.5951 -0.030999999999999694 0
1274.654 -1.6006999999999998 -1.7271 -2.2029999999999994 -0.8079999999999998 1.5951 -0.030999999999999694 0
1274.674 -1.6006999999999998 -1.7271 -2.2029999999999994 -0.8079999999999998 1.5951 -0.030999999999999694 0
1274.694 -1.6006999999999998 -1.7271 -2.2029999999999994 -0.8079999999999998 1.5951 -0.030999999999999694 0
1274.714 -1.6006999999999998 -1.7271 -2.2029999999999994 -0.8079999999999998 1.5951 -0.030999999999999694 0
1274.734 -1.6006999999999998 -1.7271 -2.2029999999999994 -0.8079999999999998 1.5951 -0.030999999999999694 0
1274.754 -1.6006999999999998 -1.7271 -2.2029999999999994 -0.8079999999999998 1.5951 -0.030999999999999694 0
1274.774 -1.6006999999999998 -1.7271 -2.2029999999999994 -0.8079999999999998 1.5951 -0.030999999999999694 0
1274.7939999999999 -1.6006999999999998 -1.7271 -2.2029999999999994 -0.8079999999999998 1.5951 -0.030999999999999694 0
1274.8139999999999 -1.6006999999999998 -1.7271 -2.2029999999999994 -0.8079999999999998 1.5951 -0.030999999999999694 0
1274.8339999999998 -1.6006999999999998 -1.7271 -2.2029999999999994 -0.8079999999999998 1.5951 -0.030999999999999694 0
1274.854 -1.6006999999999998 -1.7271 -2.2029999999999994 -0.8079999999999998 1.5951 -0.030999999999999694 0
1274.874 -1.6006999999999998 -1.7271 -2.2029999999999994 -0.8079999999999998 1.5951 -0.030999999999999694 0
1274.894 -1.6006999999999998 -1.7271 -2.2029999999999994 -0.8079999999999998 1.5951 -0.030999999999999694 0
1274.914 -1.6006999999999998 -1.7271 -2.2029999999999994 -0.8079999999999998 1.5951 -0.030999999999999694 0
1274.934 -1.6006999999999998 -1.7271 -2.2029999999999994 -0.8079999999999998 1.5951 -0.030999999999999694 0
1274.954 -1.6006999999999998 -1.7271 -2.2029999999999994 -0.8079999999999998 1.5951 -0.030999999999999694 0
1274.974 -1.6006999999999998 -1.7271 -2.2029999999999994 -0.8079999999999998 1.5951 -0.030999999999999694 0
1274.994 -1.6006999999999998 -1.7271 -2.2029999999999994 -0.8079999999999998 1.5951 -0.030999999999999694 0
1275.014 -1.6006999999999998 -1.7271 -2.2029999999999994 -0.8079999999999998 1.5951 -0.030999999999999694 0
1275.0339999999999 -1.6006999999999998 -1.7271 -2.2029999999999994 -0.8079999999999998 1.5951 -0.030999999999999694 0
1275.0539999999999 -1.6006999999999998 -1.7271 -2.2029999999999994 -0.8079999999999998 1.5951 -0.030999999999999694 0
1275.0739999999998 -1.6006999999999998 -1.7271 -2.2029999999999994 -0.8079999999999998 1.5951 -0.030999999999999694 0
1275.094 -1.6006999999999998 -1.7271 -2.2029999999999994 -0.8079999999999998 1.5951 -0.030999999999999694 0
1275.114 -1.6006999999999998 -1.7271 -2.2029999999999994 -0.8079999999999998 1.5951 -0.030999999999999694 0
1275.134 -1.6006999999999998 -1.7271 -2.2029999999999994 -0.8079999999999998 1.5951 -0.030999999999999694 0
1275.154 -1.6006999999999998 -1.7271 -2.2029999999999994 -0.8079999999999998 1.5951 -0.030999999999999694 0
1275.174 -1.6006999999999998 -1.7271 -2.2029999999999994 -0.8079999999999998 1.5951 -0.030999999999999694 0
1275.194 -1.6006999999999998 -1.7271 -2.2029999999999994 -0.8079999999999998 1.5951 -0.030999999999999694 0
1275.214 -1.6006999999999998 -1.7271 -2.2029999999999994 -0.8079999999999998 1.5951 -0.030999999999999694 0
1275.234 -1.6006999999999998 -1.7271 -2.2029999999999994 -0.8079999999999998 1.5951 -0.030999999999999694 0
1275.254 -1.6006999999999998 -1.7271 -2.2029999999999994 -0.8079999999999998 1.5951 -0.030999999999999694 0
1275.274 -1.6006999999999998 -1.7271 -2.2029999999999994 -0.8079999999999998 1.5951 -0.030999999999999694 0
1275.2939999999999 -1.6006999999999998 -1.7271 -2.2029999999999994 -0.8079999999999998 1.5951 -0.030999999999999694 0
1275.3139999999999 -1.6006999999999998 -1.7271 -2.2029999999999994 -0.8079999999999998 1.5951 -0.030999999999999694 0
1275.3339999999998 -1.6006999999999998 -1.7271 -2.2029999999999994 -0.8079999999999998 1.5951 -0.030999999999999694 0
1275.354 -1.6006999999999998 -1.7271 -2.2029999999999994 -0.8079999999999998 1.5951 -0.030999999999999694 0
1275.374 -1.6006999999999998 -1.7271 -2.2029999999999994 -0.8079999999999998 1.5951 -0.030999999999999694 0
1275.394 -1.6006999999999998 -1.7271 -2.2029999999999994 -0.8079999999999998 1.5951 -0.030999999999999694 0
1275.414 -1.6006999999999998 -1.7271 -2.2029999999999994 -0.8079999999999998 1.5951 -0.030999999999999694 0
1275.434 -1.6006999999999998 -1.7271 -2.2029999999999994 -0.8079999999999998 1.5951 -0.030999999999999694 0
1275.454 -1.6006999999999998 -1.7271 -2.2029999999999994 -0.8079999999999998 1.5951 -0.030999999999999694 0
1275.474 -1.6006999999999998 -1.7271 -2.2029999999999994 -0.8079999999999998 1.5951 -0.030999999999999694 0
1275.494 -1.6006999999999998 -1.7271 -2.2029999999999994 -0.8079999999999998 1.5951 -0.030999999999999694 0
1275.514 -1.6006999999999998 -1.7271 -2.2029999999999994 -0.8079999999999998 1.5951 -0.030999999999999694 0
1275.5339999999999 -1.6006999999999998 -1.7271 -2.2029999999999994 -0.8079999999999998 1.5951 -0.030999999999999694 0
1275.5539999999999 -1.6006999999999998 -1.7271 -2.2029999999999994 -0.8079999999999998 1.5951 -0.030999999999999694 0
1275.5739999999998 -1.6006999999999998 -1.7271 -2.2029999999999994 -0.8079999999999998 1.5951 -0.030999999999999694 0
1275.594 -1.6006999999999998 -1.7271 -2.2029999999999994 -0.8079999999999998 1.5951 -0.030999999999999694 0
1275.614 -1.6006999999999998 -1.7271 -2.2029999999999994 -0.8079999999999998 1.5951 -0.030999999999999694 0
1275.634 -1.6006999999999998 -1.7271 -2.2029999999999994 -0.8079999999999998 1.5951 -0.030999999999999694 0
1275.654 -1.6006999999999998 -1.7271 -2.2029999999999994 -0.8079999999999998 1.5951 -0.030999999999999694 0
1275.674 -1.6006999999999998 -1.7271 -2.2029999999999994 -0.8079999999999998 1.5951 -0.030999999999999694 0
1275.694 -1.6006999999999998 -1.7271 -2.2029999999999994 -0.8079999999999998 1.5951 -0.030999999999999694 0
1275.714 -1.6006999999999998 -1.7271 -2.2029999999999994 -0.8079999999999998 1.5951 -0.030999999999999694 0
1275.734 -1.6006999999999998 -1.7271 -2.2029999999999994 -0.8079999999999998 1.5951 -0.030999999999999694 0
1275.754 -1.6006999999999998 -1.7271 -2.2029999999999994 -0.8079999999999998 1.5951 -0.030999999999999694 0
1275.774 -1.6006999999999998 -1.7271 -2.2029999999999994 -0.8079999999999998 1.5951 -0.030999999999999694 0
1275.7939999999999 -1.6006999999999998 -1.7271 -2.2029999999999994 -0.8079999999999998 1.5951 -0.030999999999999694 0
1275.8139999999999 -1.6006999999999998 -1.7271 -2.2029999999999994 -0.8079999999999998 1.5951 -0.030999999999999694 0
1275.8339999999998 -1.6006999999999998 -1.7271 -2.2029999999999994 -0.8079999999999998 1.5951 -0.030999999999999694 0
1275.854 -1.6006999999999998 -1.7271 -2.2029999999999994 -0.8079999999999998 1.5951 -0.030999999999999694 0
1275.874 -1.6006999999999998 -1.7271 -2.2029999999999994 -0.8079999999999998 1.5951 -0.030999999999999694 0
1275.894 -1.6006999999999998 -1.7271 -2.2029999999999994 -0.8079999999999998 1.5951 -0.030999999999999694 0
1275.914 -1.6006999999999998 -1.7271 -2.2029999999999994 -0.8079999999999998 1.5951 -0.030999999999999694 0
1275.934 -1.6006999999999998 -1.7271 -2.2029999999999994 -0.8079999999999998 1.5951 -0.030999999999999694 0
1275.954 -1.6006999999999998 -1.7271 -2.2029999999999994 -0.8079999999999998 1.5951 -0.030999999999999694 0
1275.974 -1.6006999999999998 -1.7271 -2.2029999999999994 -0.8079999999999998 1.5951 -0.030999999999999694 0
1275.994 -1.6006999999999998 -1.7271 -2.2029999999999994 -0.8079999999999998 1.5951 -0.030999999999999694 0
1276.014 -1.6006999999999998 -1.7271 -2.2029999999999994 -0.8079999999999998 1.5951 -0.030999999999999694 0
1276.0339999999999 -1.6006999999999998 -1.7271 -2.2029999999999994 -0.8079999999999998 1.5951 -0.030999999999999694 0
1276.0539999999999 -1.6006999999999998 -1.7271 -2.2029999999999994 -0.8079999999999998 1.5951 -0.030999999999999694 0
1276.0739999999998 -1.6006999999999998 -1.7271 -2.2029999999999994 -0.8079999999999998 1.5951 -0.030999999999999694 0
1276.094 -1.6006999999999998 -1.7271 -2.2029999999999994 -0.8079999999999998 1.5951 -0.030999999999999694 0
1276.114 -1.6006999999999998 -1.7271 -2.2029999999999994 -0.8079999999999998 1.5951 -0.030999999999999694 0
1276.134 -1.6006999999999998 -1.7271 -2.2029999999999994 -0.8079999999999998 1.5951 -0.030999999999999694 0
1276.154 -1.6006999999999998 -1.7271 -2.2029999999999994 -0.8079999999999998 1.5951 -0.030999999999999694 0
1276.174 -1.6006999999999998 -1.7271 -2.2029999999999994 -0.8079999999999998 1.5951 -0.030999999999999694 0
1276.194 -1.6006999999999998 -1.7271 -2.2029999999999994 -0.8079999999999998 1.5951 -0.030999999999999694 0
1276.214 -1.6006999999999998 -1.7271 -2.2029999999999994 -0.8079999999999998 1.5951 -0.030999999999999694 0
1276.234 -1.6006999999999998 -1.7271 -2.2029999999999994 -0.8079999999999998 1.5951 -0.030999999999999694 0
1276.254 -1.6006999999999998 -1.7271 -2.2029999999999994 -0.8079999999999998 1.5951 -0.030999999999999694 0
1276.274 -1.6006999999999998 -1.7271 -2.2029999999999994 -0.8079999999999998 1.5951 -0.030999999999999694 0
1276.2939999999999 -1.6006999999999998 -1.7271 -2.2029999999999994 -0.8079999999999998 1.5951 -0.030999999999999694 0
1276.3139999999999 -1.6006999999999998 -1.7271 -2.2029999999999994 -0.8079999999999998 1.5951 -0.030999999999999694 0
1276.3339999999998 -1.6006999999999998 -1.7271 -2.2029999999999994 -0.8079999999999998 1.5951 -0.030999999999999694 0
1276.354 -1.6006999999999998 -1.7271 -2.2029999999999994 -0.8079999999999998 1.5951 -0.030999999999999694 0
1276.374 -1.6006999999999998 -1.7271 -2.2029999999999994 -0.8079999999999998 1.5951 -0.030999999999999694 0
1276.394 -1.6006999999999998 -1.7271 -2.2029999999999994 -0.8079999999999998 1.5951 -0.030999999999999694 0
1276.414 -1.6006999999999998 -1.7271 -2.2029999999999994 -0.8079999999999998 1.5951 -0.030999999999999694 0
1276.434 -1.6006999999999998 -1.7271 -2.2029999999999994 -0.8079999999999998 1.5951 -0.030999999999999694 0
1276.454 -1.6006999999999998 -1.7271 -2.2029999999999994 -0.8079999999999998 1.5951 -0.030999999999999694 0
1276.474 -1.6006999999999998 -1.7271 -2.2029999999999994 -0.8079999999999998 1.5951 -0.030999999999999694 0
1276.494 -1.6006999999999998 -1.7271 -2.2029999999999994 -0.8079999999999998 1.5951 -0.030999999999999694 0
1276.514 -1.6006999999999998 -1.7271 -2.2029999999999994 -0.8079999999999998 1.5951 -0.030999999999999694 0
1276.5339999999999 -1.6006999999999998 -1.7271 -2.2029999999999994 -0.8079999999999998 1.5951 -0.030999999999999694 0
1276.5539999999999 -1.6006999999999998 -1.7271 -2.2029999999999994 -0.8079999999999998 1.5951 -0.030999999999999694 0
1276.5739999999998 -1.6006999999999998 -1.7271 -2.2029999999999994 -0.8079999999999998 1.5951 -0.030999999999999694 0
1276.594 -1.6006999999999998 -1.7271 -2.2029999999999994 -0.8079999999999998 1.5951 -0.030999999999999694 0
1276.614 -1.6006999999999998 -1.7271 -2.2029999999999994 -0.8079999999999998 1.5951 -0.030999999999999694 0
1276.634 -1.6006999999999998 -1.7271 -2.2029999999999994 -0.8079999999999998 1.5951 -0.030999999999999694 0
1276.654 -1.6006999999999998 -1.7271 -2.2029999999999994 -0.8079999999999998 1.5951 -0.030999999999999694 0
1276.674 -1.6006999999999998 -1.7271 -2.2029999999999994 -0.8079999999999998 1.5951 -0.030999999999999694 0
1276.694 -1.6006999999999998 -1.7271 -2.2029999999999994 -0.8079999999999998 1.5951 -0.030999999999999694 0
1276.714 -1.6006999999999998 -1.7271 -2.2029999999999994 -0.8079999999999998 1.5951 -0.030999999999999694 0
1276.734 -1.6006999999999998 -1.7271 -2.2029999999999994 -0.8079999999999998 1.5951 -0.030999999999999694 0
1276.754 -1.6006999999999998 -1.7271 -2.2029999999999994 -0.8079999999999998 1.5951 -0.030999999999999694 0
1276.774 -1.6006999999999998 -1.7271 -2.2029999999999994 -0.8079999999999998 1.5951 -0.030999999999999694 0
1276.7939999999999 -1.6006999999999998 -1.7271 -2.2029999999999994 -0.8079999999999998 1.5951 -0.030999999999999694 0
1276.8139999999999 -1.6006999999999998 -1.7271 -2.2029999999999994 -0.8079999999999998 1.5951 -0.030999999999999694 0
1276.8339999999998 -1.6006999999999998 -1.7271 -2.2029999999999994 -0.8079999999999998 1.5951 -0.030999999999999694 0
1276.854 -1.6006999999999998 -1.7271 -2.2029999999999994 -0.8079999999999998 1.5951 -0.030999999999999694 0
1276.874 -1.6006999999999998 -1.7271 -2.2029999999999994 -0.8079999999999998 1.5951 -0.030999999999999694 0
1276.894 -1.6006999999999998 -1.7271 -2.2029999999999994 -0.8079999999999998 1.5951 -0.030999999999999694 0
1276.914 -1.6006999999999998 -1.7271 -2.2029999999999994 -0.8079999999999998 1.5951 -0.030999999999999694 0
1276.934 -1.6006999999999998 -1.7271 -2.2029999999999994 -0.8079999999999998 1.5951 -0.030999999999999694 0
1276.954 -1.6006999999999998 -1.7271 -2.2029999999999994 -0.8079999999999998 1.5951 -0.030999999999999694 0
1276.974 -1.6006999999999998 -1.7271 -2.2029999999999994 -0.8079999999999998 1.5951 -0.030999999999999694 0
1276.994 -1.6006999999999998 -1.7271 -2.2029999999999994 -0.8079999999999998 1.5951 -0.030999999999999694 0
1277.014 -1.6006999999999998 -1.7271 -2.2029999999999994 -0.8079999999999998 1.5951 -0.030999999999999694 0
1277.0339999999999 -1.6006999999999998 -1.7271 -2.2029999999999994 -0.8079999999999998 1.5951 -0.030999999999999694 0
1277.0539999999999 -1.6006999999999998 -1.7271 -2.2029999999999994 -0.8079999999999998 1.5951 -0.030999999999999694 0
1277.0739999999998 -1.6006999999999998 -1.7271 -2.2029999999999994 -0.8079999999999998 1.5951 -0.030999999999999694 0
1277.094 -1.6006999999999998 -1.7271 -2.2029999999999994 -0.8079999999999998 1.5951 -0.030999999999999694 0
1277.114 -1.6006999999999998 -1.7271 -2.2029999999999994 -0.8079999999999998 1.5951 -0.030999999999999694 0
1277.134 -1.6006999999999998 -1.7271 -2.2029999999999994 -0.8079999999999998 1.5951 -0.030999999999999694 0
1277.154 -1.6006999999999998 -1.7271 -2.2029999999999994 -0.8079999999999998 1.5951 -0.030999999999999694 0
1277.174 -1.6006999999999998 -1.7271 -2.2029999999999994 -0.8079999999999998 1.5951 -0.030999999999999694 0
1277.194 -1.6006999999999998 -1.7271 -2.2029999999999994 -0.8079999999999998 1.5951 -0.030999999999999694 0
1277.214 -1.6006999999999998 -1.7271 -2.2029999999999994 -0.8079999999999998 1.5951 -0.030999999999999694 0
1277.234 -1.6006999999999998 -1.7271 -2.2029999999999994 -0.8079999999999998 1.5951 -0.030999999999999694 0
1277.254 -1.6006999999999998 -1.7271 -2.2029999999999994 -0.8079999999999998 1.5951 -0.030999999999999694 0
1277.274 -1.6006999999999998 -1.7271 -2.2029999999999994 -0.8079999999999998 1.5951 -0.030999999999999694 0
1277.2939999999999 -1.6006999999999998 -1.7271 -2.2029999999999994 -0.8079999999999998 1.5951 -0.030999999999999694 0
1277.3139999999999 -1.6006999999999998 -1.7271 -2.2029999999999994 -0.8079999999999998 1.5951 -0.030999999999999694 0
1277.3339999999998 -1.6006999999999998 -1.7271 -2.2029999999999994 -0.8079999999999998 1.5951 -0.030999999999999694 0
1277.354 -1.6006999999999998 -1.7271 -2.2029999999999994 -0.8079999999999998 1.5951 -0.030999999999999694 0
1277.374 -1.6006999999999998 -1.7271 -2.2029999999999994 -0.8079999999999998 1.5951 -0.030999999999999694 0
1277.394 -1.6006999999999998 -1.7271 -2.2029999999999994 -0.8079999999999998 1.5951 -0.030999999999999694 0
1277.414 -1.6006999999999998 -1.7271 -2.2029999999999994 -0.8079999999999998 1.5951 -0.030999999999999694 0
1277.434 -1.6006999999999998 -1.7271 -2.2029999999999994 -0.8079999999999998 1.5951 -0.030999999999999694 0
1277.454 -1.6006999999999998 -1.7271 -2.2029999999999994 -0.8079999999999998 1.5951 -0.030999999999999694 0
1277.474 -1.6006999999999998 -1.7271 -2.2029999999999994 -0.8079999999999998 1.5951 -0.030999999999999694 0
1277.494 -1.6006999999999998 -1.7271 -2.2029999999999994 -0.8079999999999998 1.5951 -0.030999999999999694 0
1277.514 -1.6006999999999998 -1.7271 -2.2029999999999994 -0.8079999999999998 1.5951 -0.030999999999999694 0
1277.5339999999999 -1.6006999999999998 -1.7271 -2.2029999999999994 -0.8079999999999998 1.5951 -0.030999999999999694 0
1277.5539999999999 -1.6006999999999998 -1.7271 -2.2029999999999994 -0.8079999999999998 1.5951 -0.030999999999999694 0
1277.5739999999998 -1.6006999999999998 -1.7271 -2.2029999999999994 -0.8079999999999998 1.5951 -0.030999999999999694 0
1277.594 -1.6006999999999998 -1.7271 -2.2029999999999994 -0.8079999999999998 1.5951 -0.030999999999999694 0
1277.614 -1.6006999999999998 -1.7271 -2.2029999999999994 -0.8079999999999998 1.5951 -0.030999999999999694 0
1277.634 -1.6006999999999998 -1.7271 -2.2029999999999994 -0.8079999999999998 1.5951 -0.030999999999999694 0
1277.654 -1.6006999999999998 -1.7271 -2.2029999999999994 -0.8079999999999998 1.5951 -0.030999999999999694 0
1277.674 -1.6006999999999998 -1.7271 -2.2029999999999994 -0.8079999999999998 1.5951 -0.030999999999999694 0
1277.694 -1.6006999999999998 -1.7271 -2.2029999999999994 -0.8079999999999998 1.5951 -0.030999999999999694 0
1277.714 -1.6006999999999998 -1.7271 -2.2029999999999994 -0.8079999999999998 1.5951 -0.030999999999999694 0
1277.734 -1.6006999999999998 -1.7271 -2.2029999999999994 -0.8079999999999998 1.5951 -0.030999999999999694 0
1277.754 -1.6006999999999998 -1.7271 -2.2029999999999994 -0.8079999999999998 1.5951 -0.030999999999999694 0
1277.774 -1.6006999999999998 -1.7271 -2.2029999999999994 -0.8079999999999998 1.5951 -0.030999999999999694 0
1277.7939999999999 -1.6006999999999998 -1.7271 -2.2029999999999994 -0.8079999999999998 1.5951 -0.030999999999999694 0
1277.8139999999999 -1.6006999999999998 -1.7271 -2.2029999999999994 -0.8079999999999998 1.5951 -0.030999999999999694 0
1277.8339999999998 -1.6006999999999998 -1.7271 -2.2029999999999994 -0.8079999999999998 1.5951 -0.030999999999999694 0
1277.854 -1.6006999999999998 -1.7271 -2.2029999999999994 -0.8079999999999998 1.5951 -0.030999999999999694 0
1277.874 -1.6006999999999998 -1.7271 -2.2029999999999994 -0.8079999999999998 1.5951 -0.030999999999999694 0
1277.894 -1.6006999999999998 -1.7271 -2.2029999999999994 -0.8079999999999998 1.5951 -0.030999999999999694 0
1277.914 -1.6006999999999998 -1.7271 -2.2029999999999994 -0.8079999999999998 1.5951 -0.030999999999999694 0
1277.934 -1.6006999999999998 -1.7271 -2.2029999999999994 -0.8079999999999998 1.5951 -0.030999999999999694 0
1277.954 -1.6006999999999998 -1.7271 -2.2029999999999994 -0.8079999999999998 1.5951 -0.030999999999999694 0
1277.974 -1.6006999999999998 -1.7271 -2.2029999999999994 -0.8079999999999998 1.5951 -0.030999999999999694 0
1277.994 -1.6006999999999998 -1.7271 -2.2029999999999994 -0.8079999999999998 1.5951 -0.030999999999999694 0
1278.014 -1.6006999999999998 -1.7271 -2.2029999999999994 -0.8079999999999998 1.5951 -0.030999999999999694 0
1278.0339999999999 -1.6006999999999998 -1.7271 -2.2029999999999994 -0.8079999999999998 1.5951 -0.030999999999999694 0
1278.0539999999999 -1.6006999999999998 -1.7271 -2.2029999999999994 -0.8079999999999998 1.5951 -0.030999999999999694 0
1278.0739999999998 -1.6006999999999998 -1.7271 -2.2029999999999994 -0.8079999999999998 1.5951 -0.030999999999999694 0
1278.094 -1.6006999999999998 -1.7271 -2.2029999999999994 -0.8079999999999998 1.5951 -0.030999999999999694 0
1278.114 -1.6006999999999998 -1.7271 -2.2029999999999994 -0.8079999999999998 1.5951 -0.030999999999999694 0
1278.134 -1.6006999999999998 -1.7271 -2.2029999999999994 -0.8079999999999998 1.5951 -0.030999999999999694 0
1278.154 -1.6006999999999998 -1.7271 -2.2029999999999994 -0.8079999999999998 1.5951 -0.030999999999999694 0
1278.174 -1.6006999999999998 -1.7271 -2.2029999999999994 -0.8079999999999998 1.5951 -0.030999999999999694 0
1278.194 -1.6006999999999998 -1.7271 -2.2029999999999994 -0.8079999999999998 1.5951 -0.030999999999999694 0
1278.214 -1.6006999999999998 -1.7271 -2.2029999999999994 -0.8079999999999998 1.5951 -0.030999999999999694 0
1278.234 -1.6006999999999998 -1.7271 -2.2029999999999994 -0.8079999999999998 1.5951 -0.030999999999999694 0
1278.254 -1.6006999999999998 -1.7271 -2.2029999999999994 -0.8079999999999998 1.5951 -0.030999999999999694 0
1278.274 -1.6006999999999998 -1.7271 -2.2029999999999994 -0.8079999999999998 1.5951 -0.030999999999999694 0
1278.2939999999999 -1.6006999999999998 -1.7271 -2.2029999999999994 -0.8079999999999998 1.5951 -0.030999999999999694 0
1278.3139999999999 -1.6006999999999998 -1.7271 -2.2029999999999994 -0.8079999999999998 1.5951 -0.030999999999999694 0
1278.3339999999998 -1.6006999999999998 -1.7271 -2.2029999999999994 -0.8079999999999998 1.5951 -0.030999999999999694 0
1278.354 -1.6006999999999998 -1.7271 -2.2029999999999994 -0.8079999999999998 1.5951 -0.030999999999999694 0
1278.374 -1.6006999999999998 -1.7271 -2.2029999999999994 -0.8079999999999998 1.5951 -0.030999999999999694 0
1278.394 -1.6006999999999998 -1.7271 -2.2029999999999994 -0.8079999999999998 1.5951 -0.030999999999999694 0
1278.414 -1.6006999999999998 -1.7271 -2.2029999999999994 -0.8079999999999998 1.5951 -0.030999999999999694 0
1278.434 -1.6006999999999998 -1.7271 -2.2029999999999994 -0.8079999999999998 1.5951 -0.030999999999999694 0
1278.454 -1.6006999999999998 -1.7271 -2.2029999999999994 -0.8079999999999998 1.5951 -0.030999999999999694 0
1278.474 -1.6006999999999998 -1.7271 -2.2029999999999994 -0.8079999999999998 1.5951 -0.030999999999999694 0
1278.494 -1.6006999999999998 -1.7271 -2.2029999999999994 -0.8079999999999998 1.5951 -0.030999999999999694 0
1278.514 -1.6006999999999998 -1.7271 -2.2029999999999994 -0.8079999999999998 1.5951 -0.030999999999999694 0
1278.5339999999999 -1.6006999999999998 -1.7271 -2.2029999999999994 -0.8079999999999998 1.5951 -0.030999999999999694 0
1278.5539999999999 -1.6006999999999998 -1.7271 -2.2029999999999994 -0.8079999999999998 1.5951 -0.030999999999999694 0
1278.5739999999998 -1.6006999999999998 -1.7271 -2.2029999999999994 -0.8079999999999998 1.5951 -0.030999999999999694 0
1278.594 -1.6006999999999998 -1.7271 -2.2029999999999994 -0.8079999999999998 1.5951 -0.030999999999999694 0
1278.614 -1.6006999999999998 -1.7271 -2.2029999999999994 -0.8079999999999998 1.5951 -0.030999999999999694 0
1278.634 -1.6006999999999998 -1.7271 -2.2029999999999994 -0.8079999999999998 1.5951 -0.030999999999999694 0
1278.654 -1.6006999999999998 -1.7271 -2.2029999999999994 -0.8079999999999998 1.5951 -0.030999999999999694 0
1278.674 -1.6006999999999998 -1.7271 -2.2029999999999994 -0.8079999999999998 1.5951 -0.030999999999999694 0
1278.694 -1.6006999999999998 -1.7271 -2.2029999999999994 -0.8079999999999998 1.5951 -0.030999999999999694 0
1278.714 -1.6006999999999998 -1.7271 -2.2029999999999994 -0.8079999999999998 1.5951 -0.030999999999999694 0
1278.734 -1.6006999999999998 -1.7271 -2.2029999999999994 -0.8079999999999998 1.5951 -0.030999999999999694 0
1278.754 -1.6006999999999998 -1.7271 -2.2029999999999994 -0.8079999999999998 1.5951 -0.030999999999999694 0
1278.774 -1.6006999999999998 -1.7271 -2.2029999999999994 -0.8079999999999998 1.5951 -0.030999999999999694 0
1278.7939999999999 -1.6006999999999998 -1.7271 -2.2029999999999994 -0.8079999999999998 1.5951 -0.030999999999999694 0
1278.8139999999999 -1.6006999999999998 -1.7271 -2.2029999999999994 -0.8079999999999998 1.5951 -0.030999999999999694 0
1278.8339999999998 -1.6006999999999998 -1.7271 -2.2029999999999994 -0.8079999999999998 1.5951 -0.030999999999999694 0
1278.854 -1.6006999999999998 -1.7271 -2.2029999999999994 -0.8079999999999998 1.5951 -0.030999999999999694 0
1278.874 -1.6006999999999998 -1.7271 -2.2029999999999994 -0.8079999999999998 1.5951 -0.030999999999999694 0
1278.894 -1.6006999999999998 -1.7271 -2.2029999999999994 -0.8079999999999998 1.5951 -0.030999999999999694 0
1278.914 -1.6006999999999998 -1.7271 -2.2029999999999994 -0.8079999999999998 1.5951 -0.030999999999999694 0
1278.934 -1.6006999999999998 -1.7271 -2.2029999999999994 -0.8079999999999998 1.5951 -0.030999999999999694 0
1278.954 -1.6006999999999998 -1.7271 -2.2029999999999994 -0.8079999999999998 1.5951 -0.030999999999999694 0
1278.974 -1.6006999999999998 -1.7271 -2.2029999999999994 -0.8079999999999998 1.5951 -0.030999999999999694 0
1278.994 -1.6006999999999998 -1.7271 -2.2029999999999994 -0.8079999999999998 1.5951 -0.030999999999999694 0
1279.014 -1.6006999999999998 -1.7271 -2.2029999999999994 -0.8079999999999998 1.5951 -0.030999999999999694 0
1279.0339999999999 -1.6006999999999998 -1.7271 -2.2029999999999994 -0.8079999999999998 1.5951 -0.030999999999999694 0
1279.0539999999999 -1.6006999999999998 -1.7271 -2.2029999999999994 -0.8079999999999998 1.5951 -0.030999999999999694 0
1279.0739999999998 -1.6006999999999998 -1.7271 -2.2029999999999994 -0.8079999999999998 1.5951 -0.030999999999999694 0
1279.094 -1.6006999999999998 -1.7271 -2.2029999999999994 -0.8079999999999998 1.5951 -0.030999999999999694 0
1279.114 -1.6006999999999998 -1.7271 -2.2029999999999994 -0.8079999999999998 1.5951 -0.030999999999999694 0
1279.134 -1.6006999999999998 -1.7271 -2.2029999999999994 -0.8079999999999998 1.5951 -0.030999999999999694 0
1279.154 -1.6006999999999998 -1.7271 -2.2029999999999994 -0.8079999999999998 1.5951 -0.030999999999999694 0
1279.174 -1.6006999999999998 -1.7271 -2.2029999999999994 -0.8079999999999998 1.5951 -0.030999999999999694 0
1279.194 -1.6006999999999998 -1.7271 -2.2029999999999994 -0.8079999999999998 1.5951 -0.030999999999999694 0
1279.214 -1.6006999999999998 -1.7271 -2.2029999999999994 -0.8079999999999998 1.5951 -0.030999999999999694 0
1279.234 -1.6006999999999998 -1.7271 -2.2029999999999994 -0.8079999999999998 1.5951 -0.030999999999999694 0
1279.254 -1.6006999999999998 -1.7271 -2.2029999999999994 -0.8079999999999998 1.5951 -0.030999999999999694 0
1279.274 -1.6006999999999998 -1.7271 -2.2029999999999994 -0.8079999999999998 1.5951 -0.030999999999999694 0
1279.2939999999999 -1.6006999999999998 -1.7271 -2.2029999999999994 -0.8079999999999998 1.5951 -0.030999999999999694 0
1279.3139999999999 -1.6006999999999998 -1.7271 -2.2029999999999994 -0.8079999999999998 1.5951 -0.030999999999999694 0
1279.3339999999998 -1.6006999999999998 -1.7271 -2.2029999999999994 -0.8079999999999998 1.5951 -0.030999999999999694 0
1279.354 -1.6006999999999998 -1.7271 -2.2029999999999994 -0.8079999999999998 1.5951 -0.030999999999999694 0
1279.374 -1.6006999999999998 -1.7271 -2.2029999999999994 -0.8079999999999998 1.5951 -0.030999999999999694 0
1279.394 -1.6006999999999998 -1.7271 -2.2029999999999994 -0.8079999999999998 1.5951 -0.030999999999999694 0
1279.414 -1.6006999999999998 -1.7271 -2.2029999999999994 -0.8079999999999998 1.5951 -0.030999999999999694 0
1279.434 -1.6006999999999998 -1.7271 -2.2029999999999994 -0.8079999999999998 1.5951 -0.030999999999999694 0
1279.454 -1.6006999999999998 -1.7271 -2.2029999999999994 -0.8079999999999998 1.5951 -0.030999999999999694 0
1279.474 -1.6006999999999998 -1.7271 -2.2029999999999994 -0.8079999999999998 1.5951 -0.030999999999999694 0
1279.494 -1.6006999999999998 -1.7271 -2.2029999999999994 -0.8079999999999998 1.5951 -0.030999999999999694 0
1279.514 -1.6006999999999998 -1.7271 -2.2029999999999994 -0.8079999999999998 1.5951 -0.030999999999999694 0
1279.5339999999999 -1.6006999999999998 -1.7271 -2.2029999999999994 -0.8079999999999998 1.5951 -0.030999999999999694 0
1279.5539999999999 -1.6006999999999998 -1.7271 -2.2029999999999994 -0.8079999999999998 1.5951 -0.030999999999999694 0
1279.5739999999998 -1.6006999999999998 -1.7271 -2.2029999999999994 -0.8079999999999998 1.5951 -0.030999999999999694 0
1279.594 -1.6006999999999998 -1.7271 -2.2029999999999994 -0.8079999999999998 1.5951 -0.030999999999999694 0
1279.614 -1.6006999999999998 -1.7271 -2.2029999999999994 -0.8079999999999998 1.5951 -0.030999999999999694 0
1279.634 -1.6006999999999998 -1.7271 -2.2029999999999994 -0.8079999999999998 1.5951 -0.030999999999999694 0
1279.654 -1.6006999999999998 -1.7271 -2.2029999999999994 -0.8079999999999998 1.5951 -0.030999999999999694 0
1279.674 -1.6006999999999998 -1.7271 -2.2029999999999994 -0.8079999999999998 1.5951 -0.030999999999999694 0
1279.694 -1.6006999999999998 -1.7271 -2.2029999999999994 -0.8079999999999998 1.5951 -0.030999999999999694 0
1279.714 -1.6006999999999998 -1.7271 -2.2029999999999994 -0.8079999999999998 1.5951 -0.030999999999999694 0
1279.734 -1.6006999999999998 -1.7271 -2.2029999999999994 -0.8079999999999998 1.5951 -0.030999999999999694 0
1279.754 -1.6006999999999998 -1.7271 -2.2029999999999994 -0.8079999999999998 1.5951 -0.030999999999999694 0
1279.774 -1.6006999999999998 -1.7271 -2.2029999999999994 -0.8079999999999998 1.5951 -0.030999999999999694 0
1279.7939999999999 -1.6006999999999998 -1.7271 -2.2029999999999994 -0.8079999999999998 1.5951 -0.030999999999999694 0
1279.8139999999999 -1.6006999999999998 -1.7271 -2.2029999999999994 -0.8079999999999998 1.5951 -0.030999999999999694 0
1279.8339999999998 -1.6006999999999998 -1.7271 -2.2029999999999994 -0.8079999999999998 1.5951 -0.030999999999999694 0
1279.854 -1.6006999999999998 -1.7271 -2.2029999999999994 -0.8079999999999998 1.5951 -0.030999999999999694 0
1279.874 -1.6006999999999998 -1.7271 -2.2029999999999994 -0.8079999999999998 1.5951 -0.030999999999999694 0
1279.894 -1.6006999999999998 -1.7271 -2.2029999999999994 -0.8079999999999998 1.5951 -0.030999999999999694 0
1279.914 -1.6006999999999998 -1.7271 -2.2029999999999994 -0.8079999999999998 1.5951 -0.030999999999999694 0
1279.934 -1.6006999999999998 -1.7271 -2.2029999999999994 -0.8079999999999998 1.5951 -0.030999999999999694 0
1279.954 -1.6006999999999998 -1.7271 -2.2029999999999994 -0.8079999999999998 1.5951 -0.030999999999999694 0
1279.974 -1.6006999999999998 -1.7271 -2.2029999999999994 -0.8079999999999998 1.5951 -0.030999999999999694 0
1279.994 -1.6006999999999998 -1.7271 -2.2029999999999994 -0.8079999999999998 1.5951 -0.030999999999999694 0
1280.014 -1.6006999999999998 -1.7271 -2.2029999999999994 -0.8079999999999998 1.5951 -0.030999999999999694 0
1280.0339999999999 -1.6006999999999998 -1.7271 -2.2029999999999994 -0.8079999999999998 1.5951 -0.030999999999999694 0
1280.0539999999999 -1.6006999999999998 -1.7271 -2.2029999999999994 -0.8079999999999998 1.5951 -0.030999999999999694 0
1280.0739999999998 -1.6006999999999998 -1.7271 -2.2029999999999994 -0.8079999999999998 1.5951 -0.030999999999999694 0
1280.094 -1.6006999999999998 -1.7271 -2.2029999999999994 -0.8079999999999998 1.5951 -0.030999999999999694 0
1280.114 -1.6006999999999998 -1.7271 -2.2029999999999994 -0.8079999999999998 1.5951 -0.030999999999999694 0
1280.134 -1.6006999999999998 -1.7271 -2.2029999999999994 -0.8079999999999998 1.5951 -0.030999999999999694 0
1280.154 -1.6006999999999998 -1.7271 -2.2029999999999994 -0.8079999999999998 1.5951 -0.030999999999999694 0
1280.174 -1.6006999999999998 -1.7271 -2.2029999999999994 -0.8079999999999998 1.5951 -0.030999999999999694 0
1280.194 -1.6006999999999998 -1.7271 -2.2029999999999994 -0.8079999999999998 1.5951 -0.030999999999999694 0
