Andreas691667/Digital_Twin_UR/src/controller_monitor/test_results/test_motion1.csv
timestamp actual_q_0 actual_q_1 actual_q_2 actual_q_3 actual_q_4 actual_q_5 output_bit_register_65 output_bit_register_66
1463.483 2.0184123516082764 -1.894517560998434 -1.443003535270691 -1.3407728683999558 1.629563808441162 0.4560776650905609 True True
1463.503 2.0184168815612793 -1.894496580163473 -1.4430001974105835 -1.340817005639412 1.6296038627624512 0.45603299140930176 True True
1463.523 2.0184338092803955 -1.8944651089110316 -1.4429713487625122 -1.3408092272332688 1.6295596361160278 0.45601245760917664 True True
1463.543 2.0184338092803955 -1.894496580163473 -1.4430001974105835 -1.340785102253296 1.6296038627624512 0.4560244381427765 True True
1463.5629999999999 2.0183961391448975 -1.8945008716978968 -1.443003535270691 -1.3408129674247284 1.6296205520629883 0.4560038447380066 True True
1463.5829999999999 2.0184295177459717 -1.8944641552367152 -1.4430363178253174 -1.3408010464957734 1.6295677423477173 0.4560409486293793 True True
1463.6029999999998 2.018409490585327 -1.8945180378355921 -1.4429585933685303 -1.3408048462918778 1.6295838356018066 0.4560452401638031 True True
1463.623 2.018447160720825 -1.8945251903929652 -1.4429993629455566 -1.3407369267991562 1.6295312643051147 0.4560081660747528 True True
1463.643 2.0184168815612793 -1.8945094547667445 -1.442949891090393 -1.3407729429057618 1.6295678615570068 0.4559962749481201 True True
1463.663 2.0184590816497803 -1.8944937191405238 -1.4429962635040283 -1.340748907332756 1.6296122074127197 0.4559800922870636 True True
1463.683 2.018425941467285 -1.8944727383055628 -1.4430243968963623 -1.340785102253296 1.629563570022583 0.45604097843170166 True True
1463.703 2.0184295177459717 -1.8944770298399867 -1.442971110343933 -1.3408210289529343 1.6296162605285645 0.456012487411499 True True
1463.723 2.0184214115142822 -1.8945423565306605 -1.4429668188095093 -1.3408010017922898 1.6295998096466064 0.45599624514579773 True True
1463.743 2.0183799266815186 -1.8945137463011683 -1.4429467916488647 -1.3407811236432572 1.6295759677886963 0.45605385303497314 True True
1463.763 2.0184004306793213 -1.8945008716978968 -1.4429993629455566 -1.3407850873521348 1.6296286582946777 0.456033319234848 True True
1463.783 2.0184080600738525 -1.8944894276061 -1.4429830312728882 -1.340784804230072 1.6296204328536987 0.4560321569442749 True True
1463.8029999999999 2.0184004306793213 -1.8944894276061 -1.4430006742477417 -1.3408050400069733 1.6295678615570068 0.45593777298927307 False False
1463.8229999999999 2.0183887481689453 -1.8944727383055628 -1.442949891090393 -1.3407930892756958 1.6295719146728516 0.4559916853904724 False False
1463.8429999999998 2.01841402053833 -1.8944856129088343 -1.442971110343933 -1.3407891553691407 1.6295838356018066 0.4560125172138214 False False
1463.8629999999998 2.0184590816497803 -1.89451326946401 -1.443021297454834 -1.3407253634980698 1.629563808441162 0.456066370010376 False False
1463.883 2.0184428691864014 -1.8945542774596156 -1.4429831504821777 -1.3407850724509736 1.6295596361160278 0.45596185326576233 False False
1463.903 2.018463611602783 -1.894496580163473 -1.4430125951766968 -1.3407891404679795 1.6296038627624512 0.45604559779167175 False False
1463.923 2.0184004306793213 -1.8945261440672816 -1.4429844617843628 -1.3408049953034897 1.6296038627624512 0.4560244083404541 False False
1463.943 2.0184428691864014 -1.8944808445372523 -1.4429700374603271 -1.3407729131034394 1.629607915878296 0.4560154378414154 False False
1463.963 2.018430233001709 -1.8945180378355921 -1.4429755210876465 -1.3408128184131165 1.629543662071228 0.455946683883667 False False
1463.983 2.0184383392333984 -1.8945218525328578 -1.4429585933685303 -1.3407294315150757 1.6295801401138306 0.45602884888648987 False False
1464.003 2.0183753967285156 -1.8944808445372523 -1.4430036544799805 -1.340785102253296 1.6295795440673828 0.456033319234848 False False
1464.023 2.0184576511383057 -1.8945089779295863 -1.4429467916488647 -1.3407772344401856 1.6295478343963623 0.4560365676879883 False False
1464.043 2.0184502601623535 -1.8944856129088343 -1.442991852760315 -1.3407293570092698 1.629591464996338 0.45602884888648987 False False
1464.0629999999999 2.0184428691864014 -1.8945218525328578 -1.4429668188095093 -1.3408011061004181 1.6295961141586304 0.45602768659591675 False False
1464.0829999999999 2.0184168815612793 -1.8944894276061 -1.4430036544799805 -1.3407933425954361 1.629543662071228 0.4559871554374695 False False
1464.1029999999998 2.0183842182159424 -1.8944727383055628 -1.4429830312728882 -1.3407450032285233 1.629616379737854 0.45601242780685425 False False
1464.123 2.0183961391448975 -1.8944937191405238 -1.4429585933685303 -1.3408294034055253 1.629535436630249 0.4560168981552124 False False
1464.143 2.0184004306793213 -1.8945304356017054 -1.4429335594177246 -1.3407729280046006 1.6296120882034302 0.45597976446151733 False False
1464.163 2.0184383392333984 -1.8945094547667445 -1.4429917335510254 -1.3407728236964722 1.6296122074127197 0.4560410976409912 False False
1464.183 2.0184383392333984 -1.894541402856344 -1.4429993629455566 -1.3407729429057618 1.6295478343963623 0.4560244083404541 False False
1464.203 2.0183677673339844 -1.8945428333678187 -1.4429800510406494 -1.3407167208245774 1.629563570022583 0.45604854822158813 False False
1464.223 2.018418312072754 -1.8944937191405238 -1.4429844617843628 -1.340821312074997 1.6295677423477173 0.456045538187027 False False
1464.243 2.018463611602783 -1.8944722614684046 -1.4429874420166016 -1.3407610219768067 1.6296205520629883 0.4560365676879883 False False
1464.263 2.018447160720825 -1.894522329370016 -1.4429800510406494 -1.3407893192819138 1.6296038627624512 0.4560648202896118 False False
1464.283 2.0184338092803955 -1.894508501092428 -1.442954182624817 -1.3407527816346665 1.6295596361160278 0.45607829093933105 False False
1464.3029999999999 2.0183722972869873 -1.8945638142027796 -1.4429963827133179 -1.340776951318123 1.629591941833496 0.4559827446937561 False False
1464.3229999999999 2.0184004306793213 -1.8944937191405238 -1.4429888725280762 -1.3407933723977585 1.6295955181121826 0.4560244083404541 False False
1464.3429999999998 2.0184502601623535 -1.8944813213744105 -1.44300377368927 -1.340776951318123 1.6296286582946777 0.45600804686546326 False False
1464.3629999999998 2.0184428691864014 -1.894491811791891 -1.4429497718811035 -1.3407367926887055 1.629616141319275 0.45598718523979187 False False
1464.383 2.0184123516082764 -1.8944560490050257 -1.4430125951766968 -1.3407408607057114 1.6295841932296753 0.45607829093933105 False False
1464.403 2.0183959007263184 -1.8944813213744105 -1.4430127143859863 -1.340744675402977 1.6295313835144043 0.45600801706314087 False False
1464.423 2.0184004306793213 -1.8945051632323207 -1.442971110343933 -1.3407606345466156 1.6295719146728516 0.4559871256351471 False False
1464.443 2.018463611602783 -1.8944770298399867 -1.4429949522018433 -1.3408089739135285 1.629607915878296 0.4559961259365082 False False
1464.463 2.018397569656372 -1.8944937191405238 -1.4430080652236938 -1.340801091199257 1.6295678615570068 0.4560365676879883 False False
1464.483 2.0183959007263184 -1.894484659234518 -1.4429422616958618 -1.3407970529845734 1.6295478343963623 0.4560154378414154 False False
1464.503 2.0183932781219482 -1.8945385418333949 -1.4429422616958618 -1.3407892298749466 1.6295678615570068 0.456012487411499 False False
1464.523 2.0184292793273926 -1.8945094547667445 -1.4429755210876465 -1.34080924213443 1.629563808441162 0.456015408039093 False False
1464.543 2.018425941467285 -1.894437929193014 -1.4429631233215332 -1.3407647621682663 1.629580020904541 0.45603659749031067 False False
1464.5629999999999 2.0184080600738525 -1.894571920434469 -1.4429668188095093 -1.340776951318123 1.6295918226242065 0.45601537823677063 False False
1464.5829999999999 2.0183796882629395 -1.8945266209044398 -1.4429497718811035 -1.3407687705806275 1.6295998096466064 0.4559870660305023 False False
1464.6029999999998 2.0184051990509033 -1.8944937191405238 -1.4430080652236938 -1.3408011061004181 1.6295838356018066 0.45600348711013794 False False
1464.623 2.0183722972869873 -1.8944937191405238 -1.442949891090393 -1.3407933425954361 1.6295679807662964 0.45604556798934937 False False
1464.643 2.0184168815612793 -1.8944722614684046 -1.4429585933685303 -1.340772957806923 1.629591941833496 0.45596757531166077 False False
1464.663 2.0184338092803955 -1.8944860897459925 -1.4429993629455566 -1.3408334118178864 1.6296077966690063 0.45598700642585754 False False
1464.683 2.0184295177459717 -1.8944856129088343 -1.443021297454834 -1.340785102253296 1.6295959949493408 0.4560244083404541 False False
1464.703 2.0184214115142822 -1.894580980340475 -1.443019986152649 -1.3407331270030518 1.629591941833496 0.45602887868881226 False False
1464.723 2.0184576511383057 -1.894522329370016 -1.4429631233215332 -1.3407687854817887 1.6295597553253174 0.45605748891830444 False False
1464.743 2.0184664726257324 -1.8945185146727503 -1.4429335594177246 -1.3407569390586396 1.629611849784851 0.4560411274433136 False False
1464.763 2.0184168815612793 -1.8945275745787562 -1.4430125951766968 -1.3407933574965973 1.6295878887176514 0.45600804686546326 False False
1464.783 2.0184383392333984 -1.8945094547667445 -1.4429755210876465 -1.3407446306994935 1.6295838356018066 0.45595401525497437 False False
1464.8029999999999 2.0184426307678223 -1.8945185146727503 -1.4429631233215332 -1.3407487136176606 1.6296038627624512 0.456012487411499 False False
1464.8229999999999 2.0184168815612793 -1.8944469890990199 -1.443015694618225 -1.3407527965358277 1.629563808441162 0.4560198485851288 False False
1464.8429999999998 2.018371105194092 -1.8944813213744105 -1.4430125951766968 -1.3407647025636216 1.6295479536056519 0.45600348711013794 False False
1464.8629999999998 2.0184214115142822 -1.8944722614684046 -1.4429543018341064 -1.340801091199257 1.6295437812805176 0.4560619592666626 False False
1464.883 2.0184590816497803 -1.8944894276061 -1.4429993629455566 -1.3407450181296845 1.6295479536056519 0.4560410976409912 False False
1464.903 2.018491506576538 -1.8945638142027796 -1.4429500102996826 -1.3407770258239289 1.6296038627624512 0.45601537823677063 False False
1464.923 2.0184295177459717 -1.8944894276061 -1.442949891090393 -1.3407892447761078 1.629591941833496 0.45602887868881226 False False
1464.943 2.0184249877929688 -1.894484659234518 -1.4429993629455566 -1.3407811236432572 1.6295720338821411 0.456012487411499 False False
1464.963 2.0184080600738525 -1.8944894276061 -1.4430242776870728 -1.3407207888415833 1.6295956373214722 0.45607081055641174 False False
1464.983 2.0184457302093506 -1.8944961033263148 -1.4429585933685303 -1.340789259677269 1.6295597553253174 0.4560410976409912 False False
1465.003 2.018425703048706 -1.8945142231383265 -1.4429800510406494 -1.3408011061004181 1.6295679807662964 0.4559841752052307 False False
1465.023 2.0184123516082764 -1.8944770298399867 -1.4429669380187988 -1.3407527816346665 1.629580020904541 0.45605748891830444 False False
1465.043 2.0184590816497803 -1.8945027790465296 -1.4429337978363037 -1.3407850724509736 1.6295956373214722 0.45600801706314087 False False
1465.0629999999999 2.0184295177459717 -1.8945142231383265 -1.4429712295532227 -1.3407487136176606 1.6295918226242065 0.456012487411499 False False
1465.0829999999999 2.0183637142181396 -1.8944813213744105 -1.4429843425750732 -1.3407850724509736 1.6296037435531616 0.456059068441391 False False
1465.1029999999998 2.0184500217437744 -1.8944574795165003 -1.4429500102996826 -1.3407286417535325 1.629563808441162 0.4560244083404541 False False
1465.123 2.0183842182159424 -1.894484659234518 -1.442962646484375 -1.3407770258239289 1.6295839548110962 0.45599159598350525 False False
1465.143 2.0184006690979004 -1.8945356808104457 -1.4429874420166016 -1.3407326352647324 1.6295677423477173 0.45601093769073486 False False
1465.163 2.018425703048706 -1.8945051632323207 -1.4429962635040283 -1.3408010613969346 1.6295839548110962 0.45602887868881226 False False
1465.183 2.018479585647583 -1.8944937191405238 -1.4429755210876465 -1.3407527667335053 1.629568099975586 0.45600804686546326 False False
1465.203 2.0184338092803955 -1.894517560998434 -1.4428969621658325 -1.34078103423629 1.6295639276504517 0.45602765679359436 False False
1465.223 2.0184006690979004 -1.8944894276061 -1.443040370941162 -1.340772957806923 1.6295558214187622 0.45606938004493713 False False
1465.243 2.0184082984924316 -1.8944603405394496 -1.4429961442947388 -1.340808944111206 1.6295439004898071 0.45604556798934937 False False
1465.263 2.0184338092803955 -1.8945309124388636 -1.4429799318313599 -1.340797410612442 1.6295918226242065 0.45600801706314087 False False
1465.283 2.0183889865875244 -1.8945003948607386 -1.4429543018341064 -1.3407327097705384 1.6295558214187622 0.4560244083404541 False False
1465.3029999999999 2.0184707641601562 -1.8945185146727503 -1.4430079460144043 -1.340728537445404 1.6295360326766968 0.45599907636642456 False False
1465.3229999999999 2.0184500217437744 -1.8945356808104457 -1.4429339170455933 -1.3408493113568802 1.6295839548110962 0.456012487411499 False False
1465.3429999999998 2.018463373184204 -1.8945275745787562 -1.4429993629455566 -1.3407770258239289 1.6295838356018066 0.456012487411499 False False
1465.3629999999998 2.0184295177459717 -1.8944980106749476 -1.4429842233657837 -1.3408052933267136 1.6295515298843384 0.4560619592666626 False False
1465.383 2.018425703048706 -1.8944722614684046 -1.4429799318313599 -1.3407810193351288 1.6295276880264282 0.4560590386390686 False False
1465.403 2.018425703048706 -1.8944603405394496 -1.4429712295532227 -1.3407487136176606 1.6295596361160278 0.4560619592666626 False False
1465.423 2.018479347229004 -1.8944484196104945 -1.4429631233215332 -1.3407892000726243 1.6296122074127197 0.4560244083404541 False False
1465.443 2.01845121383667 -1.8945142231383265 -1.4430241584777832 -1.340789259677269 1.6295472383499146 0.4560079872608185 False False
1465.463 2.0184662342071533 -1.8944694004454554 -1.4430155754089355 -1.3407893192819138 1.6296002864837646 0.4560902416706085 False False
1465.483 2.018446922302246 -1.8944860897459925 -1.4429670572280884 -1.340789259677269 1.6295961141586304 0.456033319234848 False False
1465.503 2.0183639526367188 -1.8945476017394007 -1.4430036544799805 -1.3407651495984574 1.6295759677886963 0.4560169577598572 False False
1465.523 2.018425703048706 -1.8944646320738734 -1.4429712295532227 -1.34080524862323 1.6295759677886963 0.4559960961341858 False False
1465.543 2.0184168815612793 -1.8945051632323207 -1.4429755210876465 -1.3407609921744843 1.6295719146728516 0.45600804686546326 False False
1465.5629999999999 2.0184457302093506 -1.8945337734618128 -1.4429917335510254 -1.340785102253296 1.629555583000183 0.45601245760917664 False False
1465.5829999999999 2.0184125900268555 -1.8945142231383265 -1.4429874420166016 -1.3407528114369889 1.6296120882034302 0.4560365378856659 False False
1465.6029999999998 2.01847505569458 -1.8944202862181605 -1.4429874420166016 -1.3407527965358277 1.629632830619812 0.4560244083404541 False False
1465.623 2.0183963775634766 -1.8944679699339808 -1.4429831504821777 -1.3407527667335053 1.6295719146728516 0.45600801706314087 False False
1465.643 2.018409490585327 -1.8945003948607386 -1.4429670572280884 -1.3407970082810898 1.6295998096466064 0.456012487411499 False False
1465.663 2.018409490585327 -1.894480367700094 -1.4429994821548462 -1.3408252459815522 1.6296038627624512 0.45599165558815 False False
1465.683 2.0183844566345215 -1.894491811791891 -1.4429179430007935 -1.340768815284111 1.6296205520629883 0.45604556798934937 False False
1465.703 2.018413782119751 -1.8945309124388636 -1.442954421043396 -1.3407851171544571 1.629535436630249 0.4560455083847046 False False
1465.723 2.0183889865875244 -1.894475599328512 -1.4429502487182617 -1.3408092123321076 1.62959623336792 0.45600804686546326 False False
1465.743 2.0184051990509033 -1.8944860897459925 -1.4429831504821777 -1.3407729429057618 1.6295998096466064 0.4560529291629791 False False
1465.763 2.0184295177459717 -1.8944961033263148 -1.4429961442947388 -1.3407850873521348 1.6296038627624512 0.456066370010376 False False
1465.783 2.0184426307678223 -1.8944894276061 -1.442962884902954 -1.3408129674247284 1.6296122074127197 0.4560529291629791 False False
1465.8029999999999 2.0184338092803955 -1.894480367700094 -1.4429545402526855 -1.3407892000726243 1.6295596361160278 0.45598268508911133 False False
1465.8229999999999 2.0184338092803955 -1.8944393597044886 -1.443003535270691 -1.340776951318123 1.6296042203903198 0.45603328943252563 False False
1465.8429999999998 2.0184338092803955 -1.8944894276061 -1.4429842233657837 -1.3407569837621232 1.6295759677886963 0.4560333490371704 False False
1465.8629999999998 2.0184125900268555 -1.8945142231383265 -1.4429874420166016 -1.3407529157451172 1.6295961141586304 0.456012487411499 False False
1465.883 2.0184214115142822 -1.8944679699339808 -1.4429755210876465 -1.3407690537026902 1.6295596361160278 0.456011027097702 False False
1465.903 2.0184457302093506 -1.8944770298399867 -1.4429460763931274 -1.340785102253296 1.629563808441162 0.456012487411499 False False
1465.923 2.0184214115142822 -1.8944603405394496 -1.4429713487625122 -1.3407970082810898 1.6295801401138306 0.45596638321876526 False False
1465.943 2.018458604812622 -1.8945142231383265 -1.4429755210876465 -1.3407529455474396 1.6295801401138306 0.4560287892818451 False False
1465.963 2.0183966159820557 -1.8945008716978968 -1.4429916143417358 -1.3407570284656067 1.6295719146728516 0.45593777298927307 False False
1465.983 2.0184168815612793 -1.8944722614684046 -1.4429755210876465 -1.3408129227212449 1.6295998096466064 0.4560410678386688 False False
1466.003 2.0183846950531006 -1.8945309124388636 -1.4429502487182617 -1.340788946752884 1.6295878887176514 0.4560288190841675 False False
1466.023 2.0184383392333984 -1.8944512806334437 -1.4429874420166016 -1.3407610219768067 1.629600167274475 0.45602133870124817 False False
1466.043 2.0184457302093506 -1.8944894276061 -1.44304358959198 -1.3407570582679291 1.6295678615570068 0.4560154676437378 False False
1466.0629999999999 2.0184619426727295 -1.8944603405394496 -1.443003535270691 -1.3408210289529343 1.6295719146728516 0.45600807666778564 False False
1466.0829999999999 2.01842999458313 -1.8944946728148402 -1.4430078268051147 -1.3407490712455292 1.6296120882034302 0.45600807666778564 False False
1466.1029999999998 2.0184383392333984 -1.8944274387755335 -1.4429874420166016 -1.3407851320556183 1.629555583000183 0.45603662729263306 False False
1466.123 2.0183932781219482 -1.8945685825743617 -1.4429222345352173 -1.3407891404679795 1.6295841932296753 0.45604854822158813 False False
1466.143 2.018446922302246 -1.8945476017394007 -1.4430248737335205 -1.340808944111206 1.6295878887176514 0.45601990818977356 False False
1466.163 2.0184338092803955 -1.894480367700094 -1.4429993629455566 -1.340772957806923 1.629555583000183 0.45599615573883057 False False
1466.183 2.0184338092803955 -1.8944722614684046 -1.443015456199646 -1.3407689195922394 1.6295801401138306 0.4560288190841675 False False
1466.203 2.018446683883667 -1.8944961033263148 -1.4429874420166016 -1.3407610219768067 1.6295719146728516 0.4560154974460602 False False
1466.223 2.0183804035186768 -1.8945142231383265 -1.443003535270691 -1.3408049655011673 1.629600167274475 0.45599475502967834 False False
1466.243 2.0184662342071533 -1.8944961033263148 -1.4429672956466675 -1.3407649558833619 1.6295677423477173 0.45605742931365967 False False
1466.263 2.018446683883667 -1.8944937191405238 -1.4430078268051147 -1.3407490861466904 1.6296122074127197 0.4559885859489441 False False
1466.283 2.0183966159820557 -1.894454141656393 -1.4429426193237305 -1.3408014935306092 1.629555583000183 0.4559798538684845 False False
1466.3029999999999 2.0184214115142822 -1.894522329370016 -1.4429908990859985 -1.3407527816346665 1.6295998096466064 0.45607808232307434 False False
1466.3229999999999 2.0183804035186768 -1.8945142231383265 -1.4429755210876465 -1.3407647174647828 1.629591941833496 0.45598289370536804 False False
1466.3429999999998 2.0184051990509033 -1.8944894276061 -1.442945957183838 -1.3407729429057618 1.629591941833496 0.45599615573883057 False False
1466.3629999999998 2.0184125900268555 -1.8945266209044398 -1.4429789781570435 -1.3407770258239289 1.6295838356018066 0.4560454189777374 False False
1466.383 2.0183963775634766 -1.8944722614684046 -1.4429960250854492 -1.3408011210015793 1.629563570022583 0.456012487411499 False False
1466.403 2.0184383392333984 -1.8944441280760707 -1.443003535270691 -1.3407810938409348 1.629580020904541 0.4559992253780365 False False
1466.423 2.018392324447632 -1.8945051632323207 -1.4430487155914307 -1.3407929998687287 1.6295998096466064 0.4559754729270935 False False
1466.443 2.018450975418091 -1.8944603405394496 -1.4429799318313599 -1.340797023182251 1.6295759677886963 0.4560365676879883 False False
1466.463 2.018458843231201 -1.8945266209044398 -1.4429831504821777 -1.340785102253296 1.6295961141586304 0.4560454189777374 False False
1466.483 2.0183684825897217 -1.894475599328512 -1.4429426193237305 -1.340744973426201 1.6296122074127197 0.45600810647010803 False False
1466.503 2.018474817276001 -1.8944980106749476 -1.4429866075515747 -1.3407647174647828 1.6295719146728516 0.4560454189777374 False False
1466.523 2.0184338092803955 -1.8945142231383265 -1.4429789781570435 -1.340792940264084 1.6295961141586304 0.4560454189777374 False False
1466.543 2.018409490585327 -1.8945337734618128 -1.4429426193237305 -1.3408334118178864 1.6295801401138306 0.4560616910457611 False False
1466.5629999999999 2.0184545516967773 -1.894545694390768 -1.4430240392684937 -1.3407810193351288 1.6295759677886963 0.45604977011680603 False False
1466.5829999999999 2.0184383392333984 -1.894522329370016 -1.443016529083252 -1.3407810193351288 1.6295801401138306 0.456012487411499 False False
1466.6029999999998 2.0184414386749268 -1.894484659234518 -1.4429993629455566 -1.340752751832344 1.6295955181121826 0.4560410678386688 False False
1466.623 2.0184383392333984 -1.8945051632323207 -1.4430036544799805 -1.3407933425954361 1.6295677423477173 0.4560321867465973 False False
1466.643 2.0184662342071533 -1.8945003948607386 -1.443003535270691 -1.3407932978919526 1.6295719146728516 0.45607489347457886 False False
1466.663 2.0184006690979004 -1.8945266209044398 -1.4429545402526855 -1.3407650303891678 1.6295838356018066 0.4560322165489197 False False
1466.683 2.0184671878814697 -1.8944813213744105 -1.4429585933685303 -1.3407933127931138 1.6295838356018066 0.4560168385505676 False False
1466.703 2.0184338092803955 -1.894484659234518 -1.4429798126220703 -1.3407933425954361 1.6295472383499146 0.4560287594795227 False False
1466.723 2.018364191055298 -1.89455046276235 -1.4429470300674438 -1.3407850873521348 1.6295677423477173 0.45600810647010803 False False
1466.743 2.0184125900268555 -1.8944469890990199 -1.4429341554641724 -1.3407729429057618 1.6295759677886963 0.45596325397491455 False False
1466.763 2.0184383392333984 -1.8944560490050257 -1.4429587125778198 -1.3407850724509736 1.6295719146728516 0.45599618554115295 False False
1466.783 2.0184295177459717 -1.8945428333678187 -1.4429874420166016 -1.3408010762980958 1.6295596361160278 0.45604848861694336 False False
1466.8029999999999 2.0184009075164795 -1.894484659234518 -1.4429832696914673 -1.340789259677269 1.6295878887176514 0.45599934458732605 False False
1466.8229999999999 2.0184338092803955 -1.8945094547667445 -1.4429587125778198 -1.3407687854817887 1.629591941833496 0.4559711515903473 False False
1466.8429999999998 2.018425703048706 -1.89451326946401 -1.4429670572280884 -1.3407810491374512 1.6295838356018066 0.45604535937309265 False False
1466.8629999999998 2.0184338092803955 -1.894529481927389 -1.4429265260696411 -1.3407491010478516 1.6295759677886963 0.4560244083404541 False False
1466.883 2.0184168815612793 -1.8945476017394007 -1.443015456199646 -1.340748743419983 1.6295678615570068 0.4560496509075165 False False
1466.903 2.0184125900268555 -1.8945266209044398 -1.4429993629455566 -1.3408052635243912 1.6295961141586304 0.45600372552871704 False False
1466.923 2.018425226211548 -1.8944770298399867 -1.4429874420166016 -1.3407688003829499 1.6296038627624512 0.45607784390449524 False False
1466.943 2.0184500217437744 -1.8944722614684046 -1.4429916143417358 -1.3407811534455796 1.6295719146728516 0.45604100823402405 False False
1466.963 2.0184381008148193 -1.8944980106749476 -1.4429672956466675 -1.3408093315413971 1.6296162605285645 0.4560156464576721 False False
1466.983 2.018450975418091 -1.8945232830443324 -1.4429755210876465 -1.3407564175179978 1.6295801401138306 0.45608219504356384 False False
1467.003 2.018409490585327 -1.8945142231383265 -1.4429799318313599 -1.3407687854817887 1.6296370029449463 0.45604100823402405 False False
1467.023 2.0183932781219482 -1.89451326946401 -1.4429545402526855 -1.3408212524703522 1.6296080350875854 0.4560573101043701 False False
1467.043 2.018392324447632 -1.894458910027975 -1.4429960250854492 -1.3408011061004181 1.629624605178833 0.4559919238090515 False False
1467.0629999999999 2.0184295177459717 -1.8944937191405238 -1.4429713487625122 -1.3408093315413971 1.629607915878296 0.45608213543891907 False False
1467.0829999999999 2.018425226211548 -1.8945595226683558 -1.4429916143417358 -1.3407446306994935 1.6295759677886963 0.4560452997684479 False False
1467.1029999999998 2.018446683883667 -1.8945003948607386 -1.4429916143417358 -1.3407446605018158 1.6295838356018066 0.45605722069740295 False False
1467.123 2.0183846950531006 -1.8945428333678187 -1.4429713487625122 -1.3407770258239289 1.6295955181121826 0.4560528099536896 False False
1467.143 2.018397569656372 -1.894484659234518 -1.443003535270691 -1.3407647472671052 1.6295955181121826 0.456012487411499 False False
1467.163 2.0184051990509033 -1.8945309124388636 -1.4429832696914673 -1.3407646727612992 1.6296080350875854 0.4559919238090515 False False
1467.183 2.018369436264038 -1.89451326946401 -1.4429019689559937 -1.3407647025636216 1.6295270919799805 0.4560365676879883 False False
1467.203 2.0184168815612793 -1.8945094547667445 -1.4429503679275513 -1.3407892447761078 1.629563808441162 0.4560244083404541 False False
1467.223 2.0184295177459717 -1.8945027790465296 -1.4430121183395386 -1.3407729429057618 1.6295961141586304 0.4560244083404541 False False
1467.243 2.0184500217437744 -1.894517560998434 -1.4429631233215332 -1.3408133399537583 1.629596471786499 0.4560125172138214 False False
1467.263 2.0184414386749268 -1.8944770298399867 -1.442967414855957 -1.3407729280046006 1.6295596361160278 0.45601674914360046 False False
1467.283 2.018446683883667 -1.89451326946401 -1.442934274673462 -1.3407409352115174 1.6295472383499146 0.4559875726699829 False False
1467.3029999999999 2.0184500217437744 -1.89451326946401 -1.4430121183395386 -1.3407569390586396 1.6295998096466064 0.4559670686721802 False False
1467.3229999999999 2.0184168815612793 -1.894508501092428 -1.4429799318313599 -1.3407687854817887 1.6295759677886963 0.456012487411499 False False
1467.3429999999998 2.0184543132781982 -1.8945428333678187 -1.4429588317871094 -1.3407928955606003 1.6295759677886963 0.4560081958770752 False False
1467.3629999999998 2.0184619426727295 -1.894534250298971 -1.4429993629455566 -1.3408047717860718 1.629555583000183 0.4560125172138214 False False
1467.383 2.0184576511383057 -1.8945185146727503 -1.4429916143417358 -1.3407970380834122 1.6296038627624512 0.45606470108032227 False False
1467.403 2.0184051990509033 -1.8945547542967738 -1.4429713487625122 -1.3407286417535325 1.629591941833496 0.4559962749481201 False False
1467.423 2.01841402053833 -1.894522329370016 -1.443003535270691 -1.340789259677269 1.629591941833496 0.45607009530067444 False False
1467.443 2.0184295177459717 -1.8944860897459925 -1.4429993629455566 -1.3407933425954361 1.6295514106750488 0.4560409486293793 False False
1467.463 2.0184125900268555 -1.8945094547667445 -1.4429993629455566 -1.3408011061004181 1.6296038627624512 0.4559951722621918 False False
1467.483 2.0183961391448975 -1.8944646320738734 -1.4429993629455566 -1.340853513484337 1.6295719146728516 0.4560571014881134 False False
1467.503 2.018413782119751 -1.8945142231383265 -1.4429670572280884 -1.3408334863236924 1.6295431852340698 0.4559757709503174 False False
1467.523 2.0183887481689453 -1.8944894276061 -1.4430121183395386 -1.3407770109227677 1.6295312643051147 0.4559962749481201 False False
1467.543 2.0184338092803955 -1.8945051632323207 -1.4429631233215332 -1.3407970082810898 1.6295759677886963 0.4560081958770752 False False
1467.5629999999999 2.018364906311035 -1.8944603405394496 -1.4429949522018433 -1.3407850873521348 1.6295276880264282 0.45601677894592285 False False
1467.5829999999999 2.0184428691864014 -1.8944894276061 -1.4429843425750732 -1.3407769960216065 1.629624605178833 0.4560452699661255 False False
1467.6029999999998 2.0184338092803955 -1.8945266209044398 -1.4429585933685303 -1.3407933425954361 1.6296038627624512 0.4560081660747528 False False
1467.6229999999998 2.0184249877929688 -1.8944679699339808 -1.4429668188095093 -1.3407810193351288 1.6295677423477173 0.45600926876068115 False False
1467.643 2.0183932781219482 -1.894545694390768 -1.4429831504821777 -1.3408294183066864 1.6296324729919434 0.4560614824295044 False False
1467.663 2.0184664726257324 -1.8945385418333949 -1.442991852760315 -1.340797023182251 1.6295719146728516 0.4560614824295044 False False
1467.683 2.0183634757995605 -1.8944813213744105 -1.4430243968963623 -1.3408170950463791 1.6296122074127197 0.456012487411499 False False
1467.703 2.0184428691864014 -1.8945309124388636 -1.4429335594177246 -1.34078103423629 1.629624605178833 0.45600375533103943 False False
1467.723 2.0184168815612793 -1.8944980106749476 -1.4430080652236938 -1.3407929700664063 1.6296122074127197 0.4559919238090515 False False
1467.743 2.0184168815612793 -1.8944813213744105 -1.4429543018341064 -1.340808944111206 1.629555583000183 0.4559832811355591 False False
1467.763 2.0183842182159424 -1.8944722614684046 -1.4429675340652466 -1.3408130419305344 1.6295194625854492 0.4560125172138214 False False
1467.783 2.0184295177459717 -1.8944894276061 -1.442949891090393 -1.3407367777875443 1.6296120882034302 0.4559800326824188 False False
1467.8029999999999 2.0184428691864014 -1.8944770298399867 -1.4429668188095093 -1.3408170652440567 1.6295841932296753 0.4560452699661255 False False
1467.8229999999999 2.0184004306793213 -1.8945471249022425 -1.442991852760315 -1.3407769811204453 1.6296287775039673 0.4560038149356842 False False
1467.8429999999998 2.0184295177459717 -1.894517560998434 -1.442986249923706 -1.3408170652440567 1.6296122074127197 0.45601677894592285 False False
1467.8629999999998 2.0183796882629395 -1.8944937191405238 -1.4429917335510254 -1.3407450479320069 1.6295795440673828 0.4560081958770752 False False
1467.883 2.0184338092803955 -1.8944512806334437 -1.44300377368927 -1.3407970678857346 1.629607915878296 0.455999493598938 False False
1467.903 2.0184123516082764 -1.8944980106749476 -1.4429874420166016 -1.3408171099475403 1.6295838356018066 0.45603305101394653 False False
1467.923 2.0184214115142822 -1.894517560998434 -1.4429543018341064 -1.3407168698361893 1.629591941833496 0.45603224635124207 False False
1467.943 2.0184295177459717 -1.8945805035033167 -1.442924976348877 -1.3408010613969346 1.6295719146728516 0.4560451805591583 False False
1467.963 2.0184338092803955 -1.8945008716978968 -1.4429755210876465 -1.3407650601914902 1.6296205520629883 0.45601677894592285 False False
1467.983 2.018425941467285 -1.8945185146727503 -1.4429454803466797 -1.3407769811204453 1.6295515298843384 0.4560081958770752 False False
1468.003 2.0184457302093506 -1.8945051632323207 -1.4429585933685303 -1.3407970529845734 1.6295838356018066 0.45602869987487793 False False
1468.023 2.0184590816497803 -1.894480367700094 -1.4429755210876465 -1.3407892149737854 1.6295678615570068 0.4560157060623169 False False
1468.043 2.0184500217437744 -1.894463678399557 -1.4429787397384644 -1.3407970380834122 1.6296244859695435 0.45599621534347534 False False
1468.0629999999999 2.0184383392333984 -1.894484659234518 -1.4429993629455566 -1.340785102253296 1.6295719146728516 0.45598751306533813 False False
1468.0829999999999 2.0184590816497803 -1.8944651089110316 -1.4429422616958618 -1.340776966219284 1.6295878887176514 0.4560452997684479 False False
1468.1029999999998 2.0184292793273926 -1.8944722614684046 -1.4430243968963623 -1.3407529157451172 1.6295636892318726 0.45605719089508057 False False
1468.1229999999998 2.0184338092803955 -1.8945185146727503 -1.4429755210876465 -1.340797023182251 1.629591941833496 0.4559832811355591 False False
1468.143 2.0183768272399902 -1.8944937191405238 -1.4430125951766968 -1.3408010017922898 1.6295636892318726 0.4560571610927582 False False
1468.163 2.0184295177459717 -1.8945094547667445 -1.4429800510406494 -1.3407771003297348 1.6295719146728516 0.4560527801513672 False False
1468.183 2.018447160720825 -1.8944937191405238 -1.4429874420166016 -1.3407688748887558 1.6295719146728516 0.4560527801513672 False False
1468.203 2.0184710025787354 -1.8944694004454554 -1.4429993629455566 -1.3407729429057618 1.6296244859695435 0.456012487411499 False False
1468.223 2.0184383392333984 -1.8944531879820765 -1.442991852760315 -1.340785102253296 1.6295356750488281 0.4559800624847412 False False
1468.243 2.0184051990509033 -1.8944694004454554 -1.4429454803466797 -1.340757043366768 1.6296038627624512 0.45602867007255554 False False
1468.263 2.018409490585327 -1.8944813213744105 -1.4429335594177246 -1.3407970529845734 1.6295759677886963 0.45604950189590454 False False
1468.283 2.0184168815612793 -1.8944980106749476 -1.4429668188095093 -1.3407649260810395 1.6295557022094727 0.4560082256793976 False False
1468.3029999999999 2.0184428691864014 -1.8945266209044398 -1.442962408065796 -1.3408050251058121 1.6295478343963623 0.45594730973243713 False False
1468.3229999999999 2.0184428691864014 -1.8945094547667445 -1.4429874420166016 -1.3407253485969086 1.629616379737854 0.45602545142173767 False False
1468.3429999999998 2.0184547901153564 -1.8945185146727503 -1.4429874420166016 -1.3407371801188965 1.629624366760254 0.4560743272304535 False False
1468.3629999999998 2.0184123516082764 -1.8944894276061 -1.442971110343933 -1.3407571029714127 1.6295878887176514 0.4559952914714813 False False
1468.383 2.018430233001709 -1.8945309124388636 -1.4430007934570312 -1.340789095764496 1.6296159029006958 0.45596715807914734 False False
1468.403 2.0184338092803955 -1.8945547542967738 -1.4429874420166016 -1.340761051779129 1.629616379737854 0.45603296160697937 False False
1468.423 2.0184412002563477 -1.8944937191405238 -1.4429786205291748 -1.3407768470099946 1.6295557022094727 0.45603296160697937 False False
1468.443 2.0184168815612793 -1.8944560490050257 -1.4430036544799805 -1.3407811683467408 1.6295838356018066 0.45598429441452026 False False
1468.463 2.0184829235076904 -1.8945137463011683 -1.4429949522018433 -1.340785102253296 1.6295398473739624 0.45599910616874695 False False
1468.483 2.0184004306793213 -1.8944441280760707 -1.4429800510406494 -1.340785102253296 1.6296077966690063 0.45601686835289 False False
1468.503 2.018463611602783 -1.8944679699339808 -1.4429830312728882 -1.3407687854817887 1.6296203136444092 0.4560376703739166 False False
1468.523 2.0184664726257324 -1.8945137463011683 -1.4429874420166016 -1.34078103423629 1.629580020904541 0.45607829093933105 False False
1468.543 2.0184428691864014 -1.8944961033263148 -1.4429422616958618 -1.3407487285188218 1.6295597553253174 0.45599913597106934 False False
1468.5629999999999 2.0184783935546875 -1.8945471249022425 -1.4430080652236938 -1.3407770258239289 1.6295679807662964 0.4559870958328247 False False
1468.5829999999999 2.0184168815612793 -1.8945394955077113 -1.442971110343933 -1.3407568794539948 1.6295959949493408 0.4559842050075531 False False
1468.6029999999998 2.018451690673828 -1.8945266209044398 -1.4429755210876465 -1.3408130270293732 1.6296203136444092 0.4560529291629791 False False
1468.6229999999998 2.0184123516082764 -1.8944937191405238 -1.4429712295532227 -1.340776951318123 1.6295720338821411 0.45602884888648987 False False
1468.643 2.0184168815612793 -1.8945023022093714 -1.4430125951766968 -1.3407810193351288 1.6295839548110962 0.45604848861694336 False False
1468.663 2.0184590816497803 -1.8944851360716761 -1.4429800510406494 -1.3408170503428956 1.6295720338821411 0.45599910616874695 False False
1468.683 2.018430233001709 -1.8945471249022425 -1.443015694618225 -1.3407970678857346 1.6295158863067627 0.4560288190841675 False False
1468.703 2.018467903137207 -1.8944488964476527 -1.4429668188095093 -1.3407770258239289 1.6295878887176514 0.45603659749031067 False False
1468.723 2.0184338092803955 -1.8944937191405238 -1.44300377368927 -1.3407569539598008 1.6295720338821411 0.456011027097702 False False
1468.743 2.0184338092803955 -1.8945137463011683 -1.4430288076400757 -1.3407728236964722 1.629563808441162 0.45600804686546326 False False
1468.763 2.0184500217437744 -1.8945228062071742 -1.4430080652236938 -1.3407810193351288 1.6296242475509644 0.456045538187027 False False
1468.783 2.0184473991394043 -1.894517560998434 -1.4429917335510254 -1.3407851320556183 1.629563808441162 0.45601987838745117 False False
1468.8029999999999 2.01841402053833 -1.8944608173766078 -1.4429216384887695 -1.3407770258239289 1.629616379737854 0.45600056648254395 False False
1468.8229999999999 2.018425703048706 -1.8944894276061 -1.4430006742477417 -1.340789259677269 1.6296037435531616 0.456012487411499 False False
1468.8429999999998 2.018463611602783 -1.8944651089110316 -1.4429712295532227 -1.3407810640386124 1.6296156644821167 0.4560154378414154 False False
1468.8629999999998 2.0184338092803955 -1.8944770298399867 -1.4430080652236938 -1.340760664348938 1.6296321153640747 0.4560259282588959 False False
1468.883 2.0184755325317383 -1.8945633373656214 -1.442937970161438 -1.3407688003829499 1.6296322345733643 0.4560410976409912 False False
1468.903 2.0184664726257324 -1.8945137463011683 -1.4429962635040283 -1.340809316640236 1.629563808441162 0.45606493949890137 False False
1468.923 2.018447160720825 -1.894451757470602 -1.442949891090393 -1.3408052337220688 1.6295918226242065 0.4559916853904724 False False
1468.943 2.018467903137207 -1.89451326946401 -1.4429380893707275 -1.3407933127931138 1.6295720338821411 0.45599910616874695 False False
1468.963 2.0184004306793213 -1.8945023022093714 -1.443016767501831 -1.3408011061004181 1.629568099975586 0.4559541344642639 False False
1468.983 2.0184123516082764 -1.8945094547667445 -1.4429422616958618 -1.3407810491374512 1.6295799016952515 0.45597076416015625 False False
1469.003 2.0183961391448975 -1.8944894276061 -1.4429917335510254 -1.3407606345466156 1.6295759677886963 0.4560321569442749 False False
1469.023 2.0184383392333984 -1.8945094547667445 -1.4429993629455566 -1.340789259677269 1.629583716392517 0.4560288190841675 False False
1469.043 2.0183887481689453 -1.8944679699339808 -1.4429917335510254 -1.3407727789929886 1.6295678615570068 0.45603328943252563 False False
1469.0629999999999 2.0183961391448975 -1.8945380649962367 -1.4430036544799805 -1.3407688599875947 1.6295515298843384 0.4559961259365082 False False
1469.0829999999999 2.018491744995117 -1.8945394955077113 -1.4430036544799805 -1.3407687854817887 1.629563808441162 0.4560244083404541 False False
1469.1029999999998 2.0184383392333984 -1.8944937191405238 -1.4429961442947388 -1.340817080145218 1.6295878887176514 0.45602884888648987 False False
1469.1229999999998 2.0184590816497803 -1.8945800266661585 -1.4429874420166016 -1.340789259677269 1.6295841932296753 0.45605748891830444 False False
1469.143 2.0184338092803955 -1.8945008716978968 -1.4429874420166016 -1.3407810193351288 1.6296162605285645 0.4560410976409912 False False
1469.163 2.0184619426727295 -1.8945666752257289 -1.443019986152649 -1.3407084953835984 1.6295955181121826 0.456012487411499 False False
1469.183 2.0184338092803955 -1.8944727383055628 -1.4429917335510254 -1.340797023182251 1.6295677423477173 0.4560410678386688 False False
1469.203 2.0184338092803955 -1.8944894276061 -1.4430285692214966 -1.340764732365944 1.629523515701294 0.45600804686546326 False False
1469.223 2.0184531211853027 -1.8944937191405238 -1.4429501295089722 -1.340785102253296 1.6295759677886963 0.4560244381427765 False False
1469.243 2.0184168815612793 -1.894440313378805 -1.4429799318313599 -1.3407647025636216 1.6295838356018066 0.4560411274433136 False False
1469.263 2.018409490585327 -1.894451757470602 -1.4429993629455566 -1.3407647025636216 1.6296038627624512 0.45600953698158264 False False
1469.283 2.0183887481689453 -1.8944727383055628 -1.4430240392684937 -1.3407729429057618 1.6295596361160278 0.45600801706314087 False False
1469.3029999999999 2.0184338092803955 -1.894440313378805 -1.4429799318313599 -1.3407610219768067 1.6295679807662964 0.45600953698158264 False False
1469.3229999999999 2.0184295177459717 -1.8944694004454554 -1.442978858947754 -1.3408252757838746 1.6296043395996094 0.4560500383377075 False False
1469.3429999999998 2.0184383392333984 -1.8944899044432582 -1.4430241584777832 -1.340789259677269 1.6295759677886963 0.45598262548446655 False False
1469.3629999999998 2.0184168815612793 -1.8945051632323207 -1.4430241584777832 -1.3407409501126786 1.629591941833496 0.4560079872608185 False False
1469.383 2.0184006690979004 -1.8945137463011683 -1.4429831504821777 -1.340776951318123 1.629624605178833 0.45598265528678894 False False
1469.403 2.0183680057525635 -1.8944727383055628 -1.4429339170455933 -1.340785102253296 1.6295678615570068 0.4560125172138214 False False
1469.423 2.0183961391448975 -1.8944431744017542 -1.4429712295532227 -1.3407688301852723 1.6295961141586304 0.456041157245636 False False
1469.443 2.018409490585327 -1.8945137463011683 -1.4429799318313599 -1.3408093315413971 1.6295838356018066 0.4559870958328247 False False
1469.463 2.0184006690979004 -1.8944651089110316 -1.4429874420166016 -1.3407892447761078 1.6295759677886963 0.45600348711013794 False False
1469.483 2.018409490585327 -1.8944937191405238 -1.443016529083252 -1.3407564771226426 1.629563570022583 0.45602887868881226 False False
1469.503 2.018409490585327 -1.8945094547667445 -1.4429627656936646 -1.340776951318123 1.629600167274475 0.4560244083404541 False False
1469.523 2.018491506576538 -1.8945137463011683 -1.4429627656936646 -1.3408129823258896 1.6295678615570068 0.4559662640094757 False False
1469.543 2.018425703048706 -1.8944980106749476 -1.4429755210876465 -1.340789334183075 1.6295677423477173 0.45601987838745117 False False
1469.5629999999999 2.0184338092803955 -1.8945094547667445 -1.4430283308029175 -1.3407527816346665 1.629616379737854 0.4560244083404541 False False
1469.5829999999999 2.0184051990509033 -1.8945394955077113 -1.4429512023925781 -1.3407892745784302 1.629616379737854 0.45602139830589294 False False
1469.6029999999998 2.018409490585327 -1.8944899044432582 -1.4429712295532227 -1.3407647025636216 1.629591941833496 0.45600804686546326 False False
1469.6229999999998 2.0184125900268555 -1.8944813213744105 -1.443000316619873 -1.340748743419983 1.6296162605285645 0.4559451639652252 False False
1469.643 2.018458843231201 -1.8944574795165003 -1.4429221153259277 -1.3407892298749466 1.629543662071228 0.45596620440483093 False False
1469.663 2.018397569656372 -1.8944937191405238 -1.4429951906204224 -1.3408011061004181 1.6295759677886963 0.4560423195362091 False False
1469.683 2.0184006690979004 -1.894517560998434 -1.4429631233215332 -1.3408253353885193 1.6295961141586304 0.4560619592666626 False False
1469.703 2.0184214115142822 -1.894529481927389 -1.4429748058319092 -1.3408134144595643 1.6295678615570068 0.4559961259365082 False False
1469.723 2.0184125900268555 -1.8944369755186976 -1.4429545402526855 -1.3407610219768067 1.629543662071228 0.45603328943252563 False False
1469.743 2.0184006690979004 -1.8945094547667445 -1.4430078268051147 -1.3408011061004181 1.629580020904541 0.4560619592666626 False False
1469.763 2.018425703048706 -1.8944694004454554 -1.4429713487625122 -1.3407729429057618 1.6295801401138306 0.4560423195362091 False False
1469.783 2.018425703048706 -1.89442839244985 -1.4429916143417358 -1.3407810044339676 1.629616141319275 0.45600348711013794 False False
1469.8029999999999 2.0184707641601562 -1.8945423565306605 -1.4429960250854492 -1.340764657860138 1.629591941833496 0.4560619592666626 False False
1469.8229999999999 2.018425226211548 -1.8945094547667445 -1.4430078268051147 -1.340785102253296 1.6295801401138306 0.45602765679359436 False False
1469.8429999999998 2.018416404724121 -1.8945261440672816 -1.4429755210876465 -1.3407810491374512 1.629580020904541 0.45602887868881226 False False
1469.8629999999998 2.0184006690979004 -1.8945251903929652 -1.4429713487625122 -1.3408130270293732 1.6295961141586304 0.45600056648254395 False False
1469.883 2.018418073654175 -1.8944980106749476 -1.4430078268051147 -1.3407486987164994 1.6296038627624512 0.45600801706314087 False False
1469.903 2.0184214115142822 -1.894517560998434 -1.4429755210876465 -1.3407770258239289 1.6295719146728516 0.4560411274433136 False False
1469.923 2.0184500217437744 -1.8945051632323207 -1.4429799318313599 -1.3407368224910279 1.6295838356018066 0.45604556798934937 False False
1469.943 2.018458843231201 -1.8945218525328578 -1.4429799318313599 -1.3407367777875443 1.6295472383499146 0.4560035169124603 False False
1469.963 2.0184383392333984 -1.8944641552367152 -1.4429755210876465 -1.3407970380834122 1.6296120882034302 0.456066370010376 False False
1469.983 2.0184428691864014 -1.8945337734618128 -1.4429670572280884 -1.3407769960216065 1.6296329498291016 0.4559825658798218 False False
1470.003 2.018446922302246 -1.8944593868651332 -1.4429670572280884 -1.340760977273323 1.6295998096466064 0.45600348711013794 False False
1470.023 2.018486976623535 -1.8945137463011683 -1.4430078268051147 -1.340785102253296 1.6295759677886963 0.45594218373298645 False False
1470.043 2.0183565616607666 -1.8944808445372523 -1.4430164098739624 -1.3407892298749466 1.6296122074127197 0.4560619592666626 False False
1470.0629999999999 2.0184383392333984 -1.8945094547667445 -1.4429672956466675 -1.3407892149737854 1.6295878887176514 0.4559870660305023 False False
1470.0829999999999 2.0183639526367188 -1.8945008716978968 -1.4430122375488281 -1.34078103423629 1.629624605178833 0.45601987838745117 False False
1470.1029999999998 2.0183932781219482 -1.8945380649962367 -1.4429874420166016 -1.34080924213443 1.629591941833496 0.45604556798934937 False False
1470.1229999999998 2.0184545516967773 -1.8945023022093714 -1.4429832696914673 -1.3407610219768067 1.629563570022583 0.4560169577598572 False False
1470.143 2.0183963775634766 -1.894529481927389 -1.4430078268051147 -1.3407771003297348 1.6295838356018066 0.4560304284095764 False False
1470.163 2.0184383392333984 -1.8944980106749476 -1.4429755210876465 -1.3408129525235672 1.6295719146728516 0.4559960961341858 False False
1470.183 2.018458843231201 -1.894435545007223 -1.4430121183395386 -1.340797172193863 1.629591941833496 0.4560544490814209 False False
1470.203 2.0184295177459717 -1.8944770298399867 -1.443015456199646 -1.3407971572927018 1.6295838356018066 0.4560827314853668 False False
1470.223 2.0184383392333984 -1.8945304356017054 -1.4429460763931274 -1.3408250522664567 1.6295961141586304 0.4560377597808838 False False
1470.243 2.018418073654175 -1.8945380649962367 -1.4429222345352173 -1.3407330077937623 1.629591941833496 0.45606639981269836 False False
1470.263 2.0184214115142822 -1.8945094547667445 -1.4429755210876465 -1.340781108742096 1.629563570022583 0.45598864555358887 False False
1470.283 2.0184214115142822 -1.8945094547667445 -1.4429672956466675 -1.3407451224378129 1.6295719146728516 0.4560244083404541 False False
1470.3029999999999 2.018413782119751 -1.8945094547667445 -1.4429179430007935 -1.3407891702703019 1.6296162605285645 0.45605000853538513 False False
1470.3229999999999 2.0184338092803955 -1.894541402856344 -1.4429713487625122 -1.3407769364169617 1.6295878887176514 0.4560169279575348 False False
1470.3429999999998 2.0184545516967773 -1.894496580163473 -1.4429832696914673 -1.3407610219768067 1.629591941833496 0.4559916853904724 False False
1470.3629999999998 2.0184168815612793 -1.8945542774596156 -1.4429713487625122 -1.3407970380834122 1.6295796632766724 0.456012487411499 False False
1470.383 2.0184168815612793 -1.8945380649962367 -1.4430036544799805 -1.3408449751189728 1.629563808441162 0.456045538187027 False False
1470.403 2.0184338092803955 -1.8944369755186976 -1.4429874420166016 -1.3407689195922394 1.6295719146728516 0.45602884888648987 False False
1470.423 2.018413782119751 -1.8944922886290492 -1.4429502487182617 -1.3407851320556183 1.6295878887176514 0.4560035467147827 False False
1470.443 2.0184383392333984 -1.8944312534727992 -1.4429670572280884 -1.340760977273323 1.6296039819717407 0.4560543894767761 False False
1470.463 2.018409490585327 -1.8944727383055628 -1.4429746866226196 -1.3407570731690903 1.6295719146728516 0.4560244083404541 False False
1470.483 2.018425226211548 -1.894517560998434 -1.443000316619873 -1.340789095764496 1.6295595169067383 0.4560410976409912 False False
1470.503 2.018409490585327 -1.894517560998434 -1.4429874420166016 -1.3407689344934006 1.6295596361160278 0.4560663104057312 False False
1470.523 2.018425703048706 -1.894517560998434 -1.4429832696914673 -1.3408049804023285 1.6295719146728516 0.45600804686546326 False False
1470.543 2.01842999458313 -1.8945676289000453 -1.4429545402526855 -1.3407451820424576 1.6295795440673828 0.4560410976409912 False False
1470.5629999999999 2.0184128284454346 -1.8945261440672816 -1.4429713487625122 -1.3408009570888062 1.6295759677886963 0.45599615573883057 False False
1470.5829999999999 2.0183932781219482 -1.8944808445372523 -1.4429799318313599 -1.3407412332347413 1.6295677423477173 0.45599469542503357 False False
1470.6029999999998 2.0184168815612793 -1.8944727383055628 -1.4429460763931274 -1.3407569390586396 1.6296038627624512 0.45597538352012634 False False
1470.6229999999998 2.0184168815612793 -1.8944937191405238 -1.4429426193237305 -1.3408170950463791 1.629591941833496 0.45599615573883057 False False
1470.643 2.0183932781219482 -1.8944727383055628 -1.4429755210876465 -1.3407851171544571 1.6296122074127197 0.45606184005737305 False False
1470.663 2.0184383392333984 -1.8944641552367152 -1.4429882764816284 -1.3407729429057618 1.629543662071228 0.45600801706314087 False False
1470.683 2.018376111984253 -1.8944727383055628 -1.443031668663025 -1.3407810193351288 1.6296080350875854 0.4560168981552124 False False
1470.703 2.0184500217437744 -1.8945304356017054 -1.4429960250854492 -1.3407326203635712 1.6296122074127197 0.4560781419277191 False False
1470.723 2.0184051990509033 -1.8945628605284632 -1.4429384469985962 -1.340797023182251 1.6295719146728516 0.4560168981552124 False False
1470.743 2.0184168815612793 -1.8945499859251917 -1.4429874420166016 -1.340785176759102 1.629563570022583 0.4560604393482208 False False
1470.763 2.0183846950531006 -1.8945423565306605 -1.4429799318313599 -1.3407810193351288 1.629600167274475 0.45600807666778564 False False
1470.783 2.0184338092803955 -1.8945051632323207 -1.442967176437378 -1.3408371073058625 1.6295678615570068 0.4560036063194275 False False
1470.8029999999999 2.018409490585327 -1.8945585689940394 -1.442918062210083 -1.340752751832344 1.6295759677886963 0.4560036063194275 False False
1470.8229999999999 2.0184338092803955 -1.8944980106749476 -1.4430121183395386 -1.3407892745784302 1.6295759677886963 0.4560244083404541 False False
1470.8429999999998 2.0184545516967773 -1.8944641552367152 -1.4429960250854492 -1.3408130270293732 1.6295961141586304 0.4560288190841675 False False
1470.8629999999998 2.0184500217437744 -1.8945218525328578 -1.4429951906204224 -1.340785176759102 1.6295759677886963 0.45601245760917664 False False
1470.883 2.0183932781219482 -1.89445223430776 -1.4430315494537354 -1.3407810193351288 1.6296080350875854 0.45600810647010803 False False
1470.903 2.0184006690979004 -1.8945065937437953 -1.4430071115493774 -1.3407367777875443 1.6296205520629883 0.45603659749031067 True False
1470.923 2.0184500217437744 -1.8944808445372523 -1.4429950714111328 -1.3407851171544571 1.6296080350875854 0.4560244083404541 True False
1470.943 2.0184457302093506 -1.8944813213744105 -1.4429908990859985 -1.3407687705806275 1.6295719146728516 0.45599618554115295 True False
1470.963 2.0184338092803955 -1.894522329370016 -1.443006157875061 -1.3406372678330918 1.6296038627624512 0.45601555705070496 True False
1470.983 2.0184500217437744 -1.8945309124388636 -1.4432199001312256 -1.3404136461070557 1.6295838356018066 0.45604845881462097 True False
1471.003 2.0184414386749268 -1.894463678399557 -1.443394660949707 -1.340090276007988 1.629555583000183 0.45610371232032776 True False
1471.023 2.0184900760650635 -1.8945561848082484 -1.4436990022659302 -1.3398105663112183 1.6295514106750488 0.45621171593666077 True False
1471.043 2.018526554107666 -1.8944980106749476 -1.444045901298523 -1.339523346429207 1.629543662071228 0.45643290877342224 True False
1471.0629999999999 2.0186190605163574 -1.8944937191405238 -1.4445545673370361 -1.3390484613231202 1.6295559406280518 0.4565678536891937 True False
1471.0829999999999 2.018719434738159 -1.8944531879820765 -1.4451733827590942 -1.338401885037758 1.6294678449630737 0.4567517340183258 True False
1471.1029999999998 2.0188069343566895 -1.8944722614684046 -1.4460372924804688 -1.3374908727458497 1.6293714046478271 0.4570092558860779 True False
1471.1229999999998 2.0189151763916016 -1.8944231472411097 -1.4471327066421509 -1.3363409501365204 1.629323959350586 0.45721912384033203 True False
1471.143 2.0190541744232178 -1.8944617710509242 -1.4485259056091309 -1.3349718016437073 1.6291955709457397 0.4576142728328705 True False
1471.163 2.0191810131073 -1.8943540058531703 -1.450101613998413 -1.3334989261678238 1.629144310951233 0.4580206274986267 True False
1471.183 2.0193979740142822 -1.8943869076170863 -1.4519567489624023 -1.3316513460925599 1.6289756298065186 0.4585684835910797 True False
1471.203 2.0196263790130615 -1.8943702183165492 -1.4541667699813843 -1.329303265815117 1.6288760900497437 0.45922523736953735 True False
1471.223 2.0198376178741455 -1.8943497143187464 -1.4567170143127441 -1.326656923895218 1.6286479234695435 0.4598858952522278 True False
1471.243 2.0201103687286377 -1.8943120441832484 -1.4595915079116821 -1.3237701666406174 1.6284756660461426 0.4607628583908081 True False
1471.263 2.0204226970672607 -1.8942276440062464 -1.462687611579895 -1.3204251390746613 1.6282517910003662 0.4615629315376282 True False
1471.283 2.020775556564331 -1.894233842889303 -1.466035008430481 -1.3170281213572999 1.6280592679977417 0.46261051297187805 True False
1471.3029999999999 2.0210816860198975 -1.8941785297789515 -1.4697266817092896 -1.313221589928009 1.627799391746521 0.4636154770851135 True False
1471.3229999999999 2.021538496017456 -1.8941260776915492 -1.4737370014190674 -1.3092441719821473 1.62760329246521 0.4647919833660126 True False
1471.3429999999998 2.0219385623931885 -1.8939858875670375 -1.4780794382095337 -1.3048197788051148 1.6272870302200317 0.46594083309173584 True False
1471.3629999999998 2.022366762161255 -1.8940011463561 -1.482619047164917 -1.3001319927028199 1.6270232200622559 0.4672161042690277 True False
1471.383 2.022840976715088 -1.8939501247801722 -1.487254023551941 -1.2953134340098877 1.6266343593597412 0.46860116720199585 True False
1471.403 2.0233542919158936 -1.8938237629332484 -1.492209792137146 -1.2901438635638733 1.6263421773910522 0.47000250220298767 True False
1471.423 2.02388334274292 -1.8937488994994105 -1.4973925352096558 -1.2845829290202637 1.625982403755188 0.4714869558811188 True False
1471.443 2.0244386196136475 -1.8936230144896449 -1.5029898881912231 -1.2789227229407807 1.6256190538406372 0.47313734889030457 True False
1471.463 2.0250391960144043 -1.8935686550536097 -1.5090135335922241 -1.272927926187851 1.6251734495162964 0.47472789883613586 True False
1471.483 2.025721788406372 -1.8934985599913539 -1.5151944160461426 -1.266738550072052 1.6247936487197876 0.4765004515647888 True False
1471.503 2.0263288021087646 -1.8934327564635218 -1.521533489227295 -1.2600530248931427 1.6244375705718994 0.47827860713005066 True False
1471.523 2.026956081390381 -1.8933993778624476 -1.5280178785324097 -1.2531493169120331 1.623989462852478 0.4802272915840149 True False
1471.543 2.0276806354522705 -1.8932134113707484 -1.5349544286727905 -1.2461329859546204 1.623557209968567 0.4821978211402893 True False
1471.5629999999999 2.0284175872802734 -1.8931409321227015 -1.5422413349151611 -1.2386641961387177 1.6230779886245728 0.4842284917831421 True False
1471.5829999999999 2.0291450023651123 -1.893052717248434 -1.5499483346939087 -1.231019989853241 1.6226104497909546 0.4863350987434387 True False
1471.6029999999998 2.029900550842285 -1.8930016956725062 -1.5575146675109863 -1.2229924660972138 1.622025966644287 0.4884764850139618 True False
1471.6229999999998 2.030728340148926 -1.8928095302977503 -1.56538987159729 -1.2146566373160859 1.621489405632019 0.4907563030719757 True False
1471.643 2.031548261642456 -1.892644544641012 -1.573742389678955 -1.2061302226832886 1.62096107006073 0.4931427836418152 True False
1471.663 2.0324058532714844 -1.8925868473448695 -1.58258855342865 -1.1974921089461823 1.6204054355621338 0.49562883377075195 True False
1471.683 2.033285140991211 -1.892569204370016 -1.5910766124725342 -1.188314364557602 1.6197800636291504 0.49808210134506226 True False
1471.703 2.0342330932617188 -1.8923212490477503 -1.60005784034729 -1.1788156193545838 1.6192526817321777 0.5006355047225952 True False
1471.723 2.035144805908203 -1.89215149501943 -1.6097612380981445 -1.1693113905242463 1.6185760498046875 0.5033214688301086 True False
1471.743 2.0360991954803467 -1.8922010860838832 -1.6195809841156006 -1.1594125491431733 1.6178927421569824 0.5060808658599854 True False
1471.763 2.0371267795562744 -1.89198698619985 -1.6291193962097168 -1.1491289299777527 1.6174046993255615 0.5088332295417786 True False
1471.783 2.0381486415863037 -1.891686578790182 -1.6393052339553833 -1.1386446219733735 1.6167163848876953 0.5117586851119995 True False
1471.8029999999999 2.0390608310699463 -1.8917657337584437 -1.6496062278747559 -1.1285197895816346 1.6159402132034302 0.5146806240081787 True False
1471.8229999999999 2.0400943756103516 -1.8915564022459925 -1.6592214107513428 -1.1182760757258912 1.6153721809387207 0.5174136757850647 True False
1471.8429999999998 2.0411369800567627 -1.8913399181761683 -1.6685534715652466 -1.1082199078849335 1.6147639751434326 0.5200983881950378 True False
1471.8629999999998 2.0419862270355225 -1.8912769756712855 -1.678131341934204 -1.0990432363799592 1.6140793561935425 0.5227231979370117 True False
1471.883 2.0427958965301514 -1.8912750683226527 -1.6870774030685425 -1.0898409348777314 1.6134628057479858 0.5253010392189026 True False
1471.903 2.0438671112060547 -1.8909665546812953 -1.6954114437103271 -1.0806067448905488 1.6129714250564575 0.5277256965637207 True False
1471.923 2.0446627140045166 -1.8908020458617152 -1.7040854692459106 -1.0721238416484375 1.6124553680419922 0.5301210880279541 True False
1471.943 2.0454154014587402 -1.8908754787840785 -1.7124929428100586 -1.0638019007495423 1.611806869506836 0.5324949026107788 True False
1471.963 2.046283483505249 -1.8907104931273402 -1.71999990940094 -1.055459515457489 1.6113070249557495 0.534749448299408 True False
1471.983 2.047050714492798 -1.8904696903624476 -1.7274869680404663 -1.0475915235332032 1.6108589172363281 0.5369156002998352 True False
1472.003 2.047672748565674 -1.890486856500143 -1.7353301048278809 -1.0402770799449463 1.610347032546997 0.5389479994773865 True False
1472.023 2.0483975410461426 -1.8905111751952113 -1.742394208908081 -1.0329437416842957 1.6099185943603516 0.5409705638885498 True False
1472.043 2.0491957664489746 -1.8902741871275843 -1.7488601207733154 -1.0256858629039307 1.6094987392425537 0.5429138541221619 True False
1472.0629999999999 2.0498058795928955 -1.8901392422118128 -1.7553998231887817 -1.0190583628467103 1.6089779138565063 0.5447654128074646 True False
1472.0829999999999 2.050410747528076 -1.890130182305807 -1.762008786201477 -1.0127583903125306 1.6085264682769775 0.5465927720069885 True False
1472.1029999999998 2.051013469696045 -1.8901025257506312 -1.7680538892745972 -1.0064321917346497 1.6081942319869995 0.5482465028762817 True False
1472.1229999999998 2.0515613555908203 -1.8899666271605433 -1.7734804153442383 -1.0004715484431763 1.607802152633667 0.549869954586029 True False
1472.143 2.0521507263183594 -1.8898378811278285 -1.7788255214691162 -0.9949824971011658 1.6074700355529785 0.5514047145843506 True False
1472.163 2.0526576042175293 -1.8898011646666468 -1.784119725227356 -0.9896474641612549 1.6070979833602905 0.552915096282959 True False
1472.183 2.053105115890503 -1.8897048435606898 -1.7890331745147705 -0.9845851820758362 1.6067657470703125 0.5543017983436584 True False
1472.203 2.0535802841186523 -1.8896876774229945 -1.7938450574874878 -0.9798299235156556 1.6064579486846924 0.5556153059005737 True False
1472.223 2.0540378093719482 -1.8896752796568812 -1.7982735633850098 -0.9753823441318055 1.606197714805603 0.5568751692771912 True False
1472.243 2.0544793605804443 -1.8895393810667933 -1.8023273944854736 -0.9710782927325745 1.6059054136276245 0.5580479502677917 True False
1472.263 2.054845094680786 -1.8894607029356898 -1.8060578107833862 -0.9670666617206116 1.6056897640228271 0.5591447353363037 True False
1472.283 2.0552473068237305 -1.8894301853575648 -1.8095563650131226 -0.963544563656189 1.6054375171661377 0.5600813627243042 True False
1472.3029999999999 2.0555338859558105 -1.889425893823141 -1.8127795457839966 -0.9600547713092347 1.6051772832870483 0.5609865188598633 True False
1472.3229999999999 2.0558173656463623 -1.8893658123412074 -1.8158421516418457 -0.9570507568171998 1.6050491333007812 0.5619045495986938 True False
1472.3429999999998 2.0560855865478516 -1.889318128625387 -1.8185914754867554 -0.9541482490352173 1.604857325553894 0.5626369714736938 True False
1472.3629999999998 2.056391477584839 -1.88926424602651 -1.821126103401184 -0.951722578411438 1.604701280593872 0.5633931159973145 True False
1472.383 2.056577682495117 -1.8892742596068324 -1.8234055042266846 -0.949420766239502 1.6045773029327393 0.5640358328819275 True False
1472.403 2.056783437728882 -1.8892952404417933 -1.825373649597168 -0.9473577302745362 1.6044291257858276 0.5645408630371094 True False
1472.423 2.0568928718566895 -1.889139791528219 -1.8269414901733398 -0.945704535847046 1.6043533086776733 0.5650359392166138 True False
1472.443 2.056993246078491 -1.8892232380309046 -1.8284051418304443 -0.9443673652461548 1.6042370796203613 0.5654014945030212 True False
1472.463 2.0571188926696777 -1.8892432651915492 -1.8294963836669922 -0.9431584638408204 1.6041570901870728 0.5657168626785278 True False
1472.483 2.057119131088257 -1.8891993961729945 -1.8302581310272217 -0.9422289294055481 1.6040891408920288 0.5659898519515991 True False
1472.503 2.057168960571289 -1.8891455135741175 -1.8308024406433105 -0.9416195315173645 1.6040529012680054 0.5660673379898071 True False
1472.523 2.057208299636841 -1.8891574345030726 -1.8310747146606445 -0.941348211174347 1.6040529012680054 0.5660629868507385 True False
1472.543 2.0572335720062256 -1.8891250095763148 -1.8311209678649902 -0.9413156670382996 1.6040652990341187 0.5661203861236572 True False
1472.5629999999999 2.057276725769043 -1.8890963993468226 -1.831137776374817 -0.9413636487773438 1.6040611267089844 0.5660958886146545 True False
1472.5829999999999 2.057255744934082 -1.8891202412047328 -1.831186294555664 -0.9412719172290345 1.6040209531784058 0.5661401748657227 True False
1472.6029999999998 2.0573501586914062 -1.8890930614867152 -1.8311448097229004 -0.9412918251803895 1.6040372848510742 0.5661272406578064 True False
1472.6229999999998 2.0573620796203613 -1.8891006908812464 -1.8311694860458374 -0.9413077396205445 1.6040213108062744 0.5661726593971252 True False
1472.643 2.0573487281799316 -1.8891211948790492 -1.8311424255371094 -0.9413314622691651 1.6040172576904297 0.5662316679954529 True False
1472.663 2.0573441982269287 -1.8891574345030726 -1.831186294555664 -0.9413036865046998 1.6040170192718506 0.5662641525268555 True False
1472.683 2.0573697090148926 -1.8891822300352992 -1.831140398979187 -0.9413920205882569 1.6040010452270508 0.5662717819213867 True False
1472.703 2.0573785305023193 -1.8891378841795863 -1.8311642408370972 -0.9413235944560547 1.6040171384811401 0.5662879943847656 True False
1472.723 2.0573205947875977 -1.8891674480833949 -1.8311774730682373 -0.941267268066742 1.6039845943450928 0.566284716129303 True False
1472.743 2.0573458671569824 -1.8891660175719203 -1.8311598300933838 -0.9413399261287232 1.6040575504302979 0.5662632584571838 True False
1472.763 2.057335138320923 -1.889186521569723 -1.8311641216278076 -0.9413275879672547 1.604041576385498 0.5662879943847656 True False
1472.783 2.0573203563690186 -1.8891455135741175 -1.8311810493469238 -0.9412997525981446 1.6040005683898926 0.5662966370582581 True False
1472.8029999999999 2.057330846786499 -1.8891526661314906 -1.8312262296676636 -0.941355900173523 1.6039886474609375 0.5662598609924316 True False
1472.8229999999999 2.057323455810547 -1.8891140423216761 -1.8311859369277954 -0.9413316410830994 1.6040089130401611 0.5662687420845032 True False
1472.8429999999998 2.0573666095733643 -1.8891293011107386 -1.8311859369277954 -0.9413235944560547 1.6040129661560059 0.5662882328033447 True False
1472.8629999999998 2.0573606491088867 -1.889158388177389 -1.8312489986419678 -0.9413595956614991 1.6038967370986938 0.5662687420845032 True False
1472.883 2.0573697090148926 -1.888989587823385 -1.8310112953186035 -0.9413194221309205 1.603804588317871 0.5662850737571716 True False
1472.903 2.0570125579833984 -1.887444635430807 -1.82950758934021 -0.9402809900096436 1.603369116783142 0.566332995891571 True False
1472.923 2.0574281215667725 -1.8877207241454066 -1.8292725086212158 -0.9398592871478577 1.6032522916793823 0.5663675665855408 True False
1472.943 2.0572409629821777 -1.8877774677672328 -1.8293695449829102 -0.9398112458041687 1.6036096811294556 0.5663524866104126 True False
1472.963 2.057438850402832 -1.888043066064352 -1.8293169736862183 -0.9399269980243226 1.603629469871521 0.5662702322006226 True False
1472.983 2.057284116744995 -1.888139387170309 -1.8293910026550293 -0.9399428528598328 1.6038134098052979 0.5662673115730286 True False
1473.003 2.0574581623077393 -1.8882490597166957 -1.829451084136963 -0.9400952619365235 1.603769063949585 0.5662732720375061 True False
1473.023 2.0573487281799316 -1.8883453808226527 -1.8295341730117798 -0.9400501412204285 1.6039453744888306 0.5661702156066895 True False
1473.043 2.0574536323547363 -1.8884250126280726 -1.8296278715133667 -0.9401461046985169 1.603912591934204 0.5661866068840027 True False
1473.0629999999999 2.0573880672454834 -1.8885342083373011 -1.8297921419143677 -0.9402104181102295 1.604013204574585 0.5661880970001221 True False
1473.0829999999999 2.0574400424957275 -1.8886753521361292 -1.8298726081848145 -0.9403543633273621 1.6039924621582031 0.566168487071991 True False
1473.1029999999998 2.0575034618377686 -1.8886977634825648 -1.8299918174743652 -0.9403617543033143 1.6040369272232056 0.5661520957946777 True True
1473.1229999999998 2.057480812072754 -1.8887607059874476 -1.8301163911819458 -0.9404736322215577 1.6040570735931396 0.5661729574203491 True True
1473.143 2.05749773979187 -1.8885885677733363 -1.8301877975463867 -0.9408449691585083 1.6040451526641846 0.5661312937736511 True True
1473.163 2.0574729442596436 -1.8885613880553187 -1.8301331996917725 -0.9415194553187867 1.6041008234024048 0.5660368800163269 True True
1473.183 2.057372570037842 -1.8885933361449183 -1.8301289081573486 -0.9418108028224488 1.6041167974472046 0.5658648014068604 True True
1473.203 2.0572409629821777 -1.888613840142721 -1.8297920227050781 -0.9421579998782654 1.6042574644088745 0.5656405091285706 True True
1473.223 2.0571417808532715 -1.8887297115721644 -1.8288848400115967 -0.9437189859202881 1.6042767763137817 0.5653890371322632 True True
1473.243 2.0569756031036377 -1.8889724216856898 -1.8276170492172241 -0.9459624451449891 1.6043810844421387 0.5649703741073608 True True
1473.263 2.056748151779175 -1.8893491230406703 -1.826035737991333 -0.9481543463519593 1.6045172214508057 0.5644093155860901 True True
1473.283 2.056565761566162 -1.8897563419737757 -1.8242803812026978 -0.9504938882640381 1.6046010255813599 0.563920259475708 True True
1473.3029999999999 2.0562970638275146 -1.8901425800719203 -1.822402834892273 -0.9529659313014527 1.6047732830047607 0.5632872581481934 True True
1473.3229999999999 2.05597186088562 -1.8906690082945765 -1.8203355073928833 -0.9556809228709717 1.6049613952636719 0.5625512003898621 True True
1473.3429999999998 2.0557045936584473 -1.8909913502135218 -1.8180869817733765 -0.9587754768184205 1.6051490306854248 0.5617977380752563 True True
1473.3629999999998 2.055349111557007 -1.8911057911314906 -1.8153373003005981 -0.9621138137630005 1.605453610420227 0.5609583854675293 True True
1473.383 2.0549533367156982 -1.891040941277975 -1.8122172355651855 -0.9654627603343506 1.6055175065994263 0.5599863529205322 True True
1473.403 2.0546529293060303 -1.8908668957152308 -1.8077881336212158 -0.9681497377208252 1.6057182550430298 0.5589028000831604 True True
1473.423 2.0544369220733643 -1.8902021847166957 -1.802647590637207 -0.9718120259097596 1.6060736179351807 0.5578407645225525 True True
1473.443 2.0540049076080322 -1.8899065456786097 -1.7979207038879395 -0.9763041299632569 1.6062253713607788 0.5566067099571228 True True
1473.463 2.0535550117492676 -1.889848371545309 -1.7933926582336426 -0.9809708160213013 1.6064698696136475 0.5553305149078369 True True
1473.483 2.053067207336426 -1.8898188076415003 -1.7882037162780762 -0.9855756324580689 1.6068572998046875 0.5539649724960327 True True
1473.503 2.0526010990142822 -1.8896380863585414 -1.7829467058181763 -0.9903538388064881 1.6071780920028687 0.5526754856109619 True True
1473.523 2.052001953125 -1.889750143090719 -1.7780588865280151 -0.99620075643573 1.6074943542480469 0.5511003136634827 True True
1473.543 2.0513904094696045 -1.8899227581419886 -1.772845983505249 -1.0017779630473633 1.6079025268554688 0.5495667457580566 True True
1473.5629999999999 2.050881862640381 -1.8898703060545863 -1.7667356729507446 -1.0076787036708375 1.6083030700683594 0.5479350090026855 True True
1473.5829999999999 2.050293445587158 -1.8899642429747523 -1.76046621799469 -1.0138759177974244 1.608718991279602 0.5462235808372498 True True
1473.6029999999998 2.0495779514312744 -1.8900829754271449 -1.754317045211792 -1.0204921525767823 1.6090701818466187 0.5444117784500122 True True
1473.6229999999998 2.048982620239258 -1.8902021847166957 -1.7476811408996582 -1.0271801513484498 1.609502911567688 0.542515218257904 True True
1473.643 2.0483176708221436 -1.8903237781920375 -1.7408967018127441 -1.0340992373279114 1.6099746227264404 0.5406108498573303 True True
1473.663 2.0475411415100098 -1.8904200992979945 -1.733769416809082 -1.0417081278613587 1.6104233264923096 0.5385928153991699 True True
1473.683 2.046889543533325 -1.8905383549132289 -1.7263457775115967 -1.0492099684527894 1.6108753681182861 0.5364638566970825 True True
1473.703 2.0460498332977295 -1.8906551800169886 -1.7185333967208862 -1.057118074303009 1.6113710403442383 0.5343220829963684 True True
1473.723 2.045245409011841 -1.8907753429808558 -1.7107571363449097 -1.0653093618205567 1.6118870973587036 0.5320656299591064 True True
1473.743 2.0444509983062744 -1.8908750019469203 -1.702621579170227 -1.0739001494697114 1.6124918460845947 0.5296598076820374 True True
1473.763 2.043549060821533 -1.8910676441588343 -1.694024682044983 -1.082467721109726 1.6130599975585938 0.5272796154022217 True True
1473.783 2.042714834213257 -1.8911072216429652 -1.6850937604904175 -1.0914269250682374 1.6135761737823486 0.5247700810432434 True True
1473.8029999999999 2.0417776107788086 -1.8912426433958949 -1.6761010885238647 -1.1007882815650483 1.6142122745513916 0.5221951007843018 True True
1473.8229999999999 2.040872573852539 -1.89146151165151 -1.6670001745224 -1.110497162943222 1.6148360967636108 0.5195424556732178 True True
1473.8429999999998 2.039947748184204 -1.8915516338744105 -1.6572701930999756 -1.120234267120697 1.6154727935791016 0.5168730020523071 True True
1473.8629999999998 2.0389604568481445 -1.8916217289366664 -1.647302508354187 -1.1303183299354096 1.6161243915557861 0.5140528678894043 True True
1473.883 2.0379176139831543 -1.8918048344054164 -1.6373556852340698 -1.1409711998752137 1.6167806386947632 0.511225163936615 True True
1473.903 2.03690242767334 -1.8919674358763636 -1.6272399425506592 -1.151222751741745 1.6174534559249878 0.5083231329917908 True True
1473.923 2.0359179973602295 -1.8919669590392054 -1.6172679662704468 -1.161246345644333 1.6180047988891602 0.5054833889007568 True True
1473.943 2.03501033782959 -1.8921357593932093 -1.607749104499817 -1.1713399452022095 1.618721604347229 0.5028319954872131 True True
1473.963 2.0340323448181152 -1.892327447930807 -1.5984317064285278 -1.1808774036220093 1.6193976402282715 0.5001437664031982 True True
1473.983 2.0331053733825684 -1.8924342594542445 -1.5893917083740234 -1.1900555056384583 1.6199333667755127 0.49769121408462524 True True
1474.003 2.032193183898926 -1.8923984966673792 -1.580670952796936 -1.1991710525802155 1.6204856634140015 0.4950755834579468 True True
1474.023 2.031404972076416 -1.8926593265929164 -1.5722746849060059 -1.208064780836441 1.62109375 0.49268051981925964 True True
1474.043 2.030576229095459 -1.892834802667135 -1.5639007091522217 -1.2163988810828705 1.621581792831421 0.4902880787849426 True True
1474.0629999999999 2.0297365188598633 -1.8927961788573207 -1.555917739868164 -1.2244381171515961 1.62211012840271 0.48807960748672485 True True
1474.0829999999999 2.0289852619171143 -1.8929068050780238 -1.5483300685882568 -1.2325767439654847 1.6226178407669067 0.48589807748794556 True True
1474.1029999999998 2.0282766819000244 -1.8931528530516566 -1.5410106182098389 -1.2401649218848725 1.6231341361999512 0.48367491364479065 True True
1474.1229999999998 2.027618646621704 -1.8931261501707972 -1.5336177349090576 -1.2473974984935303 1.6236588954925537 0.48173561692237854 True True
1474.143 2.0268661975860596 -1.8931876621642054 -1.5267187356948853 -1.254447029238083 1.6239701509475708 0.47976377606391907 True True
1474.163 2.0261566638946533 -1.8933483562865199 -1.5203468799591064 -1.2615675789168854 1.6244467496871948 0.47790205478668213 True True
1474.183 2.0255324840545654 -1.893583437005514 -1.514042615890503 -1.2679425340941926 1.624838948249817 0.4760976731777191 True True
1474.203 2.024977207183838 -1.893515249291891 -1.5077706575393677 -1.2739934784225007 1.6252429485321045 0.4743979275226593 True True
1474.223 2.024386167526245 -1.8935853443541468 -1.5018738508224487 -1.2800156635097046 1.625626802444458 0.4727327525615692 True True
1474.243 2.023789405822754 -1.8937341175475062 -1.496448040008545 -1.2858034831336518 1.6260432004928589 0.4711912274360657 True True
1474.263 2.0233023166656494 -1.8937436542906703 -1.4913009405136108 -1.2913757425597687 1.6264392137527466 0.4697308838367462 True True
1474.283 2.02278470993042 -1.8938647709288539 -1.4863754510879517 -1.2963257294944306 1.62675940990448 0.4682844281196594 True True
1474.3029999999999 2.022292375564575 -1.8939210377135218 -1.4816194772720337 -1.3011322778514405 1.627026915550232 0.46691620349884033 True True
1474.3229999999999 2.021873712539673 -1.8939820728697718 -1.476980209350586 -1.3057468098453064 1.6272549629211426 0.46568378806114197 True True
1474.3429999999998 2.021453619003296 -1.894013067285055 -1.472904920578003 -1.3099873822978516 1.6275959014892578 0.4644693434238434 True True
1474.3629999999998 2.0210578441619873 -1.894113679925436 -1.4689937829971313 -1.3139286202243348 1.627875566482544 0.46338531374931335 True True
1474.383 2.0206687450408936 -1.8941389522948207 -1.465364694595337 -1.317770854835846 1.6280755996704102 0.46234312653541565 True True
1474.403 2.020329236984253 -1.8941241703429164 -1.4621492624282837 -1.3211681109717865 1.6283079385757446 0.46142077445983887 True True
1474.423 2.0200541019439697 -1.8941799602904261 -1.4590187072753906 -1.3244572144797822 1.628495693206787 0.4604893922805786 True True
1474.443 2.019768714904785 -1.8942295513548792 -1.45627760887146 -1.3272904020598908 1.6286674737930298 0.45968255400657654 True True
1474.463 2.0194883346557617 -1.8942233524718226 -1.4536945819854736 -1.3298295599273224 1.6288191080093384 0.45898011326789856 True True
1474.483 2.0192935466766357 -1.8943177662291468 -1.451471209526062 -1.3322761070779343 1.6289714574813843 0.45835861563682556 True True
1474.503 2.019061326980591 -1.8943282566466273 -1.4493497610092163 -1.3341945123723526 1.629172444343567 0.4578240215778351 True True
1474.523 2.0189292430877686 -1.8943630657591761 -1.4476686716079712 -1.3359708201936265 1.6291913986206055 0.4572894275188446 True True
1474.543 2.018829584121704 -1.8944016895689906 -1.4461455345153809 -1.337671385412552 1.629315733909607 0.4569648802280426 True True
1474.5629999999999 2.0187175273895264 -1.8943692646422328 -1.4449440240859985 -1.3387330931476136 1.6293755769729614 0.4565666913986206 True True
1474.5829999999999 2.0186498165130615 -1.8943973980345667 -1.4439890384674072 -1.33962336302314 1.6294883489608765 0.4562939703464508 True True
1474.6029999999998 2.018618583679199 -1.8943678341307582 -1.443381905555725 -1.340329961185791 1.6295322179794312 0.45616042613983154 True True
1474.6229999999998 2.0185446739196777 -1.894458910027975 -1.4431190490722656 -1.3407451820424576 1.6294960975646973 0.45618170499801636 True True
1474.643 2.0185210704803467 -1.8943959675230921 -1.4430631399154663 -1.3407051277211686 1.6295158863067627 0.4561065435409546 True True
1474.663 2.0182855129241943 -1.894449850121969 -1.4430713653564453 -1.3406572204879303 1.6295878887176514 0.45609617233276367 True True
1474.683 2.0176172256469727 -1.8944345913329066 -1.4431426525115967 -1.3405614358237763 1.6295559406280518 0.4559314548969269 True True
1474.703 2.0169284343719482 -1.8943959675230921 -1.443326711654663 -1.3402860772660752 1.629563808441162 0.4557430148124695 True True
1474.723 2.0160071849823 -1.894458910027975 -1.4435948133468628 -1.3401065331748505 1.6296120882034302 0.4556468725204468 True True
1474.743 2.01472806930542 -1.894458910027975 -1.4440110921859741 -1.339767114525177 1.629499912261963 0.4555184543132782 True True
1474.763 2.0130820274353027 -1.8944064579405726 -1.4444432258605957 -1.339340166454651 1.6294845342636108 0.4552936553955078 True True
1474.783 2.0112736225128174 -1.8943945370116175 -1.4449394941329956 -1.3387288314155121 1.6294001340866089 0.4550733268260956 True True
1474.8029999999999 2.0091822147369385 -1.894325395623678 -1.4455701112747192 -1.3382104498199006 1.6292757987976074 0.4548805058002472 True True
1474.8229999999999 2.0066728591918945 -1.8942448101439417 -1.4462400674819946 -1.337479443555214 1.629244327545166 0.45455402135849 True True
1474.8429999999998 2.0040197372436523 -1.8942190609373988 -1.4470881223678589 -1.3366208386472245 1.6290959119796753 0.45422765612602234 True True
1474.8629999999998 2.001103162765503 -1.8940688572325648 -1.4480187892913818 -1.3356665533832093 1.6290597915649414 0.4538472294807434 True True
1474.883 1.9978336095809937 -1.8939439258971156 -1.449035406112671 -1.3347608012012024 1.6288715600967407 0.4534803330898285 True True
1474.903 1.9942684173583984 -1.893827577630514 -1.4500926733016968 -1.3338630211404343 1.6287153959274292 0.45299988985061646 True True
1474.923 1.9905662536621094 -1.893672605554098 -1.4511394500732422 -1.332728923564293 1.6286790370941162 0.45254290103912354 True True
1474.943 1.9864604473114014 -1.8935677013792933 -1.452290415763855 -1.3315034073642273 1.628547191619873 0.4520566463470459 True True
1474.963 1.9819709062576294 -1.8934608898558558 -1.453709363937378 -1.3302653592875977 1.6284042596817017 0.451527863740921 True True
1474.983 1.9773029088974 -1.8933874569334925 -1.4550620317459106 -1.3289088022759934 1.628304362297058 0.4509681165218353 True True
1475.003 1.9724197387695312 -1.8932353458800257 -1.456547498703003 -1.327435464864113 1.6281323432922363 0.45035257935523987 True True
1475.023 1.9672764539718628 -1.8930679760374964 -1.457810401916504 -1.3260464382222672 1.6279515027999878 0.4496983289718628 True True
1475.043 1.96177339553833 -1.8929115734496058 -1.4594478607177734 -1.3244501662305375 1.627755045890808 0.4490109980106354 True True
1475.0629999999999 1.9559706449508667 -1.8927017650999964 -1.4612449407577515 -1.3227329862168808 1.6276400089263916 0.44829994440078735 True True
1475.0829999999999 1.9499444961547852 -1.8926650486388148 -1.4629952907562256 -1.3209009033492585 1.6273913383483887 0.4475814700126648 True True
1475.1029999999998 1.9434669017791748 -1.8925377331175746 -1.4648172855377197 -1.3191323441318055 1.6271744966506958 0.44685739278793335 True True
1475.1229999999998 1.936883568763733 -1.8922707043089808 -1.4666945934295654 -1.3172366482070466 1.627010703086853 0.4459969997406006 True True
1475.143 1.9301209449768066 -1.8921276531615199 -1.4686975479125977 -1.3152598899653931 1.6267547607421875 0.4451989531517029 True True
1475.163 1.9229843616485596 -1.8919269047179164 -1.4708492755889893 -1.313107119207718 1.6266316175460815 0.4442708194255829 True True
1475.183 1.9155545234680176 -1.8916737041869105 -1.4729886054992676 -1.3110347253135224 1.6263351440429688 0.4433542788028717 True True
1475.203 1.9077308177947998 -1.8914901218810023 -1.47536039352417 -1.3087623578361054 1.6260429620742798 0.44241389632225037 True True
1475.223 1.899755835533142 -1.8913680515685023 -1.4777389764785767 -1.3064388197711487 1.6258232593536377 0.44145238399505615 True True
1475.243 1.891621708869934 -1.8910824261107386 -1.4802041053771973 -1.3040515345386048 1.6255662441253662 0.44042515754699707 True True
1475.263 1.8829766511917114 -1.8908106289305628 -1.4827032089233398 -1.3015121680549164 1.6252706050872803 0.4394053518772125 True True
1475.283 1.8739814758300781 -1.8906194172301234 -1.4852803945541382 -1.2989412409118195 1.6249585151672363 0.4382859468460083 True True
1475.3029999999999 1.8650295734405518 -1.8903867206969203 -1.4878671169281006 -1.2964101892760773 1.6247180700302124 0.437167227268219 True True
1475.3229999999999 1.8557519912719727 -1.8901626072325648 -1.4905787706375122 -1.2935486000827332 1.6244897842407227 0.43603235483169556 True True
1475.3429999999998 1.8458731174468994 -1.8898703060545863 -1.4933356046676636 -1.2908623081496735 1.6241298913955688 0.4348478615283966 True True
1475.3629999999998 1.8358831405639648 -1.8895908794798792 -1.4961724281311035 -1.2879523497870942 1.6237863302230835 0.433533638715744 True True
1475.383 1.8259100914001465 -1.8893538914122523 -1.4991683959960938 -1.2849192482284089 1.6235817670822144 0.43235307931900024 True True
1475.403 1.8152774572372437 -1.8891102276244105 -1.5022393465042114 -1.281993345623352 1.623181700706482 0.4310503304004669 True True
1475.423 1.8046694993972778 -1.8888350925841273 -1.5055173635482788 -1.2788605850986023 1.6226823329925537 0.4297599196434021 True True
1475.443 1.794506549835205 -1.8885499439635218 -1.5084420442581177 -1.2758914691260834 1.6226061582565308 0.4284421503543854 True True
1475.463 1.783899188041687 -1.8882419071593226 -1.5116596221923828 -1.2726737719825287 1.6222052574157715 0.42721274495124817 True True
1475.483 1.7731568813323975 -1.8879481754698695 -1.5146987438201904 -1.2699363690665741 1.621682047843933 0.4259760081768036 True True
1475.503 1.76304292678833 -1.8876563511290492 -1.5177983045578003 -1.2668315929225464 1.621557354927063 0.42470651865005493 True True
1475.523 1.7526259422302246 -1.8873759708800257 -1.5206526517868042 -1.2636624735644837 1.621301531791687 0.4233616292476654 True True
1475.543 1.7417911291122437 -1.8870097599425257 -1.523772120475769 -1.260829047565796 1.6207091808319092 0.42210403084754944 True True
1475.5629999999999 1.731516718864441 -1.8868500194945277 -1.52675199508667 -1.2575884026340027 1.6205416917800903 0.42078807950019836 True True
1475.5829999999999 1.7212376594543457 -1.8865395985045375 -1.529737114906311 -1.2546334129622956 1.6203652620315552 0.4194524884223938 True True
1475.6029999999998 1.7104696035385132 -1.8862720928587855 -1.5329309701919556 -1.251598135834076 1.6197452545166016 0.4182288646697998 True True
1475.6229999999998 1.7000114917755127 -1.8859755001463832 -1.5360034704208374 -1.2486504179290314 1.6195093393325806 0.4169352650642395 True True
1475.643 1.6897541284561157 -1.8856502972044886 -1.5390775203704834 -1.2454516154578705 1.6193691492080688 0.415617436170578 True True
1475.663 1.6791093349456787 -1.8853818378844203 -1.542160153388977 -1.2425885659507294 1.6187279224395752 0.4143519997596741 True True
1475.683 1.6686713695526123 -1.8851305447020472 -1.5453587770462036 -1.2394844752601166 1.61850905418396 0.41310229897499084 True True
1475.703 1.6582469940185547 -1.8848620853819789 -1.5483378171920776 -1.2362933915904541 1.618292212486267 0.411800742149353 True True
1475.723 1.6476054191589355 -1.8845058880248011 -1.5513765811920166 -1.2334461969188233 1.6177927255630493 0.4105268716812134 True True
1475.743 1.6372370719909668 -1.884287019769186 -1.5544157028198242 -1.2303714019111176 1.6175645589828491 0.4092288017272949 True True
1475.763 1.6268882751464844 -1.884042879144186 -1.557374358177185 -1.2273036998561402 1.6173607110977173 0.40796032547950745 True True
1475.783 1.6162769794464111 -1.883653303185934 -1.560476303100586 -1.224277065401413 1.6168404817581177 0.40667790174484253 True True
1475.8029999999999 1.6058557033538818 -1.8834296665587367 -1.5634512901306152 -1.2212934356978913 1.6165684461593628 0.4053895175457001 True True
1475.8229999999999 1.5954582691192627 -1.8831860027708949 -1.5664929151535034 -1.2182463568500062 1.6163647174835205 0.4041079878807068 True True
1475.8429999999998 1.5847783088684082 -1.8829056225218714 -1.5696313381195068 -1.2151751679233094 1.6158403158187866 0.40283551812171936 True True
1475.8629999999998 1.5744054317474365 -1.8826171360411585 -1.572775959968567 -1.2123004359057923 1.6155760288238525 0.4015336036682129 True True
1475.883 1.5640287399291992 -1.882364889184469 -1.5758440494537354 -1.2090205711177369 1.6153600215911865 0.40025794506073 True True
1475.903 1.5533967018127441 -1.8819877109923304 -1.5789036750793457 -1.2061415773681183 1.614803671836853 0.3989839255809784 True True
1475.923 1.5430270433425903 -1.8817202053465785 -1.581971526145935 -1.2029980582049866 1.6145436763763428 0.3976253271102905 True True
1475.943 1.5325303077697754 -1.8815204105772914 -1.5849498510360718 -1.200022892361023 1.6143438816070557 0.396363765001297 True True
1475.963 1.522035837173462 -1.8811637363829554 -1.5879982709884644 -1.1969760221293946 1.6139436960220337 0.3951195776462555 True True
1475.983 1.511688232421875 -1.8808604679503382 -1.5909247398376465 -1.1939166647246857 1.6135836839675903 0.39385896921157837 True True
1476.003 1.5012199878692627 -1.8806172809996546 -1.5940015316009521 -1.1909036201289673 1.6133917570114136 0.3925774097442627 True True
1476.023 1.4905116558074951 -1.8803216419615687 -1.5970821380615234 -1.1878986817649384 1.6128673553466797 0.3912193179130554 True True
1476.043 1.4802143573760986 -1.8800012073912562 -1.6002575159072876 -1.1848611694625397 1.6126312017440796 0.3899582624435425 True True
1476.0629999999999 1.4698333740234375 -1.8798214397826136 -1.6033847332000732 -1.1817369324019928 1.6123547554016113 0.38866522908210754 True True
1476.0829999999999 1.4591436386108398 -1.8794671497740687 -1.6065378189086914 -1.1787954729846497 1.6118309497833252 0.38740354776382446 True True
1476.1029999999998 1.4487497806549072 -1.8792363605894984 -1.6096785068511963 -1.1756384533694764 1.6115708351135254 0.3861710727214813 True True
1476.1229999999998 1.4384560585021973 -1.8789392910399378 -1.6125503778457642 -1.1726862651160737 1.6113828420639038 0.3848172426223755 True True
1476.143 1.427714467048645 -1.8786851368346156 -1.6156779527664185 -1.1697284144214173 1.6109310388565063 0.38357722759246826 True True
1476.163 1.4173657894134521 -1.878428121606344 -1.618610143661499 -1.1666596990874787 1.610687494277954 0.38227102160453796 True True
1476.183 1.4070078134536743 -1.8781167469420375 -1.62160062789917 -1.163606808786728 1.610446572303772 0.3809942603111267 True True
1476.203 1.3963509798049927 -1.8778377972044886 -1.6246143579483032 -1.1606103640845795 1.609906554222107 0.37973642349243164 True True
1476.223 1.3858840465545654 -1.8775936565794886 -1.6277419328689575 -1.1575887662223359 1.6096506118774414 0.3784506022930145 True True
1476.243 1.3755701780319214 -1.8773256740965785 -1.6309396028518677 -1.1544565719417115 1.6094344854354858 0.37715739011764526 True True
1476.263 1.364926815032959 -1.8770252666869105 -1.6339536905288696 -1.1515231889537354 1.60883367061615 0.3758643865585327 True True
1476.283 1.3544217348098755 -1.8766666851439417 -1.6371575593948364 -1.1484222275069733 1.6086502075195312 0.3745992183685303 True True
1476.3029999999999 1.3440953493118286 -1.8764592609801234 -1.6401108503341675 -1.145375744705536 1.6083616018295288 0.37324050068855286 True True
1476.3229999999999 1.3335434198379517 -1.8761512241759242 -1.6432323455810547 -1.1424420934966584 1.607933759689331 0.3720073699951172 True True
1476.3429999999998 1.323156714439392 -1.8758555851378382 -1.6461480855941772 -1.1394225817969819 1.607625961303711 0.3706910014152527 True True
1476.3629999999998 1.3127340078353882 -1.8756057224669398 -1.6491260528564453 -1.1363330346396943 1.6074419021606445 0.36946746706962585 True True
1476.383 1.302092432975769 -1.875239988366598 -1.652207374572754 -1.1331589680961152 1.6068775653839111 0.36811625957489014 True True
1476.403 1.2917367219924927 -1.8750182590880335 -1.655241847038269 -1.1302620631507416 1.6066696643829346 0.36686331033706665 True True
1476.423 1.2812745571136475 -1.8748012981810511 -1.6583422422409058 -1.1270926159671326 1.60641348361969 0.36557111144065857 True True
1476.443 1.2706646919250488 -1.8744622669615687 -1.6614227294921875 -1.124195860033371 1.6059374809265137 0.3642931282520294 True True
1476.463 1.2602908611297607 -1.874202390710348 -1.664597749710083 -1.121132807140686 1.6057655811309814 0.3629826605319977 True True
1476.483 1.2498220205307007 -1.873974939385885 -1.6676760911941528 -1.1180629295161744 1.6054292917251587 0.3617304563522339 True True
1476.503 1.2392204999923706 -1.8736683330931605 -1.6708548069000244 -1.1150703889182587 1.6049294471740723 0.3604004383087158 True True
1476.523 1.2289087772369385 -1.8733297787108363 -1.6738133430480957 -1.111937240963318 1.6047135591506958 0.35916388034820557 True True
1476.543 1.2184841632843018 -1.8730923138060511 -1.676841378211975 -1.1089789730361481 1.6044607162475586 0.35782909393310547 True True
1476.5629999999999 1.207805871963501 -1.8728043041624964 -1.6799110174179077 -1.105960802440979 1.6039167642593384 0.35655659437179565 True True
1476.5829999999999 1.197460412979126 -1.8724643192686976 -1.6828970909118652 -1.1029388171485444 1.6037613153457642 0.3552873432636261 True True
1476.6029999999998 1.1870596408843994 -1.8722616634764613 -1.685848355293274 -1.0998211067966004 1.6034765243530273 0.353998064994812 True True
1476.6229999999998 1.1763982772827148 -1.8719498119749964 -1.6889312267303467 -1.0968868893435975 1.602948546409607 0.35273319482803345 True True
1476.643 1.166066288948059 -1.8716503582396449 -1.692078709602356 -1.0938567084125062 1.6028006076812744 0.35142257809638977 True True
1476.663 1.1555354595184326 -1.8714305363097132 -1.6951087713241577 -1.0907469254783173 1.602447748184204 0.35017502307891846 True True
1476.683 1.144940972328186 -1.8709975681700648 -1.698298692703247 -1.0877845150283356 1.60196852684021 0.34886085987091064 True True
1476.703 1.1346784830093384 -1.870843072930807 -1.7013428211212158 -1.084640310411789 1.601747989654541 0.34763333201408386 True True
1476.723 1.1241639852523804 -1.8705641231932582 -1.7043957710266113 -1.0816467565349122 1.6014440059661865 0.34628385305404663 True True
1476.743 1.1135601997375488 -1.870284219781393 -1.707496166229248 -1.0786685210517426 1.6009361743927002 0.3449806571006775 True True
1476.763 1.1032397747039795 -1.8699761829771937 -1.7104520797729492 -1.075626329784729 1.6008002758026123 0.3437056243419647 True True
1476.783 1.0927540063858032 -1.8696962795653285 -1.713414192199707 -1.0724808436683197 1.6004436016082764 0.3424544930458069 True True
1476.8029999999999 1.0821149349212646 -1.869458337823385 -1.7164030075073242 -1.0695591133883973 1.5999600887298584 0.3411640226840973 True True
1476.8229999999999 1.0718419551849365 -1.869162221948141 -1.719547986984253 -1.0665755432895203 1.5997997522354126 0.3399130702018738 True True
1476.8429999999998 1.061376690864563 -1.8688560924925746 -1.722535490989685 -1.063413755302765 1.5994791984558105 0.3385695815086365 True True
1476.8629999999998 1.0506926774978638 -1.868526121179098 -1.7257144451141357 -1.0604859751513978 1.5989514589309692 0.33734792470932007 True True
1476.883 1.0404726266860962 -1.8683387241759242 -1.7288681268692017 -1.0573557180217286 1.5988116264343262 0.33604031801223755 True True
1476.903 1.0299798250198364 -1.86810364345693 -1.7319523096084595 -1.0543610614589234 1.598527193069458 0.3346887528896332 True True
1476.923 1.0192575454711914 -1.867796083489889 -1.7350231409072876 -1.0512602490237732 1.59791898727417 0.33340752124786377 True True
1476.943 1.0090105533599854 -1.8674141369261683 -1.7379688024520874 -1.048299328689911 1.5977833271026611 0.3321453332901001 True True
1476.963 0.9986006021499634 -1.8672205410399378 -1.7410448789596558 -1.0452721875957032 1.5975348949432373 0.33085572719573975 True True
1476.983 0.987831175327301 -1.8669692478575648 -1.7440863847732544 -1.042337254886963 1.596955418586731 0.32964563369750977 True True
1477.003 0.9775995016098022 -1.8666206798949183 -1.747154951095581 -1.0392825168422242 1.5968432426452637 0.3283339738845825 True True
1477.023 0.9671872854232788 -1.8663798771300257 -1.7500919103622437 -1.0360800188830872 1.5966229438781738 0.32699012756347656 True True
1477.043 0.9565030932426453 -1.8659616909422816 -1.7532670497894287 -1.0331326884082337 1.5959945917129517 0.3257350027561188 True True
1477.0629999999999 0.9461303353309631 -1.8658029041686 -1.7564764022827148 -1.0300743144801636 1.595834732055664 0.3244597613811493 True True
1477.0829999999999 0.9357669353485107 -1.8655349216856898 -1.759476661682129 -1.0270596903613587 1.5956344604492188 0.3231678009033203 True True
1477.1029999999998 0.9250324368476868 -1.86521639446401 -1.7626574039459229 -1.0240332049182435 1.5949660539627075 0.32189851999282837 True True
1477.1229999999998 0.9146787524223328 -1.8649560413756312 -1.7656563520431519 -1.020993487243988 1.5948104858398438 0.3205585777759552 True True
1477.143 0.9042656421661377 -1.8646842441954554 -1.76865816116333 -1.017983154659607 1.5945583581924438 0.31929492950439453 True True
1477.163 0.8936594128608704 -1.8643847904601039 -1.7716655731201172 -1.0150082868388672 1.5939624309539795 0.3180636763572693 True True
1477.183 0.8833498954772949 -1.8641048870482386 -1.774707317352295 -1.0119168919375916 1.5939066410064697 0.3167445659637451 True True
1477.203 0.8729084134101868 -1.8639093838133753 -1.7776421308517456 -1.0087748926929017 1.5935537815093994 0.3154570758342743 True True
1477.223 0.8622181415557861 -1.8635055027403773 -1.7806851863861084 -1.005773977642395 1.5930426120758057 0.31421029567718506 True True
1477.243 0.8519865274429321 -1.863293787042135 -1.7838972806930542 -1.0027560156634827 1.5928657054901123 0.3129188120365143 True True
1477.263 0.8415337800979614 -1.8630629978575648 -1.786892294883728 -0.9997492593577881 1.592541217803955 0.3116607069969177 True True
1477.283 0.8307372331619263 -1.8626700840392054 -1.7900822162628174 -0.9968594473651429 1.5920019149780273 0.31041407585144043 True True
1477.3029999999999 0.8205097317695618 -1.862443586389059 -1.793221354484558 -0.9936607641032715 1.5918940305709839 0.3091021478176117 True True
1477.3229999999999 0.8100970387458801 -1.8621632061400355 -1.7962583303451538 -0.9906062644771119 1.5916180610656738 0.30770260095596313 True True
1477.3429999999998 0.7992895841598511 -1.861880441705221 -1.7993220090866089 -0.9875316184810181 1.5909663438796997 0.3064923584461212 True True
1477.3629999999998 0.7892186045646667 -1.861601015130514 -1.8023929595947266 -0.9846732777408143 1.5909188985824585 0.3051794767379761 True True
1477.383 0.7791172862052917 -1.8613931141295375 -1.8051953315734863 -0.9815746706775208 1.5905944108963013 0.30402231216430664 True True
1477.403 0.7691143751144409 -1.861025949517721 -1.8079938888549805 -0.9788797062686463 1.5900866985321045 0.3027569651603699 True True
1477.423 0.7597562074661255 -1.8608342609801234 -1.8107985258102417 -0.9761169117740174 1.5899585485458374 0.301601767539978 True True
1477.443 0.750495433807373 -1.8606835804381312 -1.8133678436279297 -0.9734305304339905 1.589746117591858 0.3004662096500397 True True
1477.463 0.7411630749702454 -1.8603269062437953 -1.8160961866378784 -0.9708432120135804 1.5891869068145752 0.2993749678134918 True True
1477.483 0.7328289747238159 -1.8601962528624476 -1.818718671798706 -0.9681915801814576 1.5891066789627075 0.29834094643592834 True True
1477.503 0.7245475053787231 -1.8599282703795375 -1.821131944656372 -0.965823308830597 1.589015007019043 0.297174334526062 True True
1477.523 0.7160714864730835 -1.8596931896605433 -1.8236346244812012 -0.9635279935649415 1.5884029865264893 0.296259343624115 True True
1477.543 0.7083157300949097 -1.8595077000060023 -1.8260339498519897 -0.9611359995654603 1.588295817375183 0.29529401659965515 True True
1477.5629999999999 0.7009920477867126 -1.859255929986471 -1.8281006813049316 -0.9589158457568665 1.5882186889648438 0.29437360167503357 True True
1477.5829999999999 0.6934183239936829 -1.859048982659811 -1.8302305936813354 -0.9569086593440552 1.587751030921936 0.2934846580028534 True True
1477.6029999999998 0.6862958669662476 -1.8589097462096156 -1.8323155641555786 -0.9548440736583252 1.5874909162521362 0.29255661368370056 True True
