Andreas691667/Digital_Twin_UR/src/controller_monitor/test_results/test_motion1.csv
timestamp actual_q_0 actual_q_1 actual_q_2 actual_q_3 actual_q_4 actual_q_5 output_int_register_0
7895.281999999999 -2.254209805304468 -1.4062889828837575 -1.6092257200897366 -1.195985022067246 2.50359847629229 -0.4472405010663607 0
7895.302 -2.254209805304468 -1.4062889828837575 -1.6092257200897366 -1.195985022067246 2.50359847629229 -0.4472405010663607 0
7895.321999999999 -2.254209805304468 -1.4062889828837575 -1.6092257200897366 -1.195985022067246 2.50359847629229 -0.4472405010663607 0
7895.342 -2.254209805304468 -1.4062889828837575 -1.6092257200897366 -1.195985022067246 2.50359847629229 -0.4472405010663607 0
7895.362 -2.254209805304468 -1.4062889828837575 -1.6092257200897366 -1.195985022067246 2.50359847629229 -0.4472405010663607 0
7895.382 -2.254209805304468 -1.4062889828837575 -1.6092257200897366 -1.195985022067246 2.50359847629229 -0.4472405010663607 0
7895.402 -2.254209805304468 -1.4062889828837575 -1.6092257200897366 -1.195985022067246 2.50359847629229 -0.4472405010663607 0
7895.422 -2.254209805304468 -1.4062889828837575 -1.6092257200897366 -1.195985022067246 2.50359847629229 -0.4472405010663607 0
7895.442 -2.254209805304468 -1.4062889828837575 -1.6092257200897366 -1.195985022067246 2.50359847629229 -0.4472405010663607 0
7895.4619999999995 -2.254209805304468 -1.4062889828837575 -1.6092257200897366 -1.195985022067246 2.50359847629229 -0.4472405010663607 0
7895.482 -2.254209805304468 -1.4062889828837575 -1.6092257200897366 -1.195985022067246 2.50359847629229 -0.4472405010663607 0
7895.5019999999995 -2.254209805304468 -1.4062889828837575 -1.6092257200897366 -1.195985022067246 2.50359847629229 -0.4472405010663607 0
7895.522 -2.254209805304468 -1.4062889828837575 -1.6092257200897366 -1.195985022067246 2.50359847629229 -0.4472405010663607 0
7895.5419999999995 -2.254209805304468 -1.4062889828837575 -1.6092257200897366 -1.195985022067246 2.50359847629229 -0.4472405010663607 0
7895.562 -2.254209805304468 -1.4062889828837575 -1.6092257200897366 -1.195985022067246 2.50359847629229 -0.4472405010663607 0
7895.581999999999 -2.254209805304468 -1.4062889828837575 -1.6092257200897366 -1.195985022067246 2.50359847629229 -0.4472405010663607 0
7895.602 -2.254209805304468 -1.4062889828837575 -1.6092257200897366 -1.195985022067246 2.50359847629229 -0.4472405010663607 0
7895.621999999999 -2.254209805304468 -1.4062889828837575 -1.6092257200897366 -1.195985022067246 2.50359847629229 -0.4472405010663607 0
7895.642 -2.254209805304468 -1.4062889828837575 -1.6092257200897366 -1.195985022067246 2.50359847629229 -0.4472405010663607 0
7895.661999999999 -2.254209805304468 -1.4062889828837575 -1.6092257200897366 -1.195985022067246 2.50359847629229 -0.4472405010663607 0
7895.682 -2.254209805304468 -1.4062889828837575 -1.6092257200897366 -1.195985022067246 2.50359847629229 -0.4472405010663607 0
7895.701999999999 -2.254209805304468 -1.4062889828837575 -1.6092257200897366 -1.195985022067246 2.50359847629229 -0.4472405010663607 0
7895.722 -2.254209805304468 -1.4062889828837575 -1.6092257200897366 -1.195985022067246 2.50359847629229 -0.4472405010663607 0
7895.741999999999 -2.254209805304468 -1.4062889828837575 -1.6092257200897366 -1.195985022067246 2.50359847629229 -0.4472405010663607 0
7895.762 -2.254209805304468 -1.4062889828837575 -1.6092257200897366 -1.195985022067246 2.50359847629229 -0.4472405010663607 0
7895.781999999999 -2.254209805304468 -1.4062889828837575 -1.6092257200897366 -1.195985022067246 2.50359847629229 -0.4472405010663607 0
7895.802 -2.254209805304468 -1.4062889828837575 -1.6092257200897366 -1.195985022067246 2.50359847629229 -0.4472405010663607 0
7895.821999999999 -2.254209805304468 -1.4062889828837575 -1.6092257200897366 -1.195985022067246 2.50359847629229 -0.4472405010663607 0
7895.842 -2.254209805304468 -1.4062889828837575 -1.6092257200897366 -1.195985022067246 2.50359847629229 -0.4472405010663607 0
7895.862 -2.254209805304468 -1.4062889828837575 -1.6092257200897366 -1.195985022067246 2.50359847629229 -0.4472405010663607 0
7895.882 -2.254209805304468 -1.4062889828837575 -1.6092257200897366 -1.195985022067246 2.50359847629229 -0.4472405010663607 0
7895.902 -2.254209805304468 -1.4062889828837575 -1.6092257200897366 -1.195985022067246 2.50359847629229 -0.4472405010663607 0
7895.922 -2.254209805304468 -1.4062889828837575 -1.6092257200897366 -1.195985022067246 2.50359847629229 -0.4472405010663607 0
7895.942 -2.254209805304468 -1.4062889828837575 -1.6092257200897366 -1.195985022067246 2.50359847629229 -0.4472405010663607 0
7895.9619999999995 -2.254209805304468 -1.4062889828837575 -1.6092257200897366 -1.195985022067246 2.50359847629229 -0.4472405010663607 0
7895.982 -2.254209805304468 -1.4062889828837575 -1.6092257200897366 -1.195985022067246 2.50359847629229 -0.4472405010663607 0
7896.0019999999995 -2.254209805304468 -1.4062889828837575 -1.6092257200897366 -1.195985022067246 2.50359847629229 -0.4472405010663607 0
7896.022 -2.254209805304468 -1.4062889828837575 -1.6092257200897366 -1.195985022067246 2.50359847629229 -0.4472405010663607 0
7896.0419999999995 -2.254209805304468 -1.4062889828837575 -1.6092257200897366 -1.195985022067246 2.50359847629229 -0.4472405010663607 0
7896.062 -2.254209805304468 -1.4062889828837575 -1.6092257200897366 -1.195985022067246 2.50359847629229 -0.4472405010663607 0
7896.081999999999 -2.254209805304468 -1.4062889828837575 -1.6092257200897366 -1.195985022067246 2.50359847629229 -0.4472405010663607 0
7896.102 -2.254209805304468 -1.4062889828837575 -1.6092257200897366 -1.195985022067246 2.50359847629229 -0.4472405010663607 0
7896.121999999999 -2.254209805304468 -1.4062889828837575 -1.6092257200897366 -1.195985022067246 2.50359847629229 -0.4472405010663607 0
7896.142 -2.254209805304468 -1.4062889828837575 -1.6092257200897366 -1.195985022067246 2.50359847629229 -0.4472405010663607 0
7896.161999999999 -2.254209805304468 -1.4062889828837575 -1.6092257200897366 -1.195985022067246 2.50359847629229 -0.4472405010663607 0
7896.182 -2.254209805304468 -1.4062889828837575 -1.6092257200897366 -1.195985022067246 2.50359847629229 -0.4472405010663607 0
7896.201999999999 -2.254209805304468 -1.4062889828837575 -1.6092257200897366 -1.195985022067246 2.50359847629229 -0.4472405010663607 0
7896.222 -2.254209805304468 -1.4062889828837575 -1.6092257200897366 -1.195985022067246 2.50359847629229 -0.4472405010663607 0
7896.241999999999 -2.254209805304468 -1.4062889828837575 -1.6092257200897366 -1.195985022067246 2.50359847629229 -0.4472405010663607 0
7896.262 -2.254209805304468 -1.4062889828837575 -1.6092257200897366 -1.195985022067246 2.50359847629229 -0.4472405010663607 0
7896.281999999999 -2.254209805304468 -1.4062889828837575 -1.6092257200897366 -1.195985022067246 2.50359847629229 -0.4472405010663607 0
7896.302 -2.254209805304468 -1.4062889828837575 -1.6092257200897366 -1.195985022067246 2.50359847629229 -0.4472405010663607 0
7896.321999999999 -2.254209805304468 -1.4062889828837575 -1.6092257200897366 -1.195985022067246 2.50359847629229 -0.4472405010663607 0
7896.342 -2.254209805304468 -1.4062889828837575 -1.6092257200897366 -1.195985022067246 2.50359847629229 -0.4472405010663607 0
7896.362 -2.254209805304468 -1.4062889828837575 -1.6092257200897366 -1.195985022067246 2.50359847629229 -0.4472405010663607 0
7896.382 -2.254209805304468 -1.4062889828837575 -1.6092257200897366 -1.195985022067246 2.50359847629229 -0.4472405010663607 0
7896.402 -2.254209805304468 -1.4062889828837575 -1.6092257200897366 -1.195985022067246 2.50359847629229 -0.4472405010663607 0
7896.422 -2.254209805304468 -1.4062889828837575 -1.6092257200897366 -1.195985022067246 2.50359847629229 -0.4472405010663607 0
7896.442 -2.254209805304468 -1.4062889828837575 -1.6092257200897366 -1.195985022067246 2.50359847629229 -0.4472405010663607 0
7896.4619999999995 -2.254209805304468 -1.4062889828837575 -1.6092257200897366 -1.195985022067246 2.50359847629229 -0.4472405010663607 0
7896.482 -2.254209805304468 -1.4062889828837575 -1.6092257200897366 -1.195985022067246 2.50359847629229 -0.4472405010663607 0
7896.5019999999995 -2.254209805304468 -1.4062889828837575 -1.6092257200897366 -1.195985022067246 2.50359847629229 -0.4472405010663607 0
7896.522 -2.254209805304468 -1.4062889828837575 -1.6092257200897366 -1.195985022067246 2.50359847629229 -0.4472405010663607 0
7896.5419999999995 -2.254209805304468 -1.4062889828837575 -1.6092257200897366 -1.195985022067246 2.50359847629229 -0.4472405010663607 0
7896.562 -2.254209805304468 -1.4062889828837575 -1.6092257200897366 -1.195985022067246 2.50359847629229 -0.4472405010663607 0
7896.581999999999 -2.254209805304468 -1.4062889828837575 -1.6092257200897366 -1.195985022067246 2.50359847629229 -0.4472405010663607 0
7896.602 -2.254209805304468 -1.4062889828837575 -1.6092257200897366 -1.195985022067246 2.50359847629229 -0.4472405010663607 0
7896.621999999999 -2.254209805304468 -1.4062889828837575 -1.6092257200897366 -1.195985022067246 2.50359847629229 -0.4472405010663607 0
7896.642 -2.254209805304468 -1.4062889828837575 -1.6092257200897366 -1.195985022067246 2.50359847629229 -0.4472405010663607 0
7896.661999999999 -2.254209805304468 -1.4062889828837575 -1.6092257200897366 -1.195985022067246 2.50359847629229 -0.4472405010663607 0
7896.682 -2.254209805304468 -1.4062889828837575 -1.6092257200897366 -1.195985022067246 2.50359847629229 -0.4472405010663607 0
7896.701999999999 -2.254209805304468 -1.4062889828837575 -1.6092257200897366 -1.195985022067246 2.50359847629229 -0.4472405010663607 0
7896.722 -2.254209805304468 -1.4062889828837575 -1.6092257200897366 -1.195985022067246 2.50359847629229 -0.4472405010663607 0
7896.741999999999 -2.254209805304468 -1.4062889828837575 -1.6092257200897366 -1.195985022067246 2.50359847629229 -0.4472405010663607 0
7896.762 -2.254209805304468 -1.4062889828837575 -1.6092257200897366 -1.195985022067246 2.50359847629229 -0.4472405010663607 0
7896.781999999999 -2.254209805304468 -1.4062889828837575 -1.6092257200897366 -1.195985022067246 2.50359847629229 -0.4472405010663607 0
7896.802 -2.254209805304468 -1.4062889828837575 -1.6092257200897366 -1.195985022067246 2.50359847629229 -0.4472405010663607 0
7896.821999999999 -2.254209805304468 -1.4062889828837575 -1.6092257200897366 -1.195985022067246 2.50359847629229 -0.4472405010663607 0
7896.842 -2.254209805304468 -1.4062889828837575 -1.6092257200897366 -1.195985022067246 2.50359847629229 -0.4472405010663607 0
7896.862 -2.254209805304468 -1.4062889828837575 -1.6092257200897366 -1.195985022067246 2.50359847629229 -0.4472405010663607 0
7896.882 -2.254209805304468 -1.4062889828837575 -1.6092257200897366 -1.195985022067246 2.50359847629229 -0.4472405010663607 0
7896.902 -2.254209805304468 -1.4062889828837575 -1.6092257200897366 -1.195985022067246 2.50359847629229 -0.4472405010663607 0
7896.922 -2.254209805304468 -1.4062889828837575 -1.6092257200897366 -1.195985022067246 2.50359847629229 -0.4472405010663607 0
7896.942 -2.254209805304468 -1.4062889828837575 -1.6092257200897366 -1.195985022067246 2.50359847629229 -0.4472405010663607 0
7896.9619999999995 -2.254209805304468 -1.4062889828837575 -1.6092257200897366 -1.195985022067246 2.50359847629229 -0.4472405010663607 0
7896.982 -2.254209805304468 -1.4062889828837575 -1.6092257200897366 -1.195985022067246 2.50359847629229 -0.4472405010663607 0
7897.0019999999995 -2.254209805304468 -1.4062889828837575 -1.6092257200897366 -1.195985022067246 2.50359847629229 -0.4472405010663607 0
7897.022 -2.254209805304468 -1.4062889828837575 -1.6092257200897366 -1.195985022067246 2.50359847629229 -0.4472405010663607 0
7897.0419999999995 -2.254209805304468 -1.4062889828837575 -1.6092257200897366 -1.195985022067246 2.50359847629229 -0.4472405010663607 0
7897.062 -2.254209805304468 -1.4062889828837575 -1.6092257200897366 -1.195985022067246 2.50359847629229 -0.4472405010663607 0
7897.081999999999 -2.254209805304468 -1.4062889828837575 -1.6092257200897366 -1.195985022067246 2.50359847629229 -0.4472405010663607 0
7897.102 -2.254209805304468 -1.4062889828837575 -1.6092257200897366 -1.195985022067246 2.50359847629229 -0.4472405010663607 0
7897.121999999999 -2.254209805304468 -1.4062889828837575 -1.6092257200897366 -1.195985022067246 2.50359847629229 -0.4472405010663607 0
7897.142 -2.254209805304468 -1.4062889828837575 -1.6092257200897366 -1.195985022067246 2.50359847629229 -0.4472405010663607 0
7897.161999999999 -2.254209805304468 -1.4062889828837575 -1.6092257200897366 -1.195985022067246 2.50359847629229 -0.4472405010663607 0
7897.182 -2.254209805304468 -1.4062889828837575 -1.6092257200897366 -1.195985022067246 2.50359847629229 -0.4472405010663607 0
7897.201999999999 -2.254209805304468 -1.4062889828837575 -1.6092257200897366 -1.195985022067246 2.50359847629229 -0.4472405010663607 0
7897.222 -2.254209805304468 -1.4062889828837575 -1.6092257200897366 -1.195985022067246 2.50359847629229 -0.4472405010663607 0
7897.241999999999 -2.254209805304468 -1.4062889828837575 -1.6092257200897366 -1.195985022067246 2.50359847629229 -0.4472405010663607 0
7897.262 -2.254209805304468 -1.4062889828837575 -1.6092257200897366 -1.195985022067246 2.50359847629229 -0.4472405010663607 0
7897.281999999999 -2.254209805304468 -1.4062889828837575 -1.6092257200897366 -1.195985022067246 2.50359847629229 -0.4472405010663607 0
7897.302 -2.254209805304468 -1.4062889828837575 -1.6092257200897366 -1.195985022067246 2.50359847629229 -0.4472405010663607 0
7897.321999999999 -2.254209805304468 -1.4062889828837575 -1.6092257200897366 -1.195985022067246 2.50359847629229 -0.4472405010663607 0
7897.342 -2.254209805304468 -1.4062889828837575 -1.6092257200897366 -1.195985022067246 2.50359847629229 -0.4472405010663607 0
7897.362 -2.254209805304468 -1.4062889828837575 -1.6092257200897366 -1.195985022067246 2.50359847629229 -0.4472405010663607 0
7897.382 -2.254209805304468 -1.4062889828837575 -1.6092257200897366 -1.195985022067246 2.50359847629229 -0.4472405010663607 0
7897.402 -2.254209805304468 -1.4062889828837575 -1.6092257200897366 -1.195985022067246 2.50359847629229 -0.4472405010663607 0
7897.422 -2.254209805304468 -1.4062889828837575 -1.6092257200897366 -1.195985022067246 2.50359847629229 -0.4472405010663607 0
7897.442 -2.254209805304468 -1.4062889828837575 -1.6092257200897366 -1.195985022067246 2.50359847629229 -0.4472405010663607 0
7897.4619999999995 -2.254209805304468 -1.4062889828837575 -1.6092257200897366 -1.195985022067246 2.50359847629229 -0.4472405010663607 0
7897.482 -2.254209805304468 -1.4062889828837575 -1.6092257200897366 -1.195985022067246 2.50359847629229 -0.4472405010663607 0
7897.5019999999995 -2.254209805304468 -1.4062889828837575 -1.6092257200897366 -1.195985022067246 2.50359847629229 -0.4472405010663607 0
7897.522 -2.254209805304468 -1.4062889828837575 -1.6092257200897366 -1.195985022067246 2.50359847629229 -0.4472405010663607 0
7897.5419999999995 -2.254209805304468 -1.4062889828837575 -1.6092257200897366 -1.195985022067246 2.50359847629229 -0.4472405010663607 0
7897.562 -2.254209805304468 -1.4062889828837575 -1.6092257200897366 -1.195985022067246 2.50359847629229 -0.4472405010663607 0
7897.581999999999 -2.254209805304468 -1.4062889828837575 -1.6092257200897366 -1.195985022067246 2.50359847629229 -0.4472405010663607 0
7897.602 -2.254209805304468 -1.4062889828837575 -1.6092257200897366 -1.195985022067246 2.50359847629229 -0.4472405010663607 0
7897.621999999999 -2.254209805304468 -1.4062889828837575 -1.6092257200897366 -1.195985022067246 2.50359847629229 -0.4472405010663607 0
7897.642 -2.254209805304468 -1.4062889828837575 -1.6092257200897366 -1.195985022067246 2.50359847629229 -0.4472405010663607 0
7897.661999999999 -2.254209805304468 -1.4062889828837575 -1.6092257200897366 -1.195985022067246 2.50359847629229 -0.4472405010663607 0
7897.682 -2.254209805304468 -1.4062889828837575 -1.6092257200897366 -1.195985022067246 2.50359847629229 -0.4472405010663607 0
7897.701999999999 -2.254209805304468 -1.4062889828837575 -1.6092257200897366 -1.195985022067246 2.50359847629229 -0.4472405010663607 0
7897.722 -2.254209805304468 -1.4062889828837575 -1.6092257200897366 -1.195985022067246 2.50359847629229 -0.4472405010663607 0
7897.741999999999 -2.254209805304468 -1.4062889828837575 -1.6092257200897366 -1.195985022067246 2.50359847629229 -0.4472405010663607 0
7897.762 -2.254209805304468 -1.4062889828837575 -1.6092257200897366 -1.195985022067246 2.50359847629229 -0.4472405010663607 0
7897.781999999999 -2.254209805304468 -1.4062889828837575 -1.6092257200897366 -1.195985022067246 2.50359847629229 -0.4472405010663607 0
7897.802 -2.254209805304468 -1.4062889828837575 -1.6092257200897366 -1.195985022067246 2.50359847629229 -0.4472405010663607 0
7897.821999999999 -2.254209805304468 -1.4062889828837575 -1.6092257200897366 -1.195985022067246 2.50359847629229 -0.4472405010663607 0
7897.842 -2.254209805304468 -1.4062889828837575 -1.6092257200897366 -1.195985022067246 2.50359847629229 -0.4472405010663607 0
7897.862 -2.254209805304468 -1.4062889828837575 -1.6092257200897366 -1.195985022067246 2.50359847629229 -0.4472405010663607 0
7897.882 -2.254209805304468 -1.4062889828837575 -1.6092257200897366 -1.195985022067246 2.50359847629229 -0.4472405010663607 0
7897.902 -2.254209805304468 -1.4062889828837575 -1.6092257200897366 -1.195985022067246 2.50359847629229 -0.4472405010663607 0
7897.922 -2.254209805304468 -1.4062889828837575 -1.6092257200897366 -1.195985022067246 2.50359847629229 -0.4472405010663607 0
7897.942 -2.254209805304468 -1.4062889828837575 -1.6092257200897366 -1.195985022067246 2.50359847629229 -0.4472405010663607 0
7897.9619999999995 -2.254209805304468 -1.4062889828837575 -1.6092257200897366 -1.195985022067246 2.50359847629229 -0.4472405010663607 0
7897.982 -2.254209805304468 -1.4062889828837575 -1.6092257200897366 -1.195985022067246 2.50359847629229 -0.4472405010663607 0
7898.0019999999995 -2.254209805304468 -1.4062889828837575 -1.6092257200897366 -1.195985022067246 2.50359847629229 -0.4472405010663607 0
7898.022 -2.254209805304468 -1.4062889828837575 -1.6092257200897366 -1.195985022067246 2.50359847629229 -0.4472405010663607 0
7898.0419999999995 -2.254209805304468 -1.4062889828837575 -1.6092257200897366 -1.195985022067246 2.50359847629229 -0.4472405010663607 0
7898.062 -2.254209805304468 -1.4062889828837575 -1.6092257200897366 -1.195985022067246 2.50359847629229 -0.4472405010663607 0
7898.081999999999 -2.254209805304468 -1.4062889828837575 -1.6092257200897366 -1.195985022067246 2.50359847629229 -0.4472405010663607 0
7898.102 -2.254209805304468 -1.4062889828837575 -1.6092257200897366 -1.195985022067246 2.50359847629229 -0.4472405010663607 0
7898.121999999999 -2.254209805304468 -1.4062889828837575 -1.6092257200897366 -1.195985022067246 2.50359847629229 -0.4472405010663607 0
7898.142 -2.254209805304468 -1.4062889828837575 -1.6092257200897366 -1.195985022067246 2.50359847629229 -0.4472405010663607 0
7898.161999999999 -2.254209805304468 -1.4062889828837575 -1.6092257200897366 -1.195985022067246 2.50359847629229 -0.4472405010663607 0
7898.182 -2.254209805304468 -1.4062889828837575 -1.6092257200897366 -1.195985022067246 2.50359847629229 -0.4472405010663607 0
7898.201999999999 -2.254209805304468 -1.4062889828837575 -1.6092257200897366 -1.195985022067246 2.50359847629229 -0.4472405010663607 0
7898.222 -2.254209805304468 -1.4062889828837575 -1.6092257200897366 -1.195985022067246 2.50359847629229 -0.4472405010663607 0
7898.241999999999 -2.254209805304468 -1.4062889828837575 -1.6092257200897366 -1.195985022067246 2.50359847629229 -0.4472405010663607 0
7898.262 -2.254209805304468 -1.4062889828837575 -1.6092257200897366 -1.195985022067246 2.50359847629229 -0.4472405010663607 0
7898.281999999999 -2.254209805304468 -1.4062889828837575 -1.6092257200897366 -1.195985022067246 2.50359847629229 -0.4472405010663607 0
7898.302 -2.254209805304468 -1.4062889828837575 -1.6092257200897366 -1.195985022067246 2.50359847629229 -0.4472405010663607 0
7898.321999999999 -2.254209805304468 -1.4062889828837575 -1.6092257200897366 -1.195985022067246 2.50359847629229 -0.4472405010663607 0
7898.342 -2.254209805304468 -1.4062889828837575 -1.6092257200897366 -1.195985022067246 2.50359847629229 -0.4472405010663607 0
7898.362 -2.254209805304468 -1.4062889828837575 -1.6092257200897366 -1.195985022067246 2.50359847629229 -0.4472405010663607 0
7898.382 -2.254209805304468 -1.4062889828837575 -1.6092257200897366 -1.195985022067246 2.50359847629229 -0.4472405010663607 0
7898.402 -2.254209805304468 -1.4062889828837575 -1.6092257200897366 -1.195985022067246 2.50359847629229 -0.4472405010663607 0
7898.422 -2.254209805304468 -1.4062889828837575 -1.6092257200897366 -1.195985022067246 2.50359847629229 -0.4472405010663607 0
7898.442 -2.254209805304468 -1.4062889828837575 -1.6092257200897366 -1.195985022067246 2.50359847629229 -0.4472405010663607 0
7898.4619999999995 -2.254209805304468 -1.4062889828837575 -1.6092257200897366 -1.195985022067246 2.50359847629229 -0.4472405010663607 0
7898.482 -2.254209805304468 -1.4062889828837575 -1.6092257200897366 -1.195985022067246 2.50359847629229 -0.4472405010663607 0
7898.5019999999995 -2.254209805304468 -1.4062889828837575 -1.6092257200897366 -1.195985022067246 2.50359847629229 -0.4472405010663607 0
7898.522 -2.254209805304468 -1.4062889828837575 -1.6092257200897366 -1.195985022067246 2.50359847629229 -0.4472405010663607 0
7898.5419999999995 -2.254209805304468 -1.4062889828837575 -1.6092257200897366 -1.195985022067246 2.50359847629229 -0.4472405010663607 0
7898.562 -2.254209805304468 -1.4062889828837575 -1.6092257200897366 -1.195985022067246 2.50359847629229 -0.4472405010663607 0
7898.581999999999 -2.254209805304468 -1.4062889828837575 -1.6092257200897366 -1.195985022067246 2.50359847629229 -0.4472405010663607 0
7898.602 -2.254209805304468 -1.4062889828837575 -1.6092257200897366 -1.195985022067246 2.50359847629229 -0.4472405010663607 0
7898.621999999999 -2.254209805304468 -1.4062889828837575 -1.6092257200897366 -1.195985022067246 2.50359847629229 -0.4472405010663607 0
7898.642 -2.254209805304468 -1.4062889828837575 -1.6092257200897366 -1.195985022067246 2.50359847629229 -0.4472405010663607 0
7898.661999999999 -2.254209805304468 -1.4062889828837575 -1.6092257200897366 -1.195985022067246 2.50359847629229 -0.4472405010663607 0
7898.682 -2.254209805304468 -1.4062889828837575 -1.6092257200897366 -1.195985022067246 2.50359847629229 -0.4472405010663607 0
7898.701999999999 -2.254209805304468 -1.4062889828837575 -1.6092257200897366 -1.195985022067246 2.50359847629229 -0.4472405010663607 0
7898.722 -2.254209805304468 -1.4062889828837575 -1.6092257200897366 -1.195985022067246 2.50359847629229 -0.4472405010663607 0
7898.741999999999 -2.254209805304468 -1.4062889828837575 -1.6092257200897366 -1.195985022067246 2.50359847629229 -0.4472405010663607 0
7898.762 -2.254209805304468 -1.4062889828837575 -1.6092257200897366 -1.195985022067246 2.50359847629229 -0.4472405010663607 0
7898.781999999999 -2.254209805304468 -1.4062889828837575 -1.6092257200897366 -1.195985022067246 2.50359847629229 -0.4472405010663607 0
7898.802 -2.254209805304468 -1.4062889828837575 -1.6092257200897366 -1.195985022067246 2.50359847629229 -0.4472405010663607 0
7898.821999999999 -2.254209805304468 -1.4062889828837575 -1.6092257200897366 -1.195985022067246 2.50359847629229 -0.4472405010663607 0
7898.842 -2.254209805304468 -1.4062889828837575 -1.6092257200897366 -1.195985022067246 2.50359847629229 -0.4472405010663607 0
7898.862 -2.254209805304468 -1.4062889828837575 -1.6092257200897366 -1.195985022067246 2.50359847629229 -0.4472405010663607 0
7898.882 -2.254209805304468 -1.4062889828837575 -1.6092257200897366 -1.195985022067246 2.50359847629229 -0.4472405010663607 0
7898.902 -2.254209805304468 -1.4062889828837575 -1.6092257200897366 -1.195985022067246 2.50359847629229 -0.4472405010663607 0
7898.922 -2.254209805304468 -1.4062889828837575 -1.6092257200897366 -1.195985022067246 2.50359847629229 -0.4472405010663607 0
7898.942 -2.254209805304468 -1.4062889828837575 -1.6092257200897366 -1.195985022067246 2.50359847629229 -0.4472405010663607 0
7898.9619999999995 -2.254209805304468 -1.4062889828837575 -1.6092257200897366 -1.195985022067246 2.50359847629229 -0.4472405010663607 0
7898.982 -2.254209805304468 -1.4062889828837575 -1.6092257200897366 -1.195985022067246 2.50359847629229 -0.4472405010663607 0
7899.0019999999995 -2.254209805304468 -1.4062889828837575 -1.6092257200897366 -1.195985022067246 2.50359847629229 -0.4472405010663607 0
7899.022 -2.254209805304468 -1.4062889828837575 -1.6092257200897366 -1.195985022067246 2.50359847629229 -0.4472405010663607 0
7899.0419999999995 -2.254209805304468 -1.4062889828837575 -1.6092257200897366 -1.195985022067246 2.50359847629229 -0.4472405010663607 0
7899.062 -2.254209805304468 -1.4062889828837575 -1.6092257200897366 -1.195985022067246 2.50359847629229 -0.4472405010663607 0
7899.081999999999 -2.254209805304468 -1.4062889828837575 -1.6092257200897366 -1.195985022067246 2.50359847629229 -0.4472405010663607 0
7899.102 -2.254209805304468 -1.4062889828837575 -1.6092257200897366 -1.195985022067246 2.50359847629229 -0.4472405010663607 0
7899.121999999999 -2.254209805304468 -1.4062889828837575 -1.6092257200897366 -1.195985022067246 2.50359847629229 -0.4472405010663607 0
7899.142 -2.254209805304468 -1.4062889828837575 -1.6092257200897366 -1.195985022067246 2.50359847629229 -0.4472405010663607 0
7899.161999999999 -2.254209805304468 -1.4062889828837575 -1.6092257200897366 -1.195985022067246 2.50359847629229 -0.4472405010663607 0
7899.182 -2.254209805304468 -1.4062889828837575 -1.6092257200897366 -1.195985022067246 2.50359847629229 -0.4472405010663607 0
7899.201999999999 -2.254209805304468 -1.4062889828837575 -1.6092257200897366 -1.195985022067246 2.50359847629229 -0.4472405010663607 0
7899.222 -2.254209805304468 -1.4062889828837575 -1.6092257200897366 -1.195985022067246 2.50359847629229 -0.4472405010663607 0
7899.241999999999 -2.254209805304468 -1.4062889828837575 -1.6092257200897366 -1.195985022067246 2.50359847629229 -0.4472405010663607 0
7899.262 -2.254209805304468 -1.4062889828837575 -1.6092257200897366 -1.195985022067246 2.50359847629229 -0.4472405010663607 0
7899.281999999999 -2.254209805304468 -1.4062889828837575 -1.6092257200897366 -1.195985022067246 2.50359847629229 -0.4472405010663607 0
7899.302 -2.254209805304468 -1.4062889828837575 -1.6092257200897366 -1.195985022067246 2.50359847629229 -0.4472405010663607 0
7899.321999999999 -2.254209805304468 -1.4062889828837575 -1.6092257200897366 -1.195985022067246 2.50359847629229 -0.4472405010663607 0
7899.342 -2.254209805304468 -1.4062889828837575 -1.6092257200897366 -1.195985022067246 2.50359847629229 -0.4472405010663607 0
7899.362 -2.254209805304468 -1.4062889828837575 -1.6092257200897366 -1.195985022067246 2.50359847629229 -0.4472405010663607 0
7899.382 -2.254209805304468 -1.4062889828837575 -1.6092257200897366 -1.195985022067246 2.50359847629229 -0.4472405010663607 0
7899.402 -2.254209805304468 -1.4062889828837575 -1.6092257200897366 -1.195985022067246 2.50359847629229 -0.4472405010663607 0
7899.422 -2.254209805304468 -1.4062889828837575 -1.6092257200897366 -1.195985022067246 2.50359847629229 -0.4472405010663607 0
7899.442 -2.254209805304468 -1.4062889828837575 -1.6092257200897366 -1.195985022067246 2.50359847629229 -0.4472405010663607 0
7899.4619999999995 -2.254209805304468 -1.4062889828837575 -1.6092257200897366 -1.195985022067246 2.50359847629229 -0.4472405010663607 0
7899.482 -2.254209805304468 -1.4062889828837575 -1.6092257200897366 -1.195985022067246 2.50359847629229 -0.4472405010663607 0
7899.5019999999995 -2.254209805304468 -1.4062889828837575 -1.6092257200897366 -1.195985022067246 2.50359847629229 -0.4472405010663607 0
7899.522 -2.254209805304468 -1.4062889828837575 -1.6092257200897366 -1.195985022067246 2.50359847629229 -0.4472405010663607 0
7899.5419999999995 -2.254209805304468 -1.4062889828837575 -1.6092257200897366 -1.195985022067246 2.50359847629229 -0.4472405010663607 0
7899.562 -2.254209805304468 -1.4062889828837575 -1.6092257200897366 -1.195985022067246 2.50359847629229 -0.4472405010663607 0
7899.581999999999 -2.254209805304468 -1.4062889828837575 -1.6092257200897366 -1.195985022067246 2.50359847629229 -0.4472405010663607 0
7899.602 -2.254209805304468 -1.4062889828837575 -1.6092257200897366 -1.195985022067246 2.50359847629229 -0.4472405010663607 0
7899.621999999999 -2.254209805304468 -1.4062889828837575 -1.6092257200897366 -1.195985022067246 2.50359847629229 -0.4472405010663607 0
7899.642 -2.254209805304468 -1.4062889828837575 -1.6092257200897366 -1.195985022067246 2.50359847629229 -0.4472405010663607 0
7899.661999999999 -2.254209805304468 -1.4062889828837575 -1.6092257200897366 -1.195985022067246 2.50359847629229 -0.4472405010663607 0
7899.682 -2.254209805304468 -1.4062889828837575 -1.6092257200897366 -1.195985022067246 2.50359847629229 -0.4472405010663607 0
7899.701999999999 -2.254209805304468 -1.4062889828837575 -1.6092257200897366 -1.195985022067246 2.50359847629229 -0.4472405010663607 0
7899.722 -2.254209805304468 -1.4062889828837575 -1.6092257200897366 -1.195985022067246 2.50359847629229 -0.4472405010663607 0
7899.741999999999 -2.254209805304468 -1.4062889828837575 -1.6092257200897366 -1.195985022067246 2.50359847629229 -0.4472405010663607 0
7899.762 -2.254209805304468 -1.4062889828837575 -1.6092257200897366 -1.195985022067246 2.50359847629229 -0.4472405010663607 0
7899.781999999999 -2.254209805304468 -1.4062889828837575 -1.6092257200897366 -1.195985022067246 2.50359847629229 -0.4472405010663607 0
7899.802 -2.254209805304468 -1.4062889828837575 -1.6092257200897366 -1.195985022067246 2.50359847629229 -0.4472405010663607 0
7899.821999999999 -2.254209805304468 -1.4062889828837575 -1.6092257200897366 -1.195985022067246 2.50359847629229 -0.4472405010663607 0
7899.842 -2.254209805304468 -1.4062889828837575 -1.6092257200897366 -1.195985022067246 2.50359847629229 -0.4472405010663607 0
7899.862 -2.254209805304468 -1.4062889828837575 -1.6092257200897366 -1.195985022067246 2.50359847629229 -0.4472405010663607 0
7899.882 -2.254209805304468 -1.4062889828837575 -1.6092257200897366 -1.195985022067246 2.50359847629229 -0.4472405010663607 0
7899.902 -2.254209805304468 -1.4062889828837575 -1.6092257200897366 -1.195985022067246 2.50359847629229 -0.4472405010663607 0
7899.922 -2.254209805304468 -1.4062889828837575 -1.6092257200897366 -1.195985022067246 2.50359847629229 -0.4472405010663607 0
7899.942 -2.254209805304468 -1.4062889828837575 -1.6092257200897366 -1.195985022067246 2.50359847629229 -0.4472405010663607 0
7899.9619999999995 -2.254209805304468 -1.4062889828837575 -1.6092257200897366 -1.195985022067246 2.50359847629229 -0.4472405010663607 0
7899.982 -2.254209805304468 -1.4062889828837575 -1.6092257200897366 -1.195985022067246 2.50359847629229 -0.4472405010663607 0
7900.0019999999995 -2.254209805304468 -1.4062889828837575 -1.6092257200897366 -1.195985022067246 2.50359847629229 -0.4472405010663607 0
7900.022 -2.254209805304468 -1.4062889828837575 -1.6092257200897366 -1.195985022067246 2.50359847629229 -0.4472405010663607 0
7900.0419999999995 -2.254209805304468 -1.4062889828837575 -1.6092257200897366 -1.195985022067246 2.50359847629229 -0.4472405010663607 0
7900.062 -2.254209805304468 -1.4062889828837575 -1.6092257200897366 -1.195985022067246 2.50359847629229 -0.4472405010663607 0
7900.081999999999 -2.254209805304468 -1.4062889828837575 -1.6092257200897366 -1.195985022067246 2.50359847629229 -0.4472405010663607 0
7900.102 -2.254209805304468 -1.4062889828837575 -1.6092257200897366 -1.195985022067246 2.50359847629229 -0.4472405010663607 0
7900.121999999999 -2.254209805304468 -1.4062889828837575 -1.6092257200897366 -1.195985022067246 2.50359847629229 -0.4472405010663607 0
7900.142 -2.254209805304468 -1.4062889828837575 -1.6092257200897366 -1.195985022067246 2.50359847629229 -0.4472405010663607 0
7900.161999999999 -2.254209805304468 -1.4062889828837575 -1.6092257200897366 -1.195985022067246 2.50359847629229 -0.4472405010663607 0
7900.182 -2.254209805304468 -1.4062889828837575 -1.6092257200897366 -1.195985022067246 2.50359847629229 -0.4472405010663607 0
7900.201999999999 -2.254209805304468 -1.4062889828837575 -1.6092257200897366 -1.195985022067246 2.50359847629229 -0.4472405010663607 0
7900.222 -2.254209805304468 -1.4062889828837575 -1.6092257200897366 -1.195985022067246 2.50359847629229 -0.4472405010663607 0
7900.241999999999 -2.254209805304468 -1.4062889828837575 -1.6092257200897366 -1.195985022067246 2.50359847629229 -0.4472405010663607 0
7900.262 -2.254209805304468 -1.4062889828837575 -1.6092257200897366 -1.195985022067246 2.50359847629229 -0.4472405010663607 0
7900.281999999999 -2.254209805304468 -1.4062889828837575 -1.6092257200897366 -1.195985022067246 2.50359847629229 -0.4472405010663607 0
7900.302 -2.254209805304468 -1.4062889828837575 -1.6092257200897366 -1.195985022067246 2.50359847629229 -0.4472405010663607 0
7900.321999999999 -2.254209805304468 -1.4062889828837575 -1.6092257200897366 -1.195985022067246 2.50359847629229 -0.4472405010663607 0
7900.342 -2.254209805304468 -1.4062889828837575 -1.6092257200897366 -1.195985022067246 2.50359847629229 -0.4472405010663607 0
7900.362 -2.254209805304468 -1.4062889828837575 -1.6092257200897366 -1.195985022067246 2.50359847629229 -0.4472405010663607 0
7900.382 -2.254209805304468 -1.4062889828837575 -1.6092257200897366 -1.195985022067246 2.50359847629229 -0.4472405010663607 0
7900.402 -2.254209805304468 -1.4062889828837575 -1.6092257200897366 -1.195985022067246 2.50359847629229 -0.4472405010663607 0
7900.422 -2.254209805304468 -1.4062889828837575 -1.6092257200897366 -1.195985022067246 2.50359847629229 -0.4472405010663607 0
7900.442 -2.254209805304468 -1.4062889828837575 -1.6092257200897366 -1.195985022067246 2.50359847629229 -0.4472405010663607 0
7900.4619999999995 -2.254209805304468 -1.4062889828837575 -1.6092257200897366 -1.195985022067246 2.50359847629229 -0.4472405010663607 0
7900.482 -2.254209805304468 -1.4062889828837575 -1.6092257200897366 -1.195985022067246 2.50359847629229 -0.4472405010663607 0
7900.5019999999995 -2.254209805304468 -1.4062889828837575 -1.6092257200897366 -1.195985022067246 2.50359847629229 -0.4472405010663607 0
7900.522 -2.254209805304468 -1.4062889828837575 -1.6092257200897366 -1.195985022067246 2.50359847629229 -0.4472405010663607 0
7900.5419999999995 -2.254209805304468 -1.4062889828837575 -1.6092257200897366 -1.195985022067246 2.50359847629229 -0.4472405010663607 0
7900.562 -2.254209805304468 -1.4062889828837575 -1.6092257200897366 -1.195985022067246 2.50359847629229 -0.4472405010663607 0
7900.581999999999 -2.254209805304468 -1.4062889828837575 -1.6092257200897366 -1.195985022067246 2.50359847629229 -0.4472405010663607 0
7900.602 -2.254209805304468 -1.4062889828837575 -1.6092257200897366 -1.195985022067246 2.50359847629229 -0.4472405010663607 0
7900.621999999999 -2.254209805304468 -1.4062889828837575 -1.6092257200897366 -1.195985022067246 2.50359847629229 -0.4472405010663607 0
7900.642 -2.254209805304468 -1.4062889828837575 -1.6092257200897366 -1.195985022067246 2.50359847629229 -0.4472405010663607 0
7900.661999999999 -2.254209805304468 -1.4062889828837575 -1.6092257200897366 -1.195985022067246 2.50359847629229 -0.4472405010663607 0
7900.682 -2.254209805304468 -1.4062889828837575 -1.6092257200897366 -1.195985022067246 2.50359847629229 -0.4472405010663607 0
7900.701999999999 -2.254209805304468 -1.4062889828837575 -1.6092257200897366 -1.195985022067246 2.50359847629229 -0.4472405010663607 0
7900.722 -2.254209805304468 -1.4062889828837575 -1.6092257200897366 -1.195985022067246 2.50359847629229 -0.4472405010663607 0
7900.741999999999 -2.254209805304468 -1.4062889828837575 -1.6092257200897366 -1.195985022067246 2.50359847629229 -0.4472405010663607 0
7900.762 -2.254209805304468 -1.4062889828837575 -1.6092257200897366 -1.195985022067246 2.50359847629229 -0.4472405010663607 0
7900.781999999999 -2.254209805304468 -1.4062889828837575 -1.6092257200897366 -1.195985022067246 2.50359847629229 -0.4472405010663607 0
7900.802 -2.254209805304468 -1.4062889828837575 -1.6092257200897366 -1.195985022067246 2.50359847629229 -0.4472405010663607 0
7900.821999999999 -2.254209805304468 -1.4062889828837575 -1.6092257200897366 -1.195985022067246 2.50359847629229 -0.4472405010663607 0
7900.842 -2.254209805304468 -1.4062889828837575 -1.6092257200897366 -1.195985022067246 2.50359847629229 -0.4472405010663607 0
7900.862 -2.254209805304468 -1.4062889828837575 -1.6092257200897366 -1.195985022067246 2.50359847629229 -0.4472405010663607 0
7900.882 -2.254209805304468 -1.4062889828837575 -1.6092257200897366 -1.195985022067246 2.50359847629229 -0.4472405010663607 0
7900.902 -2.254209805304468 -1.4062889828837575 -1.6092257200897366 -1.195985022067246 2.50359847629229 -0.4472405010663607 0
7900.922 -2.254209805304468 -1.4062889828837575 -1.6092257200897366 -1.195985022067246 2.50359847629229 -0.4472405010663607 0
7900.942 -2.254209805304468 -1.4062889828837575 -1.6092257200897366 -1.195985022067246 2.50359847629229 -0.4472405010663607 0
7900.9619999999995 -2.254209805304468 -1.4062889828837575 -1.6092257200897366 -1.195985022067246 2.50359847629229 -0.4472405010663607 0
7900.982 -2.254209805304468 -1.4062889828837575 -1.6092257200897366 -1.195985022067246 2.50359847629229 -0.4472405010663607 0
7901.0019999999995 -2.254209805304468 -1.4062889828837575 -1.6092257200897366 -1.195985022067246 2.50359847629229 -0.4472405010663607 0
7901.022 -2.254209805304468 -1.4062889828837575 -1.6092257200897366 -1.195985022067246 2.50359847629229 -0.4472405010663607 0
7901.0419999999995 -2.254209805304468 -1.4062889828837575 -1.6092257200897366 -1.195985022067246 2.50359847629229 -0.4472405010663607 0
7901.062 -2.254209805304468 -1.4062889828837575 -1.6092257200897366 -1.195985022067246 2.50359847629229 -0.4472405010663607 0
7901.081999999999 -2.254209805304468 -1.4062889828837575 -1.6092257200897366 -1.195985022067246 2.50359847629229 -0.4472405010663607 0
7901.102 -2.254209805304468 -1.4062889828837575 -1.6092257200897366 -1.195985022067246 2.50359847629229 -0.4472405010663607 0
7901.121999999999 -2.254209805304468 -1.4062889828837575 -1.6092257200897366 -1.195985022067246 2.50359847629229 -0.4472405010663607 0
7901.142 -2.254209805304468 -1.4062889828837575 -1.6092257200897366 -1.195985022067246 2.50359847629229 -0.4472405010663607 0
7901.161999999999 -2.254209805304468 -1.4062889828837575 -1.6092257200897366 -1.195985022067246 2.50359847629229 -0.4472405010663607 0
7901.182 -2.254209805304468 -1.4062889828837575 -1.6092257200897366 -1.195985022067246 2.50359847629229 -0.4472405010663607 0
7901.201999999999 -2.254209805304468 -1.4062889828837575 -1.6092257200897366 -1.195985022067246 2.50359847629229 -0.4472405010663607 0
7901.222 -2.254209805304468 -1.4062889828837575 -1.6092257200897366 -1.195985022067246 2.50359847629229 -0.4472405010663607 0
7901.241999999999 -2.254209805304468 -1.4062889828837575 -1.6092257200897366 -1.195985022067246 2.50359847629229 -0.4472405010663607 0
7901.262 -2.254209805304468 -1.4062889828837575 -1.6092257200897366 -1.195985022067246 2.50359847629229 -0.4472405010663607 0
7901.281999999999 -2.254209805304468 -1.4062889828837575 -1.6092257200897366 -1.195985022067246 2.50359847629229 -0.4472405010663607 0
7901.302 -2.254209805304468 -1.4062889828837575 -1.6092257200897366 -1.195985022067246 2.50359847629229 -0.4472405010663607 0
7901.321999999999 -2.254209805304468 -1.4062889828837575 -1.6092257200897366 -1.195985022067246 2.50359847629229 -0.4472405010663607 0
7901.342 -2.254209805304468 -1.4062889828837575 -1.6092257200897366 -1.195985022067246 2.50359847629229 -0.4472405010663607 0
7901.362 -2.254209805304468 -1.4062889828837575 -1.6092257200897366 -1.195985022067246 2.50359847629229 -0.4472405010663607 0
7901.382 -2.254209805304468 -1.4062889828837575 -1.6092257200897366 -1.195985022067246 2.50359847629229 -0.4472405010663607 0
7901.402 -2.254209805304468 -1.4062889828837575 -1.6092257200897366 -1.195985022067246 2.50359847629229 -0.4472405010663607 0
7901.422 -2.254209805304468 -1.4062889828837575 -1.6092257200897366 -1.195985022067246 2.50359847629229 -0.4472405010663607 0
7901.442 -2.254209805304468 -1.4062889828837575 -1.6092257200897366 -1.195985022067246 2.50359847629229 -0.4472405010663607 0
7901.4619999999995 -2.254209805304468 -1.4062889828837575 -1.6092257200897366 -1.195985022067246 2.50359847629229 -0.4472405010663607 0
7901.482 -2.254209805304468 -1.4062889828837575 -1.6092257200897366 -1.195985022067246 2.50359847629229 -0.4472405010663607 0
7901.5019999999995 -2.254209805304468 -1.4062889828837575 -1.6092257200897366 -1.195985022067246 2.50359847629229 -0.4472405010663607 0
7901.522 -2.254209805304468 -1.4062889828837575 -1.6092257200897366 -1.195985022067246 2.50359847629229 -0.4472405010663607 0
7901.5419999999995 -2.254209805304468 -1.4062889828837575 -1.6092257200897366 -1.195985022067246 2.50359847629229 -0.4472405010663607 0
7901.562 -2.254209805304468 -1.4062889828837575 -1.6092257200897366 -1.195985022067246 2.50359847629229 -0.4472405010663607 0
7901.581999999999 -2.254209805304468 -1.4062889828837575 -1.6092257200897366 -1.195985022067246 2.50359847629229 -0.4472405010663607 0
7901.602 -2.254209805304468 -1.4062889828837575 -1.6092257200897366 -1.195985022067246 2.50359847629229 -0.4472405010663607 0
7901.621999999999 -2.254209805304468 -1.4062889828837575 -1.6092257200897366 -1.195985022067246 2.50359847629229 -0.4472405010663607 0
7901.642 -2.254209805304468 -1.4062889828837575 -1.6092257200897366 -1.195985022067246 2.50359847629229 -0.4472405010663607 0
7901.661999999999 -2.254209805304468 -1.4062889828837575 -1.6092257200897366 -1.195985022067246 2.50359847629229 -0.4472405010663607 0
7901.682 -2.254209805304468 -1.4062889828837575 -1.6092257200897366 -1.195985022067246 2.50359847629229 -0.4472405010663607 0
7901.701999999999 -2.254209805304468 -1.4062889828837575 -1.6092257200897366 -1.195985022067246 2.50359847629229 -0.4472405010663607 0
7901.722 -2.254209805304468 -1.4062889828837575 -1.6092257200897366 -1.195985022067246 2.50359847629229 -0.4472405010663607 0
7901.741999999999 -2.254209805304468 -1.4062889828837575 -1.6092257200897366 -1.195985022067246 2.50359847629229 -0.4472405010663607 0
7901.762 -2.254209805304468 -1.4062889828837575 -1.6092257200897366 -1.195985022067246 2.50359847629229 -0.4472405010663607 0
7901.781999999999 -2.254209805304468 -1.4062889828837575 -1.6092257200897366 -1.195985022067246 2.50359847629229 -0.4472405010663607 0
7901.802 -2.254209805304468 -1.4062889828837575 -1.6092257200897366 -1.195985022067246 2.50359847629229 -0.4472405010663607 0
7901.821999999999 -2.254209805304468 -1.4062889828837575 -1.6092257200897366 -1.195985022067246 2.50359847629229 -0.4472405010663607 0
7901.842 -2.254209805304468 -1.4062889828837575 -1.6092257200897366 -1.195985022067246 2.50359847629229 -0.4472405010663607 0
7901.862 -2.254209805304468 -1.4062889828837575 -1.6092257200897366 -1.195985022067246 2.50359847629229 -0.4472405010663607 0
7901.882 -2.254209805304468 -1.4062889828837575 -1.6092257200897366 -1.195985022067246 2.50359847629229 -0.4472405010663607 0
7901.902 -2.254209805304468 -1.4062889828837575 -1.6092257200897366 -1.195985022067246 2.50359847629229 -0.4472405010663607 0
7901.922 -2.254209805304468 -1.4062889828837575 -1.6092257200897366 -1.195985022067246 2.50359847629229 -0.4472405010663607 0
7901.942 -2.254209805304468 -1.4062889828837575 -1.6092257200897366 -1.195985022067246 2.50359847629229 -0.4472405010663607 0
7901.9619999999995 -2.254209805304468 -1.4062889828837575 -1.6092257200897366 -1.195985022067246 2.50359847629229 -0.4472405010663607 0
7901.982 -2.254209805304468 -1.4062889828837575 -1.6092257200897366 -1.195985022067246 2.50359847629229 -0.4472405010663607 0
7902.0019999999995 -2.254209805304468 -1.4062889828837575 -1.6092257200897366 -1.195985022067246 2.50359847629229 -0.4472405010663607 0
7902.022 -2.254209805304468 -1.4062889828837575 -1.6092257200897366 -1.195985022067246 2.50359847629229 -0.4472405010663607 0
7902.0419999999995 -2.254209805304468 -1.4062889828837575 -1.6092257200897366 -1.195985022067246 2.50359847629229 -0.4472405010663607 0
7902.062 -2.254209805304468 -1.4062889828837575 -1.6092257200897366 -1.195985022067246 2.50359847629229 -0.4472405010663607 0
7902.081999999999 -2.254209805304468 -1.4062889828837575 -1.6092257200897366 -1.195985022067246 2.50359847629229 -0.4472405010663607 0
7902.102 -2.254209805304468 -1.4062889828837575 -1.6092257200897366 -1.195985022067246 2.50359847629229 -0.4472405010663607 0
7902.121999999999 -2.254209805304468 -1.4062889828837575 -1.6092257200897366 -1.195985022067246 2.50359847629229 -0.4472405010663607 0
7902.142 -2.254209805304468 -1.4062889828837575 -1.6092257200897366 -1.195985022067246 2.50359847629229 -0.4472405010663607 0
7902.161999999999 -2.254209805304468 -1.4062889828837575 -1.6092257200897366 -1.195985022067246 2.50359847629229 -0.4472405010663607 0
7902.182 -2.254209805304468 -1.4062889828837575 -1.6092257200897366 -1.195985022067246 2.50359847629229 -0.4472405010663607 0
7902.201999999999 -2.254209805304468 -1.4062889828837575 -1.6092257200897366 -1.195985022067246 2.50359847629229 -0.4472405010663607 0
7902.222 -2.254209805304468 -1.4062889828837575 -1.6092257200897366 -1.195985022067246 2.50359847629229 -0.4472405010663607 0
7902.241999999999 -2.254209805304468 -1.4062889828837575 -1.6092257200897366 -1.195985022067246 2.50359847629229 -0.4472405010663607 0
7902.262 -2.254209805304468 -1.4062889828837575 -1.6092257200897366 -1.195985022067246 2.50359847629229 -0.4472405010663607 0
7902.281999999999 -2.254209805304468 -1.4062889828837575 -1.6092257200897366 -1.195985022067246 2.50359847629229 -0.4472405010663607 0
7902.302 -2.254209805304468 -1.4062889828837575 -1.6092257200897366 -1.195985022067246 2.50359847629229 -0.4472405010663607 0
7902.321999999999 -2.254209805304468 -1.4062889828837575 -1.6092257200897366 -1.195985022067246 2.50359847629229 -0.4472405010663607 0
7902.342 -2.254209805304468 -1.4062889828837575 -1.6092257200897366 -1.195985022067246 2.50359847629229 -0.4472405010663607 0
7902.362 -2.254209805304468 -1.4062889828837575 -1.6092257200897366 -1.195985022067246 2.50359847629229 -0.4472405010663607 0
7902.382 -2.254209805304468 -1.4062889828837575 -1.6092257200897366 -1.195985022067246 2.50359847629229 -0.4472405010663607 0
7902.402 -2.254209805304468 -1.4062889828837575 -1.6092257200897366 -1.195985022067246 2.50359847629229 -0.4472405010663607 0
7902.422 -2.254209805304468 -1.4062889828837575 -1.6092257200897366 -1.195985022067246 2.50359847629229 -0.4472405010663607 0
7902.442 -2.254209805304468 -1.4062889828837575 -1.6092257200897366 -1.195985022067246 2.50359847629229 -0.4472405010663607 0
7902.4619999999995 -2.254209805304468 -1.4062889828837575 -1.6092257200897366 -1.195985022067246 2.50359847629229 -0.4472405010663607 0
7902.482 -2.254209805304468 -1.4062889828837575 -1.6092257200897366 -1.195985022067246 2.50359847629229 -0.4472405010663607 0
7902.5019999999995 -2.254209805304468 -1.4062889828837575 -1.6092257200897366 -1.195985022067246 2.50359847629229 -0.4472405010663607 0
7902.522 -2.254209805304468 -1.4062889828837575 -1.6092257200897366 -1.195985022067246 2.50359847629229 -0.4472405010663607 0
7902.5419999999995 -2.254209805304468 -1.4062889828837575 -1.6092257200897366 -1.195985022067246 2.50359847629229 -0.4472405010663607 0
7902.562 -2.254209805304468 -1.4062889828837575 -1.6092257200897366 -1.195985022067246 2.50359847629229 -0.4472405010663607 0
7902.581999999999 -2.254209805304468 -1.4062889828837575 -1.6092257200897366 -1.195985022067246 2.50359847629229 -0.4472405010663607 0
7902.602 -2.254209805304468 -1.4062889828837575 -1.6092257200897366 -1.195985022067246 2.50359847629229 -0.4472405010663607 0
7902.621999999999 -2.254209805304468 -1.4062889828837575 -1.6092257200897366 -1.195985022067246 2.50359847629229 -0.4472405010663607 0
7902.642 -2.254209805304468 -1.4062889828837575 -1.6092257200897366 -1.195985022067246 2.50359847629229 -0.4472405010663607 0
7902.661999999999 -2.254209805304468 -1.4062889828837575 -1.6092257200897366 -1.195985022067246 2.50359847629229 -0.4472405010663607 0
7902.682 -2.254209805304468 -1.4062889828837575 -1.6092257200897366 -1.195985022067246 2.50359847629229 -0.4472405010663607 0
7902.701999999999 -2.254209805304468 -1.4062889828837575 -1.6092257200897366 -1.195985022067246 2.50359847629229 -0.4472405010663607 0
7902.722 -2.254209805304468 -1.4062889828837575 -1.6092257200897366 -1.195985022067246 2.50359847629229 -0.4472405010663607 0
7902.741999999999 -2.254209805304468 -1.4062889828837575 -1.6092257200897366 -1.195985022067246 2.50359847629229 -0.4472405010663607 0
7902.762 -2.254209805304468 -1.4062889828837575 -1.6092257200897366 -1.195985022067246 2.50359847629229 -0.4472405010663607 0
7902.781999999999 -2.254209805304468 -1.4062889828837575 -1.6092257200897366 -1.195985022067246 2.50359847629229 -0.4472405010663607 0
7902.802 -2.254209805304468 -1.4062889828837575 -1.6092257200897366 -1.195985022067246 2.50359847629229 -0.4472405010663607 0
7902.821999999999 -2.254209805304468 -1.4062889828837575 -1.6092257200897366 -1.195985022067246 2.50359847629229 -0.4472405010663607 0
7902.842 -2.254209805304468 -1.4062889828837575 -1.6092257200897366 -1.195985022067246 2.50359847629229 -0.4472405010663607 0
7902.862 -2.254209805304468 -1.4062889828837575 -1.6092257200897366 -1.195985022067246 2.50359847629229 -0.4472405010663607 0
7902.882 -2.254209805304468 -1.4062889828837575 -1.6092257200897366 -1.195985022067246 2.50359847629229 -0.4472405010663607 0
7902.902 -2.254209805304468 -1.4062889828837575 -1.6092257200897366 -1.195985022067246 2.50359847629229 -0.4472405010663607 0
7902.922 -2.254209805304468 -1.4062889828837575 -1.6092257200897366 -1.195985022067246 2.50359847629229 -0.4472405010663607 0
7902.942 -2.254209805304468 -1.4062889828837575 -1.6092257200897366 -1.195985022067246 2.50359847629229 -0.4472405010663607 0
7902.9619999999995 -2.254209805304468 -1.4062889828837575 -1.6092257200897366 -1.195985022067246 2.50359847629229 -0.4472405010663607 0
7902.982 -2.254209805304468 -1.4062889828837575 -1.6092257200897366 -1.195985022067246 2.50359847629229 -0.4472405010663607 0
7903.0019999999995 -2.254209805304468 -1.4062889828837575 -1.6092257200897366 -1.195985022067246 2.50359847629229 -0.4472405010663607 0
7903.022 -2.254209805304468 -1.4062889828837575 -1.6092257200897366 -1.195985022067246 2.50359847629229 -0.4472405010663607 0
7903.0419999999995 -2.254209805304468 -1.4062889828837575 -1.6092257200897366 -1.195985022067246 2.50359847629229 -0.4472405010663607 0
7903.062 -2.254209805304468 -1.4062889828837575 -1.6092257200897366 -1.195985022067246 2.50359847629229 -0.4472405010663607 0
7903.081999999999 -2.254209805304468 -1.4062889828837575 -1.6092257200897366 -1.195985022067246 2.50359847629229 -0.4472405010663607 0
7903.102 -2.254209805304468 -1.4062889828837575 -1.6092257200897366 -1.195985022067246 2.50359847629229 -0.4472405010663607 0
7903.121999999999 -2.254209805304468 -1.4062889828837575 -1.6092257200897366 -1.195985022067246 2.50359847629229 -0.4472405010663607 0
7903.142 -2.254209805304468 -1.4062889828837575 -1.6092257200897366 -1.195985022067246 2.50359847629229 -0.4472405010663607 0
7903.161999999999 -2.254209805304468 -1.4062889828837575 -1.6092257200897366 -1.195985022067246 2.50359847629229 -0.4472405010663607 0
7903.182 -2.254209805304468 -1.4062889828837575 -1.6092257200897366 -1.195985022067246 2.50359847629229 -0.4472405010663607 0
7903.201999999999 -2.254209805304468 -1.4062889828837575 -1.6092257200897366 -1.195985022067246 2.50359847629229 -0.4472405010663607 0
7903.222 -2.254209805304468 -1.4062889828837575 -1.6092257200897366 -1.195985022067246 2.50359847629229 -0.4472405010663607 0
7903.241999999999 -2.254209805304468 -1.4062889828837575 -1.6092257200897366 -1.195985022067246 2.50359847629229 -0.4472405010663607 0
7903.262 -2.254209805304468 -1.4062889828837575 -1.6092257200897366 -1.195985022067246 2.50359847629229 -0.4472405010663607 0
7903.281999999999 -2.254209805304468 -1.4062889828837575 -1.6092257200897366 -1.195985022067246 2.50359847629229 -0.4472405010663607 0
7903.302 -2.254209805304468 -1.4062889828837575 -1.6092257200897366 -1.195985022067246 2.50359847629229 -0.4472405010663607 0
7903.321999999999 -2.254209805304468 -1.4062889828837575 -1.6092257200897366 -1.195985022067246 2.50359847629229 -0.4472405010663607 0
7903.342 -2.254209805304468 -1.4062889828837575 -1.6092257200897366 -1.195985022067246 2.50359847629229 -0.4472405010663607 0
7903.362 -2.254209805304468 -1.4062889828837575 -1.6092257200897366 -1.195985022067246 2.50359847629229 -0.4472405010663607 0
7903.382 -2.254209805304468 -1.4062889828837575 -1.6092257200897366 -1.195985022067246 2.50359847629229 -0.4472405010663607 0
7903.402 -2.254209805304468 -1.4062889828837575 -1.6092257200897366 -1.195985022067246 2.50359847629229 -0.4472405010663607 0
7903.422 -2.254209805304468 -1.4062889828837575 -1.6092257200897366 -1.195985022067246 2.50359847629229 -0.4472405010663607 0
7903.442 -2.254209805304468 -1.4062889828837575 -1.6092257200897366 -1.195985022067246 2.50359847629229 -0.4472405010663607 0
7903.4619999999995 -2.254209805304468 -1.4062889828837575 -1.6092257200897366 -1.195985022067246 2.50359847629229 -0.4472405010663607 0
7903.482 -2.254209805304468 -1.4062889828837575 -1.6092257200897366 -1.195985022067246 2.50359847629229 -0.4472405010663607 0
7903.5019999999995 -2.254209805304468 -1.4062889828837575 -1.6092257200897366 -1.195985022067246 2.50359847629229 -0.4472405010663607 0
7903.522 -2.254209805304468 -1.4062889828837575 -1.6092257200897366 -1.195985022067246 2.50359847629229 -0.4472405010663607 0
7903.5419999999995 -2.254209805304468 -1.4062889828837575 -1.6092257200897366 -1.195985022067246 2.50359847629229 -0.4472405010663607 0
7903.562 -2.254209805304468 -1.4062889828837575 -1.6092257200897366 -1.195985022067246 2.50359847629229 -0.4472405010663607 0
7903.581999999999 -2.254209805304468 -1.4062889828837575 -1.6092257200897366 -1.195985022067246 2.50359847629229 -0.4472405010663607 0
7903.602 -2.254209805304468 -1.4062889828837575 -1.6092257200897366 -1.195985022067246 2.50359847629229 -0.4472405010663607 0
7903.621999999999 -2.254209805304468 -1.4062889828837575 -1.6092257200897366 -1.195985022067246 2.50359847629229 -0.4472405010663607 0
7903.642 -2.254209805304468 -1.4062889828837575 -1.6092257200897366 -1.195985022067246 2.50359847629229 -0.4472405010663607 0
7903.661999999999 -2.254209805304468 -1.4062889828837575 -1.6092257200897366 -1.195985022067246 2.50359847629229 -0.4472405010663607 0
7903.682 -2.254209805304468 -1.4062889828837575 -1.6092257200897366 -1.195985022067246 2.50359847629229 -0.4472405010663607 0
7903.701999999999 -2.254209805304468 -1.4062889828837575 -1.6092257200897366 -1.195985022067246 2.50359847629229 -0.4472405010663607 0
7903.722 -2.254209805304468 -1.4062889828837575 -1.6092257200897366 -1.195985022067246 2.50359847629229 -0.4472405010663607 0
7903.741999999999 -2.254209805304468 -1.4062889828837575 -1.6092257200897366 -1.195985022067246 2.50359847629229 -0.4472405010663607 0
7903.762 -2.254209805304468 -1.4062889828837575 -1.6092257200897366 -1.195985022067246 2.50359847629229 -0.4472405010663607 0
7903.781999999999 -2.254209805304468 -1.4062889828837575 -1.6092257200897366 -1.195985022067246 2.50359847629229 -0.4472405010663607 0
7903.802 -2.254209805304468 -1.4062889828837575 -1.6092257200897366 -1.195985022067246 2.50359847629229 -0.4472405010663607 0
7903.821999999999 -2.254209805304468 -1.4062889828837575 -1.6092257200897366 -1.195985022067246 2.50359847629229 -0.4472405010663607 0
7903.842 -2.254209805304468 -1.4062889828837575 -1.6092257200897366 -1.195985022067246 2.50359847629229 -0.4472405010663607 0
7903.862 -2.254209805304468 -1.4062889828837575 -1.6092257200897366 -1.195985022067246 2.50359847629229 -0.4472405010663607 0
7903.882 -2.254209805304468 -1.4062889828837575 -1.6092257200897366 -1.195985022067246 2.50359847629229 -0.4472405010663607 0
7903.902 -2.254209805304468 -1.4062889828837575 -1.6092257200897366 -1.195985022067246 2.50359847629229 -0.4472405010663607 0
7903.922 -2.254209805304468 -1.4062889828837575 -1.6092257200897366 -1.195985022067246 2.50359847629229 -0.4472405010663607 0
7903.942 -2.254209805304468 -1.4062889828837575 -1.6092257200897366 -1.195985022067246 2.50359847629229 -0.4472405010663607 0
7903.9619999999995 -2.254209805304468 -1.4062889828837575 -1.6092257200897366 -1.195985022067246 2.50359847629229 -0.4472405010663607 0
7903.982 -2.254209805304468 -1.4062889828837575 -1.6092257200897366 -1.195985022067246 2.50359847629229 -0.4472405010663607 0
7904.0019999999995 -2.254209805304468 -1.4062889828837575 -1.6092257200897366 -1.195985022067246 2.50359847629229 -0.4472405010663607 0
7904.022 -2.254209805304468 -1.4062889828837575 -1.6092257200897366 -1.195985022067246 2.50359847629229 -0.4472405010663607 0
7904.0419999999995 -2.254209805304468 -1.4062889828837575 -1.6092257200897366 -1.195985022067246 2.50359847629229 -0.4472405010663607 0
7904.062 -2.254209805304468 -1.4062889828837575 -1.6092257200897366 -1.195985022067246 2.50359847629229 -0.4472405010663607 0
7904.081999999999 -2.254209805304468 -1.4062889828837575 -1.6092257200897366 -1.195985022067246 2.50359847629229 -0.4472405010663607 0
7904.102 -2.254209805304468 -1.4062889828837575 -1.6092257200897366 -1.195985022067246 2.50359847629229 -0.4472405010663607 0
7904.121999999999 -2.254209805304468 -1.4062889828837575 -1.6092257200897366 -1.195985022067246 2.50359847629229 -0.4472405010663607 0
7904.142 -2.254209805304468 -1.4062889828837575 -1.6092257200897366 -1.195985022067246 2.50359847629229 -0.4472405010663607 0
7904.161999999999 -2.254209805304468 -1.4062889828837575 -1.6092257200897366 -1.195985022067246 2.50359847629229 -0.4472405010663607 0
7904.182 -2.254209805304468 -1.4062889828837575 -1.6092257200897366 -1.195985022067246 2.50359847629229 -0.4472405010663607 0
7904.201999999999 -2.254209805304468 -1.4062889828837575 -1.6092257200897366 -1.195985022067246 2.50359847629229 -0.4472405010663607 0
7904.222 -2.254209805304468 -1.4062889828837575 -1.6092257200897366 -1.195985022067246 2.50359847629229 -0.4472405010663607 0
7904.241999999999 -2.254209805304468 -1.4062889828837575 -1.6092257200897366 -1.195985022067246 2.50359847629229 -0.4472405010663607 0
7904.262 -2.254209805304468 -1.4062889828837575 -1.6092257200897366 -1.195985022067246 2.50359847629229 -0.4472405010663607 0
7904.281999999999 -2.254209805304468 -1.4062889828837575 -1.6092257200897366 -1.195985022067246 2.50359847629229 -0.4472405010663607 0
7904.302 -2.254209805304468 -1.4062889828837575 -1.6092257200897366 -1.195985022067246 2.50359847629229 -0.4472405010663607 0
7904.321999999999 -2.254209805304468 -1.4062889828837575 -1.6092257200897366 -1.195985022067246 2.50359847629229 -0.4472405010663607 0
7904.342 -2.254209805304468 -1.4062889828837575 -1.6092257200897366 -1.195985022067246 2.50359847629229 -0.4472405010663607 0
7904.362 -2.254209805304468 -1.4062889828837575 -1.6092257200897366 -1.195985022067246 2.50359847629229 -0.4472405010663607 0
7904.382 -2.254209805304468 -1.4062889828837575 -1.6092257200897366 -1.195985022067246 2.50359847629229 -0.4472405010663607 0
7904.402 -2.254209805304468 -1.4062889828837575 -1.6092257200897366 -1.195985022067246 2.50359847629229 -0.4472405010663607 0
7904.422 -2.254209805304468 -1.4062889828837575 -1.6092257200897366 -1.195985022067246 2.50359847629229 -0.4472405010663607 0
7904.442 -2.254209805304468 -1.4062889828837575 -1.6092257200897366 -1.195985022067246 2.50359847629229 -0.4472405010663607 0
7904.4619999999995 -2.254209805304468 -1.4062889828837575 -1.6092257200897366 -1.195985022067246 2.50359847629229 -0.4472405010663607 0
7904.482 -2.254209805304468 -1.4062889828837575 -1.6092257200897366 -1.195985022067246 2.50359847629229 -0.4472405010663607 0
7904.5019999999995 -2.254209805304468 -1.4062889829503895 -1.6092257201801843 -1.1959850219101664 2.50359847629229 -0.4472405010663607 0
7904.522 -2.254209805304468 -1.4062890279272748 -1.609225781232051 -1.1959849158814144 2.50359847629229 -0.4472405010663607 0
7904.5419999999995 -2.254209805304468 -1.4062894567809465 -1.6092263633603494 -1.1959839048994452 2.50359847629229 -0.4472405010663607 0
7904.562 -2.254209805304469 -1.4062910468896606 -1.6092285217825362 -1.1959801563685444 2.5035984762922903 -0.4472405010663616 0
7904.581999999999 -2.2542098053044697 -1.4062950198478212 -1.6092339146974757 -1.195970790495446 2.5035984762922907 -0.44724050106636426 0
7904.602 -2.2542098053044732 -1.4063030414659776 -1.6092448032854367 -1.195951880289333 2.5035984762922925 -0.4472405010663687 0
7904.621999999999 -2.2542098053044786 -1.4063172217708253 -1.6092640517080907 -1.1959184515618366 2.5035984762922947 -0.4472405010663767 0
7904.642 -2.2542098053044874 -1.4063401150052073 -1.609295127108517 -1.195864482927039 2.503598476292299 -0.44724050106638913 0
7904.661999999999 -2.2542098053045 -1.4063747196281113 -1.6093420996111982 -1.1957829058014688 2.5035984762923054 -0.44724050106640867 0
7904.682 -2.2542098053045194 -1.4064244783146753 -1.6094096423220217 -1.1956656044041036 2.5035984762923142 -0.4472405010664362 0
7904.701999999999 -2.2542098053045443 -1.40649327795618 -1.6095030313282797 -1.195503415756371 2.5035984762923267 -0.4472405010664744 0
7904.722 -2.25420980530458 -1.4065854496600547 -1.6096281456986699 -1.195286129682147 2.5035984762923436 -0.447240501066525 0
7904.741999999999 -2.254209805304625 -1.406705768749875 -1.6097914674832952 -1.1950024888077557 2.5035984762923653 -0.44724050106659163 0
7904.762 -2.254209805304683 -1.4068594547653612 -1.610000081713661 -1.194640188561972 2.503598476292393 -0.4472405010666769 0
7904.781999999999 -2.2542098053047557 -1.4070521714623823 -1.6102616764026818 -1.1941858771760163 2.503598476292428 -0.44724050106678437 0
7904.802 -2.2542098053048445 -1.4072900268129533 -1.6105845425446725 -1.1936251556835602 2.5035984762924706 -0.4472405010669158 0
7904.821999999999 -2.2542098053049546 -1.4075795730052363 -1.6109775741153554 -1.1929425779207241 2.503598476292523 -0.4472405010670766 0
7904.842 -2.254209805305086 -1.4079278064435377 -1.6114502680718568 -1.1921216505260759 2.503598476292586 -0.4472405010672702 0
7904.862 -2.2542098053052415 -1.4083421677483123 -1.6120127243527094 -1.1911448329406333 2.5035984762926606 -0.44724050106750024 0
7904.882 -2.2542098053054254 -1.4088305417561617 -1.6126756458778475 -1.1899935374078634 2.503598476292749 -0.44724050106777113 0
7904.902 -2.2542098053056403 -1.4094003468101004 -1.6134491023462854 -1.18865027588574 2.503598476292852 -0.4472405010680873 0
7904.922 -2.25420980530588 -1.4100370566201317 -1.6143133756932535 -1.1871492927290248 2.503598476292967 -0.4472405010684408 0
7904.942 -2.254209805306143 -1.4107329952497007 -1.6152580465608697 -1.1855086832321504 2.5035984762930927 -0.4472405010688263 0
7904.9619999999995 -2.2542098053064272 -1.4114881626988067 -1.616283114949134 -1.183728447395116 2.5035984762932295 -0.4472405010692455 0
7904.982 -2.2542098053067345 -1.4123025589674514 -1.6173885808580462 -1.1818085852179223 2.5035984762933765 -0.4472405010696976 0
7905.0019999999995 -2.254209805307063 -1.413176184055633 -1.6185744442876064 -1.1797490967005686 2.503598476293534 -0.44724050107018254 0
7905.022 -2.254209805307415 -1.4141090379633532 -1.6198407052378156 -1.1775499818430557 2.503598476293703 -0.44724050107070035 0
7905.0419999999995 -2.254209805307789 -1.4151011206906112 -1.621187363708673 -1.1752112406453836 2.5035984762938823 -0.44724050107125013 0
7905.062 -2.254209805308185 -1.4161524322374062 -1.6226144197001773 -1.1727328731075515 2.503598476294072 -0.44724050107183366 0
7905.081999999999 -2.2542098053086033 -1.417262972603739 -1.6241218732123306 -1.1701148792295601 2.5035984762942727 -0.44724050107245006 0
7905.102 -2.254209805309044 -1.4184327417896103 -1.625709724245132 -1.1673572590114087 2.503598476294484 -0.4472405010730993 0
7905.121999999999 -2.2542098053095074 -1.4196617397950186 -1.6273779727985822 -1.1644600124530982 2.503598476294706 -0.44724050107378144 0
7905.142 -2.2542098053099924 -1.4209499666199648 -1.6291266188726796 -1.1614231395546284 2.5035984762949393 -0.4472405010744964 0
7905.161999999999 -2.2542098053105004 -1.4222974222644496 -1.630955662467425 -1.1582466403159986 2.5035984762951826 -0.4472405010752434 0
7905.182 -2.2542098053110307 -1.4237041067284713 -1.6328651035828194 -1.1549305147372095 2.5035984762954366 -0.4472405010760241 0
7905.201999999999 -2.254209805311583 -1.4251700200120307 -1.6348549422188619 -1.1514747628182604 2.5035984762957018 -0.44724050107683766 0
7905.222 -2.2542098053121578 -1.426695162115129 -1.6369251783755523 -1.1478793845591522 2.503598476295977 -0.4472405010776841 0
7905.241999999999 -2.2542098053127546 -1.4282795330377631 -1.6390758120528908 -1.1441443799598847 2.5035984762962635 -0.4472405010785634 0
7905.262 -2.2542098053133746 -1.4299231327799369 -1.6413068432508773 -1.1402697490204572 2.5035984762965606 -0.44724050107947555 0
7905.281999999999 -2.254209805314016 -1.4316259613416475 -1.6436182719695118 -1.1362554917408705 2.5035984762968684 -0.44724050108042057 0
7905.302 -2.25420980531468 -1.433388018722896 -1.6460100982087953 -1.1321016081211237 2.503598476297187 -0.44724050108139757 0
7905.321999999999 -2.254209805315366 -1.4352093049236823 -1.6484823219687268 -1.1278080981612177 2.503598476297516 -0.4472405010824083 0
7905.342 -2.2542098053160746 -1.4370898199440063 -1.6510349432493063 -1.1233749618611517 2.5035984762978556 -0.4472405010834519 0
7905.362 -2.2542098053168056 -1.4390295637838681 -1.653667962050534 -1.1188021992209265 2.503598476298206 -0.4472405010845284 0
7905.382 -2.2542098053175588 -1.4410285364432678 -1.6563813783724095 -1.114089810240542 2.5035984762985675 -0.44724050108563773 0
7905.402 -2.254209805318334 -1.4430867379222052 -1.6591751922149331 -1.1092377949199976 2.503598476298939 -0.44724050108677993 0
7905.422 -2.2542098053191326 -1.4452041682206804 -1.6620494035781057 -1.104246153259294 2.503598476299322 -0.447240501087955 0
7905.442 -2.2542098053199524 -1.4473808273386926 -1.6650040124619263 -1.0991148852584303 2.503598476299715 -0.447240501089162 0
7905.4619999999995 -2.2542098053207953 -1.4496167152762442 -1.668039018866395 -1.0938439909174082 2.503598476300119 -0.4472405010904028 0
7905.482 -2.2542098053216604 -1.451911832033332 -1.6711544227915116 -1.0884334702362253 2.503598476300534 -0.44724050109167646 0
7905.5019999999995 -2.2542098053225477 -1.4542661776099584 -1.6743502242372763 -1.0828833232148831 2.5035984763009593 -0.44724050109298297 0
7905.522 -2.254209805323457 -1.4566797520061225 -1.677626423203689 -1.0771935498533818 2.5035984763013954 -0.44724050109432234 0
7905.5419999999995 -2.254209805324389 -1.4591525552218236 -1.6809830196907498 -1.0713641501517213 2.503598476301842 -0.4472405010956946 0
7905.562 -2.2542098053253428 -1.4616845872570634 -1.6844200136984595 -1.0653951241098998 2.5035984763023 -0.4472405010970997 0
7905.581999999999 -2.254209805326319 -1.464275848111841 -1.6879374052268172 -1.05928647172792 2.503598476302768 -0.44724050109853764 0
7905.602 -2.254209805327318 -1.4669263377861554 -1.691535194275823 -1.0530381930057802 2.5035984763032473 -0.44724050110000846 0
7905.621999999999 -2.2542098053283395 -1.4696360562800086 -1.6952133808454768 -1.0466502879434811 2.5035984763037367 -0.44724050110151214 0
7905.642 -2.254209805329383 -1.4724050035933995 -1.6989719649357786 -1.040122756541022 2.503598476304237 -0.4472405011030487 0
7905.661999999999 -2.254209805330449 -1.4752331797263274 -1.7028109465467285 -1.0334555987984038 2.5035984763047483 -0.4472405011046181 0
7905.682 -2.254209805331536 -1.478120584678793 -1.7067303256783273 -1.0266488147156263 2.50359847630527 -0.4472405011062195 0
7905.701999999999 -2.254209805332647 -1.4810672184507974 -1.710730102330574 -1.0197024042926888 2.5035984763058026 -0.4472405011078546 0
7905.722 -2.2542098053337796 -1.4840730810423395 -1.714810276503468 -1.012616367529592 2.5035984763063457 -0.4472405011095226 0
7905.741999999999 -2.254209805334934 -1.4871381724534185 -1.718970848197011 -1.0053907044263353 2.5035984763068995 -0.4472405011112235 0
7905.762 -2.254209805336112 -1.4902624926840353 -1.7232118174112028 -0.9980254149829193 2.503598476307464 -0.4472405011129572 0
7905.781999999999 -2.254209805337312 -1.4934460417341908 -1.7275331841460417 -0.9905204991993433 2.5035984763080394 -0.4472405011147238 0
7905.802 -2.254209805338533 -1.4966888196038832 -1.7319349484015287 -0.982875957075608 2.503598476308625 -0.44724050111652325 0
7905.821999999999 -2.2542098053397783 -1.4999908262931134 -1.7364171101776646 -0.9750917886117136 2.503598476309222 -0.44724050111835556 0
7905.842 -2.254209805341045 -1.5033520618018823 -1.7409796694744486 -0.9671679938076592 2.503598476309829 -0.44724050112022073 0
7905.862 -2.2542098053423336 -1.506772526130188 -1.7456226262918797 -0.9591045726634455 2.5035984763104473 -0.44724050112211877 0
7905.882 -2.2542098053436455 -1.5102522192780317 -1.7503459806299606 -0.9509015251790718 2.503598476311076 -0.44724050112404967 0
7905.902 -2.2542098053449786 -1.513791141245413 -1.7551497324886887 -0.9425588513545389 2.5035984763117156 -0.44724050112601343 0
7905.922 -2.254209805346335 -1.5173892920323322 -1.7600338818680648 -0.9340765511898468 2.5035984763123658 -0.44724050112801006 0
7905.942 -2.2542098053477124 -1.5210466716387891 -1.7649984287680898 -0.9254546246849946 2.5035984763130266 -0.44724050113003955 0
7905.9619999999995 -2.254209805349113 -1.524763280064784 -1.7700433731887628 -0.9166930718399833 2.5035984763136985 -0.4472405011321019 0
7905.982 -2.254209805350536 -1.5285391173103164 -1.775168715130083 -0.9077918926548119 2.5035984763143806 -0.4472405011341971 0
7906.0019999999995 -2.254209805351981 -1.5323741833753868 -1.7803744545920521 -0.8987510871294813 2.503598476315074 -0.4472405011363252 0
7906.022 -2.254209805353449 -1.536268478259995 -1.7856605915746702 -0.8895706552639915 2.5035984763157773 -0.4472405011384861 0
7906.0419999999995 -2.2542098053549386 -1.5402220019641408 -1.7910271260779353 -0.8802505970583416 2.503598476316492 -0.4472405011406799 0
7906.062 -2.254209805356451 -1.5442347544878245 -1.7964740581018486 -0.8707909125125326 2.503598476317217 -0.4472405011429066 0
7906.081999999999 -2.254209805357985 -1.548306735831046 -1.8020013876464107 -0.8611916016265635 2.503598476317953 -0.4472405011451661 0
7906.102 -2.254209805359542 -1.5524379459938054 -1.807609114711621 -0.8514526644004352 2.5035984763186994 -0.4472405011474585 0
7906.121999999999 -2.2542098053611213 -1.5566283849761025 -1.8132972392974782 -0.8415741008341469 2.5035984763194565 -0.44724050114978375 0
7906.142 -2.2542098053627218 -1.5608780527779373 -1.8190657614039853 -0.8315559109276993 2.5035984763202244 -0.44724050115214187 0
7906.161999999999 -2.2542098053643462 -1.5651869493993091 -1.8249146810311396 -0.8213980946810926 2.503598476321003 -0.44724050115453284 0
7906.182 -2.254209805365992 -1.5695550748402196 -1.830843998178942 -0.8111006520943258 2.5035984763217924 -0.4472405011569567 0
7906.201999999999 -2.25420980536766 -1.5739805782000573 -1.8368512004248725 -0.8006679464905302 2.5035984763225922 -0.4472405011594125 0
7906.222 -2.2542098053693334 -1.57842273966539 -1.8428810144734857 -0.790195970978564 2.5035984763233947 -0.4472405011618772 0
7906.241999999999 -2.2542098053710076 -1.5828649011307219 -1.848910828522099 -0.7797239954665978 2.5035984763241976 -0.4472405011643419 0
7906.262 -2.254209805372682 -1.5873070625960546 -1.8549406425707113 -0.7692520199546315 2.503598476325 -0.44724050116680747 0
7906.281999999999 -2.254209805374355 -1.5917492240613864 -1.8609704566193246 -0.7587800444426662 2.503598476325803 -0.44724050116927216 0
7906.302 -2.2542098053760293 -1.5961913855267191 -1.867000270667937 -0.7483080689307 2.503598476326606 -0.44724050117173686 0
7906.321999999999 -2.2542098053777035 -1.6006335469920518 -1.8730300847165502 -0.7378360934187338 2.5035984763274084 -0.44724050117420155 0
7906.342 -2.254209805379377 -1.6050757084573846 -1.8790598987651634 -0.7273641179067685 2.5035984763282113 -0.44724050117666714 0
7906.362 -2.254209805381051 -1.6095178699227164 -1.8850897128137758 -0.7168921423948023 2.5035984763290138 -0.44724050117913183 0
7906.382 -2.2542098053827253 -1.613960031388049 -1.8911195268623882 -0.706420166882836 2.5035984763298167 -0.44724050118159653 0
7906.402 -2.2542098053843986 -1.618402192853381 -1.8971493409110014 -0.6959481913708698 2.503598476330619 -0.4472405011840621 0
7906.422 -2.2542098053860737 -1.6228443543187137 -1.9031791549596146 -0.6854762158589036 2.503598476331422 -0.4472405011865268 0
7906.442 -2.254209805387747 -1.6272865157840464 -1.909208969008228 -0.6750042403469383 2.5035984763322245 -0.4472405011889915 0
7906.4619999999995 -2.2542098053894204 -1.631728677249379 -1.9152387830568403 -0.6645322648349721 2.5035984763330275 -0.4472405011914562 0
7906.482 -2.2542098053910955 -1.6361708387147118 -1.9212685971054526 -0.6540602893230059 2.50359847633383 -0.4472405011939218 0
7906.5019999999995 -2.254209805392769 -1.6406130001800436 -1.9272984111540659 -0.6435883138110405 2.503598476334633 -0.4472405011963865 0
7906.522 -2.254209805394443 -1.6450551616453764 -1.933328225202679 -0.6331163382990743 2.5035984763354353 -0.44724050119885117 0
7906.5419999999995 -2.2542098053961173 -1.6494973231107082 -1.9393580392512915 -0.6226443627871081 2.503598476336238 -0.44724050120131587 0
7906.562 -2.2542098053977906 -1.653939484576041 -1.9453878532999047 -0.6121723872751419 2.5035984763370407 -0.44724050120378145 0
7906.581999999999 -2.254209805399465 -1.6583816460413736 -1.951417667348517 -0.6017004117631757 2.5035984763378436 -0.44724050120624614 0
7906.602 -2.254209805401139 -1.6628238075067063 -1.9574474813971303 -0.5912284362512104 2.5035984763386465 -0.44724050120871084 0
7906.621999999999 -2.2542098054028123 -1.6672659689720382 -1.9634772954457436 -0.5807564607392441 2.503598476339449 -0.4472405012111764 0
7906.642 -2.2542098054044866 -1.6717081304373709 -1.969507109494356 -0.5702844852272779 2.503598476340252 -0.4472405012136411 0
7906.661999999999 -2.254209805406161 -1.6761502919027027 -1.9755369235429692 -0.5598125097153126 2.5035984763410544 -0.4472405012161058 0
7906.682 -2.254209805407834 -1.6805924533680354 -1.9815667375915815 -0.5493405342033464 2.5035984763418573 -0.4472405012185705 0
7906.701999999999 -2.254209805409509 -1.6850346148333681 -1.9875965516401948 -0.5388685586913802 2.5035984763426598 -0.4472405012210361 0
7906.722 -2.2542098054111825 -1.6894767762987 -1.9936263656888062 -0.5283965831794157 2.5035984763434627 -0.4472405012235008 0
7906.741999999999 -2.254209805412856 -1.6939189377640318 -1.9996561797374195 -0.5179246076674513 2.503598476344265 -0.4472405012259655 0
7906.762 -2.254209805414531 -1.6983610992293636 -2.005685993786031 -0.507452632155486 2.503598476345068 -0.44724050122843106 0
7906.781999999999 -2.2542098054162043 -1.7028032606946955 -2.0117158078346433 -0.49698065664352065 2.5035984763458705 -0.44724050123089576 0
7906.802 -2.2542098054178785 -1.7072454221600282 -2.0177456218832557 -0.4865086811315562 2.5035984763466734 -0.44724050123336045 0
7906.821999999999 -2.2542098054195527 -1.711687583625359 -2.023775435931868 -0.47603670561959177 2.503598476347476 -0.44724050123582515 0
7906.842 -2.254209805421226 -1.7161297450906918 -2.0298052499804804 -0.46556473010762645 2.503598476348279 -0.44724050123829073 0
7906.862 -2.2542098054229003 -1.7205719065560237 -2.035835064029092 -0.455092754595662 2.5035984763490813 -0.44724050124075543 0
7906.882 -2.2542098054245745 -1.7250140680213555 -2.0418648780777042 -0.44462077908369757 2.503598476349884 -0.4472405012432201 0
7906.902 -2.254209805426248 -1.7294562294866873 -2.0478946921263166 -0.43414880357173224 2.503598476350687 -0.4472405012456857 0
7906.922 -2.254209805427922 -1.7338983909520191 -2.053924506174929 -0.4236768280597669 2.5035984763514896 -0.4472405012481504 0
7906.942 -2.2542098054295963 -1.7383405524173519 -2.0599543202235413 -0.4132048525478025 2.5035984763522925 -0.4472405012506151 0
7906.9619999999995 -2.2542098054312696 -1.7427827138826828 -2.0659841342721528 -0.40273287703583804 2.503598476353095 -0.4472405012530798 0
7906.982 -2.254209805432944 -1.7472248753480155 -2.072013948320766 -0.3922609015238727 2.503598476353898 -0.4472405012555454 0
7907.0019999999995 -2.254209805434618 -1.7516670368133473 -2.0780437623693775 -0.3817889260119083 2.5035984763547003 -0.44724050125801007 0
7907.022 -2.2542098054362913 -1.7561091982786792 -2.08407357641799 -0.37131695049994384 2.5035984763555033 -0.44724050126047477 0
7907.0419999999995 -2.2542098054379665 -1.760551359744011 -2.090103390466602 -0.3608449749879785 2.5035984763563057 -0.44724050126293946 0
7907.062 -2.25420980543964 -1.7649935212093428 -2.0961332045152146 -0.3503729994760132 2.5035984763571086 -0.44724050126540504 0
7907.081999999999 -2.254209805441314 -1.7694356826746747 -2.102163018563827 -0.33990102396404875 2.503598476357911 -0.44724050126786974 0
7907.102 -2.254209805442988 -1.7738778441400065 -2.1081928326124384 -0.3294290484520843 2.503598476358714 -0.44724050127033443 0
7907.121999999999 -2.2542098054446615 -1.7783200056053392 -2.1142226466610508 -0.318957072940119 2.5035984763595165 -0.4472405012728 0
7907.142 -2.2542098054463358 -1.7827621670706701 -2.120252460709663 -0.30848509742815455 2.5035984763603194 -0.4472405012752647 0
7907.161999999999 -2.25420980544801 -1.7872043285360029 -2.1262822747582755 -0.2980131219161892 2.503598476361122 -0.4472405012777294 0
7907.182 -2.2542098054496833 -1.7916464900013347 -2.132312088806888 -0.2875411464042248 2.503598476361925 -0.4472405012801941 0
7907.201999999999 -2.2542098054513575 -1.7960886514666665 -2.1383419028554993 -0.27706917089225946 2.5035984763627277 -0.4472405012826597 0
7907.222 -2.2542098054530317 -1.8005308129319983 -2.1443717169041125 -0.266597195380295 2.50359847636353 -0.4472405012851244 0
7907.241999999999 -2.254209805454705 -1.8049729743973302 -2.150401530952724 -0.2561252198683306 2.503598476364333 -0.4472405012875891 0
7907.262 -2.2542098054563793 -1.809415135862663 -2.1564313450013364 -0.24565324435636526 2.5035984763651356 -0.44724050129005377 0
7907.281999999999 -2.2542098054580535 -1.8138572973279938 -2.1624611590499487 -0.23518126884440083 2.5035984763659385 -0.44724050129251935 0
7907.302 -2.254209805459727 -1.8182994587933266 -2.16849097309856 -0.2247092933324355 2.503598476366741 -0.44724050129498405 0
7907.321999999999 -2.254209805461402 -1.8227416202586584 -2.1745207871471735 -0.21423731782047106 2.503598476367544 -0.44724050129744874 0
7907.342 -2.2542098054630753 -1.8271837817239902 -2.180550601195785 -0.20376534230850574 2.5035984763683463 -0.44724050129991433 0
7907.362 -2.2542098054647486 -1.831625943189322 -2.1865804152443973 -0.1932933667965413 2.5035984763691492 -0.447240501302379 0
7907.382 -2.2542098054664237 -1.8360681046546539 -2.1926102292930096 -0.18282139128457686 2.5035984763699517 -0.4472405013048437 0
7907.402 -2.254209805468097 -1.8405102661199866 -2.198640043341622 -0.17234941577261154 2.5035984763707546 -0.4472405013073093 0
7907.422 -2.2542098054697712 -1.8449524275853175 -2.2046698573902344 -0.1618774402606471 2.503598476371557 -0.447240501309774 0
7907.442 -2.2542098054714454 -1.8493945890506502 -2.210699671438846 -0.15140546474868177 2.50359847637236 -0.4472405013122387 0
7907.4619999999995 -2.2542098054731188 -1.853836750515982 -2.216729485487458 -0.14093348923671734 2.5035984763731625 -0.4472405013147034 0
7907.482 -2.254209805474793 -1.858278911981314 -2.2227592995360705 -0.130461513724752 2.5035984763739654 -0.44724050131716897 0
7907.5019999999995 -2.254209805476467 -1.8627210734466457 -2.228789113584683 -0.11998953821278757 2.5035984763747683 -0.44724050131963367 0
7907.522 -2.2542098054781405 -1.8671632349119776 -2.2348189276332953 -0.10951756270082313 2.5035984763755708 -0.44724050132209836 0
7907.5419999999995 -2.2542098054798148 -1.8716053963773094 -2.2408487416819067 -0.09904558718885781 2.5035984763763737 -0.44724050132456306 0
7907.562 -2.254209805481489 -1.8760475578426412 -2.24687855573052 -0.08857361167689337 2.503598476377176 -0.44724050132702864 0
7907.581999999999 -2.2542098054831623 -1.880489719307974 -2.2529083697791314 -0.07810163616492805 2.503598476377979 -0.44724050132949333 0
7907.602 -2.2542098054848374 -1.8849318807733049 -2.258938183827744 -0.06762966065296361 2.5035984763787815 -0.44724050133195803 0
7907.621999999999 -2.2542098054865107 -1.8893740422386376 -2.264967997876356 -0.05715768514099828 2.5035984763795844 -0.4472405013344236 0
7907.642 -2.254209805488184 -1.8938162037039694 -2.2709978119249685 -0.046685709629033845 2.503598476380387 -0.4472405013368883 0
7907.661999999999 -2.254209805489859 -1.8982583651693012 -2.277027625973581 -0.03621373411706941 2.50359847638119 -0.447240501339353 0
7907.682 -2.2542098054915325 -1.902700526634633 -2.2830574400221924 -0.02574175860510408 2.5035984763819923 -0.4472405013418177 0
7907.701999999999 -2.254209805493203 -1.9071339492730495 -2.289075391939787 -0.01529038405106764 2.5035984763827934 -0.44724050134427795 0
7907.722 -2.2542098054948543 -1.911514322102831 -2.295021333759621 -0.004964069403403215 2.503598476383585 -0.4472405013467089 0
7907.741999999999 -2.2542098054964823 -1.9158354661130748 -2.300886878058807 0.005222618904099363 2.503598476384366 -0.447240501349107 0
7907.762 -2.254209805498088 -1.9200973813037798 -2.3066720248373453 0.015269680871444313 2.503598476385136 -0.4472405013514713 0
7907.781999999999 -2.2542098054996718 -1.924300067674947 -2.3123767740952346 0.025177116498629637 2.5035984763858954 -0.44724050135380367 0
7907.802 -2.254209805501233 -1.9284435252265775 -2.318001125832476 0.034944925785654224 2.5035984763866446 -0.44724050135610316 0
7907.821999999999 -2.2542098055027724 -1.93252775395867 -2.32354508004907 0.04457310873252052 2.503598476387382 -0.4472405013583689 0
7907.842 -2.2542098055042885 -1.936552753871224 -2.329008636745015 0.05406166533922696 2.5035984763881096 -0.44724050136060267 0
7907.862 -2.254209805505784 -1.9405185249642418 -2.334391795920312 0.06341059560577333 2.5035984763888264 -0.4472405013628027 0
7907.882 -2.254209805507255 -1.9444250672377201 -2.339694557574961 0.07261989953216075 2.5035984763895325 -0.44724050136497073 0
7907.902 -2.2542098055087054 -1.9482723806916615 -2.3449169217089616 0.08168957711838898 2.5035984763902275 -0.4472405013671059 0
7907.922 -2.2542098055101327 -1.9520604653260651 -2.350058888322314 0.09061962836445647 2.503598476390912 -0.44724050136920734 0
7907.942 -2.254209805511538 -1.955789321140931 -2.3551204574150186 0.09941005327036567 2.5035984763915855 -0.4472405013712768 0
7907.9619999999995 -2.2542098055129216 -1.959458948136259 -2.360101628987075 0.10806085183611502 2.503598476392249 -0.4472405013733134 0
7907.982 -2.2542098055142814 -1.9630693463120483 -2.365002403038483 0.1165720240617043 2.503598476392901 -0.44724050137531624 0
7908.0019999999995 -2.25420980551562 -1.9666205156683016 -2.3698227795692435 0.12494356994713463 2.503598476393543 -0.4472405013772871 0
7908.022 -2.254209805516936 -1.9701124562050172 -2.374562758579355 0.13317548949240576 2.5035984763941737 -0.4472405013792251 0
7908.0419999999995 -2.2542098055182294 -1.9735451679221931 -2.379222340068819 0.14126778269751616 2.503598476394794 -0.44724050138112936 0
7908.062 -2.2542098055195003 -1.976918650819833 -2.3838015240376347 0.14922044956246827 2.503598476395404 -0.44724050138300164 0
7908.081999999999 -2.25420980552075 -1.9802329048979344 -2.3883003104858016 0.15703349008726053 2.503598476396003 -0.4472405013848402 0
7908.102 -2.2542098055219757 -1.9834879301564978 -2.3927186994133214 0.16470690427189272 2.5035984763965913 -0.4472405013866467 0
7908.121999999999 -2.25420980552318 -1.9866837265955244 -2.3970566908201922 0.17224069211636595 2.503598476397168 -0.4472405013884204 0
7908.142 -2.2542098055243622 -1.9898202942150123 -2.401314284706415 0.17963485362068 2.5035984763977353 -0.44724050139016036 0
7908.161999999999 -2.254209805525522 -1.9928976330149624 -2.40549148107199 0.18688938878483352 2.5035984763982913 -0.44724050139186833 0
7908.182 -2.254209805526659 -1.9959157429953756 -2.409588279916916 0.1940042976088283 2.5035984763988366 -0.44724050139354254 0
7908.201999999999 -2.2542098055277737 -1.99887462415625 -2.4136046812411953 0.20097958009266348 2.5035984763993713 -0.4472405013951848 0
7908.222 -2.254209805528866 -2.0017742764975877 -2.417540685044825 0.20781523623633857 2.5035984763998953 -0.44724050139679417 0
7908.241999999999 -2.2542098055299373 -2.0046147000193875 -2.421396291327807 0.21451126603985493 2.5035984764004082 -0.4472405013983698 0
7908.262 -2.2542098055309854 -2.0073958947216486 -2.4251715000901415 0.22106766950321077 2.5035984764009114 -0.44724050139991345 0
7908.281999999999 -2.2542098055320112 -2.010117860604373 -2.428866311331827 0.22748444662640788 2.503598476401403 -0.44724050140142335 0
7908.302 -2.254209805533015 -2.0127805976675592 -2.432480725052865 0.2337615974094458 2.5035984764018844 -0.4472405014029013 0
7908.321999999999 -2.2542098055339954 -2.015384105911208 -2.4360147412532545 0.2398991218523232 2.5035984764023542 -0.44724050140434546 0
7908.342 -2.2542098055349546 -2.0179283853353187 -2.4394683599329956 0.24589701995504187 2.5035984764028143 -0.44724050140575766 0
7908.362 -2.254209805535891 -2.020413435939891 -2.442841581092089 0.2517552917176009 2.5035984764032633 -0.447240501407137 0
7908.382 -2.2542098055368047 -2.022839257724926 -2.4461344047305342 0.2574739371399999 2.5035984764037016 -0.4472405014084826 0
7908.402 -2.2542098055376965 -2.0252058506904236 -2.449346830848331 0.2630529562222401 2.5035984764041297 -0.4472405014097962 0
7908.422 -2.254209805538567 -2.0275132148363832 -2.45247885944548 0.2684923489643207 2.5035984764045462 -0.4472405014110761 0
7908.442 -2.2542098055394133 -2.029761350162806 -2.4555304905219804 0.2737921153662408 2.5035984764049526 -0.44724050141232397 0
7908.4619999999995 -2.2542098055402384 -2.03195025666969 -2.458501724077833 0.2789522554280026 2.503598476405348 -0.4472405014135381 0
7908.482 -2.2542098055410413 -2.0340799343570364 -2.461392560113037 0.2839727691496048 2.5035984764057333 -0.44724050141472027 0
7908.5019999999995 -2.254209805541821 -2.036150383224845 -2.4642029986275933 0.28885365653104644 2.5035984764061068 -0.4472405014158687 0
7908.522 -2.2542098055425788 -2.0381616032731156 -2.4669330396215017 0.29359491757232936 2.5035984764064705 -0.4472405014169851 0
7908.5419999999995 -2.254209805543315 -2.0401135945018494 -2.469582683094761 0.29819655227345354 2.503598476406823 -0.4472405014180678 0
7908.562 -2.2542098055440274 -2.0420063569110445 -2.4721519290473726 0.3026585606344163 2.5035984764071655 -0.44724050141911853 0
7908.581999999999 -2.2542098055447184 -2.043839890500702 -2.4746407774793364 0.30698094265522125 2.5035984764074963 -0.4472405014201355 0
7908.602 -2.254209805545387 -2.045614195270822 -2.4770492283906522 0.31116369833586566 2.5035984764078174 -0.4472405014211205 0
7908.621999999999 -2.254209805546034 -2.047329271221404 -2.4793772817813187 0.3152068276763509 2.503598476408127 -0.4472405014220717 0
7908.642 -2.2542098055466573 -2.048985118352449 -2.481624937651338 0.3191103306766765 2.5035984764084263 -0.447240501422991 0
7908.661999999999 -2.2542098055472595 -2.050581736663956 -2.4837921960007088 0.32287420733684336 2.5035984764087145 -0.4472405014238765 0
7908.682 -2.2542098055478395 -2.052119126155924 -2.4858790568294316 0.3264984576568488 2.5035984764089925 -0.44724050142473004 0
7908.701999999999 -2.2542098055483955 -2.0535972868283547 -2.4878855201375067 0.3299830816366969 2.50359847640926 -0.44724050142554983 0
7908.722 -2.25420980554893 -2.0550162186812493 -2.4898115859249335 0.33332807927638397 2.503598476409516 -0.44724050142633764 0
7908.741999999999 -2.2542098055494426 -2.0563759217146043 -2.4916572541917112 0.33653345057591233 2.503598476409762 -0.4472405014270917 0
7908.762 -2.254209805549933 -2.0576763959284223 -2.4934225249378414 0.3395991955352815 2.503598476409997 -0.4472405014278138 0
7908.781999999999 -2.254209805550401 -2.0589176413227026 -2.495107398163323 0.3425253141544897 2.5035984764102213 -0.44724050142850214 0
7908.802 -2.254209805550846 -2.060099657897445 -2.496711873868157 0.34531180643353965 2.503598476410435 -0.4472405014291585 0
7908.821999999999 -2.2542098055512696 -2.06122244565265 -2.4982359520523425 0.34795867237242994 2.503598476410638 -0.4472405014297811 0
7908.842 -2.25420980555167 -2.0622860045883167 -2.49967963271588 0.35046591197116017 2.5035984764108297 -0.44724050143037175 0
7908.862 -2.2542098055520476 -2.063290334704446 -2.50104291585877 0.3528335252297312 2.5035984764110113 -0.44724050143092864 0
7908.882 -2.2542098055524047 -2.064235436001037 -2.5023258014810112 0.3550615121481431 2.503598476411182 -0.44724050143145355 0
7908.902 -2.2542098055527386 -2.0651213084780906 -2.5035282895826048 0.3571498727263944 2.503598476411342 -0.4472405014319447 0
7908.922 -2.2542098055530495 -2.0659479521356063 -2.5046503801635494 0.3590986069644875 2.5035984764114914 -0.4472405014324039 0
7908.942 -2.254209805553339 -2.0667153669735843 -2.505692073223846 0.36090771486242046 2.5035984764116304 -0.44724050143282934 0
7908.9619999999995 -2.2542098055536055 -2.0674235529920253 -2.5066533687634944 0.36257719642019337 2.503598476411758 -0.4472405014332228 0
7908.982 -2.2542098055538506 -2.0680725101909276 -2.507534266782495 0.36410705163780754 2.5035984764118755 -0.4472405014335825 0
7909.0019999999995 -2.2542098055540727 -2.068662238570292 -2.508334767280847 0.36549728051526253 2.503598476411982 -0.44724050143390937 0
7909.022 -2.2542098055542725 -2.06919273813012 -2.509054870258551 0.36674788305255657 2.503598476412078 -0.44724050143420424 0
7909.0419999999995 -2.25420980555445 -2.069664008870409 -2.509694575715607 0.3678588592496923 2.5035984764121633 -0.44724050143446537 0
7909.062 -2.2542098055546056 -2.070076050791161 -2.510253883652015 0.3688302091066684 2.5035984764122374 -0.4472405014346945 0
7909.081999999999 -2.254209805554739 -2.0704288638923742 -2.510732794067775 0.36966193262348446 2.5035984764123014 -0.4472405014348899 0
7909.102 -2.254209805554849 -2.0707224481740507 -2.511131306962887 0.3703540298001413 2.5035984764123542 -0.44724050143505245 0
7909.121999999999 -2.2542098055549378 -2.0709568036361885 -2.5114494223373502 0.370906500636639 2.503598476412397 -0.447240501435183 0
7909.142 -2.2542098055550035 -2.0711319302787894 -2.5116871401911656 0.37131934513297615 2.5035984764124284 -0.4472405014352798 0
7909.161999999999 -2.254209805555047 -2.0712478281018525 -2.511844460524332 0.371592563289155 2.5035984764124493 -0.44724050143534466 0
7909.182 -2.2542098055550683 -2.071304497105377 -2.511921383336851 0.3717261551051738 2.5035984764124595 -0.44724050143537575 0
7909.201999999999 -2.254209805555071 -2.07131067611628 -2.5119297707597394 0.371740721538961 2.5035984764124604 -0.4472405014353793 0
7909.222 -2.254209805555071 -2.07131067611628 -2.5119297707597394 0.371740721538961 2.5035984764124604 -0.4472405014353793 0
7909.241999999999 -2.254209805555071 -2.07131067611628 -2.5119297707597394 0.371740721538961 2.5035984764124604 -0.4472405014353793 0
7909.262 -2.254209805555071 -2.07131067611628 -2.5119297707597394 0.371740721538961 2.5035984764124604 -0.4472405014353793 0
7909.281999999999 -2.254209805555071 -2.07131067611628 -2.5119297707597394 0.371740721538961 2.5035984764124604 -0.4472405014353793 0
7909.302 -2.254209805555071 -2.07131067611628 -2.5119297707597394 0.371740721538961 2.5035984764124604 -0.4472405014353793 0
7909.321999999999 -2.254209805555071 -2.07131067611628 -2.5119297707597394 0.371740721538961 2.5035984764124604 -0.4472405014353793 0
7909.342 -2.254209805555071 -2.07131067611628 -2.5119297707597394 0.371740721538961 2.5035984764124604 -0.4472405014353793 0
7909.362 -2.254209805555071 -2.07131067611628 -2.5119297707597394 0.371740721538961 2.5035984764124604 -0.4472405014353793 0
7909.382 -2.254209805555071 -2.07131067611628 -2.5119297707597394 0.371740721538961 2.5035984764124604 -0.4472405014353793 0
7909.402 -2.254209805555071 -2.07131067611628 -2.5119297707597394 0.371740721538961 2.5035984764124604 -0.4472405014353793 0
7909.422 -2.254209805555071 -2.07131067611628 -2.5119297707597394 0.371740721538961 2.5035984764124604 -0.4472405014353793 0
7909.442 -2.254209805555071 -2.07131067611628 -2.5119297707597394 0.371740721538961 2.5035984764124604 -0.4472405014353793 0
7909.4619999999995 -2.254209805555071 -2.07131067611628 -2.5119297707597394 0.371740721538961 2.5035984764124604 -0.4472405014353793 0
7909.482 -2.254209805555071 -2.07131067611628 -2.5119297707597394 0.371740721538961 2.5035984764124604 -0.4472405014353793 0
7909.5019999999995 -2.254209805555071 -2.07131067611628 -2.5119297707597394 0.371740721538961 2.5035984764124604 -0.4472405014353793 0
7909.522 -2.254209805555071 -2.07131067611628 -2.5119297707597394 0.371740721538961 2.5035984764124604 -0.4472405014353793 0
7909.5419999999995 -2.254209805555071 -2.07131067611628 -2.5119297707597394 0.371740721538961 2.5035984764124604 -0.4472405014353793 0
7909.562 -2.254209805555071 -2.07131067611628 -2.5119297707597394 0.371740721538961 2.5035984764124604 -0.4472405014353793 0
7909.581999999999 -2.254209805555071 -2.07131067611628 -2.5119297707597394 0.371740721538961 2.5035984764124604 -0.4472405014353793 0
7909.602 -2.254209805555071 -2.07131067611628 -2.5119297707597394 0.371740721538961 2.5035984764124604 -0.4472405014353793 0
7909.621999999999 -2.254209805555071 -2.07131067611628 -2.5119297707597394 0.371740721538961 2.5035984764124604 -0.4472405014353793 0
7909.642 -2.254209805555071 -2.07131067611628 -2.5119297707597394 0.371740721538961 2.5035984764124604 -0.4472405014353793 0
7909.661999999999 -2.254209805555071 -2.07131067611628 -2.5119297707597394 0.371740721538961 2.5035984764124604 -0.4472405014353793 0
7909.682 -2.254209805555071 -2.07131067611628 -2.5119297707597394 0.371740721538961 2.5035984764124604 -0.4472405014353793 0
7909.701999999999 -2.254209805555071 -2.07131067611628 -2.5119297707597394 0.371740721538961 2.5035984764124604 -0.4472405014353793 0
7909.722 -2.254209805555071 -2.07131067611628 -2.5119297707597394 0.371740721538961 2.5035984764124604 -0.4472405014353793 0
7909.741999999999 -2.254209805555071 -2.07131067611628 -2.5119297707597394 0.371740721538961 2.5035984764124604 -0.4472405014353793 0
7909.762 -2.254209805555071 -2.07131067611628 -2.5119297707597394 0.371740721538961 2.5035984764124604 -0.4472405014353793 0
7909.781999999999 -2.254209805555071 -2.07131067611628 -2.5119297707597394 0.371740721538961 2.5035984764124604 -0.4472405014353793 0
7909.802 -2.254209805555071 -2.07131067611628 -2.5119297707597394 0.371740721538961 2.5035984764124604 -0.4472405014353793 0
7909.821999999999 -2.254209805555071 -2.07131067611628 -2.5119297707597394 0.371740721538961 2.5035984764124604 -0.4472405014353793 0
7909.842 -2.254209805555071 -2.07131067611628 -2.5119297707597394 0.371740721538961 2.5035984764124604 -0.4472405014353793 0
7909.862 -2.254209805555071 -2.07131067611628 -2.5119297707597394 0.371740721538961 2.5035984764124604 -0.4472405014353793 0
7909.882 -2.254209805555071 -2.07131067611628 -2.5119297707597394 0.371740721538961 2.5035984764124604 -0.4472405014353793 0
7909.902 -2.254209805555071 -2.07131067611628 -2.5119297707597394 0.371740721538961 2.5035984764124604 -0.4472405014353793 0
7909.922 -2.254209805555071 -2.07131067611628 -2.5119297707597394 0.371740721538961 2.5035984764124604 -0.4472405014353793 0
7909.942 -2.254209805555071 -2.07131067611628 -2.5119297707597394 0.371740721538961 2.5035984764124604 -0.4472405014353793 0
7909.9619999999995 -2.254209805555071 -2.07131067611628 -2.5119297707597394 0.371740721538961 2.5035984764124604 -0.4472405014353793 0
7909.982 -2.254209805555071 -2.07131067611628 -2.5119297707597394 0.371740721538961 2.5035984764124604 -0.4472405014353793 0
7910.0019999999995 -2.254209805555071 -2.07131067611628 -2.5119297707597394 0.371740721538961 2.5035984764124604 -0.4472405014353793 0
7910.022 -2.254209805555071 -2.07131067611628 -2.5119297707597394 0.371740721538961 2.5035984764124604 -0.4472405014353793 0
7910.0419999999995 -2.254209805555071 -2.07131067611628 -2.5119297707597394 0.371740721538961 2.5035984764124604 -0.4472405014353793 0
7910.062 -2.254209805555071 -2.07131067611628 -2.5119297707597394 0.371740721538961 2.5035984764124604 -0.4472405014353793 0
7910.081999999999 -2.254209805555071 -2.07131067611628 -2.5119297707597394 0.371740721538961 2.5035984764124604 -0.4472405014353793 0
7910.102 -2.254209805555071 -2.07131067611628 -2.5119297707597394 0.371740721538961 2.5035984764124604 -0.4472405014353793 0
7910.121999999999 -2.254209805555071 -2.07131067611628 -2.5119297707597394 0.371740721538961 2.5035984764124604 -0.4472405014353793 0
7910.142 -2.254209805555071 -2.07131067611628 -2.5119297707597394 0.371740721538961 2.5035984764124604 -0.4472405014353793 0
7910.161999999999 -2.254209805555071 -2.07131067611628 -2.5119297707597394 0.371740721538961 2.5035984764124604 -0.4472405014353793 0
7910.182 -2.254209805555071 -2.07131067611628 -2.5119297707597394 0.371740721538961 2.5035984764124604 -0.4472405014353793 0
7910.201999999999 -2.254209805555071 -2.07131067611628 -2.5119297707597394 0.371740721538961 2.5035984764124604 -0.4472405014353793 0
7910.222 -2.254209805555071 -2.07131067611628 -2.5119297707597394 0.371740721538961 2.5035984764124604 -0.4472405014353793 0
7910.241999999999 -2.254209805555071 -2.07131067611628 -2.5119297707597394 0.371740721538961 2.5035984764124604 -0.4472405014353793 0
7910.262 -2.254209805555071 -2.07131067611628 -2.5119297707597394 0.371740721538961 2.5035984764124604 -0.4472405014353793 0
7910.281999999999 -2.254209805555071 -2.07131067611628 -2.5119297707597394 0.371740721538961 2.5035984764124604 -0.4472405014353793 0
7910.302 -2.254209805555071 -2.07131067611628 -2.5119297707597394 0.371740721538961 2.5035984764124604 -0.4472405014353793 0
7910.321999999999 -2.254209805555071 -2.07131067611628 -2.5119297707597394 0.371740721538961 2.5035984764124604 -0.4472405014353793 0
7910.342 -2.254209805555071 -2.07131067611628 -2.5119297707597394 0.371740721538961 2.5035984764124604 -0.4472405014353793 0
