Andreas691667/Digital_Twin_UR/src/controller_monitor/test_results/test_motion1.csv
timestamp actual_q_0 actual_q_1 actual_q_2 actual_q_3 actual_q_4 actual_q_5 output_bit_register_65 output_bit_register_66
3850.5629999999996 0.6540530920028687 -1.7662846050658167 -1.497191071510315 -1.441430391078331 1.5623809099197388 0.363648921251297 False False
3850.5829999999996 0.6540124416351318 -1.766264101068014 -1.4971704483032227 -1.4414426696351548 1.5624645948410034 0.3636355400085449 False False
3850.6029999999996 0.6540573835372925 -1.7662683926024378 -1.4972035884857178 -1.4414099913886567 1.5624364614486694 0.3636400103569031 False False
3850.623 0.6539639234542847 -1.7662526569762171 -1.4971661567687988 -1.4414464098266144 1.5624325275421143 0.36366117000579834 False False
3850.643 0.6539962291717529 -1.7662846050658167 -1.4971380233764648 -1.4414665561965485 1.5624487400054932 0.36366409063339233 False False
3850.663 0.6540038585662842 -1.7662121258177699 -1.4971952438354492 -1.4413906347802659 1.5624569654464722 0.36364445090293884 False False
3850.683 0.6540855169296265 -1.7662607632079066 -1.4971542358398438 -1.4414140743068238 1.5624243021011353 0.36363252997398376 False False
3850.703 0.6539994478225708 -1.766245027581686 -1.4972209930419922 -1.4413899195245286 1.562380313873291 0.36364445090293884 False False
3850.723 0.6540243625640869 -1.7662769756712855 -1.4971054792404175 -1.4414223295501252 1.562416911125183 0.3636072278022766 False False
3850.743 0.6540156006813049 -1.7662526569762171 -1.4971704483032227 -1.441342369919159 1.562493085861206 0.3636939227581024 False False
3850.763 0.6540443897247314 -1.7662769756712855 -1.4971294403076172 -1.4413980704597016 1.5624325275421143 0.3636355698108673 False False
3850.783 0.6539991497993469 -1.7662526569762171 -1.4971866607666016 -1.4413946282914658 1.5624446868896484 0.36363255977630615 False False
3850.803 0.6540370583534241 -1.7662807903685511 -1.4971542358398438 -1.4413623374751587 1.562392234802246 0.3636775314807892 False False
3850.823 0.6540459394454956 -1.7662483654417933 -1.4971542358398438 -1.4413946729949494 1.5624005794525146 0.3636355400085449 False False
3850.843 0.6539782881736755 -1.7663170299925746 -1.4971661567687988 -1.4414951217225571 1.5624446868896484 0.36360281705856323 False False
3850.863 0.6540154814720154 -1.7662683926024378 -1.4971997737884521 -1.4414102894118805 1.562400460243225 0.363631010055542 False False
3850.883 0.6539874076843262 -1.7662726841368617 -1.49714994430542 -1.4414140445045014 1.56242835521698 0.3635488450527191 False False
3850.903 0.6540066003799438 -1.7662083111205042 -1.4971411228179932 -1.4414022278836747 1.562392234802246 0.36361613869667053 False False
3850.923 0.6539619565010071 -1.7662607632079066 -1.4971380233764648 -1.4414426398328324 1.5623805522918701 0.3636280596256256 False False
3850.9429999999998 0.6539917588233948 -1.7662726841368617 -1.4971380233764648 -1.4414467078498383 1.562476634979248 0.3635953366756439 False False
3850.9629999999997 0.6540200710296631 -1.7662812672057093 -1.4971704483032227 -1.4414185148528595 1.5624165534973145 0.3636775016784668 False False
3850.9829999999997 0.6540421843528748 -1.766317983666891 -1.497157335281372 -1.4413747054389496 1.56242835521698 0.36359086632728577 False False
3851.0029999999997 0.6540279984474182 -1.766224046746725 -1.4971991777420044 -1.4414827835610886 1.5623763799667358 0.363607257604599 False False
3851.0229999999997 0.6540244817733765 -1.7662846050658167 -1.4971542358398438 -1.4414222699454804 1.5624165534973145 0.3636488914489746 False False
3851.0429999999997 0.6539990901947021 -1.7663294277586878 -1.4971628189086914 -1.441406325703003 1.5623682737350464 0.36363697052001953 False False
3851.0629999999996 0.6539872884750366 -1.7662769756712855 -1.4971661567687988 -1.4413866114667435 1.5624407529830933 0.36365222930908203 False False
3851.0829999999996 0.6540414690971375 -1.7662483654417933 -1.4971054792404175 -1.441462592487671 1.56242835521698 0.36365222930908203 False False
3851.1029999999996 0.654008150100708 -1.7663094005980433 -1.4970924854278564 -1.4414385867169877 1.562444806098938 0.36365222930908203 False False
3851.123 0.6539739370346069 -1.7662121258177699 -1.49714994430542 -1.441402257685997 1.5623927116394043 0.36365222930908203 False False
3851.143 0.6539873480796814 -1.7662693462767542 -1.497145652770996 -1.4414102894118805 1.5624287128448486 0.3636399805545807 False False
3851.163 0.6540244817733765 -1.7662369213499964 -1.4971249103546143 -1.4413981598666687 1.5623964071273804 0.3636399805545807 False False
3851.183 0.6540021300315857 -1.766245027581686 -1.49714994430542 -1.4414102894118805 1.5624122619628906 0.3636280596256256 False False
3851.203 0.6540324687957764 -1.7662598095335902 -1.4971661567687988 -1.4413747501424332 1.5624330043792725 0.3636265695095062 False False
3851.223 0.6539918184280396 -1.7663170299925746 -1.4971704483032227 -1.4414262187531968 1.562472939491272 0.3636399507522583 False False
3851.243 0.6539901494979858 -1.7662726841368617 -1.497161865234375 -1.4414222848466416 1.5624243021011353 0.36366552114486694 False False
3851.263 0.6540214419364929 -1.7662888966002406 -1.4971866607666016 -1.441394643192627 1.5624606609344482 0.3636849820613861 False False
3851.283 0.6540488600730896 -1.7662807903685511 -1.497161865234375 -1.4414023023894806 1.5624046325683594 0.3636476993560791 False False
3851.303 0.6540244817733765 -1.7662493191161097 -1.4971693754196167 -1.4414183807424088 1.56242835521698 0.3636280298233032 False False
3851.323 0.6539873480796814 -1.7663012943663539 -1.4971823692321777 -1.4414027643254776 1.5624406337738037 0.3636310398578644 False False
3851.343 0.6540154814720154 -1.7662526569762171 -1.4971909523010254 -1.4414222550443192 1.562472939491272 0.36361920833587646 False False
3851.363 0.6539664268493652 -1.7662931881346644 -1.4971661567687988 -1.4414464247277756 1.5624206066131592 0.3636399507522583 False False
3851.383 0.6540126204490662 -1.7662726841368617 -1.4971909523010254 -1.441454441552498 1.5624529123306274 0.36362361907958984 False False
3851.403 0.6540154814720154 -1.7662526569762171 -1.4971054792404175 -1.441382796769478 1.5624648332595825 0.36364439129829407 False False
3851.423 0.6540109515190125 -1.7662888966002406 -1.497178077697754 -1.441414238219597 1.5624325275421143 0.36361467838287354 False False
3851.4429999999998 0.654033362865448 -1.7662283382811488 -1.4971790313720703 -1.4413505804589768 1.562436580657959 0.3636028468608856 False False
3851.4629999999997 0.6540244817733765 -1.7662283382811488 -1.4971704483032227 -1.441382647757866 1.5623962879180908 0.3636432886123657 False False
3851.4829999999997 0.6539990901947021 -1.7662121258177699 -1.4971704483032227 -1.4413826924613495 1.5624812841415405 0.3636355400085449 False False
3851.5029999999997 0.6539990901947021 -1.766285081902975 -1.497161865234375 -1.4413867604783555 1.5624446868896484 0.3636566996574402 False False
3851.5229999999997 0.6540324091911316 -1.7662564716734828 -1.4971542358398438 -1.4414423567107697 1.5624570846557617 0.3636399805545807 False False
3851.5429999999997 0.6540200710296631 -1.7662726841368617 -1.4971824884414673 -1.441414163713791 1.5623964071273804 0.36368489265441895 False False
3851.5629999999996 0.6540200710296631 -1.7662683926024378 -1.4971734285354614 -1.4414141786149521 1.5624127388000488 0.3636610209941864 False False
3851.5829999999996 0.6539560556411743 -1.7662526569762171 -1.497117042541504 -1.441370890741684 1.5624446868896484 0.36361026763916016 False False
3851.6029999999996 0.654033362865448 -1.766264101068014 -1.497221827507019 -1.4414102149060746 1.5624127388000488 0.36364877223968506 False False
3851.623 0.6539873480796814 -1.7662536106505335 -1.4971259832382202 -1.441394643192627 1.5624123811721802 0.36361610889434814 False False
3851.643 0.654008150100708 -1.7662526569762171 -1.4971452951431274 -1.4414222103408356 1.5624042749404907 0.36361920833587646 False False
3851.663 0.6540036797523499 -1.7662483654417933 -1.4971750974655151 -1.4414300334504624 1.5623964071273804 0.3636399507522583 False False
3851.683 0.6539826989173889 -1.7662807903685511 -1.49716317653656 -1.4414141935161133 1.562461018562317 0.3636280298233032 False False
3851.703 0.6540488600730896 -1.7662846050658167 -1.497146725654602 -1.441390798693039 1.562408685684204 0.36355656385421753 False False
3851.723 0.6540324687957764 -1.7662245235838832 -1.4971498250961304 -1.441438378100731 1.5624648332595825 0.363656610250473 False False
3851.743 0.6540244817733765 -1.7662693462767542 -1.4971333742141724 -1.4413983535817643 1.5624165534973145 0.3636280298233032 False False
3851.763 0.6540109515190125 -1.7662726841368617 -1.4971661567687988 -1.4413749140552063 1.5624001026153564 0.36362358927726746 False False
3851.783 0.654041588306427 -1.766285081902975 -1.4971379041671753 -1.4414103043130417 1.5624123811721802 0.3636443316936493 False False
3851.803 0.654041588306427 -1.7662483654417933 -1.4971661567687988 -1.4414467227509995 1.5624165534973145 0.36361920833587646 False False
3851.823 0.6540036797523499 -1.7662326298155726 -1.4971870183944702 -1.441446678047516 1.56242835521698 0.3636029064655304 False False
3851.843 0.654008150100708 -1.7662650547423304 -1.4971007108688354 -1.4414386463216324 1.562408208847046 0.3636399507522583 False False
3851.863 0.6539990305900574 -1.7662564716734828 -1.4971914291381836 -1.4414263379624863 1.5624569654464722 0.3636310398578644 False False
3851.883 0.6540324091911316 -1.7662726841368617 -1.4971452951431274 -1.4414140594056626 1.5624488592147827 0.36365219950675964 False False
3851.903 0.6540414690971375 -1.7661825619139613 -1.4971705675125122 -1.4414303761771698 1.5624325275421143 0.36361169815063477 False False
3851.923 0.6540371179580688 -1.7662207088866175 -1.4971661567687988 -1.4414509248784562 1.5624406337738037 0.36361920833587646 False False
3851.9429999999998 0.6540154218673706 -1.766308446923727 -1.4972292184829712 -1.4414585691741486 1.5624730587005615 0.3636355400085449 False False
3851.9629999999997 0.6540245413780212 -1.7663098774352015 -1.4971542358398438 -1.441398711209633 1.56242835521698 0.36362671852111816 False False
3851.9829999999997 0.6540371179580688 -1.7662564716734828 -1.4971750974655151 -1.4414263230613251 1.5624046325683594 0.36360734701156616 False False
3852.0029999999997 0.6540245413780212 -1.766243120233053 -1.4971095323562622 -1.441478655939438 1.5624406337738037 0.3636191785335541 False False
3852.0229999999997 0.6539798974990845 -1.7662769756712855 -1.4971750974655151 -1.4413746458343049 1.5624446868896484 0.3636147379875183 False False
3852.0429999999997 0.6539574265480042 -1.7662769756712855 -1.4971586465835571 -1.4414426994374772 1.56242835521698 0.36366400122642517 False False
3852.0629999999996 0.6539573073387146 -1.7662846050658167 -1.4971007108688354 -1.441370577817299 1.5624606609344482 0.3636443018913269 False False
3852.0829999999996 0.6540200710296631 -1.7663012943663539 -1.4971661567687988 -1.441382349734642 1.5623886585235596 0.3636476993560791 False False
3852.1029999999996 0.6539873480796814 -1.766240736047262 -1.4971705675125122 -1.4414386463216324 1.5624165534973145 0.36359843611717224 False False
3852.123 0.6540109515190125 -1.7662607632079066 -1.4971706867218018 -1.4413786393455048 1.5624529123306274 0.3636029362678528 False False
3852.143 0.6540244817733765 -1.7661792240538539 -1.4971734285354614 -1.4413946580937882 1.5624005794525146 0.3636029362678528 False False
3852.163 0.6539663672447205 -1.7662607632079066 -1.4971870183944702 -1.4413786691478272 1.56238853931427 0.36362355947494507 False False
3852.183 0.6540200710296631 -1.766245027581686 -1.497178077697754 -1.4414304357818146 1.5624771118164062 0.36361926794052124 False False
3852.203 0.6540126204490662 -1.766252180139059 -1.4971870183944702 -1.4413946580937882 1.5624045133590698 0.3636029064655304 False False
3852.223 0.6539990305900574 -1.7662846050658167 -1.497128963470459 -1.4413782817176362 1.5624690055847168 0.36362361907958984 False False
3852.243 0.6540370583534241 -1.766243120233053 -1.4971288442611694 -1.4414669585279007 1.5624446868896484 0.3636399209499359 False False
3852.263 0.6540200710296631 -1.766310831109518 -1.4972203969955444 -1.44144261003051 1.562408208847046 0.3636389374732971 False False
3852.283 0.6539962291717529 -1.766214986840719 -1.497178077697754 -1.4414182317307969 1.562392234802246 0.36362800002098083 False False
3852.303 0.6540200710296631 -1.7663022480406703 -1.4971542358398438 -1.4414345634034653 1.5624406337738037 0.363669753074646 False False
3852.323 0.6540290117263794 -1.7662855587401332 -1.4971498250961304 -1.4413180959275742 1.5624688863754272 0.3636476993560791 False False
3852.343 0.6539990901947021 -1.766245027581686 -1.4971706867218018 -1.4413542610457917 1.5624648332595825 0.3636147677898407 False False
3852.363 0.6539663672447205 -1.7662607632079066 -1.4971095323562622 -1.4413981151631852 1.56238853931427 0.36356115341186523 False False
3852.383 0.6540415287017822 -1.7662888966002406 -1.4971824884414673 -1.4413501632264634 1.562400460243225 0.363594114780426 False False
3852.403 0.6540698409080505 -1.7662564716734828 -1.4972084760665894 -1.441454605465271 1.562424659729004 0.36366522312164307 False False
3852.423 0.6540535092353821 -1.7662846050658167 -1.4971542358398438 -1.4414063108018418 1.5624607801437378 0.36361169815063477 False False
3852.4429999999998 0.6540488600730896 -1.7662564716734828 -1.4971542358398438 -1.441414089207985 1.5624325275421143 0.36363109946250916 False False
3852.4629999999997 0.6540200710296631 -1.7662273846068324 -1.4971617460250854 -1.4413459461978455 1.562392234802246 0.3635866940021515 False False
3852.4829999999997 0.6540126204490662 -1.7662607632079066 -1.4971617460250854 -1.4413664054921647 1.5624046325683594 0.3636104464530945 False False
3852.5029999999997 0.6539709568023682 -1.766224046746725 -1.4971705675125122 -1.4414022427848359 1.5623962879180908 0.3635910451412201 False False
3852.5229999999997 0.6539737582206726 -1.7662769756712855 -1.4971870183944702 -1.4414182615331192 1.5624045133590698 0.3636476993560791 False False
3852.5429999999997 0.6540200710296631 -1.7663189373412074 -1.49716317653656 -1.4414509248784562 1.5624123811721802 0.36362364888191223 False False
3852.5629999999996 0.6539917588233948 -1.7663260898985804 -1.4971951246261597 -1.4413826924613495 1.5624325275421143 0.36360296607017517 False False
3852.5829999999996 0.6540200710296631 -1.7662626705565394 -1.4971870183944702 -1.441394032245018 1.5624046325683594 0.3636355400085449 False False
3852.6029999999996 0.6540036797523499 -1.7662726841368617 -1.497199535369873 -1.44141440213237 1.5623763799667358 0.3636398911476135 False False
3852.623 0.6540371179580688 -1.766301771203512 -1.49709153175354 -1.4414182615331192 1.562380313873291 0.36367279291152954 False False
3852.643 0.6540200710296631 -1.766219278375143 -1.4971870183944702 -1.4414022427848359 1.5623927116394043 0.3635822832584381 False False
3852.663 0.6540200710296631 -1.7662769756712855 -1.4971423149108887 -1.4413946729949494 1.5624529123306274 0.36365213990211487 False False
3852.683 0.6540488004684448 -1.7663303814330042 -1.497178077697754 -1.4414063406041642 1.5624446868896484 0.3636355400085449 False False
3852.703 0.6540289521217346 -1.7663217983641566 -1.4971423149108887 -1.4413786393455048 1.5624045133590698 0.3636398911476135 False False
3852.723 0.6539990901947021 -1.7662564716734828 -1.4971259832382202 -1.4413705927184601 1.5624287128448486 0.36363232135772705 False False
3852.743 0.6540126204490662 -1.7662369213499964 -1.497107982635498 -1.441414089207985 1.5624890327453613 0.36361169815063477 False False
3852.763 0.6540279984474182 -1.7663127384581507 -1.4971661567687988 -1.4414223444512864 1.5624123811721802 0.36363986134529114 False False
3852.783 0.6540110111236572 -1.7663146458067835 -1.4971705675125122 -1.4413582992604752 1.56242835521698 0.36362361907958984 False False
3852.803 0.6540110111236572 -1.7662931881346644 -1.4971914291381836 -1.441434608106949 1.562436580657959 0.36360612511634827 False False
3852.823 0.6539874076843262 -1.7662607632079066 -1.497157096862793 -1.4413986814073105 1.5623964071273804 0.3636355400085449 False False
3852.843 0.6539990901947021 -1.7662974796690882 -1.49715256690979 -1.4414549481919785 1.5624123811721802 0.36360302567481995 False False
3852.863 0.6540154218673706 -1.7662607632079066 -1.4971705675125122 -1.4413823795369645 1.562436580657959 0.36362674832344055 False False
3852.883 0.6540109515190125 -1.7662683926024378 -1.49716317653656 -1.441406325703003 1.5624123811721802 0.36364853382110596 False False
3852.903 0.654008150100708 -1.7662493191161097 -1.4971824884414673 -1.4414022427848359 1.5624325275421143 0.3636355400085449 False False
3852.923 0.654028058052063 -1.7662273846068324 -1.497146725654602 -1.4414426696351548 1.5624690055847168 0.3635701835155487 False False
3852.9429999999998 0.6539738774299622 -1.7662550411620082 -1.4971587657928467 -1.441374660735466 1.562408685684204 0.36360302567481995 False False
3852.9629999999997 0.6539918780326843 -1.7663012943663539 -1.4971705675125122 -1.44141440213237 1.5624529123306274 0.3636694848537445 False False
3852.9829999999997 0.6539946794509888 -1.7662726841368617 -1.4971333742141724 -1.4414710265449067 1.562380313873291 0.36360734701156616 False False
3853.0029999999997 0.6540125608444214 -1.7662931881346644 -1.49715256690979 -1.4414182168296357 1.5624165534973145 0.36360299587249756 False False
3853.0229999999997 0.6539918184280396 -1.766280313531393 -1.4971498250961304 -1.4413946580937882 1.5624325275421143 0.3635702133178711 False False
3853.0429999999997 0.6540458798408508 -1.7662683926024378 -1.4971661567687988 -1.4414022427848359 1.5624808073043823 0.3636477589607239 False False
3853.0629999999996 0.6539739966392517 -1.766252180139059 -1.4971870183944702 -1.4414144170335312 1.5623881816864014 0.3636355698108673 False False
3853.0829999999996 0.6540324687957764 -1.766245027581686 -1.4971929788589478 -1.4414426994374772 1.562400460243225 0.3635614812374115 False False
3853.1029999999996 0.6540236473083496 -1.766327520410055 -1.4971542358398438 -1.4414345634034653 1.5624123811721802 0.36360734701156616 False False
3853.123 0.6540154814720154 -1.766280313531393 -1.4971705675125122 -1.4414103341153641 1.5624406337738037 0.36359113454818726 False False
3853.143 0.6539874076843262 -1.766306062737936 -1.4972039461135864 -1.4413663905910035 1.5624325275421143 0.36363470554351807 False False
3853.163 0.6539962291717529 -1.766182085076803 -1.497128963470459 -1.4414508652738114 1.5624046325683594 0.3636476993560791 False False
3853.183 0.6540651321411133 -1.7662364445128382 -1.4972003698349 -1.441382722263672 1.562392234802246 0.3636116683483124 False False
3853.203 0.6539962887763977 -1.7662235699095667 -1.4971661567687988 -1.4413705927184601 1.5624446868896484 0.36363115906715393 False False
3853.223 0.654028058052063 -1.7662235699095667 -1.4971259832382202 -1.44138656676326 1.562436580657959 0.3635658323764801 False False
3853.243 0.6539711356163025 -1.7662326298155726 -1.497133493423462 -1.441418246631958 1.5624165534973145 0.36360305547714233 False False
3853.263 0.6540370583534241 -1.766243120233053 -1.4972001314163208 -1.4413500440171738 1.5624325275421143 0.36363112926483154 False False
3853.283 0.6540369987487793 -1.7662564716734828 -1.4971586465835571 -1.4413746458343049 1.5623964071273804 0.36362361907958984 False False
3853.303 0.6539785265922546 -1.7662564716734828 -1.4971542358398438 -1.441394643192627 1.5623923540115356 0.36363986134529114 False False
3853.323 0.6540201306343079 -1.7662974796690882 -1.4971379041671753 -1.4414140445045014 1.5623923540115356 0.3636322617530823 False False
3853.343 0.654008150100708 -1.766252180139059 -1.4971661567687988 -1.4414829027703782 1.5623962879180908 0.3636726438999176 False False
3853.363 0.6540650725364685 -1.7662927112975062 -1.4971542358398438 -1.4414426398328324 1.562484860420227 0.3636564016342163 False False
3853.383 0.6540444493293762 -1.7662650547423304 -1.4971661567687988 -1.4414223295501252 1.5624688863754272 0.36359870433807373 False False
3853.403 0.6540125012397766 -1.766245027581686 -1.497133493423462 -1.441418246631958 1.562436580657959 0.3636268377304077 False False
3853.423 0.654008150100708 -1.7662860355772914 -1.497178077697754 -1.4414467078498383 1.5624569654464722 0.3636564016342163 False False
3853.4429999999998 0.6540037989616394 -1.7662650547423304 -1.4972126483917236 -1.4413786393455048 1.5624529123306274 0.36360737681388855 False False
3853.4629999999997 0.6540037989616394 -1.7662493191161097 -1.4971379041671753 -1.441394643192627 1.562424659729004 0.3636355698108673 False False
3853.4829999999997 0.6539918780326843 -1.7662607632079066 -1.497145414352417 -1.44138656676326 1.56238853931427 0.36363115906715393 False False
3853.5029999999997 0.6540037393569946 -1.7662636242308558 -1.4971837997436523 -1.4413865816644211 1.5624529123306274 0.3636030852794647 False False
3853.5229999999997 0.654053270816803 -1.7661954365172328 -1.4971617460250854 -1.4414304059794922 1.5624165534973145 0.3636845350265503 False False
3853.5429999999997 0.6540562510490417 -1.7662636242308558 -1.4971880912780762 -1.4414182168296357 1.562436580657959 0.3636322319507599 False False
3853.5629999999996 0.654062032699585 -1.7662278614439906 -1.497173547744751 -1.4413823795369645 1.5624406337738037 0.36358246207237244 False False
3853.5829999999996 0.6540813446044922 -1.766243120233053 -1.4971128702163696 -1.4413946282914658 1.5624529123306274 0.36362364888191223 False False
3853.6029999999996 0.6539992690086365 -1.7662726841368617 -1.4971661567687988 -1.4414021980813523 1.5624243021011353 0.36359015107154846 False False
3853.623 0.6540201306343079 -1.7662888966002406 -1.4971498250961304 -1.4414022427848359 1.5624083280563354 0.36363115906715393 False False
3853.643 0.6540331244468689 -1.766214986840719 -1.4971498250961304 -1.4413583439639588 1.5624446868896484 0.36363115906715393 False False
3853.663 0.6539918780326843 -1.766334672967428 -1.497117280960083 -1.4413664650968094 1.5624083280563354 0.363619327545166 False False
3853.683 0.654053270816803 -1.7662769756712855 -1.4971246719360352 -1.4413906645825882 1.5624046325683594 0.3636159598827362 False False
3853.703 0.6540244221687317 -1.7662931881346644 -1.4971661567687988 -1.4414141041091462 1.562408685684204 0.3636564314365387 False False
3853.723 0.6539875268936157 -1.7662493191161097 -1.4971336126327515 -1.4413664948991318 1.56242835521698 0.363619327545166 False False
3853.743 0.6539992690086365 -1.7662888966002406 -1.4971380233764648 -1.441394643192627 1.5624005794525146 0.36363983154296875 False False
3853.763 0.6540200114250183 -1.766306539575094 -1.4971705675125122 -1.4413981449655076 1.5624165534973145 0.3635944128036499 False False
3853.783 0.6540200710296631 -1.7662726841368617 -1.497162938117981 -1.4413747203401108 1.562408685684204 0.36363112926483154 False False
3853.803 0.6540200114250183 -1.766240736047262 -1.497215747833252 -1.4414465737393876 1.562408685684204 0.36367267370224 False False
3853.823 0.6540499925613403 -1.7662650547423304 -1.4971704483032227 -1.4413747203401108 1.5624165534973145 0.3636322319507599 False False
3853.843 0.6540532112121582 -1.766308446923727 -1.49714994430542 -1.441426233654358 1.562408447265625 0.3636564016342163 False False
3853.863 0.6539919972419739 -1.766252180139059 -1.4971129894256592 -1.4414142978242417 1.5624487400054932 0.3636476993560791 False False
3853.883 0.6540244221687317 -1.7662974796690882 -1.497178077697754 -1.4414784175208588 1.56242835521698 0.3637050688266754 False False
3853.903 0.6540005803108215 -1.7662812672057093 -1.4971661567687988 -1.441438542013504 1.5624206066131592 0.36366069316864014 False False
3853.923 0.6540619134902954 -1.766219278375143 -1.4971380233764648 -1.4413707566312333 1.562424659729004 0.36359116435050964 False False
3853.9429999999998 0.6540456414222717 -1.7662812672057093 -1.4972362518310547 -1.441406325703003 1.5624284744262695 0.36362361907958984 False False
3853.9629999999997 0.6540244221687317 -1.7662369213499964 -1.4972156286239624 -1.4413946282914658 1.562436580657959 0.3636355400085449 False False
3853.9829999999997 0.6539993286132812 -1.7662846050658167 -1.4971380233764648 -1.441374809747078 1.5624446868896484 0.3636355400085449 False False
3854.0029999999997 0.654008150100708 -1.7662846050658167 -1.4971661567687988 -1.4414382737926026 1.5624446868896484 0.36360305547714233 False False
3854.0229999999997 0.6540324687957764 -1.766240736047262 -1.497174859046936 -1.4413504612496872 1.5624405145645142 0.36363109946250916 False False
3854.0429999999997 0.6540369391441345 -1.7663055859007777 -1.4971574544906616 -1.4413867604783555 1.5623846054077148 0.3636564016342163 False False
3854.0629999999996 0.6539962291717529 -1.766245027581686 -1.497145652770996 -1.441402332191803 1.5624127388000488 0.3636521100997925 False False
3854.0829999999996 0.6540243625640869 -1.766252180139059 -1.4971380233764648 -1.441414238219597 1.5624325275421143 0.3636520802974701 False False
3854.1029999999996 0.6539993286132812 -1.766264101068014 -1.4971380233764648 -1.4413708609393616 1.5624325275421143 0.3636683225631714 False False
3854.123 0.6540498733520508 -1.7663055859007777 -1.497161865234375 -1.4414301079562684 1.5624284744262695 0.36363115906715393 False False
3854.143 0.6540113091468811 -1.7662607632079066 -1.4971216917037964 -1.4414142084172745 1.562452793121338 0.3636030852794647 False False
3854.163 0.6540498733520508 -1.7662607632079066 -1.4971953630447388 -1.4414582562497635 1.5624206066131592 0.36361491680145264 False False
3854.183 0.6540286540985107 -1.766224046746725 -1.497199296951294 -1.4413947325995942 1.5624487400054932 0.3636268377304077 False False
3854.203 0.6540200710296631 -1.766224046746725 -1.4971542358398438 -1.4414423120072861 1.562456727027893 0.36360305547714233 False False
3854.223 0.6540167927742004 -1.7662435970702113 -1.4971542358398438 -1.441406325703003 1.562456727027893 0.36366498470306396 False False
3854.243 0.653980016708374 -1.766252180139059 -1.4971293210983276 -1.4413748693517228 1.5624364614486694 0.3636476993560791 False False
3854.263 0.6539876461029053 -1.7662283382811488 -1.497178077697754 -1.441426084642746 1.5624085664749146 0.36361929774284363 False False
3854.283 0.6540124416351318 -1.766240736047262 -1.497174859046936 -1.4414142084172745 1.5623847246170044 0.36362361907958984 False False
3854.303 0.6540113091468811 -1.7662683926024378 -1.497161865234375 -1.4413748693517228 1.5624284744262695 0.3636477589607239 False False
3854.323 0.6540156006813049 -1.7662974796690882 -1.4971585273742676 -1.4414260548404236 1.562428593635559 0.3636355400085449 False False
3854.343 0.6539876461029053 -1.766306062737936 -1.4972121715545654 -1.4413983535817643 1.5624325275421143 0.36363115906715393 False False
3854.363 0.6540286540985107 -1.7662364445128382 -1.4971672296524048 -1.441398562198021 1.562404751777649 0.36360740661621094 False False
3854.383 0.6540113091468811 -1.7662726841368617 -1.497145652770996 -1.4413547974875947 1.562456727027893 0.36367693543434143 False False
3854.403 0.6540124416351318 -1.766252180139059 -1.497174859046936 -1.441354827289917 1.5624405145645142 0.3636520802974701 False False
3854.423 0.6540368795394897 -1.7662846050658167 -1.4971542358398438 -1.4414426696351548 1.5624206066131592 0.3636521100997925 False False
3854.4429999999998 0.6539962887763977 -1.7663098774352015 -1.4971823692321777 -1.4414222103408356 1.562408685684204 0.3636683225631714 False False
3854.4629999999997 0.6539714336395264 -1.7662846050658167 -1.4971249103546143 -1.4413664203933259 1.562384843826294 0.3636477291584015 False False
3854.4829999999997 0.6540693640708923 -1.7662369213499964 -1.4971293210983276 -1.4413824093392869 1.5624326467514038 0.3636484146118164 False False
3854.5029999999997 0.6540156006813049 -1.7663141689696253 -1.4971747398376465 -1.4414069664529343 1.5624126195907593 0.363663911819458 False False
3854.5229999999997 0.654007077217102 -1.7662607632079066 -1.4971585273742676 -1.4413705927184601 1.5624006986618042 0.36362361907958984 False False
3854.5429999999997 0.6540124416351318 -1.7662693462767542 -1.4971423149108887 -1.441446380024292 1.5624284744262695 0.36363986134529114 False False
3854.5629999999996 0.6539919376373291 -1.7662283382811488 -1.4971704483032227 -1.4414028835347672 1.5624526739120483 0.36363986134529114 False False
3854.5829999999996 0.6539919376373291 -1.7663055859007777 -1.4971953630447388 -1.4414103341153641 1.5624206066131592 0.3637050688266754 False False
3854.6029999999996 0.6539993286132812 -1.7663213215269984 -1.4971747398376465 -1.4414345634034653 1.5623809099197388 0.3635868728160858 False False
3854.623 0.6540243625640869 -1.7662493191161097 -1.4971585273742676 -1.4413939726403733 1.5624008178710938 0.3635702431201935 False False
3854.643 0.6539832353591919 -1.766276021996969 -1.4972078800201416 -1.441426308160164 1.5624088048934937 0.36361071467399597 False False
3854.663 0.6540200710296631 -1.7662726841368617 -1.4971747398376465 -1.4413987261107941 1.5624446868896484 0.3636268377304077 False False
3854.683 0.6540037989616394 -1.7662769756712855 -1.4971455335617065 -1.441454679971077 1.5624245405197144 0.3636476993560791 False False
3854.703 0.6540324687957764 -1.7662769756712855 -1.49714994430542 -1.441398100262024 1.5624364614486694 0.3636552691459656 False False
3854.723 0.6540324687957764 -1.766280313531393 -1.497161865234375 -1.4413623225739975 1.562408685684204 0.36363986134529114 False False
3854.743 0.654008150100708 -1.7663470707335414 -1.497145652770996 -1.4413823795369645 1.5624443292617798 0.36363115906715393 False False
3854.763 0.6539865136146545 -1.7663127384581507 -1.497178077697754 -1.4413664203933259 1.5624446868896484 0.36368560791015625 False False
3854.783 0.6540038585662842 -1.7662650547423304 -1.497178077697754 -1.4414263230613251 1.56242835521698 0.36357027292251587 False False
3854.803 0.6540369391441345 -1.7662493191161097 -1.4971704483032227 -1.4414222848466416 1.5624569654464722 0.3636528253555298 False False
3854.823 0.6540113091468811 -1.766240736047262 -1.4971661567687988 -1.4414262932590027 1.5624005794525146 0.36369314789772034 False False
3854.843 0.6540038585662842 -1.7663141689696253 -1.49714994430542 -1.4414140296033402 1.5624569654464722 0.3636278808116913 False False
3854.863 0.6540038585662842 -1.7662435970702113 -1.497117519378662 -1.4414304059794922 1.5624407529830933 0.36358320713043213 False False
3854.883 0.6540486216545105 -1.7662693462767542 -1.4971574544906616 -1.4413705927184601 1.5624529123306274 0.36362364888191223 False False
3854.903 0.6539994478225708 -1.7661873302855433 -1.4971628189086914 -1.441409946685173 1.5624407529830933 0.363619327545166 False False
3854.923 0.6540369391441345 -1.7662364445128382 -1.4971661567687988 -1.441414089207985 1.5624606609344482 0.36361491680145264 False False
3854.9429999999998 0.6539950966835022 -1.7662607632079066 -1.4971617460250854 -1.4414426249316712 1.5624127388000488 0.3635824918746948 False False
3854.9629999999997 0.6540369391441345 -1.766247888604635 -1.4971452951431274 -1.4414226871779938 1.5624407529830933 0.363619327545166 False False
3854.9829999999997 0.6540200710296631 -1.7662364445128382 -1.4971868991851807 -1.4413906645825882 1.5623964071273804 0.36368122696876526 False False
3855.0029999999997 0.653999388217926 -1.766240736047262 -1.497117042541504 -1.441398711209633 1.56242835521698 0.3636800944805145 False False
3855.0229999999997 0.6540200710296631 -1.7662364445128382 -1.4971750974655151 -1.4413906645825882 1.562424659729004 0.36359116435050964 False False
3855.0429999999997 0.6539669632911682 -1.7662197552123011 -1.4971140623092651 -1.4414022278836747 1.562364101409912 0.36361929774284363 False False
3855.0629999999996 0.6540156006813049 -1.7662683926024378 -1.4971542358398438 -1.4414426398328324 1.5623962879180908 0.36363983154296875 False False
3855.0829999999996 0.6540243625640869 -1.7662931881346644 -1.4971542358398438 -1.4413746309331437 1.562416434288025 0.36362358927726746 False False
3855.1029999999996 0.6540005803108215 -1.7662435970702113 -1.4972039461135864 -1.4413823944381257 1.5624165534973145 0.3636355400085449 False False
3855.123 0.6540735960006714 -1.766329904595846 -1.4971617460250854 -1.441366360788681 1.5623844861984253 0.363619327545166 False False
3855.143 0.6540281772613525 -1.7662035427489222 -1.497128963470459 -1.4413980704597016 1.5624005794525146 0.3636649549007416 False False
3855.163 0.6540200710296631 -1.7662283382811488 -1.497140645980835 -1.441370577817299 1.562400460243225 0.3635944426059723 False False
3855.183 0.6540281772613525 -1.7662321529784144 -1.49716317653656 -1.4413746458343049 1.5624127388000488 0.3636563718318939 False False
3855.203 0.6540281772613525 -1.7663141689696253 -1.4971333742141724 -1.441410319214203 1.5624005794525146 0.3635987341403961 False False
3855.223 0.6540243625640869 -1.7662493191161097 -1.4971705675125122 -1.441410021190979 1.562424659729004 0.3636159896850586 False False
3855.243 0.6540369391441345 -1.766245027581686 -1.4971303939819336 -1.4413906198791047 1.562436580657959 0.3636477589607239 False False
3855.263 0.6540156006813049 -1.7663098774352015 -1.4971333742141724 -1.4413987410119553 1.5623964071273804 0.36363551020622253 False False
3855.283 0.6540286540985107 -1.766240736047262 -1.497199535369873 -1.4414144319346924 1.5623886585235596 0.36365634202957153 False False
3855.303 0.6540124416351318 -1.766280313531393 -1.4971750974655151 -1.4413582694581528 1.5624005794525146 0.36364835500717163 False False
3855.323 0.6540200710296631 -1.7662564716734828 -1.4971734285354614 -1.4414426696351548 1.5624529123306274 0.3636193573474884 False False
3855.343 0.6540369391441345 -1.7662607632079066 -1.4971661567687988 -1.4413785946420212 1.562408685684204 0.3636476993560791 False False
3855.363 0.6540369391441345 -1.7662769756712855 -1.4971661567687988 -1.4414062959006806 1.5623964071273804 0.3635987341403961 False False
3855.383 0.6539919376373291 -1.7662369213499964 -1.4971498250961304 -1.441430465584137 1.5624325275421143 0.36363983154296875 False False
3855.403 0.654003918170929 -1.7662564716734828 -1.4971423149108887 -1.4413705182126542 1.5624046325683594 0.3635782301425934 False False
3855.423 0.6539714336395264 -1.7662369213499964 -1.4971661567687988 -1.441366360788681 1.5624123811721802 0.36362361907958984 False False
3855.4429999999998 0.6540651917457581 -1.7663141689696253 -1.4971750974655151 -1.441418246631958 1.562424659729004 0.36360737681388855 False False
3855.4629999999997 0.654028058052063 -1.7662812672057093 -1.4971423149108887 -1.4413823795369645 1.5623927116394043 0.36362364888191223 False False
3855.4829999999997 0.6540488004684448 -1.7662326298155726 -1.4971586465835571 -1.4413906347802659 1.5624529123306274 0.36362364888191223 False False
3855.5029999999997 0.6540200710296631 -1.7662650547423304 -1.497128963470459 -1.4413664203933259 1.5623846054077148 0.3636311888694763 False False
3855.5229999999997 0.6540154814720154 -1.7662769756712855 -1.4971317052841187 -1.441366360788681 1.562436580657959 0.363619327545166 False False
3855.5429999999997 0.6539664268493652 -1.7663055859007777 -1.49715256690979 -1.441366360788681 1.5624127388000488 0.3636520504951477 False False
3855.5629999999996 0.6540110111236572 -1.766195913354391 -1.4971468448638916 -1.4413500440171738 1.5624046325683594 0.3636278808116913 False False
3855.5829999999996 0.6540579199790955 -1.7662564716734828 -1.4971705675125122 -1.4413746309331437 1.562432885169983 0.36360740661621094 False False
3855.6029999999996 0.6540488004684448 -1.7663055859007777 -1.4971452951431274 -1.441418246631958 1.562436580657959 0.3636031150817871 False False
3855.623 0.6540324687957764 -1.766252180139059 -1.49715256690979 -1.441390649681427 1.5624488592147827 0.363614946603775 False False
3855.643 0.6540036797523499 -1.7663141689696253 -1.4971661567687988 -1.441406325703003 1.5624123811721802 0.36361464858055115 False False
3855.663 0.6539827585220337 -1.7663294277586878 -1.4971498250961304 -1.441406325703003 1.5623925924301147 0.3636477291584015 False False
3855.683 0.6540200710296631 -1.766301771203512 -1.4971498250961304 -1.4413987261107941 1.5624123811721802 0.3636355400085449 False False
3855.703 0.6540036797523499 -1.7663504085936488 -1.4971914291381836 -1.4414022278836747 1.5624611377716064 0.36364439129829407 False False
3855.723 0.6539710164070129 -1.766280313531393 -1.4971468448638916 -1.4414103341153641 1.562436580657959 0.3636309802532196 False False
3855.743 0.6539738774299622 -1.7662159405150355 -1.4971333742141724 -1.4413865518620987 1.5624446868896484 0.36364325881004333 False False
3855.763 0.6540459990501404 -1.766276021996969 -1.4971468448638916 -1.441382349734642 1.5624123811721802 0.36366868019104004 False False
3855.783 0.6540324687957764 -1.7662893734373988 -1.497112512588501 -1.4414140743068238 1.5624045133590698 0.3636280596256256 False False
3855.803 0.6540289521217346 -1.7662435970702113 -1.4971870183944702 -1.4413500440171738 1.562424659729004 0.36366406083106995 False False
3855.823 0.6540324687957764 -1.766317983666891 -1.4971497058868408 -1.4414144170335312 1.5624488592147827 0.363656610250473 False False
3855.843 0.654028058052063 -1.7662769756712855 -1.4971734285354614 -1.4414426696351548 1.5623844861984253 0.3636488914489746 False False
3855.863 0.6540414690971375 -1.7662927112975062 -1.4971333742141724 -1.441374198799469 1.5624446868896484 0.36366862058639526 False False
3855.883 0.6539827585220337 -1.7663170299925746 -1.4971870183944702 -1.4413940024426957 1.562400460243225 0.3636355698108673 False False
3855.903 0.6540200710296631 -1.7662927112975062 -1.4971617460250854 -1.4413746458343049 1.5624206066131592 0.3636325001716614 False False
3855.923 0.6540697813034058 -1.7662607632079066 -1.4971498250961304 -1.4414464098266144 1.5624488592147827 0.36359819769859314 False False
3855.9429999999998 0.6540154814720154 -1.7662769756712855 -1.4971542358398438 -1.4414103341153641 1.5624890327453613 0.36362361907958984 False False
3855.9629999999997 0.6539962291717529 -1.7662650547423304 -1.497100591659546 -1.4414022427848359 1.5624606609344482 0.3635697364807129 False False
3855.9829999999997 0.6540126204490662 -1.7662812672057093 -1.497140645980835 -1.441406325703003 1.5624488592147827 0.36363881826400757 False False
3856.0029999999997 0.6539500951766968 -1.7662846050658167 -1.4971362352371216 -1.4413827371648331 1.5623962879180908 0.363607257604599 False False
3856.0229999999997 0.6540667414665222 -1.7662536106505335 -1.4971706867218018 -1.4414103639176865 1.5623639822006226 0.3636191785335541 False False
3856.0429999999997 0.6540548205375671 -1.7663012943663539 -1.4971587657928467 -1.4413823795369645 1.5624566078186035 0.36362361907958984 False False
3856.0629999999996 0.6539679765701294 -1.7662769756712855 -1.4971452951431274 -1.441406325703003 1.5624488592147827 0.3636476993560791 False False
3856.0829999999996 0.6539873480796814 -1.766273637811178 -1.4971824884414673 -1.4413865518620987 1.562408685684204 0.36361464858055115 False False
3856.1029999999996 0.6540370583534241 -1.7662326298155726 -1.4971870183944702 -1.4413664203933259 1.5624407529830933 0.3636432886123657 False False
3856.123 0.6540245413780212 -1.7662769756712855 -1.4971675872802734 -1.4414304059794922 1.5624325275421143 0.3635774552822113 False False
3856.143 0.6540200710296631 -1.766247888604635 -1.4971661567687988 -1.44142638266597 1.56242835521698 0.3636191189289093 False False
3856.163 0.6540289521217346 -1.7662769756712855 -1.4971870183944702 -1.4414263230613251 1.562424659729004 0.3636610805988312 False False
3856.183 0.6540006399154663 -1.7662936649718226 -1.497204065322876 -1.441370577817299 1.562444806098938 0.36358189582824707 False False
3856.203 0.6540415287017822 -1.7662846050658167 -1.4971214532852173 -1.441374660735466 1.56242835521698 0.3636355698108673 False False
3856.223 0.6539991497993469 -1.7662650547423304 -1.4971870183944702 -1.4414426398328324 1.562400460243225 0.3636685907840729 False False
3856.243 0.6540170311927795 -1.7662283382811488 -1.4971214532852173 -1.4414426398328324 1.5623964071273804 0.3636399507522583 False False
3856.263 0.6540459990501404 -1.7662440739073695 -1.4972130060195923 -1.4414022278836747 1.5624611377716064 0.3636399805545807 False False
3856.283 0.6540200710296631 -1.7663012943663539 -1.4971498250961304 -1.4414263379624863 1.5624325275421143 0.3636191785335541 False False
3856.303 0.654008150100708 -1.7662326298155726 -1.4971498250961304 -1.441418246631958 1.5624165534973145 0.36362361907958984 False False
3856.323 0.6539873480796814 -1.7662931881346644 -1.4971706867218018 -1.441426308160164 1.56242835521698 0.36364883184432983 False False
3856.343 0.6540170907974243 -1.7662326298155726 -1.497178077697754 -1.441406012778618 1.5623962879180908 0.3636266589164734 False False
3856.363 0.6539990901947021 -1.7663012943663539 -1.4971915483474731 -1.4413981449655076 1.5624165534973145 0.3636399805545807 False False
3856.383 0.6539618372917175 -1.7662040195860804 -1.4971452951431274 -1.4413946729949494 1.5624570846557617 0.36362215876579285 False False
3856.403 0.6540289521217346 -1.7662846050658167 -1.4971586465835571 -1.441398711209633 1.562436580657959 0.3636476695537567 False False
3856.423 0.6539798378944397 -1.7663012943663539 -1.497136116027832 -1.4414028090289612 1.5624809265136719 0.3636775016784668 False False
3856.4429999999998 0.6540154218673706 -1.7662726841368617 -1.4971452951431274 -1.441382722263672 1.5623962879180908 0.36362361907958984 False False
3856.4629999999997 0.6540443897247314 -1.7662369213499964 -1.497157096862793 -1.4414028239301224 1.5624206066131592 0.3636191785335541 False False
3856.4829999999997 0.6539872884750366 -1.766245027581686 -1.497204065322876 -1.4414222699454804 1.5624243021011353 0.36357423663139343 False False
3856.5029999999997 0.6540245413780212 -1.7663012943663539 -1.4971824884414673 -1.4414504629424592 1.5624488592147827 0.36367303133010864 False False
3856.5229999999997 0.6540623903274536 -1.7662769756712855 -1.497140645980835 -1.4413784754327317 1.5624446868896484 0.3636700212955475 False False
3856.5429999999997 0.6539873480796814 -1.7662855587401332 -1.4971498250961304 -1.441430391078331 1.5624406337738037 0.36362361907958984 False False
3856.5629999999996 0.6540371179580688 -1.76629700283193 -1.4971407651901245 -1.4414222699454804 1.5623962879180908 0.36359092593193054 False False
3856.5829999999996 0.6540200710296631 -1.766245027581686 -1.4971661567687988 -1.4414143127254029 1.562472939491272 0.36359527707099915 False False
3856.6029999999996 0.6540290117263794 -1.7663012943663539 -1.4971630573272705 -1.4413946580937882 1.5624407529830933 0.36361613869667053 False False
3856.623 0.6540290117263794 -1.76629700283193 -1.4971586465835571 -1.4414222550443192 1.5624165534973145 0.363631010055542 False False
3856.643 0.6540652513504028 -1.7662693462767542 -1.4971705675125122 -1.4414423567107697 1.56242835521698 0.3636310398578644 False False
3856.663 0.6540200710296631 -1.7662607632079066 -1.497145414352417 -1.4413986218026658 1.5624123811721802 0.36362215876579285 False False
3856.683 0.6540324687957764 -1.7663055859007777 -1.4971868991851807 -1.4414183062366028 1.5624046325683594 0.3636566698551178 False False
3856.703 0.6539961695671082 -1.766325136224264 -1.4971661567687988 -1.441410244708397 1.562436580657959 0.36362361907958984 False False
3856.723 0.6540534496307373 -1.7662927112975062 -1.4971423149108887 -1.4414543223432084 1.562400460243225 0.3636355996131897 False False
3856.743 0.6540245413780212 -1.7663170299925746 -1.4971824884414673 -1.441406325703003 1.5623964071273804 0.3636399507522583 False False
3856.763 0.6540279984474182 -1.766245027581686 -1.4971617460250854 -1.4414622348598023 1.562408685684204 0.3636399805545807 False False
3856.783 0.6540200710296631 -1.7662607632079066 -1.4971630573272705 -1.4414383930018921 1.562436580657959 0.3636476993560791 False False
3856.803 0.6540110111236572 -1.7662683926024378 -1.497133493423462 -1.441354678278305 1.5624165534973145 0.36358642578125 False False
3856.823 0.6540488600730896 -1.7662769756712855 -1.4971661567687988 -1.4414102149060746 1.5624570846557617 0.36365222930908203 False False
3856.843 0.6540245413780212 -1.7662812672057093 -1.4971498250961304 -1.441406325703003 1.5624488592147827 0.36362358927726746 False False
3856.863 0.6540125608444214 -1.7662321529784144 -1.4971868991851807 -1.4413983237794419 1.5624046325683594 0.3636309802532196 False False
3856.883 0.6540289521217346 -1.7662440739073695 -1.4971542358398438 -1.4413788181594391 1.5624570846557617 0.3636433184146881 False False
3856.903 0.6540126204490662 -1.7663418255248011 -1.4971215724945068 -1.441426084642746 1.56242835521698 0.3636086583137512 False False
3856.923 0.6540488600730896 -1.7661997280516566 -1.4971617460250854 -1.441374884252884 1.5624529123306274 0.3635818660259247 False False
3856.9429999999998 0.654008150100708 -1.7662369213499964 -1.497117280960083 -1.4414344292930146 1.5623962879180908 0.3636355400085449 False False
3856.9629999999997 0.6540200710296631 -1.7662650547423304 -1.497145414352417 -1.4414221954396744 1.5624569654464722 0.3636399805545807 False False
3856.9829999999997 0.6539990901947021 -1.7662769756712855 -1.4971392154693604 -1.4413868200830002 1.5623962879180908 0.36358195543289185 False False
3857.0029999999997 0.6540459990501404 -1.7662326298155726 -1.497133493423462 -1.4413710546544571 1.562436580657959 0.36362361907958984 False False
3857.0229999999997 0.6540279984474182 -1.7663337192931117 -1.4971586465835571 -1.4413746458343049 1.5624165534973145 0.3635830283164978 False False
3857.0429999999997 0.6540289521217346 -1.7663170299925746 -1.4971423149108887 -1.4413664203933259 1.5624325275421143 0.36362361907958984 False False
3857.0629999999996 0.6540371179580688 -1.7662159405150355 -1.4971365928649902 -1.4414467525533219 1.5624123811721802 0.3636477291584015 False False
3857.0829999999996 0.6539872884750366 -1.7662483654417933 -1.4971423149108887 -1.4413865518620987 1.5624771118164062 0.3635697066783905 False False
3857.1029999999996 0.6540534496307373 -1.7662726841368617 -1.4971572160720825 -1.4413705927184601 1.5624529123306274 0.3636399507522583 False False
3857.123 0.6540065407752991 -1.766325136224264 -1.4972038269042969 -1.4414100062898179 1.5624243021011353 0.36364439129829407 False False
3857.143 0.654008150100708 -1.766245027581686 -1.4971994161605835 -1.4413868945888062 1.562400460243225 0.3636477589607239 False False
3857.163 0.6540170907974243 -1.7663294277586878 -1.4971661567687988 -1.4413623076728364 1.5623886585235596 0.36358198523521423 False False
3857.183 0.6540290117263794 -1.7662326298155726 -1.4971529245376587 -1.441418634062149 1.5624206066131592 0.3635953366756439 False False
3857.203 0.6540324687957764 -1.7662245235838832 -1.497178077697754 -1.441410319214203 1.5624165534973145 0.3636476993560791 False False
3857.223 0.6540488004684448 -1.766276021996969 -1.4971792697906494 -1.4414304059794922 1.562436580657959 0.36366552114486694 False False
3857.243 0.6540279984474182 -1.7662526569762171 -1.4971083402633667 -1.4413939726403733 1.562472939491272 0.3636280298233032 False False
3857.263 0.6540200710296631 -1.7662693462767542 -1.49714994430542 -1.44138656676326 1.5624206066131592 0.3636043071746826 False False
3857.283 0.6540279984474182 -1.7662283382811488 -1.4971824884414673 -1.4414508652738114 1.56242835521698 0.3636443614959717 False False
3857.303 0.6540036797523499 -1.7662693462767542 -1.4971586465835571 -1.4413980555585404 1.5624406337738037 0.36360281705856323 False False
3857.323 0.654008150100708 -1.7662326298155726 -1.4972199201583862 -1.4413787138513108 1.5624083280563354 0.3636522591114044 False False
3857.343 0.654008150100708 -1.7663127384581507 -1.4971379041671753 -1.4414022129825135 1.562408685684204 0.36363252997398376 False False
3857.363 0.6540334224700928 -1.7662607632079066 -1.4971704483032227 -1.4414586883834382 1.562436580657959 0.3635982275009155 False False
3857.383 0.6540534496307373 -1.7662326298155726 -1.497089147567749 -1.4414586138776322 1.5624529123306274 0.363631010055542 False False
3857.403 0.6540037393569946 -1.7662159405150355 -1.4971216917037964 -1.4414385867169877 1.5624445676803589 0.36364006996154785 False False
3857.423 0.6540200710296631 -1.7662607632079066 -1.4971336126327515 -1.4413987261107941 1.5624406337738037 0.36358922719955444 False False
3857.4429999999998 0.6540324687957764 -1.7663136921324671 -1.4971261024475098 -1.441398100262024 1.5623804330825806 0.36363252997398376 False False
3857.4629999999997 0.6540036797523499 -1.766245027581686 -1.497161865234375 -1.4413946580937882 1.562444806098938 0.3636522591114044 False False
3857.4829999999997 0.6540488004684448 -1.7663012943663539 -1.497211217880249 -1.441406325703003 1.5624165534973145 0.36362361907958984 False False
3857.5029999999997 0.6540533900260925 -1.766280313531393 -1.4971704483032227 -1.441406325703003 1.5624206066131592 0.36363548040390015 False False
3857.5229999999997 0.6540458798408508 -1.76629700283193 -1.49714994430542 -1.44138656676326 1.562444806098938 0.3635651469230652 False False
3857.5429999999997 0.6540977358818054 -1.76629700283193 -1.497161865234375 -1.4413664203933259 1.5624769926071167 0.3636522889137268 False False
3857.5629999999996 0.654069721698761 -1.7662159405150355 -1.4971174001693726 -1.441406325703003 1.5624123811721802 0.3636101484298706 False False
3857.5829999999996 0.654011070728302 -1.7662769756712855 -1.4971542358398438 -1.4414385718158265 1.5624488592147827 0.3636072278022766 False False
3857.6029999999996 0.6539874076843262 -1.7662683926024378 -1.4971823692321777 -1.4414466631463547 1.5624206066131592 0.3637193739414215 False False
3857.623 0.6540399789810181 -1.766285081902975 -1.4971216917037964 -1.4413746756366272 1.5624487400054932 0.3636445105075836 False False
3857.643 0.6540607213973999 -1.766285081902975 -1.4971833229064941 -1.4414303761771698 1.5624206066131592 0.36362653970718384 False False
3857.663 0.6539962887763977 -1.7662927112975062 -1.4971661567687988 -1.4413826924613495 1.5624046325683594 0.36362361907958984 False False
3857.683 0.654090404510498 -1.76629700283193 -1.497173547744751 -1.4414103341153641 1.5624446868896484 0.36357730627059937 False False
3857.703 0.6540154814720154 -1.7662726841368617 -1.4971692562103271 -1.4414022427848359 1.5623886585235596 0.3635651469230652 False False
3857.723 0.6540244221687317 -1.7662769756712855 -1.497157335281372 -1.4413582545569916 1.5623846054077148 0.363628089427948 False False
3857.743 0.654010534286499 -1.766240736047262 -1.4971380233764648 -1.4414099913886567 1.5624165534973145 0.3636432886123657 False False
3857.763 0.6540576815605164 -1.7662726841368617 -1.497133731842041 -1.441478670840599 1.562424659729004 0.3636566996574402 False False
3857.783 0.6540082097053528 -1.7662607632079066 -1.4971823692321777 -1.441349984412529 1.5624165534973145 0.363648921251297 False False
3857.803 0.653987467288971 -1.7662693462767542 -1.4971585273742676 -1.4414304357818146 1.5624127388000488 0.3636476993560791 False False
3857.823 0.654054582118988 -1.766285081902975 -1.497145652770996 -1.4414386612227936 1.5624165534973145 0.3636656105518341 False False
3857.843 0.6540413498878479 -1.766285081902975 -1.497191071510315 -1.4414386761239548 1.5624608993530273 0.3636191487312317 False False
3857.863 0.6540155410766602 -1.7663136921324671 -1.49714994430542 -1.441346288924553 1.5623886585235596 0.3636012375354767 False False
3857.883 0.6540443897247314 -1.7662369213499964 -1.497133731842041 -1.4414028984359284 1.562436580657959 0.36362361907958984 False False
3857.903 0.6540155410766602 -1.7662888966002406 -1.4971411228179932 -1.4414386463216324 1.562424659729004 0.3636355400085449 False False
3857.923 0.6540155410766602 -1.7662412128844203 -1.4971174001693726 -1.4414304506829758 1.5623928308486938 0.36364445090293884 False False
3857.9429999999998 0.6540443897247314 -1.7662559948363246 -1.4971628189086914 -1.4414345783046265 1.5623925924301147 0.36358195543289185 False False
3857.9629999999997 0.6539623141288757 -1.7662164173521937 -1.4971542358398438 -1.4413541716388245 1.562408685684204 0.36362361907958984 False False
3857.9829999999997 0.6540369987487793 -1.7662116489806117 -1.4971411228179932 -1.4414426249316712 1.5624006986618042 0.3635696768760681 False False
3858.0029999999997 0.654062032699585 -1.7662040195860804 -1.4971542358398438 -1.4413898897222062 1.5624006986618042 0.3635982573032379 False False
3858.0229999999997 0.6540324687957764 -1.7663337192931117 -1.497121810913086 -1.441394643192627 1.5624006986618042 0.36366117000579834 False False
3858.0429999999997 0.6540200710296631 -1.7663170299925746 -1.4971705675125122 -1.4414063406041642 1.5624006986618042 0.3635818660259247 False False
3858.0629999999996 0.6540287733078003 -1.7662412128844203 -1.4971367120742798 -1.4414345186999817 1.562452793121338 0.3636566996574402 False False
3858.0829999999996 0.6540237665176392 -1.766285081902975 -1.4972155094146729 -1.4413987261107941 1.562428593635559 0.36362358927726746 False False
3858.1029999999996 0.6540244221687317 -1.7662483654417933 -1.4971948862075806 -1.4413663309863587 1.5624006986618042 0.36361169815063477 False False
3858.123 0.654006838798523 -1.7662693462767542 -1.4971791505813599 -1.4414144170335312 1.562452793121338 0.36364448070526123 False False
3858.143 0.654102087020874 -1.7662693462767542 -1.497133731842041 -1.4413906347802659 1.562452793121338 0.3636400103569031 False False
3858.163 0.6540168523788452 -1.7663055859007777 -1.4971704483032227 -1.4414345783046265 1.5624245405197144 0.3636566996574402 False False
3858.183 0.6540533304214478 -1.7662397823729457 -1.4971423149108887 -1.4414304357818146 1.5624325275421143 0.3636566996574402 False False
3858.203 0.6540111899375916 -1.7662526569762171 -1.4971249103546143 -1.441418246631958 1.562408685684204 0.3636476993560791 False False
3858.223 0.6540156006813049 -1.7662283382811488 -1.497211217880249 -1.4413422805121918 1.562408685684204 0.363607257604599 False False
3858.243 0.6540111899375916 -1.7663213215269984 -1.4971132278442383 -1.441406325703003 1.562384843826294 0.363590806722641 False False
3858.263 0.6540369987487793 -1.7662164173521937 -1.497133731842041 -1.4413823795369645 1.5624444484710693 0.3636161684989929 False False
3858.283 0.6540413498878479 -1.7661963901915492 -1.4971661567687988 -1.441434533601143 1.5624446868896484 0.3636522591114044 False False
3858.303 0.6540576219558716 -1.7662245235838832 -1.4971294403076172 -1.441454679971077 1.5624606609344482 0.36357730627059937 False False
3858.323 0.6540243625640869 -1.7662607632079066 -1.4971823692321777 -1.441410319214203 1.5624206066131592 0.3636895418167114 False False
3858.343 0.6540082097053528 -1.7662927112975062 -1.4971466064453125 -1.4414022427848359 1.5624364614486694 0.36361169815063477 False False
3858.363 0.6540287137031555 -1.7662650547423304 -1.497121810913086 -1.4414140743068238 1.5624206066131592 0.36357417702674866 False False
3858.383 0.6539713144302368 -1.766245027581686 -1.4971585273742676 -1.441382424240448 1.5624126195907593 0.3636191487312317 False False
3858.403 0.6539713144302368 -1.7663055859007777 -1.497157096862793 -1.441390649681427 1.5624405145645142 0.363628089427948 False False
3858.423 0.6540243625640869 -1.7662683926024378 -1.4971750974655151 -1.4414586883834382 1.5623887777328491 0.3636309802532196 False False
3858.4429999999998 0.6540287137031555 -1.7663098774352015 -1.4972084760665894 -1.4413500440171738 1.5624685287475586 0.3636355400085449 False False
3858.4629999999997 0.6540200114250183 -1.7662579021849574 -1.4971498250961304 -1.441430391078331 1.562396764755249 0.36360281705856323 False False
3858.4829999999997 0.6540201306343079 -1.7662683926024378 -1.4971542358398438 -1.441430391078331 1.562416672706604 0.3636567294597626 False False
3858.5029999999997 0.6540324687957764 -1.7662326298155726 -1.4971243143081665 -1.4413540226272126 1.562404751777649 0.363631010055542 False False
3858.5229999999997 0.6540899872779846 -1.7663012943663539 -1.4971914291381836 -1.4413827371648331 1.5624126195907593 0.36362361907958984 False False
3858.5429999999997 0.6539950370788574 -1.766264101068014 -1.4971542358398438 -1.4413622629693528 1.5624526739120483 0.363631010055542 False False
3858.5629999999996 0.6540542244911194 -1.766264101068014 -1.497128963470459 -1.4414022427848359 1.5624566078186035 0.36360275745391846 False False
3858.5829999999996 0.6540069580078125 -1.7662927112975062 -1.4971824884414673 -1.441366360788681 1.5624126195907593 0.36364442110061646 False False
3858.6029999999996 0.6539595723152161 -1.7662493191161097 -1.4971705675125122 -1.441442684536316 1.5624724626541138 0.36366114020347595 False False
3858.623 0.6540822982788086 -1.766245027581686 -1.4971498250961304 -1.4413824093392869 1.5624487400054932 0.3636399507522583 False False
3858.643 0.653999388217926 -1.7662650547423304 -1.497140645980835 -1.4413747054389496 1.562404751777649 0.36362361907958984 False False
3858.663 0.6540124416351318 -1.7662927112975062 -1.4971617460250854 -1.4413705629161377 1.562396764755249 0.3636566996574402 False False
3858.683 0.6540400981903076 -1.7662564716734828 -1.4971661567687988 -1.4414464098266144 1.5624245405197144 0.36359092593193054 False False
3858.703 0.6540531516075134 -1.7662650547423304 -1.4971705675125122 -1.4414546948722382 1.5624206066131592 0.3636399805545807 False False
3858.723 0.6539626121520996 -1.7662693462767542 -1.4971586465835571 -1.4414022725871583 1.562408685684204 0.3636477291584015 False False
3858.743 0.6540369391441345 -1.7662564716734828 -1.4971051216125488 -1.4413823646358033 1.5624566078186035 0.3635830879211426 False False
3858.763 0.6540243625640869 -1.7663094005980433 -1.4971007108688354 -1.4413823795369645 1.5623964071273804 0.36365675926208496 False False
3858.783 0.6540125012397766 -1.7663012943663539 -1.4971675872802734 -1.4414022427848359 1.5624606609344482 0.36361169815063477 False False
3858.803 0.6540617942810059 -1.7662564716734828 -1.4971870183944702 -1.4414143723300477 1.5624005794525146 0.36360278725624084 False False
3858.823 0.6540243625640869 -1.7662769756712855 -1.497128963470459 -1.4414022427848359 1.5624165534973145 0.3636072278022766 False False
3858.843 0.6540693640708923 -1.7663289509215296 -1.4971542358398438 -1.4413946580937882 1.5624206066131592 0.36360278725624084 False False
3858.863 0.6540124416351318 -1.7663375339903773 -1.4971749782562256 -1.441406325703003 1.5624288320541382 0.363628089427948 False False
3858.883 0.6540069580078125 -1.7662888966002406 -1.4971586465835571 -1.4413980853608628 1.562424659729004 0.3636072278022766 False False
3858.903 0.6540155410766602 -1.7662564716734828 -1.4971452951431274 -1.4413940620473404 1.5624083280563354 0.36360570788383484 False False
3858.923 0.6540531516075134 -1.7662326298155726 -1.4971498250961304 -1.4414143872312088 1.562436580657959 0.36363551020622253 False False
3858.9429999999998 0.654008150100708 -1.7662607632079066 -1.4972023963928223 -1.4413981151631852 1.5624569654464722 0.36362364888191223 False False
3858.9629999999997 0.654008150100708 -1.76629700283193 -1.497178077697754 -1.441422314648964 1.5624730587005615 0.3636325001716614 False False
3858.9829999999997 0.6539552211761475 -1.7663022480406703 -1.4971617460250854 -1.4414141190103074 1.5624206066131592 0.3636355698108673 False False
3859.0029999999997 0.6540530920028687 -1.76629700283193 -1.4971586465835571 -1.4414545607617875 1.5624123811721802 0.3636191487312317 False False
3859.0229999999997 0.6540243625640869 -1.7662493191161097 -1.497128963470459 -1.4414466631463547 1.5624406337738037 0.36362653970718384 False False
3859.0429999999997 0.6540156006813049 -1.7662726841368617 -1.4971243143081665 -1.4413827520659943 1.5624446868896484 0.36357739567756653 False False
3859.0629999999996 0.6539595127105713 -1.7662769756712855 -1.4971498250961304 -1.4414385718158265 1.5624606609344482 0.36363551020622253 False False
3859.0829999999996 0.6539906859397888 -1.766219278375143 -1.497204065322876 -1.4413786840489884 1.56242835521698 0.363628089427948 False False
3859.1029999999996 0.6540281772613525 -1.7662579021849574 -1.4972158670425415 -1.441430391078331 1.5623964071273804 0.36363252997398376 False False
3859.123 0.653999388217926 -1.7662741146483363 -1.4971750974655151 -1.4414102745107193 1.5624407529830933 0.3636488914489746 False False
3859.143 0.6540070176124573 -1.7662369213499964 -1.4971587657928467 -1.4414345186999817 1.5623927116394043 0.3636370301246643 False False
3859.163 0.6540412306785583 -1.7662726841368617 -1.4971497058868408 -1.441446529035904 1.5624606609344482 0.36363551020622253 False False
3859.183 0.6540329456329346 -1.7663127384581507 -1.4971333742141724 -1.441418246631958 1.562408685684204 0.3636191487312317 False False
3859.203 0.654008150100708 -1.766275545159811 -1.4971661567687988 -1.4414624136737366 1.5623723268508911 0.36362361907958984 False False
3859.223 0.6540156006813049 -1.7663303814330042 -1.4971706867218018 -1.4414023023894806 1.562408685684204 0.3636191487312317 False False
3859.243 0.6540200710296631 -1.7662607632079066 -1.4971423149108887 -1.441442461018898 1.5623927116394043 0.3636655807495117 False False
3859.263 0.654008150100708 -1.7663055859007777 -1.497178077697754 -1.4414464247277756 1.5624046325683594 0.3636191189289093 False False
3859.283 0.6540324687957764 -1.7662607632079066 -1.4971379041671753 -1.441386730676033 1.5624488592147827 0.3636477589607239 False False
3859.303 0.6539800763130188 -1.7662769756712855 -1.497204065322876 -1.4413867753795166 1.5624569654464722 0.3635982275009155 False False
3859.323 0.6540286540985107 -1.7662683926024378 -1.4971661567687988 -1.441378728752472 1.5624529123306274 0.36367306113243103 False False
3859.343 0.6540400981903076 -1.766219278375143 -1.4971377849578857 -1.4414344739964982 1.5624529123306274 0.36359530687332153 False False
3859.363 0.6540369391441345 -1.7662798366942347 -1.4971750974655151 -1.4414261144450684 1.562408685684204 0.36368945240974426 False False
3859.383 0.6540324687957764 -1.7662974796690882 -1.4971587657928467 -1.4413787436536332 1.5624529123306274 0.3636400103569031 False False
3859.403 0.6540038585662842 -1.7663260898985804 -1.4971644878387451 -1.4413505804589768 1.5624046325683594 0.36359378695487976 False False
3859.423 0.6540324687957764 -1.7663217983641566 -1.497204065322876 -1.4414063406041642 1.5624325275421143 0.3636566698551178 False False
3859.4429999999998 0.6539843082427979 -1.7662283382811488 -1.4971542358398438 -1.4414026600173493 1.5623964071273804 0.3636355400085449 False False
3859.4629999999997 0.6540443301200867 -1.7662683926024378 -1.4971333742141724 -1.4413748693517228 1.5624570846557617 0.36369389295578003 False False
3859.4829999999997 0.6540286540985107 -1.766219278375143 -1.4971379041671753 -1.4413868200830002 1.5624569654464722 0.3636522591114044 False False
3859.5029999999997 0.6539908647537231 -1.7662769756712855 -1.4971452951431274 -1.4413709354451676 1.56242835521698 0.3636191487312317 False False
3859.5229999999997 0.6540070176124573 -1.7662316761412562 -1.4971750974655151 -1.4413985920003434 1.5624529123306274 0.36362361907958984 False False
3859.5429999999997 0.6540281772613525 -1.7662683926024378 -1.4971826076507568 -1.441394643192627 1.5624083280563354 0.3636355400085449 False False
3859.5629999999996 0.6540200710296631 -1.7663055859007777 -1.4971914291381836 -1.4414303314736863 1.5624046325683594 0.36366117000579834 False False
3859.5829999999996 0.6540200710296631 -1.766264101068014 -1.4971586465835571 -1.4413828265718003 1.5624488592147827 0.363648921251297 False False
3859.6029999999996 0.6540156006813049 -1.7662493191161097 -1.4971824884414673 -1.4414422375014802 1.5624808073043823 0.3636566996574402 False False
3859.623 0.6540324687957764 -1.7662741146483363 -1.4971377849578857 -1.441462056045868 1.5624406337738037 0.3636534512042999 False False
3859.643 0.6539757251739502 -1.7662364445128382 -1.4971840381622314 -1.4414142084172745 1.5623804330825806 0.3635818660259247 False False
3859.663 0.6540210843086243 -1.766280313531393 -1.4971661567687988 -1.4413787734559556 1.5623964071273804 0.36363252997398376 False False
3859.683 0.6540821194648743 -1.7662812672057093 -1.4971423149108887 -1.4414101553014298 1.5624569654464722 0.36363881826400757 False False
3859.703 0.6540454626083374 -1.766245027581686 -1.4971915483474731 -1.441406325703003 1.5624005794525146 0.36362361907958984 False False
3859.723 0.6540286540985107 -1.7662564716734828 -1.4971661567687988 -1.4413980853608628 1.5624009370803833 0.36368951201438904 False False
3859.743 0.6540411710739136 -1.7662564716734828 -1.4971706867218018 -1.441414014702179 1.5623681545257568 0.3636983036994934 False False
3859.763 0.6540369391441345 -1.7662364445128382 -1.4971214532852173 -1.4414386463216324 1.56242835521698 0.3636400103569031 False False
3859.783 0.6540038585662842 -1.7662230930724085 -1.4971661567687988 -1.4413786393455048 1.562380313873291 0.3636355698108673 False False
3859.803 0.6540109515190125 -1.766240736047262 -1.4971542358398438 -1.4414505523494263 1.56242835521698 0.36361464858055115 False False
3859.823 0.6540371179580688 -1.76629700283193 -1.4971542358398438 -1.4414144319346924 1.5624488592147827 0.3636400103569031 False False
3859.843 0.6540399789810181 -1.7662369213499964 -1.4971379041671753 -1.4414345634034653 1.5624325275421143 0.363631010055542 False False
3859.863 0.6540244817733765 -1.7662769756712855 -1.4971705675125122 -1.4414102745107193 1.562436580657959 0.3636476993560791 False False
3859.883 0.6540154814720154 -1.7662888966002406 -1.4971333742141724 -1.4414022427848359 1.562424659729004 0.3636280298233032 False False
3859.903 0.654028058052063 -1.7662073574461878 -1.4971750974655151 -1.4414345783046265 1.5624407529830933 0.36365342140197754 False False
3859.923 0.6540415287017822 -1.7662650547423304 -1.4971870183944702 -1.4413823795369645 1.5624730587005615 0.36362361907958984 False False
3859.9429999999998 0.6540697813034058 -1.7662412128844203 -1.4971498250961304 -1.4414547097733994 1.5623964071273804 0.36368194222450256 False False
3859.9629999999997 0.6540006399154663 -1.7662931881346644 -1.4971870183944702 -1.44138656676326 1.5624127388000488 0.3636685907840729 False False
3859.9829999999997 0.6540200710296631 -1.7662698231139125 -1.497199535369873 -1.4414304059794922 1.5624648332595825 0.36365222930908203 False False
3860.0029999999997 0.6540696620941162 -1.7662974796690882 -1.4971542358398438 -1.441430391078331 1.5623762607574463 0.36371466517448425 False False
3860.0229999999997 0.6540235280990601 -1.7662607632079066 -1.4971542358398438 -1.4413824093392869 1.56242835521698 0.36359089612960815 False False
3860.0429999999997 0.6540244817733765 -1.7662769756712855 -1.4971214532852173 -1.4414099764874955 1.5624165534973145 0.3636191785335541 False False
3860.0629999999996 0.6540244817733765 -1.7662493191161097 -1.4971586465835571 -1.4413705331138154 1.562408208847046 0.3636310398578644 False False
3860.0829999999996 0.6540488600730896 -1.7662650547423304 -1.4971333742141724 -1.4413907092860718 1.5623518228530884 0.36366111040115356 False False
3860.1029999999996 0.6540414690971375 -1.766224046746725 -1.497128963470459 -1.4414185744575043 1.5624446868896484 0.3636566698551178 False False
3860.123 0.6540324687957764 -1.7662931881346644 -1.497204065322876 -1.441446767454483 1.5624325275421143 0.3636191785335541 False False
3860.143 0.6540037393569946 -1.7663012943663539 -1.497124195098877 -1.4414223295501252 1.5624325275421143 0.36359089612960815 False False
3860.163 0.6539962291717529 -1.7662769756712855 -1.4971498250961304 -1.4414182317307969 1.562400460243225 0.3636355400085449 False False
3860.183 0.6540110111236572 -1.7663384876646937 -1.4971586465835571 -1.4414099913886567 1.562424659729004 0.3636685907840729 False False
3860.203 0.6540370583534241 -1.7662364445128382 -1.4971617460250854 -1.4414140743068238 1.5624206066131592 0.363607257604599 False False
3860.223 0.6539918184280396 -1.7663141689696253 -1.4971586465835571 -1.4413663458875199 1.5624446868896484 0.3636804223060608 False False
3860.243 0.6539783477783203 -1.7662536106505335 -1.4971423149108887 -1.4413786691478272 1.5624488592147827 0.363631010055542 False False
3860.263 0.6540324687957764 -1.7662974796690882 -1.4972068071365356 -1.441390649681427 1.5624123811721802 0.3636370003223419 False False
3860.283 0.654028058052063 -1.766264101068014 -1.4971362352371216 -1.441418246631958 1.5623964071273804 0.3635953366756439 False False
3860.303 0.6540244817733765 -1.766264101068014 -1.497199535369873 -1.4413824540427704 1.5624406337738037 0.3636191785335541 False False
3860.323 0.6540504097938538 -1.766252180139059 -1.4971705675125122 -1.4413786840489884 1.5624569654464722 0.3636205792427063 False False
3860.343 0.6539827585220337 -1.7662769756712855 -1.4971586465835571 -1.441422314648964 1.5624529123306274 0.36362361907958984 False False
3860.363 0.6539590954780579 -1.7663022480406703 -1.4971526861190796 -1.4413987261107941 1.5624569654464722 0.36364883184432983 False False
3860.383 0.6540534496307373 -1.7662493191161097 -1.4971868991851807 -1.4414182615331192 1.5624570846557617 0.3636566400527954 False False
3860.403 0.6540324687957764 -1.766224046746725 -1.4971914291381836 -1.4413705331138154 1.562424659729004 0.36356523633003235 False False
3860.423 0.6540786623954773 -1.7662235699095667 -1.497133493423462 -1.4414386612227936 1.562380313873291 0.36363697052001953 False False
3860.4429999999998 0.6539962291717529 -1.7662683926024378 -1.4971870183944702 -1.4413663458875199 1.5624206066131592 0.36362361907958984 False False
3860.4629999999997 0.6539873480796814 -1.7662888966002406 -1.4971498250961304 -1.4413823646358033 1.562444806098938 0.3636399507522583 False False
3860.4829999999997 0.6539828181266785 -1.7662326298155726 -1.4971379041671753 -1.4414021980813523 1.562396764755249 0.3636028468608856 False False
3860.5029999999997 0.6539710164070129 -1.766252180139059 -1.4971868991851807 -1.4414144170335312 1.5624045133590698 0.3636072874069214 False False
3860.5229999999997 0.6540036797523499 -1.7662116489806117 -1.497130274772644 -1.4413827073625107 1.5624165534973145 0.3636399507522583 False False
3860.5429999999997 0.6539918184280396 -1.7663103542723597 -1.4971290826797485 -1.441507027750351 1.5624046325683594 0.3636399507522583 False False
3860.5629999999996 0.6539918184280396 -1.766306062737936 -1.4972039461135864 -1.4414304357818146 1.5624325275421143 0.3636399507522583 False False
3860.5829999999996 0.6540200710296631 -1.766252180139059 -1.497179388999939 -1.4413980853608628 1.5623846054077148 0.3635939657688141 False False
3860.6029999999996 0.6540154218673706 -1.7662726841368617 -1.4971498250961304 -1.4414263230613251 1.5624569654464722 0.3636443614959717 False False
3860.623 0.654008150100708 -1.7663260898985804 -1.4972039461135864 -1.4414467078498383 1.5624005794525146 0.363701194524765 False False
3860.643 0.6539918184280396 -1.7663260898985804 -1.4971617460250854 -1.4413827073625107 1.5624165534973145 0.363582044839859 False False
3860.663 0.6540051698684692 -1.766275545159811 -1.497179388999939 -1.4413945984891434 1.5624407529830933 0.3635653853416443 False False
3860.683 0.6540279388427734 -1.7662607632079066 -1.497124433517456 -1.4413865518620987 1.5624206066131592 0.3636280298233032 False False
3860.703 0.6540125608444214 -1.7662698231139125 -1.4971157312393188 -1.4414263379624863 1.562424659729004 0.36354905366897583 False False
3860.723 0.6540290117263794 -1.7663175068297328 -1.4972038269042969 -1.4414304059794922 1.5623844861984253 0.36362361907958984 False False
3860.743 0.6539962291717529 -1.7662493191161097 -1.4971498250961304 -1.4414586883834382 1.562380313873291 0.363602876663208 False False
3860.763 0.6540200710296631 -1.7663384876646937 -1.4971364736557007 -1.4413899344256897 1.562436580657959 0.36363694071769714 False False
3860.783 0.6539782285690308 -1.7662607632079066 -1.497133493423462 -1.4413827073625107 1.562436580657959 0.36359837651252747 False False
3860.803 0.6539900898933411 -1.7662536106505335 -1.4970875978469849 -1.4414426994374772 1.5624165534973145 0.3636355400085449 False False
3860.823 0.6540787220001221 -1.7662974796690882 -1.4971379041671753 -1.4413906347802659 1.5623962879180908 0.3636399507522583 False False
3860.843 0.6540126204490662 -1.7662493191161097 -1.4971749782562256 -1.4414304059794922 1.5624165534973145 0.36366403102874756 False False
3860.863 0.6539754271507263 -1.766334672967428 -1.4971661567687988 -1.4414223742536088 1.5624406337738037 0.3636477291584015 False False
3860.883 0.6539708971977234 -1.7662726841368617 -1.4971542358398438 -1.441366360788681 1.5623844861984253 0.363631010055542 False False
3860.903 0.6540036797523499 -1.7662726841368617 -1.4971950054168701 -1.4413868945888062 1.5624005794525146 0.363656610250473 False False
3860.923 0.6540109515190125 -1.766243120233053 -1.4971950054168701 -1.4413786989501496 1.5624325275421143 0.3636355698108673 False False
3860.9429999999998 0.6540334224700928 -1.7662159405150355 -1.4971246719360352 -1.4414304059794922 1.5624165534973145 0.36365658044815063 False False
3860.9629999999997 0.6540324687957764 -1.76627840618276 -1.4971379041671753 -1.4413746458343049 1.5624005794525146 0.3636443316936493 False False
3860.9829999999997 0.65399169921875 -1.7662726841368617 -1.4971792697906494 -1.4413865965655823 1.5624407529830933 0.36358657479286194 False False
3861.0029999999997 0.6539590358734131 -1.766219278375143 -1.4971140623092651 -1.4414263528636475 1.56242835521698 0.3635909855365753 False False
3861.0229999999997 0.6540245413780212 -1.7662769756712855 -1.4971410036087036 -1.441406325703003 1.5624005794525146 0.36363691091537476 False False
3861.0429999999997 0.6540324091911316 -1.7663012943663539 -1.497129201889038 -1.4414426696351548 1.562348484992981 0.3636266589164734 False False
3861.0629999999996 0.6540021300315857 -1.7662650547423304 -1.4971455335617065 -1.441406325703003 1.562400460243225 0.3636266589164734 False False
3861.0829999999996 0.6540459990501404 -1.7662769756712855 -1.4971336126327515 -1.4413623225739975 1.5624243021011353 0.3636355400085449 False False
3861.1029999999996 0.6539498567581177 -1.7662493191161097 -1.497199296951294 -1.441366360788681 1.5624529123306274 0.36365658044815063 False False
3861.123 0.6539798378944397 -1.766252180139059 -1.4971823692321777 -1.4414505821517487 1.562408685684204 0.36362364888191223 False False
3861.143 0.6540036797523499 -1.7662931881346644 -1.4971867799758911 -1.4413746309331437 1.562408685684204 0.3636072874069214 False False
3861.163 0.6539917588233948 -1.7663303814330042 -1.4971336126327515 -1.4413382571986695 1.5624005794525146 0.3635866045951843 False False
3861.183 0.6539709568023682 -1.7662607632079066 -1.49714994430542 -1.4414263379624863 1.562424659729004 0.3636398911476135 False False
3861.203 0.6539872884750366 -1.7662493191161097 -1.4971648454666138 -1.4414386761239548 1.5624570846557617 0.36363106966018677 False False
3861.223 0.6539918184280396 -1.766259332696432 -1.4971661567687988 -1.4413906049779435 1.5624325275421143 0.3636029362678528 False False
3861.243 0.6539873480796814 -1.7662650547423304 -1.4972037076950073 -1.4414223295501252 1.562472939491272 0.36361923813819885 False False
3861.263 0.6540743112564087 -1.766280313531393 -1.49714994430542 -1.441406325703003 1.5624206066131592 0.3636355400085449 False False
3861.283 0.6540371179580688 -1.7662884197630824 -1.4971661567687988 -1.4413463485291977 1.5624123811721802 0.3636073172092438 False False
3861.303 0.6540036797523499 -1.766280313531393 -1.4971542358398438 -1.4414345783046265 1.5624325275421143 0.36362361907958984 False False
3861.323 0.6539873480796814 -1.7662607632079066 -1.4971466064453125 -1.4414426696351548 1.5624407529830933 0.36363106966018677 False False
3861.343 0.6540245413780212 -1.7662931881346644 -1.4971950054168701 -1.4414140743068238 1.5624123811721802 0.36362361907958984 False False
3861.363 0.6540334224700928 -1.7662888966002406 -1.497161865234375 -1.4413906049779435 1.5624446868896484 0.36362361907958984 False False
3861.383 0.654008150100708 -1.7663341961302699 -1.4971585273742676 -1.4413865518620987 1.562400460243225 0.36361923813819885 False False
3861.403 0.6540126204490662 -1.7663232288756312 -1.49714994430542 -1.441402257685997 1.5624046325683594 0.3636222779750824 False False
3861.423 0.653994619846344 -1.7663303814330042 -1.4971380233764648 -1.4414144319346924 1.5624123811721802 0.36362671852111816 False False
3861.4429999999998 0.6539917588233948 -1.766264101068014 -1.4971380233764648 -1.4414022278836747 1.5624488592147827 0.36361923813819885 False False
3861.4629999999997 0.6540279388427734 -1.7662812672057093 -1.4971097707748413 -1.4414910239032288 1.562416911125183 0.36362361907958984 False False
3861.4829999999997 0.6540379524230957 -1.7662931881346644 -1.4971877336502075 -1.441418246631958 1.5624688863754272 0.36361923813819885 False False
3861.5029999999997 0.6540289521217346 -1.7662974796690882 -1.497133731842041 -1.4413865071586152 1.5624569654464722 0.3636368215084076 False False
3861.5229999999997 0.6540459990501404 -1.7662493191161097 -1.4971867799758911 -1.4413987559131165 1.562436580657959 0.36362797021865845 False False
3861.5429999999997 0.6539618372917175 -1.7662164173521937 -1.4971909523010254 -1.4414144319346924 1.5623964071273804 0.36362361907958984 False False
3861.5629999999996 0.6540371179580688 -1.7662888966002406 -1.497161865234375 -1.4413746458343049 1.562364101409912 0.36366090178489685 False False
3861.5829999999996 0.6539918184280396 -1.7662888966002406 -1.4971661567687988 -1.441414089207985 1.5624488592147827 0.36361169815063477 False False
3861.6029999999996 0.6540200710296631 -1.7662769756712855 -1.4971586465835571 -1.4413946580937882 1.5624488592147827 0.36365216970443726 False False
3861.623 0.6540534496307373 -1.7662564716734828 -1.4971704483032227 -1.441378654246666 1.5624165534973145 0.363598495721817 False False
3861.643 0.6540743112564087 -1.7663141689696253 -1.4971542358398438 -1.4414467078498383 1.5624046325683594 0.363689124584198 False False
3861.663 0.6540652513504028 -1.7662564716734828 -1.4972078800201416 -1.441418246631958 1.5624688863754272 0.3636104166507721 False False
3861.683 0.6539782285690308 -1.7662888966002406 -1.49714994430542 -1.4414426398328324 1.5624243021011353 0.3636179566383362 False False
3861.703 0.6540334224700928 -1.766240736047262 -1.4971661567687988 -1.4414303761771698 1.5624488592147827 0.36363106966018677 False False
3861.723 0.654008150100708 -1.7662683926024378 -1.4971747398376465 -1.4414425951293488 1.5624123811721802 0.36366531252861023 False False
3861.743 0.6540279984474182 -1.766252180139059 -1.4971628189086914 -1.4413906645825882 1.5624488592147827 0.3636310398578644 False False
3861.763 0.6539990901947021 -1.7663127384581507 -1.4971704483032227 -1.4413868647864838 1.5624046325683594 0.3636651933193207 False False
3861.783 0.6540170311927795 -1.7662607632079066 -1.49714994430542 -1.4414100658944626 1.5624406337738037 0.36366087198257446 False False
3861.803 0.6539826989173889 -1.766240736047262 -1.4971747398376465 -1.4414022725871583 1.5624206066131592 0.36361923813819885 False False
3861.823 0.6540036797523499 -1.7662974796690882 -1.4971716403961182 -1.4414100658944626 1.562472939491272 0.3635997474193573 False False
3861.843 0.6540154814720154 -1.7663012943663539 -1.4971542358398438 -1.441406251197197 1.5624488592147827 0.36367279291152954 False False
3861.863 0.6540235877037048 -1.766325136224264 -1.4971585273742676 -1.441386641269066 1.5624529123306274 0.36358222365379333 False False
3861.883 0.6540110111236572 -1.7662974796690882 -1.4971704483032227 -1.4414022874883194 1.5624325275421143 0.36363235116004944 False False
3861.903 0.6539873480796814 -1.7662607632079066 -1.4971380233764648 -1.441410095696785 1.5623886585235596 0.3636355400085449 False False
3861.923 0.6539977192878723 -1.7662555179991664 -1.497133731842041 -1.441378728752472 1.5624569654464722 0.36362361907958984 False False
3861.9429999999998 0.6540244817733765 -1.766224046746725 -1.4971823692321777 -1.4413866710713883 1.562408685684204 0.36358222365379333 False False
3861.9629999999997 0.6540154218673706 -1.7662888966002406 -1.4971747398376465 -1.441442461018898 1.5624165534973145 0.36362797021865845 False False
3861.9829999999997 0.6539917588233948 -1.766245027581686 -1.497121810913086 -1.441378728752472 1.5624165534973145 0.3636477589607239 False False
3862.0029999999997 0.6539874076843262 -1.766245027581686 -1.4971628189086914 -1.441350520854332 1.562424659729004 0.36363109946250916 False False
3862.0229999999997 0.6539827585220337 -1.7662164173521937 -1.4971866607666016 -1.4414385271123429 1.5624165534973145 0.36360302567481995 False False
3862.0429999999997 0.6540200710296631 -1.7663098774352015 -1.4971085786819458 -1.4413825583508988 1.56242835521698 0.36365213990211487 False False
3862.0629999999996 0.654050350189209 -1.7662278614439906 -1.4971922636032104 -1.4414385122111817 1.5624406337738037 0.36360299587249756 False False
3862.0829999999996 0.6540200710296631 -1.7663122616209925 -1.4971303939819336 -1.4414222550443192 1.5624406337738037 0.36365655064582825 False False
3862.1029999999996 0.6540289521217346 -1.766252180139059 -1.497121810913086 -1.4413624715856095 1.56239652633667 0.36363548040390015 False False
3862.123 0.6540154814720154 -1.7662812672057093 -1.4971044063568115 -1.4414063406041642 1.5624206066131592 0.36362364888191223 False False
3862.143 0.6539828181266785 -1.7662564716734828 -1.49714994430542 -1.441406325703003 1.5624687671661377 0.3636433482170105 False False
3862.163 0.6540037393569946 -1.766240736047262 -1.4971542358398438 -1.441394643192627 1.5624406337738037 0.3636399209499359 False False
3862.183 0.6540458798408508 -1.7662321529784144 -1.4971661567687988 -1.441418246631958 1.5624284744262695 0.36361047625541687 False False
3862.203 0.6539991497993469 -1.7662650547423304 -1.4971585273742676 -1.4413748246482392 1.5624406337738037 0.36361604928970337 False False
3862.223 0.6540244817733765 -1.766264101068014 -1.4971542358398438 -1.4413826924613495 1.562452793121338 0.36367711424827576 False False
3862.243 0.6540066599845886 -1.7662769756712855 -1.497161865234375 -1.4413628739169617 1.5624165534973145 0.36363232135772705 False False
3862.263 0.6540037393569946 -1.7662683926024378 -1.4971823692321777 -1.4413667780211945 1.562424659729004 0.36370205879211426 False False
3862.283 0.6540324091911316 -1.766245027581686 -1.4971423149108887 -1.4414023619941254 1.5624325275421143 0.36364859342575073 False False
3862.303 0.654008150100708 -1.766224046746725 -1.49714994430542 -1.4414222103408356 1.5624568462371826 0.3636398911476135 False False
3862.323 0.6540200710296631 -1.7662564716734828 -1.4972035884857178 -1.4414023619941254 1.562416672706604 0.3636607825756073 False False
3862.343 0.6540200710296631 -1.7662931881346644 -1.4971747398376465 -1.441446305518486 1.5624607801437378 0.36361050605773926 False False
3862.363 0.6540324687957764 -1.766245504418844 -1.4971704483032227 -1.4414340567639847 1.5623847246170044 0.3636355400085449 False False
3862.383 0.6540443897247314 -1.7662974796690882 -1.4971261024475098 -1.4414142084172745 1.562408685684204 0.36367711424827576 False False
3862.403 0.6539947986602783 -1.7663170299925746 -1.497161865234375 -1.441386805181839 1.5624046325683594 0.36361926794052124 False False
3862.423 0.6540533900260925 -1.7662564716734828 -1.4971704483032227 -1.4413749438575287 1.562416672706604 0.36359110474586487 False False
3862.4429999999998 0.6540067195892334 -1.7662197552123011 -1.497161865234375 -1.4413983535817643 1.5624046325683594 0.3636398911476135 False False
3862.4629999999997 0.65409916639328 -1.766224046746725 -1.497161865234375 -1.441442222600319 1.5624446868896484 0.36358675360679626 False False
3862.4829999999997 0.6540501713752747 -1.7662974796690882 -1.49714994430542 -1.4413587313941498 1.5624125003814697 0.36361169815063477 False False
3862.5029999999997 0.6540200710296631 -1.7662769756712855 -1.4971824884414673 -1.4413749736598511 1.5623726844787598 0.36358675360679626 False False
3862.5229999999997 0.654008150100708 -1.7662607632079066 -1.4971214532852173 -1.4414386463216324 1.5624526739120483 0.3636476993560791 False False
3862.5429999999997 0.6540037989616394 -1.7662364445128382 -1.497199535369873 -1.4413987261107941 1.5624006986618042 0.3636355400085449 False False
3862.5629999999996 0.6540244221687317 -1.7662278614439906 -1.4971542358398438 -1.4413786840489884 1.5624364614486694 0.3636727035045624 False False
3862.5829999999996 0.6540244221687317 -1.766301771203512 -1.4971542358398438 -1.441410319214203 1.5623966455459595 0.36360734701156616 False False
3862.6029999999996 0.6540370583534241 -1.7662974796690882 -1.4972128868103027 -1.4413827669671555 1.5624446868896484 0.3636564612388611 False False
3862.623 0.6540369987487793 -1.7662321529784144 -1.4971586465835571 -1.4414099764874955 1.562452793121338 0.36360305547714233 False False
3862.643 0.6540037393569946 -1.7662283382811488 -1.4971705675125122 -1.4413706076196213 1.5624008178710938 0.3635823428630829 False False
3862.663 0.6540487408638 -1.7662812672057093 -1.497128963470459 -1.4414426696351548 1.5624645948410034 0.36368468403816223 False False
3862.683 0.654053270816803 -1.7662564716734828 -1.4971542358398438 -1.4414505672505875 1.562368631362915 0.3636564314365387 False False
3862.703 0.6540457606315613 -1.7663256130614222 -1.497157096862793 -1.4414144319346924 1.5624284744262695 0.36360621452331543 False False
3862.723 0.6540005803108215 -1.7663055859007777 -1.4971705675125122 -1.441382722263672 1.5624325275421143 0.36359861493110657 False False
3862.743 0.6540443897247314 -1.7662683926024378 -1.4971951246261597 -1.441446692948677 1.5624765157699585 0.3636564314365387 False False
3862.763 0.6540155410766602 -1.7662888966002406 -1.497199535369873 -1.4414103341153641 1.562384843826294 0.36360305547714233 False False
3862.783 0.6539875268936157 -1.7662888966002406 -1.497157096862793 -1.4414463353208085 1.5624008178710938 0.3636639416217804 False False
3862.803 0.6539875268936157 -1.7662598095335902 -1.4972039461135864 -1.4414304357818146 1.5624487400054932 0.36363983154296875 False False
3862.823 0.653971254825592 -1.7662650547423304 -1.4971452951431274 -1.4413664501956482 1.5624487400054932 0.36366838216781616 False False
3862.843 0.654053270816803 -1.766264101068014 -1.4971542358398438 -1.4413987261107941 1.5623888969421387 0.36365213990211487 False False
3862.863 0.6540155410766602 -1.766252180139059 -1.4971243143081665 -1.441454679971077 1.5624245405197144 0.3636607229709625 False False
3862.883 0.6540037989616394 -1.7662855587401332 -1.4971824884414673 -1.4414103341153641 1.5624008178710938 0.3636030852794647 False False
3862.903 0.6540544033050537 -1.7662931881346644 -1.4972039461135864 -1.4414022129825135 1.562408685684204 0.36360305547714233 False False
3862.923 0.653980016708374 -1.7662888966002406 -1.4971824884414673 -1.4413786393455048 1.5624325275421143 0.3636322617530823 False False
3862.9429999999998 0.6540413498878479 -1.7662888966002406 -1.4971705675125122 -1.4414103341153641 1.5624325275421143 0.3636484742164612 False False
3862.9629999999997 0.6539992690086365 -1.7663141689696253 -1.497145414352417 -1.441442684536316 1.5624325275421143 0.36361929774284363 False False
3862.9829999999997 0.6540413498878479 -1.7663127384581507 -1.4971950054168701 -1.4414710861495514 1.5624487400054932 0.3636268377304077 False False
3863.0029999999997 0.6540324687957764 -1.7662846050658167 -1.4971423149108887 -1.4414345634034653 1.562376618385315 0.3636355400085449 False False
3863.0229999999997 0.6540244221687317 -1.7662855587401332 -1.4971661567687988 -1.4414223593524476 1.562424659729004 0.3636355400085449 False False
3863.0429999999997 0.6540324687957764 -1.7662393055357875 -1.4971333742141724 -1.4414304059794922 1.5623804330825806 0.36364659667015076 False False
3863.0629999999996 0.6540499925613403 -1.766240736047262 -1.4971542358398438 -1.44138656676326 1.5623763799667358 0.3636355400085449 False False
3863.0829999999996 0.6540486812591553 -1.7662846050658167 -1.4971705675125122 -1.441406325703003 1.5624083280563354 0.36364418268203735 False False
3863.1029999999996 0.6540155410766602 -1.7662931881346644 -1.4971333742141724 -1.4414505374482651 1.5624046325683594 0.3636476695537567 False False
3863.123 0.6540500521659851 -1.766247888604635 -1.4971661567687988 -1.4414100360921402 1.5624123811721802 0.3635868430137634 False False
3863.143 0.6540200710296631 -1.7662812672057093 -1.4971705675125122 -1.4413260382464905 1.5624407529830933 0.36361929774284363 False False
3863.163 0.6539918780326843 -1.7662397823729457 -1.497146725654602 -1.44141440213237 1.562432885169983 0.36362794041633606 False False
3863.183 0.6540037989616394 -1.766252180139059 -1.497140645980835 -1.4414546948722382 1.56242835521698 0.3636322021484375 False False
3863.203 0.6540661454200745 -1.7662693462767542 -1.497178077697754 -1.4414467078498383 1.56242835521698 0.3636159598827362 False False
3863.223 0.6540243625640869 -1.7662769756712855 -1.4971423149108887 -1.4413746458343049 1.562444806098938 0.3636521100997925 False False
3863.243 0.6540487408638 -1.7663141689696253 -1.4971870183944702 -1.4413823795369645 1.5623762607574463 0.36365213990211487 False False
3863.263 0.6540243625640869 -1.766289850274557 -1.4971661567687988 -1.441382349734642 1.5624046325683594 0.3636105954647064 False False
3863.283 0.6540413498878479 -1.766273637811178 -1.4971824884414673 -1.441394643192627 1.5624243021011353 0.36358681321144104 False False
3863.303 0.6540005803108215 -1.7662564716734828 -1.497178077697754 -1.4414426696351548 1.5624812841415405 0.36365213990211487 False False
3863.323 0.6540324687957764 -1.7662650547423304 -1.497208595275879 -1.4414304953864594 1.5624128580093384 0.36367267370224 False False
3863.343 0.6540369391441345 -1.7662607632079066 -1.4971379041671753 -1.4414345783046265 1.5624529123306274 0.3636521100997925 False False
3863.363 0.6540286540985107 -1.766252180139059 -1.497117042541504 -1.4414386612227936 1.5624446868896484 0.3635824918746948 False False
3863.383 0.653999388217926 -1.766252180139059 -1.4971258640289307 -1.4413823646358033 1.5624247789382935 0.3636694550514221 False False
3863.403 0.6540324091911316 -1.7663141689696253 -1.4971333742141724 -1.44141440213237 1.56242835521698 0.3636106252670288 False False
3863.423 0.6540243625640869 -1.766252180139059 -1.4971870183944702 -1.4413745713284989 1.5624206066131592 0.36355841159820557 False False
3863.4429999999998 0.6539669632911682 -1.766240736047262 -1.4971705675125122 -1.4414022427848359 1.562400460243225 0.36368560791015625 False False
3863.4629999999997 0.6540455222129822 -1.766276021996969 -1.4971870183944702 -1.4413622629693528 1.5624123811721802 0.3636726438999176 False False
3863.4829999999997 0.6540243625640869 -1.7663213215269984 -1.4971795082092285 -1.4413946580937882 1.562408685684204 0.3636683523654938 False False
3863.5029999999997 0.6540286540985107 -1.7662769756712855 -1.4971951246261597 -1.4414063406041642 1.5624566078186035 0.363619327545166 False False
3863.5229999999997 0.6540069580078125 -1.7662607632079066 -1.4971498250961304 -1.4413865816644211 1.5624606609344482 0.36363983154296875 False False
3863.5429999999997 0.6540048122406006 -1.7662536106505335 -1.497184157371521 -1.4414304357818146 1.56242835521698 0.363619327545166 False False
3863.5629999999996 0.6540286540985107 -1.766245027581686 -1.4971379041671753 -1.4414063555053254 1.562408685684204 0.36367267370224 False False
3863.5829999999996 0.6540200710296631 -1.7662812672057093 -1.497204065322876 -1.4413980704597016 1.5624607801437378 0.36363983154296875 False False
3863.6029999999996 0.6540243625640869 -1.7662974796690882 -1.49716317653656 -1.4413865518620987 1.5623962879180908 0.36362361907958984 False False
3863.623 0.653995156288147 -1.7662683926024378 -1.497128963470459 -1.44138656676326 1.562436580657959 0.36365216970443726 False False
3863.643 0.6540324687957764 -1.7662369213499964 -1.4971840381622314 -1.441406325703003 1.5623881816864014 0.3636963665485382 False False
3863.663 0.6540330052375793 -1.7662974796690882 -1.4971675872802734 -1.4414345783046265 1.56242835521698 0.36369213461875916 False False
3863.683 0.6539831757545471 -1.76629700283193 -1.4970976114273071 -1.441422314648964 1.5624046325683594 0.3636564016342163 False False
3863.703 0.6540243625640869 -1.7662121258177699 -1.4971423149108887 -1.441370503311493 1.562416434288025 0.363619327545166 False False
3863.723 0.654008150100708 -1.7662083111205042 -1.497178077697754 -1.441410319214203 1.5624005794525146 0.36366069316864014 False False
3863.743 0.6540329456329346 -1.7662650547423304 -1.4971914291381836 -1.4413786393455048 1.5624005794525146 0.3636311888694763 False False
3863.763 0.6540200114250183 -1.7662726841368617 -1.4971333742141724 -1.441366360788681 1.562436580657959 0.36362361907958984 False False
3863.783 0.6539788246154785 -1.7662931881346644 -1.4971750974655151 -1.4414223295501252 1.5624123811721802 0.363619327545166 False False
3863.803 0.6540532112121582 -1.766264101068014 -1.497140645980835 -1.4413786393455048 1.5624165534973145 0.36363986134529114 False False
3863.823 0.6539919376373291 -1.7662121258177699 -1.4971498250961304 -1.4414103341153641 1.562392234802246 0.36362364888191223 False False
3863.843 0.6540200710296631 -1.766276021996969 -1.4971423149108887 -1.4413705331138154 1.5624005794525146 0.3635998070240021 False False
3863.863 0.6539876461029053 -1.7662326298155726 -1.4971959590911865 -1.441410319214203 1.5624406337738037 0.36363112926483154 False False
3863.883 0.6540200710296631 -1.7662927112975062 -1.497112512588501 -1.4413865518620987 1.5624688863754272 0.36363112926483154 False False
3863.903 0.6540617346763611 -1.7662369213499964 -1.4971288442611694 -1.4413746309331437 1.5624406337738037 0.36360305547714233 False False
3863.923 0.6540005207061768 -1.7662116489806117 -1.4971423149108887 -1.441370577817299 1.5623964071273804 0.3636563718318939 False False
3863.9429999999998 0.6539713144302368 -1.766276021996969 -1.4971661567687988 -1.4413987261107941 1.5624123811721802 0.36363115906715393 False False
3863.9629999999997 0.6540200114250183 -1.7662607632079066 -1.497178077697754 -1.4414263379624863 1.562452793121338 0.36358243227005005 False False
3863.9829999999997 0.6539788246154785 -1.7662564716734828 -1.4971423149108887 -1.441406325703003 1.5624165534973145 0.3636520802974701 False False
3864.0029999999997 0.6540156006813049 -1.7662202320494593 -1.4971333742141724 -1.4414386761239548 1.562436580657959 0.3636639416217804 False False
3864.0229999999997 0.6540200710296631 -1.7662283382811488 -1.497157096862793 -1.441366360788681 1.5624446868896484 0.3636769950389862 False False
3864.0429999999997 0.654008150100708 -1.766280313531393 -1.4971795082092285 -1.4413786393455048 1.5624688863754272 0.36361488699913025 False False
3864.0629999999996 0.6540412902832031 -1.7662807903685511 -1.4971661567687988 -1.441446767454483 1.5624005794525146 0.3636520802974701 False False
3864.0829999999996 0.654041588306427 -1.7662683926024378 -1.4972187280654907 -1.44141440213237 1.5624406337738037 0.3636355400085449 False False
3864.1029999999996 0.65398770570755 -1.7662598095335902 -1.4971705675125122 -1.4414505821517487 1.5623846054077148 0.363619327545166 False False
3864.123 0.6540369391441345 -1.7662493191161097 -1.497128963470459 -1.4414426696351548 1.562436580657959 0.3635997772216797 False False
3864.143 0.6539950966835022 -1.7662369213499964 -1.4971214532852173 -1.4413906347802659 1.5624569654464722 0.36361491680145264 False False
3864.163 0.6540243625640869 -1.7662812672057093 -1.497128963470459 -1.441495106821396 1.5624771118164062 0.36361491680145264 False False
3864.183 0.6540531516075134 -1.7662888966002406 -1.4971498250961304 -1.441362277870514 1.5624083280563354 0.36367687582969666 False False
3864.203 0.6539831757545471 -1.7662283382811488 -1.4971587657928467 -1.4414263528636475 1.5623923540115356 0.36366063356399536 False False
3864.223 0.654008150100708 -1.7662683926024378 -1.4971498250961304 -1.4413705331138154 1.562424659729004 0.36360305547714233 False False
3864.243 0.6540486812591553 -1.7662769756712855 -1.4971542358398438 -1.441406325703003 1.5624606609344482 0.3635789453983307 False False
3864.263 0.6540369391441345 -1.7662693462767542 -1.4971705675125122 -1.4414182317307969 1.5624529123306274 0.36366066336631775 False False
3864.283 0.6540324687957764 -1.7662369213499964 -1.4971498250961304 -1.4414103341153641 1.5624165534973145 0.36363986134529114 False False
3864.303 0.6540324687957764 -1.7662607632079066 -1.4971750974655151 -1.4414263230613251 1.562416434288025 0.3635868430137634 False False
3864.323 0.653999388217926 -1.7662888966002406 -1.4971706867218018 -1.4413865816644211 1.5624446868896484 0.3635997474193573 False False
3864.343 0.6539865136146545 -1.7662888966002406 -1.497151255607605 -1.4413541865399857 1.5624407529830933 0.36359870433807373 False False
3864.363 0.6540412306785583 -1.7662564716734828 -1.497112512588501 -1.441430465584137 1.5624730587005615 0.3636963963508606 False False
3864.383 0.6540286540985107 -1.766317983666891 -1.4971750974655151 -1.441398100262024 1.5624046325683594 0.3636520802974701 False False
3864.403 0.6540694832801819 -1.766273637811178 -1.4971586465835571 -1.4414103341153641 1.562444806098938 0.36362361907958984 False False
3864.423 0.6540038585662842 -1.7662683926024378 -1.4971303939819336 -1.4414140594056626 1.5624366998672485 0.3636484742164612 False False
3864.4429999999998 0.6540156006813049 -1.766264101068014 -1.497178077697754 -1.4413980853608628 1.5623923540115356 0.3636520802974701 False False
3864.4629999999997 0.6540372371673584 -1.766277929345602 -1.4971452951431274 -1.4414182615331192 1.5624690055847168 0.3636649549007416 False False
3864.4829999999997 0.6539757251739502 -1.7662846050658167 -1.497117042541504 -1.441378341322281 1.562424659729004 0.36360740661621094 False False
3864.5029999999997 0.6540238261222839 -1.766276021996969 -1.4971795082092285 -1.441370577817299 1.5624688863754272 0.36362361907958984 False False
3864.5229999999997 0.6540069580078125 -1.766277929345602 -1.4972323179244995 -1.4414467078498383 1.5624445676803589 0.3636683225631714 False False
