Andreas691667/Digital_Twin_UR/data_analysis/test_results/04_10_2024_16_49_56.csv
actual_q_0 actual_q_1 actual_q_2 actual_q_3 actual_q_4 actual_q_5 actual_qd_0 actual_qd_1 actual_qd_2 actual_qd_3 actual_qd_4 actual_qd_5 actual_qdd_0 actual_qdd_1 actual_qdd_2 actual_qdd_3 actual_qdd_4 actual_qdd_5 timestamp
3.3477777180732176 -1.3056645702871865 1.5899193464519294 -1.8550511782146855 -1.5707962785952745 1.776981393646821 0.0 0.0 0.0 0.0 0.0 0.0 0.0 0.0 0.0 0.0 0.0 0.0 5663.007
3.3485767041326433 -1.3058525783401478 1.5901317538508875 -1.8550755775192322 -1.5707962786234146 1.7777803797048584 0.05869103514231195 -0.013810487821678843 0.015602788020719665 -0.0017922971542555627 -2.0670823250839024e-09 0.05869103504031592 2.8122787672357807 -0.6617525414554445 0.7476335926594839 -0.08588090530807906 -9.904769474360365e-08 2.812278762348471 5663.057
3.353781593594072 -1.3070773320413893 1.5915154538783454 -1.8552345235754282 -1.5707962788067293 1.7829852691572414 0.21560803882140986 -0.05073436151158408 0.0573185754372271 -0.006584202740286061 -7.593656597009613e-09 0.2156080384467161 4.921487842662616 -1.158066947547028 1.308358787154097 -0.15029158428913833 -1.7333346580130638e-07 4.921487834109825 5663.107
3.3667752725108446 -1.3101348525639662 1.5949697738993862 -1.8556313223998036 -1.5707962792643633 1.7959789480514332 0.4438509532637341 -0.10444181415144625 0.11799608440669246 -0.013554247229057693 -1.563231008344701e-08 0.44385095249238915 6.388763721220414 -1.503329143088999 1.6984284876720883 -0.19509901314552738 -2.2501052392840393e-07 6.388763710117722 5663.157
3.389913533821313 -1.3155794775440541 1.6011209924887306 -1.8563379148086887 -1.5707962800792865 1.8191172093216907 0.7189651804933213 -0.16917847581556583 0.19113415325381589 -0.021955640139630642 -2.53217584822778e-08 0.71896517924387 7.275242897849085 -1.7119250528956065 1.9340955984017083 -0.2221701680795958 -2.5623207988019205e-07 7.275242885205827 5663.206999999999
3.424622895740741 -1.323746878560652 1.6103483440774378 -1.8573978635801387 -1.5707962813017409 1.8538265711807995 1.0189415823318049 -0.23976541357081327 0.2708817364708275 -0.03111627003915908 -3.5886845921595526e-08 1.0189415805610404 7.6420618674885334 -1.7982406017810992 2.031613023531206 -0.23337202529369303 -2.6915134441196644e-07 7.642061854207802 5663.257
3.4714984201532113 -1.3347770786152855 1.6228100235996066 -1.8588293406158563 -1.570796282952684 1.900702095511807 1.3242164803984133 -0.3115991314766289 0.3520379047174874 -0.04043870454289114 -4.6638544959705546e-08 1.324216478097128 7.550357125078672 -1.776661714559726 2.0072336672488316 -0.23057156099016876 -2.6592152827902284e-07 7.550357111957307 5663.307
3.530401531003526 -1.348637469611709 1.638469191139077 -1.8606281141031158 -1.5707962850272357 1.959605206259757 1.617671656109973 -0.3806515705850231 0.4300518448210857 -0.04940019031416895 -5.6973956585125056e-08 1.6176716532987074 7.061265165559407 -1.661574316045736 1.8772104337428346 -0.21563575137137242 -2.4869584223665693e-07 7.0612651532880095 5663.357
3.600557832689113 -1.3651458298356083 1.6571199765761313 -1.8627705356766882 -1.5707962874981216 2.029761507823423 1.8846343506809053 -0.44347010894057604 0.5010228597764425 -0.05755265306442861 -6.637631021658307e-08 1.8846343474056997 6.235922483870645 -1.4673643310533766 1.6577962272014646 -0.19043157263965352 -2.1962749704016462e-07 6.2359224730335665 5663.407
3.6806549284519288 -1.3839933414343046 1.678413484234195 -1.8652165275807624 -1.5707962903191195 2.1098586034470426 2.1128772651232297 -0.49717756158043835 0.5617003687459079 -0.06452269755320025 -7.441496370302048e-08 2.112877261451373 5.1354655749522955 -1.208417684396899 1.365243951812971 -0.1568260009973617 -1.808697034448414e-07 5.135465566027643 5663.456999999999
3.7689402387703637 -1.404767607896456 1.7018837975265382 -1.8679125698308712 -1.5707962934285042 2.198143913612051 2.2926185602465603 -0.5394721805343298 0.6094839070593618 -0.07001160758810793 -8.074540332358992e-08 2.292618556262341 3.8210309337442654 -0.8991203008905487 1.0158065117656023 -0.11668601264684647 -1.34575672205983e-07 3.821030927103899 5663.507
3.863318819751142 -1.4269756715317607 1.726973983602977 -1.8707946873758143 -1.5707962967524922 2.2925224944288143 2.4165218566581084 -0.5686276548245407 0.6424231262142146 -0.07379534602486966 -8.510924378765594e-08 2.416521852458563 2.353755055186473 -0.5538581053485793 0.6257368112476119 -0.07187858379045747 -8.28986140788858e-08 2.3537550510960035 5663.557
3.961451181521231 -1.4500670309506605 1.7530620979965743 -1.8737914372595816 -1.5707963002086873 2.3906548560283643 2.479696234762681 -0.5834931104659313 0.659217793875406 -0.07572455476729756 -8.73342282347949e-08 2.4796962304533485 0.7947744342188066 -0.18701702258523456 0.21128775444724573 -0.024270690630543924 -2.799173981884447e-08 0.7947744328376123 5663.607
4.060851106619741 -1.4734566585440423 1.7794871892703412 -1.8768268957832777 -1.5707963037095256 2.4900547809541322 2.4796962347626814 -0.5834931104659313 0.659217793875406 -0.07572455476729753 -8.73342282347949e-08 2.4796962304533476 -0.7947744342188137 0.18701702258523456 -0.21128775444724573 0.024270690630544146 2.7991739818844683e-08 -0.7947744328376194 5663.657
4.15898346838983 -1.496548017962942 1.8055753036639386 -1.879823645667045 -1.5707963071657207 2.588187142553682 2.4165218566581075 -0.5686276548245406 0.6424231262142142 -0.07379534602486963 -8.51092437876559e-08 2.4165218524585628 -2.3537550551864688 0.5538581053485774 -0.6257368112476107 0.07187858379045733 8.289861407888566e-08 -2.353755051095999 5663.706999999999
4.253362049370608 -1.5187560815982466 1.8306654897403773 -1.8827057632119881 -1.5707963104897087 2.6825657233704447 2.292618560246561 -0.5394721805343301 0.6094839070593623 -0.070011607588108 -8.074540332358995e-08 2.2926185562623416 -3.8210309337442725 0.8991203008905505 -1.015806511765604 0.11668601264684658 1.3457567220598322e-07 -3.8210309271039025 5663.757
4.341647359689044 -1.5395303480603983 1.8541358030327209 -1.8854018054620971 -1.5707963135990934 2.770851033535454 2.1128772651232275 -0.4971775615804376 0.5617003687459073 -0.06452269755320018 -7.441496370302043e-08 2.112877261451371 -5.135465574952292 1.208417684396899 -1.3652439518129702 0.15682600099736158 1.808697034448415e-07 -5.135465566027643 5663.807
4.421744455451858 -1.5583778596590943 1.8754293106907842 -1.8878477973661711 -1.5707963164200913 2.8509481291590726 1.884634350680908 -0.4434701089405769 0.501022859776443 -0.05755265306442871 -6.637631021658315e-08 1.8846343474057037 -6.235922483870655 1.4673643310533793 -1.657796227201467 0.19043157263965374 2.19627497040165e-07 -6.235922473033576 5663.857
4.491900757137446 -1.5748862198829938 1.8940800961278388 -1.8899902189397435 -1.5707963188909773 2.921104430722739 1.6176716561099733 -0.38065157058502297 0.43005184482108555 -0.04940019031416895 -5.697395658512502e-08 1.6176716532987054 -7.061265165559405 1.6615743160457355 -1.8772104337428337 0.21563575137137242 2.4869584223665704e-07 -7.061265153288013 5663.907
4.550803867987762 -1.5887466108794173 1.9097392636673094 -1.891788992427003 -1.570796320965529 2.9800075414706892 1.3242164803984104 -0.3115991314766286 0.3520379047174862 -0.04043870454289112 -4.663854495970541e-08 1.3242164780971246 -7.550357125078672 1.776661714559727 -2.0072336672488302 0.23057156099016865 2.6592152827902284e-07 -7.550357111957304 5663.956999999999
4.597679392400231 -1.5997768109340509 1.9222009431894782 -1.8932204694627206 -1.570796322616472 3.026883065801697 1.018941582331803 -0.23976541357081269 0.2708817364708266 -0.031116270039159018 -3.5886845921595394e-08 1.0189415805610402 -7.642061867488541 1.7982406017811015 -2.03161302353121 0.23337202529369339 2.6915134441196665e-07 -7.642061854207801 5664.007
4.632388754319657 -1.6079442119506484 1.931428294778185 -1.8942804182341706 -1.5707963238389264 3.0615924276608046 0.7189651804933226 -0.1691784758155659 0.19113415325381616 -0.021955640139630618 -2.5321758482277884e-08 0.7189651792438735 -7.275242897849077 1.7119250528956065 -1.9340955984017079 0.22217016807959558 2.5623207988019205e-07 -7.2752428852058255 5664.057
4.655527015630126 -1.6133888369307363 1.9375795133675293 -1.8949870106430557 -1.5707963246538497 3.0847306889310606 0.44385095326373714 -0.10444181415144745 0.11799608440669192 -0.013554247229057698 -1.5632310083447132e-08 0.4438509524923892 -6.388763721220404 1.5033291430889963 -1.6984284876720877 0.19509901314552758 2.2501052392840372e-07 -6.3887637101177255 5664.107
4.668520694546898 -1.6164463574533134 1.9410338333885702 -1.8953838094674311 -1.5707963251114836 3.097724367825254 0.2156080388214094 -0.05073436151158398 0.057318575437228174 -0.0065842027402860295 -7.593656597009525e-09 0.2156080384467158 -4.921487842662614 1.158066947547027 -1.3083587871540956 0.15029158428913858 1.7333346580130603e-07 -4.92148783410982 5664.157
4.673725584008328 -1.6176711111545548 1.9424175334160279 -1.895542755523627 -1.5707963252947983 3.102929257277636 0.05869103514231699 -0.013810487821679249 0.015602788020720086 -0.0017922971542557611 -2.0670823250840033e-09 0.05869103504032278 -2.8122787672358145 0.6617525414554484 -0.7476335926594878 0.08588090530807947 9.904769474360464e-08 -2.8122787623484857 5664.206999999999
4.674524570067753 -1.617859119207516 1.942629940814986 -1.8955671548281738 -1.5707963253229384 3.1037282433356737 0.0 0.0 0.0 0.0 0.0 0.0 0.0 0.0 0.0 0.0 0.0 0.0 5664.257
4.674524570067755 -1.6178591192075162 1.942629940814986 -1.8955671548281738 -1.5707963253229384 3.1037282433356754 0.0 0.0 0.0 0.0 0.0 0.0 0.0 0.0 0.0 0.0 0.0 0.0 5664.307
4.674524568933361 -1.617590442952229 1.9430606373226558 -1.8962665278691633 -1.5707963253087585 3.103728242202028 -4.9263203939736506e-08 0.011667772386181753 0.018703806980042825 -0.030371591440310455 6.1579454832436e-10 -4.9230771689205234e-08 -1.3723321097498025e-06 0.3250308021864917 0.5210346230154786 -0.8460657615515055 1.7154276703321454e-08 -1.3714286399135745e-06 5664.357
4.674524561917543 -1.615928777544714 1.9457243393575347 -1.9005918970310878 -1.5707963252210602 3.1037282351908293 -1.6990778501664224e-07 0.04024190884213707 0.06450904856382117 -0.10475099904923402 2.1238628299350375e-09 -1.6979592684644256e-07 -2.15652188674969e-06 0.5107626891502012 0.818768693310038 -1.3295319110095087 2.695672053379086e-08 -2.155102148435617e-06 5664.407
4.674524545501502 -1.6120407106716723 1.951957033132483 -1.910712661702541 -1.570796325015858 3.1037282187855957 -3.2574036890764553e-07 0.07715016843107936 0.12367415227620157 -0.20082440054409367 4.07178436034883e-09 -3.255259189245408e-07 -2.443052766807341e-06 0.5786262632330951 0.9275561420715114 -1.506183004080702 3.053838270261622e-08 -2.4414443919340557e-06 5664.457
4.674524518378254 -1.6056166891881647 1.9622549420979916 -1.927434598799286 -1.570796324676815 3.1037281916802044 -4.865998103435198e-07 0.11524901703901977 0.18474780772123933 -0.29999694402265836 6.082542069163066e-09 -4.862794591341905e-07 -2.322408185730435e-06 0.5500521267771397 0.8817509004877333 -1.4318035964717788 2.903031442100554e-08 -2.3208792367768187e-06 5664.507
4.674524481050486 -1.5967757719960909 1.9764272110807948 -1.9504477941229525 -1.5707963242102145 3.1037281543770106 -6.283571931088842e-07 0.14882362737476731 0.2385689665821789 -0.38739274796314366 7.854522300055613e-09 -6.279435164439444e-07 -1.8850715793266514e-06 0.4464708821243014 0.7157068997465366 -1.1621782438894306 2.3563566900166827e-08 -1.8838305493318326e-06 5664.557
4.674524435428403 -1.5859703829226701 1.9937485904224828 -1.9785745737197327 -1.5707963236399343 3.103728108784962 -7.329158300422024e-07 0.17358787896992856 0.2782668426214535 -0.4518549012242107 9.161514810784866e-09 -7.324333175802166e-07 -1.22152638340367e-06 0.28931313161654704 0.4637780710357553 -0.7530915020403501 1.5269191351308093e-08 -1.2207221959670261e-06 5664.607
4.674524384427581 -1.5738910635989214 2.013112120118114 -2.010017435239077 -1.5707963230024193 3.1037280578177175 -7.882112630357841e-07 0.18668435817890808 0.2992609116806852 -0.4859454630449672 9.85271277318976e-09 -7.876923470272838e-07 -4.222560337691699e-07 0.10000947759584293 0.16031834554322452 -0.2603279266312321 5.278238985637364e-09 -4.2197804305032966e-07 5664.657
4.674524331566823 -1.5613712263381432 2.0331818139548288 -2.0426069792923927 -1.570796322341655 3.1037280049917597 -7.882112630357843e-07 0.18668435817890802 0.29926091168068514 -0.48594546304496733 9.852712773189763e-09 -7.87692347027284e-07 4.222560337691716e-07 -0.10000947759584426 -0.16031834554322452 0.260327926631233 -5.27823898563739e-09 4.2197804305032966e-07 5664.707
4.674524280566001 -1.5492919070143945 2.0525453436504604 -2.074049840811737 -1.57079632170414 3.103727954024515 -7.329158300422025e-07 0.1735878789699287 0.2782668426214536 -0.4518549012242107 9.161514810784872e-09 -7.324333175802172e-07 1.22152638340367e-06 -0.28931313161654837 -0.46377807103575575 0.7530915020403519 -1.526919135130812e-08 1.2207221959670295e-06 5664.757
4.674524234943918 -1.5384865179409737 2.069866722992148 -2.102176620408517 -1.5707963211338598 3.1037279084324667 -6.283571931088853e-07 0.14882362737476748 0.23856896658217933 -0.3873927479631444 7.854522300055624e-09 -6.279435164439452e-07 1.8850715793266543e-06 -0.4464708821243033 -0.7157068997465371 1.1621782438894332 -2.356356690016686e-08 1.8838305493318339e-06 5664.807
4.67452419761615 -1.5296456007488999 2.084038991974951 -2.125189815732184 -1.5707963206672593 3.103727871129273 -4.865998103435208e-07 0.11524901703901996 0.18474780772123986 -0.29999694402265886 6.082542069163082e-09 -4.862794591341911e-07 2.3224081857304354e-06 -0.5500521267771402 -0.8817509004877332 1.4318035964717797 -2.9030314421005583e-08 2.320879236776819e-06 5664.857
4.674524170492902 -1.5232215792653923 2.09433690094046 -2.141911752828929 -1.5707963203282163 3.1037278440238816 -3.2574036890764585e-07 0.07715016843107933 0.12367415227620115 -0.20082440054409342 4.071784360348824e-09 -3.2552591892453947e-07 2.4430527668073443e-06 -0.5786262632330972 -0.9275561420715124 1.5061830040807056 -3.0538382702616266e-08 2.4414443919340565e-06 5664.907
4.674524154076861 -1.5193335123923506 2.1005695947154086 -2.1520325175003823 -1.5707963201230142 3.103727827618648 -1.6990778501664195e-07 0.04024190884213679 0.0645090485638204 -0.10475099904923263 2.123862829935024e-09 -1.6979592684644181e-07 2.1565218867496873e-06 -0.5107626891502022 -0.8187686933100388 1.3295319110095083 -2.695672053379082e-08 2.155102148435616e-06 5664.957
4.674524147061043 -1.5176718469848356 2.1032332967502874 -2.1563578866623065 -1.5707963200353159 3.1037278206074492 -4.9263203939736896e-08 0.011667772386181387 0.018703806980042068 -0.03037159144031031 6.15794548324332e-10 -4.9230771689205585e-08 1.3723321097498057e-06 -0.32503080218649305 -0.5210346230154775 0.8460657615515063 -1.7154276703321487e-08 1.3714286399135724e-06 5665.007
4.674524145926649 -1.5174031707295483 2.103663993257957 -2.157057259703296 -1.570796320021136 3.103727819473802 0.0 0.0 0.0 0.0 0.0 0.0 0.0 -1.7763568394002505e-15 0.0 0.0 0.0 0.0 5665.057
4.674524145926649 -1.5174031707295483 2.103663993257957 -2.157057259703296 -1.570796320021136 3.103727819473802 0.0 0.0 0.0 0.0 0.0 0.0 0.0 -1.7763568394002505e-15 0.0 0.0 0.0 0.0 5665.107
4.674524145926649 -1.5174031707295483 2.103663993257957 -2.157057259703296 -1.570796320021136 3.103727819473802 0.0 0.0 0.0 0.0 0.0 0.0 0.0 -1.7763568394002505e-15 0.0 0.0 0.0 0.0 5665.157
4.674524145926649 -1.5174031707295483 2.103663993257957 -2.157057259703296 -1.570796320021136 3.103727819473802 0.0 0.0 0.0 0.0 0.0 0.0 0.0 -1.7763568394002505e-15 0.0 0.0 0.0 0.0 5665.207
4.674524145926649 -1.5174031707295483 2.103663993257957 -2.157057259703296 -1.570796320021136 3.103727819473802 0.0 0.0 0.0 0.0 0.0 0.0 0.0 -1.7763568394002505e-15 0.0 0.0 0.0 0.0 5665.2570000000005
4.674524145926649 -1.5174031707295483 2.103663993257957 -2.157057259703296 -1.570796320021136 3.103727819473802 0.0 0.0 0.0 0.0 0.0 0.0 0.0 -1.7763568394002505e-15 0.0 0.0 0.0 0.0 5665.307
4.674524145926649 -1.5174031707295483 2.103663993257957 -2.157057259703296 -1.570796320021136 3.103727819473802 0.0 0.0 0.0 0.0 0.0 0.0 0.0 -1.7763568394002505e-15 0.0 0.0 0.0 0.0 5665.357
4.674524145926649 -1.5174031707295483 2.103663993257957 -2.157057259703296 -1.570796320021136 3.103727819473802 0.0 0.0 0.0 0.0 0.0 0.0 0.0 -1.7763568394002505e-15 0.0 0.0 0.0 0.0 5665.407
4.674524145926649 -1.5174031707295483 2.103663993257957 -2.157057259703296 -1.570796320021136 3.103727819473802 0.0 0.0 0.0 0.0 0.0 0.0 0.0 -1.7763568394002505e-15 0.0 0.0 0.0 0.0 5665.457
4.674524145926649 -1.5174031707295483 2.103663993257957 -2.157057259703296 -1.570796320021136 3.103727819473802 0.0 0.0 0.0 0.0 0.0 0.0 0.0 -1.7763568394002505e-15 0.0 0.0 0.0 0.0 5665.5070000000005
4.674524145926649 -1.5174031707295483 2.103663993257957 -2.157057259703296 -1.570796320021136 3.103727819473802 0.0 0.0 0.0 0.0 0.0 0.0 0.0 -1.7763568394002505e-15 0.0 0.0 0.0 0.0 5665.557
4.674524145926649 -1.5174031707295483 2.103663993257957 -2.157057259703296 -1.570796320021136 3.103727819473802 0.0 0.0 0.0 0.0 0.0 0.0 0.0 -1.7763568394002505e-15 0.0 0.0 0.0 0.0 5665.607
4.674524145926649 -1.5174031707295483 2.103663993257957 -2.157057259703296 -1.570796320021136 3.103727819473802 0.0 0.0 0.0 0.0 0.0 0.0 0.0 -1.7763568394002505e-15 0.0 0.0 0.0 0.0 5665.657
4.674524145926649 -1.5174031707295483 2.103663993257957 -2.157057259703296 -1.570796320021136 3.103727819473802 0.0 0.0 0.0 0.0 0.0 0.0 0.0 -1.7763568394002505e-15 0.0 0.0 0.0 0.0 5665.707
4.674524145926649 -1.5174031707295483 2.103663993257957 -2.157057259703296 -1.570796320021136 3.103727819473802 0.0 0.0 0.0 0.0 0.0 0.0 0.0 -1.7763568394002505e-15 0.0 0.0 0.0 0.0 5665.7570000000005
4.674524145926649 -1.5174031707295483 2.103663993257957 -2.157057259703296 -1.570796320021136 3.103727819473802 0.0 0.0 0.0 0.0 0.0 0.0 0.0 -1.7763568394002505e-15 0.0 0.0 0.0 0.0 5665.807
4.674524145926649 -1.5174031707295483 2.103663993257957 -2.157057259703296 -1.570796320021136 3.103727819473802 0.0 0.0 0.0 0.0 0.0 0.0 0.0 -1.7763568394002505e-15 0.0 0.0 0.0 0.0 5665.857
4.674524145926649 -1.5174031707295483 2.103663993257957 -2.1570572597032958 -1.570796320021136 3.103727819473802 0.0 0.0 0.0 0.0 0.0 0.0 0.0 0.0 0.0 0.0 0.0 0.0 5665.907
4.674524147061043 -1.5176718469848356 2.103233296750287 -2.156357886662306 -1.5707963200353159 3.1037278206074492 4.9263203939736506e-08 -0.011667772386181753 -0.018703806980042825 0.030371591440310455 -6.1579454832436e-10 4.9230771689205234e-08 1.3723321097498025e-06 -0.3250308021864917 -0.5210346230154786 0.8460657615515055 -1.7154276703321454e-08 1.3714286399135745e-06 5665.957
4.674524154076861 -1.5193335123923506 2.100569594715408 -2.152032517500382 -1.5707963201230142 3.103727827618648 1.6990778501664224e-07 -0.04024190884213707 -0.06450904856382117 0.10475099904923402 -2.1238628299350375e-09 1.6979592684644256e-07 2.15652188674969e-06 -0.5107626891502012 -0.818768693310038 1.3295319110095087 -2.695672053379086e-08 2.155102148435617e-06 5666.0070000000005
4.674524170492902 -1.5232215792653923 2.0943369009404598 -2.141911752828929 -1.5707963203282163 3.1037278440238816 3.2574036890764553e-07 -0.07715016843107936 -0.12367415227620157 0.20082440054409367 -4.07178436034883e-09 3.255259189245408e-07 2.443052766807341e-06 -0.5786262632330951 -0.9275561420715114 1.506183004080702 -3.053838270261622e-08 2.4414443919340557e-06 5666.057000000001
4.67452419761615 -1.5296456007488999 2.0840389919749516 -2.125189815732184 -1.5707963206672593 3.103727871129273 4.865998103435198e-07 -0.11524901703901977 -0.18474780772123933 0.29999694402265836 -6.082542069163066e-09 4.862794591341905e-07 2.322408185730435e-06 -0.5500521267771397 -0.8817509004877333 1.4318035964717788 -2.903031442100554e-08 2.3208792367768187e-06 5666.107
4.674524234943918 -1.5384865179409737 2.069866722992148 -2.102176620408517 -1.5707963211338598 3.1037279084324667 6.283571931088842e-07 -0.14882362737476731 -0.2385689665821789 0.38739274796314366 -7.854522300055613e-09 6.279435164439444e-07 1.8850715793266514e-06 -0.4464708821243014 -0.7157068997465366 1.1621782438894306 -2.3563566900166827e-08 1.8838305493318326e-06 5666.157
4.674524280566001 -1.5492919070143945 2.0525453436504604 -2.074049840811737 -1.57079632170414 3.103727954024515 7.329158300422024e-07 -0.17358787896992856 -0.2782668426214535 0.4518549012242107 -9.161514810784866e-09 7.324333175802166e-07 1.22152638340367e-06 -0.28931313161654704 -0.4637780710357553 0.7530915020403501 -1.5269191351308093e-08 1.2207221959670261e-06 5666.207
4.674524331566823 -1.5613712263381432 2.0331818139548288 -2.0426069792923927 -1.570796322341655 3.1037280049917597 7.882112630357841e-07 -0.18668435817890808 -0.2992609116806852 0.4859454630449672 -9.85271277318976e-09 7.876923470272838e-07 4.222560337691699e-07 -0.10000947759584293 -0.16031834554322452 0.2603279266312321 -5.278238985637364e-09 4.2197804305032966e-07 5666.2570000000005
4.674524384427581 -1.5738910635989214 2.013112120118114 -2.010017435239077 -1.5707963230024193 3.1037280578177175 7.882112630357843e-07 -0.18668435817890802 -0.29926091168068514 0.48594546304496733 -9.852712773189763e-09 7.87692347027284e-07 -4.222560337691716e-07 0.10000947759584426 0.16031834554322452 -0.260327926631233 5.27823898563739e-09 -4.2197804305032966e-07 5666.307000000001
4.674524435428403 -1.5859703829226701 1.9937485904224828 -1.9785745737197327 -1.5707963236399343 3.103728108784962 7.329158300422025e-07 -0.1735878789699287 -0.2782668426214536 0.4518549012242107 -9.161514810784872e-09 7.324333175802172e-07 -1.22152638340367e-06 0.28931313161654837 0.46377807103575575 -0.7530915020403519 1.526919135130812e-08 -1.2207221959670295e-06 5666.357
4.674524481050486 -1.5967757719960909 1.9764272110807948 -1.9504477941229525 -1.5707963242102145 3.1037281543770106 6.283571931088853e-07 -0.14882362737476748 -0.23856896658217933 0.3873927479631444 -7.854522300055624e-09 6.279435164439452e-07 -1.8850715793266543e-06 0.4464708821243033 0.7157068997465371 -1.1621782438894332 2.356356690016686e-08 -1.8838305493318339e-06 5666.407
4.674524518378254 -1.6056166891881647 1.9622549420979916 -1.927434598799286 -1.570796324676815 3.1037281916802044 4.865998103435208e-07 -0.11524901703901996 -0.18474780772123986 0.29999694402265886 -6.082542069163082e-09 4.862794591341911e-07 -2.3224081857304354e-06 0.5500521267771402 0.8817509004877332 -1.4318035964717797 2.9030314421005583e-08 -2.320879236776819e-06 5666.457
4.674524545501502 -1.6120407106716723 1.951957033132483 -1.9107126617025407 -1.570796325015858 3.1037282187855957 3.2574036890764585e-07 -0.07715016843107933 -0.12367415227620115 0.20082440054409342 -4.071784360348824e-09 3.2552591892453947e-07 -2.4430527668073443e-06 0.5786262632330972 0.9275561420715124 -1.5061830040807056 3.0538382702616266e-08 -2.4414443919340565e-06 5666.5070000000005
4.674524561917543 -1.615928777544714 1.9457243393575345 -1.9005918970310876 -1.5707963252210602 3.1037282351908293 1.6990778501664195e-07 -0.04024190884213679 -0.0645090485638204 0.10475099904923263 -2.123862829935024e-09 1.6979592684644181e-07 -2.1565218867496873e-06 0.5107626891502022 0.8187686933100388 -1.3295319110095083 2.695672053379082e-08 -2.155102148435616e-06 5666.557000000001
4.674524568933361 -1.617590442952229 1.9430606373226558 -1.8962665278691633 -1.5707963253087585 3.103728242202028 4.9263203939736896e-08 -0.011667772386181387 -0.018703806980042068 0.03037159144031031 -6.15794548324332e-10 4.9230771689205585e-08 -1.3723321097498057e-06 0.32503080218649305 0.5210346230154775 -0.8460657615515063 1.7154276703321487e-08 -1.3714286399135724e-06 5666.607
4.674524570067755 -1.6178591192075162 1.942629940814986 -1.8955671548281736 -1.5707963253229384 3.1037282433356754 0.0 0.0 0.0 0.0 0.0 0.0 0.0 1.7763568394002505e-15 0.0 0.0 0.0 0.0 5666.657
4.674524570067755 -1.6178591192075162 1.942629940814986 -1.8955671548281738 -1.5707963253229384 3.1037282433356754 0.0 0.0 0.0 0.0 0.0 0.0 0.0 0.0 0.0 0.0 0.0 0.0 5666.707
4.6743594456767745 -1.617815378459226 1.9425773227234135 -1.89555827748425 -1.5707963253230912 3.1035631189446895 -0.02253565689554081 0.005969599584730652 -0.007181151440671171 0.0012115519434911773 -2.084671430213015e-11 -0.02253565689638263 -2.0272075358477597 0.5369986470886595 -0.6459844673741534 0.10898582816116191 -1.8752777665560637e-09 -2.0272075359234862 5666.7570000000005
4.673246928560053 -1.6175206774106266 1.9422228110296762 -1.89549846683479 -1.5707963253241204 3.1024506018279254 -0.08618080345632989 0.022828927992174897 -0.027462141608176564 0.00463321395081268 -7.972195336083748e-11 -0.08618080345954916 -3.784120733582485 1.0023974745654978 -1.205837672431753 0.20344021256750222 -3.5005184975713185e-09 -3.784120733723841 5666.808086956522
4.670356235617434 -1.6167549451548584 1.9413016706393318 -1.8953430586889835 -1.5707963253267945 3.099559908885199 -0.18519302044379982 0.049056842809631004 -0.05901310672800442 0.009956264637845274 -1.7131366553172733e-10 -0.1851930204507177 -5.283025699482041 1.3994510196855976 -1.6834746725508238 0.28402367338969464 -4.887087512843074e-09 -5.2830256996793885 5666.859173913044
4.664978515805398 -1.6153304100678392 1.9395880209971346 -1.895053944112913 -1.5707963253317692 3.0941821890729626 -0.3140969778862932 0.08320295243429032 -0.10008929296864351 0.016886341754614807 -2.905568713399118e-10 -0.3140969778980263 -6.536208539824292 1.7314138197040416 -2.0828105251093914 0.35139673079841294 -6.046350132168641e-09 -6.536208540068452 5666.910260869566
4.656521043848648 -1.6130900617471795 1.936892985870882 -1.8945992572744632 -1.5707963253395927 3.085724717115896 -0.467684435079063 0.12388761607323737 -0.1490310564415832 0.02514344218529221 -4.3263366348000974e-10 -0.46768443509653335 -7.555955360887105 2.001540411875913 -2.407760287485481 0.40621990496433075 -6.989671675345327e-09 -7.5559553611693575 5666.961347826087
4.644501413951693 -1.6099061129510974 1.9330628431352637 -1.8939530632882307 -1.5707963253507116 3.073705087218493 -0.6410142405842719 0.16980194374344965 -0.20426386320131332 0.03446192194819349 -5.929732068161466e-10 -0.641014240608217 -8.354552268948344 2.2130853334562937 -2.662239017057117 0.4491537160581218 -7.728417462170444e-09 -8.354552269260427 5667.0124347826095
4.628541733510447 -1.6056784615373352 1.9279771745557077 -1.893095046060434 -1.570796325365475 3.0577454067766507 -0.8294123322309932 0.21970779627179793 -0.26429828924532434 0.04459049619577973 -7.672517383819547e-10 -0.8294123322619759 -8.944285370285874 2.3693031217002676 -2.8501617712023255 0.4808586842504598 -8.2739528124413e-09 -8.944285370619989 5667.063521739131
4.60836281682381 -1.6003331524020732 1.9215470155722303 -1.8920101961338238 -1.5707963253841417 3.0375664900892594 -1.0284717371152095 0.27243778529504586 -0.3277300205141071 0.055292239214657105 -9.51392567380573e-10 -1.028471737153628 -9.337440771177562 2.473448313862917 -2.975443607299131 0.5019953297120184 -8.637643045955201e-09 -9.337440771526362 5667.114608695652
4.583778378805259 -1.593820839418846 1.9137130050832818 -1.8906884985325922 -1.5707963254068837 3.01298205206979 -1.2340525715998145 0.3268952732598504 -0.39323985289115326 0.06634458442557686 -1.141566075184647e-09 -1.2340525716459125 -9.54630457790127 2.5287754471993242 -3.041999582725559 0.5132241726134715 -8.830853482509464e-09 -9.546304578257873 5667.165695652175
4.554689228694437 -1.586115247377458 1.9044435352295956 -1.8891246206072831 -1.5707963254337927 2.9838929019578813 -1.442282041314612 0.3820543734227618 -0.459593692202955 0.07753932438343536 -1.3341897153363298e-09 -1.4422820413684885 -9.583162896734864 2.538539058964572 -3.053744754859634 0.5152057331254926 -8.86494944190139e-09 -9.583162897092844 5667.216782608696
4.521077463768744 -1.5772116339228983 1.8937329011780362 -1.8873175998797025 -1.5707963254648853 2.9502811370309328 -1.6495544411563146 0.4369599498502227 -0.5256425542190046 0.08868261077727396 -1.52592801354728e-09 -1.6495544412179337 -9.460301833956212 2.505993686413744 -3.0145941810793824 0.5086005314187555 -8.751296243928297e-09 -9.460301834309602 5667.267869565218
4.4830006630549235 -1.567125251494256 1.881599450905446 -1.8852705318878267 -1.5707963255001085 2.91220433631569 -1.8525311552885457 0.4907276174185695 -0.5903225646517954 0.09959495443027919 -1.7136925676986636e-09 -1.8525311553577473 -9.190007495843178 2.434393866801923 -2.928462918762829 0.4940690876639339 -8.501259208387488e-09 -9.190007496186471 5667.31895652174
4.440586081040651 -1.555889809263636 1.8680837349824935 -1.8829902580307143 -1.5707963255393442 2.8697897542998336 -2.0481406571418397 0.5425437418140315 -0.6526549591568211 0.11011122529978258 -1.894642047841153e-09 -2.048140657218348 -8.784565988673627 2.326994137384192 -2.799266025287999 0.4722719220317017 -8.126203655076276e-09 -8.784565989001777 5667.370043478261
4.394024841386127 -1.543555935075074 1.8532466563575216 -1.8804870534134146 -1.570796325582416 2.8232285146435694 -2.233578509413641 0.5916654395327313 -0.7117460833325763 0.12008065247726088 -2.0661821961949285e-09 -2.2335785094970766 -8.256263418725423 2.187049035415632 -2.6309185580329157 0.443869554692732 -7.637494903791966e-09 -8.256263419033832 5667.421130434783
4.343566130635658 -1.5301896373834525 1.837167620140395 -1.8777743146918784 -1.570796325629093 2.7727698038912156 -2.406307364068302 0.6374205778806841 -0.7667873927205551 0.1293668241883357 -2.225965827149675e-09 -2.40630736415819 -7.617385892276431 2.017813098151327 -2.427335574375607 0.4095225058176993 -7.046498274331876e-09 -7.6173858925609785 5667.472217391305
4.2895113919292545 -1.515870767193415 1.819942683386348 -1.8748682479178669 -1.5707963256790967 2.718715065182793 -2.5640569623370872 0.6792077749737986 -0.8170554528052533 0.13784768779277395 -2.3718928272645863e-09 -2.564056962432868 -6.8802195156045185 1.82254086284636 -2.1924321316940976 0.3698912955772768 -6.364579086493308e-09 -6.88021951586153 5667.5233043478265
4.232208518714214 -1.500691479998283 1.8016827048798323 -1.871787556383863 -1.570796325732105 2.6614121919656117 -2.704824134718171 0.7164963997378765 -0.8619119390141664 0.14541554978448745 -2.5021101552683607e-09 -2.7048241348192095 -6.057050394987554 1.6044868667558134 -1.930123287366412 0.3256364441421385 -5.603102660073574e-09 -6.057050395213817 5667.574391304348
4.172046048456712 -1.484754697718969 1.7825114949183654 -1.8685531284679797 -1.5707963257877586 2.6012497217058628 -2.826872800976639 0.748826571908613 -0.9008036367177916 0.15197707579153324 -2.615011842059206e-09 -2.826872801082237 -5.1601646367033895 1.3669056471347705 -1.6443240987705738 0.2774184716829577 -4.773434314869983e-09 -5.160164636896154 5667.62547826087
4.109447356353391 -1.4681725706428945 1.762563965096377 -1.8651877254788707 -1.5707963258456659 2.538651029600203 -2.9287339701444832 0.7758091620315954 -0.9332624412296253 0.1574532905761134 -2.7092389907048343e-09 -2.928733970253886 -4.201848347029907 1.1130517412383132 -1.33894962328461 0.22589789837040822 -3.8869393706798404e-09 -4.201848347186864 5667.676565217392
4.044864849042947 -1.4510649393629038 1.7419842780890584 -1.8617156695006407 -1.570796325905408 2.4740685222873466 -3.0092057405206103 0.7971257914623056 -0.9589053578061653 0.16177957803457502 -2.783679776442467e-09 -3.0092057406330195 -3.194387632244948 0.8461796863215234 -1.0179149182865441 0.17173524437516388 -2.9549831473004632e-09 -3.1943876323642786 5667.727652173913
3.9787741583177225 -1.43355779671618 1.7209239974362096 -1.8581625312377548 -1.5707963259665456 2.4079778315596534 -3.0673532996708315 0.8125288323661164 -0.9774345016469089 0.1649056811974102 -2.8374694466788255e-09 -3.0673532997854127 -2.1500685986264223 0.5695440196394876 -0.6851350411544082 0.11559102986789896 -1.988930964529166e-09 -2.150068598706734 5667.7787391304355
3.9116683348352925 -1.4157817497231595 1.6995402373260868 -1.8545548178599476 -1.5707963260286222 2.340872008074717 -3.1025089244278754 0.8218414077182965 -0.9886370978943563 0.16679570222925647 -2.86999032099015e-09 -3.1025089245437703 -1.0811773524521415 0.28639927844728524 -0.34452504926621486 0.05812577501928639 -1.0001481421632302e-09 -1.0811773524925248 5667.829826086957
3.8440520418300546 -1.3978704815264482 1.6779938123792513 -1.850919660847135 -1.570796326091171 2.273255715066953 -3.1142719808913757 0.8249573913040051 -0.9923854816340056 0.16742810242889605 -2.880871791122175e-09 -3.1142719810077093 0.0 0.0 -1.7763568394002505e-15 -4.440892098500626e-16 0.0 0.0 5667.880913043478
3.776435748824817 -1.3799592133297371 1.6564473874324157 -1.8472845038343222 -1.5707963261537197 2.2056394220591895 -3.1025089244278763 0.8218414077182963 -0.9886370978943565 0.16679570222925652 -2.8699903209901506e-09 -3.1025089245437716 1.0811773524521415 -0.28639927844728524 0.34452504926621486 -0.058125775019286834 1.0001481421632368e-09 1.0811773524925248 5667.932000000001
3.709329925342387 -1.3621831663367165 1.635063627322293 -1.8436767904565152 -1.5707963262157962 2.138533598574253 -3.067353299670832 0.8125288323661167 -0.9774345016469095 0.16490568119741034 -2.8374694466788255e-09 -3.067353299785414 2.1500685986264134 -0.5695440196394873 0.6851350411544046 -0.11559102986789925 1.988930964529158e-09 2.1500685987067323 5667.983086956522
3.6432392346171625 -1.3446760236899926 1.6140033466694441 -1.840123652193629 -1.5707963262769338 2.0724429078465594 -3.0092057405206076 0.7971257914623052 -0.9589053578061651 0.1617795780345749 -2.7836797764424644e-09 -3.0092057406330177 3.1943876322449465 -0.8461796863215213 1.0179149182865406 -0.1717352443751642 2.954983147300455e-09 3.1943876323642697 5668.034173913044
3.578656727306719 -1.3275683924100021 1.5934236596621256 -1.836651596215399 -1.570796326336676 2.007860400533703 -2.9287339701444846 0.7758091620315958 -0.9332624412296251 0.15745329057611337 -2.7092389907048343e-09 -2.928733970253886 4.201848347029905 -1.1130517412383127 1.3389496232846065 -0.2258978983704085 3.886939370679845e-09 4.201848347186862 5668.085260869565
3.5160580352033977 -1.3109862653339275 1.5734761298401372 -1.8332861932262903 -1.5707963263945832 1.9452617084280437 -2.82687280097664 0.7488265719086128 -0.9008036367177923 0.1519770757915333 -2.6150118420592074e-09 -2.8268728010822364 5.160164636703397 -1.3669056471347687 1.644324098770572 -0.27741847168295813 4.773434314869983e-09 5.160164636896154 5668.136347826087
3.455895564945896 -1.2950494830546138 1.5543049198786703 -1.830051765310407 -1.570796326450237 1.885099238168295 -2.704824134718172 0.7164963997378772 -0.861911939014167 0.14541554978448762 -2.502110155268363e-09 -2.7048241348192112 6.057050394987558 -1.6044868667558134 1.9301232873664103 -0.32563644414213894 5.603102660073567e-09 6.057050395213813 5668.187434782609
3.3985926917308555 -1.2798701958594814 1.5360449413721546 -1.8269710737764029 -1.5707963265032452 1.827796364951114 -2.564056962337089 0.6792077749737988 -0.8170554528052533 0.13784768779277407 -2.3718928272645883e-09 -2.5640569624328675 6.880219515604515 -1.822540862846359 2.1924321316940976 -0.36989129557727723 6.364579086493311e-09 6.880219515861526 5668.23852173913
3.3445379530244512 -1.2655513256694437 1.5188200046181075 -1.8240650070023914 -1.5707963265532487 1.7737416262426902 -2.4063073640683017 0.6374205778806836 -0.7667873927205551 0.12936682418833556 -2.2259658271496743e-09 -2.4063073641581885 7.6173858922764275 -2.017813098151328 2.427335574375604 -0.4095225058176995 7.0464982743318725e-09 7.617385892560982 5668.2896086956525
3.2940792422739826 -1.2521850279778226 1.502740968400981 -1.8213522682808552 -1.5707963265999259 1.7232829154903366 -2.2335785094136407 0.5916654395327315 -0.7117460833325765 0.120080652477261 -2.0661821961949277e-09 -2.2335785094970784 8.256263418725426 -2.187049035415631 2.630918558032913 -0.4438695546927331 7.637494903791963e-09 8.256263419033829 5668.340695652174
3.2475180026194588 -1.2398511537892607 1.4879038897760093 -1.8188490636635557 -1.5707963266429976 1.6767216758340735 -2.0481406571418432 0.5425437418140322 -0.652654959156822 0.11011122529978264 -1.894642047841154e-09 -2.048140657218349 8.784565988673625 -2.326994137384191 2.799266025287998 -0.4722719220317022 8.12620365507628e-09 8.784565989001772 5668.391782608695
3.2051034206051856 -1.2286157115586405 1.4743881738530564 -1.816568789806443 -1.5707963266822333 1.6343070938182158 -1.8525311552885428 0.4907276174185679 -0.5903225646517938 0.09959495443027895 -1.7136925676986592e-09 -1.8525311553577415 9.190007495843158 -2.434393866801919 2.928462918762821 -0.4940690876639334 8.501259208387483e-09 9.190007496186455 5668.442869565218
3.1670266198913657 -1.2185293291299983 1.4622547235804664 -1.8145217218145673 -1.5707963267174565 1.5962302931029737 -1.6495544411563154 0.43695994985022313 -0.525642554219006 0.0886826107772741 -1.5259280135472831e-09 -1.649554441217934 9.460301833956223 -2.5059936864137486 3.014594181079384 -0.5086005314187567 8.751296243928295e-09 9.460301834309613 5668.493956521739
3.133414854965673 -1.2096257156754386 1.4515440895289071 -1.8127147010869866 -1.5707963267485492 1.5626185281760263 -1.4422820413146138 0.3820543734227625 -0.45959369220295626 0.07753932438343521 -1.334189715336328e-09 -1.4422820413684894 9.583162896734853 -2.538539058964569 3.0537447548596277 -0.5152057331254932 8.864949441901387e-09 9.583162897092837 5668.545043478261
3.104325704854853 -1.2019201236340509 1.4422746196752212 -1.8111508231616777 -1.570796326775458 1.5335293780641182 -1.234052571599821 0.32689527325985157 -0.3932398528911548 0.06634458442557703 -1.1415660751846503e-09 -1.2340525716459187 9.54630457790128 -2.5287754471993247 3.0419995827255577 -0.5132241726134724 8.830853482509474e-09 9.546304578257889 5668.596130434783
3.079741266836299 -1.1954078106508235 1.4344406091862723 -1.809829125560446 -1.5707963267982001 1.508944940044647 -1.028471737115208 0.2724377852950451 -0.3277300205141057 0.05529223921465687 -9.513925673805676e-10 -1.0284717371536245 9.337440771177558 -2.473448313862915 2.975443607299125 -0.5019953297120192 8.637643045955192e-09 9.337440771526353 5668.647217391304
3.0595623501496645 -1.1900625015155617 1.428010450202795 -1.8087442756338359 -1.5707963268168668 1.4887660233572564 -0.8294123322310014 0.21970779627179976 -0.264298289245326 0.044590496195780024 -7.672517383819614e-10 -0.8294123322619826 8.94428537028589 -2.3693031217002742 2.8501617712023286 -0.48085868425046213 8.273952812441324e-09 8.944285370620008 5668.698304347826
3.0436026697084158 -1.1858348501017995 1.4229247816232384 -1.807886258406039 -1.5707963268316303 1.4728063429154143 -0.6410142405842739 0.1698019437434512 -0.20426386320131415 0.0344619219481938 -5.929732068161482e-10 -0.6410142406082221 8.354552268948366 -2.2130853334562985 2.6622390170571157 -0.4491537160581233 7.728417462170462e-09 8.354552269260445 5668.749391304348
3.031583039811463 -1.1826509013057176 1.4190946388876209 -1.8072400644198066 -1.5707963268427492 1.4607867130180126 -0.4676844350790601 0.12388761607323812 -0.14903105644158363 0.025143442185292127 -4.326336634800085e-10 -0.4676844350965335 7.5559553608871 -2.001540411875914 2.407760287485478 -0.40621990496433186 6.989671675345329e-09 7.555955361169383 5668.80047826087
3.0231255678547124 -1.180410552985058 1.4163996037613686 -1.8067853775813567 -1.5707963268505727 1.4523292410609456 -0.3140969778862889 0.08320295243428971 -0.10008929296864341 0.016886341754614703 -2.9055687133991187e-10 -0.3140969778980237 6.5362085398242655 -1.73141381970404 2.0828105251093847 -0.35139673079841244 6.04635013216861e-09 6.536208540068438 5668.851565217391
3.017747848042675 -1.1789860178980383 1.4146859541191703 -1.8064962630052863 -1.5707963268555474 1.4469515212487085 -0.1851930204437907 0.04905684280962939 -0.059013106728001447 0.009956264637844948 -1.7131366553172283e-10 -0.18519302045071495 5.283025699482036 -1.3994510196855943 1.6834746725508196 -0.2840236733896942 4.8870875128430675e-09 5.283025699679388 5668.902652173913
3.014857155100059 -1.1782202856422703 1.4137648137288261 -1.80634085485948 -1.5707963268582215 1.4440608283059817 -0.08618080345633172 0.022828927992174255 -0.027462141608177195 0.004633213950812596 -7.972195336083995e-11 -0.08618080345955097 3.7841207335824745 -1.0023974745654995 1.2058376724317523 -0.2034402125675021 3.500518497571312e-09 3.784120733723838 5668.953739130435
3.0137446379833355 -1.1779255845936707 1.4134103020350888 -1.8062810442100197 -1.5707963268592506 1.4429483111892183 -0.022535656895536632 0.005969599584731331 -0.007181151440671474 0.0012115519434912998 -2.084671430213033e-11 -0.022535656896376738 2.0272075358477464 -0.5369986470886523 0.6459844673741417 -0.10898582816116209 1.875277766556047e-09 2.027207535923473 5669.004826086956
3.013579513592356 -1.1778818438453806 1.4133576839435165 -1.806272166866096 -1.5707963268594034 1.4427831867982324 0.0 0.0 0.0 0.0 0.0 0.0 0.0 0.0 -3.552713678800501e-15 -8.881784197001252e-16 0.0 0.0 5669.0559130434785
3.0135795135923544 -1.1778818438453802 1.4133576839435165 -1.806272166866096 -1.5707963268594034 1.4427831867982306 0.0 0.0 0.0 0.0 0.0 0.0 0.0 0.0 0.0 0.0 0.0 0.0 5669.107
3.013579513609194 -1.1776965965294781 1.4137463778115944 -1.806846108049477 -1.5707963268603005 1.4427831868151866 7.312840277033198e-10 0.0080447135709367 0.016879763251833494 -0.02492447679675825 -3.895538443261844e-11 7.363446583339181e-10 2.0371483628878195e-08 0.2241027351903795 0.4702219763010759 -0.694324710766837 -1.0851857091943707e-09 2.0512458339302005e-08 5669.157
3.0135795137133394 -1.1765509089199029 1.4161503087209626 -1.8103957265647161 -1.5707963268658482 1.4427831869200531 2.5221836873849195e-09 0.027746052928332696 0.0582179589706094 -0.08596401180922744 -1.3435632590025543e-10 2.539637699151677e-09 3.2012331416808593e-08 0.3521614410134535 0.7389202484731192 -1.0910816883478867 -1.7052918287340111e-09 3.223386310461743e-08 5669.207
3.0135795139570263 -1.1738701586187303 1.4217751740467521 -1.81870134218301 -1.5707963268788294 1.4427831871654262 4.8354290811403195e-09 0.053193616264969205 0.11161312844069496 -0.16480674453366684 -2.575825419626199e-10 4.8688912102079494e-09 3.626571810855239e-08 0.398952121987269 0.837098463305212 -1.2360505840025011 -1.931869064719649e-09 3.6516684076559616e-08 5669.2570000000005
3.0135795143596553 -1.1694409144495892 1.4310688042425832 -1.8324242165336606 -1.5707963269002774 1.4427831875708415 7.223295294049119e-09 0.0794620687414972 0.16673072273239614 -0.24619279121695906 -3.847837972528025e-10 7.273281931298293e-09 3.447481844887079e-08 0.379250782629873 0.7957602675864361 -1.175011048990032 -1.836468123252012e-09 3.4713391035741856e-08 5669.307
3.013579514913765 -1.1633452653264682 1.4438589568262938 -1.8513100182207824 -1.5707963269297947 1.4427831881287854 9.327602394174999e-09 0.10261114248643752 0.21530310270195788 -0.3179142448566104 -4.968799034772761e-10 9.392151254259161e-09 2.7982807182524987e-08 0.3078334274593126 0.6459093081058732 -0.953742734569831 -1.4906397104318275e-09 2.8176453762777477e-08 5669.357
3.0135795155909983 -1.1558951491225262 1.4594911103656705 -1.8743922879400117 -1.570796326965871 1.4427831888107057 1.0879715432565718e-08 0.1196856365961807 0.25112953899156365 -0.37081517520075036 -5.795607194158947e-10 1.0955005222967887e-08 1.8132859054276173e-08 0.19947606099363444 0.4185492316526053 -0.6180252920012504 -9.659345323598238e-10 1.8258342038279785e-08 5669.407
3.0135795163480763 -1.1475666815389003 1.4769662584641756 -1.9001959035952134 -1.5707963270062002 1.4427831895730228 1.1700544443253117e-08 0.1287154171349872 0.27007621202933596 -0.398791628748132 -6.232861509218949e-10 1.178151453334269e-08 6.268148808885598e-09 0.06895468775088623 0.14468368501571544 -0.21363837254364268 -3.3390329513672954e-10 6.311525642862151e-09 5669.457
3.013579517132764 -1.1389344849735148 1.4950787037466788 -1.9269405454151904 -1.5707963270480005 1.4427831903631405 1.1700544443253119e-08 0.12871541713498721 0.27007621202933585 -0.3987916287481319 -6.23286150921895e-10 1.178151453334269e-08 -6.268148808885598e-09 -0.06895468775088578 -0.14468368501571588 0.2136383725436418 3.3390329513672954e-10 -6.311525642862151e-09 5669.5070000000005
3.013579517889842 -1.1306060173898889 1.512553851845184 -1.9527441610703922 -1.5707963270883298 1.4427831911254576 1.0879715432565726e-08 0.11968563659618081 0.2511295389915638 -0.3708151752007505 -5.795607194158949e-10 1.0955005222967893e-08 -1.81328590542762e-08 -0.19947606099363444 -0.4185492316526062 0.6180252920012513 9.659345323598263e-10 -1.8258342038279838e-08 5669.557
3.0135795185670755 -1.1231559011859469 1.5281860053845606 -1.9758264307896214 -1.570796327124406 1.442783191807378 9.32760239417501e-09 0.10261114248643764 0.21530310270195818 -0.317914244856611 -4.968799034772771e-10 9.39215125425917e-09 -2.7982807182525007e-08 -0.30783342745931214 -0.6459093081058741 0.9537427345698313 1.4906397104318295e-09 -2.817645376277751e-08 5669.607
3.013579519121185 -1.1170602520628259 1.5409761579682713 -1.9947122324767432 -1.5707963271539234 1.4427831923653218 7.223295294049131e-09 0.0794620687414974 0.16673072273239656 -0.2461927912169596 -3.8478379725280307e-10 7.2732819312983105e-09 -3.4474818448870755e-08 -0.37925078262987255 -0.7957602675864366 1.1750110489900318 1.836468123252011e-09 -3.4713391035741836e-08 5669.657
3.013579519523814 -1.1126310078936845 1.5502697881641023 -2.008435106827394 -1.5707963271753713 1.442783192770737 4.835429081140301e-09 0.053193616264969226 0.11161312844069472 -0.16480674453366673 -2.5758254196261876e-10 4.868891210207943e-09 -3.626571810855241e-08 -0.398952121987269 -0.8370984633052135 1.2360505840025013 1.931869064719651e-09 -3.6516684076559636e-08 5669.707
3.013579519767501 -1.1099502575925122 1.5558946534898919 -2.016740722445688 -1.5707963271883525 1.4427831930161101 2.5221836873848964e-09 0.027746052928332578 0.05821795897060885 -0.08596401180922683 -1.3435632590025425e-10 2.539637699151649e-09 -3.201233141680851e-08 -0.3521614410134525 -0.7389202484731177 1.0910816883478822 1.7052918287340087e-09 -3.22338631046174e-08 5669.7570000000005
3.0135795198716466 -1.108804569982937 1.55829858439926 -2.0202903409609267 -1.5707963271939003 1.4427831931209767 7.312840277032992e-10 0.008044713570936682 0.0168797632518335 -0.024924476796757567 -3.8955384432618296e-11 7.363446583339143e-10 -2.0371483628878172e-08 -0.2241027351903781 -0.4702219763010759 0.6943247107668353 1.0851857091943678e-09 -2.0512458339302002e-08 5669.807
3.013579519888486 -1.108619322667035 1.558687278267338 -2.020864282144308 -1.5707963271947973 1.4427831931379327 0.0 0.0 0.0 0.0 0.0 0.0 0.0 8.881784197001252e-16 0.0 -1.7763568394002505e-15 0.0 0.0 5669.857
3.013579519888486 -1.108619322667035 1.558687278267338 -2.020864282144308 -1.5707963271947973 1.4427831931379327 0.0 0.0 0.0 0.0 0.0 0.0 0.0 8.881784197001252e-16 0.0 -1.7763568394002505e-15 0.0 0.0 5669.907
3.013579519888486 -1.108619322667035 1.558687278267338 -2.020864282144308 -1.5707963271947973 1.4427831931379327 0.0 0.0 0.0 0.0 0.0 0.0 0.0 8.881784197001252e-16 0.0 -1.7763568394002505e-15 0.0 0.0 5669.957
3.013579519888486 -1.108619322667035 1.558687278267338 -2.020864282144308 -1.5707963271947973 1.4427831931379327 0.0 0.0 0.0 0.0 0.0 0.0 0.0 8.881784197001252e-16 0.0 -1.7763568394002505e-15 0.0 0.0 5670.012000000001
3.013579519888486 -1.108619322667035 1.558687278267338 -2.020864282144308 -1.5707963271947973 1.4427831931379327 0.0 0.0 0.0 0.0 0.0 0.0 0.0 8.881784197001252e-16 0.0 -1.7763568394002505e-15 0.0 0.0 5670.067
3.013579519888486 -1.108619322667035 1.558687278267338 -2.020864282144308 -1.5707963271947973 1.4427831931379327 0.0 0.0 0.0 0.0 0.0 0.0 0.0 8.881784197001252e-16 0.0 -1.7763568394002505e-15 0.0 0.0 5670.122
3.013579519888486 -1.108619322667035 1.558687278267338 -2.020864282144308 -1.5707963271947973 1.4427831931379327 0.0 0.0 0.0 0.0 0.0 0.0 0.0 8.881784197001252e-16 0.0 -1.7763568394002505e-15 0.0 0.0 5670.177000000001
3.013579519888486 -1.108619322667035 1.558687278267338 -2.020864282144308 -1.5707963271947973 1.4427831931379327 0.0 0.0 0.0 0.0 0.0 0.0 0.0 8.881784197001252e-16 0.0 -1.7763568394002505e-15 0.0 0.0 5670.232
3.013579519888486 -1.108619322667035 1.558687278267338 -2.020864282144308 -1.5707963271947973 1.4427831931379327 0.0 0.0 0.0 0.0 0.0 0.0 0.0 8.881784197001252e-16 0.0 -1.7763568394002505e-15 0.0 0.0 5670.287
3.013579519888486 -1.108619322667035 1.558687278267338 -2.020864282144308 -1.5707963271947973 1.4427831931379327 0.0 0.0 0.0 0.0 0.0 0.0 0.0 8.881784197001252e-16 0.0 -1.7763568394002505e-15 0.0 0.0 5670.342000000001
3.013579519888486 -1.108619322667035 1.558687278267338 -2.020864282144308 -1.5707963271947973 1.4427831931379327 0.0 0.0 0.0 0.0 0.0 0.0 0.0 8.881784197001252e-16 0.0 -1.7763568394002505e-15 0.0 0.0 5670.397000000001
3.013579519888486 -1.108619322667035 1.558687278267338 -2.020864282144308 -1.5707963271947973 1.4427831931379327 0.0 0.0 0.0 0.0 0.0 0.0 0.0 8.881784197001252e-16 0.0 -1.7763568394002505e-15 0.0 0.0 5670.452
3.013579519888486 -1.108619322667035 1.558687278267338 -2.020864282144308 -1.5707963271947973 1.4427831931379327 0.0 0.0 0.0 0.0 0.0 0.0 0.0 0.0 0.0 0.0 0.0 0.0 5670.5070000000005
3.0135795198716466 -1.108804569982937 1.55829858439926 -2.0202903409609267 -1.5707963271939003 1.4427831931209767 -7.312840277033198e-10 -0.0080447135709367 -0.016879763251833494 0.02492447679675825 3.895538443261844e-11 -7.363446583339181e-10 -2.0371483628878195e-08 -0.2241027351903795 -0.4702219763010759 0.694324710766837 1.0851857091943707e-09 -2.0512458339302005e-08 5670.557000000001
3.013579519767501 -1.1099502575925122 1.5558946534898919 -2.0167407224456877 -1.5707963271883525 1.4427831930161101 -2.5221836873849195e-09 -0.027746052928332696 -0.0582179589706094 0.08596401180922744 1.3435632590025543e-10 -2.539637699151677e-09 -3.2012331416808593e-08 -0.3521614410134535 -0.7389202484731192 1.0910816883478867 1.7052918287340111e-09 -3.223386310461743e-08 5670.607000000001
3.013579519523814 -1.1126310078936847 1.5502697881641023 -2.008435106827394 -1.5707963271753713 1.442783192770737 -4.8354290811403195e-09 -0.053193616264969205 -0.11161312844069496 0.16480674453366684 2.575825419626199e-10 -4.8688912102079494e-09 -3.626571810855239e-08 -0.398952121987269 -0.837098463305212 1.2360505840025011 1.931869064719649e-09 -3.6516684076559616e-08 5670.657000000001
3.013579519121185 -1.1170602520628259 1.5409761579682713 -1.9947122324767432 -1.5707963271539234 1.4427831923653218 -7.223295294049119e-09 -0.0794620687414972 -0.16673072273239614 0.24619279121695906 3.847837972528025e-10 -7.273281931298293e-09 -3.447481844887079e-08 -0.379250782629873 -0.7957602675864361 1.175011048990032 1.836468123252012e-09 -3.4713391035741856e-08 5670.707
3.0135795185670755 -1.1231559011859469 1.5281860053845606 -1.9758264307896214 -1.570796327124406 1.442783191807378 -9.327602394174999e-09 -0.10261114248643752 -0.21530310270195788 0.3179142448566104 4.968799034772761e-10 -9.392151254259161e-09 -2.7982807182524987e-08 -0.3078334274593126 -0.6459093081058732 0.953742734569831 1.4906397104318275e-09 -2.8176453762777477e-08 5670.7570000000005
3.013579517889842 -1.1306060173898889 1.512553851845184 -1.9527441610703922 -1.5707963270883298 1.4427831911254576 -1.0879715432565718e-08 -0.1196856365961807 -0.25112953899156365 0.37081517520075036 5.795607194158947e-10 -1.0955005222967887e-08 -1.8132859054276173e-08 -0.19947606099363444 -0.4185492316526053 0.6180252920012504 9.659345323598238e-10 -1.8258342038279785e-08 5670.807000000001
3.013579517132764 -1.1389344849735148 1.4950787037466788 -1.9269405454151904 -1.5707963270480005 1.4427831903631405 -1.1700544443253117e-08 -0.1287154171349872 -0.27007621202933596 0.398791628748132 6.232861509218949e-10 -1.178151453334269e-08 -6.268148808885598e-09 -0.06895468775088623 -0.14468368501571544 0.21363837254364268 3.3390329513672954e-10 -6.311525642862151e-09 5670.857000000001
3.0135795163480763 -1.1475666815389003 1.4769662584641756 -1.9001959035952134 -1.5707963270062002 1.4427831895730228 -1.1700544443253119e-08 -0.12871541713498721 -0.27007621202933585 0.3987916287481319 6.23286150921895e-10 -1.178151453334269e-08 6.268148808885598e-09 0.06895468775088578 0.14468368501571588 -0.2136383725436418 -3.3390329513672954e-10 6.311525642862151e-09 5670.907000000001
3.0135795155909983 -1.1558951491225262 1.4594911103656705 -1.8743922879400117 -1.570796326965871 1.4427831888107057 -1.0879715432565726e-08 -0.11968563659618081 -0.2511295389915638 0.3708151752007505 5.795607194158949e-10 -1.0955005222967893e-08 1.81328590542762e-08 0.19947606099363444 0.4185492316526062 -0.6180252920012513 -9.659345323598263e-10 1.8258342038279838e-08 5670.957
3.013579514913765 -1.1633452653264682 1.4438589568262938 -1.8513100182207824 -1.5707963269297947 1.4427831881287854 -9.32760239417501e-09 -0.10261114248643764 -0.21530310270195818 0.317914244856611 4.968799034772771e-10 -9.39215125425917e-09 2.7982807182525007e-08 0.30783342745931214 0.6459093081058741 -0.9537427345698313 -1.4906397104318295e-09 2.817645376277751e-08 5671.0070000000005
3.0135795143596553 -1.1694409144495892 1.4310688042425832 -1.8324242165336606 -1.5707963269002774 1.4427831875708415 -7.223295294049131e-09 -0.0794620687414974 -0.16673072273239656 0.2461927912169596 3.8478379725280307e-10 -7.2732819312983105e-09 3.4474818448870755e-08 0.37925078262987255 0.7957602675864366 -1.1750110489900318 -1.836468123252011e-09 3.4713391035741836e-08 5671.057000000001
3.0135795139570263 -1.1738701586187306 1.4217751740467521 -1.8187013421830098 -1.5707963268788294 1.4427831871654262 -4.835429081140301e-09 -0.053193616264969226 -0.11161312844069472 0.16480674453366673 2.5758254196261876e-10 -4.868891210207943e-09 3.626571810855241e-08 0.398952121987269 0.8370984633052135 -1.2360505840025013 -1.931869064719651e-09 3.6516684076559636e-08 5671.107000000001
3.0135795137133394 -1.1765509089199029 1.4161503087209626 -1.810395726564716 -1.5707963268658482 1.4427831869200531 -2.5221836873848964e-09 -0.027746052928332578 -0.05821795897060885 0.08596401180922683 1.3435632590025425e-10 -2.539637699151649e-09 3.201233141680851e-08 0.3521614410134525 0.7389202484731177 -1.0910816883478822 -1.7052918287340087e-09 3.22338631046174e-08 5671.157000000001
3.013579513609194 -1.1776965965294781 1.4137463778115944 -1.806846108049477 -1.5707963268603005 1.4427831868151866 -7.312840277032992e-10 -0.008044713570936682 -0.0168797632518335 0.024924476796757567 3.8955384432618296e-11 -7.363446583339143e-10 2.0371483628878172e-08 0.2241027351903781 0.4702219763010759 -0.6943247107668353 -1.0851857091943678e-09 2.0512458339302002e-08 5671.207
3.0135795135923544 -1.1778818438453802 1.4133576839435165 -1.806272166866096 -1.5707963268594034 1.4427831867982306 0.0 0.0 0.0 0.0 0.0 0.0 0.0 -8.881784197001252e-16 0.0 1.7763568394002505e-15 0.0 0.0 5671.2570000000005
3.0135795135923544 -1.1778818438453802 1.4133576839435165 -1.806272166866096 -1.5707963268594034 1.4427831867982306 0.0 0.0 0.0 0.0 0.0 0.0 0.0 -8.881784197001252e-16 0.0 1.7763568394002505e-15 0.0 0.0 5671.307000000001
3.0135795135923544 -1.1778818438453802 1.4133576839435165 -1.806272166866096 -1.5707963268594034 1.4427831867982306 0.0 0.0 0.0 0.0 0.0 0.0 0.0 -8.881784197001252e-16 0.0 1.7763568394002505e-15 0.0 0.0 5671.357000000001
3.0135795135923544 -1.1778818438453802 1.4133576839435165 -1.806272166866096 -1.5707963268594034 1.4427831867982306 0.0 0.0 0.0 0.0 0.0 0.0 0.0 -8.881784197001252e-16 0.0 1.7763568394002505e-15 0.0 0.0 5671.407000000001
3.0135795135923544 -1.1778818438453802 1.4133576839435165 -1.806272166866096 -1.5707963268594034 1.4427831867982306 0.0 0.0 0.0 0.0 0.0 0.0 0.0 -8.881784197001252e-16 0.0 1.7763568394002505e-15 0.0 0.0 5671.457000000001
3.0135795135923544 -1.1778818438453802 1.4133576839435165 -1.806272166866096 -1.5707963268594034 1.4427831867982306 0.0 0.0 0.0 0.0 0.0 0.0 0.0 -8.881784197001252e-16 0.0 1.7763568394002505e-15 0.0 0.0 5671.5070000000005
3.0135795135923544 -1.1778818438453802 1.4133576839435165 -1.806272166866096 -1.5707963268594034 1.4427831867982306 0.0 0.0 0.0 0.0 0.0 0.0 0.0 -8.881784197001252e-16 0.0 1.7763568394002505e-15 0.0 0.0 5671.557000000001
3.0135795135923544 -1.1778818438453802 1.4133576839435165 -1.806272166866096 -1.5707963268594034 1.4427831867982306 0.0 0.0 0.0 0.0 0.0 0.0 0.0 -8.881784197001252e-16 0.0 1.7763568394002505e-15 0.0 0.0 5671.607000000001
3.0135795135923544 -1.1778818438453802 1.4133576839435165 -1.806272166866096 -1.5707963268594034 1.4427831867982306 0.0 0.0 0.0 0.0 0.0 0.0 0.0 -8.881784197001252e-16 0.0 1.7763568394002505e-15 0.0 0.0 5671.657000000001
3.0135795135923544 -1.1778818438453802 1.4133576839435165 -1.806272166866096 -1.5707963268594034 1.4427831867982306 0.0 0.0 0.0 0.0 0.0 0.0 0.0 -8.881784197001252e-16 0.0 1.7763568394002505e-15 0.0 0.0 5671.707000000001
3.0135795135923544 -1.1778818438453802 1.4133576839435165 -1.806272166866096 -1.5707963268594034 1.4427831867982306 0.0 0.0 0.0 0.0 0.0 0.0 0.0 -8.881784197001252e-16 0.0 1.7763568394002505e-15 0.0 0.0 5671.7570000000005
3.0135795135923544 -1.1778818438453802 1.4133576839435165 -1.806272166866096 -1.5707963268594034 1.4427831867982306 0.0 0.0 0.0 0.0 0.0 0.0 0.0 -8.881784197001252e-16 0.0 1.7763568394002505e-15 0.0 0.0 5671.807000000001
3.0135795135923544 -1.1778818438453802 1.4133576839435165 -1.806272166866096 -1.5707963268594034 1.4427831867982306 0.0 0.0 0.0 0.0 0.0 0.0 0.0 -8.881784197001252e-16 0.0 1.7763568394002505e-15 0.0 0.0 5671.857000000001
3.0135795135923544 -1.1778818438453802 1.4133576839435165 -1.806272166866096 -1.5707963268594034 1.4427831867982306 0.0 0.0 0.0 0.0 0.0 0.0 0.0 -8.881784197001252e-16 0.0 1.7763568394002505e-15 0.0 0.0 5671.907000000001
3.0135795135923544 -1.1778818438453802 1.4133576839435165 -1.806272166866096 -1.5707963268594034 1.4427831867982306 0.0 0.0 0.0 0.0 0.0 0.0 0.0 -8.881784197001252e-16 0.0 1.7763568394002505e-15 0.0 0.0 5671.957000000001
3.0135795135923544 -1.1778818438453802 1.4133576839435165 -1.806272166866096 -1.5707963268594034 1.4427831867982306 0.0 0.0 0.0 0.0 0.0 0.0 0.0 -8.881784197001252e-16 0.0 1.7763568394002505e-15 0.0 0.0 5672.0070000000005
3.0135795135923544 -1.1778818438453802 1.4133576839435165 -1.806272166866096 -1.5707963268594034 1.4427831867982306 0.0 0.0 0.0 0.0 0.0 0.0 0.0 -8.881784197001252e-16 0.0 1.7763568394002505e-15 0.0 0.0 5672.057000000001
3.0135795135923544 -1.1778818438453802 1.4133576839435165 -1.806272166866096 -1.5707963268594034 1.4427831867982306 0.0 0.0 0.0 0.0 0.0 0.0 0.0 -8.881784197001252e-16 0.0 1.7763568394002505e-15 0.0 0.0 5672.107000000001
3.0135795135923544 -1.1778818438453802 1.4133576839435165 -1.806272166866096 -1.5707963268594034 1.4427831867982306 0.0 0.0 0.0 0.0 0.0 0.0 0.0 -8.881784197001252e-16 0.0 1.7763568394002505e-15 0.0 0.0 5672.157000000001
3.0135795135923544 -1.1778818438453802 1.4133576839435165 -1.806272166866096 -1.5707963268594034 1.4427831867982306 0.0 0.0 0.0 0.0 0.0 0.0 0.0 -8.881784197001252e-16 0.0 1.7763568394002505e-15 0.0 0.0 5672.207000000001
3.0135795135923544 -1.1778818438453802 1.4133576839435165 -1.806272166866096 -1.5707963268594034 1.4427831867982306 0.0 0.0 0.0 0.0 0.0 0.0 0.0 -8.881784197001252e-16 0.0 1.7763568394002505e-15 0.0 0.0 5672.257000000001
3.0135795135923544 -1.1778818438453802 1.4133576839435165 -1.806272166866096 -1.5707963268594034 1.4427831867982306 0.0 0.0 0.0 0.0 0.0 0.0 0.0 -8.881784197001252e-16 0.0 1.7763568394002505e-15 0.0 0.0 5672.307000000001
3.0135795135923544 -1.1778818438453802 1.4133576839435165 -1.806272166866096 -1.5707963268594034 1.4427831867982306 0.0 0.0 0.0 0.0 0.0 0.0 0.0 -8.881784197001252e-16 0.0 1.7763568394002505e-15 0.0 0.0 5672.357000000001
3.0135795135923544 -1.1778818438453802 1.4133576839435165 -1.806272166866096 -1.5707963268594034 1.4427831867982306 0.0 0.0 0.0 0.0 0.0 0.0 0.0 -8.881784197001252e-16 0.0 1.7763568394002505e-15 0.0 0.0 5672.407000000001
3.0135795135923544 -1.1778818438453802 1.4133576839435165 -1.806272166866096 -1.5707963268594034 1.4427831867982306 0.0 0.0 0.0 0.0 0.0 0.0 0.0 -8.881784197001252e-16 0.0 1.7763568394002505e-15 0.0 0.0 5672.457000000001
3.0135795135923544 -1.1778818438453802 1.4133576839435165 -1.806272166866096 -1.5707963268594034 1.4427831867982306 0.0 0.0 0.0 0.0 0.0 0.0 0.0 -8.881784197001252e-16 0.0 1.7763568394002505e-15 0.0 0.0 5672.507000000001
3.0135795135923544 -1.1778818438453802 1.4133576839435165 -1.806272166866096 -1.5707963268594034 1.4427831867982306 0.0 0.0 0.0 0.0 0.0 0.0 0.0 -8.881784197001252e-16 0.0 1.7763568394002505e-15 0.0 0.0 5672.557000000001
3.0135795135923544 -1.1778818438453802 1.4133576839435165 -1.806272166866096 -1.5707963268594034 1.4427831867982306 0.0 0.0 0.0 0.0 0.0 0.0 0.0 -8.881784197001252e-16 0.0 1.7763568394002505e-15 0.0 0.0 5672.607000000001
3.0135795135923544 -1.1778818438453802 1.4133576839435165 -1.806272166866096 -1.5707963268594034 1.4427831867982306 0.0 0.0 0.0 0.0 0.0 0.0 0.0 -8.881784197001252e-16 0.0 1.7763568394002505e-15 0.0 0.0 5672.657000000001
3.0135795135923544 -1.1778818438453802 1.4133576839435165 -1.806272166866096 -1.5707963268594034 1.4427831867982306 0.0 0.0 0.0 0.0 0.0 0.0 0.0 -8.881784197001252e-16 0.0 1.7763568394002505e-15 0.0 0.0 5672.707000000001
3.0135795135923544 -1.1778818438453802 1.4133576839435165 -1.806272166866096 -1.5707963268594034 1.4427831867982306 0.0 0.0 0.0 0.0 0.0 0.0 0.0 -8.881784197001252e-16 0.0 1.7763568394002505e-15 0.0 0.0 5672.757000000001
3.0135795135923544 -1.1778818438453802 1.4133576839435165 -1.806272166866096 -1.5707963268594034 1.4427831867982306 0.0 0.0 0.0 0.0 0.0 0.0 0.0 -8.881784197001252e-16 0.0 1.7763568394002505e-15 0.0 0.0 5672.807000000001
3.0135795135923544 -1.1778818438453802 1.4133576839435165 -1.806272166866096 -1.5707963268594034 1.4427831867982306 0.0 0.0 0.0 0.0 0.0 0.0 0.0 -8.881784197001252e-16 0.0 1.7763568394002505e-15 0.0 0.0 5672.857000000001
3.0135795135923544 -1.1778818438453802 1.4133576839435165 -1.806272166866096 -1.5707963268594034 1.4427831867982306 0.0 0.0 0.0 0.0 0.0 0.0 0.0 0.0 0.0 0.0 0.0 0.0 5672.907000000001
3.013717105299427 -1.1778913346681266 1.4133708629484494 -1.8062758550489044 -1.5707963268599747 1.4429207785052849 0.020016605852464436 -0.0013807086354991325 0.0019172590622027399 -0.0005365505171650358 -8.312779363101655e-11 0.020016605849756078 1.9207601365927334 -0.13249049948143762 0.18397698417720462 -0.051486493376294906 -7.976804530509632e-09 1.9207601363328441 5672.957000000001
3.014646347243278 -1.177955432067346 1.4134598689243354 -1.8063007636297705 -1.5707963268638339 1.44385002044901 0.07676507348627419 -0.005295113499683305 0.0073528216465379385 -0.002057708493780493 -3.188008613383951e-10 0.07676507347588746 3.601425256111375 -0.24841968652769553 0.3449568453322586 -0.09653717508055294 -1.495650849470556e-08 3.6014252556240827 5673.007000000001
3.0170675794989954 -1.1781224442125946 1.413691782842119 -1.8063656654132476 -1.5707963268738891 1.4462712527043995 0.16544975774927637 -0.01141241981529752 0.015847344436019525 -0.00443492536844225 -6.871031692313714e-10 0.16544975772689013 5.052212167793121 -0.3484922978381431 0.4839181844448281 -0.1354259094392438 -2.0981541703920284e-08 5.052212167109529 5673.057000000002
3.0215853994478583 -1.1784340751186035 1.4141245151096273 -1.8064867667951645 -1.5707963268926515 1.4507890726526511 0.28148351980028113 -0.01941621518670655 0.02696145556222603 -0.007545241647633316 -1.1689845979361704e-09 0.2814835197621949 6.2833376808751655 -0.4334130701121497 0.6018396024945789 -0.16842656077883705 -2.6094333969486296e-08 6.283337680024996 5673.107000000001
3.0287129170081726 -1.1789257181632702 1.4148072131521547 -1.806677821825237 -1.5707963269222516 1.4579165902120013 0.4204877271090619 -0.029004469599894972 0.04027575460530061 -0.011271286905723843 -1.7462609425960075e-09 0.42048772705216764 7.305018604594704 -0.5038867400490845 0.6996997004611771 -0.19581299342580244 -3.03373151027361e-08 7.305018603606295 5673.157000000001
3.0388760098661067 -1.1796267496056514 1.4157806689930452 -1.8069502462696765 -1.5707963269644583 1.46807968306856 0.5782922534563555 -0.039889535422467134 0.055390812593951046 -0.015501279784971117 -2.4016139128710883e-09 0.5782922533781094 8.127471748188933 -0.5606180443483172 0.7784770793242887 -0.2178590717066096 -3.3752914915002196e-08 8.127471747089242 5673.207000000001
3.0524175787065264 -1.180560822103955 1.4170777268342745 -1.8073132316738008 -1.5707963270206957 1.4816212519071474 0.7509354789338613 -0.05179814740364715 0.07192717200544968 -0.02012902799551955 -3.1185911329386062e-09 0.7509354788322555 8.760913920895048 -0.6043117197092168 0.8391503400635796 -0.23483865994772812 -3.638356321761707e-08 8.76091391970965 5673.257000000001
3.0696018024438323 -1.1817461582335331 1.4187236906370344 -1.8077738594246437 -1.5707963270920606 1.4988054756421283 0.9346642899442421 -0.06447142267427894 0.08952534676563349 -0.0250539283154007 -3.881606141492745e-09 0.9346642898177769 9.215561931950242 -0.6356725028311528 0.8826980836587158 -0.24702562247562773 -3.8271689821913236e-08 9.215561930703329 5673.307000000002
3.0906183934527958 -1.1831958440048724 1.420736731702315 -1.8083372148135652 -1.5707963271793413 1.519822066648248 1.1259340792011245 -0.07766486074682621 0.10784582224890413 -0.030180966590533268 -4.675938391744682e-09 1.1259340790487795 9.501632590591713 -0.6554051304134946 0.9100989110893632 -0.25469382361677806 -3.945972453922318e-08 9.501632589306091 5673.357000000001
3.1155868527993933 -1.184918122381589 1.423128296251487 -1.8090065010988614 -1.5707963272830339 1.5447905259914674 1.3214087457290975 -0.09114834351537242 0.12656905527822773 -0.03542071773472307 -5.487733251422578e-09 1.3214087455503036 9.629342706056656 -0.6642143391556115 0.922331423335188 -0.2581171276976488 -3.999009718087941e-08 9.629342704753755 5673.407000000001
3.1445607254716452 -1.1869166867984182 1.4259035130068862 -1.8097831535683737 -1.5707963274033607 1.5737643986597987 1.5179606948637137 -0.10470613525562085 0.14539547412513523 -0.040689345729663075 -6.304002002771587e-09 1.5179606946583253 9.608909087582266 -0.6628048657568728 0.9203742213758561 -0.25756939904470944 -3.990523755821441e-08 9.608909086282129 5673.457000000001
3.1775318556104484 -1.1891909746792082 1.4290616007723955 -1.8106669536020998 -1.5707963275402879 1.606735528794141 1.7126708382514888 -0.11813688262489455 0.16404547850972198 -0.04590860362493339 -7.112621842553856e-09 1.712670838019755 9.450548544405736 -0.6518814469166478 0.9052059061910332 -0.2533245019844298 -3.9247575482560694e-08 9.450548543127026 5673.507000000001
3.2144346417404153 -1.1917364609549121 1.4325962760140272 -1.811656142734803 -1.570796327693543 1.6436383149191145 1.9028285938499006 -0.13125361466213628 0.18225943960064794 -0.05100583353800121 -7.902335882048511e-09 1.9028285935924372 9.164477885764267 -0.6321488193343063 0.877805078760386 -0.24565630084327952 -3.805954076525075e-08 9.164477884524265 5673.557000000002
3.2551502920007076 -1.1945449515815798 1.4364961604405078 -1.8127475367186228 -1.5707963278626327 1.684353965173898 2.0859318859273923 -0.14388374278790877 0.199797700015138 -0.05591396665422098 -8.662753147051683e-09 2.0859318856451545 8.760913920895048 -0.6043117197092167 0.8391503400635796 -0.23483865994772818 -3.6383563217617064e-08 8.760913919709648 5673.607000000001
3.299511079375874 -1.1976048770583505 1.4407451885838587 -1.8139366395856837 -1.5707963280468604 1.7287147525430622 2.2596871450633684 -0.15586906080439425 0.2164405738189812 -0.06057152322683412 -9.384348577876479e-09 2.2596871447576197 8.25007345903528 -0.5690748847407494 0.7902202910802807 -0.2211454436242455 -3.426207265099217e-08 8.250073457919001 5673.657000000001
3.3473045969266852 -1.200901585945445 1.4453230153799814 -1.8152177577107063 -1.570796328245344 1.7765082700874064 2.422009308148197 -0.16706574489539502 0.2319883465265315 -0.06492261257696934 -1.0058463029353004e-08 2.4220093078204856 7.642173309422156 -0.5271430511282733 0.7319935327901549 -0.20485051619930122 -3.173749887670855e-08 7.64217330838813 5673.707000000001
3.3982780130209695 -1.2044176383821574 1.4502054237492388 -1.8165841138736163 -1.5707963284570339 1.8274816861747938 2.5710218183832105 -0.17734435362633305 0.2462612751007075 -0.0689169330936424 -1.067730327082835e-08 2.571021818035337 6.947430281292866 -0.4792209555711573 0.6654486661728676 -0.18622774199936473 -2.885227170609868e-08 6.947430280352845 5673.757000000001
3.4521423265644495 -1.208133099604848 1.4553647321770387 -1.8180279613221555 -1.5707963286807292 1.8813459997109858 2.7050566252807027 -0.18658982794425 0.2590995879529922 -0.07250977223375618 -1.1233941986166598e-08 2.7050566249146932 6.176061183884617 -0.4260133347687714 0.5915642922080864 -0.1655509853509059 -2.5648820950495083e-08 6.1760611830489625 5673.807000000002
3.508576622231579 -1.2120258334649356 1.4607702022944167 -1.8195406978344906 -1.5707963289150975 1.9377802953704792 2.8226541846639317 -0.19470149117780744 0.2703634849434333 -0.07566200652210078 -1.1722317773748822e-08 2.82265418428201 5.338282826434591 -0.36822492542048485 0.5113190118754757 -0.1430941105803942 -2.216957642123021e-08 5.338282825712294 5673.857000000001
3.5672323256963763 -1.2160717959468892 1.4663884464586197 -1.8211129797818237 -1.570796329158691 1.99643599882734 2.9225634586671165 -0.20159304903728653 0.2799331373806431 -0.07834010155135332 -1.2137235146473077e-08 2.922563458271677 4.444312018179998 -0.3065604642256673 0.4256914261547026 -0.11913098201429967 -1.845696792963666e-08 4.444312017578663 5673.907000000001
3.6277374588632627 -1.2202453286862203 1.4721838353336878 -1.822734836191003 -1.5707963294099654 2.0569411319860396 3.0037419157354455 -0.2071925896145886 0.28770868802179866 -0.08051611198207821 -1.2474364531754425e-08 3.003741915329022 3.504365568358022 -0.24172468788368703 0.33566013602543193 -0.09393546397909144 -1.455342528704683e-08 3.5043655678838666 5673.957000000001
3.689700895097897 -1.2245194524874752 1.4781189054710382 -1.8243957828071309 -1.570796329667296 2.1189045682122902 3.0653555306250633 -0.2114425833832344 0.29361025107264155 -0.08216768154272684 -1.2730242271524898e-08 3.065355530210302 2.5286602862058594 -0.174422333093914 0.2422037424673303 -0.06778142080123956 -1.0501378304793282e-08 2.528660285863723 5674.007000000001
3.7527166144580137 -1.2288661608422282 1.4841547668900477 -1.8260849361561755 -1.5707963299289966 2.18192028756388 3.1067787844030796 -0.21429988319836446 0.2975779121874777 -0.0832780430296378 -1.290227062223353e-08 3.1067787839827137 1.527412980960714 -0.10535813655571781 0.1463008464600643 -0.04094271680721348 -6.343256794208474e-09 1.5274129807540493 5674.057000000002
3.816367958924255 -1.233256713447072 1.4902515106586354 -1.8277911276075802 -1.570796330193337 2.2455716320215093 3.12759466444757 -0.2157357242967395 0.2995717284691782 -0.08383601830703688 -1.2988717754846345e-08 3.127594664024388 0.5108404618597654 -0.03523683496846742 0.04893004898329939 -0.01369321632348296 -2.121490566624914e-09 0.5108404617906545 5674.107000000001
3.8802318876310107 -1.2376619297216114 1.4963686164738463 -1.8295030174368732 -1.57079633045856 2.309435560719624 3.127594664447569 -0.21573572429673948 0.2995717284691781 -0.0838360183070369 -1.2988717754846339e-08 3.1275946640243872 -0.5108404618597725 0.03523683496846742 -0.04893004898329939 0.013693216323482516 2.121490566624914e-09 -0.5108404617906473 5674.157000000001
3.9438832320972517 -1.2420524823264552 1.502465360242434 -1.8312092088882779 -1.5707963307229003 2.3730869051772525 3.106778784403079 -0.21429988319836454 0.29757791218747764 -0.08327804302963782 -1.2902270622233527e-08 3.1067787839827132 -1.5274129809607038 0.10535813655571724 -0.1463008464600636 0.04094271680721267 6.343256794208414e-09 -1.527412980754032 5674.207000000001
4.0068989514573685 -1.246399190681208 1.5085012216614435 -1.8328983622373225 -1.570796330984601 2.436102624528843 3.0653555306250615 -0.21144258338323435 0.2936102510726414 -0.08216768154272681 -1.2730242271524891e-08 3.065355530210303 -2.528660286205849 0.174422333093913 -0.2422037424673296 0.06778142080123875 1.0501378304793196e-08 -2.5286602858637055 5674.257000000001
4.068862387692002 -1.250673314482463 1.514436291798794 -1.8345593088534504 -1.5707963312419315 2.498066060755093 3.003741915735447 -0.20719258961458864 0.2877086880217988 -0.08051611198207823 -1.247436453175443e-08 3.0037419153290226 -3.5043655683580206 0.24172468788368698 -0.3356601360254325 0.09393546397909092 1.4553425287046852e-08 -3.504365567883858 5674.307000000001
4.12936752085889 -1.2548468472217942 1.520231680673862 -1.8361811652626296 -1.5707963314932059 2.558571193913793 2.922563458667119 -0.20159304903728656 0.27993313738064324 -0.07834010155135337 -1.2137235146473083e-08 2.92256345827168 -4.444312018180003 0.30656046422566724 -0.42569142615470273 0.11913098201429927 1.8456967929636656e-08 -4.444312017578654 5674.357000000001
4.188023224323686 -1.2588928097037477 1.525849924838065 -1.8377534472099628 -1.5707963317367994 2.617226897370654 2.822654184663933 -0.19470149117780736 0.2703634849434334 -0.07566200652210074 -1.1722317773748817e-08 2.8226541842820105 -5.338282826434588 0.36822492542048474 -0.5113190118754746 0.14309411058039373 2.216957642123023e-08 -5.338282825712283 5674.407000000001
4.244457519990816 -1.2627855435638353 1.5312553949554433 -1.8392661837222979 -1.5707963319711677 2.6736611930301475 2.7050566252807005 -0.1865898279442498 0.25909958795299204 -0.0725097722337561 -1.123394198616659e-08 2.705056624914692 -6.17606118388461 0.42601333476877085 -0.5915642922080853 0.1655509853509051 2.564882095049505e-08 -6.176061183048952 5674.457000000001
4.298321833534296 -1.266501004786526 1.536414703383243 -1.840710031170837 -1.570796332194863 2.727525506566339 2.5710218183832123 -0.17734435362633288 0.24626127510070722 -0.06891693309364237 -1.0677303270828347e-08 2.5710218180353333 -6.947430281292851 0.47922095557115657 -0.6654486661728664 0.18622774199936398 2.8852271706098622e-08 -6.947430280352822 5674.507000000001
4.349295249628581 -1.2700170572232385 1.5412971117525003 -1.8420763873337471 -1.5707963324065528 2.7784989226537267 2.422009308148198 -0.167065744895395 0.23198834652653144 -0.06492261257696931 -1.0058463029352996e-08 2.4220093078204847 -7.642173309422161 0.5271430511282731 -0.7319935327901546 0.20485051619930048 3.1737498876708516e-08 -7.642173308388121 5674.557000000001
4.397088767179391 -1.2733137661103329 1.545874938548623 -1.8433575054587696 -1.5707963326050365 2.8262924401980705 2.259687145063369 -0.15586906080439425 0.21644057381898119 -0.06057152322683413 -9.384348577876476e-09 2.2596871447576192 -8.25007345903528 0.5690748847407496 -0.7902202910802804 0.2211454436242449 3.426207265099215e-08 -8.250073457918992 5674.607000000001
4.441449554554558 -1.2763736915871036 1.5501239666919742 -1.8445466083258306 -1.5707963327892642 2.870653227567235 2.0859318859273954 -0.14388374278790883 0.19979770001513808 -0.05591396665422101 -8.662753147051693e-09 2.0859318856451554 -8.76091392089505 0.6043117197092173 -0.8391503400635807 0.23483865994772804 3.6383563217617084e-08 -8.76091391970965 5674.657000000001
4.4821652048148515 -1.2791821822137712 1.5540238511184545 -1.8456380023096504 -1.5707963329583539 2.9113688778220186 1.9028285938499032 -0.13125361466213642 0.18225943960064825 -0.05100583353800121 -7.902335882048513e-09 1.9028285935924383 -9.16447788576427 0.6321488193343064 -0.8778050787603856 0.24565630084327894 3.805954076525074e-08 -9.164477884524251 5674.707000000001
4.5190679909448175 -1.281727668489475 1.5575585263600862 -1.8466271914423535 -1.570796333111609 2.9482716639469926 1.712670838251495 -0.11813688262489459 0.16404547850972218 -0.04590860362493339 -7.112621842553852e-09 1.7126708380197577 -9.450548544405736 0.6518814469166482 -0.9052059061910338 0.25332450198442935 3.9247575482560694e-08 -9.450548543127013 5674.757000000001
4.552039121083622 -1.2840019563702652 1.5607166141255955 -1.8475109914760797 -1.5707963332485362 2.981242794081334 1.5179606948637197 -0.10470613525562086 0.14539547412513532 -0.040689345729663116 -6.304002002771585e-09 1.5179606946583284 -9.60890908758228 0.6628048657568736 -0.9203742213758567 0.25756939904470927 3.9905237558214444e-08 -9.60890908628212 5674.807000000001
4.581012993755873 -1.2860005207870944 1.5634918308809946 -1.848287643945592 -1.570796333368863 3.0102166667496664 1.3214087457291046 -0.09114834351537245 0.12656905527822757 -0.035420717734723065 -5.487733251422572e-09 1.3214087455503019 -9.629342706056663 0.6642143391556119 -0.9223314233351876 0.2581171276976483 3.99900971808794e-08 -9.62934270475374 5674.857000000001
4.605981453102471 -1.287722799163811 1.565883395430167 -1.8489569302308881 -1.5707963334725557 3.0351851260928857 1.1259340792011217 -0.07766486074682596 0.10784582224890357 -0.030180966590533268 -4.675938391744674e-09 1.1259340790487726 -9.501632590591715 0.6554051304134936 -0.9100989110893619 0.25469382361677717 3.9459724539223155e-08 -9.501632589306064 5674.907000000001
4.626998044111435 -1.2891724849351505 1.5678964364954473 -1.8495202856198096 -1.5707963335598363 3.0562017170990066 0.9346642899442381 -0.0644714226742786 0.08952534676563322 -0.02505392831540054 -3.881606141492739e-09 0.9346642898177717 -9.215561931950239 0.6356725028311514 -0.8826980836587148 0.24702562247562673 3.827168982191321e-08 -9.215561930703306 5674.957000000001
4.64418226784874 -1.2903578210647284 1.5695424002982072 -1.8499809133706526 -1.5707963336312012 3.073385940833985 0.7509354789338683 -0.05179814740364714 0.07192717200544935 -0.020129027995519577 -3.1185911329386017e-09 0.750935478832251 -8.760913920895057 0.6043117197092165 -0.8391503400635786 0.23483865994772707 3.638356321761703e-08 -8.760913919709635 5675.007000000001
4.65772383668916 -1.291291893563032 1.5708394581394365 -1.850343898774777 -1.5707963336874387 3.0869275096725737 0.5782922534563641 -0.03988953542246695 0.05539081259395122 -0.015501279784971098 -2.4016139128711052e-09 0.5782922533781077 -8.127471748188933 0.5606180443483164 -0.7784770793242872 0.2178590717066083 3.3752914915002084e-08 -8.12747174708921 5675.057000000001
4.667886929547093 -1.2919929250054132 1.5718129139803267 -1.8506163232192163 -1.5707963337296453 3.097090602529132 0.4204877271090739 -0.02900446959989502 0.04027575460530063 -0.011271286905724019 -1.7462609425960104e-09 0.42048772705216464 -7.305018604594714 0.5038867400490857 -0.6996997004611795 0.19581299342580205 3.033731510273609e-08 -7.305018603606299 5675.107000000001
4.675014447107408 -1.2924845680500798 1.5724956120228542 -1.8508073782492886 -1.5707963337592454 3.104218120088481 0.28148351980029007 -0.019416215186706765 0.026961455562226046 -0.007545241647633284 -1.1689845979361557e-09 0.2814835197621954 -6.283337680875172 0.43341307011214963 -0.60183960249458 0.16842656077883608 2.6094333969486316e-08 -6.283337680024965 5675.157000000001
4.679532267056272 -1.2927961989560888 1.5729283442903628 -1.8509284796312058 -1.5707963337780078 3.108735940036735 0.16544975774927892 -0.01141241981529722 0.015847344436019453 -0.004434925368442112 -6.871031692313647e-10 0.16544975772688353 -5.052212167793125 0.34849229783814345 -0.48391818444482937 0.135425909439243 2.0981541703920323e-08 -5.052212167109518 5675.207000000001
4.681953499311991 -1.2929632111013376 1.5731602582081463 -1.8509933814146828 -1.570796333788063 3.111157172292124 0.07676507348628099 -0.0052951134996834575 0.007352821646537629 -0.002057708493780374 -3.188008613384087e-10 0.07676507347588704 -3.6014252561113946 0.24841968652769572 -0.3449568453322598 0.09653717508055241 1.4956508494705578e-08 -3.60142525562409 5675.257000000001
4.68288274125584 -1.293027308500557 1.5732492641840323 -1.851018289995549 -1.5707963337919222 3.112086414235849 0.020016605852471853 -0.0013807086354993838 0.0019172590622032828 -0.0005365505171649585 -8.312779363103815e-11 0.020016605849763305 -1.92076013659276 0.13249049948143843 -0.18397698417720532 0.05148649337629443 7.976804530509648e-09 -1.9207601363328506 5675.307000000001
4.683020332962913 -1.2930367993233032 1.5732624431889652 -1.8510219781783575 -1.5707963337924935 3.1122240059429025 7.105427357601002e-15 0.0 0.0 0.0 0.0 0.0 -1.4210854715202004e-14 0.0 0.0 -8.881784197001252e-16 0.0 1.4210854715202004e-14 5675.357000000001
4.6830203329629105 -1.2930367993233032 1.5732624431889652 -1.8510219781783575 -1.5707963337924935 3.1122240059429025 0.0 0.0 0.0 0.0 0.0 0.0 0.0 0.0 0.0 0.0 0.0 0.0 5675.407000000001
4.683020327505428 -1.292826290769684 1.5736508461758685 -1.851620889986443 -1.57079633421281 3.112224000474477 -2.3700146614289596e-07 0.009141730393505756 0.01686713118900012 -0.02600887320194437 -1.8253037888863825e-08 -2.374766822194269e-07 -6.602183699694959e-06 0.25466248953337467 0.46987008312214623 -0.7245328963398789 -5.084774840469208e-07 -6.615421861826892e-06 5675.457000000001
4.683020293752872 -1.291524371546636 1.576052978090438 -1.8553249427788423 -1.570796336812316 3.112223966654243 -8.174132199622329e-07 0.03152964156127496 0.05817439124369429 -0.08970407288017548 -6.2954355167714e-08 -8.190522305119009e-07 -1.0374860099520649e-05 0.40018391212387444 0.7383672734776583 -1.138551694248381 -7.99036046359447e-07 -1.0395662925727972e-05 5675.507000000001
4.683020214776567 -1.288478060911766 1.5816736340176023 -1.8639919132128373 -1.5707963428947993 3.1122238875195816 -1.56711173531221e-06 0.06044736015297685 0.11152960214767428 -0.17197703913122403 -1.206935566528955e-07 -1.57025398038968e-06 -1.1753338014841574e-05 0.4533552011473263 0.836472016107557 -1.28982779348418 -9.052016748967162e-07 -1.1776904852922598e-05 5675.557000000002
4.683020084288719 -1.2834448231607567 1.590960309274621 -1.878311832618275 -1.5707963529445246 3.11222375677009 -2.3409940737379924e-06 0.09029790837666912 0.1666059488872665 -0.25690397203553217 -1.8029531302469573e-07 -2.345688044779645e-06 -1.117292626102224e-05 0.43096728997955713 0.7951647560528627 -1.2261325938059489 -8.60500357617866e-07 -1.1195329304630125e-05 5675.607000000001
4.68301990470771 -1.2765179412568068 1.6037408902779322 -1.8980193043298301 -1.5707963667752363 3.112223576829 -3.022977884475714e-06 0.11660370399879794 0.2151419794515322 -0.33174583165745375 -2.3281936082734475e-07 -3.0290393140233025e-06 -9.06893365342714e-06 0.3498111119963937 0.6454259383545965 -0.9952374949723612 -6.984580824820339e-07 -9.087117942069903e-06 5675.657000000001
4.683019685223393 -1.2680518904600728 1.619361345410004 -1.9221058210192634 -1.5707963836791636 3.1122233569045905 -3.5260014044524725e-06 0.1360065603441979 0.25094160483226713 -0.38694833804525397 -2.715605024690149e-07 -3.53307145587678e-06 -5.876669007420783e-06 0.22667760057366315 0.4182360080537781 -0.64491389674209 -4.526008374483577e-07 -5.888452426461296e-06 5675.707000000001
4.6830194398623854 -1.258587711957109 1.6368234158861807 -1.9490320820276845 -1.5707964025760246 3.112223111051605 -3.7920234582863353e-06 0.1462676862960921 0.26987409902400195 -0.41614197123110996 -2.9204860622182114e-07 -3.7996269155108294e-06 -2.031441138367679e-06 0.07835768908719225 0.14457541019142944 -0.22293319887380977 -1.5645461047597542e-07 -2.0355144190236586e-06 5675.757000000001
4.683019185553364 -1.2487783864903088 1.654922306621534 -1.9769403106978116 -1.570796422162031 3.112222856232663 -3.792023458286336e-06 0.14626768629609213 0.26987409902400195 -0.4161419712311101 -2.920486062218213e-07 -3.7996269155108302e-06 2.031441138367679e-06 -0.0783576890871918 -0.1445754101914299 0.22293319887380889 1.5645461047597542e-07 2.0355144190236586e-06 5675.807000000002
4.683018940192356 -1.239314207987345 1.6723843770977107 -2.0038665717062325 -1.570796441058892 3.1122226103796775 -3.526001404452474e-06 0.136006560344198 0.2509416048322673 -0.3869483380452541 -2.715605024690151e-07 -3.533071455876783e-06 5.87666900742079e-06 -0.22667760057366293 -0.41823600805377853 0.64491389674209 4.5260083744835856e-07 5.88845242646131e-06 5675.857000000001
4.683018720708039 -1.230848157190611 1.6880048322297823 -2.027953088395666 -1.5707964579628193 3.112222390455268 -3.0229778844757195e-06 0.11660370399879806 0.21514197945153246 -0.3317458316574541 -2.328193608273451e-07 -3.0290393140233068e-06 9.068933653427147e-06 -0.34981111199639353 -0.6454259383545974 0.9952374949723611 6.984580824820353e-07 9.08711794206991e-06 5675.907000000001
4.68301854112703 -1.223921275286661 1.7007854132330937 -2.0476605601072206 -1.570796471793531 3.112222210514178 -2.340994073737996e-06 0.09029790837666919 0.1666059488872668 -0.2569039720355325 -1.8029531302469587e-07 -2.3456880447796503e-06 1.1172926261022243e-05 -0.4309672899795569 -0.7951647560528632 1.2261325938059473 8.605003576178662e-07 1.1195329304630125e-05 5675.957000000001
4.683018410639182 -1.2188880375356514 1.7100720884901124 -2.061980479512659 -1.5707964818432563 3.1122220797646865 -1.5671117353122067e-06 0.06044736015297672 0.11152960214767439 -0.1719770391312237 -1.2069355665289542e-07 -1.5702539803896787e-06 1.1753338014841583e-05 -0.4533552011473263 -0.8364720161075582 1.289827793484179 9.052016748967163e-07 1.1776904852922596e-05 5676.007000000001
4.683018331662877 -1.2158417269007815 1.715692744417277 -2.070647449946654 -1.5707964879257397 3.112222000630025 -8.174132199622303e-07 0.03152964156127465 0.0581743912436938 -0.08970407288017455 -6.29543551677137e-08 -8.190522305118891e-07 1.0374860099520634e-05 -0.40018391212387333 -0.7383672734776583 1.138551694248379 7.990360463594449e-07 1.0395662925727965e-05 5676.057000000002
4.683018297910321 -1.2145398076777338 1.7180948763318464 -2.074351502739053 -1.5707964905252456 3.1122219668097912 -2.3700146614289143e-07 0.009141730393505555 0.01686713118899953 -0.026008873201944036 -1.825303788886337e-08 -2.374766822194258e-07 6.602183699694969e-06 -0.2546624895333744 -0.4698700831221475 0.7245328963398742 5.084774840469208e-07 6.6154218618269e-06 5676.107000000001
4.6830182924528385 -1.2143292991241146 1.7184832793187494 -2.0749504145471382 -1.570796490945562 3.1122219613413655 0.0 0.0 0.0 0.0 0.0 0.0 0.0 8.881784197001252e-16 0.0 -3.552713678800501e-15 0.0 0.0 5676.157000000001
4.6830182924528385 -1.2143292991241146 1.7184832793187494 -2.0749504145471382 -1.570796490945562 3.1122219613413655 0.0 0.0 0.0 0.0 0.0 0.0 0.0 8.881784197001252e-16 0.0 -3.552713678800501e-15 0.0 0.0 5676.207000000001
4.6830182924528385 -1.2143292991241146 1.7184832793187494 -2.0749504145471382 -1.570796490945562 3.1122219613413655 0.0 0.0 0.0 0.0 0.0 0.0 0.0 8.881784197001252e-16 0.0 -3.552713678800501e-15 0.0 0.0 5676.257000000001
4.6830182924528385 -1.2143292991241146 1.7184832793187494 -2.0749504145471382 -1.570796490945562 3.1122219613413655 0.0 0.0 0.0 0.0 0.0 0.0 0.0 8.881784197001252e-16 0.0 -3.552713678800501e-15 0.0 0.0 5676.307000000002
4.6830182924528385 -1.2143292991241146 1.7184832793187494 -2.0749504145471382 -1.570796490945562 3.1122219613413655 0.0 0.0 0.0 0.0 0.0 0.0 0.0 8.881784197001252e-16 0.0 -3.552713678800501e-15 0.0 0.0 5676.357000000002
4.6830182924528385 -1.2143292991241146 1.7184832793187494 -2.0749504145471382 -1.570796490945562 3.1122219613413655 0.0 0.0 0.0 0.0 0.0 0.0 0.0 8.881784197001252e-16 0.0 -3.552713678800501e-15 0.0 0.0 5676.407000000001
4.6830182924528385 -1.2143292991241146 1.7184832793187494 -2.0749504145471382 -1.570796490945562 3.1122219613413655 0.0 0.0 0.0 0.0 0.0 0.0 0.0 8.881784197001252e-16 0.0 -3.552713678800501e-15 0.0 0.0 5676.457000000001
4.6830182924528385 -1.2143292991241146 1.7184832793187494 -2.0749504145471382 -1.570796490945562 3.1122219613413655 0.0 0.0 0.0 0.0 0.0 0.0 0.0 8.881784197001252e-16 0.0 -3.552713678800501e-15 0.0 0.0 5676.507000000001
4.6830182924528385 -1.2143292991241146 1.7184832793187494 -2.0749504145471382 -1.570796490945562 3.1122219613413655 0.0 0.0 0.0 0.0 0.0 0.0 0.0 8.881784197001252e-16 0.0 -3.552713678800501e-15 0.0 0.0 5676.557000000002
4.6830182924528385 -1.2143292991241146 1.7184832793187494 -2.0749504145471382 -1.570796490945562 3.1122219613413655 0.0 0.0 0.0 0.0 0.0 0.0 0.0 8.881784197001252e-16 0.0 -3.552713678800501e-15 0.0 0.0 5676.607000000002
4.6830182924528385 -1.2143292991241146 1.7184832793187494 -2.0749504145471382 -1.570796490945562 3.1122219613413655 0.0 0.0 0.0 0.0 0.0 0.0 0.0 8.881784197001252e-16 0.0 -3.552713678800501e-15 0.0 0.0 5676.657000000001
4.6830182924528385 -1.2143292991241146 1.7184832793187494 -2.0749504145471382 -1.570796490945562 3.1122219613413655 0.0 0.0 0.0 0.0 0.0 0.0 0.0 8.881784197001252e-16 0.0 -3.552713678800501e-15 0.0 0.0 5676.707000000001
4.6830182924528385 -1.2143292991241146 1.7184832793187494 -2.0749504145471382 -1.570796490945562 3.1122219613413655 0.0 0.0 0.0 0.0 0.0 0.0 0.0 8.881784197001252e-16 0.0 -3.552713678800501e-15 0.0 0.0 5676.757000000001
4.6830182924528385 -1.2143292991241146 1.7184832793187494 -2.0749504145471382 -1.570796490945562 3.1122219613413655 0.0 0.0 0.0 0.0 0.0 0.0 0.0 8.881784197001252e-16 0.0 -3.552713678800501e-15 0.0 0.0 5676.807000000002
4.6830182924528385 -1.2143292991241146 1.7184832793187494 -2.0749504145471382 -1.570796490945562 3.1122219613413655 0.0 0.0 0.0 0.0 0.0 0.0 0.0 8.881784197001252e-16 0.0 -3.552713678800501e-15 0.0 0.0 5676.857000000002
4.6830182924528385 -1.2143292991241146 1.7184832793187494 -2.0749504145471382 -1.570796490945562 3.1122219613413655 0.0 0.0 0.0 0.0 0.0 0.0 0.0 8.881784197001252e-16 0.0 -3.552713678800501e-15 0.0 0.0 5676.907000000001
4.6830182924528385 -1.2143292991241146 1.7184832793187494 -2.0749504145471382 -1.570796490945562 3.1122219613413655 0.0 0.0 0.0 0.0 0.0 0.0 0.0 8.881784197001252e-16 0.0 -3.552713678800501e-15 0.0 0.0 5676.957000000001
4.6830182924528385 -1.2143292991241146 1.7184832793187494 -2.0749504145471387 -1.570796490945562 3.1122219613413655 0.0 0.0 0.0 0.0 0.0 0.0 0.0 0.0 0.0 0.0 0.0 0.0 5677.007000000001
4.683018297910321 -1.2145398076777338 1.7180948763318462 -2.074351502739053 -1.5707964905252456 3.1122219668097912 2.3700146614289596e-07 -0.009141730393505756 -0.01686713118900012 0.02600887320194437 1.8253037888863825e-08 2.374766822194269e-07 6.602183699694959e-06 -0.25466248953337467 -0.46987008312214623 0.7245328963398789 5.084774840469208e-07 6.615421861826892e-06 5677.057000000002
4.683018331662877 -1.2158417269007817 1.7156927444172767 -2.070647449946654 -1.5707964879257397 3.112222000630025 8.174132199622329e-07 -0.03152964156127496 -0.05817439124369429 0.08970407288017548 6.2954355167714e-08 8.190522305119009e-07 1.0374860099520649e-05 -0.40018391212387444 -0.7383672734776583 1.138551694248381 7.99036046359447e-07 1.0395662925727972e-05 5677.107000000002
4.683018410639182 -1.2188880375356517 1.7100720884901124 -2.061980479512659 -1.5707964818432563 3.1122220797646865 1.56711173531221e-06 -0.06044736015297685 -0.11152960214767428 0.17197703913122403 1.206935566528955e-07 1.57025398038968e-06 1.1753338014841574e-05 -0.4533552011473263 -0.836472016107557 1.28982779348418 9.052016748967162e-07 1.1776904852922598e-05 5677.157000000002
4.68301854112703 -1.223921275286661 1.7007854132330937 -2.047660560107221 -1.570796471793531 3.112222210514178 2.3409940737379924e-06 -0.09029790837666912 -0.1666059488872665 0.25690397203553217 1.8029531302469573e-07 2.345688044779645e-06 1.117292626102224e-05 -0.43096728997955713 -0.7951647560528627 1.2261325938059489 8.60500357617866e-07 1.1195329304630125e-05 5677.207000000001
4.683018720708039 -1.230848157190611 1.6880048322297825 -2.027953088395666 -1.5707964579628193 3.112222390455268 3.022977884475714e-06 -0.11660370399879794 -0.2151419794515322 0.33174583165745375 2.3281936082734475e-07 3.0290393140233025e-06 9.06893365342714e-06 -0.3498111119963937 -0.6454259383545965 0.9952374949723612 6.984580824820339e-07 9.087117942069903e-06 5677.257000000001
4.683018940192356 -1.239314207987345 1.6723843770977107 -2.003866571706233 -1.570796441058892 3.1122226103796775 3.5260014044524725e-06 -0.1360065603441979 -0.25094160483226713 0.38694833804525397 2.715605024690149e-07 3.53307145587678e-06 5.876669007420783e-06 -0.22667760057366315 -0.4182360080537781 0.64491389674209 4.526008374483577e-07 5.888452426461296e-06 5677.307000000002
4.683019185553364 -1.2487783864903088 1.654922306621534 -1.9769403106978116 -1.570796422162031 3.112222856232663 3.7920234582863353e-06 -0.1462676862960921 -0.26987409902400195 0.41614197123110996 2.9204860622182114e-07 3.7996269155108294e-06 2.031441138367679e-06 -0.07835768908719225 -0.14457541019142944 0.22293319887380977 1.5645461047597542e-07 2.0355144190236586e-06 5677.357000000002
4.6830194398623854 -1.258587711957109 1.6368234158861807 -1.9490320820276845 -1.5707964025760246 3.112223111051605 3.792023458286336e-06 -0.14626768629609213 -0.26987409902400195 0.4161419712311101 2.920486062218213e-07 3.7996269155108302e-06 -2.031441138367679e-06 0.0783576890871918 0.1445754101914299 -0.22293319887380889 -1.5645461047597542e-07 -2.0355144190236586e-06 5677.407000000002
4.683019685223393 -1.2680518904600728 1.619361345410004 -1.9221058210192634 -1.5707963836791636 3.1122233569045905 3.526001404452474e-06 -0.136006560344198 -0.2509416048322673 0.3869483380452541 2.715605024690151e-07 3.533071455876783e-06 -5.87666900742079e-06 0.22667760057366293 0.41823600805377853 -0.64491389674209 -4.5260083744835856e-07 -5.88845242646131e-06 5677.457000000001
4.68301990470771 -1.2765179412568068 1.6037408902779324 -1.8980193043298301 -1.5707963667752363 3.112223576829 3.0229778844757195e-06 -0.11660370399879806 -0.21514197945153246 0.3317458316574541 2.328193608273451e-07 3.0290393140233068e-06 -9.068933653427147e-06 0.34981111199639353 0.6454259383545974 -0.9952374949723611 -6.984580824820353e-07 -9.08711794206991e-06 5677.507000000001
4.683020084288719 -1.2834448231607567 1.590960309274621 -1.8783118326182753 -1.5707963529445246 3.11222375677009 2.340994073737996e-06 -0.09029790837666919 -0.1666059488872668 0.2569039720355325 1.8029531302469587e-07 2.3456880447796503e-06 -1.1172926261022243e-05 0.4309672899795569 0.7951647560528632 -1.2261325938059473 -8.605003576178662e-07 -1.1195329304630125e-05 5677.557000000002
4.683020214776567 -1.2884780609117663 1.5816736340176023 -1.8639919132128373 -1.5707963428947993 3.1122238875195816 1.5671117353122067e-06 -0.06044736015297672 -0.11152960214767439 0.1719770391312237 1.2069355665289542e-07 1.5702539803896787e-06 -1.1753338014841583e-05 0.4533552011473263 0.8364720161075582 -1.289827793484179 -9.052016748967163e-07 -1.1776904852922596e-05 5677.607000000002
4.683020293752872 -1.2915243715466362 1.5760529780904378 -1.8553249427788423 -1.570796336812316 3.112223966654243 8.174132199622303e-07 -0.03152964156127465 -0.0581743912436938 0.08970407288017455 6.29543551677137e-08 8.190522305118891e-07 -1.0374860099520634e-05 0.40018391212387333 0.7383672734776583 -1.138551694248379 -7.990360463594449e-07 -1.0395662925727965e-05 5677.657000000002
4.683020327505428 -1.292826290769684 1.5736508461758683 -1.8516208899864433 -1.57079633421281 3.112224000474477 2.3700146614289143e-07 -0.009141730393505555 -0.01686713118899953 0.026008873201944036 1.825303788886337e-08 2.374766822194258e-07 -6.602183699694969e-06 0.2546624895333744 0.4698700831221475 -0.7245328963398742 -5.084774840469208e-07 -6.6154218618269e-06 5677.707000000001
4.6830203329629105 -1.2930367993233032 1.5732624431889652 -1.8510219781783577 -1.5707963337924935 3.1122240059429025 0.0 0.0 0.0 0.0 0.0 0.0 0.0 -8.881784197001252e-16 0.0 3.552713678800501e-15 0.0 0.0 5677.757000000001
4.6830203329629105 -1.2930367993233032 1.5732624431889652 -1.8510219781783575 -1.5707963337924935 3.1122240059429025 0.0 0.0 0.0 0.0 0.0 0.0 0.0 0.0 0.0 0.0 0.0 0.0 5677.807000000002
4.6829779232053035 -1.2930380564503439 1.573264074865631 -1.8510223527277694 -1.570796333792357 3.112181596185307 -0.009223506862313864 -0.0002734068889054314 0.00035486599717446187 -8.145906191720695e-05 2.971886249821348e-11 -0.00922350685982381 -1.3279287796492434 -0.039362997366579194 0.05109084620431211 -0.011727842164357878 4.278690675784457e-09 -1.3279287792907448 5677.857000000002
4.682688054815306 -1.293046648845393 1.5732752272870256 -1.8510249127526581 -1.5707963337914228 3.1118917277953875 -0.03587631025688595 -0.001063459974515648 0.001380308249812085 -0.0003168480950035804 1.155962853807825e-10 -0.03587631024720049 -2.5451968276610497 -0.07544574495261012 0.09792412189159821 -0.0224783641483526 8.200823795253542e-09 -2.545196826973928 5677.907000000002
4.681922255694026 -1.2930693489700205 1.5733046907083539 -1.8510316760455106 -1.5707963337889554 3.1111259286743143 -0.07846386046065613 -0.002325857214646899 0.0030188253231855262 -0.0006929677142262396 2.5281671222438543e-10 -0.07846386043947338 -3.654921347743516 -0.10834064416036175 0.14061975862571818 -0.03227909609790989 1.1776443233233041e-08 -3.6549213467568036 5677.957000000002
4.680472234550968 -1.2931123310781805 1.5733604789466604 -1.85104448216837 -1.5707963337842834 3.1096759075316474 -0.13553430917122317 -0.004017562339749255 0.005214558680702509 -0.0011969956598389575 4.3670217393208137e-10 -0.13553430913463324 -4.660219543604739 -0.13814009639210303 0.17929768797053194 -0.041157568158955465 1.501559286454874e-08 -4.660219542346629 5678.007000000001
4.67814929595306 -1.2931811885555644 1.5734498518862838 -1.8510649976189357 -1.5707963337767987 3.107352968934366 -0.20567850950684466 -0.00609680485290661 0.007913292683905823 -0.001816486797382161 6.627122887333097e-10 -0.205678509451318 -5.564208618952815 -0.16493650305010296 0.21407784148989933 -0.04914131047741505 1.7928316564026423e-08 -5.564208617450657 5678.057000000002
4.674783755373688 -1.2932809512589514 1.573579337984311 -1.851094720996663 -1.5707963337659545 3.1039874283559032 -0.2875300160064371 -0.008523080029836677 0.011062454592473328 -0.0025393731176829304 9.264442621838908e-10 -0.2875300159288131 -6.370005777495842 -0.18882226553663048 0.24508015074768028 -0.05625785319921438 2.0524658206491873e-08 -6.370005775776144 5678.107000000002
4.6702243542417285 -1.2934161028555586 1.5737547567760315 -1.8511349881688632 -1.5707963337512638 3.0994280272251746 -0.3797650846295757 -0.011257148918890991 0.014611114564217948 -0.003353963736855 1.2236328871660258e-09 -0.37976508452705127 -7.080728222941916 -0.20988978525395455 0.27242454730773463 -0.06253472647027916 2.2814661666770877e-08 -7.080728221030345 5678.157000000002
4.66433767499058 -1.2935905981623943 1.5739812413803895 -1.8511869774368026 -1.5707963337322965 3.0935413479756155 -0.48110267275649476 -0.014261038341054908 0.01850998565508767 -0.004248944896298758 1.5501505438882954e-09 -0.4811026726266124 -7.699493158999133 -0.22823146360434415 0.29623096273392235 -0.06799946043653511 2.4808370819689223e-08 -7.699493156920516 5678.207000000002
4.657007556107194 -1.2938078804856072 1.57426326100544 -1.8512517147018035 -1.5707963337086783 3.086211229094209 -0.5903044391880873 -0.01749804088994761 0.02271142381916556 -0.005213379962701245 1.9020071998856626e-09 -0.590304439028724 -8.229417789375592 -0.24393970199006826 0.3166193285901032 -0.07267958524390798 2.6515829540072693e-08 -8.229417787153913 5678.257000000001
4.648134507181109 -1.2940708989598384 1.5746046434538012 -1.851330078631343 -1.5707963336800885 3.0773381801705195 -0.7061747441459052 -0.02093271493182209 0.027169427908669736 -0.006236709428036157 2.275350410019469e-09 -0.7061747439552606 -8.673619317779389 -0.2571069018133958 0.3337095764401372 -0.07660263103832347 2.794708170274707e-08 -8.673619315437788 5678.307000000002
