Andreas691667/Digital_Twin_UR/data_analysis/test_results/case2_success_2.csv
timestamp actual_q_0 actual_q_1 actual_q_2 actual_q_3 actual_q_4 actual_q_5 actual_qd_0 actual_qd_1 actual_qd_2 actual_qd_3 actual_qd_4 actual_qd_5 safety_status output_bit_register_65 output_bit_register_66
351.304 3.7120580673217773 -0.8255037826350708 0.8429892698871058 -1.5882731876769007 -1.5707805792437952 2.141258955001831 0.0 0.0 0.0 -0.0 0.0 -0.0 1 False False
351.324 3.7120296955108643 -0.8255080741694947 0.842987362538473 -1.588269372979635 -1.5707767645465296 2.141329526901245 0.0 0.0 0.0 -0.0 0.0 -0.0 1 False False
351.344 3.7120742797851562 -0.8255037826350708 0.8429392019854944 -1.5883094273009242 -1.57074481645693 2.141226053237915 0.0 0.0 0.0 -0.0 0.0 -0.0 1 False False
351.364 3.7120699882507324 -0.8254716557315369 0.8430007139789026 -1.5882846317686976 -1.5707529226886194 2.141287088394165 0.0 0.0 0.0 -0.0 0.0 -0.0 1 False False
351.38399999999996 3.7120742797851562 -0.8254588407329102 0.8430097738849085 -1.5883094273009242 -1.570801083241598 2.141267776489258 0.0 0.0 0.0 -0.0 0.0 -0.0 1 False False
351.404 3.712050199508667 -0.825463132267334 0.8429630438434046 -1.5882331333556117 -1.5707925001727503 2.1413094997406006 0.0 0.0 0.0 -0.0 0.0 -0.0 1 False False
351.424 3.712045907974243 -0.825455443268158 0.8429802099810999 -1.5882331333556117 -1.5708168188678187 2.141291618347168 0.0 0.0 0.0 -0.0 0.0 -0.0 1 False False
351.44399999999996 3.7121198177337646 -0.8255242866328736 0.8430007139789026 -1.5882774792113246 -1.570784870778219 2.141338348388672 0.0 0.0 0.0 -0.0 0.0 -0.0 1 False False
351.464 3.7120537757873535 -0.8254273694804688 0.8430174032794397 -1.5882774792113246 -1.5707925001727503 2.1412765979766846 0.0 0.0 0.0 -0.0 0.0 -0.0 1 False False
351.484 3.712090492248535 -0.82550402105365 0.8429964224444788 -1.5883013210692347 -1.5707605520831507 2.141279697418213 0.0 0.0 0.0 -0.0 0.0 -0.0 1 False False
351.50399999999996 3.71213960647583 -0.825438455944397 0.8429630438434046 -1.588297029534811 -1.5708044211017054 2.14127516746521 0.0 0.0 0.0 -0.0 0.0 -0.0 1 False False
351.524 3.712070941925049 -0.825458900337555 0.842938248311178 -1.5882932148375453 -1.570784870778219 2.141326665878296 0.0 0.0 0.0 -0.0 0.0 -0.0 1 False False
351.544 3.7120862007141113 -0.8254954975894471 0.8429935614215296 -1.5883165798582972 -1.5708416144000452 2.1412994861602783 0.0 0.0 0.0 -0.0 0.0 -0.0 1 False False
351.56399999999996 3.712094783782959 -0.825463132267334 0.8429721037494105 -1.588252683679098 -1.5708487669574183 2.141263246536255 0.0 0.0 0.0 -0.0 0.0 -0.0 1 False False
351.584 3.7120862007141113 -0.825430766945221 0.842992130910055 -1.5883094273009242 -1.5707967917071741 2.141296148300171 0.0 0.0 0.0 -0.0 0.0 -0.0 1 False False
351.604 3.712090492248535 -0.8254502576640625 0.8429802099810999 -1.5883370838561 -1.5708168188678187 2.1413094997406006 0.0 0.0 0.0 -0.0 0.0 -0.0 1 False False
351.62399999999997 3.7121057510375977 -0.8255080741694947 0.8429892698871058 -1.5882774792113246 -1.5708335081683558 2.1413040161132812 0.0 0.0 0.0 -0.0 0.0 -0.0 1 False False
351.644 3.7120449542999268 -0.8255199950984498 0.8429721037494105 -1.5882569752135218 -1.5707925001727503 2.141282558441162 0.0 0.0 0.0 -0.0 0.0 -0.0 1 False False
351.664 3.7120981216430664 -0.8254792851260682 0.8429349104510706 -1.5882569752135218 -1.5707805792437952 2.1412513256073 0.0 0.0 0.0 -0.0 0.0 -0.0 1 False False
351.68399999999997 3.712066650390625 -0.8254546088031312 0.8429935614215296 -1.5882650814452113 -1.570784870778219 2.141284227371216 0.0 0.0 0.0 -0.0 0.0 -0.0 1 False False
351.704 3.7120699882507324 -0.8254954379848023 0.8429964224444788 -1.5882889233031214 -1.5707686583148401 2.141308546066284 0.0 0.0 0.0 -0.0 0.0 -0.0 1 False False
351.724 3.712115526199341 -0.8254546684077759 0.8429763952838343 -1.588292738000387 -1.5708406607257288 2.1412274837493896 0.0 0.0 0.0 -0.0 0.0 -0.0 1 False False
351.74399999999997 3.7121024131774902 -0.8254340452006836 0.8429606596576136 -1.588280817071432 -1.5707767645465296 2.141247034072876 0.0 0.0 0.0 -0.0 0.0 -0.0 1 False False
351.764 3.7120819091796875 -0.8254997295192261 0.8429892698871058 -1.5883327923216761 -1.5708211104022425 2.14127516746521 0.0 0.0 0.0 -0.0 0.0 -0.0 1 False False
351.784 3.7120416164398193 -0.8254869741252442 0.8429630438434046 -1.5882774792113246 -1.5707805792437952 2.1412930488586426 0.0 0.0 0.0 -0.0 0.0 -0.0 1 False False
351.804 3.7120537757873535 -0.8254427474788208 0.8430174032794397 -1.5882650814452113 -1.570784870778219 2.141300678253174 0.0 0.0 0.0 -0.0 0.0 -0.0 1 False False
351.824 3.712094783782959 -0.8254459661296387 0.8430097738849085 -1.5883008442320765 -1.5707767645465296 2.141308546066284 0.0 0.0 0.0 -0.0 0.0 -0.0 1 False False
351.844 3.7120938301086426 -0.8254222434810181 0.8429515997516077 -1.5883094273009242 -1.570768181477682 2.141286849975586 0.0 0.0 0.0 -0.0 0.0 -0.0 1 False False
351.864 3.7120537757873535 -0.825458900337555 0.8429802099810999 -1.588269372979635 -1.5708044211017054 2.141282558441162 0.0 0.0 0.0 -0.0 0.0 -0.0 1 False False
351.88399999999996 3.7120656967163086 -0.8254146140864869 0.8429673353778284 -1.5882774792113246 -1.5707805792437952 2.141261577606201 0.0 0.0 0.0 -0.0 0.0 -0.0 1 False False
351.904 3.7121024131774902 -0.8254792851260682 0.842938248311178 -1.588268896142477 -1.5707767645465296 2.14131760597229 0.0 0.0 0.0 -0.0 0.0 -0.0 1 False False
351.924 3.7120862007141113 -0.8254708212665101 0.8429802099810999 -1.588273664514059 -1.570784870778219 2.14131760597229 0.0 0.0 0.0 -0.0 0.0 -0.0 1 False False
351.94399999999996 3.712062358856201 -0.8254255217364808 0.8429721037494105 -1.588269372979635 -1.5707805792437952 2.141267776489258 0.0 0.0 0.0 -0.0 0.0 -0.0 1 False False
351.964 3.7121024131774902 -0.8254673045924683 0.8429630438434046 -1.5882531605162562 -1.5707724730121058 2.1413004398345947 0.0 0.0 0.0 -0.0 0.0 -0.0 1 False False
351.984 3.7120699882507324 -0.8254588407329102 0.8430126349078577 -1.5882650814452113 -1.5707686583148401 2.141263246536255 0.0 0.0 0.0 -0.0 0.0 -0.0 1 False False
352.00399999999996 3.7120819091796875 -0.8254792255214234 0.8430379072772425 -1.5882650814452113 -1.5707805792437952 2.141221523284912 0.0 0.0 0.0 -0.0 0.0 -0.0 1 False False
352.024 3.7120862007141113 -0.825483576660492 0.8429673353778284 -1.588297029534811 -1.5707967917071741 2.141237735748291 0.0 0.0 0.0 -0.0 0.0 -0.0 1 False False
352.044 3.7120890617370605 -0.825438455944397 0.8429845015155237 -1.5883332691588343 -1.5708487669574183 2.141296148300171 0.0 0.0 0.0 -0.0 0.0 -0.0 1 False False
352.06399999999996 3.712066888809204 -0.825519935493805 0.8430097738849085 -1.5882889233031214 -1.5707805792437952 2.141254186630249 0.0 0.0 0.0 -0.0 0.0 -0.0 1 False False
352.084 3.7120323181152344 -0.825438455944397 0.8429763952838343 -1.5882774792113246 -1.5707929770099085 2.141291618347168 0.0 0.0 0.0 -0.0 0.0 -0.0 1 False False
352.104 3.712087631225586 -0.8254673641971131 0.8429845015155237 -1.5882698498167933 -1.5707967917071741 2.141270637512207 0.0 0.0 0.0 -0.0 0.0 -0.0 1 False False
352.12399999999997 3.7121026515960693 -0.8254751128009339 0.8429845015155237 -1.588297029534811 -1.5708168188678187 2.141267776489258 0.0 0.0 0.0 -0.0 0.0 -0.0 1 False False
352.144 3.712111473083496 -0.8254877489856263 0.8429606596576136 -1.5882817707457484 -1.5708335081683558 2.141291618347168 0.0 0.0 0.0 -0.0 0.0 -0.0 1 False False
352.164 3.712106943130493 -0.8254996699145813 0.8429630438434046 -1.5882817707457484 -1.5708211104022425 2.1412723064422607 0.0 0.0 0.0 -0.0 0.0 -0.0 1 False False
352.18399999999997 3.712045669555664 -0.8254673641971131 0.8429673353778284 -1.5882817707457484 -1.5707967917071741 2.141308546066284 0.0 0.0 0.0 -0.0 0.0 -0.0 1 False False
352.204 3.7120532989501953 -0.8254555028728028 0.8429473082171839 -1.5882817707457484 -1.5708211104022425 2.141266107559204 0.0 0.0 0.0 -0.0 0.0 -0.0 1 False False
352.224 3.712123394012451 -0.8254708212665101 0.8429802099810999 -1.5883013210692347 -1.5707891623126429 2.141267776489258 0.0 0.0 0.0 -0.0 0.0 -0.0 1 False False
352.24399999999997 3.7120742797851562 -0.825463132267334 0.8430174032794397 -1.5883251629271449 -1.570784870778219 2.141284227371216 0.0 0.0 0.0 -0.0 0.0 -0.0 1 False False
352.264 3.7120697498321533 -0.8255165380290528 0.8430288473712366 -1.588252683679098 -1.570801083241598 2.141267776489258 0.0 0.0 0.0 -0.0 0.0 -0.0 1 False False
352.284 3.712095260620117 -0.8254501980594178 0.8429935614215296 -1.5882932148375453 -1.570813004170553 2.141230583190918 0.0 0.0 0.0 -0.0 0.0 -0.0 1 False False
352.304 3.7120277881622314 -0.825458900337555 0.8430169264422815 -1.5882650814452113 -1.570813004170553 2.141296148300171 0.0 0.0 0.0 -0.0 0.0 -0.0 1 False False
352.324 3.7120907306671143 -0.8254825633815308 0.8429845015155237 -1.5882846317686976 -1.5707686583148401 2.1412558555603027 0.0 0.0 0.0 -0.0 0.0 -0.0 1 False False
352.344 3.7120816707611084 -0.8254954379848023 0.8429587523089808 -1.5882774792113246 -1.5707767645465296 2.141258955001831 0.0 0.0 0.0 -0.0 0.0 -0.0 1 False False
352.364 3.712095022201538 -0.8254715961268921 0.8429845015155237 -1.5882331333556117 -1.5707886854754847 2.1413094997406006 0.0 0.0 0.0 -0.0 0.0 -0.0 1 False False
352.38399999999996 3.7120981216430664 -0.8254716557315369 0.8429845015155237 -1.5882731876769007 -1.5707891623126429 2.1413004398345947 0.0 0.0 0.0 -0.0 0.0 -0.0 1 False False
352.404 3.7120158672332764 -0.8254673045924683 0.8429721037494105 -1.5883094273009242 -1.570784870778219 2.141254425048828 0.0 0.0 0.0 -0.0 0.0 -0.0 1 False False
352.424 3.712045669555664 -0.825451211338379 0.8430174032794397 -1.5883251629271449 -1.5708044211017054 2.1413049697875977 0.0 0.0 0.0 -0.0 0.0 -0.0 1 False False
352.44399999999996 3.7120490074157715 -0.8254792851260682 0.8429845015155237 -1.588280817071432 -1.570829216633932 2.141313076019287 0.0 0.0 0.0 -0.0 0.0 -0.0 1 False False
352.464 3.7120578289031982 -0.8254468005946656 0.8429515997516077 -1.5882846317686976 -1.5707724730121058 2.1413040161132812 0.0 0.0 0.0 -0.0 0.0 -0.0 1 False False
352.484 3.7120535373687744 -0.8254587215236207 0.8429430166827601 -1.5883094273009242 -1.5708335081683558 2.1412885189056396 0.0 0.0 0.0 -0.0 0.0 -0.0 1 False False
352.50399999999996 3.712111473083496 -0.825463132267334 0.8430040518390101 -1.588269372979635 -1.5708048979388636 2.141296148300171 0.0 0.0 0.0 -0.0 0.0 -0.0 1 False False
352.524 3.712066888809204 -0.8254468601993104 0.842971150075094 -1.5882817707457484 -1.5707605520831507 2.141263246536255 0.0 0.0 0.0 -0.0 0.0 -0.0 1 False False
352.544 3.71205472946167 -0.8255001467517395 0.842992130910055 -1.5882889233031214 -1.5707805792437952 2.141254425048828 0.0 0.0 0.0 -0.0 0.0 -0.0 1 False False
352.56399999999996 3.712050199508667 -0.8254706424525757 0.8429802099810999 -1.5883056126036585 -1.570801083241598 2.141267776489258 0.0 0.0 0.0 -0.0 0.0 -0.0 1 False False
352.584 3.712083101272583 -0.8254719537547608 0.8430097738849085 -1.5882607899107875 -1.5708335081683558 2.141282558441162 0.0 0.0 0.0 -0.0 0.0 -0.0 1 False False
352.604 3.7120697498321533 -0.8254763048938294 0.8430097738849085 -1.5882889233031214 -1.570784870778219 2.141263484954834 0.0 0.0 0.0 -0.0 0.0 -0.0 1 False False
352.62399999999997 3.712125062942505 -0.8254675430110474 0.8429430166827601 -1.588268896142477 -1.5708211104022425 2.14123797416687 0.0 0.0 0.0 -0.0 0.0 -0.0 1 False False
352.644 3.712104082107544 -0.8254587215236207 0.8429563681231897 -1.588269372979635 -1.570813004170553 2.141251564025879 0.0 0.0 0.0 -0.0 0.0 -0.0 1 False False
352.664 3.712059259414673 -0.8254587215236207 0.8430054823504847 -1.5882650814452113 -1.5707891623126429 2.1413261890411377 0.0 0.0 0.0 -0.0 0.0 -0.0 1 False False
352.68399999999997 3.712029218673706 -0.825495795612671 0.8430169264422815 -1.588297029534811 -1.5707891623126429 2.141263484954834 0.0 0.0 0.0 -0.0 0.0 -0.0 1 False False
352.704 3.7120981216430664 -0.8254305285266419 0.8430007139789026 -1.588313718835348 -1.570784870778219 2.1412765979766846 0.0 0.0 0.0 -0.0 0.0 -0.0 1 False False
352.724 3.712050199508667 -0.8255083721927186 0.8430126349078577 -1.5882374248900355 -1.5708449522601526 2.141312837600708 0.0 0.0 0.0 -0.0 0.0 -0.0 1 False False
352.74399999999997 3.7120742797851562 -0.8254838746837159 0.8429587523089808 -1.588313718835348 -1.570784870778219 2.141324758529663 0.0 0.0 0.0 -0.0 0.0 -0.0 1 False False
352.764 3.7120907306671143 -0.8254437011531373 0.8429878393756312 -1.588313718835348 -1.5708168188678187 2.141251564025879 0.0 0.0 0.0 -0.0 0.0 -0.0 1 False False
352.784 3.7120862007141113 -0.8254807156375428 0.8429964224444788 -1.588320871392721 -1.5707843939410608 2.141295909881592 0.0 0.0 0.0 -0.0 0.0 -0.0 1 False False
352.804 3.7119991779327393 -0.8255046171000977 0.8430097738849085 -1.5882498226561488 -1.5707486311541956 2.141238212585449 0.0 0.0 0.0 -0.0 0.0 -0.0 1 False False
352.824 3.712066888809204 -0.8254468005946656 0.842992130910055 -1.5882731876769007 -1.5707529226886194 2.1412765979766846 0.0 0.0 0.0 -0.0 0.0 -0.0 1 False False
352.844 3.712045669555664 -0.8254957360080262 0.8429964224444788 -1.5882250271239222 -1.570813004170553 2.141317367553711 0.0 0.0 0.0 -0.0 0.0 -0.0 1 False False
352.864 3.7120532989501953 -0.8254587215236207 0.8430007139789026 -1.588269372979635 -1.5707843939410608 2.141313076019287 0.0 0.0 0.0 -0.0 0.0 -0.0 1 False False
352.88399999999996 3.712066888809204 -0.8254719537547608 0.8429887930499476 -1.5882774792113246 -1.5708006064044397 2.1412928104400635 0.0 0.0 0.0 -0.0 0.0 -0.0 1 False False
352.904 3.71209979057312 -0.8254349392703553 0.8429845015155237 -1.5883094273009242 -1.5707805792437952 2.1413090229034424 0.0 0.0 0.0 -0.0 0.0 -0.0 1 False False
352.924 3.712062358856201 -0.8254304689219971 0.8429802099810999 -1.5882650814452113 -1.5708048979388636 2.1413004398345947 0.0 0.0 0.0 -0.0 0.0 -0.0 1 False False
352.94399999999996 3.712045669555664 -0.8254217070392151 0.842992130910055 -1.5882488689818324 -1.5708211104022425 2.141270875930786 0.0 0.0 0.0 -0.0 0.0 -0.0 1 False False
352.964 3.71205472946167 -0.8254468005946656 0.8430245558368128 -1.5882607899107875 -1.5708168188678187 2.141230821609497 0.0 0.0 0.0 -0.0 0.0 -0.0 1 False False
352.984 3.712078809738159 -0.8255127233317872 0.8430040518390101 -1.5882846317686976 -1.5708048979388636 2.141270875930786 0.0 0.0 0.0 -0.0 0.0 -0.0 1 False False
353.00399999999996 3.712062358856201 -0.8254913848689576 0.8429678122149866 -1.588269372979635 -1.570772949849264 2.1413047313690186 0.0 0.0 0.0 -0.0 0.0 -0.0 1 False False
353.024 3.7120907306671143 -0.8254260581782837 0.8429763952838343 -1.5882412395873011 -1.570772949849264 2.1412546634674072 0.0 0.0 0.0 -0.0 0.0 -0.0 1 False False
353.044 3.712050199508667 -0.8254171174815674 0.8430288473712366 -1.5882412395873011 -1.570772949849264 2.141275405883789 0.0 0.0 0.0 -0.0 0.0 -0.0 1 False False
353.06399999999996 3.7121024131774902 -0.8254217070392151 0.8429759184466761 -1.588252683679098 -1.5707891623126429 2.1413002014160156 0.0 0.0 0.0 -0.0 0.0 -0.0 1 False False
353.084 3.712078809738159 -0.8254543107799073 0.8429802099810999 -1.588297029534811 -1.5707925001727503 2.141263484954834 0.0 0.0 0.0 -0.0 0.0 -0.0 1 False False
353.104 3.7120487689971924 -0.8254392904094239 0.8430331389056605 -1.5882774792113246 -1.5707925001727503 2.141267776489258 0.0 0.0 0.0 -0.0 0.0 -0.0 1 False False
353.12399999999997 3.712116003036499 -0.8254719537547608 0.8430007139789026 -1.5882569752135218 -1.5707891623126429 2.1413378715515137 0.0 0.0 0.0 -0.0 0.0 -0.0 1 False False
353.144 3.7120742797851562 -0.8254706424525757 0.8429845015155237 -1.5882731876769007 -1.5708335081683558 2.141291618347168 0.0 0.0 0.0 -0.0 0.0 -0.0 1 False False
353.164 3.712050199508667 -0.8254423898509522 0.8429563681231897 -1.5883013210692347 -1.5708211104022425 2.1411983966827393 0.0 0.0 0.0 -0.0 0.0 -0.0 1 False False
353.18399999999997 3.7120697498321533 -0.8254304689219971 0.8429520765887659 -1.5883013210692347 -1.570829216633932 2.1412839889526367 0.0 0.0 0.0 -0.0 0.0 -0.0 1 False False
353.204 3.7120578289031982 -0.8254468005946656 0.8430379072772425 -1.5883127651610316 -1.5707925001727503 2.141247272491455 0.0 0.0 0.0 -0.0 0.0 -0.0 1 False False
353.224 3.7120742797851562 -0.8254217070392151 0.8430259863482874 -1.5882932148375453 -1.5708087126361292 2.141247272491455 0.0 0.0 0.0 -0.0 0.0 -0.0 1 False False
353.24399999999997 3.712108612060547 -0.8254217070392151 0.8429845015155237 -1.5882445774474085 -1.570784870778219 2.141275405883789 0.0 0.0 0.0 -0.0 0.0 -0.0 1 False False
353.264 3.71209979057312 -0.8254794639400025 0.8430126349078577 -1.5882607899107875 -1.5707886854754847 2.141270875930786 0.0 0.0 0.0 -0.0 0.0 -0.0 1 False False
353.284 3.7120862007141113 -0.8254496616176148 0.8430050055133265 -1.5882536373534144 -1.5707486311541956 2.1412839889526367 0.0 0.0 0.0 -0.0 0.0 -0.0 1 False False
353.304 3.712078809738159 -0.8254392904094239 0.8430050055133265 -1.5882932148375453 -1.570813004170553 2.141295909881592 0.0 0.0 0.0 -0.0 0.0 -0.0 1 False False
353.324 3.712041139602661 -0.8254587811282654 0.8429763952838343 -1.588252683679098 -1.570784870778219 2.141279697418213 0.0 0.0 0.0 -0.0 0.0 -0.0 1 False False
353.344 3.71209979057312 -0.8254600328258057 0.8429835478412073 -1.588313718835348 -1.5707686583148401 2.141287088394165 0.0 0.0 0.0 -0.0 0.0 -0.0 1 False False
353.364 3.7120816707611084 -0.8254437011531373 0.8430212179767054 -1.588313718835348 -1.5707724730121058 2.141287088394165 0.0 0.0 0.0 -0.0 0.0 -0.0 1 False False
353.38399999999996 3.7120981216430664 -0.8254379791072388 0.8429802099810999 -1.5882650814452113 -1.5707686583148401 2.1412839889526367 0.0 0.0 0.0 -0.0 0.0 -0.0 1 False False
353.404 3.712045669555664 -0.8254750531962891 0.8430169264422815 -1.5882932148375453 -1.570772949849264 2.141267776489258 0.0 0.0 0.0 -0.0 0.0 -0.0 1 False False
353.464 3.712066888809204 -0.8254141372493287 0.8429635206805628 -1.5882374248900355 -1.5708006064044397 2.1412546634674072 0.0 0.0 0.0 -0.0 0.0 -0.0 1 False False
353.484 3.712050199508667 -0.8254869145205994 0.8429964224444788 -1.5882817707457484 -1.5708006064044397 2.1412546634674072 0.0 0.0 0.0 -0.0 0.0 -0.0 1 False False
353.50399999999996 3.712062358856201 -0.8254468005946656 0.8430050055133265 -1.5882655582823695 -1.5708125273333948 2.1413002014160156 0.0 0.0 0.0 -0.0 0.0 -0.0 1 False False
353.524 3.7120203971862793 -0.8254141968539734 0.8430212179767054 -1.5883127651610316 -1.5707529226886194 2.1413002014160156 0.0 0.0 0.0 -0.0 0.0 -0.0 1 False False
353.544 3.712071418762207 -0.825451211338379 0.8429678122149866 -1.588245531121725 -1.5708168188678187 2.141270875930786 0.0 0.0 0.0 -0.0 0.0 -0.0 1 False False
353.56399999999996 3.7120532989501953 -0.8254926365664979 0.8429845015155237 -1.5883094273009242 -1.5707967917071741 2.141279697418213 0.0 0.0 0.0 -0.0 0.0 -0.0 1 False False
353.584 3.7120490074157715 -0.8254305285266419 0.8429845015155237 -1.5882607899107875 -1.5707929770099085 2.141270875930786 0.0 0.0 0.0 -0.0 0.0 -0.0 1 False False
353.604 3.712127923965454 -0.8254392904094239 0.8429887930499476 -1.5882774792113246 -1.5707886854754847 2.141295909881592 0.0 0.0 0.0 -0.0 0.0 -0.0 1 False False
353.62399999999997 3.7120578289031982 -0.8254348796657105 0.8429678122149866 -1.5882536373534144 -1.5707929770099085 2.1412546634674072 0.0 0.0 0.0 -0.0 0.0 -0.0 1 False False
353.644 3.712078809738159 -0.8254676026156922 0.8430331389056605 -1.5882774792113246 -1.570784870778219 2.14125919342041 0.0 0.0 0.0 -0.0 0.0 -0.0 1 False False
353.664 3.7120981216430664 -0.8254823845675965 0.8430212179767054 -1.588297029534811 -1.5707967917071741 2.141308546066284 0.0 0.0 0.0 -0.0 0.0 -0.0 1 False False
353.68399999999997 3.712078809738159 -0.8254393500140687 0.8429845015155237 -1.5883246860899867 -1.5707886854754847 2.141267776489258 0.0 0.0 0.0 -0.0 0.0 -0.0 1 False False
353.704 3.7120907306671143 -0.8254468005946656 0.8429802099810999 -1.5882851086058558 -1.5708048979388636 2.14125919342041 0.0 0.0 0.0 -0.0 0.0 -0.0 1 False False
353.724 3.712066888809204 -0.8254380387118836 0.8429845015155237 -1.5882498226561488 -1.5707810560809534 2.141329050064087 0.0 0.0 0.0 -0.0 0.0 -0.0 1 False False
353.74399999999997 3.712106943130493 -0.825495795612671 0.8429845015155237 -1.588280817071432 -1.5707691351519983 2.141263484954834 0.0 0.0 0.0 -0.0 0.0 -0.0 1 False False
353.764 3.7121024131774902 -0.8254750531962891 0.8429635206805628 -1.5882417164244593 -1.5707610289203089 2.141287088394165 0.0 0.0 0.0 -0.0 0.0 -0.0 1 False False
353.784 3.7121355533599854 -0.8254097861102601 0.8429964224444788 -1.5882336101927699 -1.5708206335650843 2.1413495540618896 0.0 0.0 0.0 -0.0 0.0 -0.0 1 False False
353.804 3.7120742797851562 -0.8255091470531006 0.8430255095111292 -1.5883094273009242 -1.5708048979388636 2.141231060028076 0.0 0.0 0.0 -0.0 0.0 -0.0 1 False False
353.824 3.7120535373687744 -0.8254081767848511 0.8429802099810999 -1.5882774792113246 -1.5707648436175745 2.141279697418213 0.0 0.0 0.0 -0.0 0.0 -0.0 1 False False
353.844 3.7120862007141113 -0.8254749935916443 0.8430126349078577 -1.588297506371969 -1.5707691351519983 2.141291618347168 0.0 0.0 0.0 -0.0 0.0 -0.0 1 False False
353.864 3.7120862007141113 -0.8254305285266419 0.8429964224444788 -1.588292738000387 -1.570784870778219 2.141231060028076 0.0 0.0 0.0 -0.0 0.0 -0.0 1 False False
353.88399999999996 3.7120935916900635 -0.8254794639400025 0.8430212179767054 -1.5883094273009242 -1.570784870778219 2.1412720680236816 0.0 0.0 0.0 -0.0 0.0 -0.0 1 False False
353.904 3.712062358856201 -0.825488345032074 0.8430007139789026 -1.5883094273009242 -1.5707886854754847 2.1413538455963135 0.0 0.0 0.0 -0.0 0.0 -0.0 1 False False
353.924 3.712078809738159 -0.825488345032074 0.8429520765887659 -1.5882889233031214 -1.5708048979388636 2.1413464546203613 0.0 0.0 0.0 -0.0 0.0 -0.0 1 False False
353.94399999999996 3.7120907306671143 -0.8254543107799073 0.8429563681231897 -1.5883013210692347 -1.5708168188678187 2.1412265300750732 0.0 0.0 0.0 -0.0 0.0 -0.0 1 False False
353.964 3.7120699882507324 -0.825451211338379 0.8429930845843714 -1.5882731876769007 -1.5707767645465296 2.1412839889526367 0.0 0.0 0.0 -0.0 0.0 -0.0 1 False False
353.984 3.712111473083496 -0.8254587215236207 0.8430050055133265 -1.5882774792113246 -1.5708006064044397 2.1413044929504395 0.0 0.0 0.0 -0.0 0.0 -0.0 1 False False
354.00399999999996 3.712127685546875 -0.8254215878299256 0.8430493513690394 -1.588297029534811 -1.5708368460284632 2.1412839889526367 0.0 0.0 0.0 -0.0 0.0 -0.0 1 False False
354.024 3.7120816707611084 -0.825488345032074 0.8429878393756312 -1.5882889233031214 -1.5707767645465296 2.141239643096924 0.0 0.0 0.0 -0.0 0.0 -0.0 1 False False
354.044 3.712095022201538 -0.8254423302463074 0.8430050055133265 -1.5883094273009242 -1.5708168188678187 2.141317129135132 0.0 0.0 0.0 -0.0 0.0 -0.0 1 False False
354.06399999999996 3.712066888809204 -0.8254215878299256 0.8429845015155237 -1.5882817707457484 -1.5707767645465296 2.1412503719329834 0.0 0.0 0.0 -0.0 0.0 -0.0 1 False False
354.084 3.7120654582977295 -0.8254304093173523 0.8430245558368128 -1.5882817707457484 -1.5707929770099085 2.1412882804870605 0.0 0.0 0.0 -0.0 0.0 -0.0 1 False False
354.104 3.7120819091796875 -0.8255202931216736 0.8429887930499476 -1.5882846317686976 -1.5708087126361292 2.1412353515625 0.0 0.0 0.0 -0.0 0.0 -0.0 1 False False
354.12399999999997 3.712099552154541 -0.825463132267334 0.8430169264422815 -1.5883013210692347 -1.5708254019366663 2.141275405883789 0.0 0.0 0.0 -0.0 0.0 -0.0 1 False False
354.144 3.7120935916900635 -0.8254541915706177 0.8429845015155237 -1.5882932148375453 -1.5707767645465296 2.1412665843963623 0.0 0.0 0.0 -0.0 0.0 -0.0 1 False False
354.164 3.7120325565338135 -0.8254794639400025 0.8429802099810999 -1.5882412395873011 -1.570772949849264 2.1412267684936523 0.0 0.0 0.0 -0.0 0.0 -0.0 1 False False
354.18399999999997 3.7120742797851562 -0.8254587215236207 0.8430212179767054 -1.5882889233031214 -1.5708168188678187 2.141270875930786 0.0 0.0 0.0 -0.0 0.0 -0.0 1 False False
354.204 3.7120862007141113 -0.8254260581782837 0.8430169264422815 -1.588245531121725 -1.5708087126361292 2.141267776489258 0.0 0.0 0.0 -0.0 0.0 -0.0 1 False False
354.224 3.712106943130493 -0.8254348796657105 0.8430092970477503 -1.5882607899107875 -1.570801083241598 2.141275405883789 0.0 0.0 0.0 -0.0 0.0 -0.0 1 False False
354.24399999999997 3.7120862007141113 -0.8254556220820923 0.8429792563067835 -1.588273664514059 -1.570829216633932 2.141287088394165 0.0 0.0 0.0 -0.0 0.0 -0.0 1 False False
354.264 3.7120697498321533 -0.8254600328258057 0.8429845015155237 -1.5883165798582972 -1.5708168188678187 2.141279697418213 0.0 0.0 0.0 -0.0 0.0 -0.0 1 True False
354.284 3.7120819091796875 -0.8254823249629517 0.8430050055133265 -1.588280817071432 -1.5707929770099085 2.141284227371216 0.0 0.0 0.0 -0.0 0.0 -0.0 1 True False
354.304 3.7121145725250244 -0.825488345032074 0.8430007139789026 -1.5882898769774378 -1.5707805792437952 2.141254186630249 0.0 0.0 0.0 -0.0 0.0 -0.0 1 True False
354.324 3.7120907306671143 -0.825454131965973 0.8429802099810999 -1.5882731876769007 -1.5707767645465296 2.141263246536255 0.0 0.0 0.0 -0.0 0.0 -0.0 1 True False
354.344 3.7121188640594482 -0.8255083721927186 0.842992130910055 -1.5882250271239222 -1.5707886854754847 2.14127516746521 0.004223711788654327 -0.0012205439852550626 0.0023012845776975155 -0.0 0.0 -0.0014718467136844993 1 True False
354.364 3.7122225761413574 -0.8255923551372071 0.8431609312640589 -1.588320871392721 -1.5708006064044397 2.1411709785461426 0.01496672909706831 -0.00970811303704977 0.015105605125427246 -0.0015567498048767447 0.0 -0.007347943261265755 1 True False
354.38399999999996 3.7125535011291504 -0.8257163924029847 0.8434680143939417 -1.5883447132506312 -1.5707648436175745 2.141011953353882 0.02092612534761429 -0.014615963213145733 0.018047286197543144 -0.005309705156832933 0.0 -0.014115883968770504 1 True False
354.404 3.7130162715911865 -0.8261599105647583 0.8438761870013636 -1.5885521374144496 -1.5708048979388636 2.1406729221343994 0.02549907937645912 -0.02184908464550972 0.023474400863051414 -0.011188283562660217 0.0 -0.014721862971782684 1 True False
354.424 3.7136218547821045 -0.826670841579773 0.8444631735431116 -1.5888720951476039 -1.5707767645465296 2.1403772830963135 0.031646426767110825 -0.029072823002934456 0.038013022392988205 -0.012851567938923836 0.0 -0.018883932381868362 1 True False
354.44399999999996 3.7143287658691406 -0.827366368179657 0.84534198442568 -1.5890590153136195 -1.5708168188678187 2.1398425102233887 0.04515492916107178 -0.03872789070010185 0.055425629019737244 -0.012731720693409443 0.0 -0.028950300067663193 1 True False
354.464 3.715459108352661 -0.8282124561122437 0.8466647307025355 -1.5893341503539027 -1.5707686583148401 2.139190912246704 0.06332462280988693 -0.05036795139312744 0.0754590854048729 -0.017418215051293373 0.0 -0.03825394809246063 1 True False
354.484 3.7169411182403564 -0.8293965619853516 0.8484466711627405 -1.5897885761656703 -1.5708211104022425 2.138258695602417 0.07876105606555939 -0.06580488383769989 0.09412179887294769 -0.023626428097486496 0.0 -0.05169001594185829 1 True False
354.50399999999996 3.718717336654663 -0.8308608096889039 0.8505948225604456 -1.5903550587096156 -1.5708368460284632 2.1371562480926514 0.10102367401123047 -0.08258406072854996 0.11504050344228745 -0.0313870906829834 0.0 -0.06645909696817398 1 True False
354.524 3.720942735671997 -0.8327450913241883 0.8531525770770472 -1.5911642513670863 -1.570829216633932 2.135784149169922 0.12244297564029694 -0.10224232077598572 0.1367451697587967 -0.043097324669361115 0.0 -0.07778233289718628 1 True False
354.544 3.723663091659546 -0.8349749606898804 0.8562172094928187 -1.592097898522848 -1.5708368460284632 2.1340270042419434 0.15092802047729492 -0.12323881685733795 0.1740628480911255 -0.045025840401649475 0.0 -0.09302899241447449 1 True False
354.56399999999996 3.726905107498169 -0.8377623719028016 0.8599522749530237 -1.5930019817748011 -1.5707925001727503 2.1319010257720947 0.17791125178337097 -0.1452486366033554 0.2049887776374817 -0.052108753472566605 0.0 -0.11248075217008591 1 True False
354.584 3.7308812141418457 -0.8409857314876099 0.8644917646991175 -1.5942827663817347 -1.5708368460284632 2.129431962966919 0.21038343012332916 -0.17173074185848236 0.24462714791297913 -0.06206948682665825 0.0 -0.13219134509563446 1 True False
354.604 3.7353532314300537 -0.8447270554355164 0.8696888128863733 -1.5956899128355921 -1.5707886854754847 2.126572370529175 0.2393888533115387 -0.19125452637672424 0.2709396779537201 -0.07951870560646057 0.0 -0.14877952635288239 1 True False
354.62399999999997 3.7404627799987793 -0.8488728565028687 0.8753836790667933 -1.597208639184469 -1.570801083241598 2.1234047412872314 0.2583742141723633 -0.21566547453403473 0.2988685667514801 -0.08084442466497421 0.0002702575293369591 -0.15938711166381836 1 True False
354.644 3.7459442615509033 -0.8534059089473267 0.8816450277911585 -1.599119325677389 -1.570784870778219 2.1199867725372314 0.2843434810638428 -0.23576724529266357 0.3242587149143219 -0.09077485650777817 0.00014402771193999797 -0.1766347438097 1 True False
354.664 3.751863479614258 -0.8582225006869812 0.8884556929217737 -1.6009861431517542 -1.570813004170553 2.1162147521972656 0.3066951632499695 -0.256346195936203 0.35263603925704956 -0.09320270270109177 0.00012502110621426255 -0.19813963770866394 1 True False
354.68399999999997 3.758162498474121 -0.863484339123108 0.8958194891559046 -1.6030265293517054 -1.5707843939410608 2.112135410308838 0.33557283878326416 -0.2767871916294098 0.38361912965774536 -0.10391899943351746 9.289418085245416e-05 -0.21298862993717194 1 True False
354.704 3.7651474475860596 -0.869246856575348 0.9039061705218714 -1.6051680050291957 -1.5708416144000452 2.1076388359069824 0.36435675621032715 -0.29576900601387024 0.4110049605369568 -0.12022373825311661 5.5378499382641166e-05 -0.22903218865394592 1 True False
354.724 3.7728493213653564 -0.8754311960986634 0.9124181906329554 -1.6076437435545863 -1.5708373228656214 2.1030046939849854 0.38534456491470337 -0.3164907693862915 0.43695196509361267 -0.11700718849897385 6.126957305241376e-05 -0.24562855064868927 1 True False
354.74399999999997 3.780855655670166 -0.8820862335017701 0.9213975111590784 -1.6101085148253382 -1.570784870778219 2.0978238582611084 0.4085465669631958 -0.3369652032852173 0.46439939737319946 -0.12802748382091522 3.607884718803689e-05 -0.2551022171974182 1 True False
354.764 3.7890942096710205 -0.8889821928790589 0.9311187903033655 -1.612847467462057 -1.5707724730121058 2.092526912689209 0.43055522441864014 -0.356233149766922 0.49546048045158386 -0.14884819090366364 0.00011673389235511422 -0.27025726437568665 1 True False
354.784 3.797877550125122 -0.8962712448886414 0.9412501494037073 -1.615770002404684 -1.5707686583148401 2.0869436264038086 0.45703843235969543 -0.3777906894683838 0.5256509184837341 -0.1413293033838272 7.173542689997703e-05 -0.28766730427742004 1 True False
354.804 3.8075428009033203 -0.9040097159198304 0.9520533720599573 -1.6185771427550257 -1.570845905934469 2.081031322479248 0.48323360085487366 -0.3925640881061554 0.5511566996574402 -0.15697798132896423 5.128564589540474e-05 -0.30329227447509766 1 True False
354.824 3.8174984455108643 -0.9122054737857361 0.9632270971881312 -1.6220103702940882 -1.5707362333880823 2.0748507976531982 0.5091132521629333 -0.4173870384693146 0.5748975276947021 -0.15630538761615753 0.00010185962310060859 -0.32329025864601135 1 True False
354.844 3.827620267868042 -0.9207551044276734 0.9751446882831019 -1.6252919636168421 -1.5707767645465296 2.06821870803833 0.5282183289527893 -0.4439427852630615 0.6068503260612488 -0.16716445982456207 8.518531444678956e-07 -0.3370242118835449 1 True False
354.864 3.8385448455810547 -0.9295268815806885 0.9875472227679651 -1.6287571392455042 -1.5707805792437952 2.061232328414917 0.5543217658996582 -0.45200657844543457 0.639202356338501 -0.17145943641662598 -0.0001642801216803491 -0.34700268507003784 1 True False
354.88399999999996 3.850048303604126 -0.9390279811671753 1.0007122198687952 -1.6321665249266566 -1.5707209745990198 2.0541505813598633 0.5872316360473633 -0.47846513986587524 0.6598782539367676 -0.1805657297372818 -4.156836541646669e-10 -0.36495241522789 1 True False
354.904 3.8618364334106445 -0.9488414090922852 1.0141080061541956 -1.636266370812887 -1.5707805792437952 2.046694040298462 0.6017864942550659 -0.498938649892807 0.6816731691360474 -0.1892048716545105 -1.2342023603033192e-17 -0.38353121280670166 1 True False
354.924 3.8741936683654785 -0.9590234321406861 1.0281651655780237 -1.640038629571432 -1.5707886854754847 2.0388569831848145 0.6259025931358337 -0.5175127983093262 0.7213932275772095 -0.1986110806465149 -0.00012986247020307928 -0.40260049700737 1 True False
354.94399999999996 3.8870689868927 -0.9695430558970948 1.0430524984942835 -1.6441179714598597 -1.5707891623126429 2.0306365489959717 0.6582558751106262 -0.5313013195991516 0.7434144020080566 -0.2034219652414322 -6.823978715431167e-09 -0.4050808250904083 1 True False
354.964 3.9003491401672363 -0.9803940218738099 1.0581100622760218 -1.6484366856017054 -1.5708487669574183 2.022273540496826 0.671499490737915 -0.5592328310012817 0.7741684913635254 -0.23289844393730164 -2.0261008245988163e-16 -0.4278031885623932 1 True False
354.984 3.914109706878662 -0.9918821018985291 1.0739739576922815 -1.6527515850462855 -1.5707972685443323 2.013660192489624 0.7069677710533142 -0.583628237247467 0.7971231341362 -0.21171832084655762 -6.015675769511761e-24 -0.448262482881546 1 True False
355.00399999999996 3.9284186363220215 -1.0036230248263855 1.0901792685138147 -1.6574975452818812 -1.570801083241598 2.004561185836792 0.7248661518096924 -0.5903220772743225 0.8271662592887878 -0.23614075779914856 -1.786108182741107e-31 -0.46337029337882996 1 True False
355.024 3.9432289600372314 -1.015850381260254 1.1071432272540491 -1.6620432339110316 -1.5707686583148401 1.9951342344284058 0.7566392421722412 -0.6254046559333801 0.8611490726470947 -0.24017433822155 -5.303117348643232e-39 -0.4681408107280731 1 True False
355.044 3.958463191986084 -1.0283197325519104 1.1245630423175257 -1.666924615899557 -1.5707891623126429 1.9855375289916992 0.7740806937217712 -0.6334936022758484 0.8894693851470947 -0.2439459264278412 -0.0 -0.488844096660614 1 True False
355.06399999999996 3.974153757095337 -1.0413446587375184 1.1426947752581995 -1.6718536816039027 -1.5708335081683558 1.9755353927612305 0.8051241040229797 -0.6607162952423096 0.9138281941413879 -0.24161510169506073 -0.0 -0.5094707012176514 1 True False
355.084 3.9905667304992676 -1.054588870411255 1.1611011664019983 -1.6772614918150843 -1.5707529226886194 1.965218186378479 0.8237472176551819 -0.6828176379203796 0.9413325786590576 -0.2638508081436157 -0.0 -0.5143789052963257 1 True False
355.104 4.007299900054932 -1.0685746234706421 1.1803939978228968 -1.6823908291258753 -1.5707648436175745 1.9547077417373657 0.848279595375061 -0.6954786777496338 0.9716525077819824 -0.2740381956100464 -0.0 -0.533847987651825 1 True False
355.12399999999997 4.024536609649658 -1.082729534511902 1.1999967733966272 -1.6881891689696253 -1.5707805792437952 1.9438143968582153 0.8694095611572266 -0.7212865352630615 0.9890843629837036 -0.28500550985336304 -0.0 -0.5580284595489502 1 True False
355.144 4.042222499847412 -1.097291038637497 1.2202728430377405 -1.6937252483763636 -1.5708211104022425 1.9325547218322754 0.9019718170166016 -0.7322531342506409 1.0284438133239746 -0.2783816456794739 -5.1895249271183275e-06 -0.5594526529312134 1 True False
355.164 4.060492515563965 -1.1122300189784546 1.240995232258932 -1.6995369396605433 -1.5708044211017054 1.9211697578430176 0.9039773344993591 -0.7564813494682312 1.0497971773147583 -0.28482240438461304 -1.5408167634584774e-13 -0.5822886824607849 1 True False
355.18399999999997 4.078703880310059 -1.1274529558471222 1.262139145527975 -1.7054606876769007 -1.5707486311541956 1.9095032215118408 0.9161052703857422 -0.7488062381744385 1.0458465814590454 -0.29491421580314636 -1.897102777093096e-07 -0.5807887315750122 1 True False
355.204 4.096963405609131 -1.1424637299827118 1.282752815877096 -1.71112122158193 -1.5707529226886194 1.897901177406311 0.9164255857467651 -0.7545521259307861 1.0455230474472046 -0.31607356667518616 -0.00040760223055258393 -0.5764339566230774 1 True False
355.224 4.115451335906982 -1.1575427812388916 1.3038604895221155 -1.716912408868307 -1.5707290808307093 1.886406421661377 0.9166612029075623 -0.7513048052787781 1.0542552471160889 -0.28563961386680603 -0.000126678918604739 -0.5835984945297241 1 True False
355.24399999999997 4.133681774139404 -1.172639326458313 1.3247969786273401 -1.7230202160277308 -1.5707247892962855 1.8747073411941528 0.920299768447876 -0.7574600577354431 1.036210298538208 -0.3103129267692566 -7.523370868511847e-07 -0.5821434855461121 1 True False
355.264 4.151972770690918 -1.1877052944949646 1.3456786314593714 -1.728788515130514 -1.570829216633932 1.8631854057312012 0.911559522151947 -0.7506560683250427 1.05158531665802 -0.2818937301635742 -2.233756324983467e-14 -0.5749776363372803 1 True False
355.284 4.170422077178955 -1.2027913492969056 1.3666003386126917 -1.7344805202879847 -1.5707772413836878 1.851610541343689 0.9201064705848694 -0.757020115852356 1.043932557106018 -0.27422934770584106 -0.00028942120843566954 -0.5838121771812439 1 True False
355.304 4.188737869262695 -1.217814401989319 1.3876875082599085 -1.7405954800047816 -1.5708497206317347 1.8399574756622314 0.9111648201942444 -0.7519246935844421 1.0449182987213135 -0.30313655734062195 -0.0001250279601663351 -0.5716027617454529 1 True False
355.324 4.206991672515869 -1.2329501670650025 1.4085043112384241 -1.7462755642332972 -1.5708335081683558 1.8284499645233154 0.9173042178153992 -0.754922091960907 1.048838496208191 -0.303367555141449 -9.042783494805917e-05 -0.5790750980377197 1 True False
355.344 4.2253594398498535 -1.2481289070895691 1.4293955008136194 -1.7522298298277796 -1.570824925099508 1.8169325590133667 0.9200623035430908 -0.7564141154289246 1.0517805814743042 -0.2759212255477905 -9.38603188842535e-05 -0.5859449505805969 1 True False
355.364 4.243731498718262 -1.263262079363205 1.4505341688739222 -1.758007665673727 -1.5708168188678187 1.8052406311035156 0.9146855473518372 -0.755733072757721 1.0425487756729126 -0.31047868728637695 -0.00011826658010249957 -0.5728105306625366 1 True False
355.38399999999996 4.262050151824951 -1.2782271665385743 1.4712579886065882 -1.763860364953512 -1.5707605520831507 1.7936129570007324 0.9181668162345886 -0.7501397728919983 1.045828938484192 -0.29256123304367065 -7.243934341261138e-09 -0.5791313052177429 1 True False
355.404 4.280362129211426 -1.2934163969806214 1.492387596760885 -1.7695900402464808 -1.5708368460284632 1.7820404767990112 0.9145488142967224 -0.756450891494751 1.0486886501312256 -0.2639411687850952 -0.002201901050284505 -0.5794969797134399 1 True False
355.424 4.2986836433410645 -1.3083640497973938 1.5131991545306605 -1.7757932148375453 -1.570772949849264 1.7704936265945435 0.9169122576713562 -0.7545053958892822 1.0430703163146973 -0.3062950074672699 0.0006301729008555412 -0.5784844160079956 1 True False
355.44399999999996 4.317052364349365 -1.3236185324243088 1.5341466108905237 -1.7812825642027796 -1.5708730856524866 1.759027123451233 0.9144143462181091 -0.7540757060050964 1.0526704788208008 -0.30115026235580444 -0.0003278740623500198 -0.5859227776527405 1 True False
355.464 4.335386276245117 -1.3386339855245133 1.554983917866842 -1.7873674831786097 -1.570813004170553 1.7472282648086548 0.9039728045463562 -0.7499938607215881 1.0411312580108643 -0.2802666425704956 -1.5310575030014206e-09 -0.5774309635162354 1 True False
355.484 4.353323459625244 -1.3535739046386261 1.5757582823382776 -1.7929402790465296 -1.5707653204547327 1.736009955406189 0.894011378288269 -0.7262552380561829 1.0096248388290405 -0.30378153920173645 -2.6617602344458646e-08 -0.5629476308822632 1 True False
355.50399999999996 4.370745658874512 -1.3676678997329255 1.5954597632037562 -1.798577447930807 -1.5707767645465296 1.7249259948730469 0.8585676550865173 -0.7077638506889343 0.9825761318206787 -0.28152650594711304 2.3192658904491736e-09 -0.5479323267936707 1 True False
355.524 4.387705326080322 -1.3817671847394486 1.6150453726397913 -1.8038989506163539 -1.5707686583148401 1.7141460180282593 0.8440009951591492 -0.6893240213394165 0.9599798917770386 -0.24187922477722168 -1.90542319700171e-08 -0.5211504101753235 1 True False
355.544 4.4043288230896 -1.3954196733287354 1.6336234251605433 -1.809401651422018 -1.5707605520831507 1.7038131952285767 0.8140394687652588 -0.6717312335968018 0.9221238493919373 -0.27499303221702576 -5.657372759380875e-16 -0.514828622341156 1 True False
355.56399999999996 4.420252323150635 -1.4085486990264435 1.652154270802633 -1.8143493137755335 -1.5707610289203089 1.693681001663208 0.7876737117767334 -0.6456284523010254 0.9084041118621826 -0.2464497685432434 6.868253166203431e-08 -0.5047277212142944 1 True False
355.584 4.4358038902282715 -1.4212841403535386 1.6698005835162562 -1.8194014034666957 -1.570784870778219 1.6837347745895386 0.7635500431060791 -0.6302458643913269 0.868422269821167 -0.2560860514640808 -0.000627489818725735 -0.47876593470573425 1 True False
355.604 4.450887203216553 -1.433700518017151 1.6870349089251917 -1.8241321049132289 -1.570772949849264 1.6743830442428589 0.7409368753433228 -0.6110196113586426 0.8451308608055115 -0.2350824922323227 0.00028210587333887815 -0.4686601161956787 1 True False
355.62399999999997 4.465301513671875 -1.4457511764815827 1.7038081328021448 -1.8288833103575648 -1.5708406607257288 1.665175437927246 0.7138301730155945 -0.5903319120407104 0.8148481249809265 -0.228046253323555 -0.001036077388562262 -0.4549567997455597 1 True False
355.644 4.479451656341553 -1.457193450336792 1.7194774786578577 -1.8332835636534632 -1.5707853476153772 1.6561858654022217 0.6977888941764832 -0.5717858672142029 0.786920428276062 -0.2326934039592743 0.0015267647104337811 -0.43608802556991577 1 True False
355.664 4.492961406707764 -1.4684685629657288 1.7352612654315394 -1.837560316125387 -1.5707967917071741 1.6477012634277344 0.6603133678436279 -0.5476795434951782 0.766012966632843 -0.1959177851676941 -0.0012851922074332833 -0.4176524579524994 1 True False
355.68399999999997 4.5060505867004395 -1.4791447830251236 1.7501071135150355 -1.8418032131590785 -1.5707605520831507 1.6394473314285278 0.6485632061958313 -0.5246888399124146 0.7327276468276978 -0.22697675228118896 -2.1631806248478824e-06 -0.40722188353538513 1 True False
355.704 4.5186238288879395 -1.4895516869476815 1.7643898169146937 -1.8460132084288539 -1.5708325544940394 1.6314880847930908 0.6173330545425415 -0.5125570297241211 0.702907145023346 -0.18783637881278992 -9.254375618183985e-05 -0.39576101303100586 1 True False
355.724 4.530780792236328 -1.4994345691851159 1.7782881895648401 -1.8497053585448207 -1.5708087126361292 1.6237022876739502 0.5939257740974426 -0.48140594363212585 0.6812902688980103 -0.19301000237464905 -5.243373379926197e-06 -0.3730187714099884 1 True False
355.74399999999997 4.5423407554626465 -1.5091413532248517 1.7916629950152796 -1.8532959423460902 -1.5708416144000452 1.6164312362670898 0.5705249309539795 -0.47119152545928955 0.6527897119522095 -0.18479038774967194 0.0004069186979904771 -0.3584286570549011 1 True False
355.764 4.553515434265137 -1.518208884899952 1.8041046301471155 -1.856957574883932 -1.570813004170553 1.6094589233398438 0.5441284775733948 -0.44741353392601013 0.6229441165924072 -0.17323556542396545 -0.00035643152659758925 -0.34761685132980347 1 True False
355.784 4.564223289489746 -1.5269901689938088 1.816484276448385 -1.860129018823141 -1.5707405249225062 1.6027244329452515 0.518808901309967 -0.4305277168750763 0.6016311645507812 -0.15251091122627258 0.00018157287559006363 -0.33096668124198914 1 True False
355.804 4.574072360992432 -1.5354141232422371 1.8281620184527796 -1.863591810266012 -1.5708487669574183 1.5963177680969238 0.4982743263244629 -0.40025582909584045 0.5552293658256531 -0.15900525450706482 -0.0020424670074135065 -0.31542038917541504 1 True False
355.824 4.583923816680908 -1.5432991714081545 1.838921848927633 -1.8666330776610316 -1.570801083241598 1.590193510055542 0.477008581161499 -0.3871980309486389 0.5380328893661499 -0.14683836698532104 -7.307094929132063e-10 -0.2981114089488983 1 True False
355.844 4.593210697174072 -1.5507826779833813 1.8494747320758265 -1.8696147404112757 -1.5707648436175745 1.5844486951828003 0.4414736330509186 -0.3714807331562042 0.5100226998329163 -0.14713554084300995 0.00038264290196821094 -0.2792249023914337 1 True False
355.864 4.6016669273376465 -1.5578183906948944 1.8596223036395472 -1.8722177944579066 -1.5707767645465296 1.5789438486099243 0.4210692346096039 -0.3547726273536682 0.4863424003124237 -0.12251423299312592 0.00017674514674581587 -0.2692251205444336 1 True False
355.88399999999996 4.6098713874816895 -1.5646869347295542 1.868789021168844 -1.8749538860716761 -1.5707686583148401 1.5737836360931396 0.40260374546051025 -0.32868868112564087 0.4491393566131592 -0.1545039862394333 -4.51891992270248e-06 -0.2552041709423065 1 True False
355.904 4.617684364318848 -1.5711709461607875 1.8774750868426722 -1.8775307140746058 -1.5707886854754847 1.5689196586608887 0.3693309724330902 -0.3092992603778839 0.42307305335998535 -0.1085188239812851 -0.00024025101447477937 -0.23907440900802612 1 True False
355.924 4.624809265136719 -1.5769921741881312 1.8858550230609339 -1.8796774349608363 -1.5707486311541956 1.5642828941345215 0.3476841151714325 -0.28368568420410156 0.4028177857398987 -0.10536941885948181 -5.346828038454987e-05 -0.22251850366592407 1 True False
355.94399999999996 4.631533145904541 -1.5823165378966273 1.893679443989889 -1.8816257915892542 -1.5707891623126429 1.5600554943084717 0.3243940472602844 -0.26571622490882874 0.37806063890457153 -0.11085601150989532 -1.602982607762371e-10 -0.20092856884002686 1 True False
355.964 4.637720108032227 -1.587649484673971 1.9004676977740687 -1.8839770756163539 -1.5707886854754847 1.5561206340789795 0.3035348653793335 -0.2518365681171417 0.3403486907482147 -0.10170222818851471 -4.759399548463721e-18 -0.18912068009376526 1 True False
355.984 4.6436357498168945 -1.5925661526122035 1.906938378010885 -1.885740419427389 -1.570768181477682 1.552497148513794 0.2792545258998871 -0.22283130884170532 0.3228539228439331 -0.08477605879306793 -1.4131087262353578e-25 -0.1750938445329666 1 True False
356.00399999999996 4.648845672607422 -1.5967542133727015 1.9133122603045862 -1.887221475640768 -1.5708211104022425 1.5491523742675781 0.24786028265953064 -0.1988535076379776 0.2946082353591919 -0.07050769031047821 -4.19564753800985e-33 -0.15940319001674652 1 True False
356.024 4.653668403625488 -1.6005321941771449 1.918884579335348 -1.8888708553709925 -1.5707929770099085 1.5461407899856567 0.22576521337032318 -0.18417705595493317 0.2565973997116089 -0.08263730257749557 -1.2457263088154759e-40 -0.14341063797473907 1 True False
356.044 4.657845973968506 -1.6041881046690882 1.923551384602682 -1.8903390369811 -1.5707686583148401 1.5434528589248657 0.2017214596271515 -0.16701464354991913 0.22337335348129272 -0.06124405190348625 -0.0 -0.12893003225326538 1 True False
356.06399999999996 4.661609649658203 -1.6072637043394984 1.9277895132647913 -1.8914925060667933 -1.570801083241598 1.5410237312316895 0.1792217493057251 -0.14670325815677643 0.20498986542224884 -0.05596660450100899 -0.0 -0.11431175470352173 1 True False
356.084 4.664923667907715 -1.6099425754942835 1.9316976706134241 -1.8924099407591761 -1.5707805792437952 1.53899085521698 0.15711361169815063 -0.12712959945201874 0.17841430008411407 -0.044777143746614456 -0.0 -0.09826208651065826 1 True False
356.104 4.667725563049316 -1.6121703586974085 1.9349177519427698 -1.8933564625182093 -1.5707925001727503 1.5371994972229004 0.1302085965871811 -0.10946074873209 0.14846643805503845 -0.04456638544797897 -0.0 -0.08372028917074203 1 True False
356.12399999999997 4.670066833496094 -1.6141835651793421 1.9374244848834437 -1.894118448297018 -1.570829216633932 1.5356788635253906 0.10442713648080826 -0.09101951867341995 0.11723384261131287 -0.03200657293200493 -0.0 -0.06520874053239822 1 True False
356.144 4.671999454498291 -1.615746637383932 1.9394829908954065 -1.89475741008901 -1.570796314870016 1.5345710515975952 0.0828208178281784 -0.06643668562173843 0.09437651932239532 -0.02867545187473297 -0.0 -0.050239063799381256 1 True False
356.164 4.673259258270264 -1.6167599163451136 1.9410913626300257 -1.8951999149718226 -1.5707767645465296 1.5336476564407349 0.05466839671134949 -0.0493231937289238 0.06873816251754761 -0.016329757869243622 -0.0 -0.036392707377672195 1 True False
356.18399999999997 4.674123764038086 -1.6175319157042445 1.9421618620501917 -1.8954717121519984 -1.570784870778219 1.5331835746765137 0.0323500856757164 -0.027433916926383972 0.03617788851261139 -0.010561240836977959 -0.0 -0.01980339176952839 1 True False
356.204 4.674509048461914 -1.6178213558592738 1.9425552527057093 -1.8955069981017054 -1.5708449522601526 1.5329352617263794 0.007976323366165161 -0.005269207525998354 0.008235365152359009 -0.0001739123254083097 -0.0 -0.002508000936359167 1 True False
356.224 4.674423694610596 -1.6177107296385707 1.9426434675799769 -1.8958069286742152 -1.5708211104022425 1.5329996347427368 -0.001313885790295899 0.01324405986815691 0.019002217799425125 -0.035840533673763275 -0.0 0.0013376781716942787 1 True False
356.24399999999997 4.674441337585449 -1.6174632511534632 1.9431613127337855 -1.89654602626943 -1.5707886854754847 1.533044457435608 -0.00011014773917850107 0.0167620200663805 0.030329836532473564 -0.03834111616015434 -0.0 1.278573563467944e-05 1 True False
356.264 4.674442768096924 -1.6170135937132777 1.94391376176943 -1.8976556263365687 -1.5708254019366663 1.5329546928405762 0.00028888642555102706 0.025281578302383423 0.048328299075365067 -0.07054099440574646 -0.0 -0.0008354887831956148 1 True False
356.284 4.6744279861450195 -1.6163984737791957 1.9450200239764612 -1.899480482141012 -1.5708168188678187 1.5329921245574951 0.00016624631825834513 0.038598477840423584 0.06199979782104492 -0.10290591418743134 -0.0 -0.0011504669673740864 1 True False
356.304 4.6744384765625 -1.61558260540151 1.9465015570269983 -1.9017673931517542 -1.5707648436175745 1.5329605340957642 0.000792011443991214 0.05186454951763153 0.0826471745967865 -0.13121964037418365 -0.0 -0.0010359013685956597 1 True False
356.324 4.674459934234619 -1.6143771610655726 1.948409382496969 -1.9048973522581996 -1.570813004170553 1.5329517126083374 0.0003846052277367562 0.06392090022563934 0.09856786578893661 -0.15892896056175232 -0.0 -0.0005773852462880313 1 True False
356.344 4.67447566986084 -1.6130176983275355 1.9506195227252405 -1.9082581005492152 -1.5707686583148401 1.5329111814498901 0.0008961413986980915 0.072868213057518 0.11005581170320511 -0.18049319088459015 -0.0 -0.0004637896199710667 1 True False
356.364 4.674490928649902 -1.6114469967284144 1.9530003706561487 -1.9123622379698695 -1.570801083241598 1.5329275131225586 0.0011293594725430012 0.08648718148469925 0.13067838549613953 -0.2150624543428421 -0.0 -0.00023622129810974002 1 True False
356.38399999999996 4.674497127532959 -1.6097289524474085 1.9557865301715296 -1.9168921909727992 -1.5707767645465296 1.5329245328903198 0.0009561984916217625 0.09456820785999298 0.15166383981704712 -0.25349879264831543 -0.0 -0.00018582356278784573 1 True False
356.404 4.67452335357666 -1.6077457867064417 1.9589303175555628 -1.9219738445677699 -1.5707767645465296 1.532969355583191 0.0010105831315740943 0.10827434808015823 0.1656024307012558 -0.26080670952796936 -0.0 -0.0001607938902452588 1 True False
356.424 4.6745076179504395 -1.6054469547667445 1.9625051657306116 -1.9278613529601039 -1.5707805792437952 1.5329540967941284 0.0004425391089171171 0.116914302110672 0.19023407995700836 -0.2965538501739502 -0.0 -0.00012840937415603548 1 True False
356.44399999999996 4.6745686531066895 -1.603039880792135 1.9663499037372034 -1.9340483150877894 -1.570853058491842 1.532965064048767 0.00018646341050043702 0.12683884799480438 0.20175129175186157 -0.3235635757446289 -0.0 -0.00012190433335490525 1 True False
356.464 4.674490928649902 -1.6003481350340785 1.9705455938922327 -1.9411198101439417 -1.57074481645693 1.532915711402893 0.00015818390238564461 0.13829047977924347 0.22245357930660248 -0.35236555337905884 -0.0 -0.00010425215441500768 1 True False
356.484 4.674519062042236 -1.597530027429098 1.9752472082721155 -1.9484368763365687 -1.5707805792437952 1.532915711402893 0.00012234490714035928 0.1477057933807373 0.2385714054107666 -0.38146549463272095 -0.0 -7.03983023413457e-05 1 True False
356.50399999999996 4.6745686531066895 -1.5944415531554164 1.9803183714496058 -1.9562889538206996 -1.5707529226886194 1.532936453819275 0.00011112133506685495 0.1589360535144806 0.25266629457473755 -0.40302860736846924 -0.0 -6.074043267290108e-05 1 True False
356.524 4.6745476722717285 -1.5910774670042933 1.9855135122882288 -1.9647098980345667 -1.5708211104022425 1.532903790473938 4.307151539251208e-05 0.16622301936149597 0.2616991400718689 -0.43902626633644104 -0.0 -5.3516636398853734e-05 1 True False
356.544 4.674482345581055 -1.587750097314352 1.9908178488360804 -1.9740501842894496 -1.5708406607257288 1.5329201221466064 5.2132625569356605e-05 0.17713989317417145 0.28373953700065613 -0.4701628088951111 -0.0 -7.491761522260276e-08 1 True False
356.56399999999996 4.6745076179504395 -1.584149023095602 1.9967425505267542 -1.983533044854635 -1.5708048979388636 1.5329320430755615 -3.7844511098228395e-05 0.18883022665977478 0.306916743516922 -0.48767268657684326 -0.0 -2.224371623444363e-15 1 True False
356.584 4.674489498138428 -1.5801063976683558 2.0031102339373987 -1.9936701260008753 -1.5708168188678187 1.5329407453536987 -2.715466566882707e-11 0.20088189840316772 0.32812637090682983 -0.5297057628631592 -0.0 -6.604359275728415e-23 1 True False
356.604 4.674598217010498 -1.5760404072203578 2.0098403135882776 -2.0045258007445277 -1.5707605520831507 1.5329574346542358 -2.122425109872949e-31 0.2113652229309082 0.33851301670074463 -0.5442699193954468 -0.0 -9.54030042521481e-07 1 True False
356.62399999999997 4.674577713012695 -1.5716711483397425 2.016665760670797 -2.0158096752562464 -1.5707767645465296 1.5328905582427979 0.0 0.22542345523834229 0.3527631461620331 -0.5810733437538147 -0.0 -2.8326009953957322e-14 1 True False
356.644 4.6745076179504395 -1.5670303309201081 2.0239909330951136 -2.0275689564146937 -1.5708087126361292 1.532936453819275 0.0 0.22965478897094727 0.3756343722343445 -0.5981293320655823 -0.0 -8.410247301646474e-22 1 True False
356.664 4.67452335357666 -1.5625181265971442 2.0311973730670374 -2.039365907708639 -1.570801083241598 1.532948613166809 0.0 0.21888254582881927 0.35510894656181335 -0.5695139169692993 -0.0 -2.4970789138698535e-29 1 True False
356.68399999999997 4.6744818687438965 -1.5583114030635734 2.0380175749408167 -2.050505300561422 -1.570829216633932 1.5329855680465698 0.0 0.20497584342956543 0.3363211750984192 -0.5493285655975342 2.7559871051963114e-11 -7.414052244805435e-37 1 True False
356.704 4.674556732177734 -1.5542627845755597 2.044709030781881 -2.0611068210997523 -1.570801083241598 1.5329275131225586 0.0 0.19837744534015656 0.32083120942115784 -0.5130839943885803 8.182776159213312e-19 -2.2420775429197073e-44 1 True False
356.724 4.6745686531066895 -1.5503859047642727 2.0508301893817347 -2.0712086162962855 -1.5707767645465296 1.5329574346542358 0.0 0.18966108560562134 0.2984524369239807 -0.49630141258239746 4.0158861338568386e-06 -0.0 1 True False
356.74399999999997 4.674511909484863 -1.5468379382840176 2.0565322081195276 -2.080855985681051 -1.570829216633932 1.5329276323318481 0.0 0.1774059385061264 0.28156358003616333 -0.4618602395057678 1.192352694443649e-13 -0.0 1 True False
356.764 4.674565315246582 -1.5434012369117518 2.0619657675372522 -2.089707990685934 -1.5707805792437952 1.5329442024230957 0.0 0.17238056659698486 0.2651674747467041 -0.4346328675746918 3.540202159169113e-21 -0.0 1 True False
356.784 4.674516201019287 -1.540023799320199 2.067294422780172 -2.098205705682272 -1.5708044211017054 1.5329082012176514 0.0 0.1601409912109375 0.2551061809062958 -0.40965980291366577 1.0511179153843813e-28 -0.0 1 True False
356.804 4.674540042877197 -1.5370746006122609 2.0722573439227503 -2.1059781513609828 -1.5708254019366663 1.5329692363739014 0.0 0.14450202882289886 0.234124556183815 -0.39074277877807617 3.120863602557359e-36 -0.0 1 True False
356.82399999999996 4.674572944641113 -1.53419083476577 2.0767720381366175 -2.113138814965719 -1.5708568731891077 1.5329573154449463 0.0 0.1354326456785202 0.21460387110710144 -0.3529663383960724 9.248569864543793e-44 -0.0 1 True False
356.844 4.6745476722717285 -1.531572488402464 2.0808332602130335 -2.119958063165182 -1.5707648436175745 1.5329363346099854 0.0 0.1203925833106041 0.19891829788684845 -0.333364874124527 0.0 -0.0 1 True False
356.864 4.674527645111084 -1.5292337623289605 2.0844343344317835 -2.126125474969381 -1.5708211104022425 1.5329276323318481 0.0 0.11241283267736435 0.1829647570848465 -0.3045816421508789 0.0 -0.0 1 True False
356.88399999999996 4.6745476722717285 -1.5271280866912385 2.087907616292135 -2.1316634617247523 -1.5707891623126429 1.5329244136810303 0.0 0.09929946064949036 0.1687772423028946 -0.2809945046901703 0.0 -0.0 1 True False
356.904 4.67452335357666 -1.525217966442444 2.091151539479391 -2.1366659603514613 -1.5707772413836878 1.5329407453536987 0.0 0.09029596298933029 0.14916568994522095 -0.2324700653553009 0.0 -0.0 1 True False
356.924 4.674490928649902 -1.5235272024622937 2.093818489705221 -2.1412693462767542 -1.5707925001727503 1.532952904701233 0.0 0.08163311332464218 0.13038954138755798 -0.2068880796432495 0.0 -0.0 1 True False
356.94399999999996 4.674556732177734 -1.5219837252846737 2.096259895955221 -2.1452018223204554 -1.5708048979388636 1.5329363346099854 0.0 0.07003867626190186 0.11323758214712143 -0.1890397071838379 0.0 -0.0 1 True False
356.964 4.674479007720947 -1.520617501144745 2.0983718077289026 -2.148475786248678 -1.5707886854754847 1.5329561233520508 0.0 0.059202589094638824 0.09641983360052109 -0.15512189269065857 0.0 -0.0 1 True False
356.984 4.6745805740356445 -1.5195581813207646 2.100168530141012 -2.151274343530172 -1.5708048979388636 1.5329039096832275 0.0 0.047617871314287186 0.07998089492321014 -0.13807453215122223 0.0 -0.0 1 True False
357.00399999999996 4.674553871154785 -1.5187276166728516 2.1016295591937464 -2.1535731754698695 -1.5707767645465296 1.5329692363739014 0.0 0.038005948066711426 0.06328942626714706 -0.09722045063972473 0.0 -0.0 1 True False
357.024 4.6745076179504395 -1.5180824559978028 2.1025894323932093 -2.15525021175527 -1.570784870778219 1.5329320430755615 0.0 0.026912594214081764 0.04157952964305878 -0.0752270370721817 0.0 -0.0 1 True False
357.044 4.674519062042236 -1.5176119108549138 2.103222672139303 -2.1563240490355433 -1.570784870778219 1.5329276323318481 0.0 0.01911909691989422 0.026876218616962433 -0.0441165566444397 0.0 -0.0 1 True False
357.06399999999996 4.674527645111084 -1.5174277250519772 2.103671375905172 -2.156898637811178 -1.5707925001727503 1.5329114198684692 0.0 0.003939888905733824 0.009945109486579895 -0.016068998724222183 0.0 -0.0 1 True False
357.084 4.674530982971191 -1.5174427454224606 2.1036341826068323 -2.1569305859007777 -1.570784870778219 1.532964825630188 0.0 -0.00027446268359199166 0.00026771481498144567 0.0017472647596150637 0.0 -0.0 1 True False
357.104 4.674584865570068 -1.517454733406641 2.103582207356588 -2.15689816097402 -1.5707767645465296 1.5329320430755615 0.0 -0.00015111392713151872 -0.0006429186323657632 0.0002900534018408507 0.0 -0.0 1 True False
357.12399999999997 4.67452335357666 -1.5174427789500733 2.1036046187030237 -2.156886240045065 -1.5707925001727503 1.5329320430755615 0.0 -9.285800309549577e-21 0.00017700452008284628 0.000160532261361368 0.0 -0.0 1 True False
357.144 4.6745524406433105 -1.5174221967211743 2.1035893599139612 -2.1569425068297328 -1.5707610289203089 1.5329244136810303 0.0 0.00011024569539586082 3.579979602363892e-05 -8.113788499031216e-05 0.0 -0.0 1 True False
357.164 4.67452335357666 -1.5174222153476258 2.103663746510641 -2.156971117059225 -1.5707772413836878 1.5328996181488037 0.0 0.00027245108503848314 7.303275197045878e-05 -8.649019582662731e-05 0.0 -0.0 1 True False
357.18399999999997 4.6745076179504395 -1.5174514588764687 2.1036551634417933 -2.1569224796690882 -1.5707967917071741 1.5329158306121826 0.0 0.00015737806097604334 5.194668483454734e-05 -0.0002603032917249948 0.0 -0.0 1 True False
357.204 4.674498558044434 -1.5174340990236779 2.1036461035357874 -2.1569625339903773 -1.5707610289203089 1.532948613166809 0.0 0.00023366574896499515 6.046764974598773e-05 -0.0006634814199060202 0.0 -0.0 1 True False
357.224 4.674549102783203 -1.5174677160433312 2.1036623159991663 -2.1569625339903773 -1.5708172957049769 1.5329407453536987 0.0 0.00043742801062762737 0.00011977372923865914 -0.0005164317553862929 0.0 -0.0 1 True False
357.24399999999997 4.6745686531066895 -1.5174015809646626 2.1036537329303187 -2.157015462914938 -1.570836369191305 1.5329363346099854 0.0 0.00030940808937884867 9.519695595372468e-05 -0.0014712896663695574 0.0 -0.0 1 True False
357.264 4.674556732177734 -1.517410272066929 2.1036461035357874 -2.1570102177061976 -1.5707810560809534 1.5329571962356567 0.0 0.0002054502401733771 0.0001098670982173644 -0.0014962379354983568 0.0 -0.0 1 True False
357.284 4.674490928649902 -1.5174110916307946 2.1036503950702112 -2.157042165795797 -1.570824925099508 1.5329450368881226 0.0 0.00017363065853714943 9.36513242777437e-05 -0.0007475272286683321 0.0 -0.0 1 True False
357.304 4.6744818687438965 -1.5174233515611668 2.1036794821368616 -2.1570545635619105 -1.5707886854754847 1.5328994989395142 0.0 0.0001613539207028225 0.00010865239892154932 -0.0003911916573997587 0.0 -0.0 1 True False
357.32399999999996 4.6745076179504395 -1.517393709426262 2.1036461035357874 -2.1570903263487757 -1.5707691351519983 1.5329561233520508 0.0 0.00014268135419115424 0.0001050282153300941 -0.0002415872149867937 0.0 -0.0 1 True False
357.344 4.674540042877197 -1.5174034249833603 2.1035760084735315 -2.157034536401266 -1.570784870778219 1.532976746559143 -5.766221787058972e-17 0.00014860337250865996 0.00010257246321998537 -0.00019955096649937332 0.0 -0.0 1 True False
357.364 4.674553394317627 -1.517390528028347 2.1036623159991663 -2.157070299188131 -1.5707929770099085 1.532952904701233 -4.5069144149775926e-37 0.0001468919072067365 0.00010081905929837376 -0.00015624040679540485 0.0 -0.0 1 True False
357.38399999999996 4.674544811248779 -1.5174146083048363 2.1036580244647425 -2.1570383510985316 -1.5708125273333948 1.5329244136810303 0.0 0.00011074247595388442 9.651722939452156e-05 -0.0001283791643800214 0.0 -0.0 1 True False
357.404 4.674544811248779 -1.517460176055767 2.1036089102374476 -2.1570502720274867 -1.5707410017596644 1.5329114198684692 0.0 8.887182775652036e-05 0.0001021596763166599 -8.189103391487151e-05 0.0 -0.0 1 True False
357.424 4.674499988555908 -1.5173786182752629 2.1036503950702112 -2.157058378259176 -1.5707967917071741 1.5329530239105225 0.0 8.9058063167613e-05 8.590719517087564e-05 -6.174310692586005e-05 0.0 -0.0 1 True False
357.44399999999996 4.674479007720947 -1.5173698936453839 2.1037076155291956 -2.1570621929564417 -1.5707967917071741 1.5329114198684692 0.0 7.645002187928185e-05 8.646894275443628e-05 -5.4293483117362484e-05 0.0 -0.0 1 True False
357.464 4.6745100021362305 -1.5173860986581822 2.1036370436297815 -2.157102247277731 -1.5708330313311976 1.5329355001449585 0.0 7.813049160176888e-05 7.603368430864066e-05 -6.535540819641028e-07 0.0 -0.0 1 True False
357.484 4.6745076179504395 -1.5173861172846337 2.1036747137652796 -2.156994482079977 -1.5707967917071741 1.5328952074050903 0.0 7.944036042317748e-05 1.7124203566254437e-07 -1.940461510821067e-14 0.0 -0.0 1 True False
357.50399999999996 4.6744866371154785 -1.517377508138754 2.103628460560934 -2.1570502720274867 -1.5707967917071741 1.5328909158706665 0.0 6.209106928662282e-25 7.471458229701966e-05 -5.76140333833714e-22 0.0 -0.0 1 True False
357.524 4.674519062042236 -1.5173410040191193 2.1036208311664026 -2.157074113885397 -1.570853058491842 1.532981038093567 0.0 4.203895392974451e-45 6.407591718016192e-05 -1.710612481237512e-29 0.0 -0.0 1 True False
357.544 4.674527645111084 -1.5173775193146248 2.1036818663226526 -2.157058378259176 -1.5708087126361292 1.532948613166809 0.0 0.0 5.608933133771643e-05 -5.078962115017704e-37 0.0 -0.0 1 True False
357.56399999999996 4.674490928649902 -1.5174023744514962 2.1036489645587366 -2.157030244866842 -1.5708006064044397 1.5329399108886719 0.0 0.0 4.987305146642029e-05 -1.5414283107572988e-44 0.0 -0.0 1 True False
357.584 4.674520969390869 -1.5173948568156739 2.1037238279925745 -2.157034536401266 -1.5708006064044397 1.5329406261444092 0.0 0.0 1.385489806590389e-16 -0.0 0.0 -0.0 1 True False
357.604 4.6745076179504395 -1.5174067591181775 2.103668514882223 -2.1570621929564417 -1.5708087126361292 1.5329276323318481 0.0 0.0 1.9510119319060984e-28 -0.0 0.0 -0.0 1 True False
357.62399999999997 4.674525260925293 -1.5174319085529824 2.1036747137652796 -2.157022615472311 -1.5707767645465296 1.532948613166809 0.0 0.0 2.747371756170593e-40 -0.0 0.0 -0.0 1 True False
357.644 4.674544811248779 -1.517362819319107 2.1036747137652796 -2.1571103535094203 -1.5707648436175745 1.5329276323318481 0.0 0.0 0.0 -0.0 0.0 -0.0 1 True False
357.664 4.674540042877197 -1.517393735503294 2.1036985556231897 -2.1570664844908656 -1.5708563963519495 1.5329245328903198 0.0 0.0 0.0 -4.232793227032516e-09 0.0 -0.0 1 True False
357.68399999999997 4.674556732177734 -1.5173862104168911 2.1036060492144983 -2.157042165795797 -1.5708807150470179 1.5329158306121826 0.0 2.245373707410181e-06 5.329526221926374e-14 -0.0005574703100137413 0.0 -0.0 1 True False
357.704 4.674466609954834 -1.5175352220288296 2.1035307089435022 -2.1571904621519984 -1.5708649794207972 1.532951831817627 0.0 -6.680727082652993e-09 -0.0001350892271148041 -0.00233047129586339 -9.188050320574348e-09 -0.00033444660948589444 1 True False
357.724 4.674495697021484 -1.5174297888628026 2.1035411993609827 -2.1571904621519984 -1.5707967917071741 1.5329614877700806 0.0 0.0006980951875448227 -9.678929879797238e-10 -0.00045959503040648997 0.00011325367813697085 -0.0002500909904483706 1 True False
357.74399999999997 4.6745076179504395 -1.5174460683814068 2.103508774434225 -2.1571785412230433 -1.570836369191305 1.5329233407974243 0.0 0.0008370827417820692 -1.3629624185788512e-21 -0.00024811970070004463 7.618124800501391e-05 -0.00017192657105624676 1 True False
357.764 4.674516201019287 -1.5174795661917706 2.1035502592669886 -2.1571418247618617 -1.5707767645465296 1.5329561233520508 0.0 0.00035715530975721776 0.0006264400435611606 -0.00016016222070902586 0.00010701111023081467 -0.00011633725807769224 1 True False
357.784 4.67452335357666 -1.517523867344 2.103553597127096 -2.1571866474547328 -1.570824925099508 1.5329071283340454 0.0 0.0007007535896264017 0.0017349153058603406 -0.00010772974928840995 8.250406244769692e-05 -8.79185099620372e-05 1 True True
357.804 4.67452335357666 -1.5174666915884991 2.1035459677325647 -2.1570779285826625 -1.5707967917071741 1.532829999923706 0.0 -0.007512138225138187 -0.009501263499259949 0.020484013482928276 9.585347288521007e-05 -7.065962563501671e-05 1 True True
357.82399999999996 4.67452335357666 -1.5175816652229805 2.1033337751971644 -2.156375070611471 -1.5707767645465296 1.5329071283340454 0.0 -0.013105291873216629 -0.018396813422441483 0.040275394916534424 0.00013055861927568913 -5.906554724788293e-05 1 True True
357.844 4.674527645111084 -1.517816649084427 2.102962319050924 -2.155156751672262 -1.5708168188678187 1.5329442024230957 -2.8252582123597725e-17 -0.020183775573968887 -0.03582507371902466 0.06362287700176239 0.00011598574928939342 -2.6725956558948383e-05 1 True True
357.864 4.674561023712158 -1.5184061762741585 2.101926628743307 -2.1536995373167933 -1.5708048979388636 1.532935619354248 -2.2082389876031916e-37 -0.040721334517002106 -0.062480490654706955 0.0883283019065857 0.0001475634635426104 -2.326920730411075e-05 1 True True
357.88399999999996 4.674511909484863 -1.5194400039366265 2.100368324910299 -2.1515828571715296 -1.57082444826235 1.5329082012176514 0.0 -0.05302704870700836 -0.08035385608673096 0.12349589169025421 0.00011111688945675269 -3.090686732321046e-05 1 True True
357.904 4.67453670501709 -1.52045542866502 2.0985954443561 -2.148604532281393 -1.5708048979388636 1.5329275131225586 0.0 -0.05749669298529625 -0.09726417809724808 0.1570790708065033 8.911010809242725e-05 -2.04802452774544e-10 1 True True
357.924 4.6745076179504395 -1.521757425074913 2.096470657979147 -2.1453377209105433 -1.5707610289203089 1.532936453819275 0.0 -0.07324715703725815 -0.11395934969186783 0.16959543526172638 7.437989552272484e-05 -6.080770532590123e-18 1 True True
357.94399999999996 4.67452335357666 -1.5233497594347973 2.0939343611346644 -2.141444345513815 -1.5707767645465296 1.5329487323760986 0.0 -0.08161021769046783 -0.12727993726730347 0.21158871054649353 6.382902938639745e-05 -1.8054353854192524e-25 1 True True
357.964 4.674561023712158 -1.5250917349806805 2.0912984053241175 -2.137036462823385 -1.5707724730121058 1.5329740047454834 0.0 -0.08912400156259537 -0.14457948505878448 0.23331212997436523 5.5899789003888145e-05 -5.3605014609052883e-33 1 True True
357.984 4.674544811248779 -1.5270044182292004 2.0881980101214808 -2.131993909875387 -1.570768181477682 1.532903790473938 0.0 -0.10301784425973892 -0.159043550491333 0.25621962547302246 3.2327548979083076e-05 -1.591580782795484e-40 1 True True
358.00399999999996 4.674502849578857 -1.5291420456818123 2.084738079701559 -2.1264072857298792 -1.570772949849264 1.532936453819275 0.0 -0.11037833988666534 -0.1886364072561264 0.29718950390815735 9.598338833807785e-13 -0.0 1 True True
358.024 4.674516201019287 -1.5314956542900582 2.080982033406393 -2.1204058132567347 -1.570756737385885 1.5329605340957642 0.0 -0.12040998786687851 -0.19297637045383453 0.32795923948287964 2.849833342523235e-20 -0.0 1 True True
358.044 4.6745686531066895 -1.5340553794852276 2.0769336859332483 -2.1136018238463343 -1.5707805792437952 1.532891869544983 0.0 -0.13182947039604187 -0.21420936286449432 0.3597671091556549 8.461411432549992e-28 -0.0 1 True True
358.06399999999996 4.674498558044434 -1.5368639093688508 2.0724290052997034 -2.1063362560667933 -1.5707891623126429 1.5329352617263794 0.0 -0.14225022494792938 -0.230462446808815 0.3817678391933441 2.5122693390394627e-35 -0.0 1 True True
358.084 4.67452335357666 -1.5398581095835944 2.0675609747516077 -2.098602911035055 -1.5708211104022425 1.5329201221466064 0.0 -0.15469254553318024 -0.25185686349868774 0.40242189168930054 7.454907830208027e-43 -0.0 1 True True
358.104 4.6744866371154785 -1.5431291733733197 2.062359635029928 -2.0901719532408656 -1.5707843939410608 1.5329320430755615 0.0 -0.1694471836090088 -0.26873406767845154 0.42515191435813904 0.0 -0.0 1 True True
358.12399999999997 4.6744914054870605 -1.5464982458255072 2.056950394307272 -2.0812484226622523 -1.570813004170553 1.5329275131225586 0.0 -0.1765785813331604 -0.28332042694091797 0.4490697979927063 0.0 -0.0 1 True True
358.144 4.6744914054870605 -1.5501691096327086 2.051142994557516 -2.0719129047789515 -1.5707925001727503 1.5329201221466064 0.0 -0.18976284563541412 -0.2991669774055481 0.4857730269432068 0.0 -0.0 1 True True
358.164 4.674540042877197 -1.5540097293308754 2.044952694569723 -2.061716695825094 -1.570784870778219 1.5329111814498901 0.0 -0.20231397449970245 -0.3141196668148041 0.5079202055931091 0.0 -0.0 1 True True
358.18399999999997 4.674551963806152 -1.5581007965705176 2.0385292212115687 -2.051136156121725 -1.570784870778219 1.532915711402893 0.0 -0.2083580642938614 -0.32461056113243103 0.5508682131767273 0.0 -0.0 1 True True
358.204 4.67452335357666 -1.5624015427059312 2.0315235296832483 -2.039924284020895 -1.5708211104022425 1.53296959400177 0.0 -0.21968509256839752 -0.34917405247688293 0.5603170394897461 0.0 -0.0 1 True True
358.224 4.6744914054870605 -1.5668803777410467 2.024318520222799 -2.0283223591246546 -1.570784870778219 1.5329201221466064 0.0 -0.22683601081371307 -0.36213284730911255 0.5983446836471558 0.0 -0.0 1 True True
358.24399999999997 4.674531936645508 -1.5714084110655726 2.0170772711383265 -2.0164548359312953 -1.5707648436175745 1.5329275131225586 0.0 -0.22354590892791748 -0.35470011830329895 0.5830217599868774 4.2691463697508425e-09 -0.0 1 True True
358.264 4.6745076179504395 -1.5757490597166957 2.0102179686175745 -2.0050565205016078 -1.5707772413836878 1.5329082012176514 0.0 -0.2103220522403717 -0.33693015575408936 0.5480185747146606 1.267547880223516e-16 -0.0 1 True True
358.284 4.67451810836792 -1.5798117123045863 2.003437344227926 -1.9943372211852015 -1.5707925001727503 1.5329082012176514 0.0 -0.20646750926971436 -0.3206123411655426 0.524142861366272 3.763464080039931e-24 -0.0 1 True True
358.304 4.6745076179504395 -1.5838920078673304 1.9971140066729944 -1.9840980968871058 -1.5707324186908167 1.532936453819275 0.0 -0.19425979256629944 -0.3024041950702667 0.5027414560317993 1.1174064746303586e-31 -0.0 1 True True
358.32399999999996 4.674584865570068 -1.587588449517721 1.9912565390216272 -1.9744402370848597 -1.5707805792437952 1.532915711402893 0.0 -0.17778345942497253 -0.2860332131385803 0.4762301743030548 3.317680612972293e-39 -0.0 1 True True
358.344 4.6745476722717285 -1.5910583935179652 1.9857085386859339 -1.9652759037413539 -1.5707686583148401 1.5329201221466064 0.0 -0.167619988322258 -0.27733638882637024 0.4406653344631195 0.0 -0.0 1 True True
358.364 4.674544334411621 -1.5943762264647425 1.9804866949664515 -1.9568191967406214 -1.5707686583148401 1.5329651832580566 0.0 -0.15777024626731873 -0.25546956062316895 0.41318875551223755 0.0 -0.0 1 True True
358.38399999999996 4.674551963806152 -1.597417493859762 1.9754040876971644 -1.9488636455931605 -1.5708048979388636 1.5329082012176514 0.0 -0.14492014050483704 -0.23562295734882355 0.3852711021900177 0.0 -0.0 1 True True
358.404 4.674527645111084 -1.6002379856505335 1.9707682768451136 -1.9413711033263148 -1.5707891623126429 1.532915711402893 0.0 -0.13443240523338318 -0.21853326261043549 0.3693159818649292 0.0 -0.0 1 True True
358.424 4.674471378326416 -1.6029297314085902 1.9665821234332483 -1.9344126186766566 -1.570801083241598 1.5329561233520508 0.0 -0.12541501224040985 -0.20305393636226654 0.3387177586555481 0.0 -0.0 1 True True
358.44399999999996 4.674540042877197 -1.6052490673460902 1.9628012816058558 -1.9281298122801722 -1.5707724730121058 1.5329365730285645 0.0 -0.11449523270130157 -0.18101486563682556 0.3109256327152252 0.0 -0.0 1 True True
358.464 4.674499988555908 -1.6075464687743128 1.9592769781695765 -1.922375341454977 -1.5708335081683558 1.53288733959198 0.0 -0.10698115825653076 -0.16869179904460907 0.2775070071220398 0.0 -0.0 1 True True
358.484 4.674514293670654 -1.609507223168844 1.9560912291156214 -1.9172545872130335 -1.5707891623126429 1.5329487323760986 0.0 -0.09880462288856506 -0.14586754143238068 0.23987892270088196 0.0 -0.0 1 True True
358.50399999999996 4.674540042877197 -1.611281534234518 1.9531844297992151 -1.912516256371969 -1.5708168188678187 1.5329231023788452 0.0 -0.08521758019924164 -0.13957244157791138 0.22262531518936157 0.0 -0.0 1 True True
358.524 4.674540042877197 -1.612828870812887 1.950702969227926 -1.9085656605162562 -1.5707648436175745 1.5329487323760986 0.0 -0.07660313695669174 -0.1195872351527214 0.19682233035564423 0.0 -0.0 1 True True
358.544 4.674519062042236 -1.6142307720580042 1.948615852986471 -1.9050008259215296 -1.5708168188678187 1.532965064048767 0.0 -0.06557726114988327 -0.09896929562091827 0.15828372538089752 0.0 -0.0 1 True True
358.56399999999996 4.674556255340576 -1.6153489551939906 1.9466946760760706 -1.9020759067931117 -1.5707891623126429 1.5329275131225586 0.0 -0.05008683726191521 -0.08639516681432724 0.13552294671535492 0.0 -0.0 1 True True
358.584 4.674556255340576 -1.6162649593748988 1.9451563994037073 -1.899529596368307 -1.570796314870016 1.532974123954773 0.0 -0.04246482625603676 -0.0674409419298172 0.10962312668561935 0.0 -0.0 1 True True
358.604 4.674561023712158 -1.6169754467406214 1.9440115133868616 -1.8978139362730921 -1.5707891623126429 1.5329110622406006 0.0 -0.02996060810983181 -0.05152580514550209 0.07750511914491653 0.0 -0.0 1 True True
358.62399999999997 4.6744794845581055 -1.6175033054747523 1.9432080427752894 -1.8965565166869105 -1.5707967917071741 1.5329110622406006 0.0 -0.020765800029039383 -0.03003559447824955 0.053152017295360565 0.0 -0.0 1 True True
358.644 4.674520492553711 -1.6178304157652796 1.9428113142596644 -1.89577116588735 -1.5707767645465296 1.5329110622406006 0.0 -0.008952336385846138 -0.01332374382764101 0.026225904002785683 0.0 -0.0 1 True True
358.664 4.674498558044434 -1.6177693806090296 1.9427512327777308 -1.8956672153868617 -1.5708091894732874 1.5329065322875977 -3.7088598219270352e-06 0.004454801790416241 0.0024562361650168896 -0.013999643735587597 0.0 -0.0 1 True True
358.68399999999997 4.674139022827148 -1.617699762383932 1.9426630179034632 -1.8955513439574183 -1.5708368460284632 1.5329487323760986 -0.03471124917268753 0.013305223546922207 -0.01599034294486046 0.0014251635875552893 0.0 -0.0 1 True True
358.704 4.673173427581787 -1.617333551446432 1.9422333876239222 -1.895538946191305 -1.5707805792437952 1.5329185724258423 -0.06000097095966339 0.015784159302711487 -0.028370946645736694 0.004697097931057215 0.0 -0.0 1 True True
358.724 4.6717729568481445 -1.6170064411559046 1.9415367285357874 -1.895379205743307 -1.5707772413836878 1.532981514930725 -0.0856824740767479 0.024055322632193565 -0.03397546336054802 0.010728344321250916 0.0 -3.714205592392217e-12 1 True True
358.74399999999997 4.669622898101807 -1.6163574657835902 1.9407737890826624 -1.8951317272581996 -1.570784870778219 1.5329442024230957 -0.11902464181184769 0.03587353974580765 -0.04412582144141197 0.0101816700771451 0.0 -1.1027811660313283e-19 1 True True
358.764 4.666922569274902 -1.6156231365599574 1.9397724310504358 -1.8949161968626917 -1.5707610289203089 1.5329517126083374 -0.14358046650886536 0.04521043226122856 -0.056937918066978455 0.009573906660079956 0.0 0.0006357152597047389 1 True True
358.784 4.663843154907227 -1.6146756611266078 1.9384625593768519 -1.8947650394835414 -1.5707686583148401 1.532958984375 -0.17115534842014313 0.05562353506684303 -0.07023821771144867 0.010757319629192352 -1.1159098818602775e-11 0.0012623862130567431 1 True True
358.804 4.660086154937744 -1.6134549580016078 1.937126938496725 -1.8945170841612757 -1.5707767645465296 1.533032774925232 -0.2048993557691574 0.0657123252749443 -0.07538894563913345 0.013937817886471748 -0.00014312483835965395 0.0025970644783228636 1 True True
358.82399999999996 4.655774116516113 -1.6121407947936 1.9355605284320276 -1.8941737614073695 -1.5707529226886194 1.5330519676208496 -0.2286800593137741 0.0718177780508995 -0.08100604265928268 0.01372881792485714 -9.971204417524859e-05 0.0020225013140589 1 True True
358.844 4.6509108543396 -1.6106416187682093 1.9337824026690882 -1.8938905201353968 -1.570784870778219 1.5330758094787598 -0.2545276880264282 0.0803658589720726 -0.1019817367196083 0.014195107854902744 -7.281287980731577e-05 0.002505916403606534 1 True True
358.864 4.645379066467285 -1.6088844738402308 1.9315460363971155 -1.893583437005514 -1.5707209745990198 1.5331147909164429 -0.2820204794406891 0.08867158740758896 -0.1089506447315216 0.017220716923475266 -5.734531077905558e-05 0.002430211054161191 1 True True
358.88399999999996 4.639463901519775 -1.607018610040182 1.929249111806051 -1.8932043514647425 -1.570829216633932 1.5331536531448364 -0.3073486387729645 0.09794186800718307 -0.1162482351064682 0.021446924656629562 -0.0004060040519107133 0.002900485647842288 1 True True
358.904 4.632978916168213 -1.604962011376852 1.926934067402975 -1.8926416836180628 -1.5707925001727503 1.5332359075546265 -0.3366774618625641 0.10578066855669022 -0.12605516612529755 0.027685582637786865 8.898983772098745e-09 0.0026767735835164785 1 True True
358.924 4.625959873199463 -1.6027857265868128 1.9241717497455042 -1.8922182522215785 -1.570824925099508 1.5333244800567627 -0.37210872769355774 0.11406996101140976 -0.14492762088775635 0.01970912516117096 2.6421882535507615e-16 0.002996164606884122 1 True True
358.94399999999996 4.618258476257324 -1.600450178185934 1.9211795965777796 -1.8917151890196742 -1.570813004170553 1.5333466529846191 -0.39941471815109253 0.12349312752485275 -0.14935888350009918 0.0308868195861578 7.844895114008201e-24 0.003414168721064925 1 True True
358.964 4.609908580780029 -1.5978199444212855 1.9181416670428675 -1.8910604916014613 -1.5708254019366663 1.533431887626648 -0.42353999614715576 0.1331266462802887 -0.1585196703672409 0.03174421563744545 2.329219486662827e-31 0.0031681049149483442 1 True True
358.984 4.6012701988220215 -1.5951715908446253 1.9148457686053675 -1.8904296360411585 -1.5708087126361292 1.533492088317871 -0.44929662346839905 0.13737384974956512 -0.1614227294921875 0.028354503214359283 6.91566295776348e-39 0.0036239081528037786 1 True True
359.00399999999996 4.591988563537598 -1.5923291645445765 1.9112022558795374 -1.8898025951781214 -1.5707605520831507 1.5335220098495483 -0.4810835123062134 0.14567260444164276 -0.18374449014663696 0.03321380540728569 0.0 0.00398218771442771 1 True True
359.024 4.581897258758545 -1.5891896686949671 1.9073918501483362 -1.8891807995238246 -1.5707925001727503 1.5336265563964844 -0.507594108581543 0.15408112108707428 -0.18218159675598145 0.03535982593894005 0.0 0.003775040153414011 1 True True
359.044 4.5715227127075195 -1.5860134563841761 1.9035661856280726 -1.8883658848204554 -1.5708168188678187 1.5337224006652832 -0.5312751531600952 0.1648932695388794 -0.20265139639377594 0.04298197850584984 -0.0003614430024754256 0.004074480850249529 1 True True
359.06399999999996 4.560739040374756 -1.5826546154417933 1.8994162718402308 -1.8875919781126917 -1.5707486311541956 1.5337777137756348 -0.5637641549110413 0.17182429134845734 -0.2098577916622162 0.0391831248998642 -1.6665204327637184e-08 0.004444198217242956 1 True True
359.084 4.548978328704834 -1.5791036091246546 1.8950908819781702 -1.8866836033263148 -1.5707805792437952 1.533922791481018 -0.5911826491355896 0.1821272373199463 -0.22719721496105194 0.03693370521068573 -4.948050428691178e-16 0.005570787470787764 1 True True
359.104 4.536829948425293 -1.5753075085081996 1.8905108610736292 -1.885958810845846 -1.5708325544940394 1.5339604616165161 -0.6143626570701599 0.19140110909938812 -0.24135227501392365 0.045597948133945465 -1.4691207495698763e-23 0.004031929187476635 1 True True
359.12399999999997 4.524394512176514 -1.5714947185912074 1.8857343832599085 -1.885099550286764 -1.570732895527975 1.5340652465820312 -0.6477286219596863 0.20086485147476196 -0.2425340712070465 0.04033404216170311 0.0003476609126664698 0.004281003959476948 1 True True
359.144 4.510909557342529 -1.5672311056735744 1.8805745283709925 -1.8841387234129847 -1.5708616415606897 1.5341981649398804 -0.6800191402435303 0.20857739448547363 -0.25369977951049805 0.04506344720721245 -0.002243383089080453 0.0059323725290596485 1 True True
359.164 4.497308731079102 -1.562966145840921 1.8752191702472132 -1.8832079372801722 -1.5708654562579554 1.534285068511963 -0.7017709612846375 0.21064473688602448 -0.2681155204772949 0.05361336097121239 -0.0003507430083118379 0.005497632548213005 1 True True
359.18399999999997 4.482961654663086 -1.5585881213522335 1.8699024359332483 -1.882153650323385 -1.5707734266864222 1.5343644618988037 -0.7318903803825378 0.2260739952325821 -0.2789241373538971 0.05318908765912056 0.0006061915191821754 0.005236711353063583 1 True True
359.204 4.467824459075928 -1.553934322004654 1.8642900625811976 -1.8811851940550746 -1.570820156727926 1.5345637798309326 -0.7618997693061829 0.2361690253019333 -0.2913014590740204 0.05312548205256462 -0.002009640447795391 0.006381263956427574 1 True True
359.224 4.452600955963135 -1.5492814288339396 1.8584502379046839 -1.8799196682372035 -1.570704762135641 1.534623384475708 -0.7790278792381287 0.23990614712238312 -0.29439812898635864 0.054815586656332016 0.0019605953712016344 0.005943466909229755 1 True True
359.24399999999997 4.436410427093506 -1.5443075870028515 1.8522923628436487 -1.8789383373656214 -1.5708449522601526 1.5347312688827515 -0.8195466995239258 0.25956007838249207 -0.30298420786857605 0.05056225508451462 -0.0019494958687573671 0.0054673971608281136 1 True True
359.264 4.4198455810546875 -1.5391632069698353 1.8459017912494105 -1.877819677392477 -1.570801083241598 1.5349019765853882 -0.8383601903915405 0.2628035247325897 -0.31833428144454956 0.06427211314439774 -6.118773399066413e-07 0.007235154043883085 1 True True
359.284 4.402832508087158 -1.5337994445911427 1.8395589033709925 -1.8765465221800746 -1.570813004170553 1.534982442855835 -0.8752370476722717 0.2714039981365204 -0.3286994397640228 0.06270106136798859 -1.816718806369865e-14 0.006689300760626793 1 True True
359.304 4.384981155395508 -1.5281908337822934 1.8329771200763147 -1.875312944451803 -1.5707967917071741 1.535111427307129 -0.8957327008247375 0.2748876214027405 -0.34262970089912415 0.062429286539554596 0.0002930237678810954 0.008099379949271679 1 True True
359.32399999999996 4.366806507110596 -1.5226521801999588 1.8259747664081019 -1.8740087948241175 -1.5708449522601526 1.5352787971496582 -0.9300471544265747 0.28088831901550293 -0.35339030623435974 0.07529648393392563 1.3190322079026373e-07 0.00757707329466939 1 True True
359.344 4.34799337387085 -1.5168681603721161 1.8187554518329065 -1.8725940189757289 -1.5707891623126429 1.5354228019714355 -0.9525078535079956 0.29699549078941345 -0.36299145221710205 0.06483320891857147 3.9163262883319325e-15 0.00824736338108778 1 True True
359.364 4.328548908233643 -1.510992870931961 1.8112919966327112 -1.8713771305479945 -1.5707772413836878 1.5355737209320068 -0.980368971824646 0.301113098859787 -0.37036094069480896 0.06626258790493011 -0.0002497063542250544 0.006591432262212038 1 True True
359.38399999999996 4.308631420135498 -1.5047300916961213 1.8037598768817347 -1.8700338802733363 -1.5708254019366663 1.5357714891433716 -1.0126184225082397 0.31287479400634766 -0.37459516525268555 0.07698610424995422 -0.0001589553285157308 0.007888520136475563 1 True True
359.404 4.288151741027832 -1.4983889696053048 1.7962101141559046 -1.8685671291747035 -1.5707767645465296 1.5358777046203613 -1.0345669984817505 0.3217383027076721 -0.38404580950737 0.0715487077832222 5.3603773267241195e-05 0.007968753576278687 1 True True
359.424 4.2671685218811035 -1.4918649804643174 1.7883179823504847 -1.866984029809469 -1.5707686583148401 1.5360081195831299 -1.0433000326156616 0.32050544023513794 -0.3910166025161743 0.07802814990282059 8.287748820556828e-10 0.007430588360875845 1 True True
359.44399999999996 4.246349811553955 -1.4855549347451706 1.7801693121539515 -1.8655725918211878 -1.5708168188678187 1.5362427234649658 -1.0460680723190308 0.32187366485595703 -0.4047026038169861 0.06401894241571426 2.4607068123900974e-17 0.008446193300187588 1 True True
359.464 4.225380897521973 -1.4791887190989037 1.772238556538717 -1.8642612896361292 -1.5707686583148401 1.5363609790802002 -1.0447531938552856 0.32676512002944946 -0.3981589376926422 0.06995373219251633 7.3060589395315575e-25 0.00796410720795393 1 True True
359.484 4.204370498657227 -1.4724767294577141 1.7644355932818812 -1.862643381158346 -1.5707686583148401 1.5365710258483887 -1.0473411083221436 0.3247460722923279 -0.39786815643310547 0.07579521834850311 -3.010363070643507e-05 0.007339870557188988 1 True True
359.50399999999996 4.183522701263428 -1.465915398006775 1.7565587202655237 -1.861152788201803 -1.5708368460284632 1.536663293838501 -1.0467897653579712 0.3236205577850342 -0.39686426520347595 0.0774342492222786 -8.938038026720663e-13 0.008365047164261341 1 True True
359.524 4.162496089935303 -1.459565245812275 1.748465363179342 -1.8597289524474085 -1.570813004170553 1.5368400812149048 -1.0439739227294922 0.31686240434646606 -0.39776837825775146 0.0767735093832016 0.0001215420343214646 0.009274457581341267 1 True True
359.544 4.141570091247559 -1.4532687079957505 1.7404988447772425 -1.8581983051695765 -1.5707486311541956 1.5369716882705688 -1.0439479351043701 0.322346031665802 -0.39284953474998474 0.07425369322299957 6.51591003375529e-09 0.007781755179166794 1 True True
359.56399999999996 4.12071418762207 -1.446683169608452 1.7327163855182093 -1.8568226299681605 -1.570801083241598 1.5371676683425903 -1.0511581897735596 0.32844477891921997 -0.39255961775779724 0.07554924488067627 1.9346327806494786e-16 0.008559628389775753 1 True True
359.584 4.099626064300537 -1.4400585454753418 1.7247565428363245 -1.8553954563536585 -1.5707767645465296 1.5372320413589478 -1.045886516571045 0.3248358964920044 -0.40112993121147156 0.06359181553125381 5.7440997532672075e-24 0.008222872391343117 1 True True
359.604 4.078719615936279 -1.4336200815490265 1.716764275227682 -1.8539005718626917 -1.5707772413836878 1.5374881029129028 -1.0450382232666016 0.3181258738040924 -0.40260177850723267 0.07516740262508392 1.705474912647582e-31 0.007808892987668514 1 True True
359.62399999999997 4.057905197143555 -1.4272283923676987 1.7088525930987757 -1.8523060284056605 -1.570857350026266 1.537635087966919 -1.0501402616500854 0.3204267621040344 -0.3985399305820465 0.08035087585449219 5.06370970990873e-39 0.00774301728233695 1 True True
359.644 4.036843776702881 -1.4207120102695008 1.7010062376605433 -1.8509756527342738 -1.570801083241598 1.5378472805023193 -1.0462552309036255 0.32523229718208313 -0.3986315131187439 0.0702352523803711 0.0005443174159154296 0.00823153555393219 1 True True
359.664 4.0159077644348145 -1.4143069845489045 1.692923370991842 -1.8494326076903285 -1.570784870778219 1.5379700660705566 -1.04535710811615 0.3263759911060333 -0.3920765519142151 0.07893767952919006 -9.706285345600918e-05 0.007774245459586382 1 True True
359.68399999999997 3.9950077533721924 -1.4077075880816956 1.6847851912127894 -1.8481484852232875 -1.5707686583148401 1.5381300449371338 -1.0503498315811157 0.32314902544021606 -0.39456555247306824 0.07493360340595245 -2.8818837507355033e-12 0.008508868515491486 1 True True
359.704 3.9739320278167725 -1.4012242269567032 1.6770084539996546 -1.8465095959105433 -1.5707605520831507 1.5382767915725708 -1.0429131984710693 0.3242150843143463 -0.3937043249607086 0.07836351543664932 -8.556571452454753e-20 0.007750492077320814 1 True True
359.724 3.9531641006469727 -1.39484295368705 1.6692917982684534 -1.8448840580382289 -1.5707605520831507 1.5383998155593872 -1.042448878288269 0.32100406289100647 -0.3976750075817108 0.06929730623960495 -2.5405230785903686e-27 0.007344729732722044 1 True True
359.74399999999997 3.932211399078369 -1.388383002286293 1.6611698309527796 -1.8436557255186976 -1.5707925001727503 1.5386000871658325 -1.0516154766082764 0.3245590925216675 -0.4048977792263031 0.06184935197234154 -7.54304336032159e-35 0.008043408393859863 1 True True
359.764 3.911095142364502 -1.3819612872651597 1.6529987494098108 -1.8422728977599085 -1.5708335081683558 1.5387810468673706 -1.0465784072875977 0.32372698187828064 -0.40135565400123596 0.07466687262058258 -1.062826493480884e-10 0.008663150481879711 1 True True
359.784 3.8902719020843506 -1.3753385853818436 1.6452820936786097 -1.840625902215475 -1.570813004170553 1.5389204025268555 -1.0444048643112183 0.32633283734321594 -0.3901967704296112 0.08113042265176773 -3.155627242055337e-18 0.007933382876217365 1 True True
359.804 3.8693745136260986 -1.3688498598388215 1.6375024954425257 -1.839083810845846 -1.5708254019366663 1.5390969514846802 -1.0520415306091309 0.3224572241306305 -0.3847765028476715 0.07974307984113693 -9.369342263247965e-26 0.007767268922179937 1 True True
359.82399999999996 3.84829044342041 -1.3623590928367157 1.6293352285968226 -1.8377090893187464 -1.5708168188678187 1.5392110347747803 -1.0443845987319946 0.3209797739982605 -0.3984081447124481 0.06257409602403641 -2.7818424623804757e-33 0.009531917981803417 1 True True
359.844 3.827454090118408 -1.3561624598554154 1.6213167349444788 -1.8364001713194789 -1.5708335081683558 1.539366364479065 -1.043841004371643 0.32527610659599304 -0.40039151906967163 0.07531368732452393 -8.259533408423337e-41 0.007696132641285658 1 True True
359.864 3.806504964828491 -1.3495226961425324 1.6135223547564905 -1.8348266086974085 -1.5707767645465296 1.5395832061767578 -1.0512323379516602 0.3277682662010193 -0.3988073468208313 0.07116487622261047 -0.0 0.008524449542164803 1 True True
359.88399999999996 3.7855324745178223 -1.3428339970162888 1.6058381239520472 -1.8333751163878382 -1.570801083241598 1.5396984815597534 -1.043243169784546 0.32311010360717773 -0.39459994435310364 0.07558219879865646 -0.0 0.009607172571122646 1 True True
359.904 3.7646117210388184 -1.3363695007613678 1.5977166334735315 -1.8317810497679652 -1.5708168188678187 1.539878010749817 -1.0457910299301147 0.31706473231315613 -0.40269935131073 0.08017747104167938 -0.0 0.008016184903681278 1 True True
359.924 3.7436347007751465 -1.330129013662674 1.5896151701556605 -1.830501218835348 -1.570824925099508 1.5400577783584595 -1.0500705242156982 0.3207499086856842 -0.40013065934181213 0.07025415450334549 -0.0 0.008334592916071415 1 True True
359.94399999999996 3.722693920135498 -1.3237610471299668 1.581700627003805 -1.8290578327574671 -1.5708087126361292 1.540204644203186 -1.0464330911636353 0.32794666290283203 -0.3873422145843506 0.0777888223528862 -0.0 0.007391729392111301 1 True True
359.964 3.7017722129821777 -1.31711898863826 1.5739825407611292 -1.8274957142271937 -1.5707972685443323 1.5403320789337158 -1.0435303449630737 0.3293595016002655 -0.3911703824996948 0.0706019178032875 -0.0 0.008434501476585865 1 True True
359.984 3.680842399597168 -1.310486302976944 1.5659521261798304 -1.8260394535460414 -1.5707805792437952 1.5405038595199585 -1.0517430305480957 0.3213154375553131 -0.4017728269100189 0.07110822945833206 -0.0 0.008107427507638931 1 True True
360.00399999999996 3.659846067428589 -1.3041355174830933 1.5578587690936487 -1.824625154534811 -1.5708168188678187 1.5406551361083984 -1.0461169481277466 0.3178492486476898 -0.4043556749820709 0.06980142742395401 -0.0 0.008358479477465153 1 True True
360.024 3.638918161392212 -1.2977961164763947 1.5499823729144495 -1.8231455288329066 -1.570801083241598 1.5407869815826416 -1.0433168411254883 0.32242894172668457 -0.39774957299232483 0.0696321651339531 -0.0 0.0081317238509655 1 True True
360.044 3.618008852005005 -1.2912999552539368 1.5421655813800257 -1.821582933465475 -1.5707843939410608 1.540963053703308 -1.0531690120697021 0.3269931972026825 -0.39532750844955444 0.08112137764692307 -0.0 0.008829829283058643 1 True True
360.06399999999996 3.597104072570801 -1.2846988302520295 1.5340994040118616 -1.820259233514303 -1.5707767645465296 1.5411550998687744 -1.0466365814208984 0.3287297189235687 -0.3937218487262726 0.0737231895327568 -0.0 0.00801207683980465 1 True True
360.084 3.576080322265625 -1.2782157224467774 1.526135269795553 -1.8187328777708949 -1.5708087126361292 1.541334629058838 -1.0453696250915527 0.32036155462265015 -0.39416295289993286 0.08604033291339874 -0.0 0.007145251147449017 1 True True
360.104 3.5551223754882812 -1.2718235415271302 1.5183594862567347 -1.8171669445433558 -1.5707648436175745 1.541457176208496 -1.049047589302063 0.3232289254665375 -0.39167875051498413 0.06691048294305801 -0.0 0.0075749680399894714 1 True True
360.12399999999997 3.534230947494507 -1.2653207641891022 1.5104058424579065 -1.81581511119985 -1.570784870778219 1.5416579246520996 -1.0450267791748047 0.32294362783432007 -0.40000107884407043 0.06613572686910629 -0.0 0.008691761642694473 1 True True
360.144 3.5133004188537598 -1.258891986017563 1.5022872130023401 -1.8143555126585902 -1.570829216633932 1.541761040687561 -1.0457342863082886 0.3223472833633423 -0.4055068790912628 0.07014544308185577 -0.0 0.007909034378826618 1 True True
360.164 3.4925200939178467 -1.2524243754199524 1.4944122473346155 -1.8130246601500453 -1.5708525816546839 1.5419331789016724 -1.0291399955749512 0.31702446937561035 -0.39349260926246643 0.07113748788833618 -0.0 0.008694030344486237 1 True True
360.18399999999997 3.472280979156494 -1.246054695253708 1.4869115988360804 -1.811350008050436 -1.5708406607257288 1.5420724153518677 -0.9954283833503723 0.31059086322784424 -0.3735314905643463 0.08201850950717926 -3.765154588108999e-08 0.007784986402839422 1 True True
360.204 3.452658176422119 -1.2399664682200928 1.4795416037188929 -1.809850355187887 -1.5708211104022425 1.5421985387802124 -0.96732497215271 0.2973230481147766 -0.36262840032577515 0.0669441968202591 -1.11790847219295e-15 0.007250668480992317 1 True True
360.224 3.4334020614624023 -1.2341471475413819 1.472088638936178 -1.8088060818114222 -1.5708044211017054 1.5423476696014404 -0.9487398266792297 0.28759336471557617 -0.3598169684410095 0.0639011338353157 -3.319171701762668e-23 0.008062280714511871 1 True True
360.24399999999997 3.4149153232574463 -1.2286163729480286 1.4649322668658655 -1.8075343571104945 -1.5708368460284632 1.5425318479537964 -0.9116154909133911 0.28269854187965393 -0.3420660197734833 0.07109733670949936 9.868690540315583e-05 0.007524767890572548 1 True True
360.264 3.3969244956970215 -1.2229171258262177 1.4582379500018519 -1.8061744175352992 -1.5708254019366663 1.5426428318023682 -0.8877959251403809 0.28232839703559875 -0.3260124623775482 0.06274552643299103 6.637232581852004e-05 0.006500984076410532 1 True True
360.284 3.3794496059417725 -1.2173040074161072 1.4518702665912073 -1.8048511944212855 -1.5708211104022425 1.542769193649292 -0.8607926368713379 0.26666325330734253 -0.32064518332481384 0.06645412743091583 0.0002525184827391058 0.007582106627523899 1 True True
360.304 3.3624987602233887 -1.2121243637851258 1.4453862349139612 -1.8036190472044886 -1.5708168188678187 1.5429182052612305 -0.8302391767501831 0.2520589232444763 -0.318475604057312 0.05622394010424614 0.00014913605991750956 0.006386010907590389 1 True True
360.32399999999996 3.3462729454040527 -1.2072051924518128 1.4389227072345179 -1.802610536614889 -1.5707724730121058 1.5430532693862915 -0.8023963570594788 0.24452731013298035 -0.31026482582092285 0.05229943245649338 0.00018684705719351768 0.004826399497687817 1 True True
360.344 3.3305039405822754 -1.2024876934340973 1.432944122944967 -1.8016625843443812 -1.5708168188678187 1.5431947708129883 -0.7767313718795776 0.24199339747428894 -0.2983519732952118 0.06352923810482025 0.0001518141943961382 0.00548950582742691 1 True True
360.364 3.3152172565460205 -1.1977055829814454 1.4273970762835901 -1.800333639184469 -1.5708168188678187 1.5433056354522705 -0.7492758631706238 0.2367958277463913 -0.2810356616973877 0.052222128957509995 9.226109250448644e-05 0.005722368136048317 1 True True
