Andreas691667/Digital_Twin_UR/data_analysis/test_results/case2_noblocks.csv
timestamp actual_q_0 actual_q_1 actual_q_2 actual_q_3 actual_q_4 actual_q_5 actual_qd_0 actual_qd_1 actual_qd_2 actual_qd_3 actual_qd_4 actual_qd_5 safety_status output_bit_register_65 output_bit_register_66
3524.68 3.712062358856201 -0.8255039018443604 0.8429473082171839 -1.5882731876769007 -1.5707719961749476 2.141263246536255 0.0 0.0 0.0 -0.0 -0.0 -0.0 1 False False
3524.7 3.7121026515960693 -0.8255039614490052 0.8429515997516077 -1.5883575878539027 -1.5708048979388636 2.141263246536255 0.0 0.0 0.0 -0.0 -0.0 -0.0 1 False False
3524.72 3.7120697498321533 -0.8254914444736023 0.8429845015155237 -1.5882774792113246 -1.5708215872394007 2.14127516746521 0.0 0.0 0.0 -0.0 -0.0 -0.0 1 False False
3524.74 3.7120907306671143 -0.825434998875 0.842987362538473 -1.5883013210692347 -1.570801083241598 2.141279697418213 0.0 0.0 0.0 -0.0 -0.0 -0.0 1 False False
3524.7599999999998 3.7120742797851562 -0.825488345032074 0.8430007139789026 -1.5882889233031214 -1.570813004170553 2.141287088394165 0.0 0.0 0.0 -0.0 -0.0 -0.0 1 False False
3524.7799999999997 3.7120532989501953 -0.8254333299449463 0.8429845015155237 -1.5883094273009242 -1.5707605520831507 2.141279697418213 0.0 0.0 0.0 -0.0 -0.0 -0.0 1 False False
3524.7999999999997 3.712078809738159 -0.8254823249629517 0.8430126349078577 -1.588252683679098 -1.5708048979388636 2.141350269317627 0.0 0.0 0.0 -0.0 -0.0 -0.0 1 False False
3524.8199999999997 3.7120816707611084 -0.8254587215236207 0.8429845015155237 -1.5882774792113246 -1.570801083241598 2.141263246536255 0.0 0.0 0.0 -0.0 -0.0 -0.0 1 False False
3524.8399999999997 3.7120742797851562 -0.8254706424525757 0.8429892698871058 -1.5883170566954554 -1.570801083241598 2.1413087844848633 0.0 0.0 0.0 -0.0 -0.0 -0.0 1 False False
3524.8599999999997 3.7120816707611084 -0.825425998573639 0.8430007139789026 -1.588292738000387 -1.5708168188678187 2.141279697418213 0.0 0.0 0.0 -0.0 -0.0 -0.0 1 False False
3524.8799999999997 3.712111711502075 -0.8254869741252442 0.8430007139789026 -1.5883013210692347 -1.5707839171039026 2.141270637512207 0.0 0.0 0.0 -0.0 -0.0 -0.0 1 False False
3524.8999999999996 3.7120816707611084 -0.8254125875285645 0.8429935614215296 -1.5882650814452113 -1.5707925001727503 2.141321897506714 0.0 0.0 0.0 -0.0 -0.0 -0.0 1 False False
3524.9199999999996 3.7121026515960693 -0.8255172532847901 0.8430007139789026 -1.5882650814452113 -1.570829216633932 2.141270637512207 0.0 0.0 0.0 -0.0 -0.0 -0.0 1 False False
3524.94 3.7120606899261475 -0.825495795612671 0.8429845015155237 -1.5883013210692347 -1.5707882086383265 2.141263246536255 0.0 0.0 0.0 -0.0 -0.0 -0.0 1 False False
3524.96 3.712062358856201 -0.8255216640285035 0.8430174032794397 -1.5882374248900355 -1.5707805792437952 2.1413004398345947 0.0 0.0 0.0 -0.0 -0.0 -0.0 1 False False
3524.98 3.7120816707611084 -0.8254348796657105 0.8429845015155237 -1.5882331333556117 -1.570784870778219 2.141270637512207 0.0 0.0 0.0 -0.0 -0.0 -0.0 1 False False
3525.0 3.7120862007141113 -0.8254333299449463 0.8430293242083948 -1.5883051357665003 -1.5707724730121058 2.14127516746521 0.0 0.0 0.0 -0.0 -0.0 -0.0 1 False False
3525.02 3.7120606899261475 -0.8255291742137452 0.8429630438434046 -1.5882817707457484 -1.5707934538470667 2.141313076019287 0.0 0.0 0.0 -0.0 -0.0 -0.0 1 False False
3525.04 3.7121071815490723 -0.8255247634700318 0.8429892698871058 -1.588280817071432 -1.5708006064044397 2.14127516746521 0.0 0.0 0.0 -0.0 -0.0 -0.0 1 False False
3525.06 3.7120532989501953 -0.825495795612671 0.8430293242083948 -1.5882846317686976 -1.5708125273333948 2.141353130340576 0.0 0.0 0.0 -0.0 -0.0 -0.0 1 False False
3525.08 3.712111473083496 -0.8254675430110474 0.8429845015155237 -1.5883094273009242 -1.5708330313311976 2.1413049697875977 0.0 0.0 0.0 -0.0 -0.0 -0.0 1 False False
3525.1 3.7121355533599854 -0.825437919502594 0.8429763952838343 -1.588252683679098 -1.570784870778219 2.141279697418213 0.0 0.0 0.0 -0.0 -0.0 -0.0 1 False False
3525.12 3.7121071815490723 -0.8254468005946656 0.8430126349078577 -1.5882650814452113 -1.5707810560809534 2.141258955001831 0.0 0.0 0.0 -0.0 -0.0 -0.0 1 False False
3525.14 3.7121026515960693 -0.8254543107799073 0.8429673353778284 -1.5882889233031214 -1.5708006064044397 2.14127516746521 0.0 0.0 0.0 -0.0 -0.0 -0.0 1 False False
3525.16 3.7121026515960693 -0.8254215878299256 0.8429845015155237 -1.5883094273009242 -1.5708335081683558 2.141279697418213 0.0 0.0 0.0 -0.0 -0.0 -0.0 1 False False
3525.18 3.7121191024780273 -0.8254512709430237 0.8429845015155237 -1.5883175335326136 -1.5707843939410608 2.141254186630249 0.0 0.0 0.0 -0.0 -0.0 -0.0 1 False False
3525.2 3.7120578289031982 -0.8254779738238831 0.8430097738849085 -1.5882774792113246 -1.570784870778219 2.141266107559204 0.0 0.0 0.0 -0.0 -0.0 -0.0 1 False False
3525.22 3.7120532989501953 -0.8254823845675965 0.8430007139789026 -1.5882889233031214 -1.57074481645693 2.141279697418213 0.0 0.0 0.0 -0.0 -0.0 -0.0 1 False False
3525.24 3.7121026515960693 -0.825488345032074 0.8429964224444788 -1.588280817071432 -1.5707967917071741 2.14131760597229 0.0 0.0 0.0 -0.0 -0.0 -0.0 1 False False
3525.2599999999998 3.7121191024780273 -0.8254750531962891 0.8429425398456019 -1.5882731876769007 -1.570784870778219 2.1412513256073 0.0 0.0 0.0 -0.0 -0.0 -0.0 1 False False
3525.2799999999997 3.7120981216430664 -0.825463132267334 0.8429630438434046 -1.5883170566954554 -1.5707686583148401 2.1412646770477295 0.0 0.0 0.0 -0.0 -0.0 -0.0 1 False False
3525.2999999999997 3.712036609649658 -0.8254407805255433 0.8430293242083948 -1.588313718835348 -1.5707686583148401 2.141263246536255 0.0 0.0 0.0 -0.0 -0.0 -0.0 1 False False
3525.3199999999997 3.712111473083496 -0.8254217070392151 0.8429845015155237 -1.588268896142477 -1.5707967917071741 2.141258955001831 0.0 0.0 0.0 -0.0 -0.0 -0.0 1 False False
3525.3399999999997 3.7121026515960693 -0.8254707020572205 0.8429473082171839 -1.5882774792113246 -1.5708254019366663 2.1413004398345947 0.0 0.0 0.0 -0.0 -0.0 -0.0 1 False False
3525.3599999999997 3.7120862007141113 -0.8254794639400025 0.8430097738849085 -1.5883056126036585 -1.5708172957049769 2.141254186630249 0.0 0.0 0.0 -0.0 -0.0 -0.0 1 False False
3525.3799999999997 3.7120726108551025 -0.8254913848689576 0.8429964224444788 -1.5882731876769007 -1.5707886854754847 2.141284227371216 0.0 0.0 0.0 -0.0 -0.0 -0.0 1 False False
3525.3999999999996 3.7121355533599854 -0.8254543107799073 0.8430097738849085 -1.5882331333556117 -1.5707929770099085 2.141354560852051 0.0 0.0 0.0 -0.0 -0.0 -0.0 1 False False
3525.4199999999996 3.712041139602661 -0.8255039018443604 0.842992130910055 -1.5883251629271449 -1.5708087126361292 2.141308546066284 0.0 0.0 0.0 -0.0 -0.0 -0.0 1 False False
3525.44 3.7121145725250244 -0.8254750531962891 0.8429439703570765 -1.5882774792113246 -1.5708006064044397 2.1412172317504883 0.0 0.0 0.0 -0.0 -0.0 -0.0 1 False False
3525.46 3.7120907306671143 -0.8254794639400025 0.8429754416095179 -1.5882731876769007 -1.570824925099508 2.141258955001831 0.0 0.0 0.0 -0.0 -0.0 -0.0 1 False False
3525.48 3.7120935916900635 -0.8254884046367188 0.8429454008685511 -1.5883251629271449 -1.570784870778219 2.141263246536255 0.0 0.0 0.0 -0.0 -0.0 -0.0 1 False False
3525.5 3.7120490074157715 -0.8254750531962891 0.8429845015155237 -1.5883251629271449 -1.5707691351519983 2.1412839889526367 0.0 0.0 0.0 -0.0 -0.0 -0.0 1 False False
3525.52 3.7120981216430664 -0.8255046767047425 0.8430054823504847 -1.5882774792113246 -1.5707967917071741 2.141284227371216 0.0 0.0 0.0 -0.0 -0.0 -0.0 1 False False
3525.54 3.7120578289031982 -0.8255046767047425 0.8429845015155237 -1.5883056126036585 -1.5707967917071741 2.141284227371216 0.0 0.0 0.0 -0.0 -0.0 -0.0 1 False False
3525.56 3.7120862007141113 -0.8255247634700318 0.8430007139789026 -1.5883251629271449 -1.5708048979388636 2.141279697418213 0.0 0.0 0.0 -0.0 -0.0 -0.0 1 False False
3525.58 3.7121026515960693 -0.8254675430110474 0.8429845015155237 -1.5883289776244105 -1.5707686583148401 2.141333818435669 0.0 0.0 0.0 -0.0 -0.0 -0.0 1 False False
3525.6 3.7120652198791504 -0.8254468005946656 0.8429754416095179 -1.5882774792113246 -1.5708006064044397 2.141267776489258 0.0 0.0 0.0 -0.0 -0.0 -0.0 1 False False
3525.62 3.7120816707611084 -0.8255002659610291 0.8429630438434046 -1.5882412395873011 -1.5707405249225062 2.141284227371216 0.0 0.0 0.0 -0.0 -0.0 -0.0 1 False False
3525.64 3.7120697498321533 -0.8254794639400025 0.842987362538473 -1.5883289776244105 -1.5708048979388636 2.141329526901245 0.0 0.0 0.0 -0.0 -0.0 -0.0 1 False False
3525.66 3.7120907306671143 -0.8254706424525757 0.8430083433734339 -1.5882889233031214 -1.5707724730121058 2.1412723064422607 0.0 0.0 0.0 -0.0 -0.0 -0.0 1 False False
3525.68 3.7120771408081055 -0.8255128425410767 0.8430126349078577 -1.5883056126036585 -1.5708087126361292 2.141279697418213 0.0 0.0 0.0 -0.0 -0.0 -0.0 1 False False
3525.7 3.712116003036499 -0.8254750531962891 0.8430216948138636 -1.5882169208922328 -1.5708330313311976 2.141266107559204 0.0 0.0 0.0 -0.0 -0.0 -0.0 1 False False
3525.72 3.7120907306671143 -0.8254675430110474 0.8430174032794397 -1.5882607899107875 -1.5708006064044397 2.1412994861602783 -1.2783904710874067e-21 0.0 0.0 -0.0 -0.0 -0.0 1 False False
3525.74 3.7121191024780273 -0.8254052561572571 0.8429845015155237 -1.5882650814452113 -1.5708006064044397 2.141247034072876 -9.99265934910027e-42 0.0 0.0 -0.0 -0.0 -0.0 1 False False
3525.7599999999998 3.7120578289031982 -0.8254468005946656 0.8429439703570765 -1.5882250271239222 -1.5708330313311976 2.141284227371216 0.0 0.0 0.0 -0.0 -0.0 -0.0 1 False False
3525.7799999999997 3.7120652198791504 -0.8254779738238831 0.8430126349078577 -1.588313718835348 -1.57084829012026 2.1412572860717773 0.0 0.0 0.0 -0.0 -0.0 -0.0 1 False False
3525.7999999999997 3.7121188640594482 -0.8255202335170289 0.8430126349078577 -1.5882889233031214 -1.5708087126361292 2.1412885189056396 0.0 0.0 0.0 -0.0 -0.0 -0.0 1 False False
3525.8199999999997 3.7120697498321533 -0.8254869145205994 0.8430264631854456 -1.5882889233031214 -1.5708006064044397 2.1412513256073 0.0 0.0 0.0 -0.0 -0.0 -0.0 1 False False
3525.8399999999997 3.7120816707611084 -0.8254215878299256 0.8429721037494105 -1.5882650814452113 -1.5707610289203089 2.1412930488586426 0.0 0.0 0.0 -0.0 -0.0 -0.0 1 False False
3525.8599999999997 3.7120907306671143 -0.8254869741252442 0.8429845015155237 -1.588320871392721 -1.5708406607257288 2.1413004398345947 0.0 0.0 0.0 -0.0 -0.0 -0.0 1 False False
3525.8799999999997 3.7120490074157715 -0.8254823249629517 0.8430097738849085 -1.5882851086058558 -1.5708006064044397 2.141279697418213 0.0 0.0 0.0 -0.0 -0.0 -0.0 1 False False
3525.8999999999996 3.7120742797851562 -0.8255202931216736 0.8429802099810999 -1.5883332691588343 -1.570784870778219 2.141254186630249 0.0 0.0 0.0 -0.0 -0.0 -0.0 1 False False
3525.9199999999996 3.7121026515960693 -0.8254750531962891 0.8429349104510706 -1.5882774792113246 -1.570784870778219 2.141291618347168 0.0 0.0 0.0 -0.0 -0.0 -0.0 1 False False
3525.94 3.712083339691162 -0.8254779142192383 0.8430007139789026 -1.5883013210692347 -1.5708168188678187 2.141308546066284 0.0 0.0 0.0 -0.0 -0.0 -0.0 1 False False
3525.96 3.7121312618255615 -0.825495795612671 0.842992130910055 -1.5882774792113246 -1.5708125273333948 2.1413040161132812 0.0 0.0 0.0 -0.0 -0.0 -0.0 1 False False
3525.98 3.7120578289031982 -0.8255781692317505 0.8430336157428187 -1.5882817707457484 -1.5708006064044397 2.141329526901245 0.0 0.0 0.0 -0.0 -0.0 -0.0 1 False False
3526.0 3.7121026515960693 -0.8255083721927186 0.8429892698871058 -1.5883332691588343 -1.5707805792437952 2.1412930488586426 0.0 0.0 0.0 -0.0 -0.0 -0.0 1 False False
3526.02 3.7121026515960693 -0.8254913848689576 0.8429258505450647 -1.5882412395873011 -1.5707925001727503 2.141287088394165 0.0 0.0 0.0 -0.0 -0.0 -0.0 1 False False
3526.04 3.7120697498321533 -0.8254587215236207 0.8430097738849085 -1.5882932148375453 -1.5707486311541956 2.1413004398345947 0.0 0.0 0.0 -0.0 -0.0 -0.0 1 False False
3526.06 3.7120981216430664 -0.8254750531962891 0.8429845015155237 -1.5882932148375453 -1.5708168188678187 2.141270637512207 0.0 0.0 0.0 -0.0 -0.0 -0.0 1 False False
3526.08 3.7120203971862793 -0.8254468005946656 0.8430498282061976 -1.5882889233031214 -1.570813004170553 2.1412994861602783 0.0 0.0 0.0 -0.0 -0.0 -0.0 1 False False
3526.1 3.7120532989501953 -0.8254452508739014 0.8429845015155237 -1.588297029534811 -1.5707805792437952 2.141267776489258 0.0 0.0 0.0 -0.0 -0.0 -0.0 1 False False
3526.12 3.7121188640594482 -0.8254587215236207 0.8429935614215296 -1.5882536373534144 -1.5707648436175745 2.141329526901245 0.0 0.0 0.0 -0.0 -0.0 -0.0 1 False False
3526.14 3.712045669555664 -0.8255202931216736 0.8429935614215296 -1.5882650814452113 -1.570829216633932 2.1412007808685303 0.0 0.0 0.0 -0.0 -0.0 -0.0 1 False False
3526.16 3.7120862007141113 -0.8255039614490052 0.8429673353778284 -1.588285585443014 -1.5707925001727503 2.14123797416687 0.0 0.0 0.0 -0.0 -0.0 -0.0 1 False False
3526.18 3.712111711502075 -0.8254496616176148 0.8429845015155237 -1.5882731876769007 -1.5707767645465296 2.141263246536255 0.0 0.0 0.0 -0.0 -0.0 -0.0 1 False False
3526.2 3.7121071815490723 -0.8254587215236207 0.842987362538473 -1.588268896142477 -1.5707891623126429 2.141279697418213 0.0 0.0 0.0 -0.0 -0.0 -0.0 1 False False
3526.22 3.7120490074157715 -0.8254452508739014 0.8430174032794397 -1.5883370838561 -1.5707281271563929 2.141338348388672 0.0 0.0 0.0 -0.0 -0.0 -0.0 1 False False
3526.24 3.712083339691162 -0.8255046767047425 0.8430126349078577 -1.5883094273009242 -1.5707925001727503 2.141329526901245 0.0 0.0 0.0 -0.0 -0.0 -0.0 1 False False
3526.2599999999998 3.7120771408081055 -0.8254823845675965 0.8429678122149866 -1.588280817071432 -1.5707967917071741 2.141282558441162 0.0 0.0 0.0 -0.0 -0.0 -0.0 1 False False
3526.2799999999997 3.7120532989501953 -0.8254423898509522 0.8429473082171839 -1.5882412395873011 -1.570813004170553 2.141279697418213 0.0 0.0 0.0 -0.0 -0.0 -0.0 1 False False
3526.2999999999997 3.7120981216430664 -0.8255202931216736 0.8429673353778284 -1.5882774792113246 -1.5707891623126429 2.1413004398345947 0.0 0.0 0.0 -0.0 -0.0 -0.0 1 False False
3526.3199999999997 3.712095260620117 -0.8254675430110474 0.8429587523089808 -1.588285585443014 -1.570801083241598 2.1413204669952393 0.0 0.0 0.0 -0.0 -0.0 -0.0 1 False False
3526.3399999999997 3.712029218673706 -0.8254587215236207 0.8430126349078577 -1.588313718835348 -1.5707529226886194 2.141291618347168 0.0 0.0 0.0 -0.0 -0.0 -0.0 1 False False
3526.3599999999997 3.7120726108551025 -0.825473503475525 0.8429754416095179 -1.5882650814452113 -1.570801083241598 2.141279697418213 0.0 0.0 0.0 -0.0 -0.0 -0.0 1 False False
3526.3799999999997 3.7121312618255615 -0.8255394858172913 0.8429887930499476 -1.5883013210692347 -1.5708048979388636 2.141308546066284 0.0 0.0 0.0 -0.0 -0.0 -0.0 1 False False
3526.3999999999996 3.712062358856201 -0.8254913848689576 0.8429587523089808 -1.588252683679098 -1.5708449522601526 2.141284227371216 0.0 0.0 0.0 -0.0 -0.0 -0.0 1 False False
3526.4199999999996 3.7120742797851562 -0.825495795612671 0.8429845015155237 -1.588280817071432 -1.5708254019366663 2.141247034072876 0.0 0.0 0.0 -0.0 -0.0 -0.0 1 False False
3526.44 3.7120742797851562 -0.8255039614490052 0.8430054823504847 -1.588297029534811 -1.570784870778219 2.1413204669952393 0.0 0.0 0.0 -0.0 -0.0 -0.0 1 False False
3526.46 3.7120935916900635 -0.8255171936801453 0.8430126349078577 -1.588313718835348 -1.570829216633932 2.1412885189056396 0.0 0.0 0.0 -0.0 -0.0 -0.0 1 False False
3526.48 3.7121145725250244 -0.8255091470531006 0.8429396788226526 -1.5883056126036585 -1.5707967917071741 2.141296148300171 0.0 0.0 0.0 -0.0 -0.0 -0.0 1 False False
3526.5 3.712078809738159 -0.8254794639400025 0.8429802099810999 -1.5882374248900355 -1.570853058491842 2.141258955001831 0.0 0.0 0.0 -0.0 -0.0 -0.0 1 False False
3526.52 3.712050199508667 -0.8254587215236207 0.8430169264422815 -1.5882774792113246 -1.5707767645465296 2.141324996948242 0.0 0.0 0.0 -0.0 -0.0 -0.0 1 False False
3526.54 3.712111473083496 -0.8254543107799073 0.8429515997516077 -1.5882374248900355 -1.570813004170553 2.14123797416687 0.0 0.0 0.0 -0.0 -0.0 -0.0 1 False False
3526.56 3.7120907306671143 -0.8255410355380555 0.8429935614215296 -1.5883013210692347 -1.570801083241598 2.141254186630249 0.0 0.0 0.0 -0.0 -0.0 -0.0 1 False False
3526.58 3.7121191024780273 -0.8254706424525757 0.8430140654193323 -1.5883251629271449 -1.5707772413836878 2.1413094997406006 0.0 0.0 0.0 -0.0 -0.0 -0.0 1 False False
3526.6 3.7120742797851562 -0.8254869741252442 0.8430007139789026 -1.5882898769774378 -1.570784870778219 2.141308546066284 0.0 0.0 0.0 -0.0 -0.0 -0.0 1 False False
3526.62 3.7121071815490723 -0.8255127233317872 0.8429515997516077 -1.588297029534811 -1.5707605520831507 2.141329526901245 0.0 0.0 0.0 -0.0 -0.0 -0.0 1 False False
3526.64 3.7120816707611084 -0.825445370083191 0.8429759184466761 -1.588252683679098 -1.5707891623126429 2.141267776489258 0.0 0.0 0.0 -0.0 -0.0 -0.0 1 False False
3526.66 3.712012529373169 -0.825463132267334 0.8430054823504847 -1.588297029534811 -1.5708091894732874 2.141345739364624 0.0 0.0 0.0 -0.0 -0.0 -0.0 1 False False
3526.68 3.7120697498321533 -0.8254719537547608 0.8430126349078577 -1.588297029534811 -1.570824925099508 2.141270637512207 0.00010138664219994098 0.0 0.0 -0.0 -0.0 -0.0 1 False False
3526.7 3.712116003036499 -0.825479583149292 0.8429587523089808 -1.5882650814452113 -1.5708449522601526 2.141287088394165 1.9319775970576324e-17 0.0 0.0 -0.0 -0.0 -0.0 1 False False
3526.72 3.7121071815490723 -0.8254993718913575 0.842926327382223 -1.5883289776244105 -1.5708168188678187 2.141266107559204 1.5100449424541573e-37 0.0 0.0 -0.0 -0.0 -0.0 1 False False
3526.74 3.712083339691162 -0.8255134981921692 0.8429515997516077 -1.5882846317686976 -1.5707805792437952 2.141287088394165 0.0 0.0 0.0 -0.0 -0.0 -0.0 1 False False
3526.7599999999998 3.7120862007141113 -0.8255083721927186 0.8429763952838343 -1.588313718835348 -1.570801083241598 2.141254186630249 0.0 0.0 0.0 -0.0 -0.0 -0.0 1 False False
3526.7799999999997 3.712132453918457 -0.8255127829364319 0.8429845015155237 -1.588245531121725 -1.5707648436175745 2.141308546066284 0.0 0.0 0.0 -0.0 -0.0 -0.0 1 False False
3526.7999999999997 3.712099552154541 -0.8254543107799073 0.842971150075094 -1.588252683679098 -1.5707362333880823 2.141242504119873 0.0 0.0 0.0 -0.0 -0.0 -0.0 1 False False
3526.8199999999997 3.7120203971862793 -0.8254333895495911 0.8429802099810999 -1.588268896142477 -1.5708254019366663 2.141247034072876 0.0 0.0 0.0 -0.0 -0.0 -0.0 1 False False
3526.8399999999997 3.7120981216430664 -0.8255247634700318 0.8430169264422815 -1.5882774792113246 -1.570801083241598 2.141296148300171 0.0 0.0 0.0 -0.0 -0.0 -0.0 1 False False
3526.8599999999997 3.7121024131774902 -0.8255216044238587 0.8430054823504847 -1.5882288418211878 -1.5708406607257288 2.141267776489258 0.0 0.0 0.0 -0.0 -0.0 -0.0 1 False False
3526.8799999999997 3.7120368480682373 -0.8254675430110474 0.842992130910055 -1.588297029534811 -1.5707891623126429 2.141282558441162 0.0 0.0 0.0 -0.0 -0.0 -0.0 1 False False
3526.8999999999996 3.712083101272583 -0.8254571718028565 0.8430007139789026 -1.5882889233031214 -1.5707925001727503 2.1413004398345947 0.0 0.0 0.0 -0.0 -0.0 -0.0 1 False False
3526.9199999999996 3.7120742797851562 -0.8254706424525757 0.8429845015155237 -1.5883289776244105 -1.5707843939410608 2.141284227371216 0.0 0.0 0.0 -0.0 -0.0 -0.0 1 False False
3526.94 3.7120742797851562 -0.8255046767047425 0.8429630438434046 -1.5882846317686976 -1.5707767645465296 2.1412885189056396 0.0 0.0 0.0 -0.0 -0.0 -0.0 1 False False
3526.96 3.7120907306671143 -0.8255128425410767 0.8429935614215296 -1.5883013210692347 -1.5707891623126429 2.141296148300171 0.0 0.0 0.0 -0.0 -0.0 -0.0 1 False False
3526.98 3.712066888809204 -0.8255409759334107 0.8429544607745569 -1.588297029534811 -1.570801083241598 2.1412723064422607 0.0 0.0 0.0 -0.0 -0.0 -0.0 1 False False
3527.0 3.7120697498321533 -0.8254706424525757 0.8429845015155237 -1.588280817071432 -1.570813004170553 2.141267776489258 0.0 0.0 0.0 -0.0 -0.0 -0.0 1 False False
3527.02 3.7120413780212402 -0.8254993718913575 0.8429306189166468 -1.5882774792113246 -1.5707648436175745 2.141284227371216 0.0 0.0 0.0 -0.0 -0.0 -0.0 1 False False
3527.04 3.7120578289031982 -0.8254980009845276 0.8430169264422815 -1.5882288418211878 -1.5708091894732874 2.1412723064422607 0.0 0.0 0.0 -0.0 -0.0 -0.0 1 False False
3527.06 3.712078809738159 -0.8255128425410767 0.8429625670062464 -1.5882731876769007 -1.5708168188678187 2.1412782669067383 0.0 0.0 0.0 -0.0 -0.0 -0.0 1 False False
3527.08 3.7120654582977295 -0.8254913848689576 0.8429887930499476 -1.5882650814452113 -1.5707805792437952 2.141284227371216 0.0 0.0 0.0 -0.0 -0.0 -0.0 1 False False
3527.1 3.7120654582977295 -0.8254913848689576 0.8430007139789026 -1.5882607899107875 -1.5708377997027796 2.14131760597229 0.0 0.0 0.0 -0.0 -0.0 -0.0 1 False False
3527.12 3.7120697498321533 -0.8255320352366944 0.842992130910055 -1.588280817071432 -1.570813004170553 2.141230583190918 0.0 0.0 0.0 -0.0 -0.0 -0.0 1 False False
3527.14 3.7120444774627686 -0.8254659932902833 0.842992130910055 -1.5882731876769007 -1.5708368460284632 2.1412723064422607 0.0 0.0 0.0 -0.0 -0.0 -0.0 1 False False
3527.16 3.712050199508667 -0.825495795612671 0.8430050055133265 -1.588297029534811 -1.570813004170553 2.141313076019287 0.0 0.0 0.0 -0.0 -0.0 -0.0 1 False False
3527.18 3.7120742797851562 -0.8255202931216736 0.8430169264422815 -1.5883175335326136 -1.5708168188678187 2.14127516746521 0.0 0.0 0.0 -0.0 -0.0 -0.0 1 False False
3527.2 3.7120697498321533 -0.8254795235446473 0.8430083433734339 -1.5883413753905238 -1.5708335081683558 2.1413040161132812 0.0 0.0 0.0 -0.0 -0.0 -0.0 1 False False
3527.24 3.7120368480682373 -0.8254169982722779 0.8430169264422815 -1.588269372979635 -1.570813004170553 2.141300678253174 0.0 0.0 0.0 -0.0 -0.0 -0.0 1 False False
3527.2599999999998 3.712062358856201 -0.8254913848689576 0.8430126349078577 -1.588297029534811 -1.570784870778219 2.141242504119873 0.0 0.0 0.0 -0.0 -0.0 -0.0 1 False False
3527.2799999999997 3.7120535373687744 -0.8254993718913575 0.8429477850543421 -1.5882846317686976 -1.5708168188678187 2.141282558441162 0.0 0.0 0.0 -0.0 -0.0 -0.0 1 False False
3527.2999999999997 3.712062358856201 -0.8254587215236207 0.8430498282061976 -1.5883094273009242 -1.5708406607257288 2.141258955001831 0.0 0.0 0.0 -0.0 -0.0 -0.0 1 False False
3527.3199999999997 3.7120115756988525 -0.825466052894928 0.8429387251483362 -1.5882889233031214 -1.5708168188678187 2.14127516746521 0.0 0.0 0.0 -0.0 -0.0 -0.0 1 False False
3527.3399999999997 3.7120773792266846 -0.8254288595965882 0.8429802099810999 -1.588252683679098 -1.5707724730121058 2.1413004398345947 0.0 0.0 0.0 -0.0 -0.0 -0.0 1 False False
3527.3599999999997 3.7120816707611084 -0.8254675430110474 0.8429759184466761 -1.588297029534811 -1.5707767645465296 2.1412572860717773 0.0 0.0 0.0 -0.0 -0.0 -0.0 1 False False
3527.3799999999997 3.712095022201538 -0.8254823845675965 0.8429477850543421 -1.5882650814452113 -1.5707686583148401 2.141296148300171 0.0 0.0 0.0 -0.0 -0.0 -0.0 1 False False
3527.3999999999996 3.7120490074157715 -0.825495795612671 0.8430169264422815 -1.5883013210692347 -1.570784870778219 2.141296148300171 0.0 0.0 0.0 -0.0 -0.0 -0.0 1 False False
3527.4199999999996 3.7120862007141113 -0.8254750531962891 0.8430169264422815 -1.5882374248900355 -1.5707524458514612 2.141263246536255 0.0 0.0 0.0 -0.0 -0.0 -0.0 1 False False
3527.44 3.7120490074157715 -0.8254706424525757 0.8429606596576136 -1.588280817071432 -1.5707486311541956 2.141249895095825 2.0604202788376824e-09 0.0 0.0 -0.0 -0.0 -0.0 1 False False
3527.46 3.712095022201538 -0.8254823249629517 0.8430126349078577 -1.5882898769774378 -1.5708087126361292 2.141296148300171 1.610436739812979e-29 0.0 0.0 -0.0 -0.0 -0.0 1 False False
3527.48 3.7120280265808105 -0.8254497212222596 0.8429845015155237 -1.588252683679098 -1.5707724730121058 2.1413004398345947 0.0 0.0 0.0 -0.0 -0.0 -0.0 1 False False
3527.5 3.7120249271392822 -0.8254586619189759 0.8429845015155237 -1.5882817707457484 -1.5707767645465296 2.141296148300171 0.0 0.0 0.0 -0.0 -0.0 -0.0 1 False False
3527.52 3.7120773792266846 -0.8254556220820923 0.8429392019854944 -1.588269372979635 -1.570784870778219 2.1413204669952393 0.0 0.0 0.0 -0.0 -0.0 -0.0 1 False False
3527.54 3.7120249271392822 -0.8255083721927186 0.8429802099810999 -1.5882650814452113 -1.570829216633932 2.141333818435669 0.0 0.0 0.0 -0.0 -0.0 -0.0 1 False False
3527.56 3.712111473083496 -0.8254659932902833 0.8430126349078577 -1.5882650814452113 -1.5708254019366663 2.1412997245788574 0.0 0.0 0.0 -0.0 -0.0 -0.0 1 False False
3527.58 3.7120819091796875 -0.8254913252643128 0.8429845015155237 -1.5883175335326136 -1.570813004170553 2.141270637512207 0.0 0.0 0.0 -0.0 -0.0 -0.0 1 False False
3527.6 3.7120773792266846 -0.8254860800555726 0.8429678122149866 -1.5882607899107875 -1.570813004170553 2.1413049697875977 0.0 0.0 0.0 -0.0 -0.0 -0.0 1 False False
3527.62 3.712095022201538 -0.8254913848689576 0.8429763952838343 -1.5883051357665003 -1.570784870778219 2.141296148300171 0.0 0.0 0.0 -0.0 -0.0 -0.0 1 False False
3527.64 3.712148666381836 -0.8255366247943421 0.8429763952838343 -1.588245531121725 -1.570829216633932 2.141334056854248 0.0 0.0 0.0 -0.0 -0.0 -0.0 1 False False
3527.66 3.7120654582977295 -0.8254823845675965 0.8430450598346155 -1.5882607899107875 -1.5707648436175745 2.141266107559204 0.0 0.0 0.0 -0.0 -0.0 -0.0 1 False False
3527.68 3.712033987045288 -0.8254949611476441 0.8429759184466761 -1.588313718835348 -1.570813004170553 2.1413092613220215 0.0 0.0 0.0 -0.0 -0.0 -0.0 1 False False
3527.7 3.7120819091796875 -0.8254587811282654 0.8429635206805628 -1.5883456669249476 -1.570801083241598 2.141249895095825 0.0 0.0 0.0 -0.0 -0.0 -0.0 1 False False
3527.72 3.712062358856201 -0.8254779738238831 0.8430007139789026 -1.5883456669249476 -1.5708006064044397 2.141242504119873 0.0 0.0 0.0 -0.0 -0.0 -0.0 1 False False
3527.74 3.71211576461792 -0.8254993718913575 0.8430169264422815 -1.5882774792113246 -1.5707648436175745 2.141313076019287 0.0 0.0 0.0 -0.0 -0.0 -0.0 1 False False
3527.7599999999998 3.7121100425720215 -0.8254571718028565 0.8429878393756312 -1.5882650814452113 -1.5707967917071741 2.141270637512207 0.0 0.0 0.0 -0.0 -0.0 -0.0 1 False False
3527.7799999999997 3.712103843688965 -0.8254543107799073 0.8429887930499476 -1.5882731876769007 -1.570784870778219 2.141263246536255 0.0 0.0 0.0 -0.0 -0.0 -0.0 1 False False
3527.7999999999997 3.712123394012451 -0.825463132267334 0.8429845015155237 -1.5882774792113246 -1.5708044211017054 2.14127516746521 0.0 0.0 0.0 -0.0 -0.0 -0.0 1 False False
3527.8199999999997 3.7120862007141113 -0.825437919502594 0.8430050055133265 -1.5882412395873011 -1.5708168188678187 2.141279697418213 0.0 0.0 0.0 -0.0 -0.0 -0.0 1 False False
3527.8399999999997 3.7120981216430664 -0.8254468005946656 0.8429802099810999 -1.5882774792113246 -1.570784870778219 2.14127516746521 0.0 0.0 0.0 -0.0 -0.0 -0.0 1 False False
3527.8599999999997 3.712050199508667 -0.8254706424525757 0.8429763952838343 -1.5882650814452113 -1.5707805792437952 2.141214370727539 0.0 0.0 0.0 -0.0 -0.0 -0.0 1 False False
3527.8799999999997 3.7121024131774902 -0.8255291742137452 0.8430126349078577 -1.5883051357665003 -1.5707805792437952 2.141308546066284 6.235112671091675e-22 0.0 0.0 -0.0 -0.0 -0.0 1 False False
3527.8999999999996 3.7120654582977295 -0.825463132267334 0.8429845015155237 -1.588292738000387 -1.5708492437945765 2.141226053237915 4.873716058921714e-42 0.0 0.0 -0.0 -0.0 -0.0 1 False False
3527.9199999999996 3.712083101272583 -0.8255112928203125 0.8429845015155237 -1.5882650814452113 -1.5707843939410608 2.1412885189056396 0.0 0.0 0.0 -0.0 -0.0 -0.0 1 False False
3527.94 3.7120862007141113 -0.8254913848689576 0.8429678122149866 -1.588269372979635 -1.5708006064044397 2.1412885189056396 -2.399730862663506e-17 0.0 0.0 -0.0 -0.0 -0.0 1 False False
3527.96 3.7120935916900635 -0.8254543107799073 0.8430135885821741 -1.5882846317686976 -1.5707324186908167 2.141263246536255 -1.8756438239003792e-37 0.0 0.0 -0.0 -0.0 -0.0 1 False False
3527.98 3.712123155593872 -0.8255216640285035 0.8429845015155237 -1.5882650814452113 -1.5707767645465296 2.1412723064422607 0.0 0.0 0.0 -0.0 -0.0 -0.0 1 False False
3528.0 3.7120862007141113 -0.8255083721927186 0.8430331389056605 -1.5883289776244105 -1.570756737385885 2.14127516746521 0.0 0.0 0.0 -0.0 -0.0 -0.0 1 False False
3528.02 3.7120580673217773 -0.8254914444736023 0.842959229146139 -1.5882169208922328 -1.5707767645465296 2.141279697418213 0.0 0.0 0.0 -0.0 -0.0 -0.0 1 False False
3528.04 3.7120907306671143 -0.8254423898509522 0.8430374304400843 -1.5882498226561488 -1.5707967917071741 2.141266107559204 0.0 0.0 0.0 -0.0 -0.0 -0.0 1 False False
3528.06 3.7120819091796875 -0.8255002659610291 0.8430050055133265 -1.5883008442320765 -1.570784870778219 2.141270637512207 0.0 0.0 0.0 -0.0 -0.0 -0.0 1 True False
3528.08 3.712127685546875 -0.825495795612671 0.8429549376117151 -1.5882569752135218 -1.5707805792437952 2.141296148300171 0.0 0.0 0.0 -0.0 -0.0 -0.0 1 True False
3528.1 3.7120580673217773 -0.8255039614490052 0.8429678122149866 -1.588273664514059 -1.5708211104022425 2.141296148300171 0.0 0.0 0.0 -0.0 -0.0 -0.0 1 True False
3528.12 3.7120654582977295 -0.8254823845675965 0.8430050055133265 -1.5883094273009242 -1.5707605520831507 2.141263246536255 0.0023027737624943256 0.0 0.0 -0.0 -0.0 -0.0 1 True False
3528.14 3.712129592895508 -0.8254869741252442 0.8430660406695765 -1.5883013210692347 -1.5707891623126429 2.141284227371216 0.008503535762429237 -0.001509698573499918 0.005518878344446421 -0.0 -0.0 -0.0016170595772564411 1 True False
3528.16 3.7123301029205322 -0.8255744737437745 0.8432043234454554 -1.5883127651610316 -1.5708325544940394 2.1411821842193604 0.017637452110648155 -0.009665390476584435 0.015149352140724659 -0.0013089525746181607 -0.0 -0.009524231776595116 1 True False
3528.18 3.712707042694092 -0.8257676523974915 0.8435428778277796 -1.588377138177389 -1.570829216633932 2.140876054763794 0.020633051171898842 -0.011538079008460045 0.019759172573685646 -0.006703563034534454 -0.0 -0.016722209751605988 1 True False
3528.2 3.7130653858184814 -0.8261203330806275 0.8439624945269983 -1.5885759792723597 -1.570853058491842 2.1405553817749023 0.025764543563127518 -0.020660702139139175 0.02775539830327034 -0.01090220082551241 -0.0 -0.014928950928151608 1 True False
3528.22 3.7136566638946533 -0.8265730899623414 0.844710652028219 -1.5888196430602015 -1.5707925001727503 2.140249252319336 0.03591971471905708 -0.033247023820877075 0.04316489398479462 -0.012131239287555218 -0.0 -0.02284874953329563 1 True False
3528.24 3.7144832611083984 -0.8273467582515259 0.8456929365741175 -1.5891109905638636 -1.5708044211017054 2.139704465866089 0.04908095300197601 -0.04417617619037628 0.06021973490715027 -0.015152846463024616 -0.0 -0.031228121370077133 1 True False
3528.2599999999998 3.7157421112060547 -0.8283577126315613 0.8471158186541956 -1.5894538364806117 -1.5707967917071741 2.1388754844665527 0.06866270303726196 -0.056092772632837296 0.07995963096618652 -0.02176857925951481 -0.0 -0.041827116161584854 1 True False
3528.2799999999997 3.7173006534576416 -0.8295874160579224 0.8490656057940882 -1.5899201832213343 -1.5707925001727503 2.138011932373047 0.0870218575000763 -0.0730079859495163 0.10147631168365479 -0.027133658528327942 -0.0 -0.05453348532319069 1 True False
3528.2999999999997 3.7192575931549072 -0.8312085431865235 0.8513439337359827 -1.5905376873412074 -1.5707805792437952 2.136760711669922 0.10906542092561722 -0.08917119354009628 0.1184704452753067 -0.036859989166259766 -0.0 -0.06710130721330643 1 True False
3528.3199999999997 3.7216908931732178 -0.8332992953113099 0.8540056387530726 -1.5914236507811488 -1.5707886854754847 2.1352646350860596 0.13312029838562012 -0.11234624683856964 0.14760538935661316 -0.04356369003653526 -0.0 -0.08391231298446655 1 True False
3528.3399999999997 3.7245779037475586 -0.8358252209476014 0.8572643438922327 -1.592416902581686 -1.5707805792437952 2.133321762084961 0.16167780756950378 -0.1313857138156891 0.18045057356357574 -0.050314150750637054 -0.0 -0.09730150550603867 1 True False
3528.3599999999997 3.728020191192627 -0.8387103837779541 0.8612125555621546 -1.593433519402975 -1.5707886854754847 2.131211519241333 0.18878164887428284 -0.153434619307518 0.2192779928445816 -0.050849106162786484 -0.0 -0.11728216707706451 1 True False
3528.3799999999997 3.7321345806121826 -0.8420982521823426 0.8660324255572718 -1.5946618519225062 -1.5708368460284632 2.128594398498535 0.22353625297546387 -0.18019209802150726 0.25220850110054016 -0.07008174061775208 -0.0 -0.1373533308506012 1 True False
3528.3999999999996 3.7368276119232178 -0.8458857101253052 0.8713133970843714 -1.596116682092184 -1.5707724730121058 2.1256513595581055 0.24327795207500458 -0.19657833874225616 0.28133338689804077 -0.07617107033729553 -0.0 -0.15305770933628082 1 True False
3528.4199999999996 3.74208402633667 -0.8501442235759278 0.8771837393390101 -1.5977803669371546 -1.5708211104022425 2.122382164001465 0.26561862230300903 -0.22261035442352295 0.31033703684806824 -0.08816611766815186 -0.0 -0.16413624584674835 1 True False
3528.44 3.74772310256958 -0.8547813457301636 0.8837102095233362 -1.5996853313841761 -1.5707891623126429 2.118802070617676 0.29102858901023865 -0.24227941036224365 0.33344489336013794 -0.09241816401481628 -0.0 -0.18528352677822113 1 True False
3528.46 3.753743886947632 -0.8597408694079895 0.8906109968768519 -1.6015402279295863 -1.5707486311541956 2.114926815032959 0.31628450751304626 -0.26078855991363525 0.3639718294143677 -0.10161353647708893 0.0001659778063185513 -0.19898276031017303 1 True False
3528.48 3.7602481842041016 -0.8652711671641846 0.8981722036944788 -1.6036530933775843 -1.5708492437945765 2.1107447147369385 0.3432961404323578 -0.2861805558204651 0.39340126514434814 -0.10852508991956711 0.00012696020712610334 -0.21717554330825806 1 True False
3528.5 3.767469882965088 -0.8710465592196961 0.9064219633685511 -1.605969568292135 -1.5707767645465296 2.1062660217285156 0.36962705850601196 -0.30199652910232544 0.41973400115966797 -0.12751784920692444 0.0001027897305903025 -0.2306111752986908 1 True False
3528.52 3.775200128555298 -0.8774078053287049 0.9151418844806116 -1.6083256206908167 -1.570784870778219 2.101515769958496 0.3908059000968933 -0.31878963112831116 0.44381389021873474 -0.11849047988653183 0.0001235037052538246 -0.25061073899269104 1 True False
3528.54 3.7831954956054688 -0.884053186779358 0.9242294470416468 -1.6108294926085414 -1.5707648436175745 2.0963094234466553 0.4166998565196991 -0.34258583188056946 0.47291287779808044 -0.1364302635192871 0.00011531415657373145 -0.2600908577442169 1 True False
3528.56 3.7916219234466553 -0.8911307615092774 0.9339793364154261 -1.613744398156637 -1.5707524458514612 2.0908989906311035 0.4378577470779419 -0.36162006855010986 0.506115198135376 -0.1416688859462738 9.567839151713997e-05 -0.2723492980003357 1 True False
3528.58 3.8007586002349854 -0.8985929650119324 0.9444282690631312 -1.616587301293844 -1.5707925001727503 2.0851731300354004 0.46500810980796814 -0.3835834860801697 0.5262282490730286 -0.13961787521839142 8.127655019052327e-05 -0.29310542345046997 1 True False
3528.6 3.8104939460754395 -0.9064741891673584 0.9554007689105433 -1.619558950463766 -1.5708091894732874 2.079185962677002 0.4910602271556854 -0.39611008763313293 0.5600786805152893 -0.16921700537204742 8.183698082575575e-05 -0.30954620242118835 1 True False
3528.62 3.820474147796631 -0.9147484463504334 0.9666922728167933 -1.6228753528990687 -1.570756737385885 2.072927951812744 0.5145024061203003 -0.4248817265033722 0.5866982340812683 -0.15639205276966095 9.53373164520599e-05 -0.3233392834663391 1 True False
3528.64 3.830740213394165 -0.9233957690051575 0.9788888136493128 -1.6261965237059535 -1.5708006064044397 2.0661470890045166 0.5341318845748901 -0.44327858090400696 0.6133227348327637 -0.17831087112426758 6.758057133993134e-05 -0.34191447496414185 1 True False
3528.66 3.84196138381958 -0.9323321145823975 0.9914792219745081 -1.6297861538329066 -1.570756737385885 2.059150218963623 0.565609335899353 -0.4567547142505646 0.6468299031257629 -0.1730385571718216 5.875612987438217e-05 -0.3513040840625763 1 True False
3528.68 3.853625535964966 -0.9418919247439881 1.0047195593463343 -1.6333676777281703 -1.5707929770099085 2.05185866355896 0.5935686230659485 -0.486103892326355 0.6664388179779053 -0.20778416097164154 6.23478990746662e-05 -0.37008994817733765 1 True False
3528.7 3.8654913902282715 -0.9518322509578248 1.0181940237628382 -1.6373945675291957 -1.5708211104022425 2.044346570968628 0.6026018857955933 -0.5054827332496643 0.6932142376899719 -0.19355860352516174 1.0665213157068365e-09 -0.38965266942977905 1 True False
3528.72 3.8779072761535645 -0.9621599477580567 1.0326159636126917 -1.6412831745543421 -1.5708087126361292 2.0364694595336914 0.635623037815094 -0.5224549770355225 0.7304231524467468 -0.2005244940519333 3.1665979317244746e-17 -0.40447381138801575 1 True False
3528.74 3.890902042388916 -0.9727699917605896 1.0476015249835413 -1.6452380619444789 -1.570829216633932 2.0282187461853027 0.6625557541847229 -0.5367849469184875 0.7549682259559631 -0.19788527488708496 9.401911495055662e-25 -0.40845006704330444 1 True False
3528.7599999999998 3.904395818710327 -0.9837722343257447 1.0627759138690394 -1.6498366794981898 -1.5708091894732874 2.019763469696045 0.6812063455581665 -0.5683294534683228 0.7769250869750977 -0.2177838385105133 2.791511380960569e-32 -0.4300665855407715 1 True False
3528.7799999999997 3.918393611907959 -0.9953845304301758 1.0788348356830042 -1.654088636437887 -1.5708416144000452 2.0109801292419434 0.7126122713088989 -0.585442066192627 0.8133472204208374 -0.2216058075428009 8.288246013957352e-40 -0.45145460963249207 1 True False
3528.7999999999997 3.9328863620758057 -1.007274107342102 1.0951417128192347 -1.6588612995543421 -1.5707886854754847 2.0016863346099854 0.7265292406082153 -0.5999112129211426 0.8361172080039978 -0.23241093754768372 0.0 -0.4637545645236969 1 True False
3528.8199999999997 3.947770595550537 -1.019518570309021 1.112253491078512 -1.6634475193419398 -1.5707362333880823 1.9922959804534912 0.7628405690193176 -0.6254400014877319 0.8685920834541321 -0.23049946129322052 0.0 -0.4755435287952423 1 True False
3528.8399999999997 3.9631478786468506 -1.0321461719325562 1.1300628821002405 -1.6684285602965296 -1.5708168188678187 1.982513666152954 0.7793561220169067 -0.6374650597572327 0.8974993228912354 -0.25680848956108093 0.0 -0.4941982924938202 1 True False
3528.8599999999997 3.979034185409546 -1.0452434581569214 1.1481145063983362 -1.6734544239439906 -1.5707486311541956 1.9725168943405151 0.8137373328208923 -0.6715667843818665 0.9207289218902588 -0.2548368573188782 0.0 -0.5088979005813599 1 True False
3528.8799999999997 3.995637893676758 -1.0588059586337586 1.166837517415182 -1.6788445911803187 -1.5707405249225062 1.9621344804763794 0.8247838020324707 -0.6856133341789246 0.9453774094581604 -0.26368463039398193 0.0 -0.5209649205207825 1 True False
3528.8999999999996 4.012449741363525 -1.0727939766696473 1.186141316090719 -1.6841055355467738 -1.5707653204547327 1.9514894485473633 0.8581088781356812 -0.7026907205581665 0.9770035147666931 -0.28003036975860596 0.0 -0.5429006814956665 1 True False
3528.9199999999996 4.029780387878418 -1.0870097142509003 1.2060797850238245 -1.6897999248900355 -1.5707724730121058 1.9404910802841187 0.8762562274932861 -0.7279601693153381 1.008228063583374 -0.2757472097873688 6.099040916751619e-08 -0.5569800734519958 1 True False
3528.94 4.047676086425781 -1.101724163894989 1.2265499273883265 -1.6954485378661097 -1.5707529226886194 1.9291812181472778 0.9081177711486816 -0.744105875492096 1.031841516494751 -0.298249751329422 1.8108603029901808e-15 -0.5681185722351074 1 True False
3528.96 4.065904140472412 -1.116799072628357 1.2472899595843714 -1.7012764416136683 -1.5707405249225062 1.9177385568618774 0.9079819321632385 -0.7510560750961304 1.04506254196167 -0.28903302550315857 -0.0002427232393529266 -0.5795938372612 1 True False
3528.98 4.084248065948486 -1.1319829684546967 1.2683122793780726 -1.7070075474181117 -1.5707724730121058 1.905907154083252 0.9167107939720154 -0.749912679195404 1.0471012592315674 -0.27235186100006104 -0.0001835094444686547 -0.5775408744812012 1 True False
3529.0 4.102512836456299 -1.1469721955112 1.2891176382647913 -1.7130428753294886 -1.5707929770099085 1.8944779634475708 0.920989453792572 -0.7527691125869751 1.0435839891433716 -0.30673688650131226 -0.0001860462361946702 -0.5786380171775818 1 True False
3529.02 4.121010780334473 -1.1621170502952118 1.3101299444781702 -1.7187038860716761 -1.5708254019366663 1.8829100131988525 0.9117713570594788 -0.7496315240859985 1.0538244247436523 -0.2918284833431244 -0.0001505999534856528 -0.5827990174293518 1 True False
3529.04 4.139211654663086 -1.1770904225162049 1.3310149351703089 -1.7247311077513636 -1.570801083241598 1.8712525367736816 0.9199944734573364 -0.7565440535545349 1.0414084196090698 -0.29453974962234497 -0.0007268468616530299 -0.575251042842865 1 True False
3529.06 4.157515525817871 -1.1922308665565033 1.3520811239825647 -1.7304679356017054 -1.5708211104022425 1.8597062826156616 0.9108511805534363 -0.7502622604370117 1.0495367050170898 -0.2981855869293213 -0.00025837356224656105 -0.5817464590072632 1 True False
3529.08 4.175924301147461 -1.2073647242835541 1.3728464285479944 -1.736319204370016 -1.5707886854754847 1.8481451272964478 0.9175711870193481 -0.754564642906189 1.0409799814224243 -0.30169007182121277 -0.00016290041094180197 -0.5803067088127136 1 True False
3529.1 4.194199085235596 -1.2224496763995667 1.3939488569842737 -1.7420946560301722 -1.5707843939410608 1.8364455699920654 0.9195199608802795 -0.7529189586639404 1.0473359823226929 -0.26737070083618164 -0.0001196182201965712 -0.5768622159957886 1 True False
3529.12 4.212569713592529 -1.2374593776515503 1.4147680441485804 -1.7481428585448207 -1.5707843939410608 1.8250296115875244 0.9123221039772034 -0.7568409442901611 1.0370651483535767 -0.2998313903808594 -0.00011337034811731428 -0.5805094242095947 1 True False
3529.14 4.230810642242432 -1.2526568931392212 1.4357612768756312 -1.7539221249022425 -1.5707529226886194 1.813309907913208 0.9231109023094177 -0.750203549861908 1.0508089065551758 -0.28188592195510864 -7.812250987626612e-05 -0.5842081308364868 1 True False
3529.16 4.249323844909668 -1.2677374643138428 1.4567087332354944 -1.7597547970213832 -1.570768181477682 1.8017616271972656 0.9140176177024841 -0.7566720843315125 1.0416655540466309 -0.29813218116760254 -7.9430676123593e-05 -0.5768275260925293 1 True False
3529.18 4.267444610595703 -1.282757506971695 1.4775965849505823 -1.765742918054098 -1.5707605520831507 1.790186882019043 0.9156485199928284 -0.7467672228813171 1.044305682182312 -0.30083778500556946 -5.796625555376522e-05 -0.5781388282775879 1 True False
3529.2 4.2858686447143555 -1.2978268724730988 1.4985931555377405 -1.771449705163473 -1.5708211104022425 1.77854585647583 0.9200869202613831 -0.7585534453392029 1.0426571369171143 -0.3014892041683197 -6.270928133744746e-05 -0.5762892365455627 1 True False
3529.22 4.304226398468018 -1.3129925590804596 1.5194762388812464 -1.7773767910399378 -1.570801083241598 1.7670308351516724 0.9147925972938538 -0.7501656413078308 1.0476601123809814 -0.27165985107421875 -3.301292235846631e-05 -0.5801573395729065 1 True False
3529.24 4.322487831115723 -1.328081877236702 1.5404546896563929 -1.7832375965514125 -1.5707605520831507 1.7554806470870972 0.9158934950828552 -0.7547279596328735 1.0360356569290161 -0.29982343316078186 -2.9618540793308057e-06 -0.587996244430542 1 True False
3529.2599999999998 4.3408203125 -1.3431813728860398 1.5612905661212366 -1.789018293420309 -1.5707967917071741 1.7438840866088867 0.8934380412101746 -0.7365135550498962 1.0344334840774536 -0.2856270372867584 -8.794013287754046e-14 -0.5667630434036255 1 True False
3529.2799999999997 4.358633041381836 -1.3578174126199265 1.5817716757403772 -1.7945877514281214 -1.5708087126361292 1.7326066493988037 0.8842906355857849 -0.7239207029342651 0.9997194409370422 -0.287456214427948 -2.611020847072599e-21 -0.5545735955238342 1 True False
3529.2999999999997 4.375865459442139 -1.3719716680100937 1.6013439337359827 -1.800305505792135 -1.5708211104022425 1.7216640710830688 0.8495557904243469 -0.7053906917572021 0.9744144678115845 -0.28563135862350464 -7.752352517910259e-29 -0.5411959886550903 1 True False
3529.3199999999997 4.39271354675293 -1.3858560633710404 1.6206963698016565 -1.8054572544493617 -1.5707886854754847 1.7110356092453003 0.8359808325767517 -0.6830518841743469 0.9537811279296875 -0.2601132392883301 -2.3017437104918866e-36 -0.5200989842414856 1 True False
3529.3399999999997 4.409189224243164 -1.399359257226326 1.6393268744098108 -1.8109780750670375 -1.5707653204547327 1.7007864713668823 0.8034103512763977 -0.6645305156707764 0.9185643196105957 -0.25945693254470825 2.218268309661653e-05 -0.510196328163147 1 True False
3529.3599999999997 4.42490291595459 -1.4124366354993363 1.6575163046466272 -1.8158780537047328 -1.5708044211017054 1.6906776428222656 0.7813135981559753 -0.6367911696434021 0.8954745531082153 -0.25661501288414 1.0894917068071663e-05 -0.49888768792152405 1 True False
3529.3799999999997 4.4404473304748535 -1.4250563991120835 1.674950901662008 -1.8208147488036097 -1.57074481645693 1.6809428930282593 0.758623480796814 -0.6297504901885986 0.8662950396537781 -0.23963741958141327 5.497631505591016e-08 -0.47540509700775146 1 True False
3529.3999999999996 4.45524787902832 -1.4372613740018387 1.6921137014972132 -1.8255030117430628 -1.5707925001727503 1.6715259552001953 0.7322471737861633 -0.5973386764526367 0.8403116464614868 -0.22943413257598877 1.6322966521047913e-15 -0.4675252139568329 1 True False
3529.4199999999996 4.469638824462891 -1.4491784808090706 1.7085612455951136 -1.830005785027975 -1.5708487669574183 1.6624805927276611 0.7092796564102173 -0.5807551145553589 0.8110446929931641 -0.20954346656799316 4.8464370220736697e-23 -0.4494037926197052 1 True False
3529.44 4.483561992645264 -1.4606438887170334 1.7241900602923792 -1.8346740208067835 -1.570756737385885 1.6535786390304565 0.685024619102478 -0.5643429756164551 0.7844443917274475 -0.22946138679981232 1.4389508467059819e-30 -0.4277777671813965 1 True False
3529.46 4.4969563484191895 -1.4716543716243287 1.7398951689349573 -1.838661333123678 -1.5708449522601526 1.645121455192566 0.6552454829216003 -0.5394250750541687 0.7558074593544006 -0.18927863240242004 4.272375167367848e-38 -0.4185113310813904 1 True False
3529.48 4.509913444519043 -1.4822654363564034 1.7544177214251917 -1.8431302509703578 -1.5707324186908167 1.6370651721954346 0.640042245388031 -0.5213571190834045 0.7239433526992798 -0.2081020325422287 1.401298464324817e-45 -0.4007457196712494 1 True False
3529.5 4.522271633148193 -1.492626042371132 1.768644158040182 -1.8469778499998988 -1.5707925001727503 1.629185676574707 0.6093856692314148 -0.5039218068122864 0.7002525925636292 -0.17894160747528076 0.0 -0.3885442912578583 1 True False
3529.52 4.534347057342529 -1.5023519706777115 1.782332722340719 -1.8507191143431605 -1.5707977453814905 1.6215732097625732 0.5913895964622498 -0.4783102869987488 0.6742925643920898 -0.1794811636209488 0.0 -0.367473840713501 1 True False
3529.54 4.545698642730713 -1.5119537760368367 1.7955105940448206 -1.8544608555235804 -1.570784870778219 1.6143205165863037 0.5596703886985779 -0.4644670784473419 0.6376944184303284 -0.19419345259666443 0.0 -0.35495704412460327 1 True False
3529.56 4.556699752807617 -1.5207850945046921 1.8078768889056605 -1.8580180607237757 -1.5708406607257288 1.6074219942092896 0.5364256501197815 -0.4391513764858246 0.6075306534767151 -0.176824688911438 0.0 -0.3390282988548279 1 True False
3529.58 4.567263603210449 -1.5295989003828545 1.8200529257403772 -1.8611074886717738 -1.5707891623126429 1.6008031368255615 0.5117863416671753 -0.4235178232192993 0.5903563499450684 -0.17272654175758362 0.0 -0.32835033535957336 1 True False
3529.6 4.577060699462891 -1.5378477101079007 1.83144456544985 -1.8645702801146449 -1.570784870778219 1.5943702459335327 0.4912767708301544 -0.3952321410179138 0.5550888180732727 -0.15123043954372406 0.0 -0.308388888835907 1 True False
3529.62 4.586806774139404 -1.5455305588296433 1.8421943823443812 -1.8675476513304652 -1.5708211104022425 1.588396430015564 0.46698325872421265 -0.3804057538509369 0.5306329727172852 -0.14535224437713623 0.0 -0.2934384346008301 1 True False
3529.64 4.595841884613037 -1.5529358398965378 1.8525102774249476 -1.8704854450621546 -1.570756737385885 1.5827162265777588 0.4342215955257416 -0.3624386489391327 0.5089223980903625 -0.14180195331573486 0.0 -0.2775600552558899 1 True False
3529.66 4.604085922241211 -1.559923132216074 1.8625367323504847 -1.8730136356749476 -1.5708368460284632 1.5773614645004272 0.4158228039741516 -0.34124618768692017 0.4739125669002533 -0.12326843291521072 0.0 -0.26403093338012695 1 True False
3529.68 4.612294673919678 -1.5666770770079275 1.871453110371725 -1.8758441410460414 -1.5708168188678187 1.572263240814209 0.3970077931880951 -0.3242170214653015 0.440503865480423 -0.14184829592704773 0.0 -0.24909847974777222 1 True False
3529.7 4.619946002960205 -1.572951456109518 1.8799708525287073 -1.878233095208639 -1.570801083241598 1.5674432516098022 0.36030539870262146 -0.3022722899913788 0.42205893993377686 -0.11297396570444107 0.0 -0.23585227131843567 1 True False
3529.72 4.626937389373779 -1.578653474847311 1.8882659117328089 -1.8802362881102503 -1.5708048979388636 1.5630234479904175 0.34104499220848083 -0.27661001682281494 0.39873987436294556 -0.10358922928571701 0.0 -0.21854177117347717 1 True False
3529.74 4.63344144821167 -1.5839625797667445 1.8958290258990687 -1.8824249706664027 -1.5708335081683558 1.5588343143463135 0.31901663541793823 -0.2616630792617798 0.3614497482776642 -0.11788460612297058 0.0 -0.20024386048316956 1 True False
3529.7599999999998 4.639540672302246 -1.5891558132567347 1.902424160634176 -1.884559770623678 -1.5708282629596155 1.554978609085083 0.2970430552959442 -0.24584923684597015 0.32543066143989563 -0.0944828912615776 0.0 -0.18299488723278046 1 True False
3529.7799999999997 4.645277976989746 -1.5938226185240687 1.9088390509234827 -1.8862563572325648 -1.5707648436175745 1.551480770111084 0.2680719494819641 -0.21599164605140686 0.3127875328063965 -0.07845985889434814 0.0 -0.16961190104484558 1 True False
3529.7999999999997 4.650419235229492 -1.597912927667135 1.915088955556051 -1.8876892528929652 -1.570784870778219 1.548223853111267 0.23985619843006134 -0.19378571212291718 0.2886723577976227 -0.07911401242017746 0.0 -0.1538645327091217 1 True False
3529.8199999999997 4.654996871948242 -1.6017190418639125 1.9203560988055628 -1.889364858666891 -1.5708335081683558 1.5452975034713745 0.21743673086166382 -0.17851349711418152 0.2441975623369217 -0.0788310095667839 0.0 -0.13669924437999725 1 True False
3529.8399999999997 4.659024715423584 -1.60514559368276 1.9248517195331019 -1.8907424412169398 -1.5707805792437952 1.542708396911621 0.1928871124982834 -0.160764679312706 0.21754814684391022 -0.058301907032728195 0.0 -0.12698733806610107 1 True False
3529.8599999999997 4.662683963775635 -1.6080733738341273 1.9290011564837855 -1.8918477497496546 -1.570801083241598 1.5404891967773438 0.17162556946277618 -0.13835565745830536 0.2008327841758728 -0.05554826185107231 0.0 -0.1100585088133812 1 True False
3529.8799999999997 4.665839672088623 -1.6106258831419886 1.932758633290426 -1.8927303753294886 -1.5707810560809534 1.5383621454238892 0.14846637845039368 -0.1222735270857811 0.17113496363162994 -0.04577932879328728 0.0 -0.09167627990245819 1 True False
3529.8999999999996 4.668536186218262 -1.6128045521178187 1.935681168233053 -1.8936673603453578 -1.5708168188678187 1.5367202758789062 0.12118444591760635 -0.10795570909976959 0.13753058016300201 -0.04216242954134941 0.0 -0.07781203091144562 1 True False
3529.9199999999996 4.670765399932861 -1.614734788934225 1.938080135975973 -1.894369741479391 -1.5707882086383265 1.535356879234314 0.10149920731782913 -0.08368685096502304 0.11318396776914597 -0.03342847153544426 0.0 -0.06245232746005058 1 True False
3529.94 4.672394752502441 -1.6161095104613246 1.9400575796710413 -1.894900461236471 -1.5709050337420862 1.534253478050232 0.07487180083990097 -0.06008566543459892 0.08570542931556702 -0.023769520223140717 0.0 -0.045248936861753464 1 True False
3529.96 4.673574924468994 -1.6170550785460414 1.941519562398092 -1.8953243694701136 -1.570824925099508 1.5335173606872559 0.04917849972844124 -0.0406096912920475 0.06023296341300011 -0.01753511279821396 0.0 -0.03231137990951538 1 True False
3529.98 4.674288749694824 -1.6177088222899378 1.9423335234271448 -1.895531793633932 -1.5707767645465296 1.5330758094787598 0.025120411068201065 -0.020954404026269913 0.027728963643312454 -0.0052022915333509445 0.0 -0.015553774312138557 1 True False
3530.0 4.674549102783203 -1.6178423366942347 1.9425438086139124 -1.8955193958678187 -1.5708335081683558 1.5329184532165527 -0.008309662342071533 0.0071868253871798515 -0.004607291892170906 -7.316114988498157e-06 0.0 0.0033406661823391914 1 True False
3530.02 4.674420356750488 -1.6177002392210902 1.9427555243121546 -1.8960019550719203 -1.5707925001727503 1.5330055952072144 -0.0032669364009052515 0.013749329373240471 0.018615083768963814 -0.03998107835650444 0.0 6.34909447398968e-05 1 True False
3530.04 4.6744608879089355 -1.6173950634398402 1.9433272520648401 -1.8967606029906214 -1.5707925001727503 1.5329680442810059 -9.496795572161432e-10 0.019382212311029434 0.03404134511947632 -0.04723186418414116 0.0 -2.3426273074167447e-11 1 True False
3530.06 4.674439907073975 -1.6168910465636195 1.9442103544818323 -1.8981105289854945 -1.5708044211017054 1.5329139232635498 -0.00012949192023370415 0.030444186180830002 0.05053228512406349 -0.07821495085954666 0.0 -6.955472257744016e-19 1 True False
3530.08 4.674468517303467 -1.616227766076559 1.945395294819967 -1.9000894031920375 -1.5707805792437952 1.5329769849777222 -7.088060376385651e-17 0.041609179228544235 0.06770986318588257 -0.10531622916460037 0.0 -0.00016232539201155305 1 True False
3530.1 4.674479961395264 -1.6152378521361292 1.9470446745501917 -1.9026333294310511 -1.5708449522601526 1.5329965353012085 0.000668174703605473 0.0547226257622242 0.08746668696403503 -0.148077130317688 0.0 -0.00029033111059106886 1 True False
3530.12 4.67445182800293 -1.6140920124449671 1.9489553610431116 -1.9058624706664027 -1.5708335081683558 1.532963514328003 0.0003553504357114434 0.0657745972275734 0.10130657255649567 -0.1646192967891693 0.0 -0.00032052461756393313 1 True False
3530.14 4.6744465827941895 -1.6126591167845667 1.9512766043292444 -1.909356256524557 -1.5708254019366663 1.5329352617263794 0.0010099435457959771 0.07452457398176193 0.11830174922943115 -0.19296151399612427 0.0 -0.0003495338896755129 1 True False
3530.16 4.67446231842041 -1.6110078297057093 1.9536927382098597 -1.913666387597555 -1.5707967917071741 1.5329769849777222 0.0008910619071684778 0.09002864360809326 0.1336580365896225 -0.2219896912574768 0.0 -0.0004107868007849902 1 True False
3530.18 4.674495697021484 -1.6092220745482386 1.9566963354693812 -1.9184290371336878 -1.5708006064044397 1.5329488515853882 0.0006293129408732057 0.10052169859409332 0.1593785285949707 -0.25803831219673157 0.0 -0.0003904894401784986 1 True False
3530.2 4.674527645111084 -1.6070743999876917 1.9599898497210901 -1.9236299000182093 -1.570784870778219 1.5329769849777222 0.0004894105950370431 0.11047700047492981 0.173712819814682 -0.2896415889263153 1.1153414346612434e-12 -0.00036039683618582785 1 True False
3530.22 4.674544811248779 -1.6047259769835414 1.9635914007769983 -1.9295579395689906 -1.5707967917071741 1.532899260520935 0.0002754230226855725 0.11832629889249802 0.19052356481552124 -0.2987843155860901 3.3115487583441425e-20 -0.00026307793450541794 1 True False
3530.24 4.674474716186523 -1.602304597894186 1.967583958302633 -1.9359995327391566 -1.5708087126361292 1.5329577922821045 0.00015382177662104368 0.13097502291202545 0.2061123251914978 -0.3262706696987152 0.00015347680891864002 -0.00015209458069875836 1 True False
3530.2599999999998 4.674495697021484 -1.5995618305602015 1.971842114125387 -1.943188806573385 -1.5707686583148401 1.5329201221466064 0.00013756270345766097 0.13751564919948578 0.22149069607257843 -0.35459259152412415 0.00013944671081844717 -0.00011366246326360852 1 True False
3530.2799999999997 4.674561023712158 -1.5966516933836878 1.9767072836505335 -1.9506575069823207 -1.5708368460284632 1.5329275131225586 0.00012608282850123942 0.149826779961586 0.2436460703611374 -0.37915152311325073 0.0001292943488806486 -9.073966066353023e-05 1 True False
3530.2999999999997 4.674511909484863 -1.5935527286925257 1.9818132559405726 -1.958700796166891 -1.5707772413836878 1.5329201221466064 0.00010632065095705912 0.16076599061489105 0.2544013261795044 -0.4167051315307617 0.00016867122030816972 -9.061054151970893e-05 1 True False
3530.3199999999997 4.674549102783203 -1.5901314220824183 1.9870780150042933 -1.9675270519652308 -1.5708296934710901 1.5328902006149292 9.09686932573095e-05 0.16720262169837952 0.2697499394416809 -0.45566272735595703 0.0001288754283450544 -7.759287109365687e-05 1 True False
3530.3399999999997 4.674561023712158 -1.586672922173971 1.9925149122821253 -1.9767972431578578 -1.5708172957049769 1.5329532623291016 9.084667544811964e-05 0.17964252829551697 0.290732204914093 -0.47096630930900574 0.00010404179192846641 -5.68457180634141e-05 1 True False
3530.3599999999997 4.674511909484863 -1.5829154453673304 1.9985812346087855 -1.9864164791502894 -1.5707967917071741 1.5329320430755615 8.066840382525697e-05 0.19307969510555267 0.31335651874542236 -0.4990607500076294 8.723328210180625e-05 -5.951477578491904e-05 1 True False
3530.3799999999997 4.674482345581055 -1.5788666210570277 2.0050786177264612 -1.996840616265768 -1.570801083241598 1.5329605340957642 7.39828756195493e-05 0.20304915308952332 0.33015650510787964 -0.5309267044067383 8.761596109252423e-05 -6.48873186084864e-12 1 True False
3530.3999999999996 4.674514293670654 -1.5748430691161097 2.01188832918276 -2.0078283749022425 -1.5707805792437952 1.5329110622406006 7.590959285153076e-05 0.21423868834972382 0.34079378843307495 -0.5680853724479675 3.219045902369544e-05 -1.9265636172304115e-19 1 True False
3530.4199999999996 4.674561023712158 -1.5702756537105707 2.0188773314105433 -2.0193072758116664 -1.5707486311541956 1.532936453819275 2.373782947984182e-09 0.22767813503742218 0.3625841736793518 -0.5695069432258606 4.095986514585093e-05 -5.720141742508342e-27 1 True False
3530.44 4.674499988555908 -1.5656868841363867 2.0262306372271937 -2.031229158441061 -1.5708053747760218 1.5329245328903198 1.8553625170553954e-29 0.21980534493923187 0.35890132188796997 -0.6060916185379028 3.556446245056577e-05 -1.6983613553189932e-34 1 True False
3530.46 4.674556732177734 -1.561254770760872 2.033240620289938 -2.0426837406554164 -1.570813004170553 1.5329724550247192 9.448519995203242e-05 0.21598680317401886 0.35026198625564575 -0.5734233856201172 3.142504647257738e-05 -5.0432731731050166e-42 1 True False
3530.48 4.6744866371154785 -1.5571041771075507 2.0400951544391077 -2.0538083515562953 -1.5707929770099085 1.532936453819275 7.808917871443555e-05 0.20266658067703247 0.3355208933353424 -0.5344119071960449 -1.9173619875800796e-05 -0.0 1 True False
3530.5 4.674489498138428 -1.5530691177449008 2.046664539967672 -2.0641819439330042 -1.5707319418536585 1.53296959400177 6.654214666923508e-05 0.19522058963775635 0.3160828649997711 -0.5145450830459595 -1.5813153368071653e-05 -0.0 1 True False
3530.52 4.67446231842041 -1.5492329404554148 2.0525978247271937 -2.074184080163473 -1.570801083241598 1.5329442024230957 5.7970119087258354e-05 0.1839507669210434 0.2964792251586914 -0.4831661581993103 -1.3449845937429927e-05 -0.0 1 True False
3530.54 4.674556732177734 -1.5458338440260668 2.058230225239889 -2.0835048160948695 -1.5708406607257288 1.5329442024230957 5.1354614697629586e-05 0.17716269195079803 0.27854230999946594 -0.4605715870857239 -1.1701133189490065e-05 -1.6602160618495176e-11 1 True False
3530.56 4.674572944641113 -1.542357313712575 2.063582245503561 -2.092332979241842 -1.5708048979388636 1.532990574836731 4.17879909836849e-19 0.17258383333683014 0.2658194899559021 -0.43095889687538147 -1.0354848200222477e-05 -4.929332121386588e-19 1 True False
3530.58 4.67452335357666 -1.5391050775400181 2.0688465277301233 -2.1005240879454554 -1.570784870778219 1.5328947305679321 3.26617448661757e-39 0.15389232337474823 0.24662524461746216 -0.3964722156524658 -1.274098049286465e-10 -1.4635633144720413e-26 1 True False
3530.6 4.67450475692749 -1.5361374963871022 2.0736735502826136 -2.108194967309469 -1.570801083241598 1.5329561233520508 0.0 0.14043393731117249 0.2272486537694931 -0.36809492111206055 -3.782912421754566e-18 -4.345451344217193e-34 1 True False
3530.62 4.674499988555908 -1.5333509159139176 2.0780256430255335 -2.1152354679503382 -1.570772949849264 1.532936453819275 0.0 0.1300969421863556 0.2087363749742508 -0.3375805914402008 -1.1231808964107753e-25 -1.290175496103859e-41 1 True False
3530.64 4.674495697021484 -1.5309224885753174 2.082003418599264 -2.1218120060362757 -1.570772949849264 1.5329110622406006 0.0 0.1165841817855835 0.1885509341955185 -0.3147910535335541 -3.3348238413530734e-33 -0.0 1 True False
3530.66 4.674519062042236 -1.528527309452631 2.0855849424945276 -2.127822061578268 -1.5707891623126429 1.5329066514968872 0.0 0.10689075291156769 0.17724798619747162 -0.2864110469818115 -9.901434819072725e-41 -0.0 1 True False
3530.68 4.674489498138428 -1.5265274059823533 2.088966194783346 -2.13329615215444 -1.570772949849264 1.532899260520935 0.0 0.09679380804300308 0.16308185458183289 -0.2632412314414978 -0.0 -0.0 1 True False
3530.7 4.6745076179504395 -1.5246919591775914 2.0918925444232386 -2.1380793056883753 -1.570772949849264 1.5329110622406006 0.0 0.08852927386760712 0.14149127900600433 -0.2398999035358429 -0.0 -0.0 1 True False
3530.72 4.674530982971191 -1.5230194602957745 2.0945337454425257 -2.142494340936178 -1.5707967917071741 1.5328946113586426 0.0 0.07701699435710907 0.1277235746383667 -0.1924847960472107 -0.0 -0.0 1 True False
3530.74 4.674499988555908 -1.521602177327015 2.0969718138324183 -2.1462513409056605 -1.5707572142230433 1.5329036712646484 0.0 0.0678355023264885 0.11339440941810608 -0.17685812711715698 -0.0 -0.0 1 True False
3530.7599999999998 4.674495697021484 -1.5203239892474194 2.0989273230182093 -2.149357934991354 -1.570772949849264 1.5329487323760986 0.0 0.05664796754717827 0.09067412465810776 -0.1414349526166916 -0.0 -0.0 1 True False
3530.7799999999997 4.674543380737305 -1.5192921210876484 2.100602451954977 -2.152088304559225 -1.570824925099508 1.5329127311706543 0.0 0.04378742724657059 0.07567105442285538 -0.13005511462688446 -0.0 -0.0 1 True False
3530.7999999999997 4.674530982971191 -1.5184751276722928 2.101957146321432 -2.1541363201537074 -1.5707691351519983 1.5328750610351562 0.0 0.03466445207595825 0.054002903401851654 -0.0885871946811676 -0.0 -0.0 1 True False
3530.8199999999997 4.674516201019287 -1.517913532709219 2.102849785481588 -2.155637403527731 -1.570784870778219 1.5329290628433228 0.0 0.024325840175151825 0.035042017698287964 -0.0605025440454483 -0.0 -0.0 1 True False
3530.8399999999997 4.674540042877197 -1.517590456908085 2.10341722169985 -2.156623502770895 -1.5707648436175745 1.5329036712646484 0.0 0.014968076720833778 0.02123614028096199 -0.037365980446338654 -0.0 -0.0 1 True False
3530.8599999999997 4.6745524406433105 -1.5173970025828858 2.1037243048297327 -2.156982561151022 -1.5707767645465296 1.532915711402893 1.997059946600595e-22 0.0003024924953933805 0.0025593892205506563 -0.007701293099671602 -0.0 -0.0 1 True False
3530.8799999999997 4.674530982971191 -1.517471009199955 2.1036132017718714 -2.156914850274557 -1.5707276503192347 1.5329110622406006 1.5610464892578462e-42 -3.206695672886006e-11 -4.991580926372308e-09 -0.0002653517003636807 -0.0 -0.0 1 True False
3530.8999999999996 4.674527645111084 -1.5174101379564782 2.103659454976217 -2.1569067440428675 -1.570772949849264 1.5329140424728394 0.0 0.0003062120813410729 -0.00041302034514956176 -0.0005895518115721643 -0.0 -0.0 1 True False
3530.9199999999996 4.674516201019287 -1.5175004762462159 2.1036837736712855 -2.156910558740133 -1.5707648436175745 1.5329532623291016 0.0 0.0002415261697024107 0.00016009918181225657 -0.00015819921100046486 -0.0 -0.0 1 True False
3530.94 4.674495697021484 -1.5174546998790284 2.103635613118307 -2.156926294366354 -1.570784870778219 1.532957673072815 0.0 0.00010840695904335007 6.699548248434439e-05 -0.0014559393748641014 -0.0 -0.0 1 True False
3530.96 4.674571514129639 -1.5173970025828858 2.1036837736712855 -2.1568900547423304 -1.5707691351519983 1.5329082012176514 0.0 0.00020136918465141207 7.323302270378917e-05 -0.00038731881068088114 -0.0 -0.0 1 True False
3530.98 4.674527645111084 -1.5174459268203755 2.1036551634417933 -2.156950136224264 -1.5708006064044397 1.5328917503356934 0.0 0.0001525948609923944 5.7607143389759585e-05 -0.0011693458072841167 -0.0 -0.0 1 True False
3531.0 4.674514293670654 -1.5174397204867383 2.1036251227008265 -2.15694584468984 -1.5707810560809534 1.5328947305679321 0.0 0.00027846486773341894 6.329819007078186e-05 -0.0006963960477150977 -0.0 -0.0 1 True False
3531.02 4.674498558044434 -1.5174145598760624 2.1036012808429163 -2.157058378259176 -1.5708087126361292 1.5329275131225586 0.0 0.00023167097242549062 5.3836141887586564e-05 -0.002615842502564192 -0.0 -0.0 1 True False
3531.04 4.674526691436768 -1.5174340580454846 2.1037119070636194 -2.157002111474508 -1.5708048979388636 1.5329082012176514 0.0 5.8680128859123215e-05 5.552935181185603e-05 -0.0008687486406415701 -0.0 -0.0 1 True False
3531.06 4.67452335357666 -1.5173859943500538 2.1036298910724085 -2.157045980493063 -1.5707891623126429 1.5329397916793823 0.0 0.0001420661574229598 5.180185689823702e-05 -0.0003875863621942699 -0.0 -0.0 1 True False
3531.08 4.674495697021484 -1.5174384017339726 2.1036341826068323 -2.1570822201170863 -1.5708168188678187 1.5329082012176514 0.0 0.0001728776696836576 5.143360613146797e-05 -0.0002252820850117132 -0.0 -0.0 1 True False
3531.1 4.67445707321167 -1.5174189557186146 2.103699509297506 -2.1570502720274867 -1.5708091894732874 1.5329487323760986 0.0 0.00019958113261964172 2.5157469423636725e-13 -0.00015921780141070485 -0.0 -0.0 1 True False
3531.12 4.674514293670654 -1.517439679508545 2.1036794821368616 -2.1570340595641078 -1.5708373228656214 1.5329320430755615 -8.499587752369697e-13 0.00019146619888488203 3.542611869304895e-25 -0.0001229565095854923 -0.0 -0.0 1 True False
3531.14 4.67452335357666 -1.5173625324717541 2.1036298910724085 -2.1570264301695765 -1.5708006064044397 1.532899260520935 -6.643329098875205e-33 0.00018795682990457863 4.988617152010246e-37 -0.00011684123455779627 -2.8773442295459972e-08 -0.0 1 True False
3531.16 4.6745686531066895 -1.5174145859530945 2.1036861578570765 -2.1570664844908656 -1.5708087126361292 1.5328829288482666 0.0 0.0001655053929425776 0.0 -9.856061660684645e-05 -8.543093308481292e-16 -0.0 1 True False
3531.18 4.6745076179504395 -1.5174277660301705 2.1036909262286585 -2.1570621929564417 -1.5707967917071741 1.532903790473938 0.0 0.0001154775163740851 0.0 -9.7401745733805e-05 -2.5365216562206425e-23 -0.0 1 True False
3531.2 4.674543380737305 -1.5173948568156739 2.1036370436297815 -2.157030244866842 -1.5707767645465296 1.5329036712646484 0.0 0.00011027490108972415 7.008596730884165e-05 -8.579494897276163e-05 -7.531160028034674e-31 -0.0 1 True False
3531.22 4.674532413482666 -1.517414578502514 2.1036255995379847 -2.157045980493063 -1.5707967917071741 1.5328705310821533 0.0 9.157442400464788e-05 6.064127592253499e-05 -1.8470322515895532e-07 -2.2360687751046825e-38 -0.0 1 True False
3531.24 4.6745076179504395 -1.5173712533763428 2.103644673024313 -2.157030244866842 -1.5707686583148401 1.5329290628433228 0.0 7.82969145802781e-05 6.412780930986628e-05 -5.484004279198351e-15 -0.0 -0.0 1 True False
3531.2599999999998 4.674490928649902 -1.517427773480751 2.103616539631979 -2.1570497951903285 -1.5708044211017054 1.532899260520935 0.0 6.838211265858263e-05 2.1463373300889543e-09 -1.6282499291432399e-22 -0.0 -0.0 1 True False
3531.2799999999997 4.6744866371154785 -1.5174023148468514 2.1036623159991663 -2.1570502720274867 -1.5708087126361292 1.5328857898712158 0.0 6.0696118453051895e-05 3.0224177918664618e-21 -4.834419693519461e-30 -0.0 -0.0 1 True False
3531.2999999999997 4.674498558044434 -1.5173948568156739 2.1036580244647425 -2.1570784054198207 -1.5707724730121058 1.5329651832580566 0.0 2.7625712391454726e-05 4.256091824871117e-33 -1.4353827513400368e-37 -0.0 -0.0 1 True False
3531.3199999999997 4.674527645111084 -1.5173582148602982 2.1036537329303187 -2.157030244866842 -1.570801083241598 1.5329110622406006 0.0 2.3950015020091087e-05 5.605193857299268e-45 -4.203895392974451e-45 -0.0 -0.0 1 True False
3531.3399999999997 4.674544811248779 -1.517386020427086 2.1036298910724085 -2.157045980493063 -1.5707686583148401 1.5329065322875977 0.0 2.1137600924703293e-05 0.0 -0.0 -0.0 -0.0 1 True False
3531.3599999999997 4.674570083618164 -1.5174321506968518 2.1036704222308558 -2.1570664844908656 -1.570813004170553 1.5329365730285645 0.0 1.7771315357338092e-14 0.0 -0.0 -0.0 -0.0 1 True False
3531.3799999999997 4.674514293670654 -1.5173979227295895 2.1036747137652796 -2.1571065388121546 -1.5707891623126429 1.5329275131225586 0.0 1.3890169303419058e-34 0.0 -0.0 -0.0 -0.0 1 True False
3531.3999999999996 4.67452335357666 -1.5174233999899407 2.1037119070636194 -2.157030244866842 -1.5707805792437952 1.5329110622406006 -1.29876431226679e-22 -1.6886442608665675e-05 0.0 -0.0 -0.0 -0.0 1 True False
3531.4199999999996 4.674532413482666 -1.51741552845154 2.1036418120013636 -2.1570540867247523 -1.570784870778219 1.5329697132110596 -1.0145400881711676e-42 -1.4156381666907691e-06 0.0 -0.0 -0.0 -0.0 1 True False
3531.44 4.67452335357666 -1.517390490775444 2.103703323994772 -2.1570340595641078 -1.5707767645465296 1.5329396724700928 0.0 -1.1064713279165574e-26 0.0 -0.0 -0.0 -0.0 1 True False
3531.46 4.67453670501709 -1.517457229351141 2.1036489645587366 -2.15708651165151 -1.5707925001727503 1.5329397916793823 0.0 -0.0 0.0 -0.0 -0.0 -0.0 1 True False
3531.48 4.674498558044434 -1.5173537370613595 2.103666130696432 -2.1570307217040003 -1.5708211104022425 1.5329771041870117 9.49309287534561e-06 0.0 0.0 -0.0 -0.0 -0.0 1 True False
3531.5 4.674543380737305 -1.5174068112722416 2.1036861578570765 -2.157053609887594 -1.5707767645465296 1.5329066514968872 1.535647243144922e-05 0.0 0.0 -0.0 -0.0 -0.0 1 True False
3531.52 4.674511909484863 -1.5173545864275475 2.103661839162008 -2.157018323937887 -1.5708091894732874 1.5329275131225586 1.3118166862113867e-05 0.0 0.0 -0.0 -0.0 -0.0 1 True False
3531.54 4.6745524406433105 -1.5174034845880051 2.1036623159991663 -2.157045980493063 -1.5707767645465296 1.5329320430755615 1.1449362318671774e-05 0.0 0.0 -0.0 -0.0 -0.0 1 True False
3531.56 4.674540042877197 -1.5173980084112664 2.1036985556231897 -2.157045980493063 -1.570784870778219 1.5329442024230957 1.0157231372431852e-05 0.0 8.932018319418589e-12 -0.0 -0.0 -0.0 1 True False
3531.58 4.674490928649902 -1.5174111437848588 2.1036461035357874 -2.1570426426329554 -1.570784870778219 1.5329275131225586 8.155904409415799e-22 0.0 1.2577838086559e-23 -0.0 -0.0 -0.0 1 True False
3531.6 4.674527645111084 -1.517390490775444 2.1036909262286585 -2.157058378259176 -1.5707686583148401 1.532899260520935 6.374506714213593e-42 0.0 1.771178839467774e-35 -0.0 -0.0 -0.0 1 True False
3531.62 4.6744866371154785 -1.5173948568156739 2.1036580244647425 -2.1570378742613734 -1.570756737385885 1.5329561233520508 0.0 0.0 0.0 -0.0 -0.0 -0.0 1 True False
3531.64 4.674516201019287 -1.517406777744629 2.1036375204669397 -2.1570664844908656 -1.57074481645693 1.5329320430755615 0.0 0.0 0.0 -0.0 -0.0 -0.0 1 True False
3531.66 4.6745476722717285 -1.5173829023591061 2.10362416902651 -2.1570822201170863 -1.5708211104022425 1.5329126119613647 0.0 0.0 0.0 -0.0 -0.0 -0.0 1 True False
3531.68 4.674490928649902 -1.5174189370921631 2.1037028471576136 -2.157018323937887 -1.5708487669574183 1.5329487323760986 0.0 0.0 0.0 -0.0 -0.0 -0.0 1 True False
3531.7 4.674540042877197 -1.5173757050982495 2.1036704222308558 -2.1570822201170863 -1.570784870778219 1.5329515933990479 0.0 0.0 0.0 -0.0 -0.0 -0.0 1 True False
3531.72 4.674543380737305 -1.5173904945007344 2.103699509297506 -2.157074113885397 -1.5707891623126429 1.5329517126083374 0.0 0.0 0.0 -0.0 -0.0 -0.0 1 True False
3531.74 4.674490928649902 -1.5174189370921631 2.1036704222308558 -2.157045980493063 -1.5707767645465296 1.5329561233520508 0.0 0.0 0.0 -1.7075421965273563e-06 -0.0 -0.0 1 True False
3531.7599999999998 4.674488067626953 -1.517476574783661 2.103638474141256 -2.157018323937887 -1.5707967917071741 1.5329396724700928 0.0 0.0 -1.691790748736821e-05 0.008096876554191113 -0.0 0.00032224340247921646 1 True False
3531.7799999999997 4.674474716186523 -1.517380067413189 2.1036976019488733 -2.157058378259176 -1.5708368460284632 1.5329307317733765 0.0 -9.274320572931474e-17 -2.119762143593107e-09 -0.004709864966571331 -0.0 0.0002832025638781488 1 True False
3531.7999999999997 4.674502849578857 -1.5173829358867188 2.1036837736712855 -2.1570502720274867 -1.5707891623126429 1.5330028533935547 0.0 -7.2488653881687916e-37 -2.984994331496973e-21 0.00011597431148402393 -0.0 0.00013263963046483696 1 True False
3531.8199999999997 4.674540042877197 -1.5173785735717793 2.103706185017721 -2.157006403008932 -1.570768181477682 1.5329680442810059 0.0 3.516180731821805e-05 -4.2033936784397846e-33 2.4019336866687446e-11 -0.0 8.892820915207267e-05 1 True False
3531.8399999999997 4.674532413482666 -1.517415502374508 2.1036704222308558 -2.157058378259176 -1.5707648436175745 1.5329651832580566 0.0 2.5723865312160532e-12 -5.605193857299268e-45 7.131556779677593e-19 -0.0 -5.242145562078804e-05 1 True False
3531.8599999999997 4.67452335357666 -1.5173625958016892 2.1036904493915003 -2.157034536401266 -1.5708044211017054 1.532899260520935 0.0 2.0105927209533033e-32 -0.0 2.1174231557905166e-26 -0.0 -4.05962455261033e-05 1 True False
3531.8799999999997 4.67452335357666 -1.5173860688558598 2.103633228932516 -2.1570502720274867 -1.5708168188678187 1.5329442024230957 0.0 0.0 -0.0 6.286819753863548e-34 -0.0 -3.312463013571687e-05 1 True False
3531.8999999999996 4.674549102783203 -1.51743974283848 2.1036580244647425 -2.1570664844908656 -1.5707925001727503 1.5329185724258423 0.0 0.0 -0.0 1.8666696843270888e-41 -0.0 -2.797598426695913e-05 1 True False
3531.9199999999996 4.674527645111084 -1.5173872013441105 2.103677574788229 -2.1570621929564417 -1.5708048979388636 1.5329365730285645 0.0 0.0 -0.0 0.0 -0.0 -3.29857793985866e-05 1 True False
3531.94 4.674556732177734 -1.5173904945007344 2.1036580244647425 -2.1570502720274867 -1.570829216633932 1.5329724550247192 0.0 0.0 -0.0 0.0 -0.0 -3.201269282726571e-05 1 True False
3531.96 4.67452335357666 -1.51743974283848 2.103661839162008 -2.157058378259176 -1.5707767645465296 1.5329201221466064 0.0 0.0 -0.0 0.0 -0.0 -2.9142380952862368e-08 1 True False
3531.98 4.674519062042236 -1.5174189706197758 2.103666130696432 -2.1570383510985316 -1.5707648436175745 1.5329352617263794 0.0 0.0 -0.0 0.0 -0.0 -8.652634256198178e-16 1 True False
3532.0 4.674540042877197 -1.5173905094018956 2.1036704222308558 -2.157034536401266 -1.5707843939410608 1.5329021215438843 0.0 0.0 -0.0 0.0 -0.0 -2.5690451291654564e-23 1 True False
3532.02 4.674535751342773 -1.5174527180245896 2.1036747137652796 -2.1570621929564417 -1.5707886854754847 1.532936453819275 0.0 0.0 -0.0 0.0 -0.0 -3.245736734935889e-10 1 True False
3532.04 4.674519062042236 -1.5173121479204674 2.1036623159991663 -2.1570502720274867 -1.5708087126361292 1.5329352617263794 0.0 0.0 -0.0 0.0 -0.0 -1.182959702417108e-10 1 True False
3532.06 4.674514293670654 -1.5173992079547425 2.1037266890155237 -2.157042165795797 -1.5708406607257288 1.5329651832580566 0.0 0.0 -0.0 0.0 -0.0 -3.512314346428256e-18 1 True False
3532.08 4.67452335357666 -1.5174154800227662 2.103694740925924 -2.157045980493063 -1.5707891623126429 1.5329229831695557 0.0 0.0 -0.0 1.8968677295561065e-08 -0.0 -1.0428375086257947e-25 1 True False
3532.1 4.67456579208374 -1.5174023409238835 2.10362416902651 -2.157030244866842 -1.570801083241598 1.532915711402893 0.0 0.0 -0.0 5.631971300083902e-16 -0.0 -3.096279303372768e-33 1 True False
3532.12 4.6745076179504395 -1.5174363155714055 2.103677574788229 -2.157030244866842 -1.570784870778219 1.5329515933990479 0.0 0.0 -0.0 1.6721830129046274e-23 -0.0 -9.19307844535653e-41 1 True False
3532.14 4.6745524406433105 -1.5174111288836976 2.1037266890155237 -2.1570621929564417 -1.5708006064044397 1.5329724550247192 0.0 0.0 -0.0 4.964862138720604e-31 -0.0 -0.0 1 True False
3532.16 4.674495697021484 -1.5173872013441105 2.1036647001849573 -2.1570621929564417 -1.5707767645465296 1.532984733581543 0.0 0.0 -0.0 1.474112314738524e-38 -0.0 -0.0 1 True False
3532.18 4.6745476722717285 -1.5173756901970883 2.1036375204669397 -2.1571060619749964 -1.5708492437945765 1.532936453819275 0.0 0.0 -6.1925109700994e-17 0.0 -0.0 -0.0 1 True False
3532.2 4.674565315246582 -1.5173538488200684 2.1036704222308558 -2.1570621929564417 -1.5707886854754847 1.5329442024230957 0.0 0.0 -4.6639233914902434e-05 0.0 -0.0 -0.0 1 True False
3532.22 4.67452335357666 -1.5173626367798825 2.1037071386920374 -2.157022615472311 -1.5708211104022425 1.5329275131225586 0.0 0.0 -3.071755054406822e-05 0.0 -0.0 -0.0 1 True False
3532.24 4.674535751342773 -1.5174320501140137 2.103661839162008 -2.157042165795797 -1.570772949849264 1.5329320430755615 0.0 0.0 -2.2900696421856992e-05 0.0 -0.0 -0.0 1 True False
3532.2599999999998 4.67450475692749 -1.517386083757021 2.1036818663226526 -2.1569987736144007 -1.5707925001727503 1.5329488515853882 0.0 0.0 -3.651076985988766e-05 0.0 -0.0 -0.0 1 True False
3532.2799999999997 4.674558162689209 -1.5174408231726666 2.1036704222308558 -2.157034536401266 -1.5707767645465296 1.5330028533935547 0.0 0.0 -3.0353776310221292e-05 0.0 -0.0 -0.0 1 True False
3532.2999999999997 4.6745076179504395 -1.5174277250519772 2.103649441395895 -2.1570264301695765 -1.5708335081683558 1.5329668521881104 0.0 0.0 -2.597374805191066e-05 0.0 -0.0 -0.0 1 True False
3532.3199999999997 4.674527645111084 -1.517320980583765 2.103645149861471 -2.1570660076537074 -1.5707805792437952 1.5329409837722778 0.0 0.0 -2.2698419343214482e-05 0.0 -0.0 -0.0 1 True False
3532.3399999999997 4.674556732177734 -1.5174189035645504 2.1037400404559534 -2.157074113885397 -1.5707767645465296 1.5329155921936035 0.0 0.0 -2.015663449128624e-05 0.0 -0.0 -0.0 1 True False
3532.3599999999997 4.674490928649902 -1.5174068298986931 2.1036904493915003 -2.157006403008932 -1.5708449522601526 1.5328856706619263 5.297509127350196e-25 0.0 -8.481143965697073e-16 0.0 -0.0 -0.0 1 True False
3532.3799999999997 4.674490928649902 -1.5174320240369816 2.103633228932516 -2.1570660076537074 -1.5707805792437952 1.5329229831695557 4.203895392974451e-45 -3.008824023709167e-06 -1.1942932326388298e-27 0.0 -0.0 -0.0 1 True False
3532.3999999999996 4.674549102783203 -1.5174234111658116 2.1036861578570765 -2.157046457330221 -1.570829216633932 1.5329110622406006 -3.0424451324506663e-05 -2.3517151527899482e-26 -1.6817739571532865e-39 0.0 -0.0 -0.0 1 True False
3532.4199999999996 4.674519062042236 -1.5174154576710244 2.1036904493915003 -2.157046457330221 -1.5707605520831507 1.5329651832580566 -2.3576121049932242e-23 -0.0 -0.0 0.0 -0.0 -0.0 1 True False
3532.44 4.6745076179504395 -1.5174633798054238 2.1036985556231897 -2.1570779285826625 -1.5708654562579554 1.5329201221466064 -1.8357009882655104e-43 5.680591770874026e-20 -0.0 0.0 -0.0 -0.0 1 True False
3532.46 4.674488067626953 -1.5173742559603234 2.1036904493915003 -2.157042165795797 -1.5708487669574183 1.5329442024230957 0.0 4.439986158243896e-40 -0.0 0.0 -0.0 -0.0 1 True False
3532.48 4.674482345581055 -1.5174895015409966 2.103689972554342 -2.157070299188131 -1.5707967917071741 1.5329110622406006 0.0 0.0 -0.0 0.0 -0.0 -0.0 1 True False
3532.5 4.674490928649902 -1.5174111177078267 2.103661839162008 -2.157018323937887 -1.5707648436175745 1.5329320430755615 0.0 0.0 -0.0 1.094979552362929e-06 -0.0 -0.0 1 True False
3532.52 4.674549102783203 -1.5174154576710244 2.103633228932516 -2.1570378742613734 -1.5708406607257288 1.532936453819275 0.0 0.0 -0.0 3.251093377799538e-14 -0.0 -0.0 1 True False
3532.54 4.674519062042236 -1.5173991967788716 2.1036861578570765 -2.1570941410460414 -1.570853058491842 1.5329532623291016 0.0 0.0 -0.0 9.652787793258608e-22 -0.0 -0.0 1 True False
3532.56 4.67452335357666 -1.5174320426634331 2.1036904493915003 -2.157018323937887 -1.5708087126361292 1.5329769849777222 0.0 0.0 -6.068004273693511e-15 2.8660001234403967e-29 -0.0 -0.0 1 True False
3532.58 4.674502849578857 -1.5173460778645058 2.103612724934713 -2.157018323937887 -1.5708006064044397 1.5329201221466064 0.0 0.0 -8.544809591745804e-27 8.50941250216623e-37 -0.0 -0.0 1 True False
3532.6 4.674535751342773 -1.5173948754421254 2.1036255995379847 -2.1570378742613734 -1.5707967917071741 1.5329605340957642 0.0 0.0 -1.2032586976854944e-38 2.5223372357846707e-44 -0.0 -0.0 1 True False
3532.62 4.674527645111084 -1.5173539158752938 2.1036246458636683 -2.1570779285826625 -1.5707886854754847 1.5329396724700928 0.0 0.0 -0.0 0.0 -0.0 -0.0 1 True False
3532.64 4.674526691436768 -1.5174154204181214 2.103694740925924 -2.157042165795797 -1.5707805792437952 1.5328829288482666 0.0 0.0 -0.0 0.0 -0.0 -0.0 1 True False
3532.66 4.674488067626953 -1.5174189445427437 2.1036537329303187 -2.157098432580465 -1.5708449522601526 1.532936453819275 0.0 0.0 -0.0 0.0 -0.0 -5.076036018181185e-07 1 True False
3532.68 4.67452335357666 -1.5173948381892224 2.1036537329303187 -2.156994482079977 -1.570829216633932 1.5329488515853882 0.0 0.0 -0.0 0.0 -0.0 1.6683336934164572e-09 1 True False
3532.7 4.674516201019287 -1.517406777744629 2.1037147680865687 -2.1570502720274867 -1.5707686583148401 1.5329216718673706 0.0 0.0 -0.0 0.0 -0.0 4.9534324628031423e-17 1 True False
3532.72 4.674520969390869 -1.5173818071237584 2.1036790052997034 -2.1570784054198207 -1.570801083241598 1.5329246520996094 0.0 0.0 -0.0 5.707532295673445e-07 -0.0 -0.0004011401906609535 1 True False
3532.74 4.6745076179504395 -1.5173860912076016 2.103617016469137 -2.1570502720274867 -1.5708287397967737 1.5328750610351562 0.0 0.0 -0.0 1.6946178211770316e-14 -0.0 -0.0007993730832822621 1 True False
3532.7599999999998 4.674495697021484 -1.5173582968166848 2.1036985556231897 -2.157070299188131 -1.5707648436175745 1.5329500436782837 0.0 0.0 -0.0 5.0314724884378e-22 -0.0 0.00012039628200000152 1 True False
3532.7799999999997 4.674527645111084 -1.5173254434815426 2.1036537329303187 -2.1570903263487757 -1.5707762877093714 1.5329532623291016 0.0 0.0 -0.0 1.4938893901549391e-29 -6.735357063747394e-12 -2.5791460078750106e-09 1 True False
3532.7999999999997 4.674540996551514 -1.517378595923521 2.103661839162008 -2.157030244866842 -1.5707724730121058 1.5329229831695557 0.0 0.0 -0.0 -7.886817587898776e-11 -1.999788617733932e-19 -7.65771716493826e-17 1 True False
3532.8199999999997 4.6745476722717285 -1.517365538781025 2.1036790052997034 -2.1570221386351527 -1.5708044211017054 1.5329365730285645 0.0 0.0 -0.0 -2.3416676640278974e-18 3.338294118293561e-05 -2.273645040266685e-24 1 True False
3532.8399999999997 4.674474716186523 -1.5174196746996422 2.103661839162008 -2.157074590722555 -1.5707967917071741 1.5329246520996094 0.0 0.0 -0.0 -6.952622506677477e-26 6.238936123281746e-08 -6.750657169766652e-32 1 True False
3532.8599999999997 4.674519062042236 -1.517354642306902 2.1036375204669397 -2.1570784054198207 -1.5707886854754847 1.5329065322875977 0.0 0.0 -0.0 -2.0642962823965734e-33 1.8523964693829267e-15 -2.0043304428654302e-39 1 True False
3532.8799999999997 4.674490928649902 -1.5174752746573468 2.103574577962057 -2.1567546329894007 -1.570784870778219 1.5329365730285645 0.0 -0.008878651075065136 -0.020055552944540977 0.028260612860322 5.499933182491101e-23 -0.0 1 True False
3532.8999999999996 4.674532413482666 -1.5177589257112523 2.1031339804278772 -2.1561795673766078 -1.5707686583148401 1.5329201221466064 0.0 -0.018871471285820007 -0.029719164595007896 0.04075304791331291 1.63297982504367e-30 -0.0 1 True False
3532.9199999999996 4.674520969390869 -1.5181879599443455 2.102408234273092 -2.154940744439596 -1.5707686583148401 1.5328857898712158 0.0 -0.029131483286619186 -0.04500386118888855 0.07116802036762238 4.848464660594581e-38 -0.0 1 True False
3532.94 4.674527645111084 -1.5188211996904393 2.1013816038714808 -2.1531478367247523 -1.570784870778219 1.5328946113586426 0.0 -0.03955159708857536 -0.05931046977639198 0.10701672732830048 1.401298464324817e-45 -0.0 1 True False
3532.96 4.674563884735107 -1.5197377514890213 2.099887196217672 -2.1507402859129847 -1.5707686583148401 1.5328902006149292 0.0 -0.05150936171412468 -0.0857204794883728 0.13807739317417145 0.0 -0.0 1 True False
3532.98 4.674490928649902 -1.5208780963769932 2.097926918660299 -2.1476899586119593 -1.5707891623126429 1.5329320430755615 0.0 -0.062190279364585876 -0.10022366046905518 0.1456051766872406 0.0 -0.0 1 True False
3533.0 4.674499988555908 -1.5222846020809193 2.0956652800189417 -2.1443077526488246 -1.5708168188678187 1.5329680442810059 0.0 -0.0737219899892807 -0.1165163591504097 0.18607266247272491 0.0 -0.0 1 True False
3533.02 4.674556732177734 -1.523824268286564 2.093252960835592 -2.140167375604147 -1.5708254019366663 1.5329724550247192 0.0 -0.08410708606243134 -0.12877695262432098 0.21107052266597748 0.0 -0.0 1 True False
3533.04 4.6745076179504395 -1.5255699840239068 2.090442959462301 -2.1355630360045375 -1.5707843939410608 1.5329487323760986 0.0 -0.09258635342121124 -0.15436725318431854 0.24769918620586395 0.0 -0.0 1 True False
3533.06 4.6744866371154785 -1.5276900877109547 2.0871885458575647 -2.130523820916647 -1.5707886854754847 1.5329275131225586 0.0 -0.10703490674495697 -0.16511690616607666 0.2640168070793152 0.0 -0.0 1 True False
3533.08 4.674474716186523 -1.5298499402454873 2.0836647192584437 -2.1246782741942347 -1.5707925001727503 1.5329397916793823 0.0 -0.11088020354509354 -0.1832161694765091 0.29479101300239563 0.0 -0.0 1 True False
3533.1 4.6745076179504395 -1.5322611530176182 2.079876724873678 -2.1183067760863246 -1.5708406607257288 1.5328947305679321 0.0 -0.12567110359668732 -0.20040689408779144 0.3252694010734558 0.0 -0.0 1 True False
3533.12 4.674526691436768 -1.5349981908551236 2.075620476399557 -2.111396451989645 -1.570857350026266 1.532899260520935 0.0 -0.1343352198600769 -0.22070418298244476 0.3493231236934662 0.0 -0.0 1 True False
3533.14 4.674527645111084 -1.5377802041224022 2.0709713141070765 -2.1040202579894007 -1.5708335081683558 1.5328857898712158 0.0 -0.147737056016922 -0.23709386587142944 0.37881386280059814 0.0 -0.0 1 True False
3533.16 4.67453670501709 -1.540837013428547 2.065960709248678 -2.096130510369772 -1.5708373228656214 1.5329245328903198 0.0 -0.15738308429718018 -0.24788272380828857 0.4081331789493561 0.0 -0.0 1 True False
3533.18 4.6745476722717285 -1.5441220619580527 2.0607555548297327 -2.0875092945494593 -1.5708254019366663 1.5329110622406006 0.0 -0.1710839420557022 -0.2681788206100464 0.4376237392425537 0.0 -0.0 1 True False
3533.2 4.674465656280518 -1.547558569615223 2.055187527333395 -2.0784622631468714 -1.5707724730121058 1.532936453819275 0.0 -0.18221132457256317 -0.29060298204421997 0.4710395038127899 0.0 -0.0 1 True False
3533.22 4.674558162689209 -1.5512456905892869 2.0493410269366663 -2.06888546566152 -1.5708044211017054 1.5329365730285645 0.0 -0.1941411942243576 -0.3096351623535156 0.4923931062221527 0.0 -0.0 1 True False
3533.24 4.674556732177734 -1.555261905570962 2.043107334767477 -2.058643957177633 -1.5707967917071741 1.5329409837722778 0.0 -0.2021152526140213 -0.322592169046402 0.5214197635650635 0.0 -0.0 1 True False
3533.2599999999998 4.674441814422607 -1.5592771389386435 2.036380116139547 -2.0478788814940394 -1.5707805792437952 1.5329021215438843 0.0 -0.2115844190120697 -0.34566882252693176 0.5379177331924438 0.0 -0.0 1 True False
3533.2799999999997 4.674490928649902 -1.5637439589812239 2.0293877760516565 -2.036609788934225 -1.5707724730121058 1.5329561233520508 0.0 -0.22348064184188843 -0.36232176423072815 0.5843966007232666 0.0 -0.0 1 True False
3533.2999999999997 4.674556732177734 -1.5682985757342358 2.0221274534808558 -2.024715562860006 -1.570772949849264 1.5329110622406006 0.0 -0.23038914799690247 -0.375559538602829 0.6030712127685547 0.0 -0.0 1 True False
3533.3199999999997 4.674544811248779 -1.5727893314757289 2.0149834791766565 -2.0129863224425257 -1.5707767645465296 1.5329229831695557 0.0 -0.2188693732023239 -0.3596309721469879 0.5631211996078491 0.0 -0.0 1 True False
3533.3399999999997 4.674561023712158 -1.5769921741881312 2.00806171098818 -2.001810213128561 -1.5707805792437952 1.5329320430755615 0.0 -0.207548126578331 -0.3347519338130951 0.5580084919929504 0.0 -0.0 1 True False
3533.3599999999997 4.67452335357666 -1.5810495815672816 2.0014217535602015 -1.991222997704977 -1.5708087126361292 1.5329409837722778 0.0 -0.20332327485084534 -0.3256644904613495 0.5121318697929382 0.0 -0.0 1 True False
3533.3799999999997 4.674544811248779 -1.5849997005858363 1.9953344503985804 -1.981206556359762 -1.5707324186908167 1.5329651832580566 0.0 -0.19241738319396973 -0.29929885268211365 0.49600332975387573 0.0 -0.0 1 True False
3533.3999999999996 4.674527645111084 -1.5886513195433558 1.9896310011493128 -1.9716927013792933 -1.5708325544940394 1.5329155921936035 0.0 -0.17730304598808289 -0.28525102138519287 0.46478271484375 0.0 -0.0 1 True False
3533.4199999999996 4.674514293670654 -1.5920893154540003 1.9841602484332483 -1.9626513920226039 -1.5707886854754847 1.532899260520935 0.0 -0.16381487250328064 -0.2638428211212158 0.43484678864479065 0.0 -0.0 1 True False
3533.44 4.6745076179504395 -1.5953380070128382 1.978938404713766 -1.9542461834349574 -1.5708168188678187 1.5328946113586426 0.0 -0.15315793454647064 -0.25074684619903564 0.4127705693244934 0.0 -0.0 1 True False
3533.46 4.674531936645508 -1.5982634029784144 1.974006477986471 -1.946543355981344 -1.5707843939410608 1.5329229831695557 0.0 -0.14371491968631744 -0.2389363944530487 0.37786686420440674 0.0 -0.0 1 True False
3533.48 4.674514293670654 -1.6010576687254847 1.9694765249835413 -1.9392138920226039 -1.5707767645465296 1.5329110622406006 0.0 -0.1332838088274002 -0.21124868094921112 0.3521285951137543 0.0 -0.0 1 True False
3533.5 4.674535751342773 -1.6036693058409632 1.9654791990863245 -1.9324537716307582 -1.5708325544940394 1.5329651832580566 0.0 -0.12125969678163528 -0.20249590277671814 0.31971171498298645 0.0 -0.0 1 True False
3533.52 4.674527645111084 -1.605917593041891 1.9617083708392542 -1.9264141521849574 -1.5707686583148401 1.5329352617263794 0.0 -0.11426834017038345 -0.18493050336837769 0.2929476499557495 0.0 -0.0 1 True False
3533.54 4.674535751342773 -1.608011385003561 1.9584086577044886 -1.9210816822447718 -1.570784870778219 1.532936453819275 0.0 -0.09356778115034103 -0.15103480219841003 0.2485480159521103 0.0 -0.0 1 True False
3533.56 4.6745100021362305 -1.609631200829977 1.9558466116534632 -1.9170237980284632 -1.5707967917071741 1.5329155921936035 0.0 -0.07257939130067825 -0.11383671313524246 0.1829574555158615 0.0 -0.0 1 True False
3533.58 4.674522399902344 -1.6108461819090785 1.9539411703692835 -1.9135590992369593 -1.5707805792437952 1.532903790473938 0.0 -0.05762212723493576 -0.09272229671478271 0.1511792242527008 0.0 -0.0 1 True False
3533.6 4.674531936645508 -1.6118370495238246 1.9523652235614222 -1.911208292047018 -1.570784870778219 1.532882809638977 0.0 -0.04378536343574524 -0.0729808434844017 0.10343177616596222 0.0 -0.0 1 True False
3533.62 4.674540042877197 -1.6125880680479945 1.9512227217303675 -1.9094482860960902 -1.5707805792437952 1.5329532623291016 0.0 -0.03317124769091606 -0.04999599978327751 0.07963467389345169 0.0 -0.0 1 True False
3533.64 4.674540042877197 -1.6129800281920375 1.950456444417135 -1.9080282650389613 -1.5708335081683558 1.5329275131225586 0.0 -0.01781216636300087 -0.02830391190946102 0.05605882778763771 0.0 -0.0 1 True False
3533.66 4.674514293670654 -1.6132751903929652 1.9500883261310022 -1.9072939358153285 -1.5707967917071741 1.5329816341400146 0.0 -0.010612687095999718 -0.014412956312298775 0.022812796756625175 0.0 -0.0 1 True False
3533.68 4.674498558044434 -1.613333364526266 1.9498861471759241 -1.907199045220846 -1.5707529226886194 1.5329409837722778 0.0 -0.0009168604738079011 -0.0015617343597114086 -0.00306485197506845 0.0 -0.0 1 True False
3533.7 4.674520969390869 -1.6132813892760218 1.949925724660055 -1.9071546993651332 -1.5707805792437952 1.5329561233520508 0.0 0.00010092762386193499 -0.00020313297864049673 0.000177435387740843 0.0 -0.0 1 True False
3533.72 4.674499988555908 -1.6133176289000453 1.9498770872699183 -1.907210489312643 -1.5708168188678187 1.5329201221466064 0.0 1.9808496196758885e-18 -0.0028912874404340982 0.00012023568706354126 0.0 -0.0 1 True False
3533.74 4.674474716186523 -1.6133290729918421 1.9498699347125452 -1.9071899853148402 -1.570784870778219 1.5329605340957642 0.0 -0.0006777318194508553 -0.001996036618947983 7.205625297501683e-05 0.0 -0.0 1 True False
3533.7599999999998 4.67452335357666 -1.613305231133932 1.9498046080218714 -1.9072305164732875 -1.5707805792437952 1.5329127311706543 0.0 -0.0003316115471534431 -0.001002314267680049 0.00018534035189077258 0.0 -0.0 1 True False
3533.7799999999997 4.6744914054870605 -1.6133619747557582 1.949843708668844 -1.9072267017760218 -1.5707891623126429 1.5329201221466064 0.0 -0.0016538318013772368 -0.002969363471493125 0.00016896979650482535 0.0 -0.0 1 True False
3533.7999999999997 4.6745686531066895 -1.613443513909811 1.9497574011432093 -1.9071785412230433 -1.570756737385885 1.5329066514968872 0.0 -0.0011636847630143166 -0.0010694515658542514 0.00028839337755925953 0.0 -0.0 1 True False
3533.8199999999997 4.674556732177734 -1.6134101353087367 1.9497783819781702 -1.9071341953673304 -1.5707486311541956 1.5329397916793823 0.0 -0.0009738859953358769 -0.0020961223635822535 0.00048225579666905105 0.0 -0.0 1 True False
3533.8399999999997 4.6744794845581055 -1.6134058437743128 1.9497101942645472 -1.9071866474547328 -1.5707610289203089 1.5329605340957642 0.0 -0.000519615423399955 -0.0007035473827272654 0.0003759462560992688 0.0 -0.0 1 True False
3533.8599999999997 4.674556732177734 -1.6134587726988734 1.94975454012026 -1.9071785412230433 -1.5707805792437952 1.5329532623291016 0.0 -0.0003089127712883055 -0.00037976005114614964 0.0008402733947150409 0.0 -0.0 1 True False
3533.8799999999997 4.6745076179504395 -1.6133891544737757 1.9497769514666956 -1.9071103535094203 -1.5707805792437952 1.5328947305679321 0.0 -0.00023658547434024513 -0.00017360300989821553 0.000666552223265171 0.0 -0.0 1 True False
3533.8999999999996 4.674527645111084 -1.6133934460081996 1.9497345129596155 -1.9071504078307093 -1.570829216633932 1.5329110622406006 0.0 -0.0001224348961841315 -0.00015032381634227931 0.0005129083874635398 0.0 -0.0 1 True False
3533.9199999999996 4.674531936645508 -1.6134211025633753 1.9497302214251917 -1.9071022472777308 -1.5707686583148401 1.5328857898712158 0.0 -0.00011549163173185661 -0.00011758817709051073 0.0004316180420573801 0.0 -0.0 1 True False
3533.94 4.674527645111084 -1.6133891544737757 1.9496973196612757 -1.9070822201170863 -1.5707891623126429 1.5329185724258423 0.0 -9.514729754300788e-05 -0.00011265421926509589 0.00025125208776444197 0.0 -0.0 1 True False
3533.96 4.674499988555908 -1.6133929691710414 1.949709717427389 -1.9071222744383753 -1.5707925001727503 1.5329201221466064 0.0 -8.08940312708728e-05 -9.556531585985795e-05 0.00022558154887519777 0.0 -0.0 1 True False
3533.98 4.674551963806152 -1.6134253940977992 1.94975454012026 -1.9070984325804652 -1.5707529226886194 1.532974123954773 0.0 -7.03547993907705e-05 -8.297822205349803e-05 0.00018772538169287145 0.0 -0.0 1 True False
3534.0 4.674551963806152 -1.613408704797262 1.9497469107257288 -1.9071022472777308 -1.5708254019366663 1.5329622030258179 0.0 -3.4354423405602574e-05 -7.332103268709034e-05 0.00015893114323262125 0.0 -0.0 1 True False
3534.02 4.674487113952637 -1.6134544811644496 1.949716869984762 -1.90708651165151 -1.5708087126361292 1.5329365730285645 0.0 8.182255260180682e-05 -2.1126147706218568e-11 0.00014327949611470103 0.0 -0.0 1 True False
3534.04 4.67453145980835 -1.6134253940977992 1.9497469107257288 -1.9070903263487757 -1.5707967917071741 1.532957673072815 0.0 1.8726813205252292e-22 -2.936686905741226e-05 0.00013337814016267657 0.0 -0.0 1 True False
3534.06 4.674514293670654 -1.613412996331686 1.9496691862689417 -1.9071384869017542 -1.5708168188678187 1.532899260520935 0.0 1.4643568952194338e-42 -3.332420102735681e-15 0.00011254974378971383 0.0 -0.0 1 True False
3534.08 4.674514293670654 -1.613373418847555 1.9497211615191858 -1.9070826969542445 -1.5707605520831507 1.532915711402893 0.0 0.0 -4.692629998600564e-27 8.618931315140799e-05 0.0 -0.0 1 True False
3534.1 4.674540042877197 -1.6133929691710414 1.9497187773333948 -1.9070903263487757 -1.5708091894732874 1.5329680442810059 0.0 0.0 -6.608040109785645e-39 7.218198879854754e-05 0.0 -0.0 1 True False
3534.12 4.674519062042236 -1.6133891544737757 1.9497259298907679 -1.9070946178831996 -1.5708048979388636 1.5329245328903198 0.0 0.0 -0.0 6.220366049092263e-05 0.0 -0.0 1 True False
3534.14 4.674526691436768 -1.6135112247862757 1.9497302214251917 -1.9071389637389125 -1.5708087126361292 1.5329561233520508 0.0 0.0 -0.0 5.4649186495225877e-05 0.0 -0.0 1 True False
3534.16 4.674540042877197 -1.6134339771666468 1.9498007933246058 -1.9070869884886683 -1.5707362333880823 1.5329066514968872 0.0 0.0 -0.0 1.5553915773125482e-06 0.0 -0.0 1 True False
3534.18 4.674499988555908 -1.6134382687010707 1.949770752583639 -1.907114645043844 -1.5707767645465296 1.5329409837722778 0.0 0.0 -0.0 4.618097150890267e-14 0.0 -0.0 1 True False
3534.2 4.674572944641113 -1.6134664020934046 1.949763600026266 -1.9071265659727992 -1.570813004170553 1.5329275131225586 0.0 0.0 -0.0 1.3711544550896456e-21 0.0 -0.0 1 True False
3534.22 4.674527645111084 -1.6134339771666468 1.9497230688678187 -1.9071227512755335 -1.5708006064044397 1.5329769849777222 0.0 0.0 -0.0 4.0710809711802255e-29 0.0 -0.0 1 True False
3534.24 4.674548625946045 -1.6134044132628382 1.9497211615191858 -1.9071265659727992 -1.5708087126361292 1.5329155921936035 0.0 0.0 -0.0 1.208740504410413e-36 0.0 -0.0 1 True False
3534.2599999999998 4.6745076179504395 -1.613429685632223 1.9497469107257288 -1.9070707760252894 -1.5707281271563929 1.53286612033844 0.0 0.0 -0.0 3.6433760072445244e-44 0.0 -0.0 1 True False
3534.2799999999997 4.674540042877197 -1.6133934460081996 1.9497469107257288 -1.9070984325804652 -1.570813004170553 1.5329561233520508 0.0 0.0 -0.0 0.0 0.0 -0.0 1 True False
