Andreas691667/Digital_Twin_UR/data_analysis/test_results/robot_output.csv
timestamp actual_q_0 actual_q_1 actual_q_2 actual_q_3 actual_q_4 actual_q_5 actual_qd_0 actual_qd_1 actual_qd_2 actual_qd_3 actual_qd_4 actual_qd_5 safety_status output_bit_register_65 output_bit_register_66
5662.807 3.7119710445404053 -0.8255080741694947 0.8429754416095179 -1.5882898769774378 -1.5707805792437952 2.141270637512207 0.0 0.0 0.0 -0.0 0.0 -0.0 1 False False
5662.857 3.7120742797851562 -0.8254950803569336 0.8430216948138636 -1.5882569752135218 -1.5707772413836878 2.141230821609497 0.0 0.0 0.0 -0.0 0.0 -0.0 1 False False
5662.907 3.712045669555664 -0.8255533140948792 0.8430216948138636 -1.5882889233031214 -1.5707929770099085 2.1413090229034424 0.0 0.0 0.0 -0.0 0.0 -0.0 1 False False
5662.956999999999 3.7120413780212402 -0.8254835170558472 0.8430007139789026 -1.5883165798582972 -1.5707767645465296 2.1412720680236816 0.0 0.0 0.0 -0.0 0.0 -0.0 1 False False
5663.007 3.712111473083496 -0.8254339259913941 0.8429763952838343 -1.5883094273009242 -1.570784870778219 2.141317367553711 0.0 0.0 0.0 -0.0 0.0 -0.0 1 False False
5663.057 3.7120413780212402 -0.8254708212665101 0.8429678122149866 -1.588297029534811 -1.570723835621969 2.141287088394165 0.0 0.0 0.0 -0.0 0.0 -0.0 1 False False
5663.107 3.712071180343628 -0.8254912060550232 0.8429802099810999 -1.5882846317686976 -1.5708087126361292 2.141291618347168 0.0 0.0 0.0 -0.0 0.0 -0.0 1 False False
5663.157 3.712123394012451 -0.8254998487285157 0.842992130910055 -1.5883294544615687 -1.5707925001727503 2.141263484954834 0.0 0.0 0.0 -0.0 0.0 -0.0 1 False False
5663.206999999999 3.7120413780212402 -0.82550402105365 0.8429473082171839 -1.588269372979635 -1.570784870778219 2.141270875930786 0.0 0.0 0.0 -0.0 0.0 -0.0 1 False False
5663.257 3.7121200561523438 -0.8254264754107972 0.8429630438434046 -1.5882612667479457 -1.5708006064044397 2.1412456035614014 0.0 0.0 0.0 -0.0 0.0 -0.0 1 False False
5663.307 3.712029457092285 -0.825429694061615 0.8430007139789026 -1.5882607899107875 -1.5708211104022425 2.141270637512207 0.0 0.0 0.0 -0.0 0.0 -0.0 1 False False
5663.357 3.7120580673217773 -0.8254707616618653 0.8429635206805628 -1.5883251629271449 -1.5707891623126429 2.141247034072876 0.0 0.0 0.0 -0.0 0.0 -0.0 1 False False
5663.407 3.712090492248535 -0.8255080741694947 0.8429802099810999 -1.5882731876769007 -1.5707891623126429 2.1413004398345947 0.0 0.0 0.0 -0.0 0.0 -0.0 1 False False
5663.456999999999 3.7120981216430664 -0.825512246494629 0.8429477850543421 -1.5882731876769007 -1.570801083241598 2.141267776489258 0.0 0.0 0.0 -0.0 0.0 -0.0 1 False False
5663.507 3.712090492248535 -0.8254555028728028 0.8429964224444788 -1.5882569752135218 -1.5707648436175745 2.141295909881592 0.0 0.0 0.0 -0.0 0.0 -0.0 1 False False
5663.557 3.712054491043091 -0.8254950803569336 0.8430007139789026 -1.5882774792113246 -1.570853058491842 2.1412839889526367 0.0 0.0 0.0 -0.0 0.0 -0.0 1 False False
5663.607 3.7120611667633057 -0.8255123060992737 0.8430007139789026 -1.5882569752135218 -1.5707967917071741 2.141279697418213 0.0 0.0 0.0 -0.0 0.0 -0.0 1 False False
5663.657 3.712050199508667 -0.8254793447307129 0.8430007139789026 -1.5882288418211878 -1.5707362333880823 2.141279697418213 0.0 0.0 0.0 -0.0 0.0 -0.0 1 False False
5663.706999999999 3.7120656967163086 -0.8254750531962891 0.8430450598346155 -1.588269372979635 -1.5707767645465296 2.141287088394165 0.0 0.0 0.0 -0.0 0.0 -0.0 1 False False
5663.757 3.7120742797851562 -0.825458900337555 0.8429887930499476 -1.588313718835348 -1.5707891623126429 2.141258955001831 0.0 0.0 0.0 -0.0 0.0 -0.0 1 False False
5663.807 3.7121024131774902 -0.825450138454773 0.8429439703570765 -1.5882607899107875 -1.5708087126361292 2.141317367553711 0.0 0.0 0.0 -0.0 0.0 -0.0 1 False False
5663.857 3.7121317386627197 -0.8255165976336976 0.8429520765887659 -1.5882889233031214 -1.570784870778219 2.141242742538452 0.0 0.0 0.0 -0.0 0.0 -0.0 1 False False
5663.907 3.712111234664917 -0.8254878681949158 0.8429563681231897 -1.588245531121725 -1.5707686583148401 2.1412265300750732 0.0 0.0 0.0 -0.0 0.0 -0.0 1 False False
5663.956999999999 3.7120449542999268 -0.8254426878741761 0.8430212179767054 -1.5883332691588343 -1.5707891623126429 2.141230821609497 0.0 0.0 0.0 -0.0 0.0 -0.0 1 False False
5664.007 3.712106704711914 -0.8254501980594178 0.8429678122149866 -1.5882898769774378 -1.5708044211017054 2.1413216590881348 0.0 0.0 0.0 -0.0 0.0 -0.0 1 False False
5664.057 3.7120819091796875 -0.8254265946200867 0.8429887930499476 -1.588245531121725 -1.5707204977618616 2.141258955001831 0.0 0.0 0.0 -0.0 0.0 -0.0 1 False False
5664.107 3.7120981216430664 -0.8254383367351075 0.8430169264422815 -1.588285585443014 -1.5707805792437952 2.1412055492401123 0.0 0.0 0.0 -0.0 0.0 -0.0 1 False False
5664.157 3.712118625640869 -0.8255080741694947 0.8429802099810999 -1.5882331333556117 -1.57074481645693 2.141230821609497 0.0 0.0 0.0 -0.0 0.0 -0.0 1 False False
5664.206999999999 3.7121024131774902 -0.8254631918719788 0.8429716269122522 -1.5882607899107875 -1.570801083241598 2.141317367553711 0.0 0.0 0.0 -0.0 0.0 -0.0 1 False False
5664.257 3.7120938301086426 -0.8254869741252442 0.8430169264422815 -1.588320871392721 -1.5707767645465296 2.141324758529663 0.0 0.0 0.0 -0.0 0.0 -0.0 1 False False
5664.307 3.7121024131774902 -0.8254588407329102 0.8429678122149866 -1.5882889233031214 -1.5707767645465296 2.1413004398345947 0.0 0.0 0.0 -0.0 0.0 -0.0 1 False False
5664.357 3.7120862007141113 -0.825491265659668 0.8430007139789026 -1.5883094273009242 -1.5707967917071741 2.141308546066284 0.0 0.0 0.0 -0.0 0.0 -0.0 1 False False
5664.407 3.712066650390625 -0.8254546088031312 0.8430050055133265 -1.5883051357665003 -1.570829216633932 2.1413216590881348 0.0 0.0 0.0 -0.0 0.0 -0.0 1 False False
5664.456999999999 3.712111234664917 -0.8254674238017579 0.8429802099810999 -1.588341852227682 -1.5708611647235315 2.1412839889526367 0.0 0.0 0.0 -0.0 0.0 -0.0 1 False False
5664.507 3.712090492248535 -0.8254955571940918 0.8430374304400843 -1.5883051357665003 -1.570813004170553 2.141279697418213 0.0 0.0 0.0 -0.0 0.0 -0.0 1 False False
5664.557 3.7120370864868164 -0.8254663509181519 0.8430007139789026 -1.5882817707457484 -1.570829216633932 2.141242742538452 0.0 0.0 0.0 -0.0 0.0 -0.0 1 False False
5664.607 3.712082862854004 -0.8254222434810181 0.8429845015155237 -1.5882650814452113 -1.570813004170553 2.141230821609497 0.0 0.0 0.0 -0.0 0.0 -0.0 1 False False
5664.657 3.7120165824890137 -0.825463132267334 0.8429635206805628 -1.5882445774474085 -1.5707524458514612 2.1412971019744873 0.0 0.0 0.0 -0.0 0.0 -0.0 1 False False
5664.706999999999 3.7120373249053955 -0.8254869741252442 0.8430007139789026 -1.588268896142477 -1.5708211104022425 2.1413002014160156 0.0 0.0 0.0 -0.0 0.0 -0.0 1 False False
5664.757 3.712090492248535 -0.8255404394916077 0.8429649511920374 -1.5883165798582972 -1.5708211104022425 2.141247034072876 0.0 0.0 0.0 -0.0 0.0 -0.0 1 False False
5664.807 3.7120449542999268 -0.8254825633815308 0.8430126349078577 -1.5883094273009242 -1.5707605520831507 2.1412558555603027 0.0 0.0 0.0 -0.0 0.0 -0.0 1 False False
5664.857 3.712082862854004 -0.8255199950984498 0.8430054823504847 -1.588297029534811 -1.5707805792437952 2.141295909881592 0.0 0.0 0.0 -0.0 0.0 -0.0 1 False False
5664.907 3.7120537757873535 -0.8255037826350708 0.8429802099810999 -1.588297029534811 -1.5708087126361292 2.1412501335144043 0.0 0.0 0.0 -0.0 0.0 -0.0 1 False False
5664.956999999999 3.7120656967163086 -0.8255037826350708 0.8429678122149866 -1.5882288418211878 -1.5707886854754847 2.141238212585449 0.0 0.0 0.0 -0.0 0.0 -0.0 1 False False
5665.007 3.712066650390625 -0.8254588407329102 0.8429339567767542 -1.588280817071432 -1.5707886854754847 2.1413004398345947 0.0 0.0 0.0 -0.0 0.0 -0.0 1 False False
5665.057 3.7120373249053955 -0.8255069416812439 0.842992130910055 -1.5883251629271449 -1.5707891623126429 2.141279697418213 0.0 -8.263080235337839e-05 0.0 -0.0 0.0 -0.0 1 False False
5665.107 3.712045669555664 -0.8255685728839417 0.842992130910055 -1.5882731876769007 -1.570784870778219 2.141238212585449 0.0 0.0 0.0 -0.0 0.0 -0.0 1 False False
5665.157 3.712071180343628 -0.8254869741252442 0.8429887930499476 -1.5883251629271449 -1.5707925001727503 2.14133358001709 0.0 0.0 0.0 -0.0 0.0 -0.0 1 False False
5665.206999999999 3.712087631225586 -0.8254502576640625 0.8430174032794397 -1.5882889233031214 -1.5707767645465296 2.14132022857666 0.0 0.0 0.0 -0.0 0.0 -0.0 1 False False
5665.257 3.712099552154541 -0.8255242866328736 0.8430040518390101 -1.5883056126036585 -1.5708211104022425 2.141267776489258 0.0 0.0 0.0 -0.0 0.0 -0.0 1 False False
5665.307 3.712083101272583 -0.8255532544902344 0.8429845015155237 -1.588297506371969 -1.5708168188678187 2.141267776489258 0.0 0.0 0.0 -0.0 0.0 -0.0 1 False False
5665.357 3.712062358856201 -0.8254825633815308 0.8429763952838343 -1.588285585443014 -1.5708654562579554 2.141295909881592 0.0 0.0 0.0 -0.0 0.0 -0.0 1 False False
5665.407 3.712062358856201 -0.8254793447307129 0.8430097738849085 -1.588269372979635 -1.5707925001727503 2.1413047313690186 0.0 0.0 0.0 -0.0 0.0 -0.0 1 False False
5665.456999999999 3.7120368480682373 -0.8255123657039185 0.8429673353778284 -1.5883213482298792 -1.5707805792437952 2.141254425048828 0.0 0.0 0.0 -0.0 0.0 -0.0 1 False False
5665.507 3.7120816707611084 -0.8254546088031312 0.8430174032794397 -1.5882650814452113 -1.570784870778219 2.1413216590881348 0.0 0.0 0.0 -0.0 0.0 -0.0 1 False False
5665.557 3.7120742797851562 -0.825491265659668 0.8430097738849085 -1.5882569752135218 -1.570784870778219 2.1412765979766846 0.0 0.0 0.0 -0.0 0.0 -0.0 1 False False
5665.607 3.712104082107544 -0.8254954975894471 0.8429673353778284 -1.5882612667479457 -1.5707805792437952 2.141317367553711 0.0 0.0 0.0 -0.0 0.0 -0.0 1 False False
5665.657 3.712062358856201 -0.8254954975894471 0.8429892698871058 -1.5882774792113246 -1.5707891623126429 2.141291618347168 0.0 0.0 0.0 -0.0 0.0 -0.0 1 False False
5665.706999999999 3.712066888809204 -0.8254993718913575 0.8429763952838343 -1.5882531605162562 -1.570784870778219 2.141275405883789 0.0 0.0 0.0 -0.0 0.0 -0.0 1 False False
5665.757 3.7120981216430664 -0.8254546088031312 0.8430126349078577 -1.5882531605162562 -1.5707805792437952 2.1413116455078125 0.0 0.0 0.0 -0.0 0.0 -0.0 1 False False
5665.807 3.7120907306671143 -0.8254997891238709 0.8429845015155237 -1.588320871392721 -1.5707805792437952 2.1413040161132812 0.0 0.0 0.0 -0.0 0.0 -0.0 1 False False
5665.857 3.7120697498321533 -0.8255155843547364 0.8429892698871058 -1.5883170566954554 -1.5707967917071741 2.141279697418213 0.0 0.0 0.0 -0.0 0.0 -0.0 1 False False
5665.907 3.7120816707611084 -0.8254458469203492 0.8430054823504847 -1.588297029534811 -1.5708416144000452 2.1412177085876465 0.0 0.0 0.0 -0.0 0.0 -0.0 1 False False
5665.956999999999 3.7120742797851562 -0.8255199950984498 0.8429425398456019 -1.588292738000387 -1.5707967917071741 2.141291618347168 0.0 0.0 0.0 -0.0 0.0 -0.0 1 False False
5666.007 3.7120203971862793 -0.825457827453949 0.8429935614215296 -1.5882817707457484 -1.5707605520831507 2.1412220001220703 0.0 0.0 0.0 -0.0 0.0 -0.0 1 False False
5666.057 3.7120490074157715 -0.8254546088031312 0.8430216948138636 -1.5883165798582972 -1.5707972685443323 2.141263484954834 0.0 0.0 0.0 -0.0 0.0 -0.0 1 False False
5666.107 3.712095260620117 -0.8254620593837281 0.8429515997516077 -1.5882889233031214 -1.570784870778219 2.141251564025879 0.0 0.0 0.0 -0.0 0.0 -0.0 1 False False
5666.157 3.7120816707611084 -0.8254588407329102 0.8429754416095179 -1.5883094273009242 -1.5708044211017054 2.1412546634674072 0.0 0.0 0.0 -0.0 0.0 -0.0 1 False False
5666.206999999999 3.7120771408081055 -0.8254869741252442 0.8430216948138636 -1.5882498226561488 -1.5707805792437952 2.141295909881592 0.0 0.0 0.0 -0.0 0.0 -0.0 1 False False
5666.257 3.7120907306671143 -0.8255232137492676 0.8430007139789026 -1.5883094273009242 -1.5707686583148401 2.141287088394165 0.0 0.0 0.0 -0.0 0.0 -0.0 1 False False
5666.307 3.712083339691162 -0.825450138454773 0.8429754416095179 -1.588332315484518 -1.570801083241598 2.1412720680236816 0.0 0.0 0.0 -0.0 0.0 -0.0 1 False False
5666.357 3.7120652198791504 -0.8254750531962891 0.8429845015155237 -1.588308950463766 -1.570784870778219 2.141317129135132 0.0 0.0 0.0 -0.0 0.0 -0.0 1 False False
5666.407 3.7120323181152344 -0.8254469794085999 0.8429964224444788 -1.5883285007872523 -1.5708168188678187 2.141312837600708 0.0 0.0 0.0 -0.0 0.0 -0.0 1 False False
5666.456999999999 3.7120742797851562 -0.8254954975894471 0.8430712858783167 -1.588269372979635 -1.570784870778219 2.1412353515625 0.0 0.0 0.0 -0.0 0.0 -0.0 1 False False
5666.507 3.712127923965454 -0.8254825633815308 0.8430054823504847 -1.5883289776244105 -1.5708087126361292 2.141247272491455 0.0 0.0 0.0 -0.0 0.0 -0.0 1 False False
5666.557 3.712095260620117 -0.8255037826350708 0.8429678122149866 -1.5883289776244105 -1.5708168188678187 2.141308546066284 0.0 0.0 0.0 -0.0 0.0 -0.0 1 False False
5666.607 3.712095260620117 -0.8255232137492676 0.8429806868182581 -1.588297029534811 -1.5707805792437952 2.141308546066284 0.0 0.0 0.0 -0.0 0.0 -0.0 1 False False
5666.657 3.7121071815490723 -0.8254869145205994 0.8430545965777796 -1.5882374248900355 -1.570772949849264 2.141267776489258 0.0 0.0 0.0 -0.0 0.0 -0.0 1 False False
5666.706999999999 3.7120862007141113 -0.8254546684077759 0.8430054823504847 -1.5882932148375453 -1.5708172957049769 2.141242742538452 0.0 0.0 0.0 -0.0 0.0 -0.0 1 False False
5666.757 3.712116003036499 -0.8254385155490418 0.8429845015155237 -1.5882889233031214 -1.5707925001727503 2.1412546634674072 0.0 0.0 0.0 -0.0 0.0 -0.0 1 False False
5666.807 3.712083339691162 -0.825482503776886 0.8429430166827601 -1.588269372979635 -1.5707891623126429 2.141267776489258 0.0 0.0 0.0 -0.0 0.0 -0.0 1 False False
5666.857 3.7120771408081055 -0.8254460257342835 0.8429802099810999 -1.5882932148375453 -1.5708211104022425 2.141305685043335 0.0 0.0 0.0 -0.0 0.0 -0.0 1 False False
5666.907 3.7120907306671143 -0.8254912060550232 0.8429473082171839 -1.5882817707457484 -1.5707805792437952 2.1412785053253174 0.0 0.0 0.0 -0.0 0.0 -0.0 1 False False
5666.956999999999 3.712127923965454 -0.8254061502269288 0.8429845015155237 -1.588269372979635 -1.5707686583148401 2.1412429809570312 0.0 0.0 0.0 -0.0 0.0 -0.0 1 False False
5667.007 3.7121071815490723 -0.8254673641971131 0.8430126349078577 -1.5882731876769007 -1.5707648436175745 2.1412997245788574 0.0 0.0 0.0 -0.0 0.0 -0.0 1 False False
5667.057 3.7120907306671143 -0.8255446714213868 0.8429930845843714 -1.588313718835348 -1.570784870778219 2.1413040161132812 0.0 0.0 0.0 -0.0 0.0 -0.0 1 False False
5667.107 3.712041139602661 -0.8254501980594178 0.8430541197406214 -1.588320871392721 -1.5707886854754847 2.141317129135132 0.0 0.0 0.0 -0.0 0.0 -0.0 1 False False
5667.157 3.712083339691162 -0.8254470390132447 0.8430007139789026 -1.5882288418211878 -1.5708168188678187 2.1413002014160156 0.0 0.0 0.0 -0.0 0.0 -0.0 1 False False
5667.206999999999 3.712045669555664 -0.8255039614490052 0.8429802099810999 -1.5883013210692347 -1.570845905934469 2.1413159370422363 0.0 0.0 0.0 -0.0 0.0 -0.0 1 False False
5667.257 3.712083339691162 -0.8255037230304261 0.8429802099810999 -1.588269372979635 -1.570784870778219 2.1413040161132812 0.0 0.0 0.0 -0.0 0.0 -0.0 1 False False
5667.307 3.7120862007141113 -0.8254664105227967 0.8429845015155237 -1.588252683679098 -1.5708487669574183 2.141251564025879 0.0 0.0 0.0 -0.0 0.0 -0.0 1 False False
5667.357 3.712059259414673 -0.8255284589580079 0.8430245558368128 -1.5883094273009242 -1.5708006064044397 2.1413087844848633 0.0 0.0 0.0 -0.0 0.0 -0.0 1 False False
5667.407 3.7120413780212402 -0.8254877489856263 0.8429678122149866 -1.5883127651610316 -1.5708087126361292 2.1412839889526367 0.0 0.0 0.0 -0.0 0.0 -0.0 1 False False
5667.456999999999 3.7120249271392822 -0.8254993718913575 0.8429930845843714 -1.588285585443014 -1.5708454290973108 2.1412739753723145 0.0 0.0 0.0 -0.0 0.0 -0.0 1 False False
5667.507 3.71205472946167 -0.8255039614490052 0.8430135885821741 -1.5882569752135218 -1.5707805792437952 2.141267776489258 0.0 0.0 0.0 -0.0 0.0 -0.0 1 False False
5667.557 3.7120578289031982 -0.8255285185626526 0.8429964224444788 -1.588273664514059 -1.5708048979388636 2.1413002014160156 0.0 0.0 0.0 -0.0 0.0 -0.0 1 False False
5667.607 3.7120981216430664 -0.8254912060550232 0.8430050055133265 -1.5882774792113246 -1.5707891623126429 2.1413040161132812 0.0 0.0 0.0 -0.0 0.0 -0.0 1 False False
5667.657 3.712095022201538 -0.8254783314517518 0.8430245558368128 -1.5882932148375453 -1.5707557837115687 2.141247272491455 0.0 0.0 0.0 -0.0 0.0 -0.0 1 False False
5667.706999999999 3.712071180343628 -0.8254869741252442 0.8430331389056605 -1.5883056126036585 -1.5707967917071741 2.1412720680236816 0.0 0.0 0.0 -0.0 0.0 -0.0 1 False False
5667.757 3.7120580673217773 -0.8254265350154419 0.8430450598346155 -1.5883013210692347 -1.5707967917071741 2.1412839889526367 0.0 0.0 0.0 -0.0 0.0 -0.0 1 False False
5667.807 3.7120580673217773 -0.8254708212665101 0.8429802099810999 -1.5882731876769007 -1.570772949849264 2.141287088394165 0.0 0.0 0.0 -0.0 0.0 -0.0 1 False False
5667.857 3.712045669555664 -0.8254674238017579 0.8429678122149866 -1.5882932148375453 -1.570813004170553 2.141279697418213 0.0 0.0 0.0 -0.0 0.0 -0.0 1 False False
5667.907 3.712095022201538 -0.8255360883525391 0.8430450598346155 -1.5882846317686976 -1.5707686583148401 2.1412763595581055 0.0 0.0 0.0 -0.0 0.0 -0.0 1 False False
5667.956999999999 3.712083101272583 -0.8254997295192261 0.8429678122149866 -1.5882889233031214 -1.570784870778219 2.141329050064087 0.0 0.0 0.0 -0.0 0.0 -0.0 1 False False
5668.007 3.7120580673217773 -0.8254308265498658 0.8430536429034632 -1.588252683679098 -1.5707767645465296 2.1412601470947266 0.0 0.0 0.0 -0.0 0.0 -0.0 1 False False
5668.057 3.7120413780212402 -0.8254265946200867 0.8429678122149866 -1.5882650814452113 -1.5708091894732874 2.1412341594696045 0.0 0.0 0.0 -0.0 0.0 -0.0 1 False False
5668.107 3.7120742797851562 -0.8254793447307129 0.8430083433734339 -1.5882731876769007 -1.570801083241598 2.1413040161132812 0.0 0.0 0.0 -0.0 0.0 -0.0 1 False False
5668.157 3.712045907974243 -0.8254222434810181 0.8429964224444788 -1.5883094273009242 -1.570829216633932 2.1412925720214844 0.0 0.0 0.0 -0.0 0.0 -0.0 1 True False
5668.206999999999 3.7120163440704346 -0.8254835170558472 0.8430050055133265 -1.5882417164244593 -1.5707929770099085 2.1413495540618896 0.0 0.0 0.0 -0.0 0.0 -0.0 1 True False
5668.257 3.712095022201538 -0.8254740995219727 0.842992130910055 -1.5883332691588343 -1.5707810560809534 2.1412839889526367 0.0 0.0 0.0 -0.0 0.0 -0.0 1 True False
5668.307 3.7120163440704346 -0.825463132267334 0.8429716269122522 -1.5883094273009242 -1.5707610289203089 2.141263484954834 0.0 0.0 0.0 -0.0 0.0 -0.0 1 True False
5668.357 3.712062358856201 -0.8254957360080262 0.8429477850543421 -1.588313718835348 -1.5708373228656214 2.1413002014160156 0.0 0.0 0.0 -0.0 0.0 -0.0 1 True False
5668.407 3.712090492248535 -0.825466052894928 0.8429845015155237 -1.588245531121725 -1.570740048085348 2.141345262527466 0.0 0.0 0.0 -0.0 0.0 -0.0 1 True False
5668.456999999999 3.7121024131774902 -0.8255001467517395 0.8430007139789026 -1.5883165798582972 -1.570824925099508 2.1412429809570312 0.0 0.0 0.0 -0.0 0.0 -0.0 1 True False
5668.507 3.712062358856201 -0.8254497212222596 0.8429830710040491 -1.5882817707457484 -1.570813004170553 2.1412839889526367 0.0 0.0 0.0 -0.0 0.0 -0.0 1 True False
5668.557 3.7120742797851562 -0.8254497808269043 0.8430007139789026 -1.588280817071432 -1.5708044211017054 2.1411757469177246 0.0 0.0 0.0 -0.0 0.0 -6.091304385336116e-05 1 True False
5668.607 3.712135076522827 -0.8254779738238831 0.8430126349078577 -1.5882932148375453 -1.5707529226886194 2.141275405883789 0.0 0.0 0.0 -0.0 0.0 1.0662204041691245e-15 1 True False
5668.657 3.7120537757873535 -0.8255409759334107 0.8429845015155237 -1.5882607899107875 -1.570784870778219 2.1413257122039795 0.0 0.0 0.0 -0.0 0.0 5.833536986799004e-10 1 True False
5668.706999999999 3.712115526199341 -0.8254423898509522 0.8430174032794397 -1.5882607899107875 -1.5708044211017054 2.1412384510040283 0.0 0.0 0.0 -0.0 -0.00012828368926420808 8.861160340701923e-29 1 True False
5668.757 3.712090492248535 -0.8254913848689576 0.8430426756488245 -1.588280817071432 -1.570784870778219 2.141308546066284 0.0 0.0 0.0 -0.0 -1.3330715120521016e-20 0.0 1 True False
5668.807 3.713177442550659 -0.8262362641147156 0.8440535704242151 -1.5886365375914515 -1.5707605520831507 2.1423935890197754 0.05315524339675903 -0.03957405313849449 0.0555490180850029 -0.014553124085068703 -2.0249393393802553e-39 0.051586851477622986 1 True False
5668.857 3.7174410820007324 -0.8295831841281434 0.8489850203143519 -1.5899964771666468 -1.5707967917071741 2.1466588973999023 0.11625255644321442 -0.09717365354299545 0.13654467463493347 -0.03267769142985344 -2.671354013727978e-05 0.11056244373321533 1 True False
5668.907 3.7247984409332275 -0.8357238334468384 0.8574593702899378 -1.5924364529051722 -1.5708006064044397 2.1539387702941895 0.17326293885707855 -0.14891397953033447 0.19862422347068787 -0.05811864882707596 -5.671681874153123e-11 0.17101161181926727 1 True False
5668.956999999999 3.735025405883789 -0.8443496388247986 0.8692243734942835 -1.5955664120116175 -1.570829216633932 2.164159059524536 0.23796296119689941 -0.1899690479040146 0.27037957310676575 -0.08122274279594421 -8.615297779097495e-30 0.2294512838125229 1 True False
5669.007 3.7483999729156494 -0.855358437900879 0.8844841162310999 -1.599964281121725 -1.5708048979388636 2.1774840354919434 0.29337751865386963 -0.24411556124687195 0.3378888964653015 -0.09278810769319534 -0.0 0.29455724358558655 1 True False
5669.057 3.7646007537841797 -0.8688187760165711 0.9032772223102015 -1.605016370812887 -1.570784870778219 2.1939663887023926 0.3606225252151489 -0.2951897084712982 0.4115830361843109 -0.11654849350452423 -0.0 0.3525055944919586 1 True False
5669.107 3.7842533588409424 -0.8848477762988587 0.9253857771502894 -1.6112247906126917 -1.5707691351519983 2.213381767272949 0.4176059663295746 -0.3441189229488373 0.478811651468277 -0.13691717386245728 -0.0 0.4195593297481537 1 True False
5669.157 3.8067681789398193 -0.9034791749766846 0.951266113911764 -1.6183353863158167 -1.570829216633932 2.235846519470215 0.4799666106700897 -0.39108744263648987 0.5482101440429688 -0.15195487439632416 -0.0 0.4816352128982544 1 True False
5669.206999999999 3.832149028778076 -0.9244474929622193 0.9803255240069788 -1.6267134151854457 -1.570824925099508 2.2614338397979736 0.5369058847427368 -0.44458699226379395 0.6148135662078857 -0.17466361820697784 5.086130927338492e-18 0.5329667925834656 1 True False
5669.257 3.86095929145813 -0.9480828207782288 1.0131109396563929 -1.6359206638731898 -1.5707886854754847 2.2900967597961426 0.6004827618598938 -0.4997004270553589 0.6794017553329468 -0.18997621536254883 -4.7837648151509605e-17 0.5944608449935913 1 True False
5669.307 3.8925838470458984 -0.9740905326655884 1.049368683491842 -1.6458116970457972 -1.5707810560809534 2.321810722351074 0.6662448644638062 -0.5391122102737427 0.7578029632568359 -0.19752457737922668 -7.266547487869477e-36 0.6540177464485168 1 True False
5669.357 3.9273030757904053 -1.0027809304049988 1.0889180342303675 -1.6570493183531703 -1.5707648436175745 2.356544256210327 0.7198085784912109 -0.5888005495071411 0.8256709575653076 -0.2412702739238739 -0.0 0.7186709642410278 1 True False
5669.407 3.965115547180176 -1.0338164132884522 1.1322997252093714 -1.669032712975973 -1.5707767645465296 2.3941245079040527 0.7803007960319519 -0.6406405568122864 0.8991321325302124 -0.26110830903053284 -0.0 0.7876429557800293 1 True False
5669.456999999999 4.005982398986816 -1.0675305289081116 1.1788442770587366 -1.6819340191283167 -1.5707686583148401 2.435152769088745 0.8464853763580322 -0.6931782364845276 0.971990704536438 -0.2657363712787628 -5.3296364058041945e-05 0.8482052683830261 1 True False
5669.507 4.049905776977539 -1.1035136145404358 1.22900897661318 -1.6961127720274867 -1.5708487669574183 2.479215621948242 0.9082013964653015 -0.7493749856948853 1.031632661819458 -0.3079651892185211 -3.215110700693913e-05 0.9008107781410217 1 True False
5669.557 4.095608711242676 -1.1412548881820221 1.2812297979937952 -1.7106777630248011 -1.5707805792437952 2.524747133255005 0.9116721749305725 -0.7535371780395508 1.0442358255386353 -0.31568846106529236 -4.883758978132762e-24 0.9247227907180786 1 True False
5669.607 4.141493320465088 -1.1789959830096741 1.3335607687579554 -1.7254635296263636 -1.5707486311541956 2.5708253383636475 0.9188838005065918 -0.754118800163269 1.0449291467666626 -0.28326618671417236 0.00017830758588388562 0.9109688997268677 1 True False
5669.657 4.187378406524658 -1.216677801018097 1.3859942595111292 -1.7401544056334437 -1.5707772413836878 2.61643385887146 0.9145121574401855 -0.7543366551399231 1.0451610088348389 -0.3026282489299774 -0.00014563319564331323 0.9194604754447937 1 True False
5669.706999999999 4.23311185836792 -1.254508064394333 1.4383505026446741 -1.7545658550658167 -1.5707362333880823 2.6624269485473633 0.9208125472068787 -0.7492403984069824 1.0540937185287476 -0.28715482354164124 -1.9983855281680007e-07 0.9150504469871521 1 True False
5669.757 4.278939723968506 -1.292256848221161 1.4908202330218714 -1.7691284618773402 -1.5708611647235315 2.7078847885131836 0.9155885577201843 -0.7551061511039734 1.0490816831588745 -0.26249027252197266 -0.0014040229143574834 0.922602653503418 1 True False
5669.807 4.324799537658691 -1.3298971515944977 1.5429957548724573 -1.7840334377684535 -1.5707653204547327 2.754005193710327 0.9185977578163147 -0.7573568224906921 1.0387401580810547 -0.3075106143951416 1.2219709966121428e-10 0.918514609336853 1 True False
5669.857 4.369451999664307 -1.3666321647218247 1.5938933531390589 -1.7981301746764125 -1.5707686583148401 2.798579216003418 0.8586711287498474 -0.7081138491630554 0.984645664691925 -0.27861112356185913 -8.58098064782098e-05 0.8619983196258545 1 True False
5669.907 4.41109561920166 -1.4009719055942078 1.6416109243976038 -1.8115536175169886 -1.5707247892962855 2.8402607440948486 0.8055851459503174 -0.6656230688095093 0.9132190346717834 -0.24370457231998444 0.00044402314233593643 0.816605269908905 1 True False
5669.956999999999 4.449769020080566 -1.432697282438614 1.6856783072101038 -1.8238054714598597 -1.5707686583148401 2.878962993621826 0.7445234656333923 -0.6089112758636475 0.8467726111412048 -0.23979955911636353 0.0001673100923653692 0.7387500405311584 1 True False
5670.007 4.485307693481445 -1.4619704273394127 1.7261245886432093 -1.8353148899474085 -1.5707691351519983 2.9145278930664062 0.6789761781692505 -0.5614388585090637 0.7773926258087158 -0.22494176030158997 -0.0003103062917944044 0.6792066097259521 1 True False
5670.057 4.51768159866333 -1.4887256038239975 1.7632406393634241 -1.8456617794432582 -1.5708406607257288 2.94697642326355 0.6191849112510681 -0.5167888402938843 0.7040112018585205 -0.19164231419563293 -5.235131447269004e-13 0.6162257194519043 1 True False
5670.107 4.547029972076416 -1.5130504381707688 1.7970011870013636 -1.8548814258971156 -1.5708492437945765 2.9764437675476074 0.5570419430732727 -0.4624827802181244 0.6365293264389038 -0.1917685866355896 1.8760516695692786e-07 0.5557166337966919 1 True False
5670.157 4.573331356048584 -1.5347911950996895 1.8272994200335901 -1.8633610210814417 -1.5708406607257288 3.002729654312134 0.49760448932647705 -0.40314093232154846 0.5607918500900269 -0.1660931259393692 1.0952999218716286e-06 0.4962960183620453 1 True False
5670.206999999999 4.59682559967041 -1.5538166158697386 1.853779141102926 -1.8707949123778285 -1.5708168188678187 3.025975465774536 0.4318581819534302 -0.36276543140411377 0.5025991201400757 -0.13475552201271057 0.00011244999041082337 0.4492846131324768 1 True False
5670.257 4.617162227630615 -1.5706323640809678 1.8767936865436 -1.877327104608053 -1.5707805792437952 3.046217918395996 0.37242111563682556 -0.3111472427845001 0.4256121814250946 -0.10994137823581696 0.00016254407819360495 0.37797266244888306 1 True False
5670.307 4.634206771850586 -1.5845524273314417 1.8966663519488733 -1.882700105706686 -1.5707967917071741 3.0634992122650146 0.31722313165664673 -0.26057377457618713 0.3551255762577057 -0.12378162890672684 4.7912195986074576e-23 0.31240561604499817 1 True False
5670.357 4.6484785079956055 -1.5963946781554164 1.9127610365497034 -1.8870693645873011 -1.5707767645465296 3.0776073932647705 0.24931354820728302 -0.2004353106021881 0.297744482755661 -0.0689697191119194 -0.0003473082324489951 0.2592122256755829 1 True False
5670.407 4.659503936767578 -1.605565687219137 1.9253276030169886 -1.8908821545042933 -1.5707886854754847 3.0887231826782227 0.1898461878299713 -0.15935976803302765 0.21523915231227875 -0.05533210188150406 -3.456679942281937e-10 0.18967166543006897 1 True False
5670.456999999999 4.667500972747803 -1.612009664575094 1.9346144835101526 -1.893308778802389 -1.570813004170553 3.0967464447021484 0.13296976685523987 -0.1103326603770256 0.15001341700553894 -0.048396997153759 7.470334094250575e-05 0.12930715084075928 1 True False
5670.507 4.672563552856445 -1.6162024937071742 1.940317455922262 -1.8949643574156703 -1.5708168188678187 3.101783275604248 0.06833373010158539 -0.05770450830459595 0.0839013010263443 -0.023310987278819084 2.5115118837215863e-19 0.07082401216030121 1 True False
5670.557 4.674468517303467 -1.6178051433958949 1.9425399939166468 -1.8955232105650843 -1.5707724730121058 3.1036581993103027 0.010335767641663551 -0.008384590037167072 0.010088496841490269 -0.0010839077876880765 3.814992749910692e-38 0.009028246626257896 1 True False
5670.607 4.67445182800293 -1.6173106632628382 1.9433859030352991 -1.8969408474364222 -1.5707967917071741 3.1036581993103027 -2.6134131317356868e-11 0.02026333287358284 0.037506408989429474 -0.05374875292181969 0.0 7.263061706908047e-05 1 True False
5670.657 4.674447536468506 -1.6156207523741664 1.9464252630816858 -1.901567121545309 -1.570801083241598 3.1037144660949707 0.0008615551050752401 0.050276756286621094 0.07968326658010483 -0.12699507176876068 0.0 5.462133412947878e-05 1 True False
5670.706999999999 4.674525260925293 -1.6124216518797816 1.9515984694110315 -1.909830709496969 -1.5707967917071741 3.1037111282348633 0.001063804724253714 0.07714352011680603 0.12101780623197556 -0.2076151967048645 0.0 0.0005507597816176713 1 True False
5670.757 4.6744866371154785 -1.6078835926451625 1.9587023893939417 -1.9215613804259242 -1.5707562605487269 3.1037302017211914 0.00022082867508288473 0.10953206568956375 0.1673692762851715 -0.25847169756889343 0.0 0.00035050458973273635 1 True False
5670.807 4.674526691436768 -1.601943155328268 1.9680569807635706 -1.9369589291014613 -1.5708449522601526 3.1037144660949707 0.00019311408686917275 0.1300744116306305 0.2062896490097046 -0.332605242729187 4.033151037533683e-13 0.00018600741168484092 1 True False
5670.857 4.6745076179504395 -1.5947047672667445 1.979952637349264 -1.9556261501707972 -1.5707605520831507 3.1037540435791016 0.0001117945575970225 0.15573294460773468 0.25108757615089417 -0.40659859776496887 6.126367401471496e-32 0.00010101690713781863 1 True False
5670.907 4.6745076179504395 -1.5862566433348597 1.9931991736041468 -1.9779192409911097 -1.5707805792437952 3.1037089824676514 7.366706267930567e-05 0.18285329639911652 0.29246896505355835 -0.46886953711509705 0.0 6.882676825625822e-05 1 True False
5670.956999999999 4.674505233764648 -1.5764323673644007 2.0093119780169886 -2.0036965809264125 -1.5708211104022425 3.103710174560547 1.817552489294117e-20 0.21017864346504211 0.33495569229125977 -0.5448223948478699 0.0 6.358672946906244e-15 1 True False
5671.007 4.674527645111084 -1.5651533927633245 2.02710992494692 -2.032741685906881 -1.5707967917071741 3.103762626647949 0.0 0.22147223353385925 0.353899210691452 -0.5919203162193298 0.0 9.658842389454882e-34 1 True False
5671.057 4.6745476722717285 -1.5545898240855713 2.04421312013735 -2.0603062115111292 -1.5707925001727503 3.1036689281463623 0.0 0.2041088193655014 0.3209232985973358 -0.5131635069847107 0.0 0.0 1 True False
5671.107 4.674561023712158 -1.5453828957727929 2.05888539949526 -2.0845867596068324 -1.5707886854754847 3.103750705718994 6.024644822328739e-32 0.17790170013904572 0.27490267157554626 -0.45895928144454956 0.0 0.0 1 True False
5671.157 4.6745476722717285 -1.5372311261347313 2.071902100239889 -2.1053062878050746 -1.5707529226886194 3.103750705718994 0.0 0.14556346833705902 0.23485656082630157 -0.3923235535621643 0.0 0.0 1 True False
5671.206999999999 4.674530982971191 -1.5305827011219044 2.0824196974383753 -2.122592111627096 -1.570801083241598 3.1037259101867676 0.0 0.1166430190205574 0.18527716398239136 -0.3059077560901642 0.0 0.0 1 True False
5671.257 4.674519062042236 -1.5253887635520478 2.090877358113424 -2.136278291741842 -1.5707524458514612 3.1037638187408447 0.0 0.09429891407489777 0.148518905043602 -0.2307901233434677 0.0 0.0 1 True False
5671.307 4.674540042877197 -1.521349248742201 2.0972188154803675 -2.1466828785338343 -1.5707891623126429 3.1037464141845703 0.0 0.06679487973451614 0.10582763701677322 -0.1711946278810501 0.0 0.0 1 True False
5671.357 4.67452335357666 -1.5188331504217167 2.101532284413473 -2.153489728967184 -1.5707686583148401 3.103705883026123 0.0 0.0404413677752018 0.06523348391056061 -0.09886062145233154 0.0 7.386752258753404e-07 1 True False
5671.407 4.67452335357666 -1.5175666970065613 2.103445831929342 -2.1566835842528285 -1.5707925001727503 3.1036927700042725 0.0 0.013270096853375435 0.019898628816008568 -0.03230612352490425 0.0 1.1220490042712995e-25 1 True False
5671.456999999999 4.674516201019287 -1.5174338159016152 2.1035693327533167 -2.156938215295309 -1.570813004170553 3.103713274002075 0.0 -9.508961375104263e-05 -0.0009466024348512292 -0.00029971159528940916 0.0 1.6815581571897805e-44 1 True False
5671.507 4.674477577209473 -1.517499440615513 2.103581253682272 -2.1569744549193324 -1.5708134810077112 3.1037757396698 0.0 0.0 4.877220999333076e-05 -0.0008777031907811761 0.0 0.0 1 True False
5671.557 4.674556732177734 -1.5174144592932244 2.103638474141256 -2.1570550403990687 -1.5707648436175745 3.103717565536499 0.0 0.00023355426674243063 6.232535088201985e-05 -0.0013585928827524185 0.0 0.0 1 True False
5671.607 4.674531936645508 -1.5173977699926873 2.10366660753359 -2.1570502720274867 -1.5707967917071741 3.103766918182373 0.0 0.0001693487138254568 5.010936001781374e-05 -0.001272655907087028 0.0 0.0 1 True False
5671.657 4.67452335357666 -1.5174189370921631 2.103621308003561 -2.1570102177061976 -1.570813004170553 3.103766918182373 0.0 0.00022760401770938188 4.5637647417606786e-05 -0.00025339683634229004 0.0 0.0 1 True False
5671.706999999999 4.674514293670654 -1.5174531501582642 2.1036503950702112 -2.157058378259176 -1.5707886854754847 3.1037344932556152 0.0 0.00016149133443832397 3.1424013286596164e-05 -0.00011030977475456893 0.0 0.0 1 True False
5671.757 4.674527645111084 -1.517390427445509 2.103720013295309 -2.157042165795797 -1.5707925001727503 3.1037302017211914 0.0 0.00012320712266955525 1.512995668446199e-29 -6.839218258392066e-05 0.0 0.0 1 True False
5671.807 4.6745076179504395 -1.5174366694739838 2.1036418120013636 -2.157074113885397 -1.570829216633932 3.103762626647949 0.0 6.619781197514385e-05 6.263313844101503e-05 -2.5138946512015536e-05 0.0 0.0 1 True False
5671.857 4.6745076179504395 -1.5174036298743268 2.103694264088766 -2.157070299188131 -1.5708087126361292 3.103743314743042 -4.9196169884897296e-17 4.360942330094986e-05 2.038955592906233e-12 -3.8186090071889534e-24 0.0 0.0 1 True False
5671.907 4.674527645111084 -1.5174234707704564 2.1036623159991663 -2.1570340595641078 -1.5708168188678187 3.1036808490753174 0.0 -1.1691731861548918e-20 4.7980459418481737e-42 -5.801375642304743e-43 0.0 0.0 1 True False
5671.956999999999 4.67452335357666 -1.5173740436187764 2.103612724934713 -2.1570502720274867 -1.5707891623126429 3.103750705718994 0.0 0.0 0.0 -0.0 0.0 0.0 1 True False
5672.007 4.6744794845581055 -1.5174814660898228 2.103703323994772 -2.157045980493063 -1.57082444826235 3.10370135307312 0.0 0.0 4.6442005441349465e-06 -0.0 -0.0044456361792981625 0.0 1 True False
5672.057 4.674539089202881 -1.5175291460803528 2.1034706274615687 -2.157262464562887 -1.570813004170553 3.103762626647949 5.054981502668247e-21 0.0007127554854378104 0.00021033981465734541 -0.000340545637300238 1.813686936638463e-14 0.0 1 True False
5672.107 4.67453145980835 -1.517522146259882 2.1034467856036585 -2.1572982273497523 -1.5707486311541956 3.103755235671997 0.0 0.002040661172941327 0.001742459717206657 0.00045692228013649583 2.7549941714076947e-33 0.0 1 True False
5672.157 4.674514293670654 -1.5174770329943676 2.1034629980670374 -2.1572820148863734 -1.5708168188678187 3.1037800312042236 0.0 0.0016986497212201357 0.0023766912054270506 0.002465144731104374 0.0 0.0 1 True True
5672.206999999999 4.674516201019287 -1.5176142838648339 2.1032326857196253 -2.1563712559142054 -1.570784870778219 3.103762626647949 0.0 -0.012588974088430405 -0.02005433477461338 0.04747268930077553 0.0 0.0 1 True True
5672.257 4.6744914054870605 -1.5187966164997597 2.1015475432025355 -2.1517707310118617 -1.5708254019366663 3.1037378311157227 -5.2774607600669654e-11 -0.04854164645075798 -0.06706129759550095 0.09927483648061752 6.200110361104986e-18 0.0 1 True True
5672.307 4.67452335357666 -1.5220899333110829 2.096048657094137 -2.144583364526266 -1.5707886854754847 3.103747606277466 3.214454045519233e-05 -0.07336276769638062 -0.11866720020771027 0.18351693451404572 -3.636677865870297e-05 0.0 1 True True
5672.357 4.674531936645508 -1.5264877465418358 2.089076344166891 -2.133446832696432 -1.5707891623126429 3.1037344932556152 1.7023883629008196e-05 -0.10185641795396805 -0.1620832234621048 0.24849575757980347 -3.6079425626667216e-05 0.0 1 True True
5672.407 4.674475193023682 -1.5320116256228467 2.0802138487445276 -2.118866106072897 -1.5707648436175745 3.103783130645752 1.1558246114873327e-05 -0.1215587928891182 -0.19520199298858643 0.32107260823249817 -4.345517001791421e-12 0.0 1 True True
5672.456999999999 4.674499988555908 -1.5391064037433644 2.068920914326803 -2.1008182964720667 -1.5707767645465296 3.1037843227386475 2.322440927959149e-30 -0.14941908419132233 -0.24043583869934082 0.4019322097301483 -6.6008484081159375e-31 0.0 1 True True
5672.507 4.674495697021484 -1.5473377977362652 2.055706802998678 -2.079155584374899 -1.5708254019366663 3.1037344932556152 0.0 -0.18212571740150452 -0.2859019935131073 0.47027096152305603 -1.8779667243506992e-06 0.0 1 True True
5672.557 4.674540042877197 -1.5569218586063762 2.040269200001852 -2.0540367565550746 -1.5707886854754847 3.103713274002075 0.0 -0.20536743104457855 -0.32836973667144775 0.5297533273696899 -2.852635171591403e-25 0.0 1 True True
5672.607 4.67452335357666 -1.5679214448067178 2.0226853529559534 -2.025689741174215 -1.570756737385885 3.103766918182373 2.2420775429197073e-44 -0.23142050206661224 -0.3708510398864746 0.5959113240242004 -4.344025239406933e-44 0.0 1 True True
5672.657 4.674520492553711 -1.578714986840719 2.0051987806903284 -1.9972850284972132 -1.570813004170553 3.1037344932556152 0.0 -0.20690347254276276 -0.3309658169746399 0.5397351384162903 -0.0 0.0 1 True True
5672.706999999999 4.674519062042236 -1.588412424127096 1.9900744597064417 -1.9723979435362757 -1.5707686583148401 3.1037344932556152 0.0 -0.1764913648366928 -0.2810230851173401 0.4661679267883301 -3.5365268114158355e-13 0.0 1 True True
5672.757 4.674551963806152 -1.5966197452940882 1.9767754713641565 -1.9509250126280726 -1.5707967917071741 3.10370135307312 0.0 -0.14700274169445038 -0.2377614676952362 0.386392205953598 -5.371993901831293e-32 0.0 1 True True
5672.807 4.674527645111084 -1.6035314999022425 1.9656956831561487 -1.9329363308348597 -1.570772949849264 3.103726387023926 0.0 -0.12191355228424072 -0.20196041464805603 0.32882407307624817 -0.0 0.0 1 True True
5672.857 4.6745147705078125 -1.6089726887144984 1.9568713347064417 -1.918647905389303 -1.5707805792437952 3.1037344932556152 0.0 -0.09831594675779343 -0.15984824299812317 0.24674633145332336 -0.0 -8.900436895441582e-20 1 True True
5672.907 4.674531936645508 -1.613136430779928 1.9502165953265589 -1.9076630077757777 -1.5707967917071741 3.1037344932556152 0.0 -0.07320941984653473 -0.11314636468887329 0.19549618661403656 -0.0 -3.9248000059362645e-14 1 True True
5672.956999999999 4.674511909484863 -1.6160747013487757 1.9454720656024378 -1.9001060924925746 -1.5708087126361292 3.103726387023926 0.0 -0.045761995017528534 -0.0743132010102272 0.11816117912530899 -0.0 -5.9617785762943966e-33 1 True True
5673.007 4.674548625946045 -1.6176535091795863 1.943085018788473 -1.896304269830221 -1.5708168188678187 3.103739023208618 0.0 -0.018550297245383263 -0.026828546077013016 0.04684203118085861 -0.0 -0.0 1 True True
5673.057 4.674271583557129 -1.6177550754942835 1.9427321592914026 -1.8956033192076625 -1.5707529226886194 3.1034903526306152 -0.025780556723475456 0.009258772246539593 -0.007121136877685785 -6.456481969507877e-06 -0.0 -0.024158192798495293 1 True True
5673.107 4.671344757080078 -1.6170150242247523 1.9415887037860315 -1.8953749142088832 -1.5707810560809534 3.100480079650879 -0.09348919987678528 0.023024214431643486 -0.02932756580412388 0.010099038481712341 -0.0 -0.0934864804148674 1 True True
5673.157 4.664740562438965 -1.615349908868307 1.93943959871401 -1.8950287304320277 -1.5708044211017054 3.093935251235962 -0.16524970531463623 0.04477459192276001 -0.05542457848787308 0.009169913828372955 -0.0 -0.16267146170139313 1 True True
5673.206999999999 4.6547532081604 -1.612680574456686 1.9363721052752894 -1.8944007358946742 -1.5707772413836878 3.0840139389038086 -0.23674672842025757 0.06202132999897003 -0.07159039378166199 0.009860959835350513 -0.0 -0.23473204672336578 1 True True
5673.257 4.641172409057617 -1.6090771160521449 1.9319923559771937 -1.8938032589354457 -1.5708325544940394 3.0703744888305664 -0.3033732771873474 0.08436068892478943 -0.09752905368804932 0.014754004776477814 -1.3973617818408002e-09 -0.30156201124191284 1 True True
5673.307 4.624300956726074 -1.604593416253561 1.9266231695758265 -1.8928243122496546 -1.570784870778219 3.0534567832946777 -0.3756536841392517 0.0993630439043045 -0.12083905190229416 0.0220356285572052 1.160593566780846e-13 -0.37008926272392273 1 True True
5673.357 4.603679180145264 -1.5990749798216761 1.920016113911764 -1.8917905292906703 -1.5708168188678187 3.032836675643921 -0.44082218408584595 0.11687466502189636 -0.1389360874891281 0.02859368734061718 -0.000522959919180721 -0.43771204352378845 1 True True
5673.407 4.579623699188232 -1.5927807293333949 1.9123252073871058 -1.8905469379820765 -1.5708006064044397 3.009046792984009 -0.510909378528595 0.13469712436199188 -0.1689012050628662 0.02876889333128929 3.0178711313055828e-05 -0.5184600353240967 1 True True
5673.456999999999 4.552338600158691 -1.5854822597899378 1.9036486784564417 -1.8889686069884242 -1.5707843939410608 2.9815967082977295 -0.5855134725570679 0.15346139669418335 -0.19118499755859375 0.028172584250569344 1.3757327765916076e-22 -0.5852367877960205 1 True True
5673.657 4.407581806182861 -1.5472541742822905 1.8575623671161097 -1.8811966381468714 -1.5707925001727503 2.8366200923919678 -0.8589529395103455 0.22896568477153778 -0.2741484045982361 0.047774527221918106 0.00039596957503817976 -0.8549197912216187 1 True True
5673.706999999999 4.362677574157715 -1.5351663541844864 1.8431642691241663 -1.878793855706686 -1.5708048979388636 2.791940450668335 -0.9334891438484192 0.24342471361160278 -0.30084028840065 0.04919843375682831 -0.00016893362044356763 -0.9346086382865906 1 True True
5673.757 4.314263820648193 -1.5224052381566544 1.827921215687887 -1.8762480221190394 -1.5708254019366663 2.743380069732666 -1.0027167797088623 0.2623932361602783 -0.3276444673538208 0.049030449241399765 -0.00013648807362187654 -1.003359079360962 1 True True
5673.807 4.262580394744873 -1.5088082750192662 1.8111494223224085 -1.8733169041075648 -1.5708087126361292 2.6918113231658936 -1.0488604307174683 0.2806614339351654 -0.3312342166900635 0.06468065083026886 8.872503531165421e-05 -1.055238962173462 1 True True
5673.857 4.2102532386779785 -1.494782881145813 1.7947505156146448 -1.870730539361471 -1.570829216633932 2.6394758224487305 -1.0525314807891846 0.2708194851875305 -0.3383291959762573 0.05185849592089653 -0.0003304342390038073 -1.043850302696228 1 True True
5673.907 4.157855987548828 -1.4810976845077057 1.7779439131366175 -1.867807527581686 -1.5707686583148401 2.5869874954223633 -1.0486500263214111 0.279974102973938 -0.3340626657009125 0.060160260647535324 6.7654532358574215e-06 -1.0428587198257446 1 True True
5673.956999999999 4.1054253578186035 -1.467053474192955 1.7614358107196253 -1.8649050197997035 -1.5708048979388636 2.534707546234131 -1.0463321208953857 0.2744441032409668 -0.32943370938301086 0.05262894555926323 9.262377716368064e-05 -1.0548532009124756 1 True True
5674.007 4.053228378295898 -1.453341321354248 1.7446139494525355 -1.8622504673399867 -1.5707805792437952 2.482412576675415 -1.0520068407058716 0.2789563536643982 -0.3368326425552368 0.05414764955639839 -8.819354843581095e-05 -1.0425314903259277 1 True True
5674.057 4.000799179077148 -1.4393267345479508 1.7279441992389124 -1.859203954736227 -1.5707929770099085 2.4299182891845703 -1.046004056930542 0.2793150544166565 -0.3272160589694977 0.05956195667386055 -5.519877605659005e-22 -1.0460350513458252 1 True True
5674.107 3.9485297203063965 -1.4256411355784913 1.7112868467914026 -1.856572767297262 -1.5708053747760218 2.377639055252075 -1.0430924892425537 0.2739318013191223 -0.33622121810913086 0.0554768443107605 0.0007040633354336023 -1.0536898374557495 1 True True
5674.157 3.8961265087127686 -1.4116816085628052 1.6946328322040003 -1.8536821804442347 -1.5708254019366663 2.325347900390625 -1.0485546588897705 0.28187718987464905 -0.33344465494155884 0.06373514980077744 3.05053958982171e-07 -1.0464929342269897 1 True True
5674.206999999999 3.8436853885650635 -1.3977665168097992 1.6778581778155726 -1.8509394131102503 -1.5707925001727503 2.272860050201416 -1.0458853244781494 0.2776324450969696 -0.33142566680908203 0.05293966084718704 4.63377635283921e-26 -1.0395081043243408 1 True True
5674.257 3.791285753250122 -1.3839845669320603 1.661125961934225 -1.8481131992735804 -1.5707724730121058 2.2204408645629883 -1.044184684753418 0.28121641278266907 -0.33594897389411926 0.0596899650990963 2.1803576999435137e-10 -1.0513378381729126 1 True True
5674.307 3.7389304637908936 -1.3698846709779282 1.6446002165423792 -1.8451596699156703 -1.5708044211017054 2.168208599090576 -1.0466821193695068 0.2751657962799072 -0.3238023817539215 0.051314156502485275 3.756075983574192e-08 -1.04462468624115 1 True True
5674.357 3.6866297721862793 -1.3562204551747818 1.6276629606830042 -1.8424631557860316 -1.5707405249225062 2.1157312393188477 -1.0484591722488403 0.27936670184135437 -0.33535465598106384 0.057227447628974915 5.705489652677433e-27 -1.0425001382827759 1 True True
5674.407 3.634345293045044 -1.342162774210312 1.6112917105304163 -1.839553018609518 -1.5707882086383265 2.0634214878082275 -1.0436177253723145 0.27552998065948486 -0.33581405878067017 0.06276313215494156 1.401298464324817e-45 -1.0515764951705933 1 True True
5674.456999999999 3.581925868988037 -1.3284559559873124 1.5943802038775843 -1.8369657001891078 -1.5707686583148401 2.0112154483795166 -1.0484483242034912 0.27472245693206787 -0.33649614453315735 0.04943900555372238 0.0 -1.0495765209197998 1 True True
5674.507 3.5296237468719482 -1.3145354253104706 1.5778544584857386 -1.834015508691305 -1.5707524458514612 1.9587186574935913 -1.0478627681732178 0.27856066823005676 -0.3380146324634552 0.056785471737384796 5.639192150080127e-15 -1.0426162481307983 1 True True
5674.557 3.4771924018859863 -1.3006881338408967 1.5610135237323206 -1.8311330280699671 -1.5707843939410608 1.906293511390686 -1.0438973903656006 0.273007333278656 -0.3313469886779785 0.050488557666540146 8.565944883877091e-34 -1.0521273612976074 1 True True
5674.607 3.424785614013672 -1.2868632239154358 1.5444868246661585 -1.8283893070616664 -1.5707805792437952 1.8541350364685059 -1.0499299764633179 0.2802707254886627 -0.34003883600234985 0.05511388182640076 -2.6819383492693305e-05 -1.0469449758529663 1 True True
5674.657 3.373106002807617 -1.273065910940506 1.5279267469989222 -1.8256150684752406 -1.570836369191305 1.8023548126220703 -1.005408525466919 0.263698548078537 -0.31650468707084656 0.06040447577834129 -2.888308307778818e-22 -1.0038317441940308 1 True True
5674.706999999999 3.3248724937438965 -1.2603998643210907 1.5127056280719202 -1.8230425320067347 -1.5708044211017054 1.7541836500167847 -0.9327359199523926 0.2473541498184204 -0.29591861367225647 0.04669519513845444 -4.38732536195457e-41 -0.9413301348686218 1 True True
5674.757 3.2799911499023438 -1.248377726679184 1.498258415852682 -1.8206178150572718 -1.5708048979388636 1.7091246843338013 -0.8657729625701904 0.2275252342224121 -0.27581778168678284 0.04386433959007263 0.00040057048317976296 -0.8592075109481812 1 True True
5674.807 3.2386586666107178 -1.2374859613231202 1.4851105848895472 -1.8182598553099574 -1.5707967917071741 1.667831301689148 -0.7917860150337219 0.20742683112621307 -0.25539690256118774 0.04056021198630333 7.91842177765012e-13 -0.7964392900466919 1 True True
5674.857 3.2006566524505615 -1.2275249522975464 1.4729741255389612 -1.8163558445372523 -1.5707967917071741 1.6299575567245483 -0.7206514477729797 0.19519326090812683 -0.22914838790893555 0.035462409257888794 0.0001391707919538021 -0.7281212210655212 1 True True
5674.907 3.1663169860839844 -1.218237505560257 1.4622133413897913 -1.814439435998434 -1.5707886854754847 1.595528244972229 -0.6518347859382629 0.17347577214241028 -0.21016114950180054 0.03837858885526657 9.20702508869454e-21 -0.6600075364112854 1 True True
5674.956999999999 3.135469913482666 -1.2101952296546479 1.4522536436664026 -1.8128491840758265 -1.5707686583148401 1.5646626949310303 -0.5826361775398254 0.15150189399719238 -0.18677441775798798 0.030124932527542114 0.0007512320298701525 -0.5931717753410339 1 True True
5675.007 3.108057975769043 -1.2028672856143494 1.4434993902789515 -1.811214109460348 -1.5707810560809534 1.537217617034912 -0.5129898190498352 0.1333705484867096 -0.15958093106746674 0.02750532142817974 -6.13346373690149e-10 -0.5145344734191895 1 True True
5675.057 3.0841763019561768 -1.196637288933136 1.4357579390155237 -1.8100339374937953 -1.5707691351519983 1.5132901668548584 -0.44222402572631836 0.11887418478727341 -0.14196673035621643 0.025949964299798012 -9.316744485724693e-29 -0.4479946494102478 1 True True
5675.107 3.063565731048584 -1.1911028784564515 1.4293845335589808 -1.8090740642943324 -1.5708044211017054 1.4928017854690552 -0.3708442151546478 0.09892012923955917 -0.11971420794725418 0.023298511281609535 -0.0 -0.37186771631240845 1 True True
5675.157 3.0466315746307373 -1.186570183639862 1.4238908926593226 -1.8081370792784632 -1.5708254019366663 1.475907325744629 -0.30902352929115295 0.07747951149940491 -0.09569387137889862 0.015143525786697865 8.764243102632463e-05 -0.3060291111469269 1 True True
5675.206999999999 3.0333189964294434 -1.1830219787410279 1.4197185675250452 -1.8072754345335902 -1.5707805792437952 1.4624837636947632 -0.2349628210067749 0.060079146176576614 -0.07776190340518951 0.011843256652355194 6.004327951814048e-05 -0.23486542701721191 1 True True
5675.257 3.0232906341552734 -1.1805029076388855 1.416584316884176 -1.8067289791502894 -1.5707805792437952 1.4525012969970703 -0.163479745388031 0.045904241502285004 -0.05130946636199951 0.010358056984841824 -1.7425816622562706e-05 -0.16833658516407013 1 True True
5675.307 3.016784429550171 -1.1787694257548829 1.4143531958209437 -1.806542535821432 -1.570801083241598 1.445976734161377 -0.093318872153759 0.02582388184964657 -0.03280815854668617 0.004183204844594002 -1.174184671981493e-05 -0.0950019359588623 1 True True
5675.357 3.0137460231781006 -1.1779315632632752 1.4134786764727991 -1.806343217889303 -1.5708087126361292 1.4430162906646729 -0.024317461997270584 0.006026136223226786 -0.007465144153684378 0.0015276018530130386 -3.3867104677317086e-14 -0.02769199199974537 1 True True
5675.407 3.013727903366089 -1.1776660841754456 1.4137738386737269 -1.8068815670409144 -1.5708168188678187 1.4428044557571411 0.0010710882488638163 0.018411798402667046 0.027160532772541046 -0.03613685816526413 -5.1444231913630894e-33 1.6494326520941072e-12 1 True True
5675.456999999999 3.0137217044830322 -1.1763675075820466 1.4163745085345667 -1.8109051189818324 -1.57074481645693 1.4427759647369385 -0.00020923546981066465 0.03317849338054657 0.07615579664707184 -0.11138738691806793 -0.0 -0.0003260276571381837 1 True True
5675.507 3.013599157333374 -1.173929588203766 1.421539608632223 -1.8184095821776332 -1.5707886854754847 1.4428428411483765 -0.0004936656332574785 0.05789613351225853 0.1293478161096573 -0.1776360273361206 -0.0 -0.00037150830030441284 1 True True
5675.557 3.0136287212371826 -1.1704231065562745 1.4290970007525843 -1.8294826946654261 -1.5707691351519983 1.442810297012329 -0.000497428874950856 0.08368378132581711 0.17606203258037567 -0.24729907512664795 -0.0 -0.00023616780526936054 1 True True
5675.607 3.0135960578918457 -1.1657396715930481 1.4388979117022913 -1.8440729580321253 -1.5707686583148401 1.4428014755249023 -0.00012751613394357264 0.10440300405025482 0.22063419222831726 -0.32059022784233093 -5.983769733575173e-05 -0.00010302644659532234 1 True True
5675.657 3.013580799102783 -1.1598293644240876 1.4512513319598597 -1.861769815484518 -1.5707925001727503 1.4427746534347534 -0.00010449592082295567 0.13107772171497345 0.26269328594207764 -0.396835595369339 -3.299589366179134e-07 -6.552095146616921e-05 1 True True
5675.706999999999 3.013547897338867 -1.1529692572406312 1.4654882589923304 -1.8833338222899378 -1.5707805792437952 1.4427820444107056 -8.322989742737263e-05 0.14617983996868134 0.3128367066383362 -0.46558183431625366 -7.083135278662667e-05 -1.157486053671164e-07 1 True True
5675.757 3.0135674476623535 -1.144976333980896 1.4826605955706995 -1.9084016285338343 -1.5707767645465296 1.442793607711792 -6.829683115938678e-05 0.17101061344146729 0.35834309458732605 -0.5278536081314087 -1.8929578800452873e-05 -1.7582239707642797e-26 1 True True
5675.807 3.0136213302612305 -1.1365821820548554 1.5001080671893519 -1.9344455204405726 -1.5708048979388636 1.4427926540374756 -4.275017871666531e-32 0.1602267622947693 0.33537814021110535 -0.49998196959495544 -1.6858310013179056e-18 -2.802596928649634e-45 1 True True
5675.857 3.0135345458984375 -1.1290952128222962 1.5157073179828089 -1.9571181736388148 -1.5707886854754847 1.4427554607391357 4.472927321330644e-05 0.1445363461971283 0.2856372892856598 -0.4183880686759949 -2.5607819152053607e-37 -0.0 1 True True
5675.907 3.013601541519165 -1.1229187709144135 1.5285356680499476 -1.9766174755492152 -1.5707805792437952 1.4428014755249023 3.9892223867354915e-05 0.1103258803486824 0.2403361201286316 -0.344770610332489 -0.0 -0.0 1 True True
5675.956999999999 3.013607978820801 -1.1177252394011994 1.539461914693014 -1.9924198589720667 -1.5707486311541956 1.4427893161773682 5.0378588639432564e-05 0.08973203599452972 0.1868395358324051 -0.2845876216888428 -0.0 -0.0 1 True True
5676.007 3.0135598182678223 -1.1138042372516175 1.5477169195758265 -2.0047418079771937 -1.5708211104022425 1.4428014755249023 3.435386315686628e-05 0.06974480301141739 0.1456725001335144 -0.205095574259758 -0.0 -6.883245617927969e-08 1 True True
5676.057 3.0135838985443115 -1.1109888714602967 1.5536754767047327 -2.013655801812643 -1.570813004170553 1.4427820444107056 2.163471491812702e-31 0.045184168964624405 0.10353473573923111 -0.15075035393238068 -0.0 -1.0455661815784421e-26 1 True True
5676.107 3.013646125793457 -1.109187291269638 1.557342831288473 -2.0189396343626917 -1.5707805792437952 1.4427688121795654 0.0 0.02282428741455078 0.04964890703558922 -0.07765686511993408 -0.0 -1.401298464324817e-45 1 True True
5676.157 3.0135509967803955 -1.1089918178370972 1.5582268873797815 -2.02102055172109 -1.5708254019366663 1.4428060054779053 0.0 0.00046178934280760586 0.001642162213101983 -0.0010108513524755836 -1.1637334845771008e-10 -0.0 1 True True
5676.206999999999 3.0135555267333984 -1.1090179842761536 1.558225456868307 -2.021052976647848 -1.5708449522601526 1.4428399801254272 0.0 0.004589189309626818 0.004798673093318939 0.00027134508127346635 -1.7677143480659937e-29 -0.0 1 True True
5676.257 3.0135772228240967 -1.1088478130153199 1.558321777974264 -2.0211006603636683 -1.5708769003497522 1.4427847862243652 0.0 0.006404401268810034 0.006642951630055904 0.0019706517923623323 -0.0 -0.0001320610026596114 1 True True
5676.307 3.0135881900787354 -1.1078837376884003 1.559601132069723 -2.0201312504210414 -1.5707605520831507 1.4427789449691772 0.0003496607532724738 1.540177436254453e-05 4.204043307254324e-06 0.0014893169282004237 8.981917198980227e-05 -3.1786426948202764e-22 1 True True
5676.357 3.0135347843170166 -1.108179823761322 1.5590642134295862 -2.0206619701781214 -1.5707290808307093 1.4427820444107056 9.500990563537925e-05 -0.000734953151550144 -0.00022118547349236906 0.00036959347198717296 1.427494993322398e-07 -0.000509214645717293 1 True False
5676.407 3.013575315475464 -1.1084390145591279 1.5589006582843226 -2.02081360439443 -1.570772949849264 1.4427926540374756 5.054475332144648e-05 -0.003920512739568949 -0.0033674428705126047 -0.0021363734267652035 3.530457252054475e-05 0.0021933086682111025 1 True False
5676.456999999999 3.0135676860809326 -1.1086096328547974 1.5587952772723597 -2.0208894215025843 -1.5708168188678187 1.4428191184997559 3.443103560130112e-05 -0.0032481150701642036 -0.002908626338467002 -0.002938824472948909 5.3627714914315174e-24 -1.3310181401493537e-08 1 True False
5676.507 3.0136327743530273 -1.1085966390422364 1.558707062398092 -2.0208493671812953 -1.5707486311541956 1.4427733421325684 6.878130598356263e-31 1.3037627440104103e-24 -0.00026357005117461085 -0.00023911893367767334 8.141544077727187e-43 -2.0218189148303653e-27 1 True False
5676.557 3.0136003494262695 -1.1092088979533692 1.5575349966632288 -2.0194765530028285 -1.5707610289203089 1.442842960357666 0.0 -0.022863592952489853 -0.04284488409757614 0.06333606690168381 0.0 -0.0 1 True False
5676.607 3.0135796070098877 -1.1106680494597931 1.5545461813556116 -2.0143424473204554 -1.5707362333880823 1.442753791809082 0.0 -0.04150350019335747 -0.08695223927497864 0.1281391829252243 0.0 -0.0 1 True False
5676.657 3.0135960578918457 -1.113443837766983 1.5485823790179651 -2.006062170068258 -1.5707529226886194 1.4427406787872314 0.0 -0.0672447681427002 -0.13253170251846313 0.20623108744621277 -2.9362399800447747e-06 -0.0 1 True False
5676.706999999999 3.013613224029541 -1.1173646611026307 1.5405305067645472 -1.993937154809469 -1.5707886854754847 1.4427239894866943 8.336224675234861e-15 -0.09067719429731369 -0.18356409668922424 0.2639870047569275 -4.460154970132986e-25 -0.0 1 True False
5676.757 3.0135676860809326 -1.1223334533027192 1.5298975149737757 -1.9785248241820277 -1.570813004170553 1.4427119493484497 0.0 -0.1102437898516655 -0.23141446709632874 0.33717358112335205 -8.685686043463647e-05 -0.0 1 True False
5676.807 3.0135555267333984 -1.1283910733512421 1.5172203222857874 -1.9595409832396449 -1.5707967917071741 1.4427570104599 0.0 -0.13102413713932037 -0.29102623462677 0.40913528203964233 -7.030240521999076e-05 -0.0 1 True False
5676.857 3.0135676860809326 -1.1356265109828492 1.5018523375140589 -1.937148233453268 -1.5707843939410608 1.4428014755249023 0.0 -0.15593868494033813 -0.3339764475822449 0.4760366380214691 -1.3187674151489415e-13 -0.0 1 True False
5676.907 3.013607978820801 -1.1440075200847168 1.4845135847674769 -1.9113027058043421 -1.5707967917071741 1.4427361488342285 0.0 -0.1730656921863556 -0.36586794257164 0.5504814386367798 -2.0032107633669332e-32 -0.0 1 True False
5676.956999999999 3.013575315475464 -1.1521427494338532 1.4673050085650843 -1.886003156701559 -1.5708168188678187 1.442810297012329 -1.401298464324817e-45 -0.1489400863647461 -0.3200957477092743 0.4736044406890869 -0.0 -0.0 1 True False
5677.007 3.0136122703552246 -1.1592095357230683 1.4526494185077112 -1.864103456536764 -1.5707405249225062 1.442776083946228 2.0129951735725626e-05 -0.1282072514295578 -0.27697882056236267 0.40531423687934875 -0.0 -0.0 1 True False
5677.057 3.0136208534240723 -1.1650954645923157 1.4400857130633753 -1.845809122125143 -1.5707767645465296 1.442786455154419 0.0 -0.10890839993953705 -0.22795137763023376 0.34222111105918884 -5.37986773185839e-11 -0.0 1 True False
5677.107 3.0135838985443115 -1.1698339742473145 1.4301193396197718 -1.830966135064596 -1.5707891623126429 1.4427803754806519 0.0 -0.08388516306877136 -0.17541220784187317 0.2716999351978302 -8.172031460701851e-30 -0.0 1 True False
5677.157 3.0136208534240723 -1.173555241232254 1.4224961439715784 -1.8196364841856898 -1.5707891623126429 1.4427893161773682 0.0 -0.06485508382320404 -0.13199014961719513 0.19265897572040558 -0.0 -0.0 1 True False
5677.206999999999 3.0136122703552246 -1.1761368078044434 1.4171255270587366 -1.8116828403868617 -1.570756737385885 1.4427317380905151 0.0 -0.04236616566777229 -0.07921423763036728 0.1304149180650711 -0.0 -0.0 1 True False
5677.257 3.0136003494262695 -1.1775053304484864 1.4140494505511683 -1.8073307476439417 -1.5707967917071741 1.4428060054779053 0.0 -0.018369996920228004 -0.03791997581720352 0.05451122671365738 -0.0 -0.0 1 True False
5677.307 3.0135436058044434 -1.1778443914702912 1.4134562651263636 -1.8064266643919886 -1.5708006064044397 1.4427733421325684 0.0 -3.3140022424049675e-06 -4.566637289826758e-05 -4.734281901619397e-05 -0.0 -0.0 1 False False
5677.357 3.0135512351989746 -1.1777332586101075 1.413360897694723 -1.8064104519286097 -1.5707767645465296 1.442765712738037 0.0 1.3574498333296178e-21 -0.0001937405759235844 -7.1913853851832e-24 -0.0 -0.0 1 False False
5677.407 3.0135838985443115 -1.1778356295875092 1.4133742491351526 -1.8063589535155238 -1.5708087126361292 1.4428024291992188 0.0 -6.846415635664016e-05 -6.57464042888023e-05 0.00027196787414141 -0.0 -0.0 1 False False
5677.456999999999 3.0135762691497803 -1.1778564614108582 1.4133995215045374 -1.8063069782652796 -1.5708048979388636 1.4427688121795654 0.0 -0.00031562725780531764 -0.00018051730876322836 0.0003946568176615983 -0.0 -0.0 1 False False
5677.507 3.0136003494262695 -1.1778643888286133 1.4133828322040003 -1.8062588177123011 -1.5708211104022425 1.4427688121795654 0.0 -0.000374382158042863 -0.00018376766820438206 0.00044929125579074025 -0.0 -0.0 1 False False
5677.557 3.0135676860809326 -1.1778355699828644 1.4133322874652308 -1.806263109246725 -1.570801083241598 1.4427776336669922 0.0 -0.0002856366045307368 -0.00015964912017807364 0.00015317989164032042 -0.0 -0.0 1 False False
5677.607 3.0135676860809326 -1.1778600078872223 1.4133861700641077 -1.8062025509276332 -1.570784870778219 1.442752480506897 0.0 -0.00018547131912782788 -0.00011140049900859594 8.96175843081437e-05 -0.0 -0.0 1 False False
5677.657 3.0135598182678223 -1.1778519612601777 1.4133575598346155 -1.8062831364073695 -1.5707967917071741 1.442808985710144 0.0 -0.00013305003813002259 -9.296406642533839e-05 6.333794590318576e-05 -0.0 -0.0 1 False False
5677.706999999999 3.013563394546509 -1.1778220993331452 1.4133947531329554 -1.8062473736205042 -1.5707767645465296 1.4427893161773682 0.0 -7.263841689564288e-05 -5.9497393522178754e-05 5.2742334788436694e-20 -0.0 -0.0 1 False False
5677.757 3.0136003494262695 -1.1778763097575684 1.4133742491351526 -1.8062511883177699 -1.5707686583148401 1.442752480506897 0.0 -1.7725582109103645e-22 -8.390000308896754e-17 8.011575046459525e-39 -0.0 -0.0 1 False False
5677.807 3.0135838985443115 -1.177892730837204 1.4133251349078577 -1.80627503017568 -1.5707805792437952 1.442810297012329 0.0 -6.601761560887098e-05 -0.0 0.0 -0.0 -0.0 1 False False
5677.857 3.013563394546509 -1.1778429311564942 1.4133828322040003 -1.806223054925436 -1.570784870778219 1.4427847862243652 0.0 -4.667036201944086e-10 -0.0 0.0 -0.0 -0.0 1 False False
5677.907 3.0135927200317383 -1.1778927010348816 1.4133666197406214 -1.8062955341734828 -1.570784870778219 1.442740559577942 0.0 0.0 -0.0 0.0 -0.0 -0.0 1 False False
5677.956999999999 3.0135302543640137 -1.1778971415809174 1.4133427778827112 -1.8062387905516566 -1.5707805792437952 1.442810297012329 0.0 0.0 -0.0 0.0 -0.0 -0.0 1 False False
5678.007 3.0135419368743896 -1.1778971713832398 1.4133504072772425 -1.8062831364073695 -1.5707805792437952 1.442810297012329 0.0 0.0 -0.0 0.0 -0.0 -0.0 1 False False
5678.057 3.0135390758514404 -1.177876279955246 1.4133828322040003 -1.806319376031393 -1.5707767645465296 1.442810297012329 0.0 0.0 -0.0 0.0 -0.0 -0.0 1 False False
5678.107 3.0135927200317383 -1.1778882306865235 1.4133861700641077 -1.8062669239439906 -1.5708172957049769 1.4427406787872314 0.0 0.0 -0.0 0.0 -0.0 -0.0 1 False False
5678.157 3.0135838985443115 -1.1778429013541718 1.4133589903460901 -1.8062511883177699 -1.570784870778219 1.442798137664795 0.0 0.0 -0.0 0.0 -0.0 -0.0 1 False False
5678.206999999999 3.0136048793792725 -1.1778927010348816 1.4133546988116663 -1.8062473736205042 -1.5707886854754847 1.4427820444107056 0.0 0.0 -0.0 0.0 -0.0 -0.0 1 True False
5678.257 3.0135838985443115 -1.1778473419002076 1.4133904615985315 -1.806234975854391 -1.5707686583148401 1.4428133964538574 0.0 0.0 -0.0 0.0 -0.0 2.087793262925408e-12 1 True False
5678.307 3.0135509967803955 -1.1778673988631745 1.4133990446673792 -1.8062588177123011 -1.5707686583148401 1.4427361488342285 0.0 0.0 -0.0 0.0 -0.0 3.171363858094748e-31 1 True False
5678.357 3.0135793685913086 -1.1778718394092103 1.4133580366717737 -1.8062793217101039 -1.5707686583148401 1.442810297012329 0.0 0.0 -0.0 0.0 -0.0 0.0 1 True False
5678.407 3.013547897338867 -1.1778763097575684 1.4133427778827112 -1.8062311611571253 -1.570829216633932 1.4427733421325684 9.172195199455304e-25 0.0 -0.0 6.257186880177096e-14 -0.0 0.0 1 True False
5678.456999999999 3.0135498046875 -1.1778718692115326 1.4133785406695765 -1.8062473736205042 -1.570784870778219 1.4427980184555054 0.0 0.0 -0.0 9.504682182816293e-33 -0.0 0.0 1 True False
5678.507 3.0135838985443115 -1.1778429013541718 1.4133580366717737 -1.8062268696227015 -1.570801083241598 1.442797064781189 0.0 0.0 -0.0 0.0 -0.0 0.0 1 True False
5678.557 3.0135793685913086 -1.1778763097575684 1.413349453602926 -1.806234975854391 -1.5707843939410608 1.4428341388702393 -3.318320551670695e-08 0.0 -0.0 0.0 -0.0 0.0 1 True False
5678.607 3.013603448867798 -1.1778510373881836 1.4133179823504847 -1.806234975854391 -1.5708006064044397 1.4427701234817505 0.0 5.896630925851505e-19 -0.0 0.0 -0.0 -0.002452495973557234 1 True False
5678.657 3.0135838985443115 -1.1778807801059266 1.4133384863482874 -1.8062511883177699 -1.570784870778219 1.442765712738037 0.0 0.0 -0.0 0.0 -0.0 9.723747652066236e-16 1 True False
5678.706999999999 3.0136258602142334 -1.1778599184802552 1.4133384863482874 -1.8062473736205042 -1.5707891623126429 1.442797064781189 0.0 0.0 -0.0 0.0 -0.0 0.0005653740954585373 1 True False
5678.757 3.0136213302612305 -1.1778673988631745 1.413375202809469 -1.8062430820860804 -1.570813004170553 1.442798137664795 0.0 0.0 1.5863412202368305e-22 0.0 -0.0 -6.144474408171629e-15 1 True False
5678.807 3.0135300159454346 -1.1778599482825776 1.4133871237384241 -1.806263109246725 -1.5708211104022425 1.4428060054779053 0.0 0.0 0.0 0.0 -0.0 -9.333471981632003e-34 1 True False
5678.857 3.014770269393921 -1.1778748494437714 1.4133613745318812 -1.8062473736205042 -1.570801083241598 1.4439829587936401 0.05631178617477417 -0.005291857291013002 0.004481710959225893 -0.0002952332142740488 -0.0 0.05786570906639099 1 True False
5678.907 3.019376039505005 -1.1783064168742676 1.4138696829425257 -1.8064190349974574 -1.570813004170553 1.448573350906372 0.1292879283428192 -0.010755807161331177 0.012157294899225235 -0.0034826782066375017 -0.0 0.12651494145393372 1 True False
5678.956999999999 3.027526378631592 -1.1789137882045289 1.4146254698382776 -1.8066021404662074 -1.5707805792437952 1.4567946195602417 0.19410085678100586 -0.012408089824020863 0.01966065540909767 -0.006780305877327919 -0.0 0.1911536455154419 1 True False
5679.007 3.0392696857452393 -1.1796631974032898 1.4157713095294397 -1.8069735966124476 -1.5708254019366663 1.4683934450149536 0.2659004032611847 -0.01786104589700699 0.025424474850296974 -0.00796061847358942 -0.0 0.26750263571739197 1 True False
5679.057 3.0543205738067627 -1.1806468528560181 1.4172242323504847 -1.8073755703368128 -1.5707925001727503 1.483480453491211 0.3358627259731293 -0.02354908175766468 0.03399615362286568 -0.008158168755471706 4.200520197628066e-05 0.33728766441345215 1 True False
5679.107 3.072850227355957 -1.181915895347931 1.419006649647848 -1.8078977070250453 -1.5707925001727503 1.5022262334823608 0.40921202301979065 -0.029122138395905495 0.0389634408056736 -0.009067263454198837 3.0309605790534988e-05 0.39876994490623474 1 True False
5679.157 3.0949885845184326 -1.1834519666484375 1.4211834112750452 -1.808416029016012 -1.5707562605487269 1.5242375135421753 0.47375568747520447 -0.03328797221183777 0.045706212520599365 -0.012524625286459923 3.9627954257234395e-23 0.4766271710395813 1 True False
5679.206999999999 3.120727777481079 -1.1852842432311554 1.4235628286944788 -1.809117933312887 -1.570768181477682 1.5497682094573975 0.5449759364128113 -0.0378001406788826 0.052785541862249374 -0.014766980893909931 1.889356099127326e-05 0.5457051396369934 1 True False
5679.257 3.1497344970703125 -1.187254623775818 1.4263833204852503 -1.8098865948119105 -1.5707925001727503 1.5788025856018066 0.6162962913513184 -0.040690403431653976 0.060446757823228836 -0.014166727662086487 5.614223842256556e-16 0.6180581450462341 1 True False
5679.307 3.1822187900543213 -1.189459667806961 1.4294984976397913 -1.8108331165709437 -1.570857350026266 1.611427664756775 0.6808448433876038 -0.047576624900102615 0.06760480254888535 -0.018383923918008804 1.7619186110096052e-09 0.6872627139091492 1 True False
5679.357 3.2183618545532227 -1.191976473932602 1.4329641501056116 -1.8117848835387171 -1.570813004170553 1.647457242012024 0.7499344348907471 -0.050171852111816406 0.07077307254076004 -0.021506192162632942 4.714824171969667e-05 0.7608956694602966 1 True False
5679.407 3.257819414138794 -1.194827215080597 1.4367850462542933 -1.81290926555776 -1.570801083241598 1.687041997909546 0.8268231749534607 -0.05799134075641632 0.08113207668066025 -0.018481431528925896 1.7012932878343427e-14 0.8244150280952454 1 True False
5679.456999999999 3.3008627891540527 -1.1977306467345734 1.4408839384662073 -1.8140069446959437 -1.5707843939410608 1.7301607131958008 0.8932052254676819 -0.06359308958053589 0.08246117830276489 -0.02364283800125122 2.5842683106301427e-33 0.8891627788543701 1 True False
5679.507 3.3474371433258057 -1.2009014350226899 1.445521656666891 -1.8151923618712367 -1.570784870778219 1.7765039205551147 0.9667449593544006 -0.0654839277267456 0.0902332291007042 -0.024875178933143616 0.0 0.9718076586723328 1 True False
5679.557 3.3974392414093018 -1.2043636304191132 1.450108830128805 -1.8166152439513148 -1.5708335081683558 1.8264803886413574 1.0312994718551636 -0.07511481642723083 0.09957987815141678 -0.028407350182533264 0.0 1.0298713445663452 1 True False
5679.607 3.449690818786621 -1.207898275261261 1.4551056067096155 -1.8178712330260218 -1.5707529226886194 1.8790085315704346 1.0492702722549438 -0.07362526655197144 0.10290293395519257 -0.028531093150377274 1.1989295671810396e-05 1.0515973567962646 1 True False
5679.657 3.502145767211914 -1.211615578537323 1.4601410071002405 -1.8194142780699671 -1.5707529226886194 1.9312573671340942 1.0456020832061768 -0.07046929001808167 0.10158344358205795 -0.026115721091628075 -7.553719478892162e-05 1.0518234968185425 1 True False
5679.706999999999 3.5544967651367188 -1.215262697344162 1.465116326008932 -1.8208252392210902 -1.5707767645465296 1.9836030006408691 1.0444124937057495 -0.07181552052497864 0.10176023095846176 -0.02681867592036724 -7.083350647008047e-05 1.0440974235534668 1 True False
5679.757 3.606792688369751 -1.218712942009308 1.470163647328512 -1.8220964870848597 -1.570813004170553 2.03615140914917 1.0524216890335083 -0.0717332661151886 0.10022880882024765 -0.02981831692159176 -1.9376780166062832e-20 1.0481791496276855 1 True False
5679.807 3.6591131687164307 -1.2223424178412934 1.4752610365497034 -1.8235603771605433 -1.5707891623126429 2.0883307456970215 1.0481083393096924 -0.07194187492132187 0.09561870992183685 -0.027887625619769096 -2.943336339914097e-39 1.0562183856964111 1 True False
5679.857 3.711559295654297 -1.2260078352740784 1.4803670088397425 -1.82495178798818 -1.5707925001727503 2.140718460083008 1.0446730852127075 -0.07030889391899109 0.09647386521100998 -0.028312725946307182 -7.820040627848357e-05 1.0391947031021118 1 True False
5679.907 3.7639241218566895 -1.2295879286578675 1.485206429158346 -1.8264185390868128 -1.5708211104022425 2.1931915283203125 1.0460070371627808 -0.07300024479627609 0.10120503604412079 -0.030488329008221626 -6.0552916693268344e-05 1.0462583303451538 1 True False
5679.956999999999 3.8162739276885986 -1.233199880724289 1.4902880827533167 -1.8277861080565394 -1.5707925001727503 2.2454681396484375 1.0480380058288574 -0.07527102530002594 0.10226701200008392 -0.02449246123433113 -7.917045279032801e-23 1.047914743423462 1 True False
5680.007 3.8686094284057617 -1.2368252140334626 1.4952357451068323 -1.829113622704977 -1.570756737385885 2.297793388366699 1.0437934398651123 -0.07058881223201752 0.0978522002696991 -0.029293352738022804 -1.202594342083558e-41 1.041053056716919 1 True False
5680.057 3.9209041595458984 -1.2404802602580567 1.5002039114581507 -1.83058561901235 -1.5707967917071741 2.350304126739502 1.0513898134231567 -0.073612742125988 0.10294857621192932 -0.029124047607183456 -6.434914823216786e-10 1.048432469367981 1 True False
5680.107 3.973165273666382 -1.2441234451583405 1.5053065458880823 -1.8320042095580042 -1.5707805792437952 2.4024386405944824 1.0486563444137573 -0.07400546967983246 0.10275554656982422 -0.02552899718284607 -9.774645765211803e-29 1.0556272268295288 1 True False
5680.157 4.0257248878479 -1.2477020484260102 1.5103090445147913 -1.8334795437254847 -1.5707886854754847 2.454819440841675 1.0407862663269043 -0.07060257345438004 0.09735016524791718 -0.028112048283219337 -0.0 1.0384341478347778 1 True False
5680.206999999999 4.078044414520264 -1.2512974304011841 1.5153949896441858 -1.8347917995848597 -1.5708377997027796 2.507349729537964 1.0485332012176514 -0.0711819976568222 0.09866821020841599 -0.03015723079442978 -6.551280407052218e-09 1.044750452041626 1 True False
5680.257 4.130425930023193 -1.254978821878769 1.5203197638141077 -1.836187025109762 -1.5707891623126429 2.5595240592956543 1.0478732585906982 -0.07194487750530243 0.10405462980270386 -0.027119705453515053 -9.95141291181501e-28 1.0526845455169678 1 True False
5680.307 4.18290901184082 -1.2585187417319794 1.5253165403949183 -1.8375665150084437 -1.5707605520831507 2.6119143962860107 1.0421907901763916 -0.07115863263607025 0.10001786798238754 -0.028883103281259537 -0.0 1.0447205305099487 1 True False
5680.357 4.235106945037842 -1.2621475619128724 1.5303242842303675 -1.839041372338766 -1.5707805792437952 2.6644704341888428 1.0503201484680176 -0.0741472914814949 0.09937649220228195 -0.03369234874844551 -1.1329879319596574e-21 1.047503113746643 1 True False
5680.407 4.2874298095703125 -1.2657723885825654 1.535419766102926 -1.8405162296690882 -1.5707891623126429 2.716603994369507 1.0491446256637573 -0.07066524773836136 0.10057888180017471 -0.023195046931505203 -1.7210187219451673e-40 1.0585505962371826 1 True False
5680.456999999999 4.338226318359375 -1.2692780059627076 1.540302578602926 -1.8418523273863734 -1.5707767645465296 2.7674081325531006 0.9758951663970947 -0.06813839077949524 0.09150170534849167 -0.026560410857200623 -0.0 0.9757146835327148 1 True False
5680.507 4.38545560836792 -1.2725630563548584 1.5448034445392054 -1.8430687389769496 -1.570813004170553 2.814851760864258 0.9165671467781067 -0.06416167318820953 0.08410707116127014 -0.028296437114477158 -0.0 0.9185656309127808 1 True False
5680.557 4.429452419281006 -1.2755524677089234 1.5489371458636683 -1.8441854916014613 -1.5707762877093714 2.8585965633392334 0.8396909832954407 -0.057194944471120834 0.08215494453907013 -0.02171510085463524 -0.0001102277819882147 0.8366543054580688 1 True False
5680.607 4.469749927520752 -1.278373346929886 1.552746597920553 -1.8453027210631312 -1.57074481645693 2.8987820148468018 0.7737441658973694 -0.0542990081012249 0.0761094018816948 -0.02196662500500679 -3.6371656276657715e-19 0.7858635187149048 1 True False
5680.657 4.5065412521362305 -1.280861572628357 1.5563796202289026 -1.8462487659850062 -1.5707891623126429 2.935819149017334 0.7072353363037109 -0.04755401611328125 0.064919613301754 -0.021959224715828896 -3.233091774745844e-05 0.7103196978569031 1 True False
5680.706999999999 4.539957523345947 -1.283167378311493 1.5595052878009241 -1.8472467861571253 -1.570740048085348 2.9691812992095947 0.6399313807487488 -0.04401446506381035 0.06190963834524155 -0.014555561356246471 4.8701444029575214e-05 0.6326009631156921 1 True False
5680.757 4.569835186004639 -1.285233662729599 1.5624659697162073 -1.8479420147337855 -1.5707925001727503 2.9990272521972656 0.5647580027580261 -0.03848442807793617 0.05502476915717125 -0.01502509880810976 1.8706304913901884e-18 0.5682129263877869 1 True False
5680.807 4.59635066986084 -1.287046567802765 1.5649498144732874 -1.8486172161498011 -1.5707405249225062 3.025320529937744 0.4966718852519989 -0.036699749529361725 0.04632646590471268 -0.011486953124403954 2.8414924898642052e-37 0.5076788663864136 1 True False
5680.857 4.619074821472168 -1.288605735903122 1.5671585241900843 -1.8492704830565394 -1.570784870778219 3.048163652420044 0.4263940155506134 -0.027844395488500595 0.04330074042081833 -0.011333653703331947 6.414028244075207e-15 0.4277254641056061 1 True False
5680.907 4.638218402862549 -1.2899424892714997 1.569084946309225 -1.849818845788473 -1.5708206335650843 3.0676612854003906 0.35700559616088867 -0.02455219440162182 0.032214999198913574 -0.007928604260087013 5.372917111223785e-10 0.3520452380180359 1 True False
5680.956999999999 4.654317855834961 -1.2910304230502625 1.5705269018756312 -1.8502608738341273 -1.5707762877093714 3.083359479904175 0.2801857888698578 -0.018971214070916176 0.024216048419475555 -0.009245934896171093 8.161476612290224e-29 0.29841113090515137 1 True False
5681.007 4.666702747344971 -1.2919068795493622 1.5717890898333948 -1.8505755863585414 -1.5708168188678187 3.0958786010742188 0.21549063920974731 -0.014252178370952606 0.020081279799342155 -0.006449930835515261 0.0 0.2144131064414978 1 True False
5681.057 4.675681114196777 -1.2925344568542023 1.5725844542132776 -1.8508044681944789 -1.5707562605487269 3.104912042617798 0.14525307714939117 -0.010663419961929321 0.014247422106564045 -0.003117306623607874 0.0 0.14179019629955292 1 True False
5681.107 4.681166648864746 -1.2927272480777283 1.5730674902545374 -1.8508922062315882 -1.5707605520831507 3.110252857208252 0.07503029704093933 -0.004428469575941563 0.005580103490501642 -0.0016822003526613116 0.0 0.07730907201766968 1 True False
5681.157 4.683023929595947 -1.2929890316775818 1.5732010046588343 -1.850983282128805 -1.5707967917071741 3.112240791320801 0.005381923634558916 -0.0007088532438501716 0.0006705606356263161 -0.0007297571282833815 0.0 0.006496839690953493 1 True False
5681.206999999999 4.682922840118408 -1.2925900679877778 1.574333969746725 -1.8526188335814417 -1.5707929770099085 3.1121881008148193 0.0026389474514871836 0.017893481999635696 0.044664088636636734 -0.0543629489839077 0.0 0.00014269859821069986 1 True False
5681.257 4.682954788208008 -1.2909194093993683 1.5775216261493128 -1.8575850925841273 -1.570784870778219 3.1121699810028076 0.0002791098377201706 0.04798772186040878 0.0875893086194992 -0.12411831319332123 0.0 0.0004033121804241091 1 True False
5681.307 4.682999134063721 -1.287794129257538 1.583081070576803 -1.8661695919432582 -1.5708330313311976 3.1122617721557617 0.001557119656354189 0.07426263391971588 0.13744385540485382 -0.1947391778230667 0.0 0.00041340047027915716 1 True False
5681.357 4.683007717132568 -1.2834300261786957 1.5909908453570765 -1.8782817325987757 -1.570824925099508 3.112248182296753 0.00037710837204940617 0.09576169401407242 0.17869487404823303 -0.27452993392944336 0.0 0.00020143836445640773 1 True False
5681.407 4.683011054992676 -1.2780400079539795 1.6010397116290491 -1.893707891503805 -1.5708087126361292 3.112227201461792 0.00020856290939264 0.12220299243927002 0.2248036414384842 -0.335154265165329 8.067630551522598e-05 8.724270446691662e-05 1 True False
5681.456999999999 4.682994842529297 -1.2713306111148377 1.6132243315326136 -1.9128347835936488 -1.5707891623126429 3.11221981048584 0.0001414767757523805 0.1441795378923416 0.26389601826667786 -0.42159172892570496 5.570707799051888e-05 5.876074646948837e-05 1 True False
5681.507 4.6830596923828125 -1.2634425026229401 1.6278727690326136 -1.935190340081686 -1.5708087126361292 3.1122453212738037 8.123902807710692e-05 0.1705740988254547 0.31688591837882996 -0.4868161082267761 1.071982200209034e-16 1.6945907838853552e-13 1 True False
5681.557 4.682994842529297 -1.2542270880988617 1.6448128859149378 -1.9611660442748011 -1.5708373228656214 3.112224578857422 2.1557439140451606e-06 0.1956837922334671 0.36109524965286255 -0.5590085983276367 1.6283429309973305e-35 2.574087831602251e-32 1 True False
5681.607 4.683011054992676 -1.2449388665011902 1.6618636290179651 -1.9875666103758753 -1.570772949849264 3.1122028827667236 7.78132161940448e-05 0.16915950179100037 0.3169104754924774 -0.5081626772880554 0.0 0.0 1 True False
5681.657 4.68303918838501 -1.2368723315051575 1.6766746679889124 -2.010545393029684 -1.5708487669574183 3.112255573272705 5.9979691286571324e-05 0.1494608372449875 0.2748643159866333 -0.4366838037967682 0.0 0.0 1 True False
5681.706999999999 4.682990550994873 -1.2301387351802369 1.6893489996539515 -2.030064722100729 -1.5707648436175745 3.1122379302978516 4.908169648842886e-05 0.1291988343000412 0.23391982913017273 -0.37014129757881165 0.0 0.0 1 True False
5681.757 4.683026313781738 -1.224504755144455 1.6997879187213343 -2.045900960961813 -1.5707929770099085 3.112215280532837 -1.6225060386046684e-39 0.10469891875982285 0.1844417154788971 -0.27819913625717163 0.0 0.0 1 True False
5681.807 4.683011054992676 -1.2201227408698578 1.7076776663409632 -2.0584923229613246 -1.5708168188678187 3.112264633178711 0.0 0.07495900243520737 0.14129690825939178 -0.21422265470027924 0.0 3.0974524835889876e-24 1 True False
5681.857 4.683055400848389 -1.2169688504985352 1.7135537306415003 -2.067369600335592 -1.5707691351519983 3.112231731414795 0.0 0.04903324693441391 0.09641291946172714 -0.13970854878425598 0.0 4.708362840131385e-43 1 True False
5681.907 4.683022975921631 -1.2150184673121949 1.7170408407794397 -2.0729109249510707 -1.5708168188678187 3.11221981048584 0.0 0.026408223435282707 0.049388688057661057 -0.06998760253190994 0.0 0.0 1 True False
5681.956999999999 4.683034896850586 -1.2143631142428895 1.7184198538409632 -2.0749269924559535 -1.570784870778219 3.112215280532837 0.0 1.178677393909311e-06 0.0019248647149652243 -0.01044115424156189 0.0 0.0 1 True False
5682.007 4.683006763458252 -1.2143123310855408 1.718445126210348 -2.074895044366354 -1.5708006064044397 3.1121983528137207 0.0 -2.9193399981522675e-18 0.00023986186715774238 4.2958992708008736e-05 0.0 0.0 1 True False
5682.057 4.683051109313965 -1.2143050295165558 1.7184479872332972 -2.074883123437399 -1.5708006064044397 3.1121835708618164 0.0 0.00014426042616833001 0.0020419731736183167 1.9577009879867546e-05 0.0 0.0 1 True False
5682.107 4.683018684387207 -1.2143541735461731 1.7184761206256312 -2.074923177758688 -1.570784870778219 3.1122243404388428 0.0 0.00010423873754916713 0.0015254102181643248 2.173097754531745e-14 0.0 0.0 1 True False
5682.157 4.682961940765381 -1.2143541735461731 1.7184956709491175 -2.074942728082174 -1.5707929770099085 3.112231731414795 0.0 0.00012182919454062358 0.00023281745961867273 3.30094095137459e-33 0.0 0.0 1 True False
5682.206999999999 4.683011054992676 -1.2143528920463105 1.7184956709491175 -2.0748869381346644 -1.5708087126361292 3.1122019290924072 0.0 9.304091508965939e-05 0.00015250264550559223 0.0 0.0 0.0 1 True False
5682.257 4.683022975921631 -1.2142930787852784 1.718499485646383 -2.074918886224264 -1.5708330313311976 3.112231731414795 0.0 8.587142656324431e-05 9.974189742933959e-05 0.0 0.0 0.0 1 True False
5682.307 4.6830644607543945 -1.2142811578563233 1.7184632460223597 -2.074919363061422 -1.5708048979388636 3.1122119426727295 -5.8510338796224914e-09 0.00010189973545493558 7.967685755963516e-13 0.0 0.0 0.0 1 True False
5682.357 4.682997703552246 -1.214343712931015 1.7184913794146937 -2.074935098687643 -1.5707891623126429 3.112240791320801 -3.3765511034289375e-05 8.077656093519181e-05 1.8749373452666052e-42 0.0 0.0 0.0 1 True False
5682.407 4.682990074157715 -1.2143348318389435 1.7184842268573206 -2.0749269924559535 -1.5707805792437952 3.1121628284454346 -5.376533337007059e-37 1.8552942067276804e-29 0.0 0.0 0.0 0.0 1 True False
5682.456999999999 4.683019638061523 -1.2143064898303528 1.718482796345846 -2.0749508343138636 -1.570801083241598 3.1122453212738037 0.0 6.0804944951087236e-05 0.0 0.0 0.0 0.0 1 True False
5682.507 4.683022975921631 -1.2142655116370697 1.7185285727130335 -2.0749107799925746 -1.570829216633932 3.112215280532837 0.0 0.0 0.0 0.0 0.0 0.0 1 True False
5682.557 4.682982921600342 -1.214293048982956 1.7184589544879358 -2.0749265156187953 -1.5708168188678187 3.112231731414795 0.0 2.629911068652291e-05 6.026460397379196e-08 -2.204189192278605e-10 4.711771950383081e-08 0.0 1 True False
5682.607 4.683022975921631 -1.2143705648234864 1.7184413115130823 -2.0750180683531703 -1.5707362333880823 3.11224365234375 0.0 0.0002692830457817763 -4.128706621031597e-07 -0.00032040616497397423 7.1571909335104e-27 -0.00012345524737611413 1 True False
5682.657 4.683032035827637 -1.2143784922412415 1.7184327284442347 -2.0750261745848597 -1.570784870778219 3.112248182296753 0.0 0.00021390394249465317 -9.715279829046942e-37 -8.706599328434095e-05 1.401298464324817e-45 -4.549347431748174e-05 1 True False
5682.706999999999 4.682990074157715 -1.2143631142428895 1.7183764616595667 -2.074974676171774 -1.5707529226886194 3.112215280532837 0.0 -0.005760876461863518 -0.008372195065021515 0.020651429891586304 0.0 -4.18157760577742e-05 1 True True
5682.757 4.682999134063721 -1.214901940231659 1.7172725836383265 -2.0722676716246546 -1.570813004170553 3.11220645904541 0.0 -0.028325237333774567 -0.057244673371315 0.07764525711536407 0.0 -6.272799510043114e-05 1 True True
5682.807 4.683027744293213 -1.217226819401123 1.7131808439837855 -2.066451211968893 -1.5707886854754847 3.112255573272705 0.0 -0.05312909185886383 -0.09965561330318451 0.17032396793365479 0.0 -5.267017943586278e-20 1 True True
5682.857 4.682991981506348 -1.2206369501403351 1.7068608442889612 -2.057014604608053 -1.5708254019366663 3.11224365234375 0.0 -0.08408436179161072 -0.14695394039154053 0.21403269469738007 0.0 -7.516932964790612e-05 1 True True
5682.907 4.6830363273620605 -1.2251600188067933 1.6986067930804651 -2.0439797840514125 -1.5707724730121058 3.1122028827667236 0.0 -0.10423498600721359 -0.19207994639873505 0.29796022176742554 0.0 -6.382870924426243e-05 1 True True
5682.956999999999 4.68300199508667 -1.230981932287552 1.687568489705221 -2.0276223621764125 -1.570784870778219 3.112231731414795 0.0 -0.1293654888868332 -0.23363728821277618 0.35745322704315186 0.0 -1.9330830929270365e-19 1 True True
5683.007 4.683081150054932 -1.237889752989151 1.674779240285055 -2.0076829395689906 -1.5707929770099085 3.1122524738311768 0.0 -0.1540801227092743 -0.2839523255825043 0.430227667093277 0.0 -2.936358714340838e-38 1 True True
5683.057 4.68303918838501 -1.2461944383433838 1.659668270741598 -1.9841801128783167 -1.570801083241598 3.112161159515381 0.0 -0.1758388727903366 -0.32344892621040344 0.4977845251560211 0.0 -0.0 1 True True
5683.107 4.683064937591553 -1.2556646031192322 1.6422937552081507 -1.957470556298727 -1.5707805792437952 3.11221981048584 0.0 -0.18332260847091675 -0.3508082330226898 0.5366652607917786 0.0 -0.0 1 True True
5683.157 4.68300199508667 -1.2644856137088318 1.6257365385638636 -1.9319120846190394 -1.570829216633932 3.11224365234375 0.0 -0.16906368732452393 -0.30836477875709534 0.47570815682411194 0.0 -0.0 1 True True
5683.206999999999 4.68303918838501 -1.2722405356219788 1.6116746107684534 -1.9099637470641078 -1.5707648436175745 3.1122028827667236 0.0 -0.14351142942905426 -0.2669961452484131 0.4085492789745331 0.0 -0.0 1 True True
5683.257 4.683013916015625 -1.2788643699935456 1.5994775930987757 -1.8913446865477503 -1.5708406607257288 3.1122288703918457 0.0 -0.11828663945198059 -0.21951094269752502 0.34208735823631287 0.0 -0.0 1 True True
5683.307 4.683093547821045 -1.2841064792922516 1.5897730032550257 -1.8764568767943324 -1.5708487669574183 3.112231731414795 0.0 -0.09215851873159409 -0.16656211018562317 0.2626437246799469 0.0 -0.0 1 True True
5683.357 4.682957649230957 -1.2881808441928406 1.5823286215411585 -1.8647729359068812 -1.5708487669574183 3.112236261367798 0.0 -0.07150688767433167 -0.1317477971315384 0.20154047012329102 0.0 -0.0 1 True True
5683.407 4.683013916015625 -1.290897325878479 1.5770905653582972 -1.8567029438414515 -1.5707805792437952 3.1122705936431885 0.0 -0.04623519629240036 -0.0802479237318039 0.12217210233211517 0.0 -0.0 1 True True
5683.456999999999 4.68300199508667 -1.292603538637497 1.5741437117206019 -1.8520838222899378 -1.5707724730121058 3.11221981048584 0.0 -0.02061174251139164 -0.042434852570295334 0.05763255059719086 0.0 -2.3872189225131645e-24 1 True True
5683.507 4.682982921600342 -1.29298289239917 1.573303524647848 -1.8511034450926722 -1.5708211104022425 3.1121835708618164 -0.011754337698221207 8.926743612391874e-05 -0.0008014322957023978 -0.001681747380644083 0.0 -0.01492998655885458 1 True True
5683.557 4.681771278381348 -1.2930350464633484 1.5733240286456507 -1.8511835537352503 -1.570784870778219 3.1098151206970215 -0.03988872095942497 -0.0010604296112433076 0.00013378319272305816 -6.391623173840344e-05 8.970223245837253e-14 -0.08365872502326965 1 True True
5683.607 4.678700923919678 -1.2931528848460694 1.5733469168292444 -1.8510667286314906 -1.5707324186908167 3.1038601398468018 -0.08225292712450027 -0.004102181643247604 0.0017940369434654713 0.0003361804410815239 1.3625789787330579e-32 -0.15502941608428955 1 True True
5683.657 4.673877716064453 -1.2932947439006348 1.5735400358783167 -1.8510948620238246 -1.5707925001727503 3.0944161415100098 -0.11540074646472931 -0.0038750963285565376 0.0041213626973330975 0.00016456979210488498 0.0 -0.21795529127120972 1 True True
5683.706999999999 4.667194843292236 -1.2934539777091523 1.5737865606891077 -1.8511196575560511 -1.5707605520831507 3.0816657543182373 -0.14873354136943817 -0.0045025344006717205 0.006068876478821039 2.8814125471399166e-05 0.0 -0.29735368490219116 1 True True
5683.757 4.658783435821533 -1.293722764854767 1.5742023626910608 -1.8510948620238246 -1.5707605520831507 3.065213441848755 -0.18907392024993896 -0.006491169333457947 0.008685030974447727 -0.0025994423776865005 0.0 -0.3583022654056549 1 True True
5683.807 4.64837121963501 -1.2940842372230072 1.574549976979391 -1.8513251743712367 -1.5708211104022425 3.045454263687134 -0.2231583148241043 -0.006582236383110285 0.007931496016681194 -0.0025170498993247747 0.0 -0.43454429507255554 1 True True
5683.857 4.6363654136657715 -1.29445235550914 1.575057331715719 -1.8513933620848597 -1.5707891623126429 3.022045612335205 -0.2562922537326813 -0.008645468391478062 0.010264653712511063 -0.0036701983772218227 0.0 -0.4929310977458954 1 True True
5683.907 4.62250280380249 -1.2948315900615235 1.57554799715151 -1.8515526256956996 -1.570829216633932 2.995154619216919 -0.2988118529319763 -0.009244749322533607 0.010129728354513645 -0.0032148733735084534 0.0 -0.5667428970336914 1 True True
5683.956999999999 4.6066789627075195 -1.295275555258133 1.5761330763446253 -1.8516670666136683 -1.5707805792437952 2.96478533744812 -0.33024924993515015 -0.010005813091993332 0.014692714437842369 -0.0024472831282764673 0.0 -0.6342626810073853 1 True True
5684.007 4.589272499084473 -1.2957472664168854 1.5768087545977991 -1.8518301449217738 -1.5707967917071741 2.9309535026550293 -0.3698699474334717 -0.012245566584169865 0.013225349597632885 -0.00409295130521059 0.0 -0.7057425379753113 1 True True
5684.057 4.56998872756958 -1.2963723999312897 1.5775664488421839 -1.851985593835348 -1.5707562605487269 2.893854856491089 -0.40226316452026367 -0.010725247673690319 0.015722978860139847 -0.002939158119261265 0.0 -0.7734601497650146 1 True True
5684.107 4.548779010772705 -1.296980695133545 1.5784037748919886 -1.8522120914854945 -1.5708044211017054 2.8530924320220947 -0.4381977617740631 -0.012086061760783195 0.016925089061260223 -0.0037419891450554132 0.0 -0.8547147512435913 1 True True
5684.157 4.526087760925293 -1.2976887983134766 1.5792983214007776 -1.8523904285826625 -1.5708091894732874 2.8085432052612305 -0.47691163420677185 -0.015515226870775223 0.019712356850504875 -0.00445129070430994 0.00015035728574730456 -0.9174998998641968 1 True True
5684.206999999999 4.5012664794921875 -1.2983854574016114 1.5802763144122522 -1.8526855907835902 -1.5708211104022425 2.760998487472534 -0.5095906853675842 -0.017863722518086433 0.019900133833289146 -0.0034089931286871433 3.595357129013545e-15 -0.9916238784790039 1 True True
5684.257 4.474480152130127 -1.2992110413363953 1.5813129583941858 -1.852947851220602 -1.5708254019366663 2.7095720767974854 -0.5347459316253662 -0.014893762767314911 0.021369395777583122 -0.004703974351286888 2.2669024990484843e-10 -1.033866047859192 1 True True
5684.307 4.447500228881836 -1.2999515992454072 1.5823143164264124 -1.8531109295287074 -1.570829216633932 2.657191038131714 -0.5478123426437378 -0.014661838300526142 0.01904434524476528 -0.010368743911385536 -0.0017125370213761926 -1.049140453338623 1 True True
5684.357 4.4205803871154785 -1.3008682888797303 1.583416763936178 -1.853349348107809 -1.5707972685443323 2.605095148086548 -0.5454380512237549 -0.01533113606274128 0.01928158476948738 -0.006185741629451513 0.0003526246582623571 -1.0454293489456177 1 True True
5684.407 4.393591403961182 -1.3016711634448548 1.5843880812274378 -1.853532453576559 -1.5707486311541956 2.552497148513794 -0.5394004583358765 -0.016719626262784004 0.02153722383081913 -0.002743906108662486 0.000714075576979667 -1.0383973121643066 1 True True
5684.456999999999 4.366606712341309 -1.3024035853198548 1.5854986349688929 -1.853798051873678 -1.5707405249225062 2.5001585483551025 -0.5364940762519836 -0.017979560419917107 0.02211655303835869 -0.0012953189434483647 0.0014087031595408916 -1.0512686967849731 1 True True
5684.507 4.33929967880249 -1.3032154899886628 1.5864527861224573 -1.8541046581664027 -1.5708006064044397 2.4480178356170654 -0.5344667434692383 -0.01709597371518612 0.021448398008942604 -0.0021408796310424805 0.0015480356523767114 -1.0509741306304932 1 True True
5684.557 4.312019348144531 -1.304000661974289 1.5874808470355433 -1.854358812371725 -1.5708325544940394 2.395517349243164 -0.5416811108589172 -0.015891248360276222 0.019903821870684624 -0.005355144385248423 -0.0010574517073109746 -1.0413132905960083 1 True True
5684.607 4.284919261932373 -1.3047927182963868 1.5886076132403772 -1.854593893090719 -1.5708325544940394 2.3430495262145996 -0.5469082593917847 -0.014358480460941792 0.019338591024279594 -0.009130391292273998 -0.0017854798352345824 -1.0531924962997437 1 True True
5684.657 4.257905006408691 -1.3056437832168122 1.5895980040179651 -1.854776521722311 -1.570784870778219 2.290910243988037 -0.5471487641334534 -0.01448804885149002 0.0189093928784132 -0.008371803909540176 3.2001148042581917e-07 -1.049458622932434 1 True True
5684.706999999999 4.2308669090271 -1.3064112824252625 1.590626064931051 -1.8549910984435023 -1.5707648436175745 2.2383904457092285 -0.5441284775733948 -0.013855308294296265 0.01915394514799118 -0.007119014859199524 0.0001489233400207013 -1.0398565530776978 1 True True
5684.757 4.203906536102295 -1.3072804075530549 1.5916627089129847 -1.8552142582335414 -1.5707605520831507 2.1860527992248535 -0.5402817130088806 -0.015973202884197235 0.022407134994864464 -0.0032502745743840933 0.0006904625915922225 -1.0550792217254639 1 True True
5684.807 4.17693567276001 -1.3080319923213501 1.5927613417254847 -1.855431695977682 -1.5707290808307093 2.13384747505188 -0.5396928787231445 -0.018383167684078217 0.0218796543776989 -0.002205256838351488 0.0011703557102009654 -1.049513578414917 1 True True
5684.857 4.149672985076904 -1.3088052731803437 1.5937517325030726 -1.8557387791075648 -1.5708373228656214 2.0813403129577637 -0.5323683619499207 -0.01726965233683586 0.023313743993639946 -0.001197884907014668 0.0012939568841829896 -1.0413243770599365 1 True True
5684.907 4.122469902038574 -1.309642420416214 1.594769302998678 -1.855964799920553 -1.5707524458514612 2.0288877487182617 -0.5393764972686768 -0.017717111855745316 0.022280631586909294 -0.0029551952611654997 -0.0005292151472531259 -1.052364706993103 1 True True
5684.956999999999 4.095264911651611 -1.3104158502868195 1.5958431402789515 -1.856239458123678 -1.5708406607257288 1.9767026901245117 -0.5421048402786255 -0.015959789976477623 0.020811697468161583 -0.0073313117027282715 -0.001139517524279654 -1.047813892364502 1 True True
5685.007 4.068181037902832 -1.3112825912288208 1.5969284216510218 -1.8564735851683558 -1.570820156727926 1.9242439270019531 -0.5487675666809082 -0.014573250897228718 0.019623709842562675 -0.006529304664582014 -0.0012963437475264072 -1.0397595167160034 1 True True
5685.057 4.041179656982422 -1.3120145362666626 1.5979860464679163 -1.8566767177977503 -1.5707925001727503 1.8718467950820923 -0.549163818359375 -0.01384889055043459 0.018691323697566986 -0.009776895865797997 8.56484257383272e-06 -1.054030418395996 1 True True
5685.107 4.014286041259766 -1.3128925126842041 1.5990336577044886 -1.8568841419615687 -1.5707610289203089 1.819703459739685 -0.5428409576416016 -0.01719595119357109 0.021707087755203247 -0.0065195513889193535 0.000618443067651242 -1.0486104488372803 1 True True
5685.157 3.9871504306793213 -1.3136671346477051 1.6000383535968226 -1.8570815525450648 -1.5707653204547327 1.7672104835510254 -0.53619784116745 -0.016331762075424194 0.02384004555642605 -0.002154414774850011 0.0009839680278673768 -1.0427477359771729 1 True True
5685.206999999999 3.960141897201538 -1.3144560915282746 1.6011574904071253 -1.8573914966978968 -1.5707972685443323 1.7147493362426758 -0.5370239615440369 -0.018203917890787125 0.021654430776834488 -0.002571767894551158 0.0021039266139268875 -1.046341061592102 1 True True
