Andreas691667/Digital_Twin_UR/data_analysis/test_results/short_dynamic_task_data.csv
timestamp actual_q_0 actual_q_1 actual_q_2 actual_q_3 actual_q_4 actual_q_5 actual_qd_0 actual_qd_1 actual_qd_2 actual_qd_3 actual_qd_4 actual_qd_5 output_bit_register_65 output_bit_register_66
10020.455 3.7121026515960693 -0.8254913252643128 0.8430050055133265 -1.588280817071432 -1.570772949849264 2.141295909881592 0.0 0.0 0.0 -0.0 0.0 0.0 False False
10020.475 3.712059259414673 -0.8254292768291016 0.8429563681231897 -1.5882889233031214 -1.5707886854754847 2.141270875930786 0.0 0.0 0.0 -0.0 0.0 0.0 False False
10020.494999999999 3.7120158672332764 -0.8254425090602417 0.8429887930499476 -1.588269372979635 -1.5708006064044397 2.141270875930786 0.0 0.0 0.0 -0.0 0.0 0.0 False False
10020.515 3.712083339691162 -0.8254218858531495 0.8429930845843714 -1.5882817707457484 -1.5708087126361292 2.141308546066284 0.0 0.0 0.0 -0.0 0.0 0.0 False False
10020.535 3.712123394012451 -0.8254706424525757 0.8429845015155237 -1.5882774792113246 -1.570784870778219 2.141275405883789 0.0 0.0 0.0 -0.0 0.0 0.0 False False
10020.555 3.7120697498321533 -0.8254956764033814 0.8430169264422815 -1.5882569752135218 -1.570829216633932 2.141268730163574 0.0 0.0 0.0 -0.0 0.0 0.0 False False
10020.574999999999 3.712045669555664 -0.8255081933787842 0.8429606596576136 -1.5882483921446742 -1.5708172957049769 2.1412558555603027 0.0 0.0 0.0 -0.0 0.0 0.0 False False
10020.595 3.712045669555664 -0.8254707616618653 0.8430007139789026 -1.5882650814452113 -1.5708172957049769 2.1412839889526367 0.0 0.0 0.0 -0.0 0.0 0.0 False False
10020.615 3.712083101272583 -0.825463132267334 0.8429845015155237 -1.5883218250670375 -1.5708168188678187 2.141267776489258 0.0 0.0 0.0 -0.0 0.0 0.0 False False
10020.635 3.712066888809204 -0.8254824441722413 0.8429845015155237 -1.5882817707457484 -1.5708168188678187 2.1413002014160156 0.0 0.0 0.0 -0.0 0.0 0.0 False False
10020.654999999999 3.7121100425720215 -0.8254305285266419 0.8429845015155237 -1.5882932148375453 -1.570784870778219 2.141295909881592 0.0 0.0 0.0 -0.0 0.0 0.0 False False
10020.675 3.712062358856201 -0.8254349392703553 0.8430007139789026 -1.5882488689818324 -1.5708406607257288 2.1413214206695557 0.0 0.0 0.0 -0.0 0.0 0.0 False False
10020.695 3.712062358856201 -0.8254337471774598 0.8429606596576136 -1.5883170566954554 -1.570756737385885 2.1412546634674072 0.0 0.0 0.0 -0.0 0.0 0.0 False False
10020.715 3.7121026515960693 -0.8254794043353577 0.8430007139789026 -1.5882817707457484 -1.5708254019366663 2.1412503719329834 0.0 0.0 0.0 -0.0 0.0 0.0 False False
10020.734999999999 3.712116003036499 -0.8255125445178528 0.8429964224444788 -1.5882374248900355 -1.5708335081683558 2.141267776489258 0.0 0.0 0.0 -0.0 0.0 0.0 False False
10020.755 3.712045669555664 -0.8254956764033814 0.8429973761187952 -1.5882817707457484 -1.57074481645693 2.141291618347168 0.0 0.0 0.0 -0.0 0.0 0.0 False False
10020.775 3.712038278579712 -0.8254425686648865 0.8429520765887659 -1.5883289776244105 -1.570756737385885 2.141291618347168 0.0 0.0 0.0 -0.0 0.0 0.0 False False
10020.795 3.7120697498321533 -0.8255125445178528 0.8429763952838343 -1.5883375606932582 -1.5707648436175745 2.14125919342041 0.0 0.0 0.0 -0.0 0.0 0.0 False False
10020.814999999999 3.7120654582977295 -0.825463132267334 0.8429716269122522 -1.5882607899107875 -1.5707767645465296 2.141239643096924 0.0 0.0 0.0 -0.0 0.0 0.0 False False
10020.835 3.7120697498321533 -0.8254707020572205 0.8429721037494105 -1.5882774792113246 -1.5708087126361292 2.1412720680236816 0.0 0.0 0.0 -0.0 0.0 0.0 False False
10020.855 3.712095260620117 -0.8254630726626893 0.8429678122149866 -1.5883289776244105 -1.5708006064044397 2.141239643096924 -7.840824831550976e-21 0.0 0.0 -0.0 0.0 0.0 False False
10020.875 3.712062358856201 -0.8254293364337464 0.8429802099810999 -1.5882331333556117 -1.5707686583148401 2.141317129135132 -6.128438703878155e-41 0.0 0.0 -0.0 0.0 0.0 False False
10020.895 3.712045669555664 -0.8254880470088501 0.8430169264422815 -1.5883094273009242 -1.5707967917071741 2.1412925720214844 0.0 0.0 0.0 -0.0 0.0 0.0 False False
10020.914999999999 3.7120862007141113 -0.8254707020572205 0.8430092970477503 -1.588269372979635 -1.5708487669574183 2.1412839889526367 0.0 0.0 0.0 -0.0 0.0 0.0 False False
10020.935 3.712095260620117 -0.825491265659668 0.8429845015155237 -1.5883094273009242 -1.570813004170553 2.141308546066284 0.0 0.0 0.0 -0.0 0.0 0.0 False False
10020.955 3.7120561599731445 -0.8254500192454834 0.8430169264422815 -1.5882612667479457 -1.5708373228656214 2.1413002014160156 0.0 0.0 0.0 -0.0 0.0 0.0 False False
10020.975 3.7120368480682373 -0.8255201739123841 0.8429802099810999 -1.5882774792113246 -1.5708048979388636 2.1412384510040283 0.0 0.0 0.0 -0.0 0.0 0.0 False False
10020.994999999999 3.7120654582977295 -0.8254544895938416 0.8429802099810999 -1.5882607899107875 -1.5708091894732874 2.141263484954834 0.0 0.0 0.0 -0.0 0.0 0.0 False False
10021.015 3.7120907306671143 -0.825528697376587 0.8430288473712366 -1.5882774792113246 -1.5707929770099085 2.141279697418213 0.0 0.0 0.0 -0.0 0.0 0.0 False False
10021.035 3.7120697498321533 -0.8255125445178528 0.8430212179767054 -1.5882569752135218 -1.570784870778219 2.141267776489258 0.0 0.0 0.0 -0.0 0.0 0.0 False False
10021.055 3.7121191024780273 -0.8254587811282654 0.842992130910055 -1.5882488689818324 -1.5707686583148401 2.14125919342041 0.0 0.0 0.0 -0.0 0.0 0.0 False False
10021.074999999999 3.7120578289031982 -0.8254847687533875 0.842992130910055 -1.5882607899107875 -1.570784870778219 2.141279697418213 0.0 0.0 0.0 -0.0 0.0 0.0 False False
10021.095 3.712045669555664 -0.8254544895938416 0.8429563681231897 -1.5883094273009242 -1.570784870778219 2.1412839889526367 0.0 0.0 0.0 -0.0 0.0 0.0 False False
10021.115 3.7120652198791504 -0.8255211871913453 0.8429802099810999 -1.5882774792113246 -1.5708211104022425 2.1412720680236816 0.0 0.0 0.0 -0.0 0.0 0.0 False False
10021.135 3.712036609649658 -0.825463132267334 0.8429759184466761 -1.5883251629271449 -1.5707805792437952 2.1412882804870605 0.0 0.0 0.0 -0.0 0.0 0.0 False False
10021.154999999999 3.712078809738159 -0.8254956167987366 0.8430135885821741 -1.5882374248900355 -1.5708087126361292 2.141251564025879 0.0 0.0 0.0 -0.0 0.0 0.0 False False
10021.175 3.7120578289031982 -0.8254707616618653 0.8429763952838343 -1.5882932148375453 -1.5708048979388636 2.1413044929504395 0.0 0.0 0.0 -0.0 0.0 0.0 False False
10021.195 3.712062358856201 -0.8254794043353577 0.8429887930499476 -1.588269372979635 -1.5707605520831507 2.141336441040039 0.0 0.0 0.0 -0.0 0.0 0.0 False False
10021.215 3.7121236324310303 -0.8254674238017579 0.8430169264422815 -1.5882932148375453 -1.570784870778219 2.1412622928619385 0.0 0.0 0.0 -0.0 0.0 0.0 False False
10021.234999999999 3.712078809738159 -0.8254999679378052 0.8429678122149866 -1.588268896142477 -1.5708406607257288 2.141295909881592 0.0 0.0 0.0 -0.0 0.0 0.0 False False
10021.255 3.712029218673706 -0.8254913252643128 0.8429930845843714 -1.5883094273009242 -1.570784870778219 2.14125919342041 0.0 0.0 0.0 -0.0 0.0 0.0 False False
10021.275 3.7120816707611084 -0.8254750531962891 0.8429930845843714 -1.5882889233031214 -1.5707925001727503 2.141275405883789 0.0 0.0 0.0 -0.0 0.0 0.0 False False
10021.295 3.712111473083496 -0.8254950207522889 0.8429439703570765 -1.5882774792113246 -1.570801083241598 2.1412925720214844 0.0 0.0 0.0 -0.0 0.0 0.0 False False
10021.314999999999 3.7120532989501953 -0.8254869741252442 0.8429887930499476 -1.5882889233031214 -1.570829216633932 2.141263484954834 0.0 0.0 0.0 -0.0 0.0 0.0 False False
10021.335 3.712078809738159 -0.8254662317088624 0.8429759184466761 -1.588285585443014 -1.5708254019366663 2.141295909881592 0.0 0.0 0.0 -0.0 0.0 0.0 False False
10021.355 3.712062358856201 -0.8254674834064026 0.8429721037494105 -1.5882607899107875 -1.5708773771869105 2.141317129135132 0.0 0.0 0.0 -0.0 0.0 0.0 False False
10021.375 3.712041139602661 -0.8254749935916443 0.8429892698871058 -1.5883013210692347 -1.570801083241598 2.141275405883789 0.0 0.0 0.0 -0.0 0.0 0.0 False False
10021.395 3.7121071815490723 -0.825491265659668 0.8430216948138636 -1.5882846317686976 -1.5707524458514612 2.1412384510040283 0.0 0.0 0.0 -0.0 0.0 0.0 False False
10021.414999999999 3.7120578289031982 -0.8254750531962891 0.8429754416095179 -1.5883051357665003 -1.5708335081683558 2.141270875930786 0.0 0.0 0.0 -0.0 0.0 0.0 False False
10021.435 3.7120368480682373 -0.825409011249878 0.8430174032794397 -1.5882331333556117 -1.5707967917071741 2.141219139099121 0.0 0.0 0.0 -0.0 0.0 0.0 False False
10021.455 3.7120981216430664 -0.8255210679820557 0.8429678122149866 -1.588285585443014 -1.5707886854754847 2.141291618347168 0.0 0.0 0.0 -0.0 0.0 0.0 False False
10021.475 3.7120907306671143 -0.8254619401744385 0.8429630438434046 -1.588297029534811 -1.570857350026266 2.1412546634674072 0.0 0.0 0.0 -0.0 0.0 0.0 False False
10021.494999999999 3.7121145725250244 -0.8254425686648865 0.8430007139789026 -1.5882569752135218 -1.5708211104022425 2.1412384510040283 0.0 0.0 0.0 -0.0 0.0 0.0 False False
10021.515 3.7120862007141113 -0.8254588407329102 0.8429515997516077 -1.5883013210692347 -1.5707929770099085 2.141263484954834 0.0 0.0 0.0 -0.0 0.0 0.0 False False
10021.535 3.7120728492736816 -0.8254294556430359 0.8430007139789026 -1.5882817707457484 -1.5707767645465296 2.141279697418213 0.0 0.0 0.0 -0.0 0.0 0.0 False False
10021.555 3.7120535373687744 -0.8254545491984864 0.8429606596576136 -1.5883175335326136 -1.5708091894732874 2.1413002014160156 0.0 0.0 0.0 -0.0 0.0 0.0 False False
10021.574999999999 3.7121026515960693 -0.825540618305542 0.8429258505450647 -1.588285585443014 -1.5707843939410608 2.1412267684936523 0.0 0.0 0.0 -0.0 0.0 0.0 False False
10021.595 3.7120907306671143 -0.8254707616618653 0.8429845015155237 -1.588297029534811 -1.5707648436175745 2.1412839889526367 0.0 0.0 0.0 -0.0 0.0 0.0 False False
10021.615 3.7120773792266846 -0.8254058522037049 0.8430054823504847 -1.5883251629271449 -1.5707925001727503 2.141270875930786 0.0 0.0 0.0 -0.0 0.0 0.0 False False
10021.635 3.7120862007141113 -0.8254836362651368 0.8430054823504847 -1.5882774792113246 -1.570829216633932 2.141317129135132 0.0 0.0 0.0 -0.0 0.0 0.0 False False
10021.654999999999 3.7120578289031982 -0.8254993718913575 0.8430174032794397 -1.588285585443014 -1.5707767645465296 2.141291618347168 0.0 0.0 0.0 -0.0 0.0 0.0 False False
10021.675 3.712111473083496 -0.8254425686648865 0.8429802099810999 -1.5883013210692347 -1.570801083241598 2.141263484954834 0.0 0.0 0.0 -0.0 0.0 0.0 False False
10021.695 3.7120981216430664 -0.8254307073405762 0.8430007139789026 -1.5882569752135218 -1.5707891623126429 2.141263484954834 0.0 0.0 0.0 -0.0 0.0 0.0 False False
10021.715 3.7120742797851562 -0.8254956167987366 0.8429673353778284 -1.5882288418211878 -1.5707886854754847 2.141291618347168 0.0 0.0 0.0 -0.0 0.0 0.0 False False
10021.734999999999 3.712127923965454 -0.8254588407329102 0.8429563681231897 -1.588285585443014 -1.5708087126361292 2.141312837600708 0.0 0.0 0.0 -0.0 0.0 0.0 False False
10021.755 3.71207857131958 -0.8254956167987366 0.8429425398456019 -1.5882569752135218 -1.5707648436175745 2.141251564025879 0.0 0.0 0.0 -0.0 0.0 0.0 False False
10021.775 3.7121188640594482 -0.8254955571940918 0.8429587523089808 -1.588280817071432 -1.5708254019366663 2.141263484954834 0.0 0.0 0.0 -0.0 0.0 0.0 False False
10021.795 3.712106943130493 -0.8254500788501282 0.8430007139789026 -1.5882650814452113 -1.5708449522601526 2.141308546066284 0.0 0.0 0.0 -0.0 0.0 0.0 False False
10021.814999999999 3.7120935916900635 -0.8255038422397156 0.8429845015155237 -1.5883013210692347 -1.5708087126361292 2.1412720680236816 0.0 0.0 0.0 -0.0 0.0 0.0 False False
10021.835 3.7120697498321533 -0.8254338663867493 0.8429349104510706 -1.5882774792113246 -1.5708048979388636 2.1412839889526367 0.0 0.0 0.0 -0.0 0.0 0.0 False False
10021.855 3.712083101272583 -0.8255038422397156 0.8429630438434046 -1.588268896142477 -1.5708449522601526 2.1412341594696045 0.0 0.0 0.0 -0.0 0.0 0.0 False False
10021.875 3.7120907306671143 -0.8254955571940918 0.8429935614215296 -1.588280817071432 -1.570801083241598 2.141263484954834 0.0 0.0 0.0 -0.0 0.0 0.0 False False
10021.895 3.7121100425720215 -0.8254220646670838 0.8430336157428187 -1.588325639764303 -1.5708087126361292 2.141251564025879 0.0 0.0 0.0 -0.0 0.0 0.0 False False
10021.914999999999 3.7120490074157715 -0.825482503776886 0.8430097738849085 -1.5882731876769007 -1.5707886854754847 2.141287088394165 0.0 0.0 0.0 -0.0 0.0 0.0 False False
10021.935 3.7120413780212402 -0.825451211338379 0.8430293242083948 -1.5882731876769007 -1.570784870778219 2.141282796859741 0.0 0.0 0.0 -0.0 0.0 0.0 False False
10021.955 3.71207857131958 -0.8254264158061524 0.8429978529559534 -1.5882536373534144 -1.5707324186908167 2.141231060028076 0.0 0.0 0.0 -0.0 0.0 0.0 False False
10021.975 3.71207857131958 -0.8254338067821045 0.8429845015155237 -1.588245531121725 -1.5708211104022425 2.1413159370422363 0.0 0.0 0.0 -0.0 0.0 0.0 False False
10021.994999999999 3.7120697498321533 -0.8254707616618653 0.8429606596576136 -1.5882932148375453 -1.570829216633932 2.1413257122039795 0.0 0.0 0.0 -0.0 0.0 0.0 False False
10022.015 3.7120490074157715 -0.8255155843547364 0.8429515997516077 -1.5882650814452113 -1.5707925001727503 2.141312837600708 0.0 0.0 0.0 -0.0 0.0 0.0 False False
10022.035 3.7120819091796875 -0.8254782122424622 0.8429515997516077 -1.5883013210692347 -1.570784870778219 2.141295909881592 0.0 0.0 0.0 -0.0 0.0 0.0 False False
10022.055 3.712106943130493 -0.8254619997790833 0.8429802099810999 -1.5883127651610316 -1.5707691351519983 2.141223430633545 0.0 0.0 0.0 -0.0 0.0 0.0 False False
10022.074999999999 3.7120490074157715 -0.8254382771304627 0.8429721037494105 -1.588297029534811 -1.5708168188678187 2.141263484954834 0.0 0.0 0.0 -0.0 0.0 0.0 False False
10022.095 3.7120742797851562 -0.825482503776886 0.8429845015155237 -1.588269372979635 -1.5707925001727503 2.141287088394165 0.0 0.0 0.0 -0.0 0.0 0.0 False False
10022.115 3.7120447158813477 -0.8254619997790833 0.8429845015155237 -1.5882932148375453 -1.5708335081683558 2.1413044929504395 0.0 0.0 0.0 -0.0 0.0 0.0 False False
10022.135 3.712095022201538 -0.8254955571940918 0.8429845015155237 -1.5883175335326136 -1.5707967917071741 2.1413040161132812 0.0 0.0 0.0 -0.0 0.0 0.0 False False
10022.154999999999 3.7120773792266846 -0.825463132267334 0.8429587523089808 -1.5883413753905238 -1.5708254019366663 2.141329050064087 0.0 0.0 0.0 -0.0 0.0 0.0 False False
10022.175 3.7120862007141113 -0.8253808182528992 0.8429754416095179 -1.5883451900877894 -1.5708335081683558 2.141279697418213 0.0 0.0 0.0 -0.0 0.0 0.0 False False
10022.195 3.7120981216430664 -0.8254793447307129 0.8429630438434046 -1.588320871392721 -1.5707967917071741 2.1413044929504395 0.0 0.0 0.0 -0.0 0.0 0.0 False False
10022.215 3.7120981216430664 -0.8254469198039551 0.8429606596576136 -1.588320871392721 -1.5708006064044397 2.141295909881592 0.0 0.0 0.0 -0.0 0.0 0.0 False False
10022.234999999999 3.7120742797851562 -0.8255363267711182 0.8429845015155237 -1.5883289776244105 -1.5707925001727503 2.141317129135132 0.0 0.0 0.0 -0.0 0.0 0.0 False False
10022.255 3.712050199508667 -0.8254869741252442 0.8429802099810999 -1.5882650814452113 -1.5707929770099085 2.141279697418213 0.0 0.0 0.0 -0.0 0.0 0.0 False False
10022.275 3.7121024131774902 -0.8254793447307129 0.8429892698871058 -1.5882569752135218 -1.5707925001727503 2.141279697418213 0.0 0.0 0.0 -0.0 0.0 0.0 False False
10022.295 3.712111234664917 -0.8254707616618653 0.8429845015155237 -1.5883013210692347 -1.5708044211017054 2.1412720680236816 0.0 0.0 0.0 -0.0 0.0 0.0 False False
10022.314999999999 3.7120819091796875 -0.8254793447307129 0.8429754416095179 -1.588297029534811 -1.5707843939410608 2.1412546634674072 0.0 0.0 0.0 -0.0 0.0 0.0 False False
10022.335 3.7121024131774902 -0.8254338663867493 0.8429301420794886 -1.588320871392721 -1.5708087126361292 2.141231060028076 0.0 0.0 0.0 -0.0 0.0 0.0 False False
10022.355 3.7120862007141113 -0.8254426282695313 0.8429473082171839 -1.5882374248900355 -1.570772949849264 2.14125919342041 0.0 0.0 0.0 -0.0 0.0 0.0 False False
10022.375 3.7120697498321533 -0.8254878681949158 0.8429473082171839 -1.5882655582823695 -1.5707605520831507 2.1413044929504395 0.0 0.0 0.0 -0.0 0.0 0.0 False False
10022.395 3.7120893001556396 -0.8254588407329102 0.8429392019854944 -1.5882889233031214 -1.5707925001727503 2.141317129135132 0.0 0.0 0.0 -0.0 0.0 0.0 False False
10022.414999999999 3.7120447158813477 -0.8255372208407898 0.8429515997516077 -1.5882889233031214 -1.5707529226886194 2.1412839889526367 0.0 0.0 0.0 -0.0 0.0 0.0 False False
10022.435 3.712123155593872 -0.825463132267334 0.8429964224444788 -1.588229318658346 -1.5707767645465296 2.141291618347168 0.0 0.0 0.0 -0.0 0.0 0.0 False False
10022.455 3.712095022201538 -0.8254545491984864 0.8429515997516077 -1.5882650814452113 -1.5707686583148401 2.141312837600708 0.0 0.0 0.0 -0.0 0.0 0.0 False False
10022.475 3.712090492248535 -0.8254707616618653 0.8429845015155237 -1.5882889233031214 -1.5707805792437952 2.1412558555603027 0.0 0.0 0.0 -0.0 0.0 0.0 False False
10022.494999999999 3.7120819091796875 -0.8254350584796448 0.8430007139789026 -1.588292738000387 -1.5708406607257288 2.1412546634674072 0.0 0.0 0.0 -0.0 0.0 0.0 False False
10022.515 3.712095022201538 -0.8254177135280152 0.8429845015155237 -1.588252683679098 -1.5708377997027796 2.141251564025879 0.0 0.0 0.0 -0.0 0.0 0.0 False False
10022.535 3.7120819091796875 -0.8255251210979004 0.8429673353778284 -1.5883094273009242 -1.5708168188678187 2.1413376331329346 0.0 0.0 0.0 -0.0 0.0 0.0 False False
10022.555 3.7120449542999268 -0.8254997891238709 0.8430054823504847 -1.5883165798582972 -1.5708492437945765 2.141312837600708 0.0 0.0 0.0 -0.0 0.0 0.0 False False
10022.574999999999 3.712131977081299 -0.8254546088031312 0.8429515997516077 -1.588313718835348 -1.5708048979388636 2.1412558555603027 0.0 0.0 0.0 -0.0 0.0 0.0 False False
10022.595 3.712131977081299 -0.8254588407329102 0.8430455366717737 -1.588292738000387 -1.5708168188678187 2.141267776489258 0.0 0.0 0.0 -0.0 0.0 0.0 False False
10022.615 3.71207857131958 -0.8255041402629395 0.8429563681231897 -1.5883289776244105 -1.5707925001727503 2.141279697418213 0.0 0.0 0.0 -0.0 0.0 0.0 False False
10022.635 3.7120981216430664 -0.8254825633815308 0.8429473082171839 -1.588273664514059 -1.570801083241598 2.141231060028076 0.0 0.0 0.0 -0.0 0.0 0.0 False False
10022.654999999999 3.7120535373687744 -0.8254759472659607 0.8429473082171839 -1.5883165798582972 -1.5707486311541956 2.141263484954834 0.0 0.0 0.0 -0.0 0.0 0.0 False False
10022.675 3.7121188640594482 -0.8254869741252442 0.8430174032794397 -1.5882650814452113 -1.5708091894732874 2.141329050064087 0.0 0.0 0.0 -0.0 0.0 0.0 False False
10022.695 3.712038278579712 -0.825463132267334 0.8429845015155237 -1.5883289776244105 -1.5707886854754847 2.1412839889526367 0.0 0.0 0.0 -0.0 0.0 0.0 False False
10022.715 3.712062358856201 -0.8254739803126832 0.8430040518390101 -1.5882488689818324 -1.5707686583148401 2.141291618347168 0.0 0.0 0.0 -0.0 0.0 0.0 False False
10022.734999999999 3.712106943130493 -0.8255080741694947 0.8430383841144007 -1.5882851086058558 -1.570784870778219 2.141282796859741 0.0 0.0 0.0 -0.0 0.0 0.0 False False
10022.755 3.7120611667633057 -0.8254793447307129 0.8429845015155237 -1.588245531121725 -1.5708449522601526 2.141279697418213 0.0 0.0 0.0 -0.0 0.0 0.0 False False
10022.775 3.712111234664917 -0.825451211338379 0.8429515997516077 -1.5883132419981898 -1.5708487669574183 2.1413002014160156 0.0 0.0 0.0 -0.0 0.0 0.0 False False
10022.795 3.712111234664917 -0.8254663509181519 0.8429630438434046 -1.5882774792113246 -1.570801083241598 2.141263484954834 0.0 0.0 0.0 -0.0 0.0 0.0 False False
10022.814999999999 3.712062358856201 -0.8254750531962891 0.8429802099810999 -1.5882812939085902 -1.5708616415606897 2.1412665843963623 0.0 0.0 0.0 -0.0 0.0 0.0 False False
10022.855 3.7120742797851562 -0.8254350584796448 0.8429935614215296 -1.5882612667479457 -1.5707767645465296 2.1413214206695557 0.0 0.0 0.0 -0.0 0.0 0.0 False False
10022.875 3.712062358856201 -0.825519935493805 0.8430174032794397 -1.5883051357665003 -1.570829216633932 2.141267776489258 0.0 0.0 0.0 -0.0 0.0 0.0 False False
10022.895 3.7120370864868164 -0.8254750531962891 0.8429845015155237 -1.5882774792113246 -1.5708044211017054 2.141279697418213 0.0 0.0 0.0 -0.0 0.0 0.0 False False
10022.914999999999 3.71207857131958 -0.825463132267334 0.8429673353778284 -1.5882488689818324 -1.5708087126361292 2.141312837600708 0.0 0.0 0.0 -0.0 0.0 0.0 False False
10022.935 3.7120537757873535 -0.8254950803569336 0.8429630438434046 -1.5882131061949671 -1.5708611647235315 2.141263484954834 0.0 0.0 0.0 -0.0 0.0 0.0 False False
10022.955 3.712066650390625 -0.8254222434810181 0.8429964224444788 -1.588292738000387 -1.5708492437945765 2.1412384510040283 0.0 0.0 0.0 -0.0 0.0 0.0 False False
10022.975 3.7120208740234375 -0.8254750531962891 0.842971150075094 -1.5882774792113246 -1.570784870778219 2.141231060028076 0.0 0.0 0.0 -0.0 0.0 0.0 False False
10022.994999999999 3.7120819091796875 -0.8254707616618653 0.8430097738849085 -1.588297506371969 -1.5707886854754847 2.141263484954834 0.0 0.0 0.0 -0.0 0.0 0.0 False False
10023.015 3.712066650390625 -0.8254469198039551 0.8430126349078577 -1.588292738000387 -1.570813004170553 2.141267776489258 0.0 0.0 0.0 -0.0 0.0 0.0 False False
10023.035 3.7121024131774902 -0.825463132267334 0.8429845015155237 -1.588245531121725 -1.5708211104022425 2.1412925720214844 0.0 0.0 0.0 -0.0 0.0 0.0 False False
10023.055 3.712090492248535 -0.825401560669281 0.8429539839373987 -1.5882812939085902 -1.5707643667804163 2.141279697418213 0.0 0.0 0.0 -0.0 0.0 0.0 False False
10023.074999999999 3.7120296955108643 -0.825450138454773 0.8429964224444788 -1.588285585443014 -1.5707886854754847 2.141329050064087 0.0 0.0 0.0 -0.0 0.0 0.0 False False
10023.095 3.71207857131958 -0.8254707616618653 0.8429964224444788 -1.588245531121725 -1.570853058491842 2.1412222385406494 0.0 0.0 0.0 -0.0 0.0 0.0 False False
10023.115 3.7120413780212402 -0.8254501980594178 0.8429892698871058 -1.5882336101927699 -1.570857350026266 2.141267776489258 0.0 0.0 0.0 -0.0 0.0 0.0 False False
10023.135 3.7121036052703857 -0.8254458469203492 0.8430007139789026 -1.5882812939085902 -1.5708449522601526 2.1413214206695557 0.0 0.0 0.0 -0.0 0.0 0.0 False False
10023.154999999999 3.712045907974243 -0.8255040806582947 0.8429845015155237 -1.5882493458189906 -1.5708048979388636 2.141279697418213 0.0 0.0 0.0 -0.0 0.0 0.0 True False
10023.175 3.7120416164398193 -0.8254221838763733 0.8429845015155237 -1.588269372979635 -1.5708254019366663 2.141270875930786 0.0 0.0 0.0 -0.0 0.0 0.0 True False
10023.195 3.71207857131958 -0.8254631918719788 0.8430264631854456 -1.588292738000387 -1.5707529226886194 2.141279697418213 0.0 0.0 0.0 -0.0 0.0 0.0 True False
10023.215 3.712062358856201 -0.8254459065249939 0.8429678122149866 -1.5882812939085902 -1.5708087126361292 2.1412997245788574 0.0 0.0 0.0 -0.0 0.0 0.0 True False
10023.234999999999 3.7120468616485596 -0.8254707616618653 0.8429845015155237 -1.5882612667479457 -1.5707529226886194 2.1412546634674072 0.0 0.0 0.0 -0.0 0.0 0.0 True False
10023.255 3.71207857131958 -0.825430766945221 0.8429673353778284 -1.5882655582823695 -1.5707843939410608 2.141312837600708 0.0 0.0 0.0 -0.0 0.0 0.0 True False
10023.275 3.7120251655578613 -0.8254869145205994 0.8430007139789026 -1.5882889233031214 -1.570813004170553 2.141312837600708 0.0 0.0 0.0 -0.0 0.0 0.0 True False
10023.295 3.7120742797851562 -0.8255209487727662 0.8429964224444788 -1.5882851086058558 -1.5708335081683558 2.141275405883789 0.0 0.0 0.0 -0.0 0.0 0.0 True False
10023.314999999999 3.7120819091796875 -0.8254909080317994 0.8430174032794397 -1.588292738000387 -1.5707891623126429 2.141231060028076 0.0 0.0 0.0 -0.0 0.0 0.0 True False
10023.335 3.7120416164398193 -0.8254426878741761 0.8430054823504847 -1.588285585443014 -1.5708087126361292 2.141275405883789 0.0 0.0 0.0 -0.0 0.0 0.0 True False
10023.355 3.7120862007141113 -0.8255208891681214 0.8430216948138636 -1.5882655582823695 -1.5707886854754847 2.141329050064087 0.0 0.0 0.0 -0.0 0.0 0.0 True False
10023.375 3.7120580673217773 -0.8255317372134705 0.8430174032794397 -1.5883451900877894 -1.5707486311541956 2.1412720680236816 0.0 0.0 0.0 -0.0 0.0 0.0 True False
10023.395 3.712106943130493 -0.8254588407329102 0.8429887930499476 -1.588297029534811 -1.5707967917071741 2.141329050064087 0.0 0.0 0.0 -0.0 0.0 0.0 True False
10023.414999999999 3.7120535373687744 -0.8254264754107972 0.8430007139789026 -1.588313718835348 -1.570813004170553 2.141270875930786 0.0 0.0 0.0 -0.0 0.0 0.0 True False
10023.435 3.7120296955108643 -0.8254588407329102 0.8429754416095179 -1.5883132419981898 -1.5707967917071741 2.141308546066284 -2.773278273693336e-10 0.0 0.0 -0.0 0.0 0.0 True False
10023.455 3.7120862007141113 -0.8254469198039551 0.8430174032794397 -1.5883056126036585 -1.5708406607257288 2.1413002014160156 -2.167611206758106e-30 0.0 0.0 -0.0 0.0 0.0 True False
10023.475 3.712045907974243 -0.8254663509181519 0.8430007139789026 -1.588297029534811 -1.5707772413836878 2.14125919342041 0.0 0.0 0.0 -0.0 0.0 0.0 True False
10023.494999999999 3.7120580673217773 -0.8254674238017579 0.8430007139789026 -1.5883375606932582 -1.5707605520831507 2.1412997245788574 0.0 0.0 0.0 -0.0 0.0 0.0 True False
10023.515 3.712062358856201 -0.8254707616618653 0.8429515997516077 -1.5882932148375453 -1.5708006064044397 2.1412925720214844 0.0 0.0 0.0 -0.0 0.0 0.0 True False
10023.535 3.7120656967163086 -0.8254673641971131 0.8429763952838343 -1.5883170566954554 -1.5707805792437952 2.141295909881592 0.0 0.0 0.0 -0.0 0.0 0.0 True False
10023.555 3.7120327949523926 -0.8254954975894471 0.8429678122149866 -1.5882932148375453 -1.5707925001727503 2.1413376331329346 0.0 0.0 0.0 -0.0 0.0 0.0 True False
10023.574999999999 3.712033987045288 -0.8254339259913941 0.8430169264422815 -1.5882374248900355 -1.5707925001727503 2.1411640644073486 0.0 0.0 0.0 -0.0 0.0 -2.1036068176272238e-07 True False
10023.595 3.7121024131774902 -0.8254879277995606 0.8429887930499476 -1.5883375606932582 -1.5707810560809534 2.1412997245788574 0.0 0.0 0.0 -0.0 0.0 0.0004095262265764177 True False
10023.615 3.7120656967163086 -0.8254663509181519 0.842971150075094 -1.5882650814452113 -1.5707843939410608 2.1412763595581055 0.0 0.0 0.0 -0.0 0.0 1.3326291459225814e-10 True False
10023.635 3.7120742797851562 -0.8255080741694947 0.8430007139789026 -1.5882774792113246 -1.570801083241598 2.1413214206695557 3.0931307264836505e-05 0.0 0.0 -0.0 0.0 3.956693969465219e-18 True False
10023.654999999999 3.71207857131958 -0.8254383367351075 0.8429587523089808 -1.5882650814452113 -1.570801083241598 2.1412839889526367 7.985235606165874e-19 0.0 0.0 -0.0 0.0 4.040253406856209e-05 True False
10023.675 3.7120370864868164 -0.8254145544818421 0.8429845015155237 -1.5883656940855921 -1.5707805792437952 2.141329050064087 6.241309091284126e-39 0.0 0.0 -0.0 0.0 3.74386872863397e-05 True False
10023.695 3.7120699882507324 -0.8254662913135071 0.8429887930499476 -1.5882846317686976 -1.570801083241598 2.1413002014160156 0.0 0.0 0.0 -0.0 0.0 1.1115883604209675e-12 True False
10023.715 3.712062358856201 -0.8254136604121705 0.8430097738849085 -1.5882774792113246 -1.5707648436175745 2.141329050064087 0.0 0.0 0.0 -0.0 0.0 3.300406053881685e-20 True False
10023.734999999999 3.7120742797851562 -0.825423077946045 0.8430083433734339 -1.5882817707457484 -1.5708211104022425 2.141312837600708 0.0 0.0 0.0 -0.0 0.0 9.799202816450198e-28 True False
10023.755 3.7122421264648438 -0.8255685728839417 0.8430774847613733 -1.5883127651610316 -1.5707886854754847 2.1414194107055664 0.021671701222658157 -0.011428862810134888 0.021324006840586662 -0.003507755696773529 0.0 0.024868736043572426 True False
10023.775 3.712897300720215 -0.8257954877666016 0.8435199896441858 -1.588456769982809 -1.5707967917071741 2.142279863357544 0.05100955441594124 -0.017834845930337906 0.030702926218509674 -0.011735668405890465 0.0 0.053767185658216476 True False
10023.795 3.71423602104187 -0.8262595695308228 0.8442514578448694 -1.5887795887389125 -1.5707724730121058 2.143608808517456 0.0813135951757431 -0.029398227110505104 0.04941719397902489 -0.016967974603176117 0.0 0.07639475911855698 True False
10023.814999999999 3.716113328933716 -0.8269296449473877 0.8454220930682581 -1.5892507038512171 -1.570796314870016 2.1454553604125977 0.10965791344642639 -0.0409194640815258 0.06996900588274002 -0.02828981913626194 0.0 0.10597429424524307 True False
10023.835 3.71867036819458 -0.8279498380473633 0.8470247427569788 -1.589940687219137 -1.5708492437945765 2.1479201316833496 0.14033091068267822 -0.05396237224340439 0.0896468311548233 -0.03254001587629318 0.0 0.13307718932628632 True False
10023.855 3.7218306064605713 -0.8290702265552063 0.8491085211383265 -1.5906535587706507 -1.570857350026266 2.1509547233581543 0.16816937923431396 -0.06807921081781387 0.11074803024530411 -0.04162357375025749 0.0 0.15975725650787354 True False
10023.875 3.7254486083984375 -0.8305456203273316 0.8515990416156214 -1.591550966302389 -1.5707967917071741 2.1544852256774902 0.19221289455890656 -0.07568764686584473 0.12422933429479599 -0.05139894783496857 0.0006705634878017008 0.18466953933238983 True False
10023.895 3.7294914722442627 -0.8321793240359803 0.8542011419879358 -1.5926515064635218 -1.570813004170553 2.158672332763672 0.21615570783615112 -0.09040705859661102 0.1403987854719162 -0.05296160280704498 0.00037429790245369077 0.21435078978538513 True False
10023.914999999999 3.734107732772827 -0.8341846031001587 0.8572481314288538 -1.59373201946401 -1.5708168188678187 2.1632676124572754 0.2465866208076477 -0.10377111285924911 0.1593068391084671 -0.05698338896036148 0.0001910276332637295 0.24043570458889008 True False
10023.935 3.7393786907196045 -0.836353139286377 0.8605955282794397 -1.5950328312315882 -1.5707767645465296 2.168489933013916 0.27324193716049194 -0.10887143760919571 0.17814181745052338 -0.06717687845230103 0.0001609003811609 0.27239057421684265 True False
10023.955 3.745286226272583 -0.838714675312378 0.8643649260150355 -1.5964514217772425 -1.5707886854754847 2.1743009090423584 0.3011780083179474 -0.12124447524547577 0.19680456817150116 -0.07092054188251495 0.00015180074842646718 0.30497053265571594 True False
10023.975 3.7515203952789307 -0.8412111562541504 0.8684867064105433 -1.5979992351927699 -1.5707805792437952 2.180682897567749 0.3282318413257599 -0.126054048538208 0.2134970873594284 -0.09055269509553909 0.00011456892389105633 0.3270851671695709 True False
10023.994999999999 3.7582826614379883 -0.8438751858523865 0.8729127089129847 -1.5998126469054164 -1.5708449522601526 2.1875343322753906 0.35639724135398865 -0.14075173437595367 0.23004686832427979 -0.08837630599737167 9.069899533642456e-05 0.3566770553588867 True False
10024.015 3.765833616256714 -0.8469395202449341 0.8777697722064417 -1.6015359363951625 -1.5707405249225062 2.195129632949829 0.38996559381484985 -0.15303172171115875 0.2522177994251251 -0.09078577905893326 7.548359280917794e-05 0.38180866837501526 True False
10024.035 3.774071455001831 -0.8500864070704957 0.8830021063434046 -1.6034695110716761 -1.5707648436175745 2.203082799911499 0.4147684872150421 -0.16346576809883118 0.2666102945804596 -0.09509055316448212 7.756816921755672e-05 0.41607779264450073 True False
10024.055 3.782614231109619 -0.8534945410541077 0.8884862104998987 -1.6056748829283656 -1.5707891623126429 2.2117037773132324 0.44106853008270264 -0.17716717720031738 0.28377023339271545 -0.11988914757966995 7.912900764495134e-05 0.4413571059703827 True False
10024.074999999999 3.791534900665283 -0.8571798366359253 0.8943312803851526 -1.6079904041686 -1.5707767645465296 2.2208898067474365 0.46665751934051514 -0.18987992405891418 0.3010224997997284 -0.11114946752786636 8.034202619455755e-05 0.4682188034057617 True False
10024.095 3.8012828826904297 -0.8611223858645936 0.9006107489215296 -1.6103435955443324 -1.5708006064044397 2.2305541038513184 0.4969051480293274 -0.2011823058128357 0.32008421421051025 -0.11965185403823853 8.679463397998077e-12 0.4929701089859009 True False
10024.115 3.8117668628692627 -0.8651971978000184 0.9073737303363245 -1.6128436527647914 -1.570801083241598 2.2407066822052 0.529342770576477 -0.21300330758094788 0.3386179804801941 -0.13907529413700104 2.5770108880568907e-19 0.5280951857566833 True False
10024.135 3.8225033283233643 -0.8693974179080506 0.9144380728351038 -1.6154991588988246 -1.570813004170553 2.2516744136810303 0.552520215511322 -0.21375054121017456 0.3535311222076416 -0.13256704807281494 7.693011866649613e-05 0.5568765997886658 True False
10024.154999999999 3.833670139312744 -0.8739274901202698 0.9216368834124964 -1.6184107265868128 -1.5708449522601526 2.2629926204681396 0.5758715867996216 -0.2300223708152771 0.37177789211273193 -0.15037870407104492 9.154420695267618e-05 0.5764488577842712 True False
10024.175 3.8457047939300537 -0.8788432639888306 0.9292758146869105 -1.6213952503600062 -1.5707805792437952 2.2749037742614746 0.6172048449516296 -0.24532367289066315 0.38848862051963806 -0.14815653860569 6.319157546386123e-05 0.6148288249969482 True False
10024.195 3.858302593231201 -0.8836963337710877 0.9373472372638147 -1.6243869266905726 -1.570801083241598 2.287497043609619 0.6392536759376526 -0.25391873717308044 0.41252338886260986 -0.15292008221149445 7.015200390014797e-05 0.6342079043388367 True False
10024.215 3.87131929397583 -0.8888783019832154 0.9458726088153284 -1.627756258050436 -1.5707686583148401 2.3003995418548584 0.6568756103515625 -0.26365748047828674 0.4313869774341583 -0.1666916012763977 5.56821541977115e-05 0.6698347330093384 True False
10024.234999999999 3.884889841079712 -0.8942012351802369 0.9546859900103968 -1.6309544048705042 -1.5707648436175745 2.314098834991455 0.696694552898407 -0.27378398180007935 0.4504590928554535 -0.16082017123699188 4.616134538082406e-05 0.6946892142295837 True False
10024.255 3.8990654945373535 -0.8999318045428772 0.9637516180621546 -1.6346188984312953 -1.570801083241598 2.3282458782196045 0.7167562246322632 -0.287701278924942 0.46455949544906616 -0.19029200077056885 3.9421160181518644e-05 0.7169638276100159 True False
10024.275 3.9137938022613525 -0.9059676688960572 0.9732120672809046 -1.638223787347311 -1.570756737385885 2.342979669570923 0.7567363977432251 -0.2992747128009796 0.4836257994174957 -0.17570613324642181 3.439864667598158e-05 0.7514314651489258 True False
10024.295 3.92917537689209 -0.9120170635036011 0.9831579367267054 -1.641996522943014 -1.5708211104022425 2.3582985401153564 0.7735304236412048 -0.3032207190990448 0.5046624541282654 -0.19138804078102112 3.0511317163472995e-05 0.7734834551811218 True False
10024.314999999999 3.944917917251587 -0.9181806606105347 0.9933183828936976 -1.6458856068053187 -1.570813004170553 2.3741891384124756 0.8096204996109009 -0.32311317324638367 0.5178476572036743 -0.1869884729385376 1.844434847908527e-11 0.8043783903121948 True False
10024.335 3.9613020420074463 -0.9246553939631958 1.0040205160724085 -1.6500636539854945 -1.5708487669574183 2.390467643737793 0.8272418975830078 -0.33468717336654663 0.5338108539581299 -0.20888639986515045 5.476291342764441e-19 0.8255311846733093 True False
10024.355 3.9782748222351074 -0.9315368098071595 1.0150116125689905 -1.6540242634215296 -1.570813004170553 2.407532215118408 0.8697431087493896 -0.3436034321784973 0.5566540956497192 -0.21903382241725922 1.625960500721893e-26 0.8621904253959656 True False
10024.375 3.995959758758545 -0.9384658497622986 1.0262277762042444 -1.6585737667479457 -1.570784870778219 2.4250471591949463 0.8834328055381775 -0.352641224861145 0.5713437795639038 -0.21485821902751923 3.1105410016607493e-06 0.8871225714683533 True False
10024.395 4.013932704925537 -0.9459490340999146 1.0379193464862269 -1.6630131206908167 -1.570784870778219 2.4432623386383057 0.9170040488243103 -0.3690762221813202 0.5909436941146851 -0.23218463361263275 9.235475340214905e-14 0.9151083827018738 True False
10024.414999999999 4.032520294189453 -0.9532326620868226 1.049969498311178 -1.6674262485899867 -1.5708168188678187 2.461683988571167 0.9419927597045898 -0.37187662720680237 0.6128118634223938 -0.23488925397396088 2.742095854626009e-21 0.9471564888954163 True False
10024.435 4.051827430725098 -0.9607057136348267 1.062354866658346 -1.6722365818419398 -1.570784870778219 2.481030225753784 0.9718208909034729 -0.38428160548210144 0.6286163926124573 -0.23554067313671112 8.141528792891234e-29 0.9678263068199158 True False
10024.455 4.071471691131592 -0.9686812323382874 1.0752742926227015 -1.677166601220602 -1.5707486311541956 2.500678777694702 1.0061639547348022 -0.39789626002311707 0.6400514841079712 -0.24401651322841644 2.4172933917720344e-36 1.0019347667694092 True False
10024.475 4.091779708862305 -0.9768160146525879 1.0880654493915003 -1.6823302708067835 -1.5708335081683558 2.520822286605835 1.0231928825378418 -0.4124823212623596 0.6620957851409912 -0.26161351799964905 7.146622168056567e-44 1.0297313928604126 True False
10024.494999999999 4.112720012664795 -0.9851027888110657 1.101621452962057 -1.687394758264059 -1.5707324186908167 2.5419182777404785 1.0350114107131958 -0.41549283266067505 0.674546480178833 -0.2596694529056549 0.0 1.0449856519699097 True False
10024.515 4.133617877960205 -0.993361846809723 1.1152318159686487 -1.692507883111471 -1.570716683064596 2.562734842300415 1.0509448051452637 -0.41384685039520264 0.6779460310935974 -0.25701606273651123 0.0 1.0507827997207642 True False
10024.535 4.15449333190918 -1.0016741913608094 1.1288183371173304 -1.6977774105467738 -1.5708335081683558 2.5835695266723633 1.0390530824661255 -0.4144870936870575 0.6782718896865845 -0.2674832344055176 0.0 1.0480879545211792 True False
10024.555 4.175472736358643 -1.0101808470538636 1.1421621481524866 -1.7029348812498988 -1.570772949849264 2.6047191619873047 1.0480159521102905 -0.41733524203300476 0.6738970279693604 -0.2608995735645294 0.0 1.0440821647644043 True False
10024.574999999999 4.196375846862793 -1.018418626194336 1.1555898825274866 -1.7080046139159144 -1.5707443396197718 2.6256072521209717 1.0416854619979858 -0.41449078917503357 0.678123414516449 -0.24634960293769836 -5.2427963964873925e-05 1.0480715036392212 True False
10024.595 4.217062950134277 -1.0265759986690064 1.1690829435931605 -1.7130829296507777 -1.5708172957049769 2.645864725112915 1.0096735954284668 -0.3974980413913727 0.6585403084754944 -0.25364944338798523 -3.6083938059761067e-09 1.0146524906158447 True False
10024.615 4.236793041229248 -1.0345269602588196 1.1819208304034632 -1.7181297741331996 -1.5707443396197718 2.666194200515747 0.9859572052955627 -0.3899960517883301 0.6363247632980347 -0.2611352801322937 -1.0713646602509265e-16 0.9861856698989868 True False
10024.635 4.2562360763549805 -1.042363778953888 1.1942914167987269 -1.7230202160277308 -1.5707653204547327 2.685486316680908 0.9611459970474243 -0.38979876041412354 0.6146916747093201 -0.23763108253479004 -0.0007237382815219462 0.9611412286758423 True False
10024.654999999999 4.275158405303955 -1.0497364562800904 1.2065580526935022 -1.7275148830809535 -1.5708168188678187 2.7042899131774902 0.926941990852356 -0.36844173073768616 0.5983133316040039 -0.22185613214969635 -0.0002766474208328873 0.9260528683662415 True False
10024.675 4.293462753295898 -1.0569765132716675 1.2184613386737269 -1.7320195637144984 -1.5707653204547327 2.7226438522338867 0.9062827825546265 -0.35606735944747925 0.5876428484916687 -0.22160343825817108 -0.00017126910097431391 0.9085672497749329 True False
10024.695 4.311178684234619 -1.0641724628261109 1.2298572699176233 -1.7364021740355433 -1.5707805792437952 2.740339994430542 0.8704744577407837 -0.3497033715248108 0.5633056163787842 -0.22068491578102112 -0.00019030520343221724 0.8715753555297852 True False
10024.715 4.328409194946289 -1.071102963095047 1.2407882849322718 -1.7408462963499964 -1.5707443396197718 2.75766658782959 0.8488069176673889 -0.33712199330329895 0.5433727502822876 -0.21372759342193604 -0.00010080573701998219 0.8452408313751221 True False
10024.734999999999 4.345005989074707 -1.0776327711394806 1.2516472975360315 -1.7448436222472132 -1.5708168188678187 2.774136781692505 0.8151476383209229 -0.325834184885025 0.5337573885917664 -0.20707979798316956 -0.00013013550778850913 0.8252794742584229 True False
10024.755 4.361048221588135 -1.0839698773673554 1.262155834828512 -1.7487555942931117 -1.5708168188678187 2.7903764247894287 0.7905991077423096 -0.3149745464324951 0.5062077641487122 -0.18550337851047516 -0.00011138220725115389 0.7880373597145081 True False
10024.775 4.376500129699707 -1.0900622469237824 1.2720916906939905 -1.752697607079977 -1.570813004170553 2.805690288543701 0.7624440789222717 -0.3026218116283417 0.49594464898109436 -0.1904888153076172 -0.00013792487152386457 0.7664229869842529 True False
10024.795 4.391537666320801 -1.096163885002472 1.281539265309469 -1.7563415966429652 -1.5708211104022425 2.8208553791046143 0.7365633249282837 -0.29575052857398987 0.47287237644195557 -0.17921987175941467 -0.00010986712732119486 0.7341798543930054 True False
10024.814999999999 4.4059553146362305 -1.1019738775542756 1.2909138838397425 -1.7600451908507289 -1.5707762877093714 2.835026502609253 0.7072852849960327 -0.28179582953453064 0.45564886927604675 -0.1719883680343628 -0.00010650205513229594 0.7152594327926636 True False
10024.835 4.4197773933410645 -1.107283131485321 1.3000004927264612 -1.7632390461363734 -1.5708211104022425 2.8490335941314697 0.6784380674362183 -0.2673821747303009 0.4434807598590851 -0.16182303428649902 -9.110377868637443e-05 0.6819404363632202 True False
10024.855 4.4330549240112305 -1.1124801498702546 1.3085230032550257 -1.7667190037169398 -1.570813004170553 2.8621885776519775 0.6453706622123718 -0.25876984000205994 0.4183788597583771 -0.16480517387390137 -9.096250869333744e-05 0.6527000069618225 True False
10024.875 4.445789337158203 -1.1178214114955445 1.3166096846209925 -1.76983704189443 -1.5708215872394007 2.874999523162842 0.6275210976600647 -0.2569219470024109 0.3980811536312103 -0.15101774036884308 -7.564430416096002e-05 0.6231314539909363 True False
10024.895 4.4578633308410645 -1.1227210325053711 1.3245814482318323 -1.7728296718993128 -1.5708168188678187 2.887209415435791 0.5934852957725525 -0.23308831453323364 0.3829028010368347 -0.1445804387331009 -6.475796544691548e-05 0.5876878499984741 True False
10024.914999999999 4.469549655914307 -1.1272514027408143 1.332026783620016 -1.775632997552389 -1.5708578268634241 2.89860200881958 0.5704045295715332 -0.21979689598083496 0.3664914071559906 -0.13017421960830688 -5.661103568854742e-05 0.5795854330062866 True False
10024.935 4.480513572692871 -1.1316152972033997 1.3392108122455042 -1.7782923183836878 -1.570801083241598 2.909832715988159 0.5410169959068298 -0.2147720754146576 0.3489891290664673 -0.14778251945972443 -5.0284932513022795e-05 0.5427744388580322 True False
10024.955 4.490969657897949 -1.1357523959926148 1.345806900654928 -1.7810665569701136 -1.570756737385885 2.9202709197998047 0.5070551037788391 -0.2042171061038971 0.32824352383613586 -0.12321281433105469 -5.432365928620397e-12 0.5041917562484741 True False
10024.975 4.500993251800537 -1.1398203831962128 1.3523972670184534 -1.7833315334715785 -1.5708168188678187 2.9301271438598633 0.48840680718421936 -0.194609135389328 0.31415438652038574 -0.1110982820391655 -1.6129187009353244e-19 0.4870823323726654 True False
10024.994999999999 4.510325908660889 -1.1433659356883545 1.358392063771383 -1.7857204876341761 -1.5708168188678187 2.939558982849121 0.45695552229881287 -0.17938143014907837 0.29348769783973694 -0.12415733188390732 -4.788900303172682e-27 0.45562082529067993 True False
10025.015 4.5189528465271 -1.1469265085509797 1.3639968077289026 -1.787880083123678 -1.5708368460284632 2.948394775390625 0.4296046793460846 -0.1731719970703125 0.2724345028400421 -0.10727603733539581 -1.4218676352613212e-34 0.42247506976127625 True False
10025.035 4.527517318725586 -1.1502964955619355 1.3692997137652796 -1.7899052105345667 -1.5707600752459925 2.956446647644043 0.4017341434955597 -0.16240760684013367 0.2591802477836609 -0.09958925098180771 -4.222112273010674e-42 0.403514564037323 True False
10025.055 4.5351972579956055 -1.153336153631546 1.3743489424334925 -1.7919031582274378 -1.5707805792437952 2.96429181098938 0.3701878488063812 -0.14495305716991425 0.24320070445537567 -0.1039247214794159 -0.0 0.37485477328300476 True False
10025.074999999999 4.542020797729492 -1.156156526213028 1.3790176550494593 -1.7937170467772425 -1.5708335081683558 2.9714455604553223 0.34268319606781006 -0.1346588432788849 0.21986889839172363 -0.08408381044864655 -0.0 0.3435337245464325 True False
10025.095 4.548748970031738 -1.1587929886630555 1.383385960255758 -1.7952681980528773 -1.5708368460284632 2.978036403656006 0.3213825523853302 -0.12571512162685394 0.20341740548610687 -0.07703492790460587 -0.0 0.3129149377346039 True False
10025.115 4.555052757263184 -1.1611595016768952 1.3872578779803675 -1.7966276607909144 -1.5707324186908167 2.983973741531372 0.28610149025917053 -0.11264112591743469 0.1819000244140625 -0.07044704258441925 -0.0 0.29391515254974365 True False
10025.135 4.560351371765137 -1.1633944076350708 1.390721623097555 -1.798074861566061 -1.5707767645465296 2.9894275665283203 0.249901682138443 -0.10412469506263733 0.16309526562690735 -0.07052057236433029 -0.0 0.26342448592185974 True False
10025.154999999999 4.5650763511657715 -1.1652964812568207 1.393691364918844 -1.7994581661620082 -1.5708254019366663 2.9943084716796875 0.2317272573709488 -0.09177501499652863 0.14699220657348633 -0.06031501293182373 -0.0 0.235848531126976 True False
10025.175 4.569417476654053 -1.1670548778823395 1.3965547720538538 -1.8004704914488734 -1.5707967917071741 2.9986824989318848 0.20840249955654144 -0.0815824568271637 0.13874447345733643 -0.04369329661130905 -0.0 0.20715732872486115 True False
10025.195 4.573222637176514 -1.16848440588031 1.3990872542010706 -1.8012644253172816 -1.5707925001727503 3.0025062561035156 0.1787310242652893 -0.06964704394340515 0.11147279292345047 -0.04549199715256691 -0.0 0.17510993778705597 True False
10025.215 4.576484680175781 -1.169802801018097 1.4011533896075647 -1.8020850620665492 -1.5707967917071741 3.005692958831787 0.1534235179424286 -0.060861196368932724 0.0949961394071579 -0.037800539284944534 -0.0 0.1501545011997223 True False
10025.234999999999 4.579217910766602 -1.170951561336853 1.4027088324176233 -1.8027707539000453 -1.5708087126361292 3.0083985328674316 0.12186664342880249 -0.04827382415533066 0.07816590368747711 -0.027756113559007645 -0.0 0.11978939920663834 True False
10025.255 4.581304550170898 -1.1717469555190583 1.4042208830462855 -1.8032132587828578 -1.5707925001727503 3.0104551315307617 0.09125865995883942 -0.03628760203719139 0.060995351523160934 -0.02101735770702362 -0.0 0.09350119531154633 True False
10025.275 4.582805156707764 -1.172268883591034 1.405194107686178 -1.803648134271139 -1.5708254019366663 3.0119829177856445 0.06238485127687454 -0.025020888075232506 0.042041826993227005 -0.018184054642915726 -0.0 0.06486932933330536 True False
10025.295 4.5837836265563965 -1.1726830762675782 1.405855957661764 -1.8038584194579066 -1.5707839171039026 3.0129969120025635 0.03709908947348595 -0.01740441843867302 0.023501140996813774 -0.009314361028373241 -0.0 0.03843842074275017 True False
10025.314999999999 4.584288120269775 -1.1729310315898438 1.4061158339129847 -1.8039266071715296 -1.5708611647235315 3.0133731365203857 0.00968551728874445 -0.0022658826783299446 0.004108894150704145 -0.0005747315590269864 -0.0 0.010716922581195831 True False
10025.335 4.5842156410217285 -1.1728882056525727 1.4062441031085413 -1.8041941128172816 -1.570829216633932 3.0133862495422363 -0.004176330287009478 0.005326921585947275 0.02288307249546051 -0.03567520156502724 -0.0 -3.524558678691392e-06 True False
10025.355 4.584111213684082 -1.1726502639106293 1.4067423979388636 -1.8049360714354457 -1.5708044211017054 3.0134143829345703 -0.0008053614292293787 0.013037861324846745 0.0340413823723793 -0.04657163843512535 -0.0 -1.0464732243730887e-13 True False
10025.375 4.584228038787842 -1.1723133784583588 1.4076383749591272 -1.8061796627440394 -1.5708006064044397 3.0134267807006836 0.001313753891736269 0.021346203982830048 0.05122852325439453 -0.0737898200750351 -0.0 0.0004289973876439035 True False
10025.395 4.5842084884643555 -1.1718159478953858 1.4088528792010706 -1.8079549274840296 -1.5708254019366663 3.0134224891662598 0.0001982488320209086 0.031504981219768524 0.06996267288923264 -0.09905391931533813 -0.0 0.000540685374289751 True False
10025.414999999999 4.5841875076293945 -1.1711245340159913 1.4105079809771937 -1.8102795086302699 -1.570813004170553 3.013425827026367 0.00015680048090871423 0.04283716529607773 0.08980253338813782 -0.12664726376533508 -0.0 0.0006978489691391587 True False
10025.435 4.584238529205322 -1.1701480013183136 1.4125354925738733 -1.813242097894186 -1.5708048979388636 3.0134668350219727 0.001557462732307613 0.052178554236888885 0.10920623689889908 -0.16840897500514984 -0.0 0.0007035950548015535 True False
10025.455 4.584237098693848 -1.1690918070128937 1.4148553053485315 -1.816740175286764 -1.570853058491842 3.0134787559509277 0.0004780803283210844 0.060767628252506256 0.12236378341913223 -0.1817147135734558 -0.0 0.00038593969657085836 True False
10025.475 4.58418607711792 -1.1677629214576264 1.4176676909076136 -1.8206879101195277 -1.570813004170553 3.0135111808776855 0.0022563745733350515 0.07294892519712448 0.14752274751663208 -0.22730828821659088 -0.0 0.0002700330805964768 True False
10025.494999999999 4.584214687347412 -1.1661636990359803 1.420656983052389 -1.8253799877562464 -1.5707562605487269 3.013474464416504 0.0006856924155727029 0.08023930341005325 0.16324828565120697 -0.23429787158966064 -0.0 0.00021597779414150864 True False
10025.515 4.5842719078063965 -1.1644731324962159 1.4241803328143519 -1.8305126629271449 -1.5707767645465296 3.013486385345459 0.0003020431031472981 0.0916711762547493 0.18375717103481293 -0.2655070424079895 -4.3632411572680496e-10 0.00016614038031548262 True False
10025.535 4.584229469299316 -1.1627113980105896 1.428035084401266 -1.8362976513304652 -1.5708048979388636 3.013430118560791 0.0002249474637210369 0.09784585237503052 0.20630425214767456 -0.298554390668869 -1.2954857730635966e-17 0.00013498814951162785 True False
10025.555 4.5842671394348145 -1.160619930630066 1.43229848543276 -1.8424831829466761 -1.5708006064044397 3.0134506225585938 0.00012872034858446568 0.10694004595279694 0.22106610238552094 -0.3339342176914215 -3.8464135437810193e-25 8.223704935517162e-05 True False
10025.574999999999 4.5842790603637695 -1.1583439272693177 1.4368775526629847 -1.8493687115111292 -1.570784870778219 3.0135068893432617 0.0001000899137579836 0.11332261562347412 0.24399057030677795 -0.3648645281791687 -1.1420342714681157e-32 6.952966941753402e-05 True False
10025.595 4.5842671394348145 -1.155991868381836 1.442087475453512 -1.8566376171507777 -1.570784870778219 3.0135068893432617 9.82541823759675e-05 0.1219848096370697 0.2614978551864624 -0.3847428262233734 -3.3908059720346194e-40 6.022404704708606e-05 True False
10025.615 4.584292411804199 -1.1533961457065125 1.4475653807269495 -1.864636083642477 -1.5707839171039026 3.0134658813476562 9.698359644971788e-05 0.1295858770608902 0.27611348032951355 -0.4127567410469055 -0.0 5.311537461238913e-05 True False
10025.635 4.584250450134277 -1.1506469708732148 1.4532201925860804 -1.873120447198385 -1.570768181477682 3.013458251953125 9.605211380403489e-05 0.13797394931316376 0.2945779263973236 -0.4338100254535675 6.97292634868063e-05 2.0444852921741585e-08 True False
10025.654999999999 4.584288120269775 -1.1478424829295655 1.4592245260821741 -1.8822046718993128 -1.5708449522601526 3.0134496688842773 6.576227315235883e-05 0.14594539999961853 0.31736284494400024 -0.47127753496170044 7.244839071063325e-05 6.070260557706759e-16 True False
10025.675 4.584250450134277 -1.144749478702881 1.465754810963766 -1.8918310604491175 -1.570772949849264 3.0135111808776855 5.7427303545409814e-05 0.15936662256717682 0.3380188047885895 -0.4931095242500305 6.387815665220842e-05 1.802315243323877e-23 True False
10025.695 4.584259510040283 -1.1414266687682648 1.4727214018451136 -1.902114053765768 -1.5708125273333948 3.013474464416504 3.505644417600706e-05 0.16913779079914093 0.3587293028831482 -0.5098713040351868 3.781262947200048e-08 2.7371896749173175e-08 True False
10025.715 4.58423376083374 -1.1379431945136567 1.4801886717425745 -1.9127518139281214 -1.5708006064044397 3.0134215354919434 5.045807483838871e-05 0.17500950396060944 0.3725345730781555 -0.5490782260894775 1.1226909260922662e-15 8.126961903363015e-16 True False
10025.734999999999 4.58430290222168 -1.1345499616912385 1.487324062977926 -1.9231659374632777 -1.570829216633932 3.0134658813476562 5.9115616750204936e-05 0.1705903708934784 0.3485710918903351 -0.5152729749679565 3.33337025142356e-23 2.412968367978755e-23 True False
10025.755 4.584225177764893 -1.1314484041980286 1.4939664045916956 -1.9333726368346156 -1.5707610289203089 3.013486385345459 4.851335324929096e-05 0.15374767780303955 0.32762324810028076 -0.4946039915084839 9.897073746352769e-31 7.16431974439164e-31 True False
10025.775 4.584283351898193 -1.128410206442215 1.5001400152789515 -1.9429031811156214 -1.570784870778219 3.013425827026367 5.481688640429638e-05 0.15002718567848206 0.31433647871017456 -0.45508280396461487 5.7505221775500104e-05 2.127150890147186e-38 True False
10025.795 4.584296703338623 -1.1253907245448609 1.5064252058612269 -1.9516707859435023 -1.5708211104022425 3.013425827026367 4.757317583425902e-05 0.14063766598701477 0.30020803213119507 -0.4267774224281311 5.099025656818412e-05 0.0 True False
10025.814999999999 4.584259510040283 -1.1226794582656403 1.5122221151935022 -1.9599610767760218 -1.5708006064044397 3.013474464416504 4.202032505418174e-05 0.13163140416145325 0.27276328206062317 -0.4127448797225952 4.740818154713722e-11 0.0 True False
10025.835 4.584270000457764 -1.1201805633357544 1.5173762480365198 -1.967860837975973 -1.5708206335650843 3.013474464416504 3.5101034746306365e-15 0.11705430597066879 0.2507311701774597 -0.38671427965164185 1.4075914314928311e-18 0.0 True False
10025.855 4.584242820739746 -1.1180649262717743 1.522062126790182 -1.9751855335631312 -1.5708330313311976 3.013482093811035 2.7435180060274964e-35 0.10679566115140915 0.23680360615253448 -0.35300081968307495 4.179265822278764e-26 0.0 True False
10025.875 4.584316253662109 -1.1159238082221528 1.5267232100116175 -1.9817010364928187 -1.5708053747760218 3.013486385345459 0.0 0.10364469140768051 0.22672492265701294 -0.3199688792228699 1.2408615712905994e-33 0.0 True False
10025.895 4.584316253662109 -1.1137719017318268 1.5308941046344202 -1.987742086450094 -1.570772949849264 3.013453960418701 1.7071733801178123e-22 0.0950949639081955 0.2019728124141693 -0.3041277825832367 3.684293922402809e-41 0.0 True False
10025.914999999999 4.5842509269714355 -1.1120733481696625 1.5346587339984339 -1.9934565029540003 -1.5707929770099085 3.013458251953125 1.3340361380372259e-42 0.08452661335468292 0.17950963973999023 -0.27453041076660156 0.0 0.0 True False
10025.935 4.584262847900391 -1.110484318142273 1.5380027929889124 -1.998380800286764 -1.5707724730121058 3.0134873390197754 0.0 0.07369334995746613 0.1598995476961136 -0.23107004165649414 0.0 0.0 True False
10025.955 4.58427619934082 -1.109099642639496 1.5411794821368616 -2.0028916798033656 -1.5707810560809534 3.013442039489746 0.0 0.06795813888311386 0.1420675814151764 -0.20633430778980255 0.0 0.0 True False
10025.975 4.584238529205322 -1.107807235126831 1.5437830130206507 -2.00659241298818 -1.570784870778219 3.013482093811035 0.0 0.05669423192739487 0.1202349066734314 -0.1951848715543747 0.0 0.0 True False
10025.994999999999 4.584288120269775 -1.1068427723697205 1.545870606099264 -2.0100413761534632 -1.5708006064044397 3.013491630554199 0.0 0.04684386029839516 0.10181302577257156 -0.15554040670394897 0.0 0.0 True False
10026.015 4.584213733673096 -1.1060035985759278 1.5477388540851038 -2.0128184757628382 -1.5708125273333948 3.013474464416504 0.0 0.041986849159002304 0.08725545555353165 -0.12809839844703674 0.0 0.0 True False
10026.035 4.584229469299316 -1.1051811140826722 1.5492804686175745 -2.015019556085104 -1.5707967917071741 3.013442039489746 0.0 0.036025553941726685 0.06604402512311935 -0.09404020756483078 0.0 0.0 True False
10026.055 4.584288120269775 -1.1045903724483033 1.5503881613360804 -2.016557832757467 -1.5707648436175745 3.0134949684143066 0.0 0.024171439930796623 0.04750076308846474 -0.0681711733341217 0.0 0.0 True False
10026.074999999999 4.58423376083374 -1.104329304104187 1.5510347525226038 -2.0177275143065394 -1.570801083241598 3.013490676879883 0.0 0.012066504918038845 0.027435578405857086 -0.04092494025826454 0.0 0.0 True False
10026.095 4.58427619934082 -1.1041355294040223 1.5514395872699183 -2.018221517602438 -1.5707967917071741 3.0134787559509277 0.0 0.0014540720731019974 0.012576759792864323 -0.013101673685014248 0.0 0.0 True False
10026.115 4.584255218505859 -1.1041668218425293 1.55145770708193 -2.0181738338866175 -1.570784870778219 3.01344633102417 0.0 0.00013981533993501216 0.0007211465854197741 0.001422807457856834 0.0 0.0 True False
10026.135 4.584258079528809 -1.1042247873595734 1.5514591375934046 -2.0181976757445277 -1.5708006064044397 3.01347017288208 0.0 1.0928049690905284e-24 3.204717090657394e-12 -0.00035415482125245035 0.0 0.0 True False
10026.154999999999 4.584280490875244 -1.1041668218425293 1.5514891783343714 -2.018149515191549 -1.570784870778219 3.013462543487549 0.0 8.407790785948902e-45 0.0018799935933202505 -0.000316037330776453 0.0 0.0 True False
10026.175 4.5843000411987305 -1.104088769560196 1.5515268484698694 -2.0181614361205042 -1.5708211104022425 3.013462543487549 0.0 0.0 0.001007737941108644 -0.0003420085122343153 0.0 0.0 True False
10026.195 4.584229469299316 -1.1041876536658783 1.5515401999102991 -2.018229146996969 -1.5708168188678187 3.0134549140930176 0.0 0.0 0.0005347852711565793 -0.0009655712055973709 0.0 0.0 True False
10026.215 4.5843119621276855 -1.104132668381073 1.5516074339496058 -2.018216749230856 -1.5708006064044397 3.0135068893432617 0.0 0.0 0.0022258188109844923 -0.0004651601775549352 0.0 0.0 True False
10026.234999999999 4.584258079528809 -1.1041132372668763 1.5516241232501429 -2.018216749230856 -1.570801083241598 3.0134289264678955 0.0 0.0 0.00045435392530635 -0.001990312011912465 0.0 0.0 True False
10026.255 4.584237575531006 -1.1042084854892273 1.551575009022848 -2.0182563267149867 -1.5707767645465296 3.0134377479553223 0.0 0.00023466603306587785 0.00025888773961924016 -0.0012245139805600047 0.0 0.0 True False
10026.275 4.584274768829346 -1.1041549009135743 1.551603142415182 -2.0182601414122523 -1.5707724730121058 3.013474464416504 0.0 0.0006592160207219422 0.00024862505961209536 -0.00091642199549824 0.0 0.0 True False
10026.295 4.584227085113525 -1.1041846436313172 1.551570240651266 -2.0182963810362757 -1.570784870778219 3.0134787559509277 5.396161287447333e-14 0.0004009223775938153 0.00022698142856825143 -0.0006346583249978721 0.0 0.0 True False
10026.314999999999 4.58426570892334 -1.1041067403605958 1.551582161580221 -2.0182963810362757 -1.5707886854754847 3.0134787559509277 4.217671894040444e-34 0.0006752052577212453 0.0001833746791817248 -0.00031216529896482825 0.0 0.0 True False
10026.335 4.5842461585998535 -1.1041037303260346 1.551615063344137 -2.0183049641051234 -1.5707929770099085 3.013442039489746 0.0 0.00040008514770306647 0.00015633445582352579 -0.00020173413213342428 0.0 0.0 True False
10026.355 4.5842790603637695 -1.1040693384459992 1.551582161580221 -2.0182844601073207 -1.5707648436175745 3.0134787559509277 0.0 0.00022980455833021551 0.00014143949374556541 -0.00017123130965046585 0.0 0.0 True False
10026.375 4.584258079528809 -1.1041609805873414 1.5515864531146448 -2.0183288059630335 -1.5707529226886194 3.0134711265563965 0.0 0.00018806816660799086 0.00011550659110071138 -0.00013469153782352805 0.0 0.0 True False
10026.395 4.584255218505859 -1.1041037303260346 1.551615063344137 -2.0183569393553675 -1.5708125273333948 3.0134754180908203 0.0 0.00016552250599488616 9.760997636476532e-05 -0.00011096501839347184 0.0 0.0 True False
10026.414999999999 4.584255218505859 -1.104096220140793 1.551603142415182 -2.018308778802389 -1.5707967917071741 3.013474464416504 0.0 0.000134583271574229 8.451537723885849e-05 -9.434616367798299e-05 0.0 0.0 True False
10026.435 4.584288120269775 -1.104090378885605 1.5516436735736292 -2.01829256633901 -1.5707686583148401 3.0134949684143066 0.0 7.58881724323146e-05 7.45185898267664e-05 -8.205706399166957e-05 0.0 0.0 True False
10026.455 4.5842461585998535 -1.1040767592242737 1.5516365210162562 -2.0182887516417445 -1.5707605520831507 3.0134830474853516 0.0 6.493725959444419e-05 1.2645900993035752e-09 -7.260058919200674e-05 0.0 0.0 True False
10026.475 4.584262847900391 -1.104115681057312 1.551598850880758 -2.018324991265768 -1.5708048979388636 3.013458251953125 0.0 5.674836938851513e-05 1.7807633488230727e-21 -8.932488637647396e-10 0.0 0.0 True False
10026.494999999999 4.5842461585998535 -1.1040948194316407 1.551615063344137 -2.018264432946676 -1.5708206335650843 3.0134711265563965 0.0 6.047220449545421e-05 2.507625711614545e-33 -2.6521360930334467e-17 0.0 0.0 True False
10026.515 4.58427619934082 -1.1041282576373597 1.5516317526446741 -2.0182887516417445 -1.5708087126361292 3.0134289264678955 0.0 1.5200835937387418e-22 4.203895392974451e-45 -7.874430263514902e-25 0.0 0.0 True False
10026.535 4.5842671394348145 -1.1040948194316407 1.5516193548785608 -2.0182887516417445 -1.570784870778219 3.0134224891662598 0.0 1.1883010977474449e-42 0.0 -2.3379894973660067e-32 0.0 0.0 True False
10026.555 4.584309101104736 -1.1040828985026856 1.551598850880758 -2.0182844601073207 -1.5708168188678187 3.0134506225585938 0.0 0.0 0.0 -6.941696280633706e-40 0.0 0.0 True False
10026.574999999999 4.584255218505859 -1.1040992599776764 1.5515778700457972 -2.0183450184264125 -1.5708006064044397 3.013486385345459 0.0 0.0 0.0 -0.0 0.0 0.0 True False
10026.595 4.5843071937561035 -1.1040546160987397 1.5515912214862269 -2.0183526478209437 -1.570784870778219 3.0134754180908203 0.0 0.0 0.0 -9.167068146243018e-12 0.0 0.0 True False
10026.615 4.58424186706543 -1.1041490596583863 1.551615063344137 -2.018308301965231 -1.570784870778219 3.0134668350219727 0.0 0.0 0.0 -2.72178558982957e-19 0.0 0.0 True False
10026.635 4.584242820739746 -1.1040975612453003 1.5516484419452112 -2.018332620660299 -1.5707810560809534 3.013462543487549 0.0 0.0 0.0 -8.081225928180152e-27 0.0 0.0 True False
10026.654999999999 4.584253787994385 -1.1041326981833954 1.5516193548785608 -2.018308778802389 -1.5707572142230433 3.013462543487549 0.0 0.0 0.0 -2.3993894519509423e-34 0.0 0.0 True False
10026.675 4.584280490875244 -1.104131059055664 1.551554028187887 -2.018280168572897 -1.5707529226886194 3.0134775638580322 0.0 0.0 9.367403554227938e-12 -7.12420139262737e-42 0.0 0.0 True False
10026.695 4.584295272827148 -1.1042222541621705 1.55137807527651 -2.0185004673399867 -1.5708211104022425 3.0134496688842773 -2.563423123006727e-17 -0.0004438066389411688 -0.0027809576131403446 -0.006051396951079369 0.0 0.0007684010779485106 True False
10026.715 4.5842180252075195 -1.1042404633811493 1.551406208668844 -2.0184713802733363 -1.5708330313311976 3.013474464416504 -2.003587082056075e-37 0.00027604110073298216 0.0002555923128966242 -0.00026792220887728035 0.0 -0.00023192256048787385 True False
10026.734999999999 4.58424186706543 -1.1042574805072327 1.5513737837420862 -2.018540998498434 -1.5707648436175745 3.0135068893432617 0.0 0.00017935936921276152 0.0005289649707265198 -5.3736192057840526e-05 0.0 -0.000124670346849598 True False
10026.755 4.584208965301514 -1.1041560035995026 1.5514276663409632 -2.0184956989684046 -1.5707929770099085 3.0134084224700928 0.0 0.00040742673445492983 0.0021292916499078274 -3.6835686410829904e-12 0.0 -8.527554746251553e-05 True False
10026.775 4.584225177764893 -1.1043021839908143 1.5514352957354944 -2.018508573571676 -1.5708048979388636 3.0135068893432617 0.0 0.0010511258151382208 0.002417507115751505 0.0005961784045211971 0.0 -6.480359297711402e-05 True False
10026.795 4.584255218505859 -1.1042450231364747 1.5514186064349573 -2.018491884271139 -1.5707362333880823 3.013490676879883 0.0 0.0011183010647073388 0.00203778431750834 0.0005782031803391874 0.0 -5.2259041694924235e-05 True False
10026.814999999999 4.5842461585998535 -1.104219601755478 1.5514681974994105 -2.0184766254820765 -1.5707810560809534 3.0134377479553223 0.0 0.0012974166311323643 0.0024578056763857603 0.0012231842847540975 0.0 -4.378389348858036e-05 True True
10026.835 4.584304332733154 -1.1042483311942597 1.551399056111471 -2.018283029595846 -1.570784870778219 3.013490676879883 0.0 -0.0032230722717940807 -0.008734426461160183 0.03401706740260124 0.0 -3.7674202758353204e-05 True True
10026.855 4.5842509269714355 -1.1042222541621705 1.551204029713766 -2.0176617107787074 -1.5708287397967737 3.013474464416504 -2.100243727909401e-05 -0.009113213047385216 -0.023030219599604607 0.04285202547907829 0.0 -3.306096186861396e-05 True True
10026.875 4.584259510040283 -1.1044252079776307 1.5507257620440882 -2.016256948510641 -1.5707686583148401 3.013453960418701 -1.7544417677141768e-15 -0.01543512661010027 -0.03988848999142647 0.07155114412307739 0.0 -3.4212778246001108e-06 True True
10026.895 4.584308624267578 -1.1047012966922303 1.549943749104635 -2.014522214929098 -1.5707686583148401 3.0134377479553223 -1.3712820324055776e-35 -0.027177637442946434 -0.06158694997429848 0.08925700187683105 0.0 -1.0158083277528665e-13 True True
10026.914999999999 4.584259510040283 -1.105450229053833 1.5483458677874964 -2.0124789677061976 -1.5707724730121058 3.0134334564208984 0.0 -0.050549089908599854 -0.09430786222219467 0.11576669663190842 0.0 -3.0160265291647825e-21 True True
10026.935 4.584305763244629 -1.106638328438141 1.5460355917560022 -2.009646554986471 -1.5707925001727503 3.0135068893432617 0.0 -0.06079449877142906 -0.12074054777622223 0.1440836787223816 0.0 -8.95485502693704e-29 True True
10026.955 4.5842461585998535 -1.1077819627574463 1.5435870329486292 -2.0063873730101527 -1.5707648436175745 3.0135154724121094 0.0 -0.059874728322029114 -0.12837225198745728 0.18216168880462646 0.0 -9.89304026006721e-05 True True
10026.975 4.584259510040283 -1.1091172856143494 1.5409534613238733 -2.0022345981993617 -1.5708254019366663 3.013442039489746 0.0 -0.07076266407966614 -0.14128611981868744 0.21202319860458374 0.0 -4.763783363159746e-05 True True
10026.994999999999 4.58427619934082 -1.1105534595302125 1.5377934614764612 -1.9977790317931117 -1.5707529226886194 3.013458251953125 0.0 -0.0758594423532486 -0.1648837924003601 0.24507926404476166 0.0 -3.114302671747282e-05 True True
10027.015 4.5842790603637695 -1.1122581523707886 1.5341652075396937 -1.9928142033019007 -1.5707891623126429 3.0134787559509277 0.0 -0.09084200114011765 -0.17746303975582123 0.2582566738128662 0.0 -4.627005910151638e-05 True True
10027.035 4.584242820739746 -1.1141706270030518 1.5302727858172815 -1.9871236286559046 -1.5707805792437952 3.0134334564208984 0.0 -0.09510214626789093 -0.20214730501174927 0.28962522745132446 0.0 -3.680736699607223e-05 True True
10027.055 4.584242820739746 -1.1160975855639954 1.5262630621539515 -1.980966707269186 -1.570784870778219 3.013490676879883 0.0 -0.1016320139169693 -0.21537306904792786 0.3225858211517334 0.0 -3.055811976082623e-05 True True
10027.074999999999 4.584242820739746 -1.118086115722992 1.5217822233783167 -1.9742275677123011 -1.5707686583148401 3.013458251953125 0.0 -0.11053919792175293 -0.23888857662677765 0.34866759181022644 0.0 -2.612305252114311e-05 True True
10027.095 4.584268569946289 -1.120491401558258 1.5167458693133753 -1.966945310632223 -1.5708211104022425 3.0134377479553223 0.0 -0.12272311747074127 -0.26419222354888916 0.3827965557575226 0.0 -2.2812217139289714e-05 True True
10027.115 4.584259510040283 -1.1231338542750855 1.51140004793276 -1.9590774975218714 -1.5708368460284632 3.013458251953125 0.0 -0.12819693982601166 -0.2768602967262268 0.3993105888366699 0.0 -2.0246270651114173e-05 True True
10027.135 4.584216117858887 -1.1258211594871064 1.5056331793414515 -1.9506989918150843 -1.5707886854754847 3.013462543487549 0.0 -0.1349455565214157 -0.2860134243965149 0.4227989614009857 0.0 -7.958086446768764e-12 True True
10027.154999999999 4.584262847900391 -1.128661410217621 1.4995916525470179 -1.941754003564352 -1.5707886854754847 3.013474464416504 0.0 -0.14604884386062622 -0.30721315741539 0.46624401211738586 0.0 -2.362826944097004e-19 True True
10027.175 4.5842671394348145 -1.1318195921233674 1.4931471983539026 -1.932157655755514 -1.5708087126361292 3.013474464416504 0.0 -0.15977908670902252 -0.3291683793067932 0.48698174953460693 0.0 -7.015443259975477e-27 True True
10027.195 4.584238529205322 -1.1350159806064148 1.486363712941305 -1.9220615826048792 -1.5707805792437952 3.013490676879883 0.0 -0.16647371649742126 -0.3469153046607971 0.515410304069519 0.0 -2.0829475206532845e-34 True True
10027.215 4.5842790603637695 -1.1384841066649933 1.479175869618551 -1.911490102807516 -1.5707767645465296 3.013462543487549 0.0 -0.1770857274532318 -0.36078840494155884 0.5484338998794556 0.0 -6.183930123065418e-42 True True
10027.234999999999 4.584262847900391 -1.1418457490256806 1.4717405478106897 -1.9008351765074671 -1.570772949849264 3.013462543487549 0.0 -0.17208650708198547 -0.3528106212615967 0.5183486342430115 0.0 -0.0 True True
10027.255 4.584188938140869 -1.145136610870697 1.4648564497577112 -1.8906408749022425 -1.5707648436175745 3.013474464416504 0.0 -0.15777288377285004 -0.3253054916858673 0.4922766089439392 0.0 -5.1665939082568e-08 True True
10027.275 4.5842671394348145 -1.1481986206820984 1.458607021962301 -1.8811594448485316 -1.570829216633932 3.0134992599487305 0.0 -0.14672736823558807 -0.3092668354511261 0.4658638834953308 0.0 1.8499248710668326e-07 True True
10027.295 4.5842461585998535 -1.1510380071452637 1.4525402227984827 -1.872110982934469 -1.5707767645465296 3.0134172439575195 0.0 -0.13946467638015747 -0.29941800236701965 0.44665250182151794 0.0 5.492593616799983e-15 True True
10027.314999999999 4.584242820739746 -1.1537095469287415 1.4467323462115687 -1.8636194668211878 -1.5707481543170374 3.0134668350219727 0.0 -0.1316172480583191 -0.28338462114334106 0.41627535223960876 0.0 1.630800411113128e-22 True True
10027.335 4.584283351898193 -1.1563310784152527 1.441253964100973 -1.8558045826353968 -1.5707843939410608 3.0134215354919434 0.0 -0.12012019008398056 -0.2612510621547699 0.37992429733276367 0.0 4.841992886404294e-30 True True
10027.355 4.584271430969238 -1.1586902898601075 1.4363001028644007 -1.8485895595946253 -1.5707805792437952 3.013453960418701 0.0 -0.1123742014169693 -0.23783092200756073 0.3546394407749176 0.0 1.4376311067000766e-37 True True
10027.375 4.584259510040283 -1.1608873170665284 1.4317625204669397 -1.8416124782957972 -1.5708048979388636 3.013502597808838 0.0 -0.10186620056629181 -0.21778953075408936 0.32209211587905884 0.0 4.203895392974451e-45 True True
10027.395 4.58424711227417 -1.1628360015204926 1.4276426474200647 -1.8354345760741175 -1.5708492437945765 3.013490676879883 0.0 -0.09372963011264801 -0.20663973689079285 0.29541435837745667 0.0 0.0 True True
10027.414999999999 4.58423376083374 -1.1646233362010499 1.423767391835348 -1.8298737011351527 -1.5708416144000452 3.013458251953125 0.0 -0.0855756402015686 -0.1821894645690918 0.2672291100025177 0.0 0.0 True True
10027.435 4.584296703338623 -1.1662985545447846 1.4203651587115687 -1.8248254261412562 -1.5708449522601526 3.013474464416504 0.0 -0.07866255193948746 -0.1663573980331421 0.2493264079093933 0.0 0.0 True True
10027.455 4.584253787994385 -1.1676785510829468 1.417246166859762 -1.8202735386290492 -1.5707805792437952 3.0134172439575195 0.0 -0.06897412240505219 -0.13760150969028473 0.21148991584777832 0.0 0.0 True True
10027.475 4.58424711227417 -1.168971226816513 1.4145711104022425 -1.8162580929198207 -1.570813004170553 3.013462543487549 0.0 -0.06149531900882721 -0.13058042526245117 0.19138430058956146 0.0 0.0 True True
10027.494999999999 4.584290981292725 -1.1700810653022309 1.4121807257281702 -1.8129235706725062 -1.570784870778219 3.013486385345459 0.0 -0.05128122866153717 -0.1067468598484993 0.1475183516740799 0.0 0.0 True True
10027.515 4.584274768829346 -1.1710637372783204 1.4102156797992151 -1.8099624119200648 -1.570857350026266 3.013462543487549 0.0 -0.043380483984947205 -0.08332977443933487 0.13415180146694183 0.0 0.0 True True
10027.535 4.584246635437012 -1.1716903013041993 1.4087484518634241 -1.8077246151366175 -1.570813004170553 3.0135324001312256 0.0 -0.030283767729997635 -0.07032480835914612 0.09724362194538116 0.0 0.0 True True
10027.555 4.584280490875244 -1.1721958679011841 1.407524887715475 -1.8059712849059046 -1.5708211104022425 3.0134992599487305 0.0 -0.02466052584350109 -0.05187550187110901 0.07917584478855133 0.0 0.0 True True
10027.574999999999 4.584240436553955 -1.172640011911728 1.4067052046405237 -1.8047439060606898 -1.5707524458514612 3.013425827026367 0.0 -0.019979575648903847 -0.03260005638003349 0.051017191261053085 0.0 0.0 True True
10027.595 4.5842790603637695 -1.1729194682887574 1.406274143849508 -1.804009576837057 -1.5708168188678187 3.0134496688842773 0.0 -0.004691306035965681 -0.012758476659655571 0.019102558493614197 0.0 0.0 True True
10027.615 4.584251403808594 -1.1729389292052765 1.4062555472003382 -1.8040181599059046 -1.5708211104022425 3.0134267807006836 -0.02806389518082142 7.502158950956073e-06 0.0006489797960966825 -0.0029772543348371983 0.0 -0.010340276174247265 True True
10027.635 4.583745002746582 -1.1729149979403992 1.4063413778888147 -1.804019113580221 -1.570772949849264 3.0129623413085938 -0.038135066628456116 -0.006947748363018036 0.009360067546367645 -0.0005252332775853574 0.0 -0.03355494514107704 True True
10027.654999999999 4.582769393920898 -1.173165277843811 1.4065240065204065 -1.8041464291014613 -1.570824925099508 3.011915922164917 -0.06638151407241821 -0.015828968957066536 0.01392863504588604 -0.005732123274356127 0.0 -0.06386224180459976 True True
10027.675 4.581198215484619 -1.1734851163676758 1.4068611303912562 -1.8042575321593226 -1.570784870778219 3.010307550430298 -0.09309124946594238 -0.017084499821066856 0.020813332870602608 -0.007615096867084503 0.0 -0.09202463924884796 True True
10027.695 4.579048156738281 -1.173872010116913 1.4073684851275843 -1.8043810329832972 -1.5707529226886194 3.008115768432617 -0.12192769348621368 -0.01930537074804306 0.030313322320580482 -0.008612396195530891 0.0 -0.12383036315441132 True True
10027.715 4.576180458068848 -1.1743030709079285 1.407987419758932 -1.8046966991820277 -1.570784870778219 3.0053584575653076 -0.14946089684963226 -0.023531632497906685 0.03579472005367279 -0.011894061230123043 0.0 -0.15098799765110016 True True
10027.734999999999 4.572834491729736 -1.1748311084559937 1.4087870756732386 -1.8049117527403773 -1.5707967917071741 3.002023935317993 -0.17502517998218536 -0.030266661196947098 0.04195132106542587 -0.012082642875611782 0.0 -0.17401477694511414 True True
10027.755 4.5690226554870605 -1.1754019421390076 1.4097583929644983 -1.8051310978331507 -1.5707805792437952 2.9982454776763916 -0.20368194580078125 -0.03610178828239441 0.049282025545835495 -0.014353472739458084 0.0 -0.2020450234413147 True True
10027.775 4.564749717712402 -1.176209644680359 1.410827938710348 -1.805549760858053 -1.5708048979388636 2.9938323497772217 -0.23756930232048035 -0.03918573260307312 0.05577852576971054 -0.01773957721889019 0.0 -0.2329588234424591 True True
10027.795 4.559715747833252 -1.1770489376834412 1.4119866530047815 -1.8058730564513148 -1.570772949849264 2.9888486862182617 -0.26527339220046997 -0.04248029738664627 0.06230335310101509 -0.02069670893251896 0.0 -0.262765109539032 True True
10027.814999999999 4.554068088531494 -1.1779418748668213 1.413417164479391 -1.806267877618307 -1.5707929770099085 2.9834141731262207 -0.28986310958862305 -0.04882427304983139 0.07013127952814102 -0.016301101073622704 0.0 -0.2916278541088104 True True
10027.835 4.547935962677002 -1.1789137882045289 1.4148982206927698 -1.8066817722716273 -1.5707724730121058 2.9772653579711914 -0.3149491548538208 -0.05365532264113426 0.0759810209274292 -0.024355687201023102 0.0 -0.3166729211807251 True True
10027.855 4.541392803192139 -1.180120514040329 1.4165647665606897 -1.807152887383932 -1.5707648436175745 2.9705934524536133 -0.3396100401878357 -0.058430254459381104 0.08291199803352356 -0.027527494356036186 0.0 -0.3370237350463867 True True
10027.875 4.534256935119629 -1.1812958878329773 1.4182985464679163 -1.8076988659300746 -1.5707767645465296 2.963362455368042 -0.3734666407108307 -0.06220099329948425 0.08629336953163147 -0.02392452023923397 0.0 -0.37074708938598633 True True
10027.895 4.526573657989502 -1.1826067727855225 1.4201110045062464 -1.8081728420653285 -1.5708168188678187 2.955768346786499 -0.4021643400192261 -0.06566709280014038 0.09423210471868515 -0.031860146671533585 0.0 -0.4056456983089447 True True
10027.914999999999 4.518044948577881 -1.1839763683131714 1.4221041838275355 -1.8088509045042933 -1.5707891623126429 2.9474077224731445 -0.4273543059825897 -0.07203009724617004 0.10144749283790588 -0.03231247887015343 0.0 -0.4328939616680145 True True
10027.935 4.509219646453857 -1.1854843658259888 1.4242337385760706 -1.809517046014303 -1.5708087126361292 2.9384913444519043 -0.4548734128475189 -0.07472864538431168 0.11194519698619843 -0.031230520457029343 1.86563741885748e-12 -0.4550175666809082 True True
10027.955 4.499931335449219 -1.1870950025371094 1.4264076391803187 -1.8101188145079554 -1.5707891623126429 2.9290225505828857 -0.4846969544887543 -0.08230722695589066 0.11800721287727356 -0.035761985927820206 5.539245344999467e-20 -0.4798435866832733 True True
10027.975 4.490001678466797 -1.1887772244266053 1.4289310614215296 -1.810897012750143 -1.5707891623126429 2.9191300868988037 -0.5160316228866577 -0.08775626122951508 0.12224321812391281 -0.036388739943504333 1.6446519204623633e-27 -0.5139058828353882 True True
10027.994999999999 4.479158401489258 -1.190457360153534 1.4314139525042933 -1.8117219410338343 -1.5707724730121058 2.9084246158599854 -0.5128980875015259 -0.08764693886041641 0.13014820218086243 -0.04338281601667404 4.883120049601533e-35 -0.5233414173126221 True True
10028.015 4.469074249267578 -1.1921832722476502 1.4337595144854944 -1.8125387630858363 -1.5708883444415491 2.8983445167541504 -0.4950927495956421 -0.08492149412631989 0.11556825786828995 -0.03405778110027313 -0.001408589188940823 -0.49672725796699524 True True
10028.035 4.459714889526367 -1.1938882631114502 1.4360926787005823 -1.813249250451559 -1.5708211104022425 2.888784646987915 -0.4676181674003601 -0.08123169094324112 0.11911766231060028 -0.033080559223890305 -1.032938712342002e-06 -0.47749486565589905 True True
10028.055 4.450312614440918 -1.1953670245460053 1.4383938948260706 -1.8139144382872523 -1.5708888212787073 2.8795149326324463 -0.4511904716491699 -0.07095512747764587 0.10669271647930145 -0.033117856830358505 -3.06688776750743e-14 -0.4448142349720001 True True
10028.074999999999 4.4416913986206055 -1.1967244905284424 1.4403966108905237 -1.814495702783102 -1.570892635975973 2.870983600616455 -0.4131368100643158 -0.06674767285585403 0.0985783115029335 -0.027832210063934326 -9.105866110047811e-22 -0.4135670065879822 True True
10028.095 4.434093952178955 -1.1980512005141755 1.4424541632281702 -1.8149095974364222 -1.5707805792437952 2.8629958629608154 -0.38269147276878357 -0.06725951284170151 0.09446056932210922 -0.023770194500684738 0.0027287437114864588 -0.38648900389671326 True True
10028.115 4.426408767700195 -1.1993280512145539 1.444242302571432 -1.8155776462950648 -1.5708368460284632 2.855694532394409 -0.3653544783592224 -0.060394514352083206 0.08428936451673508 -0.031986434012651443 0.000571361742913723 -0.3630881607532501 True True
10028.135 4.419253349304199 -1.2004971665195008 1.44580585161318 -1.8161622486510218 -1.570876423512594 2.848708152770996 -0.32945650815963745 -0.0555385947227478 0.07633553445339203 -0.02408318966627121 0.0003183750086463988 -0.3329499363899231 True True
10028.154999999999 4.413266658782959 -1.201503948574402 1.4473560492144983 -1.816507478753561 -1.5708168188678187 2.84236216545105 -0.29627811908721924 -0.049995508044958115 0.06992670893669128 -0.01958928443491459 0.00014390888100024313 -0.30198872089385986 True True
10028.175 4.407577037811279 -1.2025544208339234 1.4487746397601526 -1.8168727360167445 -1.5708406607257288 2.836609125137329 -0.28216129541397095 -0.04571450129151344 0.06455906480550766 -0.02443177066743374 0.00015126493235584348 -0.27226170897483826 True True
10028.195 4.4022417068481445 -1.2033310693553467 1.4499567190753382 -1.8173381290831507 -1.5708006064044397 2.831472396850586 -0.2522694170475006 -0.04158461093902588 0.05914122611284256 -0.020321203395724297 0.0001219765908899717 -0.2545391619205475 True True
10028.215 4.397514343261719 -1.204116479759552 1.4511068503009241 -1.8176647625365199 -1.570780102406637 2.826843023300171 -0.21528849005699158 -0.03895064443349838 0.05354565754532814 -0.01233434397727251 0.00010218971146969125 -0.22513991594314575 True True
10028.234999999999 4.393479347229004 -1.2048367422870179 1.4520509878741663 -1.8179189167418421 -1.570768181477682 2.8226749897003174 -0.188332661986351 -0.032832395285367966 0.04510920122265816 -0.017194829881191254 0.00010048708645626903 -0.19242465496063232 True True
10028.255 4.389895915985107 -1.2054483753493805 1.4528592268573206 -1.8182608089842738 -1.5708044211017054 2.819150686264038 -0.16233119368553162 -0.02757847122848034 0.03705938905477524 -0.013696793466806412 8.665904897497967e-05 -0.16215883195400238 True True
10028.275 4.387023448944092 -1.2059709292701264 1.4535020033465784 -1.818491598168844 -1.5708168188678187 2.8161327838897705 -0.13406935334205627 -0.022989818826317787 0.03217770904302597 -0.01074918918311596 8.719099423615262e-05 -0.1337406486272812 True True
10028.295 4.384562969207764 -1.2063284081271668 1.4541156927691858 -1.8186665974059046 -1.5708211104022425 2.8137643337249756 -0.1079878956079483 -0.01847529597580433 0.02755308710038662 -0.005981257651001215 8.758647891227156e-05 -0.10494483262300491 True True
10028.314999999999 4.382689476013184 -1.2066652935794373 1.454632584248678 -1.8187457523741664 -1.5708254019366663 2.8119468688964844 -0.0819532573223114 -0.014169272966682911 0.021094925701618195 -0.005103279836475849 8.788080594968051e-05 -0.08263061195611954 True True
10028.335 4.3814592361450195 -1.206904487018921 1.4549019972430628 -1.8188330135741175 -1.5708254019366663 2.8106038570404053 -0.05264114588499069 -0.009069306775927544 0.013543086126446724 -0.005111246835440397 9.121238690568134e-05 -0.0534231923520565 True True
10028.355 4.380678653717041 -1.2069784563830872 1.4550331274615687 -1.8188454113402308 -1.5707967917071741 2.809929370880127 -0.025809748098254204 -0.0014026811113581061 0.003108218777924776 -0.0012933667749166489 9.053052781382576e-05 -0.023463111370801926 True True
10028.375 4.380488395690918 -1.206909404402115 1.4550655523883265 -1.8188535175719203 -1.5708254019366663 2.8098020553588867 0.008379106409847736 0.003143684472888708 0.00029922774410806596 -0.00039835312054492533 7.789104711264372e-05 0.008266791701316833 True True
10028.395 4.380579471588135 -1.2068299514106293 1.455414120350973 -1.8195773563780726 -1.570756737385885 2.809748888015747 0.0012841947609558702 0.01180181372910738 0.02239617332816124 -0.04418259486556053 0.0015621223719790578 -0.00013796666462440044 True True
10028.414999999999 4.380556583404541 -1.2065899831107636 1.4559925238238733 -1.820439954797262 -1.5707319418536585 2.8097774982452393 -0.0003022710734512657 0.01807256229221821 0.04188023507595062 -0.049154940992593765 0.00046076529542915523 -0.0005665560020133853 True True
10028.435 4.38057279586792 -1.2061588329127808 1.4571011702166956 -1.821747442285055 -1.5707686583148401 2.8097734451293945 -0.0004475458699744195 0.027654927223920822 0.0607898086309433 -0.08335103839635849 0.0002659980091266334 -0.0006483363104052842 True True
10028.455 4.380595684051514 -1.2054825586131592 1.458526913319723 -1.8238073788084925 -1.5707529226886194 2.809730052947998 -0.00024470617063343525 0.0356999970972538 0.07812369614839554 -0.11392147839069366 0.00018700669170357287 -0.0009227074915543199 True True
10028.475 4.380556583404541 -1.2047012609294434 1.4602444807635706 -1.8263522587218226 -1.5707443396197718 2.8097052574157715 -0.0009700036025606096 0.04903625324368477 0.0945650264620781 -0.15084770321846008 0.0001441954227630049 -0.0006490172818303108 True True
10028.494999999999 4.380548000335693 -1.2035916310599823 1.4622939268695276 -1.8296963177123011 -1.5708172957049769 2.809718132019043 -0.0004853112041018903 0.05839072912931442 0.11301655322313309 -0.16348367929458618 0.00011733623978216201 -0.0006602141074836254 True True
10028.515 4.38054895401001 -1.202443466787674 1.464851204548971 -1.8332258663573207 -1.570772949849264 2.809664726257324 -0.0014943083515390754 0.0692724883556366 0.13724136352539062 -0.20098453760147095 9.891256195260212e-05 -0.0003460654988884926 True True
10028.535 4.380553245544434 -1.200938181286194 1.4676788488971155 -1.837656160394186 -1.5707610289203089 2.8097267150878906 -0.0008777409675531089 0.07974150776863098 0.15063822269439697 -0.2258550226688385 8.548967889510095e-05 -0.00016311639046762139 True True
10028.555 4.380504608154297 -1.1993268889239808 1.4710128943072718 -1.842517992059225 -1.5707691351519983 2.809689521789551 -0.0003480648738332093 0.08806245774030685 0.1779589205980301 -0.2602318823337555 7.527470734203234e-05 -0.00014364463277161121 True True
10028.574999999999 4.380504608154297 -1.1975565713695069 1.4745662848102015 -1.8479701481261195 -1.5707810560809534 2.809685230255127 -0.0002747501421254128 0.09542589634656906 0.18814244866371155 -0.28407129645347595 1.6202555741529068e-07 -0.00012433975643943995 True True
10028.595 4.380455493927002 -1.1954778295806427 1.4786861578570765 -1.8537494144835414 -1.5707891623126429 2.809692859649658 -0.00015460618305951357 0.10403914749622345 0.21162910759449005 -0.30640846490859985 8.987691217043903e-06 -0.00010938732884824276 True True
10028.615 4.380471706390381 -1.1931958359530945 1.4831145445453089 -1.860326429406637 -1.5707686583148401 2.8097057342529297 -0.00011506715964060277 0.11471233516931534 0.22067536413669586 -0.3295081555843353 2.6685259362467517e-13 -9.320344543084502e-05 True True
10028.635 4.38046407699585 -1.1909733575633545 1.4876673857318323 -1.8674971065916957 -1.5707810560809534 2.8096604347229004 -0.00010996260243700817 0.12268807739019394 0.23713469505310059 -0.36017388105392456 7.92309295178949e-21 -8.120328857330605e-05 True True
10028.654999999999 4.380439281463623 -1.1884527665427704 1.4927571455584925 -1.8751236400999964 -1.5707891623126429 2.809701442718506 -0.00010658535029506311 0.1293260157108307 0.26580968499183655 -0.3908761739730835 2.3524374824452403e-28 -7.192220073193312e-05 True True
10028.675 4.380508899688721 -1.1856304866126557 1.4982832113849085 -1.8831788502135218 -1.570784870778219 2.8097054958343506 -0.00010418555029900745 0.14165887236595154 0.2825205326080322 -0.4288082420825958 6.984597447903356e-36 -2.432701540211468e-10 True True
10028.695 4.380492687225342 -1.182697908287384 1.5040791670428675 -1.892146726647848 -1.570772949849264 2.8097140789031982 -9.101560863200575e-05 0.14669747650623322 0.3038318455219269 -0.45260679721832275 2.0739217272007293e-43 -7.222908021588536e-18 True True
10028.715 4.380520820617676 -1.1797585052302857 1.5104125181781214 -1.901468416253561 -1.5707686583148401 2.809680938720703 -7.256911339936778e-05 0.157443568110466 0.31850022077560425 -0.4610339105129242 0.0 -2.144546474013069e-25 True True
10028.734999999999 4.380504608154297 -1.1764845711043854 1.5169828573810022 -1.9111958942809046 -1.5708087126361292 2.8097095489501953 -6.249151920201257e-05 0.17094023525714874 0.33438345789909363 -0.5064449310302734 0.0 -6.367349473925025e-33 True True
10028.755 4.380471706390381 -1.1729911130717774 1.5239508787738245 -1.9217215977110804 -1.5707925001727503 2.8096680641174316 -5.487162707140669e-05 0.1759014129638672 0.35901781916618347 -0.5355374813079834 0.0 -1.8905197841898972e-40 True True
10028.775 4.3804802894592285 -1.1694570940783997 1.531112019215719 -1.9325105152525843 -1.5707486311541956 2.8097009658813477 -1.52055918078986e-07 0.170182466506958 0.3496800661087036 -0.5455872416496277 0.0 -0.0 True True
10028.795 4.380492687225342 -1.1660853785327454 1.5382192770587366 -1.9430567226805628 -1.570772949849264 2.809685230255127 -1.1884782723577414e-27 0.1697891354560852 0.3395459055900574 -0.5003500580787659 0.0 -0.0 True True
10028.814999999999 4.3804521560668945 -1.1627062422088166 1.5448668638812464 -1.9528328380980433 -1.570829216633932 2.8096723556518555 -0.0 0.16286301612854004 0.3179992139339447 -0.48693686723709106 -7.456057210220024e-05 -0.0 True True
10028.835 4.38047981262207 -1.1595019859126587 1.55101186433901 -1.962170263329977 -1.5708416144000452 2.809692621231079 0.0 0.151613250374794 0.3010444641113281 -0.4624875485897064 -6.396206299541518e-05 -0.0 True True
10028.855 4.380423545837402 -1.1566277009299775 1.556732479725973 -1.9710751972594203 -1.5707686583148401 2.8097052574157715 0.0 0.1389409601688385 0.2828064262866974 -0.42292124032974243 -6.720220699207857e-05 -0.0 True True
10028.875 4.380500316619873 -1.153928892021515 1.5622766653644007 -1.9791027508177699 -1.5707805792437952 2.809685230255127 0.0 0.13102221488952637 0.2711966037750244 -0.40192875266075134 -6.972502887947485e-05 -0.0 True True
10028.895 4.380443572998047 -1.1513737601092835 1.5675261656390589 -1.9867178402342738 -1.5707805792437952 2.809669017791748 0.0 0.12022819370031357 0.2506985664367676 -0.3765832781791687 -2.0701988300703134e-12 0.00012451456859707832 True True
10028.914999999999 4.380439281463623 -1.1491179329207917 1.5723584334002894 -1.9939080677428187 -1.5708168188678187 2.809718132019043 0.0 0.11145094037055969 0.2241847664117813 -0.34955939650535583 -6.146605940940795e-20 6.553580897161737e-05 True True
10028.935 4.3805413246154785 -1.1468803745559235 1.5766552130328577 -2.0005227528014125 -1.5707529226886194 2.809685230255127 0.0 0.10175362974405289 0.20947133004665375 -0.32672375440597534 -1.824982326352179e-27 3.790361370192841e-05 True True
10028.955 4.3804802894592285 -1.1449853342822571 1.5804875532733362 -2.0063778362669886 -1.5707486311541956 2.809685230255127 0.0 0.09534794092178345 0.18772061169147491 -0.2963780164718628 -5.418537063414449e-35 2.6667778001865372e-05 True True
10028.975 4.3804802894592285 -1.1431350272944947 1.584165398274557 -2.0119220219054164 -1.5707486311541956 2.809652805328369 0.0 0.08533713221549988 0.1730724722146988 -0.25162163376808167 -1.60869063704489e-42 2.057108940789476e-05 True True
10028.994999999999 4.380488395690918 -1.1414715510657807 1.5874651114093226 -2.0167514286436976 -1.5708335081683558 2.8097100257873535 0.0 0.07616814225912094 0.1528332531452179 -0.22480879724025726 -0.0 1.6743595551815815e-05 True True
10029.015 4.380467414855957 -1.1401290756515046 1.5903509298907679 -2.0210706196227015 -1.5707772413836878 2.809689521789551 0.0 0.0656086876988411 0.13749490678310394 -0.21749788522720337 -0.0 2.8234147976036184e-05 True True
10029.035 4.380488395690918 -1.1388922792724152 1.5927498976336878 -2.0248357258238734 -1.570784870778219 2.809680938720703 0.0 0.056746505200862885 0.11547041684389114 -0.16840405762195587 -0.0 2.440578282403294e-05 True True
10029.055 4.380492687225342 -1.137903557424881 1.5949190298663538 -2.028046270410055 -1.5708168188678187 2.8097140789031982 0.0 0.04654112085700035 0.10411117970943451 -0.15979881584644318 -4.414180132528145e-10 2.149169085896574e-05 True True
10029.074999999999 4.3805131912231445 -1.1368961793235322 1.5967791716205042 -2.0306221447386683 -1.5707886854754847 2.809680938720703 0.0 0.04160931706428528 0.08245757222175598 -0.11352892220020294 -1.3106097779473936e-17 4.626228999882187e-08 True True
10029.095 4.380488395690918 -1.1362498861602326 1.5982115904437464 -2.0326367817320765 -1.5707767645465296 2.809685230255127 0.0 0.032790057361125946 0.058460019528865814 -0.09160765260457993 -3.891317725177495e-25 1.373569061937426e-15 True True
10029.115 4.380472660064697 -1.1358409088901062 1.5990741888629358 -2.0342914066710414 -1.5708211104022425 2.809692621231079 0.0 0.018394900485873222 0.03774852678179741 -0.07102932035923004 -1.1553670222687298e-32 4.0782490057348797e-23 True True
10029.135 4.380455493927002 -1.1357010465911408 1.5994451681720179 -2.0353433094420375 -1.5707843939410608 2.809673309326172 0.0 0.010729245841503143 0.01982635073363781 -0.03099338337779045 -3.4303926536517954e-40 5.801473190736317e-10 True True
10029.154999999999 4.380492687225342 -1.1357143980315705 1.5996883551227015 -2.035794874230856 -1.5708087126361292 2.8097140789031982 0.0 0.0009017501142807305 0.002962705446407199 -0.005185107700526714 -0.0 1.7225098233602166e-17 True True
10029.175 4.380484104156494 -1.1355979901603241 1.5996516386615198 -2.035710474053854 -1.5707805792437952 2.809664726257324 0.0 0.0017851265147328377 0.00209715380333364 0.0007084105163812637 -0.0 5.114286321351301e-25 True True
10029.195 4.380475997924805 -1.135689155464508 1.5997284094439905 -2.0357424221434535 -1.5707967917071741 2.809701442718506 0.0 0.0022447393275797367 0.004036587662994862 0.0003446220071054995 -0.0 1.518477594579719e-32 True True
10029.215 4.380439281463623 -1.13564087570224 1.5997560659991663 -2.0357824764647425 -1.5708373228656214 2.809734344482422 0.0 0.004374206531792879 0.004578874446451664 0.00024740310618653893 -0.0 4.4236276153242216e-05 True True
10029.234999999999 4.380455493927002 -1.1355168980411072 1.5998242537127894 -2.0358506641783656 -1.570784870778219 2.8096766471862793 0.0 0.0059533072635531425 0.004330803640186787 0.0001249114575330168 -0.0 1.9693796593500679e-10 True True
10029.255 4.380447864532471 -1.1350565713695069 1.6003902594195765 -2.0355388126769007 -1.5707524458514612 2.809635877609253 0.0 0.011704006232321262 0.017678266391158104 0.01771632954478264 -0.0 5.8472648902919166e-18 True True
10029.275 4.380471706390381 -1.1347584587386628 1.600790802632467 -2.0351439915099085 -1.570813004170553 2.809718132019043 0.0 0.0029738752637058496 0.0026977441739290953 0.004985237494111061 -0.0 1.7361052354282558e-25 True True
10029.295 4.380508899688721 -1.1350022119334717 1.6004517714129847 -2.035311838189596 -1.5707443396197718 2.8096213340759277 0.0 -0.006620012689381838 -0.011627154424786568 -0.0049957106821238995 -0.0 -0.0038735377602279186 True False
10029.314999999999 4.38046407699585 -1.1350668531707306 1.6004622618304651 -2.0353557072081507 -1.570813004170553 2.8096935749053955 0.0 -0.001562845311127603 -0.0021891354117542505 -0.0015733269974589348 -0.0 0.0008095938828773797 True False
10029.335 4.380504608154297 -1.134919897919037 1.600508991871969 -2.0353595219054164 -1.5707686583148401 2.809680938720703 0.0 -0.0002847922733053565 -0.00017956887313630432 -0.00026786953094415367 -0.0 2.883389527141844e-09 True False
10029.355 4.38046407699585 -1.1351464253715058 1.6002724806415003 -2.0354072056212367 -1.5708406607257288 2.809701442718506 0.0 -0.0072358413599431515 -0.0077260518446564674 -0.0045285713858902454 -0.0 0.00017606023175176233 True False
10029.375 4.3804802894592285 -1.1351570051959534 1.6002700964557093 -2.035483022729391 -1.570756737385885 2.809685230255127 0.0 -0.002192599233239889 -0.002020403975620866 -0.0021307640708982944 -0.0 0.00013332150410860777 True False
10029.395 4.380488395690918 -1.1352173250964661 1.6002371946917933 -2.0355354748167933 -1.570801083241598 2.8096487522125244 0.0 -0.0020791657734662294 -0.0005815823678858578 -0.0005825286498293281 -0.0 0.00010116663906956092 True False
10029.414999999999 4.380423545837402 -1.1352521938136597 1.6002185980426233 -2.0355593166747035 -1.5708211104022425 2.809692859649658 0.0 -0.0032152170315384865 -0.003996672574430704 -0.0029478350188583136 -0.0 -1.3910586858401075e-05 True False
10029.435 4.380488395690918 -1.1352716249278565 1.6001504103290003 -2.0355783901610316 -1.5708211104022425 2.8096120357513428 0.0 -0.0018799722893163562 -0.002026322763413191 -0.002042322186753154 -0.0 -4.130178729404299e-13 True False
10029.455 4.380484104156494 -1.1353583496860047 1.6001461187945765 -2.035574575463766 -1.570813004170553 2.8096604347229004 0.0 -0.0003377367975190282 -0.0008372581796720624 -0.0005002056714147329 -0.0 -1.226287180174194e-20 True False
10029.475 4.380492687225342 -1.13521362960849 1.6001384894000452 -2.035586496392721 -1.5707486311541956 2.8096776008605957 0.0 3.8964997067099595e-21 -0.0008049157913774252 -0.0003449541691225022 -0.0 -3.6409573190957017e-28 True False
10029.494999999999 4.380492687225342 -1.1352597039989014 1.6001547018634241 -2.035586496392721 -1.5708492437945765 2.809702157974243 0.0 3.0455820823635574e-41 -0.0004036208847537637 -0.00015668722335249186 -0.0 -1.0810331486854729e-35 True False
10029.515 4.380419731140137 -1.1353345078280945 1.6000693480121058 -2.0355588398375453 -1.5707805792437952 2.809722423553467 0.0 0.0 -0.000275271333521232 -0.00012259447248652577 -0.0 -3.208973483303831e-43 True False
10029.535 4.38046407699585 -1.1354244512370606 1.5998309294330042 -2.035259862939352 -1.5707767645465296 2.809722423553467 -3.3884026906678125e-19 -0.01658777706325054 -0.023434597998857498 0.017909061163663864 -0.0 -0.0 True False
10029.555 4.380459785461426 -1.1359040600112458 1.5990484396563929 -2.034514089623922 -1.5707805792437952 2.809697151184082 -2.648396644336867e-39 -0.022607289254665375 -0.041840698570013046 0.06144370511174202 -0.0 -0.0 True False
10029.574999999999 4.380500316619873 -1.13639851034198 1.5981066862689417 -2.032806535760397 -1.5707805792437952 2.8097052574157715 0.0 -0.025361554697155952 -0.05426653474569321 0.10037447512149811 -0.0 -0.0 True False
10029.595 4.380508899688721 -1.1368528765491028 1.5969284216510218 -2.0305963955321253 -1.5708087126361292 2.809685230255127 0.0 -0.03502302244305611 -0.06711038202047348 0.11601191014051437 -0.0 -0.0 True False
10029.615 4.380496978759766 -1.137671486740448 1.5952447096454065 -2.0280467472472132 -1.5707648436175745 2.809657096862793 0.0 -0.04780515655875206 -0.10084811598062515 0.13437525928020477 -0.0 -0.0 True False
10029.635 4.380548477172852 -1.138737992649414 1.5929277578936976 -2.0249558887877406 -1.570801083241598 2.809734344482422 0.0 -0.05807018280029297 -0.12529323995113373 0.18132652342319489 -0.0 -0.0 True False
10029.654999999999 4.380496978759766 -1.140052781706192 1.590386215840475 -2.0212065182127894 -1.5707967917071741 2.8097143173217773 0.0 -0.0665912851691246 -0.1288403570652008 0.1923481822013855 -0.0 -0.0 True False
