Andreas691667/Digital_Twin_UR/data_analysis/test_results/trajectory_dt_2_blocks.csv
actual_q_0 actual_q_1 actual_q_2 actual_q_3 actual_q_4 actual_q_5 timestamp
3.3477777180732176 -1.3056645702871865 1.5899193464519294 -1.8550511782146855 -1.5707962785952745 1.776981393646821 0.05
3.3477777180732176 -1.3056645702871865 1.5899193464519294 -1.8550511782146855 -1.5707962785952745 1.776981393646821 0.1
3.3477777180732176 -1.3056645702871865 1.5899193464519294 -1.8550511782146855 -1.5707962785952745 1.776981393646821 0.15000000000000002
3.3477777180732176 -1.3056645702871865 1.5899193464519294 -1.8550511782146855 -1.5707962785952745 1.776981393646821 0.2
3.3477777180732176 -1.3056645702871865 1.5899193464519294 -1.8550511782146855 -1.5707962785952745 1.776981393646821 0.25
3.3477777180732176 -1.3056645702871865 1.5899193464519294 -1.8550511782146855 -1.5707962785952745 1.776981393646821 0.3
3.3477777180732176 -1.3056645702871865 1.5899193464519294 -1.8550511782146855 -1.5707962785952745 1.776981393646821 0.35000000000000003
3.3477777180732176 -1.3056645702871865 1.5899193464519294 -1.8550511782146855 -1.5707962785952745 1.776981393646821 0.4
3.3477777180732176 -1.3056645702871865 1.5899193464519294 -1.8550511782146855 -1.5707962785952745 1.776981393646821 0.45
3.3477777180732176 -1.3056645702871865 1.5899193464519294 -1.8550511782146855 -1.5707962785952745 1.776981393646821 0.5
3.3477777180732176 -1.3056645702871865 1.5899193464519294 -1.8550511782146855 -1.5707962785952745 1.776981393646821 0.55
3.3477777180732176 -1.3056645702871865 1.5899193464519294 -1.8550511782146855 -1.5707962785952745 1.776981393646821 0.6000000000000001
3.3477777180732176 -1.3056645702871865 1.5899193464519294 -1.8550511782146855 -1.5707962785952745 1.776981393646821 0.6500000000000001
3.3477777180732176 -1.3056645702871865 1.5899193464519294 -1.8550511782146855 -1.5707962785952745 1.776981393646821 0.7000000000000001
3.3477777180732176 -1.3056645702871865 1.5899193464519294 -1.8550511782146855 -1.5707962785952745 1.776981393646821 0.7500000000000001
3.3477777180732176 -1.3056645702871865 1.5899193464519294 -1.8550511782146855 -1.5707962785952745 1.776981393646821 0.8
3.3477777180732176 -1.3056645702871865 1.5899193464519294 -1.8550511782146855 -1.5707962785952745 1.776981393646821 0.8500000000000001
3.3477777180732176 -1.3056645702871865 1.5899193464519294 -1.8550511782146855 -1.5707962785952745 1.776981393646821 0.9000000000000001
3.3477777180732176 -1.3056645702871865 1.5899193464519294 -1.8550511782146855 -1.5707962785952745 1.776981393646821 0.9500000000000001
3.3477777180732176 -1.3056645702871865 1.5899193464519294 -1.8550511782146855 -1.5707962785952745 1.776981393646821 1.0
3.3477777180732176 -1.3056645702871865 1.5899193464519294 -1.8550511782146855 -1.5707962785952745 1.776981393646821 1.05
3.3477777180732176 -1.3056645702871865 1.5899193464519294 -1.8550511782146855 -1.5707962785952745 1.776981393646821 1.1
3.3477777180732176 -1.3056645702871865 1.5899193464519294 -1.8550511782146855 -1.5707962785952745 1.776981393646821 1.1500000000000001
3.3477777180732176 -1.3056645702871865 1.5899193464519294 -1.8550511782146855 -1.5707962785952745 1.776981393646821 1.2000000000000002
3.3477777180732176 -1.3056645702871865 1.5899193464519294 -1.8550511782146855 -1.5707962785952745 1.776981393646821 1.2500000000000002
3.3477777180732176 -1.3056645702871865 1.5899193464519294 -1.8550511782146855 -1.5707962785952745 1.776981393646821 1.3
3.3477777180732176 -1.3056645702871865 1.5899193464519294 -1.8550511782146855 -1.5707962785952745 1.776981393646821 1.35
3.3477777180732176 -1.3056645702871865 1.5899193464519294 -1.8550511782146855 -1.5707962785952745 1.776981393646821 1.4000000000000001
3.3477777180732176 -1.3056645702871865 1.5899193464519294 -1.8550511782146855 -1.5707962785952745 1.776981393646821 1.4500000000000002
3.3477777180732176 -1.3056645702871865 1.5899193464519294 -1.8550511782146855 -1.5707962785952745 1.776981393646821 1.5000000000000002
3.3477777180732176 -1.3056645702871865 1.5899193464519294 -1.8550511782146855 -1.5707962785952745 1.776981393646821 1.55
3.3477777180732176 -1.3056645702871865 1.5899193464519294 -1.8550511782146855 -1.5707962785952745 1.776981393646821 1.6
3.3477777180732176 -1.3056645702871865 1.5899193464519294 -1.8550511782146855 -1.5707962785952745 1.776981393646821 1.6500000000000001
3.3477777180732176 -1.3056645702871865 1.5899193464519294 -1.8550511782146855 -1.5707962785952745 1.776981393646821 1.7000000000000002
3.3477777180732176 -1.3056645702871865 1.5899193464519294 -1.8550511782146855 -1.5707962785952745 1.776981393646821 1.7500000000000002
3.3477777180732176 -1.3056645702871865 1.5899193464519294 -1.8550511782146855 -1.5707962785952745 1.776981393646821 1.8
3.3477777180732176 -1.3056645702871865 1.5899193464519294 -1.8550511782146855 -1.5707962785952745 1.776981393646821 1.85
3.3477777180732176 -1.3056645702871865 1.5899193464519294 -1.8550511782146855 -1.5707962785952745 1.776981393646821 1.9000000000000001
3.3477777180732176 -1.3056645702871865 1.5899193464519294 -1.8550511782146855 -1.5707962785952745 1.776981393646821 1.9500000000000002
3.3477777180732176 -1.3056645702871865 1.5899193464519294 -1.8550511782146855 -1.5707962785952745 1.776981393646821 2.0
3.3477777180732176 -1.3056645702871865 1.5899193464519294 -1.8550511782146855 -1.5707962785952745 1.776981393646821 2.05
3.3477777180732176 -1.3056645702871865 1.5899193464519294 -1.8550511782146855 -1.5707962785952745 1.776981393646821 2.1
3.3477777180732176 -1.3056645702871865 1.5899193464519294 -1.8550511782146855 -1.5707962785952745 1.776981393646821 2.15
3.3477777180732176 -1.3056645702871865 1.5899193464519294 -1.8550511782146855 -1.5707962785952745 1.776981393646821 2.1999999999999997
3.3477777180732176 -1.3056645702871865 1.5899193464519294 -1.8550511782146855 -1.5707962785952745 1.776981393646821 2.25
3.3477777180732176 -1.3056645702871865 1.5899193464519294 -1.8550511782146855 -1.5707962785952745 1.776981393646821 2.3
3.3477777180732176 -1.3056645702871865 1.5899193464519294 -1.8550511782146855 -1.5707962785952745 1.776981393646821 2.35
3.3477777180732176 -1.3056645702871865 1.5899193464519294 -1.8550511782146855 -1.5707962785952745 1.776981393646821 2.4
3.3477777180732176 -1.3056645702871865 1.5899193464519294 -1.8550511782146855 -1.5707962785952745 1.776981393646821 2.45
3.3477777180732176 -1.3056645702871865 1.5899193464519294 -1.8550511782146855 -1.5707962785952745 1.776981393646821 2.5
3.3477777180732176 -1.3056645702871865 1.5899193464519294 -1.8550511782146855 -1.5707962785952745 1.776981393646821 2.55
3.3477777180732176 -1.3056645702871865 1.5899193464519294 -1.8550511782146855 -1.5707962785952745 1.776981393646821 2.6
3.3477777180732176 -1.3056645702871865 1.5899193464519294 -1.8550511782146855 -1.5707962785952745 1.776981393646821 2.65
3.3477777180732176 -1.3056645702871865 1.5899193464519294 -1.8550511782146855 -1.5707962785952745 1.776981393646821 2.7
3.3477777180732176 -1.3056645702871865 1.5899193464519294 -1.8550511782146855 -1.5707962785952745 1.776981393646821 2.75
3.3477777180732176 -1.3056645702871865 1.5899193464519294 -1.8550511782146855 -1.5707962785952745 1.776981393646821 2.8
3.3477777180732176 -1.3056645702871865 1.5899193464519294 -1.8550511782146855 -1.5707962785952745 1.776981393646821 2.85
3.3477777180732176 -1.3056645702871865 1.5899193464519294 -1.8550511782146855 -1.5707962785952745 1.776981393646821 2.9
3.3477777180732176 -1.3056645702871865 1.5899193464519294 -1.8550511782146855 -1.5707962785952745 1.776981393646821 2.95
3.3477777180732176 -1.3056645702871865 1.5899193464519294 -1.8550511782146855 -1.5707962785952745 1.776981393646821 3.0
3.3477777180732176 -1.3056645702871865 1.5899193464519294 -1.8550511782146855 -1.5707962785952745 1.776981393646821 3.05
3.3482939625130475 -1.3057860468897373 1.5900565880688478 -1.855066943202271 -1.5707962786134564 1.7774976380857537 3.0999999999999996
3.351691887167689 -1.3065856067705286 1.5909599133887742 -1.855170708465128 -1.5707962787331304 1.78089556273449 3.15
3.3602807172597857 -1.3086066297956254 1.5932432211366787 -1.8554329927423627 -1.5707962790356267 1.789484392811661 3.1999999999999997
3.3757875203928283 -1.3122555093102357 1.5973656456530843 -1.855906536939693 -1.570796279581772 1.8049911959177551 3.25
3.399403779160685 -1.3178126110603796 1.6036439380448244 -1.8566277263561202 -1.5707962804135303 1.82860745464457 3.3
3.431831963757134 -1.3254432321145573 1.612264847335797 -1.8576180129105992 -1.5707962815556422 1.8610356391846639 3.3499999999999996
3.4733321045853978 -1.3352085597854184 1.6232975016177216 -1.8588853373687102 -1.570796283017266 1.902535779940807 3.4
3.5237683648676743 -1.3470766305514295 1.636705789200894 -1.860425551569329 -1.5707962847936172 1.952972040135433 3.4499999999999997
3.582655613254668 -1.3609332889785435 1.6523607397649427 -1.8622238406512994 -1.5707962868676102 2.01185928842009 3.5
3.649205996435124 -1.3765931466418675 1.6700529055095836 -1.8642561452801023 -1.5707962892114966 2.0784096714848914 3.55
3.7223755117453603 -1.3938105410473318 1.6895047423053768 -1.8664905838745283 -1.570796291788507 2.15157918666797 3.5999999999999996
3.800910579778798 -1.4122904945533588 1.7103829908444816 -1.8688888748333483 -1.5707962945544909 2.230114254564926 3.65
3.8833946169954965 -1.43169967329253 1.7323110577914127 -1.8714077587619846 -1.5707962974595562 2.31259829163828 3.6999999999999997
3.968294608331683 -1.4516773460932564 1.754881396933795 -1.8740004206991816 -1.570796300449711 2.3974982828269233 3.75
4.054007679809289 -1.4718463434014462 1.7776678903331204 -1.8766179123436777 -1.570796303468502 2.4832113541555727 3.8
4.138907671145476 -1.4918240162021728 1.8002382294755028 -1.8792105742808747 -1.5707963064586568 2.5681113453442164 3.8499999999999996
4.221391708362174 -1.511233194941344 1.8221662964224339 -1.881729458209511 -1.570796309363722 2.65059538241757 3.9
4.299926776395612 -1.529713148447371 1.8430445449615387 -1.884127749168331 -1.570796312129706 2.7291304503145257 3.9499999999999997
4.373096291705847 -1.5469305428528353 1.862496381757332 -1.886362187762757 -1.5707963147067163 2.8022999654976046 4.0
4.439646674886304 -1.5625904005161593 1.8801885475019728 -1.8883944923915599 -1.5707963170506027 2.8688503485624066 4.05
4.498533923273298 -1.5764470589432733 1.8958434980660215 -1.8901927814735302 -1.5707963191245957 2.927737596847064 4.1
4.548970183555573 -1.5883151297092841 1.9092517856491937 -1.891732995674149 -1.570796320900947 2.9781738570416882 4.15
4.590470324383839 -1.5980804573801455 1.9202844399311185 -1.89300032013226 -1.5707963223625707 3.019673997797832 4.2
4.6228985089802865 -1.6057110784343231 1.9289053492220911 -1.8939906066867391 -1.5707963235046827 3.0521021823379266 4.25
4.646514767748144 -1.611268180184467 1.9351836416138315 -1.8947117961031663 -1.570796324336441 3.075718441064742 4.3
4.662021570881187 -1.6149170596990774 1.9393060661302373 -1.8951853403004968 -1.5707963248825862 3.091225244170835 4.35
4.670610400973282 -1.6169380827241737 1.9415893738781411 -1.8954476245777312 -1.5707963251850825 3.0998140742480045 4.4
4.674008325627921 -1.617737642604965 1.942492699198067 -1.895551389840588 -1.5707963253047565 3.1032119988967404 4.45
4.674524570067753 -1.617859119207516 1.942629940814986 -1.8955671548281738 -1.5707963253229384 3.1037282433356737 4.5
4.674524570067755 -1.6178591192075162 1.942629940814986 -1.8955671548281738 -1.5707963253229384 3.1037282433356754 4.55
4.674524569641859 -1.6177582475971648 1.9427916411865167 -1.8958297269144402 -1.5707963253176147 3.10372824291006 4.602380952380952
4.674524566907338 -1.6171105883988801 1.9438298592998484 -1.8975156048962696 -1.570796325283433 3.103728240177339 4.654761904761904
4.674524560200487 -1.6155221003549616 1.9463762557138498 -1.9016504909979943 -1.5707963251995967 3.1037282334749037 4.707142857142857
4.6745245484931734 -1.61274927482301 1.9508211824592825 -1.9088682461447641 -1.5707963250532542 3.1037282217752975 4.7595238095238095
4.674524531318064 -1.6086814260564797 1.9573420722774018 -1.9194569889389193 -1.5707963248385637 3.1037282046114956 4.811904761904762
4.674524508693853 -1.6033229814852328 1.9659318278585576 -1.9334051946363666 -1.570796324555759 3.103728182002179 4.864285714285714
4.674524481050486 -1.5967757719960909 1.9764272110807948 -1.9504477941229525 -1.5707963242102145 3.1037281543770106 4.916666666666667
4.674524449154388 -1.589221322213388 1.988537232248455 -1.9701122728908382 -1.5707963238115104 3.1037281225019124 4.969047619047619
4.674524414033694 -1.5809031407795233 2.0018715393307764 -1.9917647700148746 -1.5707963233724984 3.1037280874043396 5.021428571428571
4.674524376903468 -1.5721090106355147 2.0159688072004953 -2.0146561771289755 -1.5707963229083672 3.103728050298558 5.0738095238095235
4.674524339090936 -1.56315327930155 2.030325126872447 -2.037968237402494 -1.570796322435707 3.1037280125109192 5.126190476190477
4.67452430196071 -1.5543591491575413 2.0444223947421665 -2.060859644516595 -1.570796321971576 3.1037279754051377 5.178571428571429
4.674524266840016 -1.5460409677236766 2.0577567018244878 -2.082512141640631 -1.570796321532564 3.103727940307565 5.230952380952381
4.674524234943918 -1.5384865179409737 2.069866722992148 -2.102176620408517 -1.5707963211338598 3.1037279084324667 5.283333333333333
4.674524207300551 -1.5319393084518318 2.0803621062143853 -2.119219219895103 -1.5707963207883153 3.1037278808072983 5.335714285714285
4.67452418467634 -1.526580863880585 2.088951861795541 -2.1331674255925503 -1.5707963205055107 3.1037278581979817 5.3880952380952385
4.674524167501231 -1.5225130151140547 2.09547275161366 -2.1437561683867057 -1.5707963202908202 3.1037278410341798 5.440476190476191
4.674524155793917 -1.519740189582103 2.0999176783590934 -2.1509739235334755 -1.5707963201444777 3.1037278293345736 5.492857142857143
4.674524149087066 -1.5181517015381845 2.1024640747730943 -2.1551088096352 -1.5707963200606414 3.103727822632138 5.545238095238096
4.674524146352545 -1.5175040423399 2.103502292886426 -2.156794687617029 -1.5707963200264596 3.1037278198994174 5.597619047619048
4.674524145926649 -1.5174031707295483 2.103663993257957 -2.157057259703296 -1.570796320021136 3.103727819473802 5.65
4.674524145926649 -1.5174031707295483 2.103663993257957 -2.157057259703296 -1.570796320021136 3.103727819473802 5.7
4.674524145926649 -1.5174031707295483 2.103663993257957 -2.157057259703296 -1.570796320021136 3.103727819473802 5.754166666666666
4.674524145926649 -1.5174031707295483 2.103663993257957 -2.157057259703296 -1.570796320021136 3.103727819473802 5.808333333333334
4.674524145926649 -1.5174031707295483 2.103663993257957 -2.157057259703296 -1.570796320021136 3.103727819473802 5.862500000000001
4.674524145926649 -1.5174031707295483 2.103663993257957 -2.157057259703296 -1.570796320021136 3.103727819473802 5.916666666666667
4.674524145926649 -1.5174031707295483 2.103663993257957 -2.157057259703296 -1.570796320021136 3.103727819473802 5.970833333333333
4.674524145926649 -1.5174031707295483 2.103663993257957 -2.157057259703296 -1.570796320021136 3.103727819473802 6.025
4.674524145926649 -1.5174031707295483 2.103663993257957 -2.157057259703296 -1.570796320021136 3.103727819473802 6.0791666666666675
4.674524145926649 -1.5174031707295483 2.103663993257957 -2.157057259703296 -1.570796320021136 3.103727819473802 6.133333333333334
4.674524145926649 -1.5174031707295483 2.103663993257957 -2.157057259703296 -1.570796320021136 3.103727819473802 6.1875
4.674524145926649 -1.5174031707295483 2.103663993257957 -2.157057259703296 -1.570796320021136 3.103727819473802 6.241666666666667
4.674524145926649 -1.5174031707295483 2.103663993257957 -2.157057259703296 -1.570796320021136 3.103727819473802 6.295833333333334
4.674524145926649 -1.5174031707295483 2.103663993257957 -2.157057259703296 -1.570796320021136 3.103727819473802 6.3500000000000005
4.674524145926649 -1.5174031707295483 2.103663993257957 -2.1570572597032958 -1.570796320021136 3.103727819473802 6.4
4.674524146352545 -1.5175040423398998 2.103502292886426 -2.156794687617029 -1.5707963200264596 3.1037278198994174 6.4523809523809526
4.674524149087066 -1.5181517015381845 2.1024640747730947 -2.1551088096352 -1.5707963200606414 3.103727822632138 6.504761904761905
4.674524155793917 -1.519740189582103 2.0999176783590934 -2.1509739235334755 -1.5707963201444777 3.1037278293345736 6.557142857142858
4.674524167501231 -1.5225130151140547 2.0954727516136606 -2.1437561683867057 -1.5707963202908202 3.1037278410341798 6.60952380952381
4.67452418467634 -1.526580863880585 2.088951861795541 -2.1331674255925503 -1.5707963205055107 3.1037278581979817 6.661904761904762
4.674524207300551 -1.5319393084518318 2.0803621062143853 -2.1192192198951028 -1.5707963207883153 3.1037278808072983 6.714285714285714
4.674524234943918 -1.5384865179409737 2.069866722992148 -2.102176620408517 -1.5707963211338598 3.1037279084324667 6.766666666666667
4.674524266840016 -1.5460409677236766 2.0577567018244878 -2.082512141640631 -1.570796321532564 3.103727940307565 6.81904761904762
4.67452430196071 -1.5543591491575413 2.0444223947421665 -2.060859644516595 -1.570796321971576 3.1037279754051377 6.871428571428572
4.674524339090936 -1.56315327930155 2.0303251268724476 -2.037968237402494 -1.570796322435707 3.1037280125109192 6.923809523809524
4.674524376903468 -1.5721090106355147 2.0159688072004958 -2.0146561771289755 -1.5707963229083672 3.103728050298558 6.976190476190476
4.674524414033694 -1.5809031407795233 2.0018715393307764 -1.9917647700148746 -1.5707963233724984 3.1037280874043396 7.0285714285714285
4.674524449154388 -1.589221322213388 1.988537232248455 -1.9701122728908382 -1.5707963238115104 3.1037281225019124 7.080952380952381
4.674524481050486 -1.5967757719960909 1.9764272110807948 -1.9504477941229525 -1.5707963242102145 3.1037281543770106 7.133333333333334
4.674524508693853 -1.6033229814852328 1.9659318278585574 -1.9334051946363666 -1.570796324555759 3.103728182002179 7.185714285714286
4.674524531318064 -1.6086814260564797 1.9573420722774018 -1.9194569889389195 -1.5707963248385637 3.1037282046114956 7.238095238095238
4.6745245484931734 -1.61274927482301 1.9508211824592827 -1.9088682461447641 -1.5707963250532542 3.1037282217752975 7.29047619047619
4.674524560200487 -1.6155221003549616 1.9463762557138498 -1.9016504909979943 -1.5707963251995967 3.1037282334749037 7.3428571428571425
4.674524566907338 -1.6171105883988801 1.9438298592998486 -1.8975156048962698 -1.570796325283433 3.103728240177339 7.395238095238096
4.674524569641859 -1.6177582475971646 1.9427916411865167 -1.8958297269144406 -1.5707963253176147 3.10372824291006 7.447619047619048
4.674524570067755 -1.6178591192075162 1.942629940814986 -1.8955671548281736 -1.5707963253229384 3.1037282433356754 7.5
4.674524570067755 -1.6178591192075162 1.942629940814986 -1.8955671548281738 -1.5707963253229384 3.1037282433356754 7.55
4.674322884167284 -1.6178056934709923 1.9425656721317417 -1.8955563118806698 -1.570796325323125 3.103526557435198 7.6
4.67296775512195 -1.6174467255552232 1.9421338503773855 -1.8954834580368183 -1.5707963253243786 3.1021714283898127 7.6499999999999995
4.669457927848022 -1.6165169872505427 1.9410154183165182 -1.8952947642669957 -1.5707963253276254 3.098661601115753 7.7
4.662950775352219 -1.614793270253218 1.938941866711766 -1.894944929634288 -1.5707963253336448 3.0921544486197075 7.75
4.652754163957842 -1.6120922312984767 1.9356926421187526 -1.8943967439564022 -1.5707963253430772 3.081957837224949 7.8
4.638318318530898 -1.6082682372935373 1.9310925546810744 -1.8936206504675803 -1.5707963253564312 3.067521991797466 7.85
4.619227687706238 -1.6032112104506375 1.9250091859252716 -1.8925943084805108 -1.570796325374091 3.0484313609720934 7.8999999999999995
4.595192809113686 -1.5968444734200633 1.9173502965558022 -1.8913021560482404 -1.5707963253963246 3.024396482378643 7.949999999999999
4.566042174604165 -1.589122594423179 1.9080612342500152 -1.889734972626088 -1.5707963254232906 2.9952458478680337 8.0
4.531714095475836 -1.5800292323854552 1.8971223414531224 -1.8878894417335548 -1.5707963254550459 2.960917768738422 8.049999999999999
4.49224856770022 -1.569574982069499 1.8845463631731731 -1.885767713616239 -1.5707963254915538 2.921452240961332 8.1
4.447779137148339 -1.5577952192080822 1.8703758547760265 -1.8833769679077461 -1.5707963255326904 2.876982810407789 8.15
4.398524764816834 -1.5447479456371707 1.8546805897803245 -1.8807289762916028 -1.5707963255782533 2.8277284380744447 8.2
4.344781692054109 -1.5305116344289542 1.8375549676524643 -1.8778396651631686 -1.5707963256279687 2.7739853653097124 8.25
4.286915305786454 -1.5151830750248745 1.8191154216015732 -1.8747286782915473 -1.5707963256814983 2.7161189790398956 8.299999999999999
4.225352003744177 -1.498875218368655 1.79949782637448 -1.871418939481501 -1.5707963257384476 2.654555676995319 8.35
4.1605710596877366 -1.4817150220393298 1.7788549060506886 -1.8679362152353618 -1.5707963257983735 2.5897747329364584 8.4
4.09309648863387 -1.4638412953842732 1.7573536418373512 -1.8643086774149435 -1.570796325860791 2.5223001618800716 8.45
4.023488912081727 -1.4454025446522276 1.735172679864241 -1.8605664659034546 -1.570796325925182 2.4526925853253285 8.5
3.9523374232390003 -1.4265548181263346 1.712499738978726 -1.8567412512674102 -1.570796325991001 2.3815410964799435 8.549999999999999
3.8802514522480536 -1.407459551257162 1.689529018540741 -1.852865797418545 -1.5707963260576845 2.3094551254863043 8.6
3.8078526314120555 -1.3882814117957345 1.6664586062177615 -1.8489735242757248 -1.5707963261246574 2.2370563046476017 8.649999999999999
3.7357666604211093 -1.3691861449265619 1.6434878857797766 -1.8450980704268596 -1.570796326191341 2.1649703336539625 8.7
3.664615171578382 -1.3503384184006688 1.6208149448942613 -1.8412728557908151 -1.5707963262571598 2.0938188448085775 8.75
3.5950075950262397 -1.3318996676686234 1.5986339829211516 -1.8375306442793262 -1.5707963263215508 2.0242112682538353 8.799999999999999
3.5275330239723734 -1.3140259410135668 1.5771327187078141 -1.833903106458908 -1.5707963263839684 1.9567366971974485 8.85
3.462752079915932 -1.2968657446842415 1.5564897983840225 -1.8304203822127687 -1.5707963264438942 1.891955753138587 8.899999999999999
3.4011887778736556 -1.2805578880280222 1.5368722031569293 -1.8271106434027227 -1.5707963265008436 1.8303924510940106 8.95
3.3433223916060006 -1.2652293286239424 1.5184326571060385 -1.8239996565311014 -1.5707963265543732 1.7725260648241947 9.0
3.289579318843276 -1.2509930174157258 1.5013070349781783 -1.821110345402667 -1.5707963266040885 1.7187829920594622 9.049999999999999
3.240324946511771 -1.2379457438448143 1.4856117699824758 -1.8184623537865237 -1.5707963266496514 1.6695286197261168 9.1
3.1958555159598907 -1.2261659809833976 1.4714412615853296 -1.8160716080780308 -1.570796326690788 1.625059189172575 9.149999999999999
3.1563899881842743 -1.2157117306674414 1.4588652833053801 -1.813949879960715 -1.570796326727296 1.5855936613954853 9.2
3.1220619090559447 -1.2066183686297176 1.4479263905084876 -1.8121043490681819 -1.5707963267590512 1.551265582265873 9.25
3.0929112745464242 -1.1988964896328334 1.4386373282027003 -1.8105371656460294 -1.5707963267860172 1.5221149477552645 9.299999999999999
3.068876395953872 -1.1925297526022596 1.430978438833231 -1.8092450132137592 -1.5707963268082508 1.4980800691618137 9.35
3.0497857651292115 -1.1874727257593591 1.424895070077428 -1.8082186712266894 -1.5707963268259106 1.4789894383364406 9.399999999999999
3.035349919702271 -1.1836487317544209 1.4202949826397506 -1.8074425777378678 -1.5707963268392646 1.464553592908961 9.45
3.025153308307892 -1.1809476927996787 1.4170457580467364 -1.806894392059982 -1.570796326848697 1.4543569815142006 9.5
3.018646155812089 -1.1792239758023542 1.4149722064419843 -1.806544557427274 -1.5707963268547165 1.4478498290181543 9.549999999999999
3.015136328538161 -1.1782942374976737 1.4138537743811166 -1.8063558636574515 -1.5707963268579632 1.4443400017440946 9.6
3.0137811994928265 -1.1779352695819048 1.413421952626762 -1.8062830098136 -1.5707963268592169 1.4429848726987102 9.649999999999999
3.013579513592356 -1.1778818438453806 1.4133576839435165 -1.806272166866096 -1.5707963268594034 1.4427831867982324 9.7
3.0135795135923544 -1.1778818438453802 1.4133576839435165 -1.806272166866096 -1.5707963268594034 1.4427831867982306 9.75
3.013579513609194 -1.1776965965294781 1.4137463778115944 -1.806846108049477 -1.5707963268603005 1.4427831868151866 9.8
3.0135795137133394 -1.1765509089199029 1.4161503087209626 -1.8103957265647161 -1.5707963268658482 1.4427831869200531 9.85
3.0135795139570263 -1.1738701586187303 1.4217751740467521 -1.81870134218301 -1.5707963268788294 1.4427831871654262 9.9
3.0135795143596553 -1.1694409144495892 1.4310688042425832 -1.8324242165336606 -1.5707963269002774 1.4427831875708415 9.95
3.013579514913765 -1.1633452653264682 1.4438589568262938 -1.8513100182207824 -1.5707963269297947 1.4427831881287854 10.0
3.0135795155909983 -1.1558951491225262 1.4594911103656705 -1.8743922879400117 -1.570796326965871 1.4427831888107057 10.05
3.0135795163480763 -1.1475666815389003 1.4769662584641756 -1.9001959035952134 -1.5707963270062002 1.4427831895730228 10.1
3.013579517132764 -1.1389344849735148 1.4950787037466788 -1.9269405454151904 -1.5707963270480005 1.4427831903631405 10.15
3.013579517889842 -1.1306060173898889 1.512553851845184 -1.9527441610703922 -1.5707963270883298 1.4427831911254576 10.2
3.0135795185670755 -1.1231559011859469 1.5281860053845606 -1.9758264307896214 -1.570796327124406 1.442783191807378 10.25
3.013579519121185 -1.1170602520628259 1.5409761579682713 -1.9947122324767432 -1.5707963271539234 1.4427831923653218 10.3
3.013579519523814 -1.1126310078936845 1.5502697881641023 -2.008435106827394 -1.5707963271753713 1.442783192770737 10.35
3.013579519767501 -1.1099502575925122 1.5558946534898919 -2.016740722445688 -1.5707963271883525 1.4427831930161101 10.4
3.0135795198716466 -1.108804569982937 1.55829858439926 -2.0202903409609267 -1.5707963271939003 1.4427831931209767 10.45
3.013579519888486 -1.108619322667035 1.558687278267338 -2.020864282144308 -1.5707963271947973 1.4427831931379327 10.5
3.013579519888486 -1.108619322667035 1.558687278267338 -2.020864282144308 -1.5707963271947973 1.4427831931379327 10.55
3.013579519888486 -1.108619322667035 1.558687278267338 -2.020864282144308 -1.5707963271947973 1.4427831931379327 10.6125
3.013579519888486 -1.108619322667035 1.558687278267338 -2.020864282144308 -1.5707963271947973 1.4427831931379327 10.675
3.013579519888486 -1.108619322667035 1.558687278267338 -2.020864282144308 -1.5707963271947973 1.4427831931379327 10.7375
3.013579519888486 -1.108619322667035 1.558687278267338 -2.020864282144308 -1.5707963271947973 1.4427831931379327 10.8
3.013579519888486 -1.108619322667035 1.558687278267338 -2.020864282144308 -1.5707963271947973 1.4427831931379327 10.850000000000001
3.0135795198716466 -1.108804569982937 1.55829858439926 -2.0202903409609267 -1.5707963271939003 1.4427831931209767 10.900000000000002
3.013579519767501 -1.1099502575925122 1.5558946534898919 -2.0167407224456877 -1.5707963271883525 1.4427831930161101 10.950000000000001
3.013579519523814 -1.1126310078936847 1.5502697881641023 -2.008435106827394 -1.5707963271753713 1.442783192770737 11.000000000000002
3.013579519121185 -1.1170602520628259 1.5409761579682713 -1.9947122324767432 -1.5707963271539234 1.4427831923653218 11.05
3.0135795185670755 -1.1231559011859469 1.5281860053845606 -1.9758264307896214 -1.570796327124406 1.442783191807378 11.100000000000001
3.013579517889842 -1.1306060173898889 1.512553851845184 -1.9527441610703922 -1.5707963270883298 1.4427831911254576 11.150000000000002
3.013579517132764 -1.1389344849735148 1.4950787037466788 -1.9269405454151904 -1.5707963270480005 1.4427831903631405 11.200000000000001
3.0135795163480763 -1.1475666815389003 1.4769662584641756 -1.9001959035952134 -1.5707963270062002 1.4427831895730228 11.250000000000002
3.0135795155909983 -1.1558951491225262 1.4594911103656705 -1.8743922879400117 -1.570796326965871 1.4427831888107057 11.3
3.013579514913765 -1.1633452653264682 1.4438589568262938 -1.8513100182207824 -1.5707963269297947 1.4427831881287854 11.350000000000001
3.0135795143596553 -1.1694409144495892 1.4310688042425832 -1.8324242165336606 -1.5707963269002774 1.4427831875708415 11.400000000000002
3.0135795139570263 -1.1738701586187306 1.4217751740467521 -1.8187013421830098 -1.5707963268788294 1.4427831871654262 11.450000000000001
3.0135795137133394 -1.1765509089199029 1.4161503087209626 -1.810395726564716 -1.5707963268658482 1.4427831869200531 11.500000000000002
3.013579513609194 -1.1776965965294781 1.4137463778115944 -1.806846108049477 -1.5707963268603005 1.4427831868151866 11.55
3.0135795135923544 -1.1778818438453802 1.4133576839435165 -1.806272166866096 -1.5707963268594034 1.4427831867982306 11.600000000000001
3.0135795135923544 -1.1778818438453802 1.4133576839435165 -1.806272166866096 -1.5707963268594034 1.4427831867982306 11.650000000000002
3.0135795135923544 -1.1778818438453802 1.4133576839435165 -1.806272166866096 -1.5707963268594034 1.4427831867982306 11.700000000000003
3.0135795135923544 -1.1778818438453802 1.4133576839435165 -1.806272166866096 -1.5707963268594034 1.4427831867982306 11.750000000000002
3.0135795135923544 -1.1778818438453802 1.4133576839435165 -1.806272166866096 -1.5707963268594034 1.4427831867982306 11.800000000000002
3.0135795135923544 -1.1778818438453802 1.4133576839435165 -1.806272166866096 -1.5707963268594034 1.4427831867982306 11.850000000000001
3.0135795135923544 -1.1778818438453802 1.4133576839435165 -1.806272166866096 -1.5707963268594034 1.4427831867982306 11.900000000000002
3.0135795135923544 -1.1778818438453802 1.4133576839435165 -1.806272166866096 -1.5707963268594034 1.4427831867982306 11.950000000000001
3.0135795135923544 -1.1778818438453802 1.4133576839435165 -1.806272166866096 -1.5707963268594034 1.4427831867982306 12.000000000000002
3.0135795135923544 -1.1778818438453802 1.4133576839435165 -1.806272166866096 -1.5707963268594034 1.4427831867982306 12.050000000000002
3.0135795135923544 -1.1778818438453802 1.4133576839435165 -1.806272166866096 -1.5707963268594034 1.4427831867982306 12.100000000000001
3.0135795135923544 -1.1778818438453802 1.4133576839435165 -1.806272166866096 -1.5707963268594034 1.4427831867982306 12.150000000000002
3.0135795135923544 -1.1778818438453802 1.4133576839435165 -1.806272166866096 -1.5707963268594034 1.4427831867982306 12.200000000000001
3.0135795135923544 -1.1778818438453802 1.4133576839435165 -1.806272166866096 -1.5707963268594034 1.4427831867982306 12.250000000000002
3.0135795135923544 -1.1778818438453802 1.4133576839435165 -1.806272166866096 -1.5707963268594034 1.4427831867982306 12.3
3.0135795135923544 -1.1778818438453802 1.4133576839435165 -1.806272166866096 -1.5707963268594034 1.4427831867982306 12.350000000000001
3.0135795135923544 -1.1778818438453802 1.4133576839435165 -1.806272166866096 -1.5707963268594034 1.4427831867982306 12.400000000000002
3.0135795135923544 -1.1778818438453802 1.4133576839435165 -1.806272166866096 -1.5707963268594034 1.4427831867982306 12.450000000000001
3.0135795135923544 -1.1778818438453802 1.4133576839435165 -1.806272166866096 -1.5707963268594034 1.4427831867982306 12.500000000000002
3.0135795135923544 -1.1778818438453802 1.4133576839435165 -1.806272166866096 -1.5707963268594034 1.4427831867982306 12.55
3.0135795135923544 -1.1778818438453802 1.4133576839435165 -1.806272166866096 -1.5707963268594034 1.4427831867982306 12.600000000000001
3.0135795135923544 -1.1778818438453802 1.4133576839435165 -1.806272166866096 -1.5707963268594034 1.4427831867982306 12.65
3.0135795135923544 -1.1778818438453802 1.4133576839435165 -1.806272166866096 -1.5707963268594034 1.4427831867982306 12.700000000000001
3.0135795135923544 -1.1778818438453802 1.4133576839435165 -1.806272166866096 -1.5707963268594034 1.4427831867982306 12.750000000000002
3.0137822311197184 -1.1778958269273603 1.4133771009225622 -1.8062776007640777 -1.5707963268602452 1.442985904325567 12.800000000000002
3.015144291673724 -1.1779897793577998 1.4135075637472632 -1.8063141111644947 -1.5707963268659018 1.4443479648793887 12.850000000000001
3.018672071775295 -1.1782331191370952 1.4138454666074707 -1.80640867426135 -1.5707963268805525 1.447875744980482 12.900000000000002
3.0252125084694588 -1.1786842664240091 1.414471932033981 -1.8065839924305045 -1.5707963269077145 1.4544161816737609 12.950000000000001
3.0354612757087294 -1.17939120752755 1.4154535940605366 -1.806858713399837 -1.5707963269502772 1.4646649489116446 13.000000000000002
3.0499709607364838 -1.180392058898849 1.416843381385831 -1.807247649419406 -1.570796327010535 1.4791746339374359 13.050000000000002
3.0691592404703423 -1.1817156311230406 1.4186813005355101 -1.8077619964316116 -1.5707963270902228 1.4983629136686984 13.100000000000001
3.093317057885549 -1.1833819929111398 1.4209952190241755 -1.8084095532413547 -1.5707963271905487 1.5225207310806363 13.150000000000002
3.122616798398348 -1.1854030350919211 1.4238016485173872 -1.8091949406862 -1.570796327312229 1.5518204715894708 13.200000000000001
3.157120466249365 -1.1877830346037976 1.4271065279936672 -1.8101198208065366 -1.5707963274555206 1.5863241394358192 13.250000000000002
3.1967878608869853 -1.1905192184866997 1.4309060069065014 -1.8111831160157383 -1.570796327620257 1.6259915340680726 13.300000000000002
3.2414847533507345 -1.1936023278739525 1.4351872283463427 -1.8123812282703262 -1.5707963278058805 1.6706884265257738 13.350000000000001
3.2909910626546552 -1.1970171819841562 1.4399291122026143 -1.813708258240129 -1.5707963280114774 1.7201947358229959 13.400000000000002
3.3450090321706885 -1.2007432421130633 1.4451031383257122 -1.8151562244784443 -1.5707963282358108 1.7742127053317205 13.450000000000003
3.403171406012052 -1.2047551756254582 1.4506741296890082 -1.8167152825921997 -1.5707963284773558 1.8323750791652142 13.500000000000002
3.46504960541662 -1.2090234199470349 1.4566010355508523 -1.8183739444121143 -1.5707963287343323 1.8942532785614097 13.550000000000002
3.530161905130301 -1.2135147465562772 1.4628377146165765 -1.8201192971628595 -1.57079632900474 1.9593655782662807 13.600000000000001
3.597981609790418 -1.2181928249763354 1.4693337182004964 -1.8219372226332202 -1.5707963292863911 2.0271852829172214 13.650000000000002
3.6679452303090896 -1.2230187867669065 1.4760350733879155 -1.8238126163462562 -1.570796329576946 2.0971489034264263 13.700000000000003
3.7394606602566043 -1.2279517895161118 1.482885066197127 -1.8257296067294633 -1.5707963298739454 2.1686643333642643 13.750000000000002
3.811915352244804 -1.2329495808323763 1.4898250247414162 -1.827671774284934 -1.5707963301748455 2.2411190253426607 13.800000000000002
3.884684494310462 -1.237969062336307 1.4967951023910655 -1.8296223707595194 -1.5707963304770514 2.313888167398473 13.850000000000001
3.9571391862986616 -1.2429668536525715 1.5037350609353548 -1.83156453831499 -1.5707963307779516 2.3863428593768683 13.900000000000002
4.028654616246176 -1.247899856401777 1.5105850537445662 -1.8334815286981971 -1.5707963310749509 2.4578582893147067 13.950000000000003
4.098618236764848 -1.252725818192348 1.5172864089319853 -1.8353569224112332 -1.5707963313655058 2.527821909823911 14.000000000000002
4.166437941424964 -1.2574038966124061 1.5237824125159052 -1.837174847881594 -1.570796331647157 2.595641614474852 14.050000000000002
4.231550241138645 -1.2618952232216485 1.5300190915816294 -1.838920200632339 -1.5707963319175646 2.6607539141797236 14.100000000000001
4.293428440543213 -1.2661634675432252 1.5359459974434735 -1.8405788624522537 -1.570796332174541 2.7226321135759184 14.150000000000002
4.3515908143845765 -1.27017540105562 1.5415169888067695 -1.8421379205660091 -1.570796332416086 2.7807944874094117 14.200000000000003
4.40560878390061 -1.2739014611845272 1.5466910149298674 -1.8435858868043244 -1.5707963326404195 2.8348124569181374 14.250000000000002
4.455115093204532 -1.2773163152947309 1.5514328987861392 -1.8449129167741272 -1.5707963328460164 2.88431876621536 14.300000000000002
4.49981198566828 -1.2803994246819836 1.5557141202259803 -1.846111029028715 -1.57079633303164 2.92901565867306 14.350000000000001
4.539479380305901 -1.2831356085648857 1.5595135991388145 -1.8471743242379168 -1.5707963331963763 2.9686830533053135 14.400000000000002
4.573983048156918 -1.2855156080767625 1.5628184786150945 -1.8480992043582534 -1.570796333339668 3.0031867211516627 14.450000000000003
4.603282788669717 -1.2875366502575436 1.5656249081083062 -1.8488845918030987 -1.5707963334613482 3.032486461660496 14.500000000000002
4.627440606084922 -1.2892030120456428 1.5679388265969716 -1.8495321486128418 -1.5707963335616741 3.056644279072434 14.550000000000002
4.646628885818784 -1.2905265842698344 1.5697767457466507 -1.8500464956250473 -1.570796333641362 3.0758325588036977 14.600000000000001
4.661138570846536 -1.2915274356411333 1.5711665330719449 -1.8504354316446163 -1.5707963337016198 3.090342243829487 14.650000000000002
4.671387338085808 -1.2922343767446742 1.572148195098501 -1.8507101526139489 -1.5707963337441824 3.1005910110673716 14.700000000000003
4.677927774779971 -1.2926855240315882 1.572774660525011 -1.8508854707831033 -1.5707963337713444 3.10713144776065 14.750000000000002
4.681455554881543 -1.2929288638108836 1.5731125633852185 -1.8509800338799587 -1.5707963337859951 3.110659227861744 14.800000000000002
4.682817615435548 -1.293022816241323 1.5732430262099193 -1.8510165442803754 -1.5707963337916517 3.112021288415564 14.850000000000001
4.683020332962913 -1.2930367993233032 1.5732624431889652 -1.8510219781783575 -1.5707963337924935 3.1122240059429025 14.900000000000002
4.6830203329629105 -1.2930367993233032 1.5732624431889652 -1.8510219781783575 -1.5707963337924935 3.1122240059429025 14.950000000000003
4.6830203309139575 -1.2929577661509313 1.573408264913004 -1.8512468331752217 -1.5707963339502968 3.1122240038898408 15.002380952380955
4.6830203177583885 -1.292450323463362 1.5743445321199445 -1.852690543714708 -1.5707963349634935 3.1122239907078937 15.054761904761907
4.683020285492248 -1.291205738897416 1.576640877586939 -1.856231475329556 -1.5707963374485208 3.112223958377055 15.10714285714286
4.683020229169267 -1.2890332227904553 1.5806493215695308 -1.8624124381804474 -1.570796341786323 3.11222390194114 15.159523809523812
4.6830201465411445 -1.2858460525685529 1.5865298732747848 -1.8714801641586016 -1.5707963481500569 3.1122238191473386 15.211904761904764
4.683020037697813 -1.281647697134666 1.5942761323344186 -1.8834247839883698 -1.5707963565327958 3.1122237100857633 15.264285714285716
4.68301990470771 -1.2765179412568068 1.6037408902779322 -1.8980193043298301 -1.5707963667752363 3.112223576829 15.316666666666668
4.683019751258053 -1.2705990099562152 1.6146617320057388 -1.9148590848813836 -1.5707963785934012 3.1122234230716574 15.36904761904762
4.683019582295107 -1.26408169289553 1.6266866372622952 -1.9334013154823484 -1.5707963916063463 3.112223253769921 15.421428571428573
4.683019403664459 -1.2571914687669603 1.6393995821092315 -1.9530044932155548 -1.5707964053638643 3.1122230747810975 15.473809523809525
4.68301922175129 -1.2501746296804574 1.6523461403984832 -1.9729678995099413 -1.5707964193741912 3.1122228925031705 15.526190476190479
4.683019043120642 -1.2432844055518877 1.6650590852454195 -1.9925710772431477 -1.5707964331317092 3.112222713514347 15.578571428571431
4.683018874157696 -1.2367670884912023 1.6770839905019759 -2.011113307844113 -1.5707964461446544 3.1122225442126106 15.630952380952383
4.683018720708039 -1.230848157190611 1.6880048322297823 -2.027953088395666 -1.5707964579628193 3.112222390455268 15.683333333333335
4.683018587717936 -1.2257184013127518 1.6974695901732961 -2.0425476087371264 -1.5707964682052598 3.1122222571985048 15.735714285714288
4.6830184788746045 -1.2215200458788649 1.70521584923293 -2.054492228566894 -1.5707964765879987 3.1122221481369294 15.78809523809524
4.683018396246482 -1.2183328756569625 1.711096400938184 -2.0635599545450485 -1.5707964829517325 3.112222065343128 15.840476190476192
4.6830183399235015 -1.2161603595500017 1.7151048449207758 -2.06974091739594 -1.5707964872895348 3.1122220089072132 15.892857142857144
4.683018307657361 -1.214915774984056 1.71740119038777 -2.0732818490107876 -1.570796489774562 3.1122219765763743 15.945238095238096
4.6830182945017915 -1.2144083322964865 1.7183374575947108 -2.074725559550274 -1.5707964907877587 3.1122219633944272 15.997619047619049
4.6830182924528385 -1.2143292991241146 1.7184832793187494 -2.0749504145471382 -1.570796490945562 3.1122219613413655 16.05
4.6830182924528385 -1.2143292991241146 1.7184832793187494 -2.0749504145471382 -1.570796490945562 3.1122219613413655 16.1
4.6830182924528385 -1.2143292991241146 1.7184832793187494 -2.0749504145471382 -1.570796490945562 3.1122219613413655 16.15416666666667
4.6830182924528385 -1.2143292991241146 1.7184832793187494 -2.0749504145471382 -1.570796490945562 3.1122219613413655 16.208333333333336
4.6830182924528385 -1.2143292991241146 1.7184832793187494 -2.0749504145471382 -1.570796490945562 3.1122219613413655 16.262500000000003
4.6830182924528385 -1.2143292991241146 1.7184832793187494 -2.0749504145471382 -1.570796490945562 3.1122219613413655 16.316666666666666
4.6830182924528385 -1.2143292991241146 1.7184832793187494 -2.0749504145471382 -1.570796490945562 3.1122219613413655 16.370833333333334
4.6830182924528385 -1.2143292991241146 1.7184832793187494 -2.0749504145471382 -1.570796490945562 3.1122219613413655 16.425
4.6830182924528385 -1.2143292991241146 1.7184832793187494 -2.0749504145471382 -1.570796490945562 3.1122219613413655 16.479166666666668
4.6830182924528385 -1.2143292991241146 1.7184832793187494 -2.0749504145471382 -1.570796490945562 3.1122219613413655 16.533333333333335
4.6830182924528385 -1.2143292991241146 1.7184832793187494 -2.0749504145471382 -1.570796490945562 3.1122219613413655 16.5875
4.6830182924528385 -1.2143292991241146 1.7184832793187494 -2.0749504145471382 -1.570796490945562 3.1122219613413655 16.641666666666666
4.6830182924528385 -1.2143292991241146 1.7184832793187494 -2.0749504145471382 -1.570796490945562 3.1122219613413655 16.695833333333333
4.6830182924528385 -1.2143292991241146 1.7184832793187494 -2.0749504145471382 -1.570796490945562 3.1122219613413655 16.75
4.6830182924528385 -1.2143292991241146 1.7184832793187494 -2.0749504145471387 -1.570796490945562 3.1122219613413655 16.8
4.6830182945017915 -1.2144083322964865 1.7183374575947108 -2.0747255595502745 -1.5707964907877587 3.1122219633944272 16.852380952380955
4.683018307657361 -1.2149157749840558 1.7174011903877702 -2.073281849010788 -1.570796489774562 3.1122219765763743 16.904761904761905
4.6830183399235015 -1.2161603595500017 1.7151048449207758 -2.06974091739594 -1.5707964872895348 3.1122220089072132 16.95714285714286
4.683018396246482 -1.2183328756569625 1.711096400938184 -2.0635599545450485 -1.5707964829517325 3.112222065343128 17.00952380952381
4.6830184788746045 -1.2215200458788649 1.70521584923293 -2.0544922285668945 -1.5707964765879987 3.1122221481369294 17.061904761904763
4.683018587717936 -1.2257184013127518 1.6974695901732961 -2.0425476087371264 -1.5707964682052598 3.1122222571985048 17.114285714285714
4.683018720708039 -1.230848157190611 1.6880048322297825 -2.027953088395666 -1.5707964579628193 3.112222390455268 17.166666666666668
4.683018874157696 -1.2367670884912025 1.6770839905019759 -2.011113307844113 -1.5707964461446544 3.1122225442126106 17.21904761904762
4.683019043120642 -1.2432844055518877 1.6650590852454195 -1.9925710772431477 -1.5707964331317092 3.112222713514347 17.271428571428572
4.68301922175129 -1.2501746296804574 1.6523461403984832 -1.9729678995099413 -1.5707964193741912 3.1122228925031705 17.323809523809523
4.683019403664459 -1.2571914687669603 1.6393995821092315 -1.953004493215555 -1.5707964053638643 3.1122230747810975 17.376190476190477
4.683019582295107 -1.26408169289553 1.6266866372622952 -1.9334013154823484 -1.5707963916063463 3.112223253769921 17.428571428571427
4.683019751258053 -1.2705990099562152 1.6146617320057388 -1.9148590848813836 -1.5707963785934012 3.1122234230716574 17.48095238095238
4.68301990470771 -1.2765179412568068 1.6037408902779324 -1.8980193043298301 -1.5707963667752363 3.112223576829 17.53333333333333
4.683020037697813 -1.281647697134666 1.5942761323344186 -1.8834247839883698 -1.5707963565327958 3.1122237100857633 17.585714285714285
4.6830201465411445 -1.2858460525685529 1.5865298732747848 -1.8714801641586019 -1.5707963481500569 3.1122238191473386 17.638095238095236
4.683020229169267 -1.2890332227904553 1.5806493215695308 -1.8624124381804477 -1.570796341786323 3.11222390194114 17.69047619047619
4.683020285492248 -1.291205738897416 1.576640877586939 -1.856231475329556 -1.5707963374485208 3.112223958377055 17.74285714285714
4.6830203177583885 -1.2924503234633617 1.5743445321199447 -1.8526905437147085 -1.5707963349634935 3.1122239907078937 17.795238095238094
4.6830203309139575 -1.2929577661509313 1.573408264913004 -1.8512468331752219 -1.5707963339502968 3.1122240038898408 17.847619047619048
4.6830203329629105 -1.2930367993233032 1.5732624431889652 -1.8510219781783577 -1.5707963337924935 3.1122240059429025 17.9
4.6830203329629105 -1.2930367993233032 1.5732624431889652 -1.8510219781783575 -1.5707963337924935 3.1122240059429025 17.95
4.68281581967058 -1.2930428615883214 1.5732703116509832 -1.8510237843743296 -1.5707963337918345 3.1120194926506266 18.0
4.6814416933585825 -1.2930835939914662 1.5733231799050247 -1.8510359202183204 -1.570796333787407 3.110645366339001 18.05
4.677882662560538 -1.2931890922095017 1.573460110362385 -1.8510673524397598 -1.5707963337759396 3.107086335541917 18.099999999999998
4.6712842876740694 -1.2933846838837393 1.573713976805894 -1.851125627175872 -1.570796333754679 3.10048796065723 18.15
4.6609447321472635 -1.293691173134677 1.5741117817554793 -1.8512169428225589 -1.5707963337213642 3.090148405133215 18.2
4.6463065136651345 -1.294125085076638 1.574674973833727 -1.8513462228852828 -1.5707963336741988 3.0755101866550376 18.25
4.626948255336083 -1.294698910332409 1.5754197651314457 -1.8515171888299473 -1.570796333611825 3.056151928331212 18.3
4.602576436878359 -1.2954213495478792 1.5763574485732277 -1.851732432933781 -1.570796333533297 3.031780109880068 18.349999999999998
4.573017145806523 -1.2962975579066784 1.577494715283012 -1.851993491136219 -1.5707963334380546 3.0022208188162125 18.4
4.5382078286179075 -1.2973293896448155 1.5788339719496463 -1.8523009158897852 -1.5707963333258963 2.9674115016369944 18.45
4.498189041979077 -1.298515642565318 1.580373658192449 -1.852654349010975 -1.5707963331969526 2.927392715008968 18.5
4.453096203912291 -1.2998523025528688 1.582108563926772 -1.8530525945311376 -1.5707963330516599 2.8822998769543555 18.549999999999997
4.403151344981965 -1.3013327880884469 1.5840301467295632 -1.8534936915473577 -1.5707963328907337 2.8323550180375126 18.599999999999998
4.34865485948113 -1.3029481947639645 1.5861268492049279 -1.8539749870733382 -1.5707963327151417 2.77785853255139 18.65
4.289977256617897 -1.3046875397969055 1.5883844163496923 -1.8544932088902828 -1.5707963325260779 2.719180929703998 18.7
4.2275509117019165 -1.3065380065449657 1.5907862129189647 -1.8550445383977778 -1.5707963323249352 2.656754584804871 18.75
4.16186181733084 -1.308485189020689 1.5933135407916987 -1.8556246834646744 -1.5707963321132798 2.5910654904515287 18.799999999999997
4.093441334576783 -1.310513336406108 1.595945956336255 -1.8562289512799715 -1.5707963318928237 2.522645007715942 18.849999999999998
4.02285794417278 -1.312605597567381 1.598661587775964 -1.8568523212036974 -1.5707963316653986 2.452061617330995 18.9
3.950708997699257 -1.3147442655694321 1.6014374525546877 -1.8574895176177926 -1.570796331432929 2.3799126708769496 18.95
3.877612468770483 -1.3169110221905889 1.6042497747023825 -1.8581350827769914 -1.5707963311974062 2.306816141967909 19.0
3.8041987042210343 -1.3190871824372203 1.6070743022006617 -1.8587834496597053 -1.5707963309608612 2.2334023774382796 19.049999999999997
3.7311021752922606 -1.321253939058377 1.6098866243483565 -1.859429014818904 -1.5707963307253385 2.1603058485292395 19.099999999999998
3.658953228818737 -1.3233926070604283 1.6126624891270802 -1.8600662112329993 -1.570796330492869 2.0881569020751938 19.15
3.588369838414735 -1.3254848682217013 1.6153781205667892 -1.8606895811567252 -1.5707963302654437 2.017573511690247 19.2
3.5199493556606773 -1.3275130156071202 1.6180105361113455 -1.8612938489720223 -1.5707963300449876 1.9491530289546604 19.25
3.4542602612896003 -1.3294601980828435 1.6205378639840795 -1.8618739940389188 -1.5707963298333323 1.8834639346013176 19.299999999999997
3.3918339163736206 -1.3313106648309037 1.622939660553352 -1.8624253235464139 -1.5707963296321896 1.8210375897021909 19.349999999999998
3.333156313510389 -1.3330500098638447 1.6251972276981164 -1.8629435453633585 -1.5707963294431257 1.7623599868547999 19.4
3.278659828009553 -1.3346654165393623 1.627293930173481 -1.863424840889339 -1.5707963292675338 1.707863501368676 19.45
3.228714969079226 -1.3361459020749404 1.6292155129762722 -1.863865937905559 -1.5707963291066076 1.657918642451833 19.5
3.1836221310124415 -1.3374825620624913 1.6309504187105952 -1.8642641834257216 -1.570796328961315 1.6128258043972215 19.549999999999997
3.14360334437361 -1.3386688149829937 1.632490104953398 -1.8646176165469115 -1.5707963288323712 1.5728070177691937 19.599999999999998
3.1087940271849943 -1.3397006467211308 1.6338293616200321 -1.8649250413004776 -1.570796328720213 1.5379977005899756 19.65
3.0792347361131593 -1.34057685507993 1.6349666283298165 -1.8651860995029157 -1.5707963286249704 1.5084384095261203 19.7
3.054862917655437 -1.3412992942954003 1.6359043117715986 -1.8654013436067494 -1.5707963285464426 1.4840665910749757 19.75
3.035504659326383 -1.3418731195511713 1.6366491030693173 -1.8655723095514138 -1.5707963284840687 1.4647083327511499 19.799999999999997
3.020866440844257 -1.3423070314931322 1.637212295147565 -1.8657015896141376 -1.5707963284369033 1.450070114272974 19.849999999999998
3.010526885317449 -1.34261352074407 1.6376101000971501 -1.8657929052608246 -1.5707963284035884 1.4397305587489582 19.9
3.0039285104309803 -1.3428091124183075 1.6378639665406591 -1.8658511799969368 -1.5707963283823279 1.43313218386427 19.95
3.000369479632936 -1.342914610636343 1.6380008969980195 -1.8658826122183763 -1.5707963283708606 1.4295731530671867 19.999999999999996
2.9989953533209404 -1.3429553430394878 1.638053765252061 -1.865894748062367 -1.570796328366433 1.428199026755561 20.049999999999997
2.998790840028609 -1.342961405304506 1.638061633714079 -1.8658965542583392 -1.570796328365774 1.4279945134632843 20.099999999999998
2.9987908400286063 -1.342961405304506 1.638061633714079 -1.8658965542583392 -1.570796328365774 1.427994513463287 20.15
2.9987908375813794 -1.3427405478580317 1.6384527923103132 -1.8665085704197473 -1.570796328244215 1.427994511023567 20.2
2.998790822446168 -1.3413746244778415 1.640871966671366 -1.870293668895103 -1.570796327492416 1.4279944959347812 20.25
2.998790787031869 -1.338178552981371 1.6465324995625137 -1.8791502750004434 -1.5707963257333106 1.4279944606291126 20.299999999999997
2.998790728518931 -1.3328978742722388 1.6558850611537157 -1.8937835181388678 -1.5707963228268453 1.4279944022956577 20.349999999999998
2.998790647991797 -1.3256304572336688 1.6687563167642183 -1.9139221946937996 -1.570796318826887 1.4279943220155333 20.4
2.998790549571351 -1.3167482036219098 1.6844875946071576 -1.9385357309222473 -1.570796313938129 1.427994223896983 20.45
2.998790439547363 -1.306818752959659 1.7020735535341616 -1.9660511458480658 -1.5707963084729977 1.4279941142104835 20.5
2.9987903255109356 -1.296527187429481 1.7203008507799544 -1.994570014155218 -1.5707963028085596 1.4279940005238523 20.549999999999997
2.9987902154869475 -1.2865977367672303 1.7378868097069584 -2.0220854290810366 -1.5707962973434284 1.4279938908373528 20.599999999999998
2.9987901170665014 -1.2777154831554713 1.7536180875498977 -2.046698965309484 -1.5707962924546703 1.4279937927188024 20.65
2.9987900365393676 -1.2704480661169013 1.7664893431604003 -2.066837641864416 -1.570796288454712 1.4279937124386781 20.7
2.9987899780264295 -1.2651673874077691 1.7758419047516023 -2.0814708850028403 -1.5707962855482467 1.4279936541052232 20.75
2.9987899426121305 -1.2619713159112986 1.78150243764275 -2.090327491108181 -1.5707962837891414 1.4279936187995546 20.799999999999997
2.998789927476919 -1.2606053925311085 1.7839216120038028 -2.094112589583536 -1.5707962830373423 1.4279936037107688 20.849999999999998
2.9987899250296923 -1.260384535084634 1.784312770600037 -2.0947246057449442 -1.5707962829157833 1.4279936012710488 20.9
2.9987899250296923 -1.260384535084634 1.784312770600037 -2.0947246057449442 -1.5707962829157833 1.4279936012710488 20.95
2.9987899250296923 -1.260384535084634 1.784312770600037 -2.0947246057449442 -1.5707962829157833 1.4279936012710488 21.0125
2.9987899250296923 -1.260384535084634 1.784312770600037 -2.0947246057449442 -1.5707962829157833 1.4279936012710488 21.075
2.9987899250296923 -1.260384535084634 1.784312770600037 -2.0947246057449442 -1.5707962829157833 1.4279936012710488 21.1375
2.9987899250296923 -1.260384535084634 1.784312770600037 -2.0947246057449442 -1.5707962829157833 1.4279936012710488 21.2
2.9987899250296923 -1.260384535084634 1.784312770600037 -2.0947246057449447 -1.5707962829157833 1.4279936012710488 21.25
2.998789927476919 -1.2606053925311085 1.7839216120038028 -2.0941125895835366 -1.5707962830373423 1.4279936037107688 21.3
2.9987899426121305 -1.2619713159112986 1.78150243764275 -2.0903274911081806 -1.5707962837891414 1.4279936187995546 21.35
2.9987899780264295 -1.2651673874077691 1.7758419047516023 -2.0814708850028403 -1.5707962855482467 1.4279936541052232 21.4
2.9987900365393676 -1.2704480661169013 1.7664893431604003 -2.066837641864416 -1.570796288454712 1.4279937124386781 21.45
2.9987901170665014 -1.2777154831554713 1.7536180875498977 -2.0466989653094845 -1.5707962924546703 1.4279937927188024 21.5
2.9987902154869475 -1.2865977367672303 1.7378868097069584 -2.0220854290810366 -1.5707962973434284 1.4279938908373528 21.55
2.9987903255109356 -1.296527187429481 1.7203008507799544 -1.994570014155218 -1.5707963028085596 1.4279940005238523 21.6
2.998790439547363 -1.306818752959659 1.7020735535341616 -1.9660511458480658 -1.5707963084729977 1.4279941142104835 21.65
2.998790549571351 -1.3167482036219098 1.6844875946071576 -1.9385357309222473 -1.570796313938129 1.427994223896983 21.7
2.998790647991797 -1.3256304572336686 1.6687563167642183 -1.9139221946937996 -1.570796318826887 1.4279943220155333 21.75
2.998790728518931 -1.3328978742722388 1.6558850611537157 -1.893783518138868 -1.5707963228268453 1.4279944022956577 21.8
2.998790787031869 -1.338178552981371 1.6465324995625137 -1.8791502750004434 -1.5707963257333106 1.4279944606291126 21.85
2.998790822446168 -1.3413746244778415 1.640871966671366 -1.8702936688951028 -1.570796327492416 1.4279944959347812 21.9
2.9987908375813794 -1.3427405478580317 1.6384527923103132 -1.8665085704197475 -1.570796328244215 1.427994511023567 21.95
2.9987908400286063 -1.342961405304506 1.638061633714079 -1.8658965542583394 -1.570796328365774 1.427994513463287 22.0
2.9987908400286063 -1.342961405304506 1.638061633714079 -1.8658965542583394 -1.570796328365774 1.427994513463287 22.05
2.9987908400286063 -1.342961405304506 1.638061633714079 -1.8658965542583394 -1.570796328365774 1.427994513463287 22.1
2.9987908400286063 -1.342961405304506 1.638061633714079 -1.8658965542583394 -1.570796328365774 1.427994513463287 22.150000000000002
2.9987908400286063 -1.342961405304506 1.638061633714079 -1.8658965542583394 -1.570796328365774 1.427994513463287 22.2
2.9987908400286063 -1.342961405304506 1.638061633714079 -1.8658965542583394 -1.570796328365774 1.427994513463287 22.25
2.9987908400286063 -1.342961405304506 1.638061633714079 -1.8658965542583394 -1.570796328365774 1.427994513463287 22.3
2.9987908400286063 -1.342961405304506 1.638061633714079 -1.8658965542583394 -1.570796328365774 1.427994513463287 22.35
2.9987908400286063 -1.342961405304506 1.638061633714079 -1.8658965542583394 -1.570796328365774 1.427994513463287 22.400000000000002
2.9987908400286063 -1.342961405304506 1.638061633714079 -1.8658965542583394 -1.570796328365774 1.427994513463287 22.45
2.9987908400286063 -1.342961405304506 1.638061633714079 -1.8658965542583394 -1.570796328365774 1.427994513463287 22.5
2.9987908400286063 -1.342961405304506 1.638061633714079 -1.8658965542583394 -1.570796328365774 1.427994513463287 22.55
2.9987908400286063 -1.342961405304506 1.638061633714079 -1.8658965542583394 -1.570796328365774 1.427994513463287 22.6
2.9987908400286063 -1.342961405304506 1.638061633714079 -1.8658965542583394 -1.570796328365774 1.427994513463287 22.650000000000002
2.9987908400286063 -1.342961405304506 1.638061633714079 -1.8658965542583394 -1.570796328365774 1.427994513463287 22.700000000000003
2.9987908400286063 -1.342961405304506 1.638061633714079 -1.8658965542583394 -1.570796328365774 1.427994513463287 22.75
2.9987908400286063 -1.342961405304506 1.638061633714079 -1.8658965542583394 -1.570796328365774 1.427994513463287 22.8
2.9987908400286063 -1.342961405304506 1.638061633714079 -1.8658965542583394 -1.570796328365774 1.427994513463287 22.85
2.9987908400286063 -1.342961405304506 1.638061633714079 -1.8658965542583394 -1.570796328365774 1.427994513463287 22.900000000000002
2.9987908400286063 -1.342961405304506 1.638061633714079 -1.8658965542583394 -1.570796328365774 1.427994513463287 22.950000000000003
2.9987908400286063 -1.342961405304506 1.638061633714079 -1.8658965542583394 -1.570796328365774 1.427994513463287 23.0
2.9987908400286063 -1.342961405304506 1.638061633714079 -1.8658965542583394 -1.570796328365774 1.427994513463287 23.05
2.9987908400286063 -1.342961405304506 1.638061633714079 -1.8658965542583394 -1.570796328365774 1.427994513463287 23.1
2.9987899250296923 -1.260384535084634 1.784312770600037 -2.0947246057449447 -1.5707962829157833 1.4279936012710488 23.150000000000002
2.9990957343838303 -1.2604242128573147 1.7841424284600758 -2.0945145858601864 -1.5707962829119975 1.4282994106246016 23.202272727272728
3.001067378572289 -1.260680027301372 1.7830441818375975 -2.093160524973423 -1.570796282887588 1.4302710548092878 23.254545454545458
3.005927824144168 -1.2613106543633545 1.7803368130515347 -2.0898225295685493 -1.5707962828274153 1.4351315003718665 23.306818181818183
3.014461232375134 -1.2624178364275929 1.775583528040605 -2.08396206327145 -1.5707962827217707 1.4436649085865052 23.35909090909091
3.0270617154089186 -1.2640527082675594 1.7685647981833346 -2.075308462723114 -1.5707962825657753 1.4562653915961796 23.41136363636364
3.0437820923988035 -1.2662221229972246 1.759251202118083 -2.063825453452747 -1.570796282358775 1.472985768554072 23.463636363636365
3.0643826456491188 -1.2688949780224144 1.7477762675630664 -2.04967766575088 -1.570796282103738 1.49358632176497 23.515909090909094
3.0883798767567323 -1.2720085409921684 1.7344093131363805 -2.033197150542487 -1.5707962818066494 1.5175835528266675 23.56818181818182
3.1150952627525426 -1.2754747757500966 1.7195282901760265 -2.0148498952600904 -1.57079628147591 1.5442989387713604 23.620454545454546
3.143704012242971 -1.2791866682857362 1.7035926245599335 -1.9952023397168785 -1.5707962811217304 1.572907688207049 23.672727272727276
3.173283821551455 -1.2830245526859103 1.6871160585259832 -1.9748878919798152 -1.570796280755529 1.602487497458935 23.725
3.2028636308599387 -1.2868624370860844 1.670639492492033 -1.9545734442427518 -1.5707962803893274 1.6320673067108207 23.777272727272727
3.2314723803503673 -1.290574329621724 1.65470382687594 -1.9349258886995397 -1.5707962800351478 1.6606760561465095 23.829545454545457
3.2581877663461776 -1.294040564379652 1.6398228039155862 -1.9165786334171435 -1.5707962797044084 1.6873914420912024 23.881818181818183
3.282184997453791 -1.2971541273494063 1.6264558494889 -1.9000981182087497 -1.5707962794073198 1.7113886731528998 23.93409090909091
3.3027855507041064 -1.299826982374596 1.6149809149338834 -1.8859503305068834 -1.5707962791522827 1.731989226363798 23.986363636363638
3.3195059276939913 -1.3019963971042612 1.605667318868632 -1.8744673212365162 -1.5707962789452825 1.7487096033216902 24.038636363636364
3.332106410727776 -1.3036312689442278 1.5986485890113615 -1.8658137206881804 -1.570796278789287 1.7613100863313647 24.090909090909093
3.340639818958742 -1.304738451008466 1.5938953040004318 -1.859953254391081 -1.5707962786836425 1.7698434945460035 24.14318181818182
3.345500264530621 -1.3053690780704486 1.5911879352143692 -1.856615258986207 -1.5707962786234697 1.7747039401085822 24.195454545454545
3.3474719087190796 -1.305624892514506 1.5900896885918905 -1.8552611980994438 -1.5707962785990603 1.7766755842932682 24.247727272727275
3.3477777180732176 -1.3056645702871865 1.5899193464519294 -1.8550511782146857 -1.5707962785952745 1.776981393646821 24.3
