Andreas691667/Digital_Twin_UR/UR_RTDE_CLIENT_LIBRARY/examples/robot_data.csv
timestamp target_q_0 target_q_1 target_q_2 target_q_3 target_q_4 target_q_5 target_qd_0 target_qd_1 target_qd_2 target_qd_3 target_qd_4 target_qd_5 target_qdd_0 target_qdd_1 target_qdd_2 target_qdd_3 target_qdd_4 target_qdd_5 target_current_0 target_current_1 target_current_2 target_current_3 target_current_4 target_current_5 target_moment_0 target_moment_1 target_moment_2 target_moment_3 target_moment_4 target_moment_5 actual_q_0 actual_q_1 actual_q_2 actual_q_3 actual_q_4 actual_q_5 actual_qd_0 actual_qd_1 actual_qd_2 actual_qd_3 actual_qd_4 actual_qd_5 actual_current_0 actual_current_1 actual_current_2 actual_current_3 actual_current_4 actual_current_5 joint_control_output_0 joint_control_output_1 joint_control_output_2 joint_control_output_3 joint_control_output_4 joint_control_output_5 actual_TCP_pose_0 actual_TCP_pose_1 actual_TCP_pose_2 actual_TCP_pose_3 actual_TCP_pose_4 actual_TCP_pose_5 actual_TCP_speed_0 actual_TCP_speed_1 actual_TCP_speed_2 actual_TCP_speed_3 actual_TCP_speed_4 actual_TCP_speed_5 actual_TCP_force_0 actual_TCP_force_1 actual_TCP_force_2 actual_TCP_force_3 actual_TCP_force_4 actual_TCP_force_5 target_TCP_pose_0 target_TCP_pose_1 target_TCP_pose_2 target_TCP_pose_3 target_TCP_pose_4 target_TCP_pose_5 target_TCP_speed_0 target_TCP_speed_1 target_TCP_speed_2 target_TCP_speed_3 target_TCP_speed_4 target_TCP_speed_5 actual_digital_input_bits joint_temperatures_0 joint_temperatures_1 joint_temperatures_2 joint_temperatures_3 joint_temperatures_4 joint_temperatures_5 actual_execution_time robot_mode joint_mode_0 joint_mode_1 joint_mode_2 joint_mode_3 joint_mode_4 joint_mode_5 safety_status actual_tool_accelerometer_0 actual_tool_accelerometer_1 actual_tool_accelerometer_2 speed_scaling target_speed_fraction actual_momentum actual_main_voltage actual_robot_voltage actual_robot_current actual_joint_voltage_0 actual_joint_voltage_1 actual_joint_voltage_2 actual_joint_voltage_3 actual_joint_voltage_4 actual_joint_voltage_5 actual_digital_output_bits runtime_state joint_position_deviation_ratio
6524.746 -0.018820184640135906 -1.886972226345227 -1.4527852242362735 -1.5832453536688496 2.3887428659707894 -0.005978037124366509 -0.13344404512544483 -0.0009080359558549373 -0.029256894622323962 0.010362997224701477 0.9668040783793154 0.00024210314784808176 -0.19272057341944426 -0.0013113901780579282 -0.04225295705616479 0.014966293667215483 1.3962634015954323 0.00034964660608176735 -0.33740994334220886 0.9976851940155029 0.6657339334487915 0.4385794997215271 0.40874385833740234 0.003028381150215864 -0.18774878003377538 11.022743805008757 7.258622099692749 0.9505703978048269 0.31405526787445226 3.572173613263907e-05 -0.018801514302388966 -1.8869763813414515 -1.4527512788772583 -1.5832692585387171 2.3883376121520996 -0.005996529256002248 -0.1347881555557251 -0.0007229242473840714 -0.028861861675977707 0.010460680350661278 0.9523436427116394 0.00035773415584117174 -0.2920628786087036 0.8946090936660767 0.5285172462463379 0.3788452744483948 0.4572116732597351 0.060392335057258606 -0.33740994334220886 0.9976851940155029 0.6657339334487915 0.4385794997215271 0.40874385833740234 0.003028381150215864 0.35387468907349223 -0.06993363959938018 0.2623794506795676 -1.70421957639243 1.8815098392489817 0.9559886631934729 0.0021483924718983926 0.012256144076034009 0.05458696692942695 0.931469757449889 0.006033389758837131 -0.33398935291002846 -0.14177161177276554 -0.18121091545198742 0.26981164881164765 -0.0009516177875050374 -0.008913933886379902 0.0044343635088608365 0.35387674281707254 -0.06991469227914184 0.2623995819236745 -1.7038645164482205 1.8812878937040194 0.9562674566814237 0.0024314188248813658 0.013615208104346334 0.055372055622647416 0.9456345644908943 0.006406873854530677 -0.3355951663196896 0 31.375 33.3125 35.125 40.5625 43.8125 44.8125 0.970285 7 253 253 253 253 253 253 1 -6.933608055114746 1.9345149993896484 -6.186617374420166 1.0 1.0 0.189248249809352 47.91884231567383 47.94660949707031 0.7486078143119812 47.742591857910156 47.81425476074219 47.77125549316406 47.5275993347168 47.55626678466797 47.670928955078125 4 2 0.040608803561763676
6524.754 -0.01989390405948832 -1.8869795325973602 -1.4530206314878775 -1.5831619707696545 2.3965219790266747 -0.005976089110492744 -0.13498580971280033 -0.0009185270772794009 -0.02959491827877328 0.010482727574039197 0.9779741855920792 0.0002449003206967358 -0.19272057341944426 -0.0013113901780579824 -0.04225295705616479 0.014966293667215483 1.3962634015954878 0.00034964660608174025 -0.3378395736217499 0.997144877910614 0.6656494736671448 0.4386873245239258 0.4109881520271301 0.0030668789986521006 -0.18805222873914146 11.023331360887617 7.258744322752368 0.9509022877972076 0.3155830939186168 3.519046275597715e-05 -0.019880596791402638 -1.8869806728758753 -1.453000545501709 -1.5832020244994105 2.395923137664795 -0.005972687398092091 -0.13670340180397034 -0.0009765583672560751 -0.02916583977639675 0.01058205310255289 0.9679192304611206 0.0004388825036585331 -0.29767274856567383 0.8776835203170776 0.5342575311660767 0.3522021472454071 0.5212290287017822 0.0567336268723011 -0.3378395736217499 0.997144877910614 0.6656494736671448 0.4386873245239258 0.4109881520271301 0.0030668789986521006 0.35388838340424034 -0.06983988125820983 0.2628099744723492 -1.6970093372292816 1.8775628001435984 0.9608650978797353 0.0024338649693783146 0.012049867524084337 0.055884500889403346 0.9466655713971943 0.0052925602886989345 -0.33938744673999327 -0.09614196297941033 -0.2306579397275223 0.20037168623911045 -0.0020196689372995857 -0.006493572396593648 0.005088366446545562 0.3538970683295625 -0.0698072356656698 0.26284696329868407 -1.6965296925231081 1.8771740478450256 0.9612374678727466 0.00265066322122761 0.013245234470647516 0.05647528341307182 0.9565342298008599 0.005456629899516587 -0.339623528051682 0 31.375 33.3125 35.125 40.5625 43.8125 44.75 0.916272 7 253 253 253 253 253 253 1 -6.933608055114746 2.0685901641845703 -6.358999729156494 1.0 1.0 0.19157827484164128 47.88032913208008 47.93406677246094 0.8470799922943115 47.7282600402832 47.75692367553711 47.81425476074219 47.513267517089844 47.55626678466797 47.64226150512695 4 2 0.040777280204062884
6524.762 -0.020979957595540277 -1.8869869227784637 -1.4532587429287336 -1.583077630027665 2.4043904529402624 -0.005974118719235477 -0.13652757430015583 -0.0009290181987038645 -0.0299329419352226 0.010602457923376917 0.9891442928048428 0.00024769749354538995 -0.19272057341944426 -0.0013113901780579824 -0.04225295705616479 0.014966293667215483 1.3962634015954878 0.00034964660608176735 -0.3382699191570282 0.9966201186180115 0.6655668020248413 0.4387965500354767 0.41323381662368774 0.003101696725934744 -0.18836255368293267 11.023987304623068 7.2588464764673155 0.951241024720476 0.3171101636879298 3.464811368777447e-05 -0.020919148121969044 -1.8868957958617152 -1.4532852172851562 -1.5831457577147425 2.4036970138549805 -0.005925957356588185 -0.13931402564048767 -0.0007544778054580092 -0.02939239889383316 0.009553592652082443 0.9973909258842468 0.0003437792183831334 -0.27194684743881226 0.8551299571990967 0.5183057188987732 0.3774028718471527 0.49176377058029175 0.049490220844745636 -0.3382699191570282 0.9966201186180115 0.6655668020248413 0.4387965500354767 0.41323381662368774 0.003101696725934744 0.35389420207481026 -0.06972385814894615 0.2632774843103575 -1.6896842707033923 1.8734485420683284 0.9658122249067954 0.0027533843252493997 0.012427007851002252 0.05823435727233958 0.9754845510907675 0.004801490568192088 -0.34824388360387887 0.12544148652072304 -0.25116242601650535 0.014376917248657528 -0.00012630581778537734 -0.006497130246598926 0.009681956634067151 0.3539191645418746 -0.06970282851464488 0.2633032182256124 -1.6891096537236217 1.8729953451695052 0.9662274419475161 0.0028740748465934697 0.012852765578117327 0.057590423592365075 0.9674318530577729 0.004471141879777344 -0.3436570786482441 0 31.375 33.3125 35.125 40.5625 43.8125 44.75 0.912516 7 253 253 253 253 253 253 1 -7.680599212646484 2.1068973541259766 -6.110002517700195 1.0 1.0 0.19391406326152483 47.90630340576172 47.95735549926758 0.8023208975791931 47.713924407958984 47.77125549316406 47.77125549316406 47.513267517089844 47.57059860229492 47.656593322753906 4 2 0.04518624640057011
6524.7699999999995 -0.022078345248290887 -1.8869943968885394 -1.4534995585588417 -1.5829923314428802 2.4123482877115525 -0.005972125950595597 -0.13806933888751133 -0.0009395093201283281 -0.030270965591671917 0.010722188272714638 1.0003144000176065 0.00025049466639404404 -0.19272057341944426 -0.0013113901780579282 -0.04225295705616479 0.014966293667215483 1.3962634015954323 0.00034964660608176735 -0.33870112895965576 0.9960457682609558 0.6654804348945618 0.43890827894210815 0.41549646854400635 0.003136508399620652 -0.18868238737452006 11.024152371263078 7.258973736375433 0.9515919992601142 0.3187063095284599 3.408217341249125e-05 -0.0220111052142542 -1.8869434795775355 -1.4535592794418335 -1.5830184421935023 2.4118306636810303 -0.006008450184957326 -0.13835686445236206 -0.0015529956435784698 -0.030330060049891472 0.011386055499315262 1.0106929540634155 0.00031955246231518686 -0.3078233003616333 0.8974571228027344 0.5289932489395142 0.3864981532096863 0.410234659910202 0.07243184745311737 -0.33870112895965576 0.9960457682609558 0.6654804348945618 0.43890827894210815 0.41549646854400635 0.003136508399620652 0.35392492869740466 -0.06960925047776521 0.26373346820285387 -1.6821075128009475 1.8690225814464305 0.9709422451374046 0.003344571581976071 0.013008355904931372 0.05919037984767474 0.9884608510639513 0.0033978121172835237 -0.35023352236857014 -0.11305792203829726 -0.04956140179936566 0.38235365464949944 -0.009406447286232139 -0.010267196247285747 0.004936261831935448 0.35394306432758976 -0.06960165263886021 0.26376844150887147 -1.6816044937170378 1.8687512805465256 0.9712362170385177 0.003101536402885831 0.012437338155443824 0.058717350671341165 0.9783273452703225 0.003450011591953725 -0.34769587658083956 0 31.375 33.3125 35.125 40.5625 43.8125 44.75 0.907033 7 253 253 253 253 253 253 1 -6.780379295349121 1.8387469053268433 -6.26323127746582 1.0 1.0 0.19625571084078428 47.91078186035156 47.958251953125 0.7418897151947021 47.742591857910156 47.78559112548828 47.77125549316406 47.55626678466797 47.584930419921875 47.670928955078125 4 2 0.04347671071629068
6524.777999999999 -0.02318906701774015 -1.8870019549275856 -1.453743078378201 -1.582906075015302 2.420395483340544 -0.005970110804573103 -0.13961110347486683 -0.0009500004415527917 -0.030608989248121235 0.010841918622052358 1.0114845072303702 0.0002532918392426981 -0.19272057341944426 -0.0013113901780579282 -0.04225295705616479 0.014966293667215483 1.3962634015954878 0.00034964660608176735 -0.3391328752040863 0.9954653382301331 0.6654067039489746 0.4390265941619873 0.4170153737068176 0.003171317745000124 -0.18900844921283833 11.024339454900622 7.259181247752334 0.9519688335773248 0.3202924187289109 3.3506421569044146e-05 -0.023131672536031544 -1.8869196377196253 -1.453752875328064 -1.5829302273192347 2.4199748039245605 -0.0059502760516565445 -0.13940873742103577 -0.0009962854674085975 -0.031223244965076447 0.01027640700340271 1.0135729312896729 0.0003030529187526554 -0.30658677220344543 0.8749448657035828 0.5508419275283813 0.3912346363067627 0.38574355840682983 0.05259786173701286 -0.3391328752040863 0.9954653382301331 0.6654067039489746 0.4390265941619873 0.4170153737068176 0.003171317745000124 0.35395396745641816 -0.06950886712440799 0.2642392863234122 -1.6744029166404448 1.8646631979749075 0.9759674423280124 0.0032555654172395053 0.01223140053993517 0.05974337962349144 0.9912893526431463 0.003674103848165732 -0.3519612414285524 0.024681334738116418 -0.2416220617208829 0.3059778736987969 -0.0034246956880487857 -0.008650750318160216 0.0068216624260770825 0.3539687995920409 -0.06950389357120036 0.2642427269051296 -1.6740143132970942 1.8644413480875528 0.9762626243411682 0.0033329230991107697 0.011998485482972741 0.059855928167778266 0.9892206152158947 0.002392841081251882 -0.35173998030139325 0 31.375 33.3125 35.125 40.5625 43.8125 44.75 0.944832 7 253 253 253 253 253 253 1 -6.818686485290527 2.049436569213867 -6.186616897583008 1.0 1.0 0.19860331302664946 47.91794967651367 47.96004104614258 0.7530794739723206 47.75692367553711 47.78559112548828 47.77125549316406 47.54193115234375 47.584930419921875 47.656593322753906 4 2 0.04352031283359936
6524.786 -0.024312122903888955 -1.887009596895604 -1.4539893023868116 -1.5828188607449274 2.428532039827238 -0.005968073281167996 -0.14115286806222233 -0.0009604915629772554 -0.03094701290457055 0.010961648971390079 1.0226546144431339 0.0002560890120913522 -0.19272057341944426 -0.0013113901780579824 -0.042252957056163054 0.014966293667215483 1.3962634015953768 0.00034964660608176735 -0.339565247297287 0.9949116110801697 0.6653069853782654 0.4391322135925293 0.4184524714946747 0.003206123597919941 -0.18934083895855489 11.024639224351505 7.2591471562527765 0.9522964875457197 0.3218672990963941 3.29192223258724e-05 -0.02426320711244756 -1.8869677982726039 -1.4539762735366821 -1.582891126672262 2.428105115890503 -0.006038967763082326 -0.14085039496421814 -0.0010685869492590427 -0.030691538006067276 0.010796085000038147 1.0135303735733032 0.00027652696007862687 -0.33021923899650574 0.8941047191619873 0.5449440479278564 0.38132405281066895 0.4051894545555115 0.07547664642333984 -0.339565247297287 0.9949116110801697 0.6653069853782654 0.4391322135925293 0.4184524714946747 0.003206123597919941 0.3539843713560631 -0.06941793888095514 0.2647106806582986 -1.6667801790031718 1.8602472755333386 0.9810356174478501 0.003467321033854883 0.011126340789178443 0.06038391952726867 0.9911863825614943 0.0015578100827126605 -0.3536040659892378 -0.11058248926345043 -0.22416754588959156 0.22134160407766051 -0.0030841829894066143 -0.0069598227307839785 0.004002695285535203 0.3539964012117194 -0.06940974059145294 0.26472616703451973 -1.6663392205097074 1.8600650412718538 0.9813054883180612 0.0035681024886371777 0.011535737588548048 0.06100600839506054 1.0001115694158271 0.0012992326500110335 -0.3557894482425592 0 31.375 33.3125 35.125 40.5625 43.8125 44.75 0.906985 7 253 253 253 253 253 253 1 -7.259219646453857 2.0685901641845703 -6.205770492553711 1.0 1.0 0.20095696489134962 47.89913558959961 47.952877044677734 0.7486078143119812 47.7282600402832 47.81425476074219 47.75692367553711 47.55626678466797 47.55626678466797 47.656593322753906 4 2 0.042657245810129744
6524.794 -0.025447512906736414 -1.8870173227925937 -1.4542382305846742 -1.5827306886317594 2.4367579571716345 -0.005966013380380275 -0.14269463264957782 -0.0009709826844017189 -0.03128503656101987 0.011081379320727799 1.0338247216558978 0.0002588861849400063 -0.19272057341944426 -0.0013113901780579282 -0.042252957056166524 0.014966293667214615 1.3962634015954878 0.00034964660608176735 -0.3399979770183563 0.9943127632141113 0.6652364730834961 0.43925386667251587 0.41988489031791687 0.003240927355363965 -0.1896760800414929 11.02460768256109 7.2594056227595685 0.952686068916912 0.32342280583549965 3.2324703825847454e-05 -0.025430981312887013 -1.8869816265501917 -1.4542236328125 -1.5827671490111292 2.436227560043335 -0.005993668233053029 -0.14319396018981934 -0.0014043807750567794 -0.031687840819358826 0.010231951251626015 1.0254735946655273 0.0003061636525671929 -0.28696054220199585 0.8658748865127563 0.5573732256889343 0.3914312720298767 0.4640348255634308 0.0646863579750061 -0.3399979770183563 0.9943127632141113 0.6652364730834961 0.43925386667251587 0.41988489031791687 0.003240927355363965 0.3540135165093904 -0.06934500493072936 0.26519690795435386 -1.6590400169983697 1.8559168102672932 0.986001012828187 0.0035644932685581186 0.010416601726599452 0.06123945749109264 1.0028712482641287 0.002077315956008808 -0.3586088126999308 0.010897343800228339 -0.25435190655125717 0.25573021852871397 -0.0032633942894437036 -0.010306292687572806 0.005268915959728198 0.354025898972377 -0.06931938675150767 0.2652188532901591 -1.6585793307764927 1.855621853071158 0.986363626904808 0.00380693430632292 0.011048621453376803 0.06216743225049688 1.011000112110685 0.00016878886647484916 -0.3598443388180084 0 31.375 33.3125 35.125 40.5625 43.8125 44.75 0.918432 7 253 253 253 253 253 253 1 -7.642292022705078 1.9345149993896484 -5.784391403198242 1.0 1.0 0.20331676108613161 47.90630340576172 47.94839859008789 0.7597975730895996 47.742591857910156 47.799922943115234 47.77125549316406 47.5275993347168 47.57059860229492 47.656593322753906 4 2 0.04237646254911353
6524.802 -0.026595237026282526 -1.8870251326185539 -1.454489862971788 -1.582641558675796 2.445073235373733 -0.005963931102209052 -0.14423639723693332 -0.0009814738058261825 -0.03162306021746919 0.01120110967006552 1.0449948288686615 0.0002616833577886604 -0.19272057341944426 -0.0013113901780579824 -0.042252957056166524 0.014966293667214615 1.3962634015954878 0.00034964660608176735 -0.3404320180416107 0.9937535524368286 0.6651501059532166 0.43936997652053833 0.4213276505470276 0.0032757252920418978 -0.19002534421595663 11.024953869477523 7.25948572198563 0.9530553616919213 0.3250167459359037 3.170965102136479e-05 -0.026559178029195607 -1.887001176873678 -1.4544966220855713 -1.5826794109740199 2.4446113109588623 -0.005968395863668263 -0.14680732786655426 -0.0014449323061853647 -0.03253002464771271 0.010056106373667717 1.0395207405090332 0.0004746640915982425 -0.2386539727449417 0.8659797310829163 0.5803892016410828 0.3990381956100464 0.43445736169815063 0.04925420880317688 -0.3404320180416107 0.9937535524368286 0.6651501059532166 0.43936997652053833 0.4213276505470276 0.0032757252920418978 0.3540460180869132 -0.06924732995449688 0.26569311770745097 -1.6511373067102904 1.851395146315576 0.991172397697173 0.003634457927754988 0.009343500925165373 0.06243615102427247 1.0165632930281678 0.0018338987796673396 -0.365483419892437 -0.04852068954077829 -0.0191908751563325 0.3242034275274421 -0.0047781947641349545 -0.008554104588638846 0.007227450370065188 0.35405732150582875 -0.06923302889887469 0.2657208757459737 -1.6507347670159922 1.851111276073541 0.9914358517171433 0.004049270305666852 0.010536661228100347 0.06334002900348026 1.021886145235568 -0.0009988874262387266 -0.36390471042272654 0 31.375 33.3125 35.125 40.5625 43.8125 44.75 0.908797 7 253 253 253 253 253 253 1 -6.4164605140686035 1.8004395961761475 -5.746084213256836 1.0 1.0 0.20568279579798562 47.89913558959961 47.9394416809082 0.7172743082046509 47.7282600402832 47.81425476074219 47.799922943115234 47.54193115234375 47.57059860229492 47.670928955078125 4 2 0.041950707248225506
6524.8099999999995 -0.027751320648188305 -1.8870329993277482 -1.4547433281351747 -1.582551779537626 2.453449078293929 -0.005961833657667448 -0.14454043006457787 -0.0009835426335434627 -0.03168971779212351 0.011224720250411288 1.0471975511965976 0.0002622349545613204 0.0 0.0 0.0 0.0 0.0 0.0 -0.31697002053260803 0.9906600117683411 0.6663008332252502 0.43891429901123047 0.395679235458374 0.003272622125223279 -0.008514590077113849 11.007369774072519 7.268895601342335 0.9514887841955222 0.2260848609115624 -1.5124205031055665e-05 -0.027653996144429982 -1.8870612583556117 -1.4548065662384033 -1.5825592480101527 2.4529781341552734 -0.006000820790426076 -0.1414886713027954 -0.0019240044057369232 -0.030440554022789 0.012625682167708874 1.0414941310882568 0.0004704874299932271 -0.27507686614990234 0.8634462356567383 0.5620412230491638 0.40040647983551025 0.42222893238067627 0.062635138630867 -0.31697002053260803 0.9906600117683411 0.6663008332252502 0.43891429901123047 0.395679235458374 0.003272622125223279 0.35408494195105356 -0.06914396558650049 0.26616970356180786 -1.6433177947734245 1.846814055468417 0.9963274499255672 0.0047303499081505496 0.01069315236304938 0.06366497949632434 1.0183450397367353 -0.003500455894610014 -0.3608200338775828 -0.01184896997380247 -0.26972166726033175 0.47455307056890356 -0.006525686340305831 -0.01026614350145742 0.006188509577348462 0.35409057913370795 -0.06915114036008671 0.2662305638620288 -1.6428328268769703 1.8465485226713565 0.9965036168142898 0.004257805518219793 0.009916694805898137 0.06397406536404367 1.0240009594018757 -0.00218142018727359 -0.3648457629937466 0 31.375 33.3125 35.125 40.5625 43.8125 44.75 1.011097 7 253 253 253 253 253 253 1 -6.914454460144043 1.8962078094482422 -5.841852188110352 1.0 1.0 0.20656131423497975 47.865108489990234 47.920631408691406 0.7911257743835449 47.69959259033203 47.742591857910156 47.7282600402832 47.498931884765625 47.5275993347168 47.64226150512695 4 2 0.04191725311098462
6524.817999999999 -0.028907644088705275 -1.8870408676688166 -1.4549968458775115 -1.582461981775622 2.461826658703502 -0.005959735778031217 -0.14454043006457787 -0.0009835426335434627 -0.03168971779212351 0.011224720250411288 1.0471975511965976 0.0002622349545613204 0.0 0.0 0.0 0.0 0.0 0.0 -0.3272154629230499 0.9928206205368042 0.666253924369812 0.43909722566604614 0.39616072177886963 0.0032750458922237158 -0.008594349253292038 11.006631948155214 7.269000822500098 0.9518544648736019 0.22760852427853304 -1.5261261250962085e-05 -0.028838459645406544 -1.887003561059469 -1.4549964666366577 -1.5824791393675746 2.4611098766326904 -0.0059350172625940445 -0.14316648244857788 -0.001187807647511363 -0.029185187071561813 0.009968260303139687 1.0442837476730347 0.0005620110896416008 -0.2968735694885254 0.8757933974266052 0.5383858680725098 0.42457669973373413 0.5042333602905273 0.05426684394478798 -0.3272154629230499 0.9928206205368042 0.666253924369812 0.43909722566604614 0.39616072177886963 0.0032750458922237158 0.3541129397162191 -0.06909109761587791 0.26670662960092617 -1.6355556555586992 1.8423987077326898 1.0010943782768797 0.004706630521621289 0.009636590651071676 0.06476444712455286 1.0210551394462133 -0.004032672768635673 -0.363209053894003 -0.14824362283393638 -0.17219052512385857 0.30759949179475765 -0.002994070955825358 -0.011168065919417557 0.005384192398273333 0.3541254312881577 -0.06907439228234385 0.2667443417612178 -1.6349291484254072 1.8419655350565676 1.0015309969373094 0.004454707170182998 0.009269517745070975 0.06446954926437305 1.023960364911622 -0.0033620164339235358 -0.3650197668145357 0 31.375 33.3125 35.125 40.5625 43.8125 44.75 0.91398 7 253 253 253 253 253 253 1 -7.680599212646484 1.6280571222305298 -5.746084213256836 1.0 1.0 0.2067315492936235 47.9000358581543 47.94839859008789 0.7486078143119812 47.7282600402832 47.78559112548828 47.7282600402832 47.54193115234375 47.55626678466797 47.64226150512695 4 2 0.04407270654479375
6524.826 -0.030063967529221358 -1.887048736009885 -1.4552503636198484 -1.582372184013619 2.4702042391130745 -0.005957637898394985 -0.14454043006457787 -0.0009835426335434627 -0.03168971779212351 0.011224720250411288 1.0471975511965976 0.0002622349545613204 0.0 0.0 0.0 0.0 0.0 0.0 -0.32310348749160767 0.9919390678405762 0.6662654876708984 0.4391469359397888 0.39652541279792786 0.0032739967573434114 -0.008674354216965722 11.006754918516553 7.268927475025253 0.9521718373051917 0.22912419905287038 -1.5398089302801144e-05 -0.030013863240377248 -1.887003561059469 -1.4552520513534546 -1.58237948040151 2.4695088863372803 -0.005936924611226857 -0.14335772395133972 -0.0007270953501574695 -0.03200234845280647 0.010629905387759209 1.061394453048706 0.0007015136070549488 -0.30524972081184387 0.8701448440551758 0.5544154047966003 0.42291533946990967 0.41339215636253357 0.060608066618442535 -0.32310348749160767 0.9919390678405762 0.6662654876708984 0.4391469359397888 0.39652541279792786 0.0032739967573434114 0.35414784037448055 -0.06902461032068949 0.26722844207879853 -1.6276215037471196 1.8377823084458276 1.0060718428880133 0.004838445021029482 0.009904646838881606 0.06587547758191188 1.0377661129314821 -0.0038514664390325156 -0.3672361783520676 -0.2714889674686516 -0.16623406832632937 0.2437561848950923 -0.0006328763743640908 -0.012425716967333997 0.001727030892193511 0.3541618459924933 -0.06900284091496178 0.2672620628417758 -1.6270255118539538 1.8373633691769717 1.006517067243558 0.004648437856590368 0.00861752614974197 0.06495985499579918 1.0239183818651938 -0.004542535256545492 -0.3651937528874277 0 31.375 33.3125 35.125 40.5625 43.8125 44.75 0.956089 7 253 253 253 253 253 253 1 -7.967903137207031 1.6855180263519287 -5.669469833374023 1.0 1.0 0.20690269262740868 47.92242431640625 47.95735549926758 0.7150384783744812 47.75692367553711 47.78559112548828 47.78559112548828 47.54193115234375 47.57059860229492 47.656593322753906 4 2 0.050177625843805
6524.834 -0.03122029096973833 -1.8870566043509536 -1.4555038813621852 -1.5822823862516158 2.4785818195226472 -0.0059555400187578655 -0.14454043006457787 -0.0009835426335434627 -0.03168971779212351 0.011224720250411288 1.0471975511965976 0.0002622349545613204 0.0 0.0 0.0 0.0 0.0 0.0 -0.3231113851070404 0.9919620752334595 0.666254460811615 0.43922266364097595 0.3969304859638214 0.003273958107456565 -0.00875660567041345 11.007014602633346 7.268762444203514 0.9524606900196138 0.230674664378559 -1.5538553032143625e-05 -0.031110588704244435 -1.8870860538878382 -1.4555045366287231 -1.5823284588255824 2.4781064987182617 -0.006023232136861623 -0.14558307826519012 -0.0007055705646052957 -0.031951893121004105 0.012767629697918892 1.0535516738891602 0.0007763130124658346 -0.2977861762046814 0.8499505519866943 0.5622596740722656 0.42135339975357056 0.38940194249153137 0.0735253095626831 -0.3231113851070404 0.9919620752334595 0.666254460811615 0.43922266364097595 0.3969304859638214 0.003273958107456565 0.35419937154571385 -0.06892449919403355 0.2677361938979575 -1.6196484272549025 1.8329645811334694 1.0112588206637314 0.00491878289012823 0.007987132887793236 0.06600006159850394 1.029969385676079 -0.006928876901387651 -0.3681321430626946 0.04914583355693333 -0.3099894569928791 0.34180520350050625 -0.006297067995959355 -0.010906966549665522 0.0077973069450140205 0.35419979775624055 -0.06893652455924959 0.2677836855417903 -1.619122056905576 1.8327421358046272 1.0114619583921909 0.004838966945654083 0.007960773830032547 0.06544494847940492 1.0238750103508962 -0.005722975087229514 -0.36536772132581335 0 31.375 33.3125 35.125 40.5625 43.8125 44.75 0.918516 7 253 253 253 253 253 253 1 -6.876147270202637 2.317587375640869 -5.726930618286133 1.0 1.0 0.20707471999378338 47.86152267456055 47.91347122192383 0.7486078143119812 47.713924407958984 47.77125549316406 47.75692367553711 47.5275993347168 47.5275993347168 47.59926223754883 4 2 0.04622469883436416
6524.842 -0.03237661441025441 -1.887064472692022 -1.455757399104522 -1.5821925884896126 2.4869593999322204 -0.005953442139121634 -0.14454043006457787 -0.0009835426335434627 -0.03168971779212351 0.011224720250411288 1.0471975511965976 0.0002622349545613204 0.0 0.0 0.0 0.0 0.0 0.0 -0.3231191635131836 0.9919888377189636 0.666259765625 0.4393186569213867 0.3973296880722046 0.0032739199232310057 -0.00883781794871008 11.007277259901002 7.268778989671807 0.952824771538728 0.23220545671178683 -1.5677436625578706e-05 -0.03236371675600225 -1.8870274029173792 -1.455736756324768 -1.5822330913939417 2.486602306365967 -0.0059769789325159195 -0.14179396629333496 -0.000597152509726584 -0.030279291793704033 0.01223201584070921 1.0451003313064575 0.0012233946472406387 -0.3056110441684723 0.8577797412872314 0.5561776757240295 0.42172086238861084 0.3606715202331543 0.05973835289478302 -0.3231191635131836 0.9919888377189636 0.666259765625 0.4393186569213867 0.3973296880722046 0.0032739199232310057 0.3542292296888944 -0.06889072547881085 0.2682999251778307 -1.6115369060924447 1.8282940474310896 1.0161213431339549 0.005362139379367253 0.008178159899447673 0.06636098118467354 1.0216003545586196 -0.008873907861679672 -0.362909933352722 0.05695948729671011 -0.4144991654788164 0.3519951309995927 -0.00322332590366104 -0.012949713145273893 0.008076579480494287 0.3542392608452105 -0.06887548108439391 0.2683091680281939 -1.6112189220465964 1.8281019450312093 1.0163658009706045 0.00502626414101834 0.007299315006228019 0.06592479600576531 1.0238302504583956 -0.006903334357082274 -0.36554167224385997 0 31.375 33.3125 35.125 40.5625 43.8125 44.75 0.930265 7 253 253 253 253 253 253 1 -7.642292022705078 1.8962076902389526 -5.439626216888428 1.0 1.0 0.2072476076107226 47.92421340942383 47.962730407714844 0.7821771502494812 47.7282600402832 47.799922943115234 47.7282600402832 47.54193115234375 47.584930419921875 47.68526077270508 4 2 0.04585509721348744
6524.849999999999 -0.03353293785077138 -1.8870723410330896 -1.456010916846859 -1.5821027907276086 2.4953369803417926 -0.005951344259485403 -0.14454043006457787 -0.0009835426335434627 -0.03168971779212351 0.011224720250411288 1.0471975511965976 0.0002622349545613204 0.0 0.0 0.0 0.0 0.0 0.0 -0.32312655448913574 0.9919461607933044 0.6662550568580627 0.43941164016723633 0.3977111577987671 0.003273883368819952 -0.008915176188973266 11.00683698510562 7.268762428163145 0.9531838937950999 0.23366906842827415 -1.5810586079471236e-05 -0.03344279924501592 -1.8870440922179164 -1.4559834003448486 -1.5821291408934535 2.49479341506958 -0.005969826375142873 -0.14269369840621948 -0.0005518394173122942 -0.03015078976750374 0.011189548298716545 1.0417903661727905 0.0014177521225064993 -0.32100725173950195 0.8434706330299377 0.5239360332489014 0.41774195432662964 0.4365856945514679 0.0731363520026207 -0.32312655448913574 0.9919461607933044 0.6662550568580627 0.43941164016723633 0.3977111577987671 0.003273883368819952 0.3542750899559874 -0.0688177643873568 0.2688155383335055 -1.6038634601021715 1.8237070037066618 1.0208945520707113 0.005355111190527843 0.007028330749449134 0.06656594995766832 1.0183263752028298 -0.008850803423006955 -0.363386510898223 -0.029892799705022594 -0.2960020481464077 0.20794233223630096 -0.0026847439969806554 -0.015449709530519596 0.0085844029010863 0.35428020928419596 -0.06881974792419346 0.26883846819973 -1.603316244477038 1.823442906271428 1.0212287254873014 0.005210299484937904 0.006633204304313779 0.0663993642372955 1.0237841022787255 -0.008083611496227515 -0.36571560575649953 0 31.375 33.3125 35.125 40.5625 43.8125 44.75 0.91284 7 253 253 253 253 253 253 1 -7.412448883056641 1.9345149993896484 -5.382165431976318 1.0 1.0 0.20742133215217318 47.91078186035156 47.962730407714844 0.8291773796081543 47.742591857910156 47.799922943115234 47.75692367553711 47.513267517089844 47.55626678466797 47.670928955078125 4 2 0.04564337080499098
6524.857999999999 -0.034689261291288354 -1.887080209374158 -1.4562644345891957 -1.5820129929656055 2.503714560751366 -0.005949246379848283 -0.14454043006457787 -0.0009835426335434627 -0.03168971779212351 0.011224720250411288 1.0471975511965976 0.0002622349545613204 0.0 0.0 0.0 0.0 0.0 0.0 -0.3228989839553833 0.9919204711914062 0.6662540435791016 0.4394974708557129 0.3980966806411743 0.003273846348747611 -0.008993657920186237 11.006584880577748 7.268781861483859 0.9535120857737261 0.23514155765429415 -1.594503586243875e-05 -0.03464681306947881 -1.8870402775206507 -1.456256628036499 -1.5819970570006312 2.503328800201416 -0.005911175404683888 -0.14219002425670624 -0.0014309879625216126 -0.03135222569108009 0.00971157569438219 1.05054771900177 0.0011006606509909034 -0.34263837337493896 0.8335007429122925 0.554659366607666 0.4436652660369873 0.3746229112148285 0.034550197422504425 -0.3228989839553833 0.9919204711914062 0.6662540435791016 0.4394974708557129 0.3980966806411743 0.003273846348747611 0.3543162362450761 -0.06877526728318119 0.269361380645673 -1.5957521095805547 1.8189895462681622 1.0257861798023653 0.005581069936717578 0.0070091582202067085 0.06691549747574217 1.0269869009283057 -0.007023513736072717 -0.3646809234331312 -0.06302425758759794 -0.25160796659956447 0.3907316564522578 -0.0037317024604509455 -0.015713386062181076 0.007603748761133599 0.35432261685969235 -0.06876936207383003 0.26937154368993543 -1.5954141601409146 1.818765128266427 1.0260508623649125 0.005391043361423858 0.00596249675147497 0.06686862021057319 1.0237365659042958 -0.00926380493379308 -0.3658895219794282 0 31.4375 33.3125 35.125 40.5625 43.8125 44.75 0.906792 7 253 253 253 253 253 253 1 -7.354987621307373 1.8962076902389526 -5.382165431976318 1.0 1.0 0.2075958707273161 47.908992767333984 47.94750213623047 0.7530794739723206 47.713924407958984 47.77125549316406 47.81425476074219 47.54193115234375 47.57059860229492 47.656593322753906 4 2 0.04599508370260214
6524.866 -0.035845584731804436 -1.8870880777152266 -1.4565179523315335 -1.5819231952036024 2.5120921411609385 -0.005947148500212052 -0.14454043006457787 -0.0009835426335434627 -0.03168971779212351 0.011224720250411288 1.0471975511965976 0.0002622349545613204 0.0 0.0 0.0 0.0 0.0 0.0 -0.3229064345359802 0.9919675588607788 0.6662480235099792 0.43958455324172974 0.3984757363796234 0.0032738097943365574 -0.009071513209701612 11.007012792129258 7.2687352634147535 0.953846156121494 0.23659426727568098 -1.6078060760207525e-05 -0.03582221666444951 -1.8870398006834925 -1.4564875364303589 -1.5819860897459925 2.5116350650787354 -0.00595266023744756 -0.14182208478450775 -0.001817643060348928 -0.03128433600068092 0.01142708770930767 1.0394545793533325 0.0008703006315045059 -0.3330226242542267 0.8565838932991028 0.5388517379760742 0.43341511487960815 0.4102410674095154 0.04551412910223007 -0.3229064345359802 0.9919675588607788 0.6662480235099792 0.43958455324172974 0.3984757363796234 0.0032738097943365574 0.3543534190955551 -0.06874053941430792 0.2698965338059646 -1.5879071570743037 1.8143410596100007 1.030545480965605 0.005770272922369535 0.005865911503973351 0.06657804552581087 1.0160763693828911 -0.009465724476047745 -0.36204250183402026 0.02311160606202403 -0.2804211069667479 0.5703528080914849 -0.007320845481107162 -0.01553928816478779 0.011865627777738443 0.3543664571226449 -0.0687243600866772 0.26990835187014467 -1.5875128037364734 1.8140687190872025 1.0308323419333223 0.005568466499355263 0.005287247771561504 0.06733253133863362 1.0236876414288998 -0.01044391309790705 -0.3660634210290871 0 31.4375 33.3125 35.125 40.5625 43.8125 44.75 0.915013 7 253 253 253 253 253 253 1 -7.527370452880859 1.6663644313812256 -5.420472621917725 1.0 1.0 0.20777120086844222 47.91794967651367 47.96630859375 0.7396538853645325 47.75692367553711 47.81425476074219 47.78559112548828 47.54193115234375 47.584930419921875 47.656593322753906 4 2 0.045781865203387534
6524.874 -0.03700190817232141 -1.887095946056295 -1.4567714700738703 -1.5818333974415992 2.520469721570511 -0.00594505062057582 -0.14454043006457787 -0.0009835426335434627 -0.03168971779212351 0.011224720250411288 1.0471975511965976 0.0002622349545613204 0.0 0.0 0.0 0.0 0.0 0.0 -0.3229137361049652 0.9919610619544983 0.6662386655807495 0.439677894115448 0.398847758769989 0.003273773705586791 -0.009147677440062467 11.007086525499934 7.26867723631879 0.9542011155135872 0.23801884753128 -1.6208839550182007e-05 -0.03696901002992803 -1.8870932064452113 -1.4567233324050903 -1.5818258724608363 2.5198285579681396 -0.005936924611226857 -0.14284256100654602 -0.002311035757884383 -0.0316210500895977 0.012369866482913494 1.0406746864318848 0.0008079368271864951 -0.31648382544517517 0.83916175365448 0.5227358937263489 0.4318332076072693 0.4594855010509491 0.048295263200998306 -0.3229137361049652 0.9919610619544983 0.6662386655807495 0.439677894115448 0.398847758769989 0.003273773705586791 0.3544083679865584 -0.06870746625822356 0.2704172254792448 -1.5801638316074365 1.8097285953443054 1.035145536893546 0.0059745066561428944 0.004905649579495297 0.06690999791990877 1.0172353795205908 -0.010826452108081632 -0.36340468166198214 -0.003719552572843919 -0.17773312632509833 0.4532255958961332 -0.004161944629089785 -0.016145316930033814 0.009016384676526521 0.35441170339121947 -0.06868477807114855 0.2704488498525103 -1.5796123087263576 1.8093537861380327 1.0355732944229503 0.005742539975558125 0.004607513180516505 0.0677910654132386 1.023637328947721 -0.011623934415694023 -0.3662373030226581 0 31.4375 33.3125 35.125 40.5625 43.8125 44.75 0.912936 7 253 253 253 253 253 253 1 -6.799532890319824 1.9728221893310547 -5.458779811859131 1.0 1.0 0.20794730052420723 47.90719985961914 47.958251953125 0.7575564384460449 47.7282600402832 47.81425476074219 47.75692367553711 47.54193115234375 47.55626678466797 47.656593322753906 4 2 0.04583872986365617
6524.882 -0.03815823161283749 -1.8871038143973635 -1.4570249878162072 -1.581743599679596 2.528847301980084 -0.005942952740938701 -0.14454043006457787 -0.0009835426335434627 -0.03168971779212351 0.011224720250411288 1.0471975511965976 0.0002622349545613204 0.0 0.0 0.0 0.0 0.0 0.0 -0.32292091846466064 0.9919915199279785 0.666224479675293 0.43975722789764404 0.3987988829612732 0.0032737385481595993 -0.009222035718456255 11.007271839007426 7.268535446786723 0.9545036798813686 0.23940017950077333 -1.6336172452498744e-05 -0.038088623677388966 -1.8870636425414027 -1.4570273160934448 -1.581700941125387 2.5281600952148438 -0.0059617201434534195 -0.14221198856830597 -0.0015553385019302368 -0.03140614181756973 0.011428946629166603 1.0522762537002563 0.0006240444490686059 -0.3689895570278168 0.8512171506881714 0.5203920006752014 0.4181640148162842 0.45788729190826416 0.048352666199207306 -0.32292091846466064 0.9919915199279785 0.666224479675293 0.43975722789764404 0.3987988829612732 0.0032737385481595993 0.35444890741319857 -0.06866202488463195 0.2709594360567329 -1.5723663037408155 1.8049644859236136 1.0398040934167343 0.006258167756536252 0.0050687278876223735 0.06847027398708304 1.0285354748163964 -0.012519938709978463 -0.36527984144536646 -0.2264943325887649 -0.26813643946882815 0.36755476428263345 -0.0032873728385526216 -0.016313960626830142 0.006800576038411247 0.35445832875359873 -0.06865065168757703 0.27099299449304043 -1.5717128073477287 1.8046204361599045 1.0402738499581659 0.005913235217850855 0.003923349181771119 0.06824419060711812 1.0235856285573417 -0.012803867313262409 -0.36641116807805785 0 31.4375 33.3125 35.125 40.5625 43.875 44.75 0.908713 7 253 253 253 253 253 253 1 -8.427589416503906 1.8195931911468506 -4.8267107009887695 1.0 1.0 0.20812414803721277 47.93675231933594 47.96630859375 0.8202234506607056 47.7282600402832 47.78559112548828 47.77125549316406 47.54193115234375 47.584930419921875 47.656593322753906 4 2 0.04721105752978411
6524.889999999999 -0.03931455505335446 -1.887111682738432 -1.457278505558544 -1.581653801917593 2.5372248823896566 -0.005940854861302469 -0.14454043006457787 -0.0009835426335434627 -0.03168971779212351 0.011224720250411288 1.0471975511965976 0.0002622349545613204 0.0 0.0 0.0 0.0 0.0 0.0 -0.32292822003364563 0.9919838905334473 0.6662340760231018 0.43985289335250854 0.3991695046424866 0.003273702459409833 -0.009298244516250125 11.007160149582447 7.268596552145608 0.9548712718295307 0.24081632995454544 -1.646696941162377e-05 -0.03914338747133428 -1.8870917759337367 -1.4572433233261108 -1.5816618404784144 2.536677122116089 -0.005945984517232716 -0.14489564299583435 -0.0016309513011947274 -0.031941670924425125 0.012549140490591526 1.059773325920105 0.0004324093461036682 -0.3181734085083008 0.8586304187774658 0.5266950130462646 0.4321996867656708 0.4009363353252411 0.024495603516697884 -0.32292822003364563 0.9919838905334473 0.6662340760231018 0.43985289335250854 0.3991695046424866 0.003273702459409833 0.35450929103952317 -0.06858984364716089 0.2715168193608944 -1.5644452009751066 1.8000947620199592 1.0446370862730447 0.006407031092194218 0.0038038908676142485 0.06938284857050245 1.0358012856020704 -0.014519776797484528 -0.3696451401913438 -0.045737349446397985 -0.37709176825769464 0.36158266973720804 -0.005960384839036603 -0.015909536321705886 0.00923825834443295 0.35450630607080125 -0.06862201614513115 0.2715407423946569 -1.56381443062232 1.7998687752339426 1.0449341385508093 0.006080524008056105 0.003234812361604049 0.06869187547618531 1.0235325403557491 -0.013983710215705433 -0.36658501631392604 0 31.4375 33.3125 35.125 40.5625 43.875 44.75 0.911472 7 253 253 253 253 253 253 1 -7.987056732177734 2.4133553504943848 -5.190629482269287 1.0 1.0 0.2083017221408014 47.914363861083984 47.956459045410156 0.7374180555343628 47.7282600402832 47.81425476074219 47.77125549316406 47.54193115234375 47.57059860229492 47.656593322753906 4 2 0.04847061721714666
6524.898 -0.04047087849387143 -1.8871195510795005 -1.4575320233008817 -1.5815640041555898 2.5456024627992297 -0.005938756981666238 -0.14454043006457787 -0.0009835426335434627 -0.03168971779212351 0.011224720250411288 1.0471975511965976 0.0002622349545613204 0.0 0.0 0.0 0.0 0.0 0.0 -0.3229355216026306 0.991995096206665 0.6662300825119019 0.43995338678359985 0.3995366394519806 0.0032736666034907103 -0.00937426863100978 11.00731036716059 7.268609013905073 0.9552517491309747 0.24222532349187487 -1.659750088632556e-05 -0.04033071199526006 -1.8871003590025843 -1.457553744316101 -1.5815102062621058 2.54512882232666 -0.005883042012349904 -0.14468589425086975 -0.0025283871218562126 -0.032392170280218124 0.013084681704640388 1.052329659461975 0.00036656815791502595 -0.38436535000801086 0.8579217195510864 0.517805814743042 0.4157083034515381 0.37101757526397705 0.029313471168279648 -0.3229355216026306 0.991995096206665 0.6662300825119019 0.43995338678359985 0.3995366394519806 0.0032736666034907103 0.35455569149438865 -0.06857341430495686 0.27206159638659516 -1.5564130116052768 1.7953508354960457 1.049314400493144 0.006548745602205896 0.0027866066584947627 0.06887501416961651 1.0285168658770092 -0.014726711726994727 -0.36798528587717666 0.09068825409027897 -0.2066316491376523 0.4083816589354394 -0.008583990459088113 -0.017728214586795108 0.012562031527934909 0.35455560797952673 -0.06859890619877645 0.27209204991026864 -1.5559173083664315 1.79509890878486 1.0495542900938661 0.00624437848497684 0.0025419596844668962 0.0691340889617239 1.023478064442345 -0.01516346154708861 -0.36675884784961854 0 31.4375 33.3125 35.125 40.5625 43.875 44.75 0.932773 7 253 253 253 253 253 253 1 -7.929595947265625 1.9728221893310547 -5.228936672210693 1.0 1.0 0.20848000194247768 47.91884231567383 47.94839859008789 0.7105615139007568 47.7282600402832 47.78559112548828 47.77125549316406 47.5275993347168 47.55626678466797 47.64226150512695 4 2 0.04858548646720399
6524.906 -0.041627201934387514 -1.887127419420569 -1.4577855410432186 -1.5814742063935858 2.5539800432088025 -0.005936659102030006 -0.14454043006457787 -0.0009835426335434627 -0.03168971779212351 0.011224720250411288 1.0471975511965976 0.0002622349545613204 0.0 0.0 0.0 0.0 0.0 0.0 -0.3229426443576813 0.9919589757919312 0.6662173867225647 0.44003745913505554 0.3998957574367523 0.0032736314460635185 -0.00944862746501109 11.007033214866022 7.268456137032224 0.9555789031059206 0.24360083204159477 -1.6725512807521998e-05 -0.041515652333394826 -1.8871127567686976 -1.4577219486236572 -1.5815149746336878 2.553553819656372 -0.005981747304097951 -0.14443115890026093 -0.001429151394404471 -0.03166913613677025 0.009789615869522095 1.0403239727020264 0.0002930103801190853 -0.4056180715560913 0.8487042784690857 0.5345168113708496 0.4138612151145935 0.3925730586051941 0.01378136407583952 -0.3229426443576813 0.9919589757919312 0.6662173867225647 0.44003745913505554 0.3998957574367523 0.0032736314460635185 0.3546086375071457 -0.06856352610893848 0.27263530251403933 -1.5485198936873312 1.790462637308048 1.053877609355744 0.006236831108566826 0.0015723363795039427 0.06877973566235482 1.0167871579947374 -0.01409666962998682 -0.36534902650847506 -0.09113057775243497 -0.22526172396064295 0.21500991544078166 -0.003548475741184518 -0.017874243176021848 0.010039720218249736 0.35460620689502315 -0.06858135614626312 0.27264687314586383 -1.5480215692008734 1.7903109415843843 1.0541344343552432 0.006404771147339476 0.0018448484882766514 0.06957080039254866 1.0234222009179528 -0.01634311973044657 -0.36693266280519343 0 31.4375 33.3125 35.125 40.5625 43.875 44.75 0.919728 7 253 253 253 253 253 253 1 -6.952761650085449 1.723825216293335 -5.228936672210693 1.0 1.0 0.20865896691060049 47.91615295410156 47.97437286376953 0.7642692923545837 47.742591857910156 47.799922943115234 47.77125549316406 47.55626678466797 47.55626678466797 47.656593322753906 4 2 0.04791527958743324
6524.914 -0.042783525374904485 -1.8871352877616374 -1.4580390587855554 -1.5813844086315827 2.562357623618375 -0.005934561222392887 -0.14454043006457787 -0.0009835426335434627 -0.03168971779212351 0.011224720250411288 1.0471975511965976 0.0002622349545613204 0.0 0.0 0.0 0.0 0.0 0.0 -0.32294961810112 0.9920431971549988 0.6661980748176575 0.44012966752052307 0.40024298429489136 0.0032735972199589014 -0.009521247320162808 11.007943655910866 7.268341775925924 0.9559270969318688 0.24493081873369266 -1.6849621846141306e-05 -0.04268390337099248 -1.8870998821654261 -1.4580156803131104 -1.5813709698119105 2.5618505477905273 -0.005943600331441701 -0.14687363803386688 -0.0009996207663789392 -0.03048842027783394 0.011873405426740646 1.0428166389465332 0.00024072320957202464 -0.3569326102733612 0.8435506224632263 0.5087664723396301 0.4098667502403259 0.4410758316516876 0.04055097699165344 -0.32294961810112 0.9920431971549988 0.6661980748176575 0.44012966752052307 0.40024298429489136 0.0032735972199589014 0.35465484786703605 -0.06855937206615664 0.27318739285423377 -1.5406608882411337 1.7857309435778108 1.0583503998279968 0.006485617688667969 0.00013295488302338815 0.0700282839381685 1.019036172498397 -0.0191085940776222 -0.3684231975479711 -0.08564665174856156 -0.3200456177589526 0.10695244598462063 -0.0029021907391546115 -0.018358890411723797 0.008424755521275563 0.35465807501397706 -0.0685693998251628 0.273205167963618 -1.5401273405608298 1.78550497775472 1.058674700971691 0.006561674856701548 0.0011435364796740302 0.07000197948713792 1.0233649498848238 -0.0175226831877797 -0.36710646130141195 0 31.4375 33.3125 35.125 40.5625 43.875 44.75 0.919272 7 253 253 253 253 253 253 1 -8.178592681884766 1.9728221893310547 -4.845864295959473 1.0 1.0 0.2088385968718433 47.90361404418945 47.93406677246094 0.7844129800796509 47.656593322753906 47.81425476074219 47.77125549316406 47.5275993347168 47.584930419921875 47.64226150512695 4 2 0.04787220111117803
6524.922 -0.04393984881542057 -1.887143156102705 -1.4582925765278922 -1.5812946108695796 2.570735204027948 -0.005932463342756655 -0.14454043006457787 -0.0009835426335434627 -0.03168971779212351 0.011224720250411288 1.0471975511965976 0.0002622349545613204 0.0 0.0 0.0 0.0 0.0 0.0 -0.3229566812515259 0.9920207262039185 0.6662057042121887 0.4402311444282532 0.40059712529182434 0.0032735622953623533 -0.009594840624062557 11.007730257944363 7.26840414586024 0.9563151411549787 0.24628536313628374 -1.697636738863919e-05 -0.04378873506654912 -1.8870707950987757 -1.4581925868988037 -1.5812345943846644 2.570330858230591 -0.005908791218892873 -0.14586637914180756 -0.001121030654758215 -0.031130842864513397 0.012044777162373066 1.0428982973098755 0.00020427664276212454 -0.3684595823287964 0.8738800287246704 0.49284985661506653 0.4229590892791748 0.40762728452682495 0.02062157914042473 -0.3229566812515259 0.9920207262039185 0.6662057042121887 0.4402311444282532 0.40059712529182434 0.0032735622953623533 0.3547202308090107 -0.0685296812273915 0.2737948264288719 -1.532764437941251 1.780737606283541 1.06279767094421 0.00665420846454395 -0.00021476460803194347 0.07025449586488333 1.0191196939846798 -0.019674019410404017 -0.367421318543398 -0.21734554921988933 -0.09305527815341108 0.38237181249545693 -0.005472122080816447 -0.0192386027428823 0.005646977698838715 0.3547111843174289 -0.06856307060993173 0.2737668899850207 -1.5322347487056938 1.7806811207719815 1.0631752194428257 0.006715062840324125 0.00043808172924905686 0.0704275963557392 1.023306311446648 -0.018702150340041957 -0.3672802434597192 0 31.4375 33.3125 35.125 40.5625 43.875 44.75 0.917905 7 253 253 253 253 253 253 1 -7.450756072998047 1.589749813079834 -4.845864295959473 1.0 1.0 0.20901887198895797 47.91078186035156 47.94302749633789 0.7732232213020325 47.7282600402832 47.799922943115234 47.77125549316406 47.54193115234375 47.55626678466797 47.68526077270508 4 2 0.047417623649203246
6524.929999999999 -0.04509617225593754 -1.8871510244437735 -1.458546094270229 -1.5812048131075764 2.5791127844375206 -0.005930365463120424 -0.14454043006457787 -0.0009835426335434627 -0.03168971779212351 0.011224720250411288 1.0471975511965976 0.0002622349545613204 0.0 0.0 0.0 0.0 0.0 0.0 -0.3229634463787079 0.9920428395271301 0.6661977767944336 0.44031888246536255 0.4009341895580292 0.003273529000580311 -0.009665624465034947 11.007785589989403 7.2683167158158115 0.956652269443228 0.24757905684876308 -1.709797814424584e-05 -0.044994656239644826 -1.8872019253172816 -1.4585041999816895 -1.5812202892699183 2.5785770416259766 -0.005945984517232716 -0.14558741450309753 -0.001307008322328329 -0.03111165203154087 0.012245766818523407 1.0399800539016724 0.00020671187667176127 -0.39080891013145447 0.8638344407081604 0.5073371529579163 0.3906877040863037 0.4494907855987549 0.027392178773880005 -0.3229634463787079 0.9920428395271301 0.6661977767944336 0.44031888246536255 0.4009341895580292 0.003273529000580311 0.3547723270757107 -0.06855286210348056 0.2742838976064513 -1.52487769535801 1.7761415417589486 1.067392388492286 0.006822631632610191 -0.0009564238451145804 0.07039541820406661 1.0161510257652746 -0.020813710820696538 -0.3669563680489799 -0.16244967729305773 -0.31913135323782543 0.2678759134468939 -0.0024674740122411997 -0.017817178292846073 0.004731673250630408 0.35476550657370937 -0.06856240140902528 0.2743319945940166 -1.5243439187288081 1.7758394734696534 1.0676361191252912 0.006864908694008725 -0.00027145733326575106 0.07084762150244586 1.0232462857085591 -0.019881519607142586 -0.36745400940224304 0 31.4375 33.3125 35.125 40.5625 43.875 44.75 0.917496 7 253 253 253 253 253 253 1 -8.08282470703125 2.2026655673980713 -4.76924991607666 1.0 1.0 0.20919977276024526 47.92600631713867 47.96989440917969 0.8247004151344299 47.75692367553711 47.81425476074219 47.78559112548828 47.55626678466797 47.57059860229492 47.670928955078125 4 2 0.04712596544619588
6524.938 -0.04625249569645451 -1.887158892784842 -1.458799612012566 -1.5811150153455724 2.5874903648470937 -0.005928267583483304 -0.14454043006457787 -0.0009835426335434627 -0.03168971779212351 0.011224720250411288 1.0471975511965976 0.0002622349545613204 0.0 0.0 0.0 0.0 0.0 0.0 -0.3229692578315735 0.9920395016670227 0.6662020683288574 0.4404025077819824 0.40122249722480774 0.0032735003624111414 -0.009735194878296317 11.00753432956177 7.268433463768223 0.9570647914047177 0.24885658953177928 -1.721824027873173e-05 -0.046100918446676076 -1.88712801555776 -1.4587565660476685 -1.5810791454710902 2.5867583751678467 -0.005875412617818654 -0.1445179432630539 -0.0008823125972412527 -0.03192702680826187 0.01012800820171833 1.0459994077682495 0.00010509481217013672 -0.40919357538223267 0.8436620235443115 0.47867873311042786 0.437888503074646 0.49709054827690125 0.024166932329535484 -0.3229692578315735 0.9920395016670227 0.6662020683288574 0.4404025077819824 0.40122249722480774 0.0032735003624111414 0.3548209893980603 -0.06854887985827679 0.274870514379471 -1.5171871728466764 1.7713650506801177 1.0716315791781212 0.00686098960486624 -0.0009672319792354694 0.07102569383587669 1.0221054730758368 -0.01976015913162321 -0.3671614792675552 -0.10863087846772469 -0.1350927413405329 0.5019235882418819 -0.005933890951102387 -0.018107106705066503 0.004987121682053886 0.3548210133413991 -0.06856742466203666 0.27490043694016614 -1.5164549745671703 1.7709801380420342 1.0720575292270227 0.007011186384899127 -0.00098502192383388 0.07126202582724728 1.0231848727771446 -0.02106078940793403 -0.3676277592517786 0 31.4375 33.3125 35.125 40.5625 43.875 44.75 1.061893 7 253 253 253 253 253 253 1 -7.967903137207031 1.7046716213226318 -4.6734819412231445 1.0 1.0 0.20938128000436462 47.91884231567383 47.94034194946289 0.7709873914718628 47.713924407958984 47.78559112548828 47.77125549316406 47.513267517089844 47.57059860229492 47.59926223754883 4 2 0.04792594010597284
6524.946 -0.04740881913697059 -1.8871667611259104 -1.4590531297549028 -1.5810252175835693 2.5958679452566664 -0.005926169703847073 -0.14454043006457787 -0.0009835426335434627 -0.03168971779212351 0.011224720250411288 1.0471975511965976 0.0002622349545613204 0.0 0.0 0.0 0.0 0.0 0.0 -0.32297685742378235 0.9920486807823181 0.6661889553070068 0.44051116704940796 0.4015994668006897 0.003273462876677513 -0.009805002884754041 11.007899687415048 7.26826959210131 0.9573870632124585 0.2501196964442325 -1.733789874446788e-05 -0.0472639242755335 -1.887127538720602 -1.4589993953704834 -1.5810843906798304 2.5951948165893555 -0.005862061177388966 -0.14833278954029083 -0.0008525995654053986 -0.03242514282464981 0.01125960610806942 1.064077377319336 9.134293213719502e-05 -0.3404070734977722 0.8437538743019104 0.504241406917572 0.4279819130897522 0.4270390272140503 0.02020355686545372 -0.32297685742378235 0.9920486807823181 0.6661889553070068 0.44051116704940796 0.4015994668006897 0.003273462876677513 0.3548721065326699 -0.06855849914579756 0.27544553826664203 -1.5092145682580038 1.7665133805217414 1.0761264813061353 0.007104689670762028 -0.0021868292075496523 0.07277164495914369 1.03964702737294 -0.02237497730071897 -0.37506842969408827 -0.10561261770204836 -0.24477692556455558 0.07901439303982147 -0.004143948477173373 -0.01754670994161143 0.0067496806642096865 0.35487767597231024 -0.06857817233688891 0.2754721719418196 -1.5085680390110743 1.766103216047693 1.0764395788016374 0.007153870254246294 -0.0017025529089854316 0.07167078062804966 1.0231220727604542 -0.02223995816020914 -0.36780149313178545 0 31.4375 33.3125 35.125 40.5625 43.875 44.75 0.93954 7 253 253 253 253 253 253 1 -8.504204750061035 2.2409727573394775 -4.635174751281738 1.0 1.0 0.2095633748495803 47.91884231567383 47.97437286376953 0.8224645853042603 47.7282600402832 47.799922943115234 47.77125549316406 47.54193115234375 47.57059860229492 47.656593322753906 4 2 0.04973948655911855
6524.954 -0.04856514257748756 -1.887174629466979 -1.4593066474972396 -1.5809354198215662 2.604245525666239 -0.0059240718242108414 -0.14454043006457787 -0.0009835426335434627 -0.03168971779212351 0.011224720250411288 1.0471975511965976 0.0002622349545613204 0.0 0.0 0.0 0.0 0.0 0.0 -0.3229837119579315 0.9920423626899719 0.666203498840332 0.44061923027038574 0.4019370973110199 0.0032734291162341833 -0.009876310060611787 11.007967661117977 7.268389553285481 0.9578009866141506 0.2514139228233478 -1.7460694208539367e-05 -0.04842216173280889 -1.8871609173216761 -1.4592270851135254 -1.580973287621969 2.6037840843200684 -0.005924526845113576 -0.14525489509105682 -0.0012131115654483438 -0.03333553299307823 0.011679292656481266 1.0532138347625732 2.1622834537993185e-05 -0.4134678840637207 0.8599838018417358 0.5029165744781494 0.40482884645462036 0.40456900000572205 0.023258645087480545 -0.3229837119579315 0.9920423626899719 0.666203498840332 0.44061923027038574 0.4019370973110199 0.0032734291162341833 0.3549409530108692 -0.06856568129750538 0.2760362506779399 -1.501213979853877 1.7614039879369117 1.0805389593003545 0.007228424066763861 -0.0023505933735091383 0.07200183879841685 1.0290286535846764 -0.022319592262870867 -0.36978851439944244 0.0870820709780083 -0.20623880519996612 0.25831983494114935 -0.0035268692604967424 -0.019561500817255925 0.010030252927588112 0.35493546561449074 -0.06859467592705518 0.27604715428930926 -1.5006832337136744 1.7612088084129207 1.0807823967429375 0.007292935020137874 -0.0024239908107195063 0.07207385760266952 1.0230578857680055 -0.023419024280698683 -0.36797521116637333 0 31.4375 33.3125 35.125 40.5625 43.875 44.75 0.920125 7 253 253 253 253 253 253 1 -8.350975036621094 2.1260509490966797 -4.903325080871582 1.0 1.0 0.20974603873069542 47.896453857421875 47.952877044677734 0.7709873914718628 47.742591857910156 47.81425476074219 47.75692367553711 47.5275993347168 47.57059860229492 47.64226150512695 4 2 0.05032346745778855
6524.9619999999995 -0.049721466018003646 -1.8871824978080465 -1.4595601652395773 -1.580845622059563 2.612623106075812 -0.00592197394457461 -0.14454043006457787 -0.0009835426335434627 -0.03168971779212351 0.011224720250411288 1.0471975511965976 0.0002622349545613204 0.0 0.0 0.0 0.0 0.0 0.0 -0.32299038767814636 0.9920613169670105 0.6661949157714844 0.44070783257484436 0.40226465463638306 0.0032733960542827845 -0.00994618280532139 11.008184749188878 7.268267576078248 0.958139978518608 0.252670095726389 -1.7580605946235263e-05 -0.049625698720113576 -1.8871108494200648 -1.4594908952713013 -1.5808493099608363 2.61222767829895 -0.005924526845113576 -0.14696557819843292 -0.0009878836572170258 -0.032923731952905655 0.011757761240005493 1.0424116849899292 2.1084433754481324e-08 -0.397359162569046 0.8601252436637878 0.5160499811172485 0.4124772548675537 0.3901054263114929 0.025375185534358025 -0.32299038767814636 0.9920613169670105 0.6661949157714844 0.44070783257484436 0.40226465463638306 0.0032733960542827845 0.35499162259816597 -0.06860107854608774 0.27663971539511245 -1.4932585474159132 1.7564209542824722 1.0847792049944938 0.007058765827237764 -0.004188762350347965 0.07177392189549271 1.0184063276867272 -0.023813105761394435 -0.3692764268420602 -0.08672312257666605 -0.21560166706725553 0.41512152502936006 -0.0041066290047463 -0.01976723305889485 0.005860835285594563 0.35499435321524947 -0.06861696644882126 0.27662533844815584 -1.4928006792005117 1.7562970154351796 1.0850861117795234 0.007428355780190816 -0.003149275811436425 0.07247122885079836 1.022992311910794 -0.024597986185059578 -0.36814891348029605 0 31.4375 33.3125 35.125 40.5625 43.875 44.75 0.924132 7 253 253 253 253 253 253 1 -7.527370452880859 1.9345149993896484 -4.750096321105957 1.0 1.0 0.20992925337138815 47.885704040527344 47.93138122558594 0.7821771502494812 47.69959259033203 47.75692367553711 47.742591857910156 47.55626678466797 47.55626678466797 47.64226150512695 4 2 0.04963913373456605
6524.969999999999 -0.05087778945852062 -1.887190366149115 -1.4598136829819142 -1.58075582429756 2.6210006864853845 -0.00591987606493749 -0.14454043006457787 -0.0009835426335434627 -0.03168971779212351 0.011224720250411288 1.0471975511965976 0.0002622349545613204 0.0 0.0 0.0 0.0 0.0 0.0 -0.3229968249797821 0.9920695424079895 0.6661897897720337 0.4408118724822998 0.40258145332336426 0.003273364156484604 -0.010013546813418355 11.008129178703328 7.268302319116154 0.9585380160539383 0.2538870090518395 -1.769699419825759e-05 -0.050771538411275685 -1.8871399364867152 -1.4597266912460327 -1.580701013604635 2.620426893234253 -0.005920235310689748 -0.14659598469734192 -0.0011834432370960712 -0.03192771226167679 0.011174335144460201 1.0410407781600952 2.0559439567469084e-11 -0.38714829087257385 0.8634856343269348 0.5031448006629944 0.41810551285743713 0.4525752067565918 0.03810310736298561 -0.3229968249797821 0.9920695424079895 0.6661897897720337 0.4408118724822998 0.40258145332336426 0.003273364156484604 0.35505697717401286 -0.06863361396883294 0.27720876919437637 -1.4855474149801062 1.7515745787435897 1.0889011327896105 0.00727583176060634 -0.0048360469355245295 0.07221844118192977 1.017004174983095 -0.025132205909125075 -0.368737868517763 -0.06564596927308175 -0.18219076705569748 0.27835704148106505 -0.004249140000008145 -0.018247112753717456 0.009315659936666476 0.35505430952420347 -0.06864507443859208 0.27720667866229143 -1.484920494878964 1.7513679367865589 1.089350852469523 0.0075601080142070065 -0.0038783477589006826 0.07286286687593893 1.0229253513013026 -0.025776842287876935 -0.3683226001989408 0 31.4375 33.3125 35.125 40.5625 43.875 44.75 0.913428 7 253 253 253 253 253 253 1 -8.236053466796875 2.030282974243164 -4.481945514678955 1.0 1.0 0.21011300078347075 47.90093231201172 47.952877044677734 0.7597975730895996 47.713924407958984 47.78559112548828 47.742591857910156 47.48460006713867 47.55626678466797 47.6279296875 4 2 0.04905774923473693
6524.978 -0.05203411289903759 -1.8871982344901834 -1.460067200724251 -1.5806660265355568 2.6293782668949577 -0.005917778185301259 -0.14454043006457787 -0.0009835426335434627 -0.03168971779212351 0.011224720250411288 1.0471975511965976 0.0002622349545613204 0.0 0.0 0.0 0.0 0.0 0.0 -0.32300323247909546 0.9920297861099243 0.6661880612373352 0.44090765714645386 0.402896523475647 0.0032733322586864233 -0.010080434714024538 11.007839698665785 7.268239566116463 0.9589060357861966 0.2550900087690489 -1.7812641245576635e-05 -0.051956955586568654 -1.88718905071401 -1.4599858522415161 -1.580653806725973 2.6289398670196533 -0.005933586751119435 -0.14872436225414276 -0.0007589522865600884 -0.032912954688072205 0.008772228844463825 1.051069974899292 2.0047521585506156e-14 -0.328830748796463 0.84479820728302 0.499625563621521 0.4175257086753845 0.3898717164993286 0.024155035614967346 -0.32300323247909546 0.9920297861099243 0.6661880612373352 0.44090765714645386 0.402896523475647 0.0032733322586864233 0.35512034407986826 -0.06867157986344993 0.2777840859059427 -1.4775145100704778 1.74659689181843 1.0932677382529181 0.007152246935932756 -0.005872053028920479 0.07308688851279221 1.026839975938354 -0.023839108253469413 -0.37328576648634654 -0.10035007922321983 -0.2474335525467401 0.6092692543817771 -0.005496976100062909 -0.019291936441499593 0.006528241553741371 0.3551153050963452 -0.0686790299502319 0.2777911289572979 -1.4770427990476471 1.7464216715172205 1.093576747195427 0.007688167586792081 -0.004611146171234634 0.07324874458731301 1.0228570040535059 -0.02695559100265291 -0.36849627144832003 0 31.4375 33.3125 35.125 40.5625 43.875 44.75 0.945073 7 253 253 253 253 253 253 1 -7.738059997558594 1.5131354331970215 -4.481945514678955 1.0 1.0 0.21029726325323755 47.926902770996094 47.98870086669922 0.8112748265266418 47.713924407958984 47.799922943115234 47.77125549316406 47.5275993347168 47.584930419921875 47.656593322753906 4 2 0.049395784396752795
6524.986 -0.05319043633955367 -1.887206102831252 -1.4603207184665878 -1.5805762287735536 2.6377558473045304 -0.0059156803056650276 -0.14454043006457787 -0.0009835426335434627 -0.03168971779212351 0.011224720250411288 1.0471975511965976 0.0002622349545613204 0.0 0.0 0.0 0.0 0.0 0.0 -0.3230096995830536 0.9920729994773865 0.666184663772583 0.4410040080547333 0.4032076895236969 0.0032733005937188864 -0.010147557342448855 11.008171920063273 7.268232201391961 0.9592742323358318 0.25628327454464533 -1.7927849157785872e-05 -0.053074185048238576 -1.8871599636473597 -1.460296392440796 -1.5806142292418421 2.637272834777832 -0.005957428609029591 -0.14638227224349976 -0.0006667995476163924 -0.03248179703950882 0.010771515779197216 1.0389214754104614 1.9548349134881877e-17 -0.30406293272972107 0.8487874865531921 0.5201144218444824 0.43783289194107056 0.45714497566223145 0.018523752689361572 -0.3230096995830536 0.9920729994773865 0.666184663772583 0.4410040080547333 0.4032076895236969 0.0032733005937188864 0.3551703389424335 -0.0686984837267119 0.27836139066929966 -1.4697098137233495 1.7416651187406855 1.0975059512063736 0.007367080067115873 -0.0063125898517578105 0.07281497491768363 1.0147835016971924 -0.026926131480005226 -0.3685834836331128 -0.18016789576483222 -0.22944157064179055 0.595473248399153 -0.00778537406044983 -0.019916185873277235 0.003759343092931507 0.3551773102951323 -0.06871886255244945 0.27837864314366007 -1.469167708905747 1.7414583180588505 1.0977639241590353 0.007812510749936687 -0.005347610241940609 0.07362883530174037 1.0227872702828826 -0.02813423074180426 -0.36866992735506116 0 31.4375 33.3125 35.125 40.5625 43.875 44.75 0.917028 7 253 253 253 253 253 253 1 -7.967903137207031 1.8195933103561401 -4.252101898193359 1.0 1.0 0.21048202333369487 47.90361404418945 47.96630859375 0.8112748265266418 47.742591857910156 47.799922943115234 47.75692367553711 47.55626678466797 47.55626678466797 47.656593322753906 4 2 0.0490029278441081
6524.994 -0.05434675978007064 -1.8872139711723204 -1.4605742362089256 -1.5804864310115496 2.646133427714103 -0.005913582426027908 -0.14454043006457787 -0.0009835426335434627 -0.03168971779212351 0.011224720250411288 1.0471975511965976 0.0002622349545613204 0.0 0.0 0.0 0.0 0.0 0.0 -0.3230159282684326 0.9920567870140076 0.6662002205848694 0.44111761450767517 0.403511643409729 0.0032732696272432804 -0.010212519904185875 11.008093849701876 7.268341834470402 0.9597106656007732 0.2574489234812346 -1.8040583568062295e-05 -0.054264370595113576 -1.8872205219664515 -1.4605273008346558 -1.5804935894408167 2.6455376148223877 -0.005915466939107716 -0.14521659910678864 -0.0014873698819428682 -0.034094296395778656 0.01193156000226736 1.0391801595687866 1.9061604965634522e-20 -0.34904807806015015 0.8257787227630615 0.5529825687408447 0.4227336347103119 0.47598111629486084 0.025776691734790802 -0.3230159282684326 0.9920567870140076 0.6662002205848694 0.44111761450767517 0.403511643409729 0.0032732696272432804 0.3552396580892209 -0.06876131474632918 0.27893264176873417 -1.4618636596182653 1.7368175288297485 1.1015980229182585 0.007577535450638152 -0.0066120671856142385 0.07253743530310496 1.015034617353583 -0.026872039362649217 -0.3676357899001316 -0.048990435295962725 -0.39708776686862735 0.18462056661078155 0.0013214169186047565 -0.016840666910617776 0.00796841026554931 0.35524029529559575 -0.06876460132621738 0.2789691748200338 -1.4612953405622877 1.7364779742281078 1.101912511376509 0.007933114145560983 -0.006087678844953107 0.07400311274548874 1.0227161501064228 -0.029312759916660335 -0.3688435680463982 0 31.4375 33.3125 35.125 40.5625 43.875 44.75 0.909613 7 253 253 253 253 253 253 1 -7.872135162353516 2.3367409706115723 -4.271255970001221 1.0 1.0 0.21066726384085224 47.91257095336914 47.94839859008789 0.7732232213020325 47.713924407958984 47.78559112548828 47.799922943115234 47.54193115234375 47.584930419921875 47.6279296875 4 2 0.04891730583159055
6525.0019999999995 -0.05550308322058761 -1.8872218395133888 -1.4608277539512624 -1.5803966332495465 2.654511008123676 -0.0059114845463916765 -0.14454043006457787 -0.0009835426335434627 -0.03168971779212351 0.011224720250411288 1.0471975511965976 0.0002622349545613204 0.0 0.0 0.0 0.0 0.0 0.0 -0.3230220079421997 0.9920678734779358 0.6661825180053711 0.4412055015563965 0.40380412340164185 0.003273239592090249 -0.01027582237722408 11.008190733306598 7.268197555649409 0.9600458170933349 0.25856686807357326 -1.8149549331481272e-05 -0.05541402498354131 -1.8872372112669886 -1.460787057876587 -1.5804220638670863 2.6537835597991943 -0.005928818379537404 -0.1454906463623047 -0.0009241573279723525 -0.03326227515935898 0.010871656239032745 1.0540733337402344 1.8586981298914626e-23 -0.326572984457016 0.8372940421104431 0.5296653509140015 0.4310859739780426 0.4787641763687134 0.034073151648044586 -0.3230220079421997 0.9920678734779358 0.6661825180053711 0.4412055015563965 0.40380412340164185 0.003273239592090249 0.35530077868661514 -0.06881575569209751 0.27950924543686706 -1.4541044122994258 1.7319157177620361 1.105666525005129 0.007918510457034398 -0.00680218198957841 0.0744338188600596 1.0294645163647849 -0.029110496771525118 -0.371318558785439 -0.04126374726241272 -0.3230679902895943 0.09849192994511197 -0.0037278649688746706 -0.01568764668607153 0.00778420522906385 0.35530423008747103 -0.06881627486224137 0.27956267737652923 -1.4534258090453565 1.7314807372300591 1.1060226366735284 0.008049954808019575 -0.006831290539719342 0.07437155105609489 1.0226436436426352 -0.030491176937453006 -0.3690171936501616 0 31.4375 33.3125 35.1875 40.5625 43.875 44.75 0.91752 7 253 253 253 253 253 253 1 -9.481039047241211 2.164358377456665 -4.443638324737549 1.0 1.0 0.21085296784139648 47.93406677246094 47.984222412109375 0.7888899445533752 47.742591857910156 47.78559112548828 47.77125549316406 47.513267517089844 47.55626678466797 47.64226150512695 4 2 0.05181102007248469
6525.009999999999 -0.056659406661103695 -1.8872297078544573 -1.4610812716935992 -1.5803068354875434 2.6628885885332485 -0.005909386666755445 -0.14454043006457787 -0.0009835426335434627 -0.03168971779212351 0.011224720250411288 1.0471975511965976 0.0002622349545613204 0.0 0.0 0.0 0.0 0.0 0.0 -0.3230282962322235 0.9920428991317749 0.6664742231369019 0.4413144290447235 0.4041072428226471 0.0032732083927839994 -0.01034101954298027 11.007947348919805 7.2682290442995505 0.9604606313148716 0.25972450257979685 -1.8262633642708943e-05 -0.056617561970846 -1.8871838055052699 -1.4610320329666138 -1.5803066692748011 2.662351131439209 -0.005941216145650685 -0.14552515745162964 -0.0008900575921870768 -0.03253751993179321 0.010318096727132797 1.0611517429351807 1.8124173282834032e-26 -0.317977637052536 0.8358941078186035 0.541986346244812 0.424793004989624 0.39414292573928833 0.04076841473579407 -0.3230282962322235 0.9920428991317749 0.6664742231369019 0.4413144290447235 0.4041072428226471 0.0032732083927839994 0.35536059783733837 -0.06888143797883957 0.28014681431434474 -1.4460833375308495 1.7267235782123054 1.1097214199126624 0.008202413603637706 -0.0072896169198242156 0.0755475297413406 1.0363040352856214 -0.03091252856245541 -0.37295397773145256 -0.05255593959522191 -0.32732352121051156 0.30682803129517944 -0.0023901898282894245 -0.01806923932193903 0.006586095548027007 0.3553690844783451 -0.06887391125845811 0.2801591039980076 -1.4455592283112535 1.7264667036616308 1.1100944276805493 0.008163010166570516 -0.007578383576307961 0.0747341247841566 1.0225697510115572 -0.031669480213314616 -0.36919080429476914 0 31.4375 33.3125 35.1875 40.5625 43.875 44.75 0.909241 7 253 253 253 253 253 253 1 -8.14028549194336 1.9728221893310547 -4.175487518310547 1.0 1.0 0.21103911864554648 47.91257095336914 47.965415954589844 0.7709873914718628 47.68526077270508 47.77125549316406 47.742591857910156 47.55626678466797 47.55626678466797 47.64226150512695 4 2 0.051416995291069995
6525.018 -0.057815730101620666 -1.8872375761955258 -1.461334789435936 -1.5802170377255402 2.6712661689428217 -0.005907288787119214 -0.14454043006457787 -0.0009835426335434627 -0.03168971779212351 0.011224720250411288 1.0471975511965976 0.0002622349545613204 0.0 0.0 0.0 0.0 0.0 0.0 -0.32303449511528015 0.9920986890792847 0.6664615273475647 0.44141197204589844 0.40440237522125244 0.003273177891969681 -0.010405894519935626 11.008522006545505 7.268099087460773 0.9608348265536388 0.26085859220072855 -1.837411998510504e-05 -0.05775481859316045 -1.8872033558287562 -1.4613640308380127 -1.580287595788473 2.6708192825317383 -0.005957428609029591 -0.14564897119998932 -0.0011113033397123218 -0.03406977653503418 0.010978070087730885 1.050636887550354 1.7672886874556288e-29 -0.2904165983200073 0.8192846775054932 0.5756382942199707 0.431831955909729 0.3893404006958008 0.04589448869228363 -0.32303449511528015 0.9920986890792847 0.6664615273475647 0.44141197204589844 0.40440237522125244 0.003273177891969681 0.3554186487978508 -0.06893358554641377 0.2807215152644926 -1.4381230220253176 1.721708860517088 1.1139565735004158 0.008022751688800416 -0.008525669515086036 0.07460725247782873 1.0259988856060966 -0.030447567917438384 -0.3711568204956296 0.025579536730480888 -0.4495459231150605 0.26458725345217693 0.001018927613939517 -0.01511698887960377 0.010527608487462621 0.3554348280968278 -0.06893753811758824 0.2807584076673931 -1.4376957112535758 1.7214359695150405 1.1141280118281736 0.00827225804780386 -0.008328895900546099 0.07509080889509517 1.0224944723347622 -0.032847668152276494 -0.3693644001092166 0 31.4375 33.3125 35.1875 40.5625 43.875 44.75 0.919032 7 253 253 253 253 253 253 1 -7.469909191131592 1.7812860012054443 -3.869029998779297 1.0 1.0 0.2112256998051281 47.89824295043945 47.94750213623047 0.8023208975791931 47.713924407958984 47.799922943115234 47.77125549316406 47.513267517089844 47.55626678466797 47.656593322753906 4 2 0.05105255835169226
6525.026 -0.05897205354213675 -1.8872454445365943 -1.461588307178273 -1.5801272399635362 2.679643749352394 -0.005905190907482094 -0.14454043006457787 -0.0009835426335434627 -0.03168971779212351 0.011224720250411288 1.0471975511965976 0.0002622349545613204 0.0 0.0 0.0 0.0 0.0 0.0 -0.32304054498672485 0.9921013116836548 0.6664434671401978 0.44151225686073303 0.4046908915042877 0.0032731478568166494 -0.010469261519102147 11.008586889683924 7.268019941083437 0.9612184058238155 0.2619671809002362 -1.8483587002772052e-05 -0.058951679860250294 -1.88720764736318 -1.4616023302078247 -1.5801507435240687 2.6791834831237793 -0.005926434193746388 -0.143146350979805 -0.0011410319712013006 -0.03206754848361015 0.01161993108689785 1.037629246711731 1.7232839753234862e-32 -0.35040178894996643 0.8610981106758118 0.5480540990829468 0.4476805329322815 0.41311994194984436 0.05422087013721466 -0.32304054498672485 0.9921013116836548 0.6664434671401978 0.44151225686073303 0.4046908915042877 0.0032731478568166494 0.3554860175787974 -0.06901804668792967 0.2813315093209201 -1.4302353152951164 1.7166766765532169 1.1178791130216061 0.008283738403134958 -0.008930037640364832 0.07452139001393991 1.0131093945414702 -0.033591950153553755 -0.36596933033862683 -0.047959248524591894 -0.1936823428055322 0.30809743876797324 -0.003532446347347635 -0.01795238927186513 0.00838068558347634 0.35550143039573834 -0.06900718254471741 0.2813605411689984 -1.429835369712266 1.716388630181232 1.1181235163426029 0.00837767667803313 -0.009082765159182875 0.07544157877088872 1.0224178077353696 -0.034025739161258006 -0.36953798122306714 0 31.4375 33.3125 35.1875 40.5625 43.875 44.75 0.930336 7 253 253 253 253 253 253 1 -8.14028549194336 1.8195931911468506 -4.156333923339844 1.0 1.0 0.21141269509960833 47.908992767333984 47.965415954589844 0.8247004151344299 47.7282600402832 47.799922943115234 47.75692367553711 47.54193115234375 47.55626678466797 47.656593322753906 4 2 0.05000206999226182
6525.034 -0.06012837698265372 -1.8872533128776618 -1.4618418249206098 -1.580037442201533 2.688021329761967 -0.005903093027845863 -0.14454043006457787 -0.0009835426335434627 -0.03168971779212351 0.011224720250411288 1.0471975511965976 0.0002622349545613204 0.0 0.0 0.0 0.0 0.0 0.0 -0.32304638624191284 0.9921056628227234 0.6664490699768066 0.4416115880012512 0.40496742725372314 0.0032731189858168364 -0.010530169793032968 11.00863519871636 7.268011418877701 0.9615949260619664 0.2630263511572166 -1.8588679768567982e-05 -0.06006795564760381 -1.8872410259642542 -1.4618465900421143 -1.58013977626943 2.6874916553497314 -0.005896393452779591 -0.1438436657190323 -0.0008484050631523132 -0.029788289219141006 0.010659557767212391 1.0430257320404053 1.680374770726007e-35 -0.2972539961338043 0.8383644223213196 0.5356590151786804 0.43769973516464233 0.45206359028816223 0.03439220413565636 -0.32304638624191284 0.9921056628227234 0.6664490699768066 0.4416115880012512 0.40496742725372314 0.0032731189858168364 0.35555449819404783 -0.06908192814261609 0.2819182740994209 -1.4224182761182589 1.711727089791603 1.1219266370643495 0.008588492648099253 -0.009718167950474033 0.07597243022045037 1.0181802509280873 -0.036620199882358095 -0.3681085186509093 -0.05950088636989294 -0.2754475943764185 0.24333219090710706 -0.003937684558666372 -0.01995943240211282 0.006835997001782558 0.3555688606553134 -0.06908287114492734 0.281965457091864 -1.4219783144825702 1.711324780453302 1.12208106824121 0.008479244685647577 -0.00983992870508131 0.07578641021177612 1.022339757338052 -0.03520369164606969 -0.36971154776644466 0 31.4375 33.3125 35.1875 40.5625 43.875 44.75 0.920173 7 253 253 253 253 253 253 1 -8.657432556152344 1.8387469053268433 -3.9647979736328125 1.0 1.0 0.2116000885364235 47.91794967651367 47.956459045410156 0.7777001857757568 47.7282600402832 47.81425476074219 47.77125549316406 47.54193115234375 47.57059860229492 47.656593322753906 4 2 0.04978458035008997
6525.0419999999995 -0.06128470042317069 -1.8872611812187303 -1.4620953426629466 -1.57994764443953 2.6963989101715398 -0.005900995148209631 -0.14454043006457787 -0.0009835426335434627 -0.03168971779212351 0.011224720250411288 1.0471975511965976 0.0002622349545613204 0.0 0.0 0.0 0.0 0.0 0.0 -0.323052316904068 0.992112398147583 0.6664696931838989 0.4417322874069214 0.4052504897117615 0.0032730891834944487 -0.010592098974233546 11.008700451216226 7.26813304162534 0.9620570140026472 0.26411033447613574 -1.869644568167247e-05 -0.06124574342836553 -1.887284894982809 -1.462082028388977 -1.5799995861449183 2.6959121227264404 -0.005888764058248341 -0.14382313191890717 -0.001379396766424179 -0.031244585290551186 0.011714449152350426 1.0436663627624512 3.568747342796996e-05 -0.3538934290409088 0.8549485206604004 0.5410847663879395 0.4406912326812744 0.3758816719055176 0.041528210043907166 -0.323052316904068 0.992112398147583 0.6664696931838989 0.4417322874069214 0.4052504897117615 0.0032730891834944487 0.3556315015704538 -0.06916979316551879 0.28252515078622104 -1.414516815271733 1.7066129701660928 1.1258323283430476 0.008679955403647523 -0.010446003885342899 0.07583969718582065 1.0187858052302503 -0.03688871233801854 -0.3683732929249848 -0.05876127744106603 -0.26426568173792403 0.3060166319319815 -0.004722714723040795 -0.017819848485519745 0.006855397138492331 0.35563708798643295 -0.06916463002096242 0.2825731078331103 -1.414124655323958 1.7062445145299323 1.1260007943281947 0.008576941103425247 -0.010600323602435353 0.07612527943793074 1.0222603212690458 -0.03638152401140279 -0.3698850998700225 0 31.4375 33.3125 35.1875 40.5625 43.875 44.75 0.964188 7 253 253 253 253 253 253 1 -8.178592681884766 1.9345149993896484 -4.003105163574219 1.0 1.0 0.21178786433921376 47.90093231201172 47.94839859008789 0.8090336918830872 47.656593322753906 47.77125549316406 47.75692367553711 47.513267517089844 47.54193115234375 47.656593322753906 4 2 0.04911770498214454
6525.049999999999 -0.06244102386368677 -1.8872690495597988 -1.4623488604052843 -1.5798578466775268 2.7047764905811125 -0.005898897268572512 -0.14454043006457787 -0.0009835426335434627 -0.03168971779212351 0.011224720250411288 1.0471975511965976 0.0002622349545613204 0.0 0.0 0.0 0.0 0.0 0.0 -0.32305800914764404 0.9921472072601318 0.6664608120918274 0.4418330192565918 0.4055178761482239 0.0032730610109865665 -0.010651736424221557 11.00902235110368 7.268109359812764 0.9624448330138119 0.2651367193489345 -1.8799302140770625e-05 -0.06241208711733037 -1.887240549127096 -1.4623315334320068 -1.579848428765768 2.704331159591675 -0.005933586751119435 -0.14464448392391205 -0.0010999251389876008 -0.03207768127322197 0.012086045928299427 1.0417810678482056 0.00018906028708443046 -0.32745125889778137 0.8333193063735962 0.5357123017311096 0.45520874857902527 0.41950392723083496 0.06696925312280655 -0.32305800914764404 0.9921472072601318 0.6664608120918274 0.4418330192565918 0.4055178761482239 0.0032730610109865665 0.3556976433433125 -0.06925908183336353 0.28316318340760355 -1.4067009337137044 1.701375912850716 1.12959824327024 0.008570662589894888 -0.01156721986673806 0.07591458334554647 1.0168962556347376 -0.03764727906104478 -0.3689040871898361 -0.09580585038315012 -0.3501677095235678 0.3511662876638214 -0.004127379947394494 -0.019790975524197268 0.0045214724640926015 0.3557060813338641 -0.06925248477094297 0.28318344560130493 -1.4062745009689717 1.7011479260188025 1.1298828211903378 0.008670745370806554 -0.011363886632013882 0.07645816309110506 1.0221794996561568 -0.03755923466082802 -0.3700586376650123 0 31.4375 33.3125 35.1875 40.5625 43.875 44.75 0.921085 7 253 253 253 253 253 253 1 -8.906431198120117 2.2026655673980713 -3.7924156188964844 1.0 1.0 0.21197600694258753 47.90451431274414 47.956459045410156 0.7911257743835449 47.7282600402832 47.799922943115234 47.75692367553711 47.513267517089844 47.55626678466797 47.64226150512695 4 2 0.04883562994525032
6525.058 -0.06359734730420374 -1.8872769179008673 -1.4626023781476212 -1.5797680489155237 2.713154070990685 -0.00589679938893628 -0.14454043006457787 -0.0009835426335434627 -0.03168971779212351 0.011224720250411288 1.0471975511965976 0.0002622349545613204 0.0 0.0 0.0 0.0 0.0 0.0 -0.3230636715888977 0.9921559691429138 0.6664555668830872 0.4419342875480652 0.4057798385620117 0.003273033071309328 -0.010710206140277878 11.00912703626266 7.268069883034295 0.9628300147158672 0.2661401383003073 -1.890040279136222e-05 -0.06359941164125615 -1.887240549127096 -1.4626188278198242 -1.5797440014281214 2.7124154567718506 -0.0059617201434534195 -0.14467169344425201 -0.0009553887648507953 -0.030795514583587646 0.010678515769541264 1.0454860925674438 0.0001943434908753261 -0.33295512199401855 0.8529718518257141 0.5621906518936157 0.44181597232818604 0.4901089072227478 0.06294319778680801 -0.3230636715888977 0.9921559691429138 0.6664555668830872 0.4419342875480652 0.4057798385620117 0.003273033071309328 0.3557556498224851 -0.06937448523095834 0.283746490624655 -1.3990725659694885 1.696464977712457 1.1332707652447263 0.008760180694818213 -0.012177511066899675 0.07684052298225837 1.0204177347633685 -0.039078096057093725 -0.36992684566404604 0.035070698217466015 -0.2495631019120376 0.3475504754537766 -0.004732334287743473 -0.019945916491107465 0.0046533316420529205 0.3557758094795238 -0.06934646048612426 0.28379642241984177 -1.3984279591320194 1.696035107940004 1.1337272751928524 0.008760637336127915 -0.012130554296429938 0.07678503823624543 1.0220972926287746 -0.038736821996794346 -0.37023216128315467 0 31.4375 33.3125 35.1875 40.5625 43.875 44.75 0.910068 7 253 253 253 253 253 253 1 -8.65743350982666 2.1260509490966797 -3.5242648124694824 1.0 1.0 0.21216450099151515 47.91078186035156 47.9609375 0.7329410910606384 47.713924407958984 47.78559112548828 47.77125549316406 47.513267517089844 47.5275993347168 47.6279296875 4 2 0.04936461943146117
6525.066 -0.06475367074471983 -1.8872847862419357 -1.462855895889958 -1.5796782511535206 2.721531651400258 -0.005894701509300049 -0.14454043006457787 -0.0009835426335434627 -0.03168971779212351 0.011224720250411288 1.0471975511965976 0.0002622349545613204 0.0 0.0 0.0 0.0 0.0 0.0 -0.323069304227829 0.9921180009841919 0.6664683818817139 0.44204485416412354 0.4060436487197876 0.003273004898801446 -0.010768788444228187 11.008812126667546 7.268165514143416 0.9632516222235914 0.26714731749009696 -1.9002302104609624e-05 -0.064735237752096 -1.8872763119139613 -1.4628379344940186 -1.579684396783346 2.720867872238159 -0.005879704152242482 -0.14297018945217133 -0.0007462351932190359 -0.030377397313714027 0.011178307235240936 1.06305730342865 0.00019782195158768445 -0.3100827634334564 0.8160631656646729 0.5225309133529663 0.45375901460647583 0.4297250509262085 0.07123681902885437 -0.323069304227829 0.9921180009841919 0.6664683818817139 0.44204485416412354 0.4060436487197876 0.003273004898801446 0.3558343579936895 -0.06946439156604071 0.28436541750810096 -1.3911257329352509 1.691359843754212 1.1371957794275531 0.009364903940608762 -0.011705769057636387 0.07883135052824823 1.0373867456669135 -0.0423872021020461 -0.37221344060585926 -0.04005021277294338 -0.41171640176864577 0.0008071350426763768 0.000859906083856752 -0.020069609378573976 0.008014696283528557 0.3558462410457584 -0.06944658174868255 0.28441199013033147 -1.3905851365181032 1.690906152729456 1.1375342824753316 0.0088465972588176 -0.012900262825435459 0.07710588236307615 1.022013700317876 -0.039914284420618874 -0.37040567085671267 0 31.4375 33.3125 35.1875 40.5625 43.875 44.75 0.912181 7 253 253 253 253 253 253 1 -8.504203796386719 2.030282974243164 -3.773261785507202 1.0 1.0 0.21235333132669115 47.889286041259766 47.94839859008789 0.8067978620529175 47.69959259033203 47.78559112548828 47.713924407958984 47.48460006713867 47.54193115234375 47.64226150512695 4 2 0.050890297099321274
6525.074 -0.0659099941852368 -1.8872926545830033 -1.4631094136322949 -1.5795884533915174 2.729909231809831 -0.005892603629662929 -0.14454043006457787 -0.0009835426335434627 -0.03168971779212351 0.011224720250411288 1.0471975511965976 0.0002622349545613204 0.0 0.0 0.0 0.0 0.0 0.0 -0.32307493686676025 0.9921993613243103 0.666466236114502 0.44215524196624756 0.4063046872615814 0.0032729769591242075 -0.01082793363326724 11.009667431808031 7.2681302510602634 0.9636738260248623 0.2681485540090485 -1.910421581145736e-05 -0.06591970125307256 -1.8872481785216273 -1.4631059169769287 -1.5795852146544398 2.729426145553589 -0.0059006849872034195 -0.1397302895784378 -0.001626687590032816 -0.03217831999063492 0.011407743208110332 1.0522685050964355 0.00019993817841168493 -0.35824108123779297 0.8507697582244873 0.5526400804519653 0.4462447464466095 0.4053124189376831 0.06314420700073242 -0.32307493686676025 0.9921993613243103 0.666466236114502 0.44215524196624756 0.4063046872615814 0.0032729769591242075 0.3559014298026276 -0.06957334680164726 0.28500770729051966 -1.3831442099284206 1.6860637299854064 1.141002847808289 0.009405303409317743 -0.011736168191608144 0.07746295844368127 1.0269456683889258 -0.040516727200627184 -0.3667836214456282 -0.11138258604253287 -0.3779715468374224 0.2867992498726554 -0.004647180551873348 -0.019867619562504334 0.003858412420919473 0.3559173444986414 -0.06955287262955884 0.28503010039600735 -1.3827461388314914 1.6857611522423024 1.1413039689477782 0.008928605811549565 -0.013672948181240402 0.07742067338765432 1.021928722856036 -0.04109162033249047 -0.3705791665184587 0 31.4375 33.3125 35.1875 40.5625 43.875 44.75 0.908772 7 253 253 253 253 253 253 1 -8.638279914855957 2.030282974243164 -3.7158010005950928 1.0 1.0 0.21254248298876796 47.91615295410156 47.95198059082031 0.7844129800796509 47.7282600402832 47.81425476074219 47.77125549316406 47.54193115234375 47.57059860229492 47.656593322753906 4 2 0.051249795930998876
6525.081999999999 -0.06706631762575377 -1.8873005229240718 -1.4633629313746317 -1.5794986556295134 2.7382868122194037 -0.005890505750026698 -0.14454043006457787 -0.0009835426335434627 -0.03168971779212351 0.011224720250411288 1.0471975511965976 0.0002622349545613204 0.0 0.0 0.0 0.0 0.0 0.0 -0.32308048009872437 0.9921685457229614 0.6664695739746094 0.4422626495361328 0.4065597653388977 0.0032729494851082563 -0.010885710177391143 11.009330919159682 7.26815518930129 0.9640893363736073 0.2691298866303395 -1.9204747026562548e-05 -0.06707889238466436 -1.8872558079161585 -1.4632916450500488 -1.5795051060118617 2.7378690242767334 -0.005887333546773732 -0.14384128153324127 -0.0013498420594260097 -0.03216114640235901 0.011086689308285713 1.0452219247817993 0.0001809761015465483 -0.32306215167045593 0.8186554908752441 0.5378215312957764 0.4473973512649536 0.38426750898361206 0.051571208983659744 -0.32308048009872437 0.9921685457229614 0.6664695739746094 0.4422626495361328 0.4065597653388977 0.0032729494851082563 0.35598028370117213 -0.06968462684071114 0.28565216587225817 -1.3752699260759391 1.6808310564376228 1.1447216131494788 0.008997998605867594 -0.014230001608244017 0.07727691703598344 1.0200066621971433 -0.04126414056072377 -0.36948248449058724 -0.047928078652345094 -0.18374946667218522 0.532176072137772 -0.0062789132680888295 -0.02010875779845313 0.004496342560271281 0.3559890881512877 -0.0696653566863427 0.28565070470514065 -1.3749110707843344 1.6806001977563094 1.1450364602867342 0.009006644082357254 -0.0144485460638561 0.07772938965389384 1.0218423603774378 -0.04226882813145998 -0.37075264840166744 0 31.4375 33.3125 35.1875 40.5625 43.875 44.75 0.91332 7 253 253 253 253 253 253 1 -8.619126319885254 2.126051187515259 -3.3901896476745605 1.0 1.0 0.2127319412054115 47.914363861083984 47.9609375 0.7486078143119812 47.75692367553711 47.77125549316406 47.77125549316406 47.513267517089844 47.55626678466797 47.656593322753906 4 2 0.050633232671558046
6525.09 -0.06822264106626985 -1.8873083912651403 -1.4636164491169694 -1.5794088578675103 2.7466643926289764 -0.005888407870390466 -0.14454043006457787 -0.0009835426335434627 -0.03168971779212351 0.011224720250411288 1.0471975511965976 0.0002622349545613204 0.0 0.0 0.0 0.0 0.0 0.0 -0.32308584451675415 0.9922101497650146 0.6664507389068604 0.44236278533935547 0.4068032503128052 0.00327292294241488 -0.010941616088362862 11.009753176112907 7.268019393083042 0.9644701681790613 0.27006421071027664 -1.9301193107678608e-05 -0.06823665300478154 -1.8872720203795375 -1.463561773300171 -1.5794254742064417 2.7460994720458984 -0.005872551594869435 -0.141404390335083 -0.000988205661997199 -0.03040839172899723 0.011053269729018211 1.0421192646026611 0.00022501534840557724 -0.38217878341674805 0.8516925573348999 0.5020087957382202 0.441272497177124 0.4382280707359314 0.06404712051153183 -0.32308584451675415 0.9922101497650146 0.6664507389068604 0.44236278533935547 0.4068032503128052 0.00327292294241488 0.3560483909314764 -0.06980852820706474 0.28625445680068273 -1.36753142567241 1.6757924948415026 1.1483838131258328 0.009299722311184483 -0.014241645898130685 0.07794278158632051 1.016751847167806 -0.04428323584200319 -0.3666062616508451 -0.07315014316625387 -0.3151252453476572 0.12659024995554732 -0.0028996041835655647 -0.019629855783601168 0.005561697059665402 0.35606144016718455 -0.06978405696118956 0.2862737543744709 -1.3670800361052118 1.6754233799752571 1.148731881931496 0.009080693576708668 -0.015226991916462991 0.07803200993505978 1.0217546130178783 -0.043445906215439416 -0.3709261166401057 0 31.4375 33.3125 35.1875 40.5625 43.875 44.75 0.908737 7 253 253 253 253 253 253 1 -8.580818176269531 1.9919757843017578 -3.6774938106536865 1.0 1.0 0.21292169138797237 47.92421340942383 47.976165771484375 0.8045620322227478 47.713924407958984 47.78559112548828 47.75692367553711 47.54193115234375 47.59926223754883 47.69959259033203 4 2 0.05020612225782264
6525.098 -0.06937896450678682 -1.8873162596062087 -1.4638699668593063 -1.5793190601055072 2.755041973038549 -0.005886309990754235 -0.14454043006457787 -0.0009835426335434627 -0.03168971779212351 0.011224720250411288 1.0471975511965976 0.0002622349545613204 0.0 0.0 0.0 0.0 0.0 0.0 -0.32309117913246155 0.9921512007713318 0.6664958000183105 0.44249260425567627 0.4070504903793335 0.003272895934060216 -0.010997103441756454 11.00918389442068 7.268371234059169 0.9649701817444832 0.2710104446212375 -1.9398856557066584e-05 -0.06927997270692998 -1.887341161767477 -1.4638209342956543 -1.5793377361693324 2.754634380340576 -0.005913082753316701 -0.1415359526872635 -0.0009622016223147511 -0.03254406899213791 0.011285951361060143 1.047957420349121 0.0002237294102087617 -0.36682218313217163 0.8183584213256836 0.5309733748435974 0.4517349898815155 0.3824971616268158 0.06663471460342407 -0.32309117913246155 0.9921512007713318 0.6664958000183105 0.44249260425567627 0.4070504903793335 0.003272895934060216 0.35613997938250136 -0.06988799224812839 0.2868689592002188 -1.359692818513038 1.6704413712559238 1.1522249312569546 0.009292262970656256 -0.014869035531118825 0.07814654687133993 1.0224630341193732 -0.043835625316013385 -0.36823733925522034 -0.06395368826612002 -0.2328581235515828 0.5064415668093218 -0.010295956301788638 -0.019002491560780377 0.0045533781386177564 0.35613436856354 -0.06990899597879287 0.2868992005526469 -1.3592531375476244 1.670230789032316 1.1523903590804108 0.009150736219538448 -0.016008220930801342 0.07832851343523173 1.0216654809147834 -0.044622852981201534 -0.3710995713680174 0 31.4375 33.3125 35.1875 40.5625 43.875 44.75 0.931428 7 253 253 253 253 253 253 1 -8.619125366210938 1.9153614044189453 -3.2561142444610596 1.0 1.0 0.21311171913232124 47.93585968017578 47.97795486450195 0.8493211269378662 47.7282600402832 47.799922943115234 47.77125549316406 47.5275993347168 47.57059860229492 47.68526077270508 4 2 0.05008509203397752
6525.106 -0.0705352879473029 -1.8873241279472772 -1.464123484601643 -1.579229262343504 2.763419553448122 -0.005884212111117115 -0.14454043006457787 -0.0009835426335434627 -0.03168971779212351 0.011224720250411288 1.0471975511965976 0.0002622349545613204 0.0 0.0 0.0 0.0 0.0 0.0 -0.32309645414352417 0.9921940565109253 0.6664927005767822 0.4426008462905884 0.40728795528411865 0.0032728698570281267 -0.011052221236157369 11.00951132029753 7.268319721011229 0.9653822043583385 0.2719244753991032 -1.9494310604396122e-05 -0.07048017183412725 -1.8872763119139613 -1.4640541076660156 -1.5792495212950648 2.7629668712615967 -0.005904976521627248 -0.14462725818157196 -0.0008566732285544276 -0.03206991031765938 0.012531162239611149 1.0365229845046997 0.0003166266542393714 -0.3360012471675873 0.8271872997283936 0.5072766542434692 0.44299376010894775 0.4270176291465759 0.07551263272762299 -0.32309645414352417 0.9921940565109253 0.6664927005767822 0.4426008462905884 0.40728795528411865 0.0032728698570281267 0.3562014454359864 -0.07003548928714291 0.28752476553184814 -1.3518957677679966 1.665233516443172 1.1557221441827816 0.008993557962775463 -0.017132290100756058 0.07775326389219041 1.0111307170295103 -0.04605857851608778 -0.3689629588488401 0.019375425967261505 -0.23340646530116815 0.35933200843104884 -0.0057606653837640135 -0.01903655793668671 0.0066558287137927045 0.3562078412146459 -0.0700401957443908 0.2875269942236769 -1.3514304768984302 1.66502251449343 1.1560120166872752 0.009216754357241317 -0.016792168052584495 0.07861887979073715 1.0215749642072118 -0.04579966682437033 -0.37127301272012136 0 31.4375 33.3125 35.1875 40.5625 43.875 44.75 0.906985 7 253 253 253 253 253 253 1 -8.063671112060547 2.011129379272461 -3.0837316513061523 1.0 1.0 0.21330201020442968 47.914363861083984 47.95198059082031 0.7821771502494812 47.7282600402832 47.77125549316406 47.77125549316406 47.513267517089844 47.5275993347168 47.656593322753906 4 2 0.049338306876252715
6525.114 -0.07169161138781988 -1.8873319962883457 -1.46437700234398 -1.5791394645815 2.771797133857695 -0.005882114231480884 -0.14454043006457787 -0.0009835426335434627 -0.03168971779212351 0.011224720250411288 1.0471975511965976 0.0002622349545613204 0.0 0.0 0.0 0.0 0.0 0.0 -0.3231014907360077 0.9922138452529907 0.6664885878562927 0.4427124261856079 0.4075168967247009 0.0032728444784879684 -0.011105317308492287 11.00976830036425 7.268333782991172 0.9658045566961028 0.27280271391070726 -1.9586542400474336e-05 -0.07163030305971319 -1.887336870233053 -1.4642187356948853 -1.5791384182372035 2.771169900894165 -0.005860630665914357 -0.14257584512233734 -0.0010691750794649124 -0.03200693055987358 0.01258548442274332 1.0366922616958618 0.0002903031709138304 -0.3854253888130188 0.811911940574646 0.5063046813011169 0.44908928871154785 0.4972248077392578 0.05768974870443344 -0.3231014907360077 0.9922138452529907 0.6664885878562927 0.4427124261856079 0.4075168967247009 0.0032728444784879684 0.35628883458590493 -0.07017723814372533 0.2881480964386299 -1.3442161600066405 1.660128951412417 1.1592008052323564 0.009233293235655223 -0.017162990182540923 0.07798972133935304 1.0112248776748451 -0.04715842133844122 -0.367051462336259 0.07369435394067234 -0.25069489897996583 0.08843723265753171 -0.005831410094321033 -0.019416150819744727 0.007154212687236324 0.3562818258552573 -0.070177677741822 0.28815708621039415 -1.343612154986215 1.6597986453606768 1.1595969794577956 0.009278730759622994 -0.01757876798693523 0.07890308907155369 1.0214830630358651 -0.0469763461394251 -0.3714464408315959 0 31.4375 33.3125 35.1875 40.5625 43.875 44.75 1.000224 7 253 253 253 253 253 253 1 -8.676587104797363 2.3942017555236816 -3.5625722408294678 1.0 1.0 0.21349255054505709 47.91884231567383 47.95735549926758 0.8067978620529175 47.713924407958984 47.799922943115234 47.799922943115234 47.54193115234375 47.61359786987305 47.670928955078125 4 2 0.049094635156587456
6525.121999999999 -0.07284793482833685 -1.8873398646294142 -1.4646305200863168 -1.5790496668194969 2.7801747142672673 -0.005880016351844652 -0.14454043006457787 -0.0009835426335434627 -0.03168971779212351 0.011224720250411288 1.0471975511965976 0.0002622349545613204 0.0 0.0 0.0 0.0 0.0 0.0 -0.3231064975261688 0.9922364950180054 0.6664721369743347 0.4428076148033142 0.40773606300354004 0.003272820031270385 -0.011156818027543612 11.010086432984053 7.2681809436759615 0.9661756281331277 0.27364101488194986 -1.9675466286140942e-05 -0.07272273698915654 -1.8872877560057582 -1.4645484685897827 -1.579022069970602 2.779414415359497 -0.005863491688863576 -0.14442947506904602 -0.001431620097719133 -0.03285415098071098 0.008728601969778538 1.0576064586639404 0.00027528745704330504 -0.34388333559036255 0.8293678760528564 0.5153480172157288 0.4683445990085602 0.48098888993263245 0.056940414011478424 -0.3231064975261688 0.9922364950180054 0.6664721369743347 0.4428076148033142 0.40773606300354004 0.003272820031270385 0.35635126868716727 -0.07030098300509446 0.28877001801142066 -1.3365766331983728 1.6549443663317591 1.1627157735942542 0.00937077317933548 -0.01791576262574187 0.07934714826007337 1.0318514352733106 -0.04460911703390311 -0.3736130595088171 -0.0690263794179089 -0.3171807738295546 0.127024708271016 -0.0020751717938806234 -0.021317576938188358 0.0033978467483728606 0.35635629008398817 -0.07032146293162245 0.28878942717793055 -1.3357982716896062 1.654559270075635 1.1631453718461604 0.009336648621810597 -0.018367955203843635 0.07918112178268101 1.0213897775430985 -0.048152889319691375 -0.37161985583807416 0 31.4375 33.3125 35.1875 40.5625 43.875 44.75 0.917556 7 253 253 253 253 253 253 1 -9.27034854888916 1.9153614044189453 -3.4093432426452637 1.0 1.0 0.2136833262596761 47.9000358581543 47.95556640625 0.8627467155456543 47.7282600402832 47.81425476074219 47.75692367553711 47.5275993347168 47.55626678466797 47.670928955078125 4 2 0.05195944424882594
6525.13 -0.07400425826885293 -1.8873477329704826 -1.4648840378286536 -1.5789598690574937 2.7885522946768404 -0.005877918472207533 -0.14454043006457787 -0.0009835426335434627 -0.03168971779212351 0.011224720250411288 1.0471975511965976 0.0002622349545613204 0.0 0.0 0.0 0.0 0.0 0.0 -0.32311156392097473 0.9922569990158081 0.6664740443229675 0.442923903465271 0.4083741009235382 0.003272794419899583 -0.01121005204005545 11.010286441872829 7.268241001687224 0.9666159249838654 0.2745094812509709 -1.9767954878981582e-05 -0.07392532030214483 -1.8873244724669398 -1.4648240804672241 -1.5789786777892054 2.787978410720825 -0.005913082753316701 -0.14893589913845062 -0.0009533360134810209 -0.033285267651081085 0.012340757995843887 1.0611577033996582 0.00026339004398323596 -0.29481828212738037 0.831739068031311 0.528651237487793 0.4618605673313141 0.39737868309020996 0.07350312173366547 -0.32311156392097473 0.9922569990158081 0.6664740443229675 0.442923903465271 0.4083741009235382 0.003272794419899583 0.35642627598984455 -0.07046123658279362 0.28939979869272137 -1.328569445713566 1.6496013496930768 1.1663503313836123 0.009266129215018345 -0.02023362269836225 0.08024944393724305 1.0349416331490786 -0.04974592986957404 -0.37914330123536377 0.021913862847728862 -0.15107707877682916 0.46304037910136886 -0.009042383840446264 -0.018968408044331173 0.007491478453517207 0.3564312013667206 -0.07047157174916421 0.2894239676372026 -1.327988925945529 1.6493044765227263 1.1666573180516693 0.009390491566121394 -0.019159663943646606 0.07945295886548223 1.021295107872929 -0.04932929475734084 -0.3717932578756278 0 31.4375 33.3125 35.1875 40.5625 43.8125 44.75 0.916741 7 253 253 253 253 253 253 1 -8.427589416503906 1.8962078094482422 -3.0837316513061523 1.0 1.0 0.21387432361417227 47.89197540283203 47.94034194946289 0.7575564384460449 47.713924407958984 47.78559112548828 47.77125549316406 47.54193115234375 47.54193115234375 47.656593322753906 4 2 0.051827929592115136
