Andreas691667/Digital_Twin_UR/src/dt/zmq_publisher_log.csv
actual_q0,3.712062358856201
actual_q1,-0.825466052894928
actual_q2,0.8430245558368128
actual_q3,-1.5882607899107875
actual_q4,-1.5708087126361292
actual_q5,2.141287088394165
actual_q0,3.712066650390625
actual_q1,-0.8254542511752625
actual_q2,0.8429964224444788
actual_q3,-1.588297029534811
actual_q4,-1.5708211104022425
actual_q5,2.141266345977783
actual_q0,3.712062358856201
actual_q1,-0.8254497212222596
actual_q2,0.8429721037494105
actual_q3,-1.5882650814452113
actual_q4,-1.5707967917071741
actual_q5,2.141291618347168
actual_q0,3.7120416164398193
actual_q1,-0.825466052894928
actual_q2,0.8430174032794397
actual_q3,-1.5882650814452113
actual_q4,-1.57074481645693
actual_q5,2.141287088394165
actual_q0,3.712045907974243
actual_q1,-0.8254289788058777
actual_q2,0.8429763952838343
actual_q3,-1.588292738000387
actual_q4,-1.5708168188678187
actual_q5,2.141270637512207
actual_q0,3.71207857131958
actual_q1,-0.8255320948413392
actual_q2,0.842971150075094
actual_q3,-1.588269372979635
actual_q4,-1.5707772413836878
actual_q5,2.141263484954834
actual_q0,3.7120537757873535
actual_q1,-0.825495795612671
actual_q2,0.8429964224444788
actual_q3,-1.5883094273009242
actual_q4,-1.5707562605487269
actual_q5,2.14123797416687
actual_q0,3.712050199508667
actual_q1,-0.8255127829364319
actual_q2,0.8430007139789026
actual_q3,-1.588292738000387
actual_q4,-1.5707967917071741
actual_q5,2.141263484954834
actual_q0,3.7120492458343506
actual_q1,-0.8254543107799073
actual_q2,0.8429587523089808
actual_q3,-1.5882889233031214
actual_q4,-1.5707805792437952
actual_q5,2.141235113143921
actual_q0,3.7120742797851562
actual_q1,-0.8254408997348328
actual_q2,0.8430007139789026
actual_q3,-1.5883408985533656
actual_q4,-1.570801083241598
actual_q5,2.141214370727539
actual_q0,3.712094783782959
actual_q1,-0.8254543107799073
actual_q2,0.8429673353778284
actual_q3,-1.5882889233031214
actual_q4,-1.570772949849264
actual_q5,2.141321897506714
actual_q0,3.712106704711914
actual_q1,-0.8254542511752625
actual_q2,0.8429845015155237
actual_q3,-1.5883056126036585
actual_q4,-1.5707967917071741
actual_q5,2.1412928104400635
actual_q0,3.712090492248535
actual_q1,-0.8254616421512146
actual_q2,0.8429845015155237
actual_q3,-1.5883051357665003
actual_q4,-1.570801083241598
actual_q5,2.1412336826324463
actual_q0,3.713409423828125
actual_q1,-0.8263867062381287
actual_q2,0.8442543188678187
actual_q3,-1.5886994800963343
actual_q4,-1.570813004170553
actual_q5,2.1424977779388428
actual_q0,3.71767520904541
actual_q1,-0.8297546070865174
actual_q2,0.8493168989764612
actual_q3,-1.59002747158193
actual_q4,-1.5708006064044397
actual_q5,2.146866798400879
actual_q0,3.7250444889068604
actual_q1,-0.8360327643207093
actual_q2,0.8577716986285608
actual_q3,-1.592611928979391
actual_q4,-1.5708254019366663
actual_q5,2.154233932495117
actual_q0,3.7354893684387207
actual_q1,-0.8446395558169861
actual_q2,0.8697589079486292
actual_q3,-1.5957099399962367
actual_q4,-1.5708254019366663
actual_q5,2.164614200592041
actual_q0,3.7490313053131104
actual_q1,-0.8558060687831421
actual_q2,0.8851240316974085
actual_q3,-1.6001283131041468
actual_q4,-1.5707925001727503
actual_q5,2.1781086921691895
actual_q0,3.7654454708099365
actual_q1,-0.8693984311870118
actual_q2,0.9040506521808069
actual_q3,-1.60526766399526
actual_q4,-1.5708168188678187
actual_q5,2.194714307785034
actual_q0,3.7850475311279297
actual_q1,-0.885572151546814
actual_q2,0.9263599554644983
actual_q3,-1.6114713154234828
actual_q4,-1.5708449522601526
actual_q5,2.2141997814178467
actual_q0,3.807701826095581
actual_q1,-0.9042303127101441
actual_q2,0.9522774855243128
actual_q3,-1.6186896763243617
actual_q4,-1.570784870778219
actual_q5,2.23679780960083
actual_q0,3.833221435546875
actual_q1,-0.925303654079773
actual_q2,0.9816244284259241
actual_q3,-1.627061506310934
actual_q4,-1.5708368460284632
actual_q5,2.2625372409820557
actual_q0,3.8620903491973877
actual_q1,-0.9491342467120667
actual_q2,1.0144084135638636
actual_q3,-1.6363021335997523
actual_q4,-1.5707529226886194
actual_q5,2.2913899421691895
actual_q0,3.893928050994873
actual_q1,-0.9752015632442017
actual_q2,1.0509126822101038
actual_q3,-1.646167894402975
actual_q4,-1.570784870778219
actual_q5,2.3231334686279297
actual_q0,3.928804636001587
actual_q1,-1.0039280217937012
actual_q2,1.0904858748065394
actual_q3,-1.6575776539244593
actual_q4,-1.5707925001727503
actual_q5,2.357929229736328
actual_q0,3.9665727615356445
actual_q1,-1.0350564283183594
actual_q2,1.1340797583209437
actual_q3,-1.6695448360838832
actual_q4,-1.5708211104022425
actual_q5,2.395721912384033
actual_q0,4.007720947265625
actual_q1,-1.068947510128357
actual_q2,1.1807487646686
actual_q3,-1.6825458012022914
actual_q4,-1.5707929770099085
actual_q5,2.436823844909668
actual_q0,4.0517449378967285
actual_q1,-1.1051142674735566
actual_q2,1.2310832182513636
actual_q3,-1.6967364750304164
actual_q4,-1.5707767645465296
actual_q5,2.4809622764587402
actual_q0,4.097421646118164
actual_q1,-1.1427925688079377
actual_q2,1.2833259741412562
actual_q3,-1.711292406121725
actual_q4,-1.5707405249225062
actual_q5,2.5266382694244385
actual_q0,4.143258094787598
actual_q1,-1.1804943543723603
actual_q2,1.335639778767721
actual_q3,-1.7260600529112757
actual_q4,-1.5707324186908167
actual_q5,2.572622299194336
actual_q0,4.18911075592041
actual_q1,-1.2181888085654755
actual_q2,1.3881667296039026
actual_q3,-1.7407275638976039
actual_q4,-1.5707810560809534
actual_q5,2.618286609649658
actual_q0,4.234926223754883
actual_q1,-1.2560244661620636
actual_q2,1.4404266516314905
actual_q3,-1.7551619015135707
actual_q4,-1.5707767645465296
actual_q5,2.6642966270446777
actual_q0,4.280747890472412
actual_q1,-1.2937215727618714
actual_q2,1.492852512990133
actual_q3,-1.7697106800475062
actual_q4,-1.5708568731891077
actual_q5,2.7097856998443604
actual_q0,4.326571464538574
actual_q1,-1.33143866181884
actual_q2,1.5451024214373987
actual_q3,-1.7846652470030726
actual_q4,-1.5707967917071741
actual_q5,2.755920171737671
actual_q0,4.371159076690674
actual_q1,-1.368025855427124
actual_q2,1.595849339162008
actual_q3,-1.7986828289427699
actual_q4,-1.570784870778219
actual_q5,2.800253391265869
actual_q0,4.412754535675049
actual_q1,-1.4023266446641465
actual_q2,1.6434720198260706
actual_q3,-1.8120190105833949
actual_q4,-1.5707810560809534
actual_q5,2.841825008392334
actual_q0,4.451292037963867
actual_q1,-1.4338862162879487
actual_q2,1.6873810927020472
actual_q3,-1.824270864526266
actual_q4,-1.570813004170553
actual_q5,2.880532741546631
actual_q0,4.486556053161621
actual_q1,-1.463157245223858
actual_q2,1.7277711073504847
actual_q3,-1.835771223107809
actual_q4,-1.5707967917071741
actual_q5,2.91591215133667
actual_q0,4.518826007843018
actual_q1,-1.4897865963033219
actual_q2,1.764747444783346
actual_q3,-1.8460518322386683
actual_q4,-1.5708168188678187
actual_q5,2.9481747150421143
actual_q0,4.548234939575195
actual_q1,-1.51399206862364
actual_q2,1.7982805410968226
actual_q3,-1.8552466831602992
actual_q4,-1.5708735624896448
actual_q5,2.977525472640991
actual_q0,4.574349403381348
actual_q1,-1.5356204745224495
actual_q2,1.8283985296832483
actual_q3,-1.8636990986266078
actual_q4,-1.5708649794207972
actual_q5,3.0037477016448975
actual_q0,4.5976948738098145
actual_q1,-1.5544946671328326
actual_q2,1.8548310438739222
actual_q3,-1.8711215458311976
actual_q4,-1.5707929770099085
actual_q5,3.0267958641052246
actual_q0,4.617909908294678
actual_q1,-1.5712644062437953
actual_q2,1.877618137990133
actual_q3,-1.8775469265379847
actual_q4,-1.5708087126361292
actual_q5,3.0470402240753174
actual_q0,4.634837627410889
actual_q1,-1.585095068017477
actual_q2,1.8973601500140589
actual_q3,-1.882968088189596
actual_q4,-1.570784870778219
actual_q5,3.0641417503356934
actual_q0,4.649012565612793
actual_q1,-1.5967933140196742
actual_q2,1.9133837858783167
actual_q3,-1.8872415028014125
actual_q4,-1.5708211104022425
actual_q5,3.078145980834961
actual_q0,4.65992546081543
actual_q1,-1.605866094628805
actual_q2,1.92578632036318
actual_q3,-1.890970846215719
actual_q4,-1.5708168188678187
actual_q5,3.0891408920288086
actual_q0,4.667740345001221
actual_q1,-1.6122600040831507
actual_q2,1.9349387327777308
actual_q3,-1.8933850727477015
actual_q4,-1.5707691351519983
actual_q5,3.0970466136932373
actual_q0,4.672675132751465
actual_q1,-1.6163503132262171
actual_q2,1.9404118696795862
actual_q3,-1.8950854740538539
actual_q4,-1.5708125273333948
actual_q5,3.1019065380096436
actual_q0,4.674502849578857
actual_q1,-1.61785950283193
actual_q2,1.9426177183734339
actual_q3,-1.895538946191305
actual_q4,-1.5708006064044397
actual_q5,3.103668451309204
actual_q0,4.674468517303467
actual_q1,-1.6171924076476039
actual_q2,1.9434903303729456
actual_q3,-1.897024770776266
actual_q4,-1.5708125273333948
actual_q5,3.1036713123321533
actual_q0,4.674483299255371
actual_q1,-1.6155463657774867
actual_q2,1.946561638508932
actual_q3,-1.901835104028219
actual_q4,-1.5708048979388636
actual_q5,3.103672981262207
actual_q0,4.674522399902344
actual_q1,-1.6123367748656214
actual_q2,1.9518097082721155
actual_q3,-1.910318513909811
actual_q4,-1.5707724730121058
actual_q5,3.103739023208618
actual_q0,4.674495697021484
actual_q1,-1.6076413593687953
actual_q2,1.9590614477740687
actual_q3,-1.922098299066061
actual_q4,-1.5708168188678187
actual_q5,3.1037299633026123
actual_q0,4.674549102783203
actual_q1,-1.6017104587950648
actual_q2,1.9684470335589808
actual_q3,-1.937634130517477
actual_q4,-1.570784870778219
actual_q5,3.103722095489502
actual_q0,4.674540042877197
actual_q1,-1.5943433247008265
actual_q2,1.980436150227682
actual_q3,-1.9564687214293421
actual_q4,-1.570829216633932
actual_q5,3.1037509441375732
actual_q0,4.674490928649902
actual_q1,-1.5858375034727992
actual_q2,1.993768040333883
actual_q3,-1.9789163074889125
actual_q4,-1.570784870778219
actual_q5,3.1037344932556152
actual_q0,4.674499988555908
actual_q1,-1.5760075054564417
actual_q2,2.0099828878985804
actual_q3,-2.0047489605345667
actual_q4,-1.5707967917071741
actual_q5,3.103701114654541
actual_q0,4.674527645111084
actual_q1,-1.56469700744886
actual_q2,2.027829949055807
actual_q3,-2.0338579616942347
actual_q4,-1.5708168188678187
actual_q5,3.1037256717681885
actual_q0,4.674526691436768
actual_q1,-1.5541646473905821
actual_q2,2.04486591020693
actual_q3,-2.0613938770689906
actual_q4,-1.5708087126361292
actual_q5,3.10371470451355
actual_q0,4.674538612365723
actual_q1,-1.545034098704793
actual_q2,2.0594690481769007
actual_q3,-2.0855256519713343
actual_q4,-1.570829216633932
actual_q5,3.103767156600952
actual_q0,4.674561023712158
actual_q1,-1.5213004139116784
actual_q2,2.0973814169513147
actual_q3,-2.1470424137511195
actual_q4,-1.5708048979388636
actual_q5,3.103713035583496
actual_q0,4.6745076179504395
actual_q1,-1.5187037263861676
actual_q2,2.1016152540790003
actual_q3,-2.15364994625234
actual_q4,-1.5708254019366663
actual_q5,3.103710174560547
actual_q0,4.674527645111084
actual_q1,-1.5175722067109128
actual_q2,2.103483025227682
actual_q3,-2.1567350826659144
actual_q4,-1.5708087126361292
actual_q5,3.103722095489502
actual_q0,4.674572944641113
actual_q1,-1.5174634245089074
actual_q2,2.103610340748922
actual_q3,-2.1569906673827113
actual_q4,-1.570801083241598
actual_q5,3.103760004043579
actual_q0,4.674505233764648
actual_q1,-1.5174090166440983
actual_q2,2.103638474141256
actual_q3,-2.1570188007750453
actual_q4,-1.5708087126361292
actual_q5,3.103693723678589
actual_q0,4.674544811248779
actual_q1,-1.5174708825400849
actual_q2,2.1036341826068323
actual_q3,-2.1569420299925746
actual_q4,-1.5708335081683558
actual_q5,3.103722095489502
actual_q0,4.6745100021362305
actual_q1,-1.517435235237219
actual_q2,2.1036461035357874
actual_q3,-2.1569906673827113
actual_q4,-1.5708168188678187
actual_q5,3.103693962097168
actual_q0,4.6744866371154785
actual_q1,-1.5173686642995854
actual_q2,2.1036375204669397
actual_q3,-2.156994958917135
actual_q4,-1.5707805792437952
actual_q5,3.103731155395508
actual_q0,4.674540042877197
actual_q1,-1.5173948568156739
actual_q2,2.103605095540182
actual_q3,-2.1570188007750453
actual_q4,-1.5707648436175745
actual_q5,3.103752613067627
actual_q0,4.674549102783203
actual_q1,-1.5173979897848149
actual_q2,2.1036375204669397
actual_q3,-2.1570903263487757
actual_q4,-1.5707925001727503
actual_q5,3.103743553161621
actual_q0,4.674511909484863
actual_q1,-1.5173860688558598
actual_q2,2.10366660753359
actual_q3,-2.157030244866842
actual_q4,-1.5708087126361292
actual_q5,3.103756904602051
actual_q0,4.674511909484863
actual_q1,-1.5174308840981503
actual_q2,2.103673283253805
actual_q3,-2.157042165795797
actual_q4,-1.5707529226886194
actual_q5,3.1037344932556152
actual_q0,4.674520969390869
actual_q1,-1.517386109834053
actual_q2,2.103666130696432
actual_q3,-2.1570941410460414
actual_q4,-1.5708254019366663
actual_q5,3.1037354469299316
actual_q0,4.674532413482666
actual_q1,-1.517374226158001
actual_q2,2.1036580244647425
actual_q3,-2.157042165795797
actual_q4,-1.5708449522601526
actual_q5,3.10371732711792
actual_q0,4.67452335357666
actual_q1,-1.517362644230463
actual_q2,2.1036418120013636
actual_q3,-2.157074113885397
actual_q4,-1.5708368460284632
actual_q5,3.103739023208618
actual_q0,4.674511909484863
actual_q1,-1.5174427789500733
actual_q2,2.103586498891012
actual_q3,-2.1572305164732875
actual_q4,-1.570801083241598
actual_q5,3.1037299633026123
actual_q0,4.674498558044434
actual_q1,-1.5173929010382672
actual_q2,2.1035497824298304
actual_q3,-2.1571866474547328
actual_q4,-1.570813004170553
actual_q5,3.1037344932556152
actual_q0,4.674532413482666
actual_q1,-1.5174948026290913
actual_q2,2.1035144964801233
actual_q3,-2.1569348774352015
actual_q4,-1.5707767645465296
actual_q5,3.103739023208618
actual_q0,4.674499988555908
actual_q1,-1.5184637543610116
actual_q2,2.1019838492022913
actual_q3,-2.1539231739439906
actual_q4,-1.570784870778219
actual_q5,3.103696584701538
actual_q0,4.674498558044434
actual_q1,-1.5209735830179234
actual_q2,2.097779099141256
actual_q3,-2.147271295587057
actual_q4,-1.5708335081683558
actual_q5,3.1037392616271973
actual_q0,4.6744914054870605
actual_q1,-1.524871402685978
actual_q2,2.091591183339254
actual_q3,-2.137332101861471
actual_q4,-1.57074481645693
actual_q5,3.103748083114624
actual_q0,4.674519062042236
actual_q1,-1.5301248368671914
actual_q2,2.0832060019122522
actual_q3,-2.1239940128722132
actual_q4,-1.5707686583148401
actual_q5,3.103739023208618
actual_q0,4.674504280090332
actual_q1,-1.5366201934269448
actual_q2,2.072752300892965
actual_q3,-2.1069213352599085
actual_q4,-1.5707929770099085
actual_q5,3.1037256717681885
actual_q0,4.674511909484863
actual_q1,-1.5445305065116663
actual_q2,2.060141388569967
actual_q3,-2.086435457269186
actual_q4,-1.5707967917071741
actual_q5,3.1037189960479736
actual_q0,4.6744866371154785
actual_q1,-1.5537286766669531
actual_q2,2.0454843680011194
actual_q3,-2.062575956384176
actual_q4,-1.5707886854754847
actual_q5,3.10371470451355
actual_q0,4.674526691436768
actual_q1,-1.5642228077961882
actual_q2,2.028476063405172
actual_q3,-2.035161634484762
actual_q4,-1.5707767645465296
actual_q5,3.103726625442505
actual_q0,4.674466609954834
actual_q1,-1.575477739373678
actual_q2,2.0106919447528284
actual_q3,-2.0060230694212855
actual_q4,-1.5708487669574183
actual_q5,3.103743553161621
actual_q0,4.674556732177734
actual_q1,-1.5854550800719203
actual_q2,1.994582478200094
actual_q3,-1.9799663029112757
actual_q4,-1.5708048979388636
actual_q5,3.103701114654541
actual_q0,4.674556732177734
actual_q1,-1.5941225490965785
actual_q2,1.9808843771563929
actual_q3,-1.957440038720602
actual_q4,-1.570801083241598
actual_q5,3.103743553161621
actual_q0,4.674498558044434
actual_q1,-1.6014229259886683
actual_q2,1.968963925038473
actual_q3,-1.9384094677367152
actual_q4,-1.5707925001727503
actual_q5,3.103722095489502
actual_q0,4.674458026885986
actual_q1,-1.6073781452574671
actual_q2,1.9595368544207972
actual_q3,-1.9227830372252406
actual_q4,-1.570813004170553
actual_q5,3.103739023208618
actual_q0,4.674478054046631
actual_q1,-1.6119357548155726
actual_q2,1.9521682898150843
actual_q3,-1.910818716088766
actual_q4,-1.5707805792437952
actual_q5,3.103726625442505
actual_q0,4.6745686531066895
actual_q1,-1.6151963673033656
actual_q2,1.9468124548541468
actual_q3,-1.9022628269591273
actual_q4,-1.5707648436175745
actual_q5,3.1037344932556152
actual_q0,4.674548625946045
actual_q1,-1.6172353229918421
actual_q2,1.9436329046832483
actual_q3,-1.8972145519652308
actual_q4,-1.5707767645465296
actual_q5,3.103739023208618
actual_q0,4.674553394317627
actual_q1,-1.6178065739073695
actual_q2,1.9427436033831995
actual_q3,-1.8956757984557093
actual_q4,-1.5708044211017054
actual_q5,3.103710174560547
actual_q0,4.67267370223999
actual_q1,-1.6173387966551722
actual_q2,1.9420154730426233
actual_q3,-1.8955346546568812
actual_q4,-1.5707891623126429
actual_q5,3.1018099784851074
actual_q0,4.667218208312988
actual_q1,-1.616011758843893
actual_q2,1.940331761037008
actual_q3,-1.8951002560057582
actual_q4,-1.570801083241598
actual_q5,3.096407175064087
actual_q0,4.658335208892822
actual_q1,-1.6136805019774378
actual_q2,1.9374211470233362
actual_q3,-1.8946777782835902
actual_q4,-1.5707772413836878
actual_q5,3.087447166442871
actual_q0,4.645847320556641
actual_q1,-1.6103011570372523
actual_q2,1.9335287253009241
actual_q3,-1.8940302334227503
actual_q4,-1.5707486311541956
actual_q5,3.0752246379852295
actual_q0,4.630075931549072
actual_q1,-1.606119295159811
actual_q2,1.928458038960592
actual_q3,-1.893196245233053
actual_q4,-1.5707653204547327
actual_q5,3.0592093467712402
actual_q0,4.610631465911865
actual_q1,-1.6009804211058558
actual_q2,1.9222210089312952
actual_q3,-1.8921858272948207
actual_q4,-1.5708373228656214
actual_q5,3.039907455444336
actual_q0,4.587882041931152
actual_q1,-1.5948292217650355
actual_q2,1.9149277845965784
actual_q3,-1.8909369907774867
actual_q4,-1.570784870778219
actual_q5,3.017202377319336
actual_q0,4.561635494232178
actual_q1,-1.5879236660399378
actual_q2,1.9065569082843226
actual_q3,-1.8895155392088832
actual_q4,-1.5707805792437952
actual_q5,2.990705728530884
actual_q0,4.531651973724365
actual_q1,-1.580008169213766
actual_q2,1.8971946875201624
actual_q3,-1.8878346882262171
actual_q4,-1.5708087126361292
actual_q5,2.9607467651367188
actual_q0,4.49833345413208
actual_q1,-1.5711585483946742
actual_q2,1.8864734808551233
actual_q3,-1.8861314258971156
actual_q4,-1.5707767645465296
actual_q5,2.92746639251709
actual_q0,4.461462497711182
actual_q1,-1.56136084095154
actual_q2,1.8745930830584925
actual_q3,-1.8841835461058558
actual_q4,-1.570813004170553
actual_q5,2.8908395767211914
actual_q0,4.4211320877075195
actual_q1,-1.550820718785264
actual_q2,1.8618972937213343
actual_q3,-1.8819557629027308
actual_q4,-1.5708168188678187
actual_q5,2.8504586219787598
actual_q0,4.377381324768066
actual_q1,-1.5391423937729378
actual_q2,1.8478477636920374
actual_q3,-1.879545351068014
actual_q4,-1.5707925001727503
actual_q5,2.8065602779388428
actual_q0,4.330078601837158
actual_q1,-1.5264751140824337
actual_q2,1.8329580465899866
actual_q3,-1.8770061932005824
actual_q4,-1.570829216633932
actual_q5,2.759363889694214
actual_q0,4.27933406829834
actual_q1,-1.5131995689919968
actual_q2,1.816538159047262
actual_q3,-1.8743630848326625
actual_q4,-1.570824925099508
actual_q5,2.7084615230560303
actual_q0,4.22698450088501
actual_q1,-1.4992605459741135
actual_q2,1.8000362555133265
actual_q3,-1.871425291100973
actual_q4,-1.570801083241598
actual_q5,2.656106948852539
actual_q0,4.174637317657471
actual_q1,-1.4854710859111329
actual_q2,1.7832549254046839
actual_q3,-1.8687621555724085
actual_q4,-1.5707524458514612
actual_q5,2.603938341140747
actual_q0,4.122391223907471
actual_q1,-1.4714657080224534
actual_q2,1.7667487303363245
actual_q3,-1.8658162556090296
actual_q4,-1.5707686583148401
actual_q5,2.55134916305542
actual_q0,4.069881916046143
actual_q1,-1.457751290207245
actual_q2,1.7498634497271937
actual_q3,-1.8630444012083949
actual_q4,-1.570813004170553
actual_q5,2.4991061687469482
actual_q0,4.017498016357422
actual_q1,-1.443860263829567
actual_q2,1.733337704335348
actual_q3,-1.8602549038329066
actual_q4,-1.570813004170553
actual_q5,2.4468514919281006
actual_q0,3.9651730060577393
actual_q1,-1.4298969370177765
actual_q2,1.7166059652911585
actual_q3,-1.8574744663634242
actual_q4,-1.5707843939410608
actual_q5,2.394334077835083
actual_q0,3.9127676486968994
actual_q1,-1.4161990594914933
actual_q2,1.7000005880938929
actual_q3,-1.854628702203268
actual_q4,-1.5707929770099085
actual_q5,2.341970920562744
actual_q0,3.8603508472442627
actual_q1,-1.4021258664182206
actual_q2,1.6831138769732874
actual_q3,-1.8517500362791957
actual_q4,-1.570772949849264
actual_q5,2.289699077606201
actual_q0,3.8081371784210205
actual_q1,-1.388419733648636
actual_q2,1.6665328184710901
actual_q3,-1.8489672146239222
actual_q4,-1.5708087126361292
actual_q5,2.2372684478759766
actual_q0,3.7557241916656494
actual_q1,-1.3744691622308274
actual_q2,1.6498573462115687
actual_q3,-1.8461204967894496
actual_q4,-1.570784870778219
actual_q5,2.1848702430725098
actual_q0,3.7034363746643066
actual_q1,-1.360605464582779
actual_q2,1.633117977772848
actual_q3,-1.84344544033193
actual_q4,-1.5707405249225062
actual_q5,2.1327149868011475
actual_q0,3.6510469913482666
actual_q1,-1.346665934925415
actual_q2,1.6165488401996058
actual_q3,-1.8405147991576136
actual_q4,-1.5707967917071741
actual_q5,2.080216884613037
actual_q0,3.598658561706543
actual_q1,-1.3328439754298707
actual_q2,1.5997889677630823
actual_q3,-1.8376323185362757
actual_q4,-1.5708487669574183
actual_q5,2.027796745300293
actual_q0,3.546260118484497
actual_q1,-1.3190047901919861
actual_q2,1.583154026662008
actual_q3,-1.834926267663473
actual_q4,-1.5707810560809534
actual_q5,1.975500464439392
actual_q0,3.493921995162964
actual_q1,-1.3050328952125092
actual_q2,1.5663946310626429
actual_q3,-1.8320476017394007
actual_q4,-1.5708006064044397
actual_q5,1.9230930805206299
actual_q0,3.4415783882141113
actual_q1,-1.2913376551917572
actual_q2,1.5497482458697718
actual_q3,-1.8293243847289027
actual_q4,-1.5707886854754847
actual_q5,1.870680332183838
actual_q0,3.389415740966797
actual_q1,-1.2773590844920655
actual_q2,1.5330336729632776
actual_q3,-1.8265849552550257
actual_q4,-1.5708048979388636
actual_q5,1.8187649250030518
actual_q0,3.3400416374206543
actual_q1,-1.264410064821579
actual_q2,1.5174554030047815
actual_q3,-1.8238417110838832
actual_q4,-1.5707767645465296
actual_q5,1.7691782712936401
actual_q0,3.2940053939819336
actual_q1,-1.2521259945682068
actual_q2,1.5026496092425745
actual_q3,-1.8213454685606898
actual_q4,-1.5707810560809534
actual_q5,1.7232418060302734
actual_q0,3.251403570175171
actual_q1,-1.2407905918410798
actual_q2,1.4892805258380335
actual_q3,-1.8190437755980433
actual_q4,-1.5708211104022425
actual_q5,1.6806468963623047
actual_q0,3.2124602794647217
actual_q1,-1.2306825083545228
actual_q2,1.4767754713641565
actual_q3,-1.8169838390746058
actual_q4,-1.5708087126361292
actual_q5,1.641674280166626
actual_q0,3.1769659519195557
actual_q1,-1.221189872627594
actual_q2,1.4654129187213343
actual_q3,-1.8150478802123011
actual_q4,-1.5707491079913538
actual_q5,1.6061162948608398
actual_q0,3.1449532508850098
actual_q1,-1.212597833280899
actual_q2,1.4553101698504847
actual_q3,-1.8133717976012171
actual_q4,-1.5707767645465296
actual_q5,1.574173927307129
actual_q0,3.116438627243042
actual_q1,-1.2050896745971222
actual_q2,1.4461739698993128
actual_q3,-1.8117004833617152
actual_q4,-1.5708125273333948
actual_q5,1.5455702543258667
actual_q0,3.0913033485412598
actual_q1,-1.1985412997058411
actual_q2,1.438007656727926
actual_q3,-1.810460706750387
actual_q4,-1.5708087126361292
actual_q5,1.520492672920227
actual_q0,3.069600820541382
actual_q1,-1.192714439039566
actual_q2,1.4312971274005335
actual_q3,-1.8093654117979945
actual_q4,-1.5708211104022425
actual_q5,1.4989665746688843
actual_q0,3.051795244216919
actual_q1,-1.1879211527160187
actual_q2,1.4255626837359827
actual_q3,-1.808314939538473
actual_q4,-1.5707886854754847
actual_q5,1.4809083938598633
actual_q0,3.03712797164917
actual_q1,-1.1841045779040833
actual_q2,1.420976463948385
actual_q3,-1.807502885858053
actual_q4,-1.570784870778219
actual_q5,1.4663654565811157
actual_q0,3.0261030197143555
actual_q1,-1.1811440748027344
actual_q2,1.4174307028399866
actual_q3,-1.8069526157774867
actual_q4,-1.5707691351519983
actual_q5,1.4552624225616455
actual_q0,3.0184452533721924
actual_q1,-1.1791938704303284
actual_q2,1.4149883429156702
actual_q3,-1.8065577946104945
actual_q4,-1.5708048979388636
actual_q5,1.4476832151412964
actual_q0,3.0144522190093994
actual_q1,-1.1780377191356202
actual_q2,1.4135797659503382
actual_q3,-1.8063951931395472
actual_q4,-1.5707767645465296
actual_q5,1.443555235862732
actual_q0,3.013652801513672
actual_q1,-1.1779046219638367
actual_q2,1.4135668913470667
actual_q3,-1.806474348107809
actual_q4,-1.5707486311541956
actual_q5,1.4428207874298096
actual_q0,3.013685464859009
actual_q1,-1.1768666964820405
actual_q2,1.4153817335711878
actual_q3,-1.8091942272581996
actual_q4,-1.5707486311541956
actual_q5,1.4428207874298096
actual_q0,3.0136451721191406
actual_q1,-1.174800918703415
actual_q2,1.4196684996234339
actual_q3,-1.815834184686178
actual_q4,-1.5707529226886194
actual_q5,1.4427803754806519
actual_q0,3.0136616230010986
actual_q1,-1.1716873806766053
actual_q2,1.426366154347555
actual_q3,-1.825583120385641
actual_q4,-1.5707805792437952
actual_q5,1.442793607711792
actual_q0,3.0135915279388428
actual_q1,-1.1673600238612671
actual_q2,1.4354613463031214
actual_q3,-1.8388382397093714
actual_q4,-1.5707362333880823
actual_q5,1.4428191184997559
actual_q0,3.0135960578918457
actual_q1,-1.1619220536998291
actual_q2,1.4470709005938929
actual_q3,-1.8556710682311
actual_q4,-1.5707767645465296
actual_q5,1.4427282810211182
actual_q0,3.013570547103882
actual_q1,-1.155280665760376
actual_q2,1.4606879393206995
actual_q3,-1.8762217960753382
actual_q4,-1.5708487669574183
actual_q5,1.442765712738037
actual_q0,3.013580799102783
actual_q1,-1.1475657981685181
actual_q2,1.4769609610186976
actual_q3,-1.900022645989889
actual_q4,-1.5707967917071741
actual_q5,1.442737102508545
actual_q0,3.0135552883148193
actual_q1,-1.1391018790057679
actual_q2,1.4948332945453089
actual_q3,-1.9262830219664515
actual_q4,-1.5707967917071741
actual_q5,1.4427847862243652
actual_q0,3.0135390758514404
actual_q1,-1.131500856285431
actual_q2,1.5109894911395472
actual_q3,-1.9503714046873988
actual_q4,-1.5707524458514612
actual_q5,1.4427523612976074
actual_q0,3.0135598182678223
actual_q1,-1.1248208445361634
actual_q2,1.5246627966510218
actual_q3,-1.9709507427611292
actual_q4,-1.5708373228656214
actual_q5,1.4428025484085083
actual_q0,3.013556718826294
actual_q1,-1.119248704319336
actual_q2,1.5363276640521448
actual_q3,-1.987654825250143
actual_q4,-1.5707805792437952
actual_q5,1.442765712738037
actual_q0,3.0135750770568848
actual_q1,-1.1150097411921998
actual_q2,1.5453031698810022
actual_q3,-2.0012723408141078
actual_q4,-1.5707648436175745
actual_q5,1.4428060054779053
actual_q0,3.0135509967803955
actual_q1,-1.111734227543213
actual_q2,1.5519636313067835
actual_q3,-2.0112034283080042
actual_q4,-1.5708044211017054
actual_q5,1.442793607711792
actual_q0,3.0136375427246094
actual_q1,-1.109636978512146
actual_q2,1.5564912001239222
actual_q3,-2.0175310573973597
actual_q4,-1.5707886854754847
actual_q5,1.4427613019943237
actual_q0,3.0135674476623535
actual_q1,-1.1089805227569123
actual_q2,1.5581019560443323
actual_q3,-2.020937582055563
actual_q4,-1.5707605520831507
actual_q5,1.4428223371505737
actual_q0,3.0135345458984375
actual_q1,-1.108934150343277
actual_q2,1.5582049528705042
actual_q3,-2.0210892162718714
actual_q4,-1.570853058491842
actual_q5,1.4428280591964722
actual_q0,3.0135226249694824
actual_q1,-1.108790175323822
actual_q2,1.5583542029010218
actual_q3,-2.021133085290426
actual_q4,-1.5708087126361292
actual_q5,1.4428025484085083
actual_q0,3.0136168003082275
actual_q1,-1.1082183879664917
actual_q2,1.5592578093158167
actual_q3,-2.020255228082174
actual_q4,-1.5707805792437952
actual_q5,1.4427893161773682
actual_q0,3.0135793685913086
actual_q1,-1.1083057981780549
actual_q2,1.5590418020831507
actual_q3,-2.0206176243224085
actual_q4,-1.570824925099508
actual_q5,1.4427953958511353
actual_q0,3.0136258602142334
actual_q1,-1.108456627731659
actual_q2,1.5588300863849085
actual_q3,-2.02081360439443
actual_q4,-1.5707805792437952
actual_q5,1.4428025484085083
actual_q0,3.013597249984741
actual_q1,-1.1085758072188874
actual_q2,1.5587099234210413
actual_q3,-2.0208732090392054
actual_q4,-1.5707605520831507
actual_q5,1.442758321762085
actual_q0,3.0135793685913086
actual_q1,-1.1086114805987854
actual_q2,1.5586612860309046
actual_q3,-2.0208455524840296
actual_q4,-1.5707767645465296
actual_q5,1.4427776336669922
actual_q0,3.0136094093322754
actual_q1,-1.1090904039195557
actual_q2,1.557856861745016
actual_q3,-2.0199037990965785
actual_q4,-1.570784870778219
actual_q5,1.4427416324615479
actual_q0,3.0136048793792725
actual_q1,-1.1102576416781922
actual_q2,1.555150334035055
actual_q3,-2.015451570550436
actual_q4,-1.5708416144000452
actual_q5,1.4427733421325684
actual_q0,3.0134928226470947
actual_q1,-1.1129243236831208
actual_q2,1.5495217482196253
actual_q3,-2.0075727901854457
actual_q4,-1.5708211104022425
actual_q5,1.4428192377090454
actual_q0,3.0135674476623535
actual_q1,-1.1165576440146943
actual_q2,1.5419796148883265
actual_q3,-1.9960376224913539
actual_q4,-1.570813004170553
actual_q5,1.4427820444107056
actual_q0,3.0135509967803955
actual_q1,-1.1213693779757996
actual_q2,1.5316603819476526
actual_q3,-1.9812680683531703
actual_q4,-1.5708044211017054
actual_q5,1.442810297012329
actual_q0,3.0136051177978516
actual_q1,-1.1273191434196015
actual_q2,1.5194242636310022
actual_q3,-1.9628516636290492
actual_q4,-1.5708087126361292
actual_q5,1.4427570104599
actual_q0,3.0135509967803955
actual_q1,-1.1343796414187928
actual_q2,1.5045536200152796
actual_q3,-1.9410463772215785
actual_q4,-1.5707605520831507
actual_q5,1.4427318572998047
actual_q0,3.0135838985443115
actual_q1,-1.142606572513916
actual_q2,1.4874466101275843
actual_q3,-1.9156228504576625
actual_q4,-1.570813004170553
actual_q5,1.4427570104599
actual_q0,3.0135838985443115
actual_q1,-1.1509201985648652
actual_q2,1.469787899647848
actual_q3,-1.889783044854635
actual_q4,-1.570801083241598
actual_q5,1.442810297012329
actual_q0,3.0135927200317383
actual_q1,-1.158179984693863
actual_q2,1.4548705259906214
actual_q3,-1.8673187694945277
actual_q4,-1.5708168188678187
actual_q5,1.4427820444107056
actual_q0,3.0135793685913086
actual_q1,-1.1642732185176392
actual_q2,1.4419248739825647
actual_q3,-1.8485595188536585
actual_q4,-1.5708087126361292
actual_q5,1.4427978992462158
actual_q0,3.0135793685913086
actual_q1,-1.1691232186606904
actual_q2,1.4315183798419397
actual_q3,-1.8330675564207972
actual_q4,-1.570784870778219
actual_q5,1.442793607711792
actual_q0,3.0135345458984375
actual_q1,-1.1731197994998475
actual_q2,1.4235151449786585
actual_q3,-1.8211804829039515
actual_q4,-1.5707925001727503
actual_q5,1.4427363872528076
actual_q0,3.0135552883148193
actual_q1,-1.175825909977295
actual_q2,1.4177845160113733
actual_q3,-1.8127366505064906
actual_q4,-1.5708254019366663
actual_q5,1.4427733421325684
actual_q0,3.0135586261749268
actual_q1,-1.1774481397918244
actual_q2,1.4144089857684534
actual_q3,-1.8077970943846644
actual_q4,-1.5707605520831507
actual_q5,1.4427762031555176
actual_q0,3.0135793685913086
actual_q1,-1.1778073471835633
actual_q2,1.4134066740619105
actual_q3,-1.8064114056029261
actual_q4,-1.570829216633932
actual_q5,1.4427363872528076
actual_q0,3.0135793685913086
actual_q1,-1.177841530447342
actual_q2,1.4134066740619105
actual_q3,-1.8064114056029261
actual_q4,-1.5708335081683558
actual_q5,1.4427733421325684
actual_q0,3.0136125087738037
actual_q1,-1.177848981027939
actual_q2,1.4133904615985315
actual_q3,-1.8063465557494105
actual_q4,-1.5707200209247034
actual_q5,1.442793607711792
actual_q0,3.0135915279388428
actual_q1,-1.1778429013541718
actual_q2,1.4134023825274866
actual_q3,-1.8063184223570765
actual_q4,-1.5708335081683558
actual_q5,1.4428222179412842
actual_q0,3.0135750770568848
actual_q1,-1.1778355997851868
actual_q2,1.4133861700641077
actual_q3,-1.8063599071898402
actual_q4,-1.570756737385885
actual_q5,1.4427849054336548
actual_q0,3.0135793685913086
actual_q1,-1.1778384906104584
actual_q2,1.4133322874652308
actual_q3,-1.8063198528685511
actual_q4,-1.570813004170553
actual_q5,1.4427528381347656
actual_q0,3.0136125087738037
actual_q1,-1.1778882902911683
actual_q2,1.4133995215045374
actual_q3,-1.8062430820860804
actual_q4,-1.5707925001727503
actual_q5,1.4427893161773682
actual_q0,3.0135421752929688
actual_q1,-1.1778384012034913
actual_q2,1.4133589903460901
actual_q3,-1.8062225780882777
actual_q4,-1.5708006064044397
actual_q5,1.44281005859375
actual_q0,3.013558864593506
actual_q1,-1.177898721104004
actual_q2,1.4133456389056605
actual_q3,-1.806246896783346
actual_q4,-1.5708449522601526
actual_q5,1.4427849054336548
actual_q0,3.0135796070098877
actual_q1,-1.1778339606574555
actual_q2,1.4134200255023401
actual_q3,-1.806263109246725
actual_q4,-1.5707925001727503
actual_q5,1.442773461341858
actual_q0,3.0135881900787354
actual_q1,-1.1778598886779328
actual_q2,1.4133337179767054
actual_q3,-1.8062592945494593
actual_q4,-1.5707767645465296
actual_q5,1.4427614212036133
actual_q0,3.0135915279388428
actual_q1,-1.1778943103602906
actual_q2,1.4133666197406214
actual_q3,-1.8062588177123011
actual_q4,-1.5708335081683558
actual_q5,1.4428058862686157
actual_q0,3.0135719776153564
actual_q1,-1.1778898698142548
actual_q2,1.4133918921100062
actual_q3,-1.8062988720335902
actual_q4,-1.5707767645465296
actual_q5,1.4427366256713867
actual_q0,3.0135838985443115
actual_q1,-1.1778853994658967
actual_q2,1.4133575598346155
actual_q3,-1.8062669239439906
actual_q4,-1.5707843939410608
actual_q5,1.4427604675292969
actual_q0,3.0135750770568848
actual_q1,-1.1778340500644227
actual_q2,1.4133709112750452
actual_q3,-1.8062387905516566
actual_q4,-1.570813004170553
actual_q5,1.4427372217178345
actual_q0,3.0136210918426514
actual_q1,-1.1778519910625
actual_q2,1.4134038130389612
actual_q3,-1.8062669239439906
actual_q4,-1.5707767645465296
actual_q5,1.4427928924560547
actual_q0,3.0136091709136963
actual_q1,-1.1778474015048523
actual_q2,1.4134038130389612
actual_q3,-1.8062669239439906
actual_q4,-1.5707967917071741
actual_q5,1.442773461341858
actual_q0,3.0135838985443115
actual_q1,-1.1778882604888459
actual_q2,1.4133575598346155
actual_q3,-1.8062712154784144
actual_q4,-1.5708087126361292
actual_q5,1.4427485466003418
actual_q0,3.0136330127716064
actual_q1,-1.177901880150177
actual_q2,1.4133785406695765
actual_q3,-1.8062473736205042
actual_q4,-1.5708211104022425
actual_q5,1.4427971839904785
actual_q0,3.0135719776153564
actual_q1,-1.177810088997223
actual_q2,1.4133294264422815
actual_q3,-1.806263109246725
actual_q4,-1.5708168188678187
actual_q5,1.4427934885025024
actual_q0,3.0135509967803955
actual_q1,-1.1778690379909058
actual_q2,1.4133828322040003
actual_q3,-1.8063069782652796
actual_q4,-1.5707405249225062
actual_q5,1.4428091049194336
actual_q0,3.013575315475464
actual_q1,-1.1778643888286133
actual_q2,1.4133175055133265
actual_q3,-1.8063236675658167
actual_q4,-1.5708373228656214
actual_q5,1.4428424835205078
actual_q0,3.0135881900787354
actual_q1,-1.1778972011855622
actual_q2,1.4133828322040003
actual_q3,-1.8062998257079066
actual_q4,-1.5707929770099085
actual_q5,1.4427934885025024
actual_q0,3.0135881900787354
actual_q1,-1.1778355699828644
actual_q2,1.4133785406695765
actual_q3,-1.8062831364073695
actual_q4,-1.570784870778219
actual_q5,1.4427528381347656
actual_q0,3.0135960578918457
actual_q1,-1.1779017907432099
actual_q2,1.4133504072772425
actual_q3,-1.8062669239439906
actual_q4,-1.5707724730121058
actual_q5,1.442744255065918
actual_q0,3.0135796070098877
actual_q1,-1.177830920820572
actual_q2,1.4133918921100062
actual_q3,-1.8062669239439906
actual_q4,-1.5707925001727503
actual_q5,1.4428261518478394
actual_q0,3.0135719776153564
actual_q1,-1.1778100293925782
actual_q2,1.413379971181051
actual_q3,-1.8062793217101039
actual_q4,-1.5707243124591272
actual_q5,1.4427495002746582
actual_q0,3.013597011566162
actual_q1,-1.177842841749527
actual_q2,1.4133575598346155
actual_q3,-1.8062831364073695
actual_q4,-1.570853058491842
actual_q5,1.4427180290222168
actual_q0,3.0135838985443115
actual_q1,-1.1778882306865235
actual_q2,1.4133756796466272
actual_q3,-1.8062955341734828
actual_q4,-1.5707891623126429
actual_q5,1.4427495002746582
actual_q0,3.013563394546509
actual_q1,-1.1778718394092103
actual_q2,1.4133904615985315
actual_q3,-1.806319376031393
actual_q4,-1.570756737385885
actual_q5,1.4427977800369263
actual_q0,3.0135350227355957
actual_q1,-1.1778519910625
actual_q2,1.4133709112750452
actual_q3,-1.806319376031393
actual_q4,-1.570829216633932
actual_q5,1.4427893161773682
actual_q0,3.0135838985443115
actual_q1,-1.1778383714011689
actual_q2,1.4133175055133265
actual_q3,-1.8062511883177699
actual_q4,-1.5707805792437952
actual_q5,1.4427860975265503
actual_q0,3.014646053314209
actual_q1,-1.1779046219638367
actual_q2,1.413356129323141
actual_q3,-1.8063112697997035
actual_q4,-1.5708044211017054
actual_q5,1.4438891410827637
actual_q0,3.0191195011138916
actual_q1,-1.1783234936049958
actual_q2,1.4138830343829554
actual_q3,-1.8063990078368128
actual_q4,-1.570801083241598
actual_q5,1.4483436346054077
actual_q0,3.0271799564361572
actual_q1,-1.1788481932929535
actual_q2,1.4145615736590784
actual_q3,-1.806650301019186
actual_q4,-1.570801083241598
actual_q5,1.4563416242599487
actual_q0,3.0387048721313477
actual_q1,-1.1795537036708375
actual_q2,1.4157360235797327
actual_q3,-1.80698885540151
actual_q4,-1.5707925001727503
actual_q5,1.4678407907485962
actual_q0,3.053630828857422
actual_q1,-1.180650607948639
actual_q2,1.4172433058368128
actual_q3,-1.8073674641051234
actual_q4,-1.5708048979388636
actual_q5,1.4828367233276367
actual_q0,3.071993112564087
actual_q1,-1.1818796557239075
actual_q2,1.4189160505877894
actual_q3,-1.807833810845846
actual_q4,-1.5708444754229944
actual_q5,1.501314640045166
actual_q0,3.0940754413604736
actual_q1,-1.1834172171405335
actual_q2,1.4210355917560022
actual_q3,-1.8084079227843226
actual_q4,-1.5708087126361292
actual_q5,1.523266315460205
actual_q0,3.119657278060913
actual_q1,-1.1851810079864045
actual_q2,1.423499886189596
actual_q3,-1.8090979061522425
actual_q4,-1.5707362333880823
actual_q5,1.5487090349197388
actual_q0,3.148432493209839
actual_q1,-1.187090979223587
actual_q2,1.4261944929706019
actual_q3,-1.809904237786764
actual_q4,-1.570772949849264
actual_q5,1.5775943994522095
actual_q0,3.1808674335479736
actual_q1,-1.1893758040717621
actual_q2,1.4293153921710413
actual_q3,-1.8107806644835414
actual_q4,-1.570836369191305
actual_q5,1.6100717782974243
actual_q0,3.216838836669922
actual_q1,-1.1918196839145203
actual_q2,1.4328630606280726
actual_q3,-1.8117371998228968
actual_q4,-1.5708006064044397
actual_q5,1.645971417427063
actual_q0,3.256194829940796
actual_q1,-1.1946822267821808
actual_q2,1.436596695576803
actual_q3,-1.8128344021239222
actual_q4,-1.5707209745990198
actual_q5,1.685433030128479
actual_q0,3.2990710735321045
actual_q1,-1.1975589853576203
actual_q2,1.440707031880514
actual_q3,-1.8139873943724574
actual_q4,-1.57074481645693
actual_q5,1.7283841371536255
actual_q0,3.345489025115967
actual_q1,-1.2007990044406434
actual_q2,1.44529897371401
actual_q3,-1.8151089153685511
actual_q4,-1.5708125273333948
actual_q5,1.7746127843856812
actual_q0,3.395402193069458
actual_q1,-1.2042392951301117
actual_q2,1.449963394795553
actual_q3,-1.8165246448912562
actual_q4,-1.5707767645465296
actual_q5,1.82456636428833
actual_q0,3.4476258754730225
actual_q1,-1.2078157526305695
actual_q2,1.454909626637594
actual_q3,-1.817859788934225
actual_q4,-1.570772949849264
actual_q5,1.8767950534820557
actual_q0,3.500028610229492
actual_q1,-1.2114776235869904
actual_q2,1.4600284735309046
actual_q3,-1.8193346462645472
actual_q4,-1.5707529226886194
actual_q5,1.9291316270828247
actual_q0,3.5523569583892822
actual_q1,-1.2150179904750367
actual_q2,1.4649627844439905
actual_q3,-1.8207775555052699
actual_q4,-1.5707810560809534
actual_q5,1.9816246032714844
actual_q0,3.604661703109741
actual_q1,-1.2186651688865204
actual_q2,1.4699061552630823
actual_q3,-1.8221379719176234
actual_q4,-1.5708087126361292
actual_q5,2.033942937850952
actual_q0,3.657007932662964
actual_q1,-1.2222005289844056
actual_q2,1.475097958241598
actual_q3,-1.8235250912108363
actual_q4,-1.5707767645465296
actual_q5,2.0862114429473877
actual_q0,3.7093889713287354
actual_q1,-1.225880728369095
actual_q2,1.4800694624530237
actual_q3,-1.8249012432494105
actual_q4,-1.570772949849264
actual_q5,2.138664722442627
actual_q0,3.7617905139923096
actual_q1,-1.2294852298549195
actual_q2,1.4850056807147425
actual_q3,-1.8263188801207484
actual_q4,-1.5708006064044397
actual_q5,2.1910085678100586
actual_q0,3.8141448497772217
actual_q1,-1.2331085366061707
actual_q2,1.4900348822223108
actual_q3,-1.8277751408019007
actual_q4,-1.5707967917071741
actual_q5,2.2432544231414795
actual_q0,3.8665192127227783
actual_q1,-1.2366765898517151
actual_q2,1.4950364271747034
actual_q3,-1.8291226826109828
actual_q4,-1.5707247892962855
actual_q5,2.2957253456115723
actual_q0,3.918832302093506
actual_q1,-1.2403423351100464
actual_q2,1.499967400227682
actual_q3,-1.8305217228331507
actual_q4,-1.5708006064044397
actual_q5,2.348125696182251
actual_q0,3.97113037109375
actual_q1,-1.243937687282898
actual_q2,1.5050438086139124
actual_q3,-1.831905027429098
actual_q4,-1.570853058491842
actual_q5,2.4003357887268066
actual_q0,4.023565292358398
actual_q1,-1.2475548845580597
actual_q2,1.5101545492755335
actual_q3,-1.8334161243834437
actual_q4,-1.5707805792437952
actual_q5,2.4527835845947266
actual_q0,4.075933933258057
actual_q1,-1.2511416238597413
actual_q2,1.515160862599508
actual_q3,-1.8347398243346156
actual_q4,-1.5707529226886194
actual_q5,2.505206346511841
actual_q0,4.128420352935791
actual_q1,-1.2548562449267884
actual_q2,1.520090405141012
actual_q3,-1.8361593685545863
actual_q4,-1.570784870778219
actual_q5,2.5574393272399902
actual_q0,4.180786609649658
actual_q1,-1.258324460392334
actual_q2,1.5251143614398401
actual_q3,-1.8375426731505335
actual_q4,-1.5707843939410608
actual_q5,2.6098828315734863
actual_q0,4.23300313949585
actual_q1,-1.2619204086116333
actual_q2,1.5300949255572718
actual_q3,-1.8389297924437464
actual_q4,-1.5707925001727503
actual_q5,2.6622934341430664
actual_q0,4.2853899002075195
actual_q1,-1.2656515401652833
actual_q2,1.53520375887026
actual_q3,-1.8403884373106898
actual_q4,-1.5707767645465296
actual_q5,2.7144649028778076
actual_q0,4.336243629455566
actual_q1,-1.2691447895816346
actual_q2,1.540093723927633
actual_q3,-1.8417965374388636
actual_q4,-1.5708416144000452
actual_q5,2.7654802799224854
actual_q0,4.38367223739624
actual_q1,-1.272385911350586
actual_q2,1.5446341673480433
actual_q3,-1.8430329761900843
actual_q4,-1.5707443396197718
actual_q5,2.812933921813965
actual_q0,4.4277424812316895
actual_q1,-1.2754244965365906
actual_q2,1.548797909413473
actual_q3,-1.844093462029928
actual_q4,-1.5707772413836878
actual_q5,2.856951951980591
actual_q0,4.46819543838501
actual_q1,-1.2782307130149384
actual_q2,1.55261737505068
actual_q3,-1.8452712498106898
actual_q4,-1.570784870778219
actual_q5,2.8971426486968994
actual_q0,4.505168437957764
actual_q1,-1.2806753677180787
actual_q2,1.5562236944781702
actual_q3,-1.84625305751943
actual_q4,-1.5707486311541956
actual_q5,2.934392213821411
actual_q0,4.538694858551025
actual_q1,-1.2830358010581513
actual_q2,1.5594218412982386
actual_q3,-1.8471909962096156
actual_q4,-1.5707405249225062
actual_q5,2.9679129123687744
actual_q0,4.568695068359375
actual_q1,-1.2852114301970978
actual_q2,1.5623086134540003
actual_q3,-1.847978254357809
actual_q4,-1.5707929770099085
actual_q5,2.997840642929077
actual_q0,4.59533166885376
actual_q1,-1.2869327825358887
actual_q2,1.5648663679706019
actual_q3,-1.8486577473082484
actual_q4,-1.5707247892962855
actual_q5,3.0242061614990234
actual_q0,4.618286609649658
actual_q1,-1.2886073750308533
actual_q2,1.5670631567584437
actual_q3,-1.8493105373778285
actual_q4,-1.5707925001727503
actual_q5,3.0473737716674805
actual_q0,4.637507438659668
actual_q1,-1.2898585957339783
actual_q2,1.569019619618551
actual_q3,-1.8498231373228968
actual_q4,-1.5707805792437952
actual_q5,3.066979169845581
actual_q0,4.653796672821045
actual_q1,-1.291008250122406
actual_q2,1.5705040136920374
actual_q3,-1.8502003155150355
actual_q4,-1.570756737385885
actual_q5,3.0828189849853516
actual_q0,4.666189193725586
actual_q1,-1.2918512386134644
actual_q2,1.5716708342181605
actual_q3,-1.850518365899557
actual_q4,-1.5707967917071741
actual_q5,3.0955593585968018
actual_q0,4.675321102142334
actual_q1,-1.2925360065749665
actual_q2,1.572531525288717
actual_q3,-1.8507610760130824
actual_q4,-1.570813004170553
actual_q5,3.104583263397217
actual_q0,4.68098258972168
actual_q1,-1.2928031247905274
actual_q2,1.5730717817889612
actual_q3,-1.8508597813048304
actual_q4,-1.5707362333880823
actual_q5,3.1101222038269043
actual_q0,4.683043956756592
actual_q1,-1.2929228109172364
actual_q2,1.5731189886676233
actual_q3,-1.8510118923582972
actual_q4,-1.570784870778219
actual_q5,3.1121463775634766
actual_q0,4.682964324951172
actual_q1,-1.2926392716220398
actual_q2,1.5742700735675257
actual_q3,-1.8525148830809535
actual_q4,-1.570853058491842
actual_q5,3.112147808074951
actual_q0,4.682979583740234
actual_q1,-1.2910151344588776
actual_q2,1.577376667653219
actual_q3,-1.8573819599547328
actual_q4,-1.5707767645465296
actual_q5,3.1121582984924316
actual_q0,4.682950019836426
actual_q1,-1.2880444091609498
actual_q2,1.58278733888735
actual_q3,-1.8657905064024867
actual_q4,-1.5707686583148401
actual_q5,3.112236261367798
actual_q0,4.682990074157715
actual_q1,-1.2836624544909974
actual_q2,1.5906150976764124
actual_q3,-1.8777405224242152
actual_q4,-1.570784870778219
actual_q5,3.112222909927368
actual_q0,4.683055877685547
actual_q1,-1.2781905096820374
actual_q2,1.6005738417254847
actual_q3,-1.8930398426451625
actual_q4,-1.5708406607257288
actual_q5,3.1122140884399414
actual_q0,4.68303918838501
actual_q1,-1.2717084747603913
actual_q2,1.6127355734454554
actual_q3,-1.9119721851744593
actual_q4,-1.5707805792437952
actual_q5,3.112264394760132
actual_q0,4.68297815322876
actual_q1,-1.2636913818171998
actual_q2,1.627256218587057
actual_q3,-1.9342099628844203
actual_q4,-1.570784870778219
actual_q5,3.1122066974639893
actual_q0,4.683030605316162
actual_q1,-1.2546561521342774
actual_q2,1.6441271940814417
actual_q3,-1.9600421390929164
actual_q4,-1.570784870778219
actual_q5,3.1122288703918457
actual_q0,4.6830034255981445
actual_q1,-1.2453385156444092
actual_q2,1.6611836592303675
actual_q3,-1.9865552387633265
actual_q4,-1.570801083241598
actual_q5,3.1122570037841797
actual_q0,4.68300199508667
actual_q1,-1.2170845133117218
actual_q2,1.7133644262896937
actual_q3,-2.0671283207335414
actual_q4,-1.5707929770099085
actual_q5,3.1122612953186035
actual_q0,4.682973861694336
actual_q1,-1.215049759750702
actual_q2,1.7169783751117151
actual_q3,-2.072807928124899
actual_q4,-1.5708087126361292
actual_q5,3.112227439880371
actual_q0,4.682982921600342
actual_q1,-1.2143586438945313
actual_q2,1.7184632460223597
actual_q3,-2.0749432049193324
actual_q4,-1.5707967917071741
actual_q5,3.1122286319732666
actual_q0,4.6829962730407715
actual_q1,-1.214310960178711
actual_q2,1.7184799353228968
actual_q3,-2.0749546490111292
actual_q4,-1.5707925001727503
actual_q5,3.112215518951416
actual_q0,4.682961940765381
actual_q1,-1.2142945689013978
actual_q2,1.718475643788473
actual_q3,-2.074947019616598
actual_q4,-1.570784870778219
actual_q5,3.1122405529022217
actual_q0,4.683034896850586
actual_q1,-1.214310960178711
actual_q2,1.7185209433185022
actual_q3,-2.0749508343138636
actual_q4,-1.5707886854754847
actual_q5,3.1121866703033447
actual_q0,4.683011054992676
actual_q1,-1.214382992391922
actual_q2,1.7183879057513636
actual_q3,-2.0750705204405726
actual_q4,-1.5709012190448206
actual_q5,3.112283706665039
actual_q0,4.682994842529297
actual_q1,-1.2224635046771546
actual_q2,1.7034314314471644
actual_q3,-2.051661630670065
actual_q4,-1.570784870778219
actual_q5,3.112211227416992
actual_q0,4.683027267456055
actual_q1,-1.2275745135596772
actual_q2,1.693944279347555
actual_q3,-2.037267347375387
actual_q4,-1.5707529226886194
actual_q5,3.1121912002563477
actual_q0,4.682957649230957
actual_q1,-1.2338703137687226
actual_q2,1.6823185125934046
actual_q3,-2.019210001031393
actual_q4,-1.5707686583148401
actual_q5,3.112182378768921
actual_q0,4.682999134063721
actual_q1,-1.2414791744998475
actual_q2,1.6684306303607386
actual_q3,-1.9978953800597132
actual_q4,-1.5708449522601526
actual_q5,3.1122653484344482
actual_q0,4.683027267456055
actual_q1,-1.250228003864624
actual_q2,1.6521871725665491
actual_q3,-1.9729229412474574
actual_q4,-1.5707686583148401
actual_q5,3.112215995788574
actual_q0,4.682957649230957
actual_q1,-1.2597243648818512
actual_q2,1.6346715132342737
actual_q3,-1.9459601841368617
actual_q4,-1.5708044211017054
actual_q5,3.1122074127197266
actual_q0,4.682973861694336
actual_q1,-1.2680627566627045
actual_q2,1.619237248097555
actual_q3,-1.921934267083639
actual_q4,-1.570801083241598
actual_q5,3.1121749877929688
actual_q0,4.683060169219971
actual_q1,-1.2753162246993561
actual_q2,1.6060808340655726
actual_q3,-1.9014069042601527
actual_q4,-1.5708087126361292
actual_q5,3.1122028827667236
actual_q0,4.683022975921631
actual_q1,-1.2813439530185242
actual_q2,1.5948994795428675
actual_q3,-1.8844315014281214
actual_q4,-1.5707686583148401
actual_q5,3.1122028827667236
actual_q0,4.682994842529297
actual_q1,-1.2860557597926636
actual_q2,1.5863116423236292
actual_q3,-1.8707033596434535
actual_q4,-1.570801083241598
actual_q5,3.1122684478759766
actual_q0,4.683011054992676
actual_q1,-1.2895600956729432
actual_q2,1.5796521345721644
actual_q3,-1.8608647785582484
actual_q4,-1.5707886854754847
actual_q5,3.112231731414795
actual_q0,4.683027267456055
actual_q1,-1.2918900114348908
actual_q2,1.5755184332477015
actual_q3,-1.854410310784811
actual_q4,-1.5708048979388636
actual_q5,3.1122684478759766
actual_q0,4.683067798614502
actual_q1,-1.29290925086055
actual_q2,1.573414150868551
actual_q3,-1.851281305352682
actual_q4,-1.5707967917071741
actual_q5,3.11224365234375
actual_q0,4.670970439910889
actual_q1,-1.294551060800888
actual_q2,1.575095001851217
actual_q3,-1.8512546024718226
actual_q4,-1.5708048979388636
actual_q5,3.100160598754883
actual_q0,4.660065174102783
actual_q1,-1.2959854763797303
actual_q2,1.5766461531268519
actual_q3,-1.851636072198385
actual_q4,-1.5707686583148401
actual_q5,3.089176893234253
actual_q0,4.645590782165527
actual_q1,-1.2977489095977326
actual_q2,1.5788691679583948
actual_q3,-1.8520375690855921
actual_q4,-1.5707967917071741
actual_q5,3.074831247329712
actual_q0,4.627844333648682
actual_q1,-1.2999933522990723
actual_q2,1.5816944281207483
actual_q3,-1.852426668206686
actual_q4,-1.570824925099508
actual_q5,3.0569190979003906
actual_q0,4.606220245361328
actual_q1,-1.3027635675719758
actual_q2,1.5849912802325647
actual_q3,-1.8529511890807093
actual_q4,-1.5708048979388636
actual_q5,3.035484790802002
actual_q0,4.581401824951172
actual_q1,-1.305991069679596
actual_q2,1.588820759450094
actual_q3,-1.8536559544005335
actual_q4,-1.5707853476153772
actual_q5,3.0107882022857666
actual_q0,4.553223133087158
actual_q1,-1.3096633714488526
actual_q2,1.5930326620685022
actual_q3,-1.8543464146056117
actual_q4,-1.5707367102252405
actual_q5,2.9823520183563232
actual_q0,4.521397590637207
actual_q1,-1.3135891121676941
actual_q2,1.5980523268329065
actual_q3,-1.855138441125387
actual_q4,-1.5707572142230433
actual_q5,2.9504876136779785
actual_q0,4.485896110534668
actual_q1,-1.3181845408729096
actual_q2,1.6034987608539026
actual_q3,-1.8560487232603968
actual_q4,-1.5707405249225062
actual_q5,2.9150948524475098
actual_q0,4.446976184844971
actual_q1,-1.3230611991933365
actual_q2,1.6093500296222132
actual_q3,-1.8570910892882289
actual_q4,-1.5707810560809534
actual_q5,2.87622332572937
actual_q0,4.404624938964844
actual_q1,-1.3284219664386292
actual_q2,1.6158269087420862
actual_q3,-1.85813631633901
actual_q4,-1.57082444826235
actual_q5,2.8338301181793213
actual_q0,4.358894348144531
actual_q1,-1.3342643839171906
actual_q2,1.6226704756366175
actual_q3,-1.859309812585348
actual_q4,-1.5707648436175745
actual_q5,2.7881691455841064
actual_q0,4.309569835662842
actual_q1,-1.3405254942229767
actual_q2,1.6303637663470667
actual_q3,-1.8605920277037562
actual_q4,-1.5708048979388636
actual_q5,2.7386856079101562
actual_q0,4.25740385055542
actual_q1,-1.3471494776061554
actual_q2,1.6383736769305628
actual_q3,-1.861960073510641
actual_q4,-1.5708330313311976
actual_q5,2.6865415573120117
actual_q0,4.2050557136535645
actual_q1,-1.353847787981369
actual_q2,1.6462600866900843
actual_q3,-1.863260885278219
actual_q4,-1.5708048979388636
actual_q5,2.634359121322632
actual_q0,4.152688980102539
actual_q1,-1.3604525935700913
actual_q2,1.6543176809894007
actual_q3,-1.864579816857809
actual_q4,-1.5708048979388636
actual_q5,2.5819432735443115
actual_q0,4.100294589996338
actual_q1,-1.3671527963927765
actual_q2,1.6623995939837855
actual_q3,-1.8658482036986292
actual_q4,-1.570829216633932
actual_q5,2.5294923782348633
actual_q0,4.04802942276001
actual_q1,-1.373802126651146
actual_q2,1.67033559480776
actual_q3,-1.867359300652975
actual_q4,-1.5707967917071741
actual_q5,2.477346181869507
actual_q0,3.78615403175354
actual_q1,-1.4071305257133027
actual_q2,1.7102568785296839
actual_q3,-1.8740345440306605
actual_q4,-1.5708048979388636
actual_q5,2.215297222137451
actual_q0,3.7337827682495117
actual_q1,-1.4137635242990036
actual_q2,1.7182114760028284
actual_q3,-1.8753615818419398
actual_q4,-1.5707886854754847
actual_q5,2.1631381511688232
actual_q0,3.6815364360809326
actual_q1,-1.42033143461261
actual_q2,1.7264145056353968
actual_q3,-1.8766914806761683
actual_q4,-1.5708168188678187
actual_q5,2.1106245517730713
actual_q0,3.6291377544403076
actual_q1,-1.42708774030719
actual_q2,1.734396759663717
actual_q3,-1.8780766926207484
actual_q4,-1.570784870778219
actual_q5,2.058256149291992
actual_q0,3.576709270477295
actual_q1,-1.4337345373681565
actual_q2,1.7423465887652796
actual_q3,-1.8792816601195277
actual_q4,-1.570801083241598
actual_q5,2.0061135292053223
actual_q0,3.524458408355713
actual_q1,-1.440506638293602
actual_q2,1.7502463499652308
actual_q3,-1.8807226620116175
actual_q4,-1.5708368460284632
actual_q5,1.9536957740783691
actual_q0,3.4720656871795654
actual_q1,-1.4470879596522828
actual_q2,1.7583568731891077
actual_q3,-1.8820601902403773
actual_q4,-1.5708373228656214
actual_q5,1.9011504650115967
actual_q0,3.4196505546569824
actual_q1,-1.4536981371096154
actual_q2,1.7663252989398401
actual_q3,-1.883364816705221
actual_q4,-1.5707610289203089
actual_q5,1.8489238023757935
actual_q0,3.367279291152954
actual_q1,-1.4603469756296654
actual_q2,1.7742694059955042
actual_q3,-1.8847347698607386
actual_q4,-1.5708087126361292
actual_q5,1.7965515851974487
actual_q0,3.3171005249023438
actual_q1,-1.4668118071607132
actual_q2,1.7819765249835413
actual_q3,-1.8859998188414515
actual_q4,-1.5708087126361292
actual_q5,1.7462389469146729
actual_q0,3.270284414291382
actual_q1,-1.4727217119983216
actual_q2,1.7892802397357386
actual_q3,-1.8872133694090785
actual_q4,-1.5707524458514612
actual_q5,1.69961678981781
actual_q0,3.227130889892578
actual_q1,-1.478260801439621
actual_q2,1.795769516621725
actual_q3,-1.8883267841734828
actual_q4,-1.5707362333880823
actual_q5,1.6562540531158447
actual_q0,3.187258005142212
actual_q1,-1.4832874921015282
actual_q2,1.801793400441305
actual_q3,-1.8893281422057093
actual_q4,-1.5707648436175745
actual_q5,1.616458535194397
actual_q0,3.151012659072876
actual_q1,-1.4878648680499573
actual_q2,1.807342831288473
actual_q3,-1.8903027973570765
actual_q4,-1.5707805792437952
actual_q5,1.5801966190338135
actual_q0,3.1182408332824707
actual_q1,-1.492047057752945
actual_q2,1.8123825232135218
actual_q3,-1.8910886249937953
actual_q4,-1.570756737385885
actual_q5,1.5474177598953247
actual_q0,3.088898181915283
actual_q1,-1.4958618816784401
actual_q2,1.816892449055807
actual_q3,-1.8918143711485804
actual_q4,-1.5708373228656214
actual_q5,1.5180892944335938
actual_q0,3.0630483627319336
actual_q1,-1.499066711669304
actual_q2,1.8208516279803675
actual_q3,-1.8925258121886195
actual_q4,-1.570813004170553
actual_q5,1.4922642707824707
actual_q0,3.040640354156494
actual_q1,-1.5018905636719246
actual_q2,1.824271027241842
actual_q3,-1.893116136590475
actual_q4,-1.570796314870016
actual_q5,1.4699053764343262
actual_q0,3.021860122680664
actual_q1,-1.5043602895787735
actual_q2,1.8270834128009241
actual_q3,-1.8935753307738246
actual_q4,-1.5707805792437952
actual_q5,1.4511761665344238
actual_q0,3.006505012512207
actual_q1,-1.506226585512497
actual_q2,1.8294761816607874
actual_q3,-1.8939224682249964
actual_q4,-1.570829216633932
actual_q5,1.4357284307479858
actual_q0,2.9947407245635986
actual_q1,-1.507825368349888
actual_q2,1.8313167730914515
actual_q3,-1.8942376575865687
actual_q4,-1.570813004170553
actual_q5,1.4239028692245483
actual_q0,2.986323595046997
actual_q1,-1.5088206467083474
actual_q2,1.8325589338885706
actual_q3,-1.8944455585875453
actual_q4,-1.5708335081683558
actual_q5,1.4155313968658447
actual_q0,2.9814178943634033
actual_q1,-1.5094462943128129
actual_q2,1.8332670370685022
actual_q3,-1.8946296177306117
actual_q4,-1.5707967917071741
actual_q5,1.4106731414794922
actual_q0,2.9800820350646973
actual_q1,-1.509582632487156
actual_q2,1.8333585898028772
actual_q3,-1.8946010075011195
actual_q4,-1.570813004170553
actual_q5,1.4093185663223267
actual_q0,2.980116605758667
actual_q1,-1.508908563559391
actual_q2,1.834930721913473
actual_q3,-1.8968926868834437
actual_q4,-1.570756737385885
actual_q5,1.4092857837677002
actual_q0,2.980095624923706
actual_q1,-1.5068718132427712
actual_q2,1.838379208241598
actual_q3,-1.9023744068541468
actual_q4,-1.5707972685443323
actual_q5,1.409233808517456
actual_q0,2.980043411254883
actual_q1,-1.503296324317791
actual_q2,1.8439014593707483
actual_q3,-1.9115354023375453
actual_q4,-1.5708091894732874
actual_q5,1.4092575311660767
actual_q0,2.980070114135742
actual_q1,-1.498534345333912
actual_q2,1.8518503347979944
actual_q3,-1.9240056476988734
actual_q4,-1.570784870778219
actual_q5,1.4092305898666382
actual_q0,2.9800374507904053
actual_q1,-1.492365227346756
actual_q2,1.8618605772601526
actual_q3,-1.9402066669859828
actual_q4,-1.5707805792437952
actual_q5,1.409258484840393
actual_q0,2.9800479412078857
actual_q1,-1.4848985832980652
actual_q2,1.8738754431353968
actual_q3,-1.959557672540182
actual_q4,-1.5708368460284632
actual_q5,1.4092469215393066
actual_q0,2.9800283908843994
actual_q1,-1.4761810165694733
actual_q2,1.8882830778705042
actual_q3,-1.9826885662474574
actual_q4,-1.570801083241598
actual_q5,1.4091923236846924
actual_q0,2.9799997806549072
actual_q1,-1.4661345940879364
actual_q2,1.9043334166156214
actual_q3,-2.009292264977926
actual_q4,-1.5707686583148401
actual_q5,1.4092261791229248
actual_q0,2.9800894260406494
actual_q1,-1.455174708073475
actual_q2,1.9224322477923792
actual_q3,-2.0376492939391078
actual_q4,-1.5707967917071741
actual_q5,1.4091888666152954
actual_q0,2.9800567626953125
actual_q1,-1.4456320267966767
actual_q2,1.93774921098818
actual_q3,-2.0629903278746546
actual_q4,-1.5708087126361292
actual_q5,1.4092055559158325
actual_q0,2.9800117015838623
actual_q1,-1.4373127234033127
actual_q2,1.951331917439596
actual_q3,-2.084874292413229
actual_q4,-1.5708048979388636
actual_q5,1.409205436706543
actual_q0,2.9799997806549072
actual_q1,-1.4304213237813492
actual_q2,1.9625113646136683
actual_q3,-2.1031366787352503
actual_q4,-1.5707724730121058
actual_q5,1.409246802330017
actual_q0,2.9799997806549072
actual_q1,-1.4247415226748963
actual_q2,1.9717815558062952
actual_q3,-2.118002553979391
actual_q4,-1.5708335081683558
actual_q5,1.4092540740966797
actual_q0,2.9800329208374023
actual_q1,-1.4203796994737168
actual_q2,1.9790614287005823
actual_q3,-2.1292244396605433
actual_q4,-1.5707767645465296
actual_q5,1.409258484840393
actual_q0,2.9800074100494385
actual_q1,-1.4174702179482956
actual_q2,1.9838150183307093
actual_q3,-2.137144228021139
actual_q4,-1.5707925001727503
actual_q5,1.409221887588501
actual_q0,2.9800612926483154
actual_q1,-1.4157899928143998
actual_q2,1.9862902800189417
actual_q3,-2.1415311298766078
actual_q4,-1.570801083241598
actual_q5,1.4092261791229248
actual_q0,2.980070114135742
actual_q1,-1.415630893116333
actual_q2,1.986666504536764
actual_q3,-2.1426288090147914
actual_q4,-1.5708048979388636
actual_q5,1.409233808517456
actual_q0,2.9799997806549072
actual_q1,-1.415522651081421
actual_q2,1.9868224302874964
actual_q3,-2.142636915246481
actual_q4,-1.5707929770099085
actual_q5,1.40920889377594
actual_q0,2.9800329208374023
actual_q1,-1.4152280253222962
actual_q2,1.9874137083636683
actual_q3,-2.1422134838499964
actual_q4,-1.5707686583148401
actual_q5,1.4092381000518799
actual_q0,2.980001449584961
actual_q1,-1.4151661706021805
actual_q2,1.987349812184469
actual_q3,-2.14235319713735
actual_q4,-1.5708044211017054
actual_q5,1.4091976881027222
actual_q0,2.9800329208374023
actual_q1,-1.415262759929039
actual_q2,1.9872635046588343
actual_q3,-2.142445226708883
actual_q4,-1.5708406607257288
actual_q5,1.4092142581939697
actual_q0,2.980091094970703
actual_q1,-1.415350468163826
actual_q2,1.9871419111834925
actual_q3,-2.1425048313536585
actual_q4,-1.5707767645465296
actual_q5,1.4092540740966797
actual_q0,2.9800868034362793
actual_q1,-1.415366680627205
actual_q2,1.9870899359332483
actual_q3,-2.1425730190672816
actual_q4,-1.5707362333880823
actual_q5,1.409205675125122
actual_q0,2.98000431060791
actual_q1,-1.4157671642354508
actual_q2,1.98649770418276
actual_q3,-2.1417700252928675
actual_q4,-1.5707648436175745
actual_q5,1.4092706441879272
actual_q0,2.9800162315368652
actual_q1,-1.417130784397461
actual_q2,1.9841826597796839
actual_q3,-2.1376129589476527
actual_q4,-1.5708044211017054
actual_q5,1.4092626571655273
actual_q0,2.9800493717193604
actual_q1,-1.4201003325036545
actual_q2,1.9792316595660608
actual_q3,-2.130033632318014
actual_q4,-1.5708211104022425
actual_q5,1.4092836380004883
actual_q0,2.9800539016723633
actual_q1,-1.4243225467256089
actual_q2,1.9722431341754358
actual_q3,-2.118754049340719
actual_q4,-1.5708048979388636
actual_q5,1.4092175960540771
actual_q0,2.9800238609313965
actual_q1,-1.4299440544894715
actual_q2,1.9633129278766077
actual_q3,-2.104093214074606
actual_q4,-1.5707891623126429
actual_q5,1.4092497825622559
actual_q0,2.98000431060791
actual_q1,-1.4368678790381928
actual_q2,1.952146355305807
actual_q3,-2.0860544643797816
actual_q4,-1.5707648436175745
actual_q5,1.4092293977737427
actual_q0,2.9800329208374023
actual_q1,-1.4451457870057602
actual_q2,1.938591782246725
actual_q3,-2.0644899807372035
actual_q4,-1.570813004170553
actual_q5,1.4092497825622559
actual_q0,2.980025291442871
actual_q1,-1.454559975569584
actual_q2,1.9231551329242151
actual_q3,-2.039312025109762
actual_q4,-1.5707967917071741
actual_q5,1.4092131853103638
actual_q0,2.9800658226013184
actual_q1,-1.4655041557601471
actual_q2,1.905395809804098
actual_q3,-2.0110260448851527
actual_q4,-1.5707805792437952
actual_q5,1.4092013835906982
actual_q0,2.9800539016723633
actual_q1,-1.4755246353200455
actual_q2,1.8892229239093226
actual_q3,-1.9841886959471644
actual_q4,-1.5707648436175745
actual_q5,1.4091612100601196
actual_q0,2.9800658226013184
actual_q1,-1.4844506245902558
actual_q2,1.8745515982257288
actual_q3,-1.9609772167601527
actual_q4,-1.570829216633932
actual_q5,1.409188985824585
actual_q0,2.9800238609313965
actual_q1,-1.4919166949442406
actual_q2,1.8624556700335901
actual_q3,-1.9412318668761195
actual_q4,-1.5707405249225062
actual_q5,1.4093106985092163
actual_q0,2.9800820350646973
actual_q1,-1.498111681347229
actual_q2,1.8522737661944788
actual_q3,-1.9249302349486292
actual_q4,-1.5707843939410608
actual_q5,1.4092825651168823
actual_q0,2.9800493717193604
actual_q1,-1.5030598801425477
actual_q2,1.8444011847125452
actual_q3,-1.912149568597311
actual_q4,-1.5707524458514612
actual_q5,1.4092410802841187
actual_q0,2.9800403118133545
actual_q1,-1.5065717187574883
actual_q2,1.8387492338763636
actual_q3,-1.9028698406615199
actual_q4,-1.5708211104022425
actual_q5,1.4092497825622559
actual_q0,2.9800329208374023
actual_q1,-1.5087171097150822
actual_q2,1.8350966612445276
actual_q3,-1.897039075891012
actual_q4,-1.5707886854754847
actual_q5,1.409209966659546
actual_q0,2.9800567626953125
actual_q1,-1.5095972132733841
actual_q2,1.8336356321917933
actual_q3,-1.8945452175536097
actual_q4,-1.570829216633932
actual_q5,1.409221887588501
actual_q0,2.9800822734832764
actual_q1,-1.5096551862410088
actual_q2,1.8335989157306116
actual_q3,-1.89459290126943
actual_q4,-1.5707891623126429
actual_q5,1.409205675125122
actual_q0,2.9800686836242676
actual_q1,-1.5095681932619591
actual_q2,1.833590332661764
actual_q3,-1.8945566616454066
actual_q4,-1.5708168188678187
actual_q5,1.4093126058578491
actual_q0,2.9800374507904053
actual_q1,-1.5095637564412137
actual_q2,1.833578888569967
actual_q3,-1.8946453533568324
actual_q4,-1.570784870778219
actual_q5,1.4092053174972534
actual_q0,2.9800329208374023
actual_q1,-1.509657685910799
actual_q2,1.833538834248678
actual_q3,-1.8946286640562953
actual_q4,-1.5707967917071741
actual_q5,1.4092336893081665
actual_q0,2.9800329208374023
actual_q1,-1.5096372042647381
actual_q2,1.833505932484762
actual_q3,-1.8946572742857875
actual_q4,-1.5707805792437952
actual_q5,1.4092586040496826
actual_q0,2.9800777435302734
actual_q1,-1.5096534055522461
actual_q2,1.8335312048541468
actual_q3,-1.8946529827513636
actual_q4,-1.5707605520831507
actual_q5,1.409263014793396
actual_q0,2.9801137447357178
actual_q1,-1.5095971797457715
actual_q2,1.833362881337301
actual_q3,-1.8946849308409632
actual_q4,-1.5708211104022425
actual_q5,1.409300684928894
actual_q0,2.9805428981781006
actual_q1,-1.5092461009374638
actual_q2,1.8327544371234339
actual_q3,-1.8944884739317835
actual_q4,-1.5708487669574183
actual_q5,1.4098364114761353
actual_q0,2.981551170349121
actual_q1,-1.5083107885769387
actual_q2,1.8314808050738733
actual_q3,-1.8938824139037074
actual_q4,-1.570784870778219
actual_q5,1.4107298851013184
actual_q0,2.9836184978485107
actual_q1,-1.5063856405070801
actual_q2,1.8285487333880823
actual_q3,-1.8931318722166957
actual_q4,-1.5707843939410608
actual_q5,1.4128323793411255
actual_q0,2.9873716831207275
actual_q1,-1.5028649357012291
actual_q2,1.8236287275897425
actual_q3,-1.891635080377096
actual_q4,-1.570813004170553
actual_q5,1.4165173768997192
actual_q0,2.993349313735962
actual_q1,-1.4972701233676453
actual_q2,1.815275017415182
actual_q3,-1.8891321621336878
actual_q4,-1.5707686583148401
actual_q5,1.4225643873214722
actual_q0,3.0024466514587402
actual_q1,-1.488663376574852
actual_q2,1.8029750029193323
actual_q3,-1.8852321110167445
actual_q4,-1.5708168188678187
actual_q5,1.4316697120666504
actual_q0,3.014575242996216
actual_q1,-1.4774223876050492
actual_q2,1.7867749373065394
actual_q3,-1.8802510700621546
actual_q4,-1.570784870778219
actual_q5,1.4437308311462402
actual_q0,3.029076337814331
actual_q1,-1.4637662854841729
actual_q2,1.7670400778399866
actual_q3,-1.8741761646666468
actual_q4,-1.5708048979388636
actual_q5,1.4583128690719604
actual_q0,3.046321153640747
actual_q1,-1.4477863025716324
actual_q2,1.7436688582049769
actual_q3,-1.8669682941832484
actual_q4,-1.5708487669574183
actual_q5,1.475532054901123
actual_q0,3.066023349761963
actual_q1,-1.42909029245887
actual_q2,1.7170241514789026
actual_q3,-1.858492990533346
actual_q4,-1.570784870778219
actual_q5,1.4953603744506836
actual_q0,3.0886359214782715
actual_q1,-1.4082650703242798
actual_q2,1.6866171995746058
actual_q3,-1.8492347202696742
actual_q4,-1.5707610289203089
actual_q5,1.51767897605896
actual_q0,3.1135494709014893
actual_q1,-1.384918974047043
actual_q2,1.652933422719137
actual_q3,-1.838830133477682
actual_q4,-1.5707324186908167
actual_q5,1.5426499843597412
actual_q0,3.140868663787842
actual_q1,-1.3591067355922242
actual_q2,1.6158235708819788
actual_q3,-1.8272963962950648
actual_q4,-1.5708449522601526
actual_q5,1.5701583623886108
actual_q0,3.1709020137786865
actual_q1,-1.3310400259545823
actual_q2,1.574942413960592
actual_q3,-1.814711710015768
actual_q4,-1.570784870778219
actual_q5,1.6003355979919434
actual_q0,3.2037057876586914
actual_q1,-1.300513283615448
actual_q2,1.5304954687701624
actual_q3,-1.8010474644102992
actual_q4,-1.5708048979388636
actual_q5,1.632964849472046
actual_q0,3.2389891147613525
actual_q1,-1.2675177615932007
actual_q2,1.4830048719989222
actual_q3,-1.7864486179747523
actual_q4,-1.5707772413836878
actual_q5,1.6681946516036987
actual_q0,3.2769060134887695
actual_q1,-1.2322192949107666
actual_q2,1.4317815939532679
actual_q3,-1.7704202137389125
actual_q4,-1.5707610289203089
actual_q5,1.705926537513733
actual_q0,3.3155133724212646
actual_q1,-1.1961459976485749
actual_q2,1.3796103636371058
actual_q3,-1.7542082271971644
actual_q4,-1.5708006064044397
actual_q5,1.7447288036346436
actual_q0,3.3541460037231445
actual_q1,-1.1600447458079834
actual_q2,1.3273099104510706
actual_q3,-1.7379824123778285
actual_q4,-1.5708091894732874
actual_q5,1.7834627628326416
actual_q0,3.392899990081787
actual_q1,-1.1238072973540802
actual_q2,1.274865452443258
actual_q3,-1.721872945825094
actual_q4,-1.5707810560809534
actual_q5,1.8221368789672852
actual_q0,3.4315578937530518
actual_q1,-1.087663785820343
actual_q2,1.222454849873678
actual_q3,-1.705832143823141
actual_q4,-1.5707691351519983
actual_q5,1.860722541809082
actual_q0,3.468233823776245
actual_q1,-1.0532595080188294
actual_q2,1.1728089491473597
actual_q3,-1.690435071984762
actual_q4,-1.5707929770099085
actual_q5,1.8973777294158936
actual_q0,3.502453088760376
actual_q1,-1.0213924807361145
actual_q2,1.1266024748431605
actual_q3,-1.6760279140868128
actual_q4,-1.5707572142230433
actual_q5,1.9316487312316895
actual_q0,3.5341172218322754
actual_q1,-0.9917488259128113
actual_q2,1.0838568846331995
actual_q3,-1.6629649601378382
actual_q4,-1.5707810560809534
actual_q5,1.963265061378479
actual_q0,3.5631234645843506
actual_q1,-0.9647711676410218
actual_q2,1.0446303526507776
actual_q3,-1.6506577930846156
actual_q4,-1.5708048979388636
actual_q5,1.9923115968704224
actual_q0,3.589534044265747
actual_q1,-0.9399984043887635
actual_q2,1.0090277830706995
actual_q3,-1.639627595941061
actual_q4,-1.5708006064044397
actual_q5,2.0185866355895996
actual_q0,3.6132733821868896
actual_q1,-0.9177370828441163
actual_q2,0.9767563978778284
actual_q3,-1.629510065118307
actual_q4,-1.5708606878863733
actual_q5,2.042576789855957
actual_q0,3.6346120834350586
actual_q1,-0.8978281778148194
actual_q2,0.9478586355792444
actual_q3,-1.6206947765746058
actual_q4,-1.5707767645465296
actual_q5,2.0638227462768555
actual_q0,3.6534690856933594
actual_q1,-0.8804645103267212
actual_q2,0.9225099722491663
actual_q3,-1.6129685841002406
actual_q4,-1.5707486311541956
actual_q5,2.0825562477111816
actual_q0,3.669264793395996
actual_q1,-0.8651750248721619
actual_q2,0.9008505980121058
actual_q3,-1.6061979732909144
actual_q4,-1.570836369191305
actual_q5,2.0987205505371094
actual_q0,3.6831400394439697
actual_q1,-0.8529219192317505
actual_q2,0.8824122587787073
actual_q3,-1.600536962548727
actual_q4,-1.5707691351519983
actual_q5,2.112205743789673
actual_q0,3.712045669555664
actual_q1,-0.825418547993042
actual_q2,0.8429964224444788
actual_q3,-1.588252683679098
actual_q4,-1.5707529226886194
actual_q5,2.141312837600708
actual_q0,3.7121431827545166
actual_q1,-0.8254587215236207
actual_q2,0.8429964224444788
actual_q3,-1.588313718835348
actual_q4,-1.5707886854754847
actual_q5,2.141312837600708
actual_q0,3.7120444774627686
actual_q1,-0.8255497974208375
actual_q2,0.8429673353778284
actual_q3,-1.5882412395873011
actual_q4,-1.570813004170553
actual_q5,2.141263484954834
actual_q0,3.7120816707611084
actual_q1,-0.8255171340755005
actual_q2,0.842971150075094
actual_q3,-1.5882650814452113
actual_q4,-1.5708335081683558
actual_q5,2.1412341594696045
actual_q0,3.7121355533599854
actual_q1,-0.8254913848689576
actual_q2,0.8429811636554163
actual_q3,-1.5883094273009242
actual_q4,-1.5707925001727503
actual_q5,2.1413419246673584
actual_q0,3.7120532989501953
actual_q1,-0.8254823845675965
actual_q2,0.8429845015155237
actual_q3,-1.5883251629271449
actual_q4,-1.5708091894732874
actual_q5,2.141247272491455
actual_q0,3.712123394012451
actual_q1,-0.8254587215236207
actual_q2,0.8430007139789026
actual_q3,-1.588285585443014
actual_q4,-1.5707967917071741
actual_q5,2.141263484954834
actual_q0,3.712062358856201
actual_q1,-0.8255083721927186
actual_q2,0.8429515997516077
actual_q3,-1.588297029534811
actual_q4,-1.5707967917071741
actual_q5,2.1412546634674072
actual_q0,3.7120907306671143
actual_q1,-0.8254380387118836
actual_q2,0.8430259863482874
actual_q3,-1.5883013210692347
actual_q4,-1.570784870778219
actual_q5,2.1412720680236816
actual_q0,3.7120862007141113
actual_q1,-0.8254141968539734
actual_q2,0.8429845015155237
actual_q3,-1.5883094273009242
actual_q4,-1.5707686583148401
actual_q5,2.1412806510925293
actual_q0,3.7120654582977295
actual_q1,-0.8254053753665467
actual_q2,0.8429721037494105
actual_q3,-1.5883094273009242
actual_q4,-1.5707967917071741
actual_q5,2.1413516998291016
actual_q0,3.7120862007141113
actual_q1,-0.8254750531962891
actual_q2,0.8429763952838343
actual_q3,-1.5882889233031214
actual_q4,-1.5707891623126429
actual_q5,2.141219139099121
actual_q0,3.7120578289031982
actual_q1,-0.8254334491542359
actual_q2,0.8429964224444788
actual_q3,-1.588297029534811
actual_q4,-1.5707886854754847
actual_q5,2.141275405883789
actual_q0,3.71218204498291
actual_q1,-0.8255514663508912
actual_q2,0.8431280295001429
actual_q3,-1.5882932148375453
actual_q4,-1.5708254019366663
actual_q5,2.141441822052002
actual_q0,3.7148263454437256
actual_q1,-0.8267267507365723
actual_q2,0.8448565641986292
actual_q3,-1.5890432796873988
actual_q4,-1.570869270955221
actual_q5,2.144132375717163
actual_q0,3.7210943698883057
actual_q1,-0.8296094101718445
actual_q2,0.8497861067401331
actual_q3,-1.5906697712340296
actual_q4,-1.5708091894732874
actual_q5,2.1502797603607178
actual_q0,3.7307209968566895
actual_q1,-0.8343898218921204
actual_q2,0.8570368925677698
actual_q3,-1.5933896503844203
actual_q4,-1.570829216633932
actual_q5,2.160041332244873
actual_q0,3.7440664768218994
actual_q1,-0.840855137710907
actual_q2,0.8669827620135706
actual_q3,-1.5968395672240199
actual_q4,-1.5707405249225062
actual_q5,2.173102617263794
actual_q0,3.760432243347168
actual_q1,-0.8488873404315491
actual_q2,0.8795698324786585
actual_q3,-1.6013757191100062
actual_q4,-1.5708044211017054
actual_q5,2.189736843109131
actual_q0,3.7808196544647217
actual_q1,-0.8584965628436585
actual_q2,0.8946188131915491
actual_q3,-1.606851717034811
actual_q4,-1.570784870778219
actual_q5,2.209836721420288
actual_q0,3.8043158054351807
actual_q1,-0.8699123424342652
actual_q2,0.9125216642962855
actual_q3,-1.6132799587645472
actual_q4,-1.5708368460284632
actual_q5,2.2334682941436768
actual_q0,3.831329107284546
actual_q1,-0.8830332320979615
actual_q2,0.9327448050128382
actual_q3,-1.620700021783346
actual_q4,-1.570801083241598
actual_q5,2.260641098022461
actual_q0,3.8620877265930176
actual_q1,-0.8976088923266907
actual_q2,0.9558685461627405
actual_q3,-1.629009862939352
actual_q4,-1.5707405249225062
actual_q5,2.2913131713867188
actual_q0,3.8962175846099854
actual_q1,-0.9142375153354187
actual_q2,0.981546703969137
actual_q3,-1.6381217441954554
actual_q4,-1.5708254019366663
actual_q5,2.3253326416015625
actual_q0,3.9337446689605713
actual_q1,-0.932241753940918
actual_q2,1.0100019613849085
actual_q3,-1.648294588128561
actual_q4,-1.570813004170553
actual_q5,2.3628926277160645
actual_q0,3.974841594696045
actual_q1,-0.9521954220584412
actual_q2,1.0406792799579065
actual_q3,-1.6594964466490687
actual_q4,-1.5707929770099085
actual_q5,2.4040589332580566
actual_q0,4.019439697265625
actual_q1,-0.9734377425960083
actual_q2,1.0743392149554651
actual_q3,-1.6713758907713832
actual_q4,-1.570813004170553
actual_q5,2.4486443996429443
actual_q0,4.067502975463867
actual_q1,-0.9966961902431031
actual_q2,1.1103852430926722
actual_q3,-1.6843162975706996
actual_q4,-1.5708168188678187
actual_q5,2.496654748916626
actual_q0,4.118960380554199
actual_q1,-1.0213971895030518
actual_q2,1.1490171591388147
actual_q3,-1.698423524896139
actual_q4,-1.5707805792437952
actual_q5,2.5481045246124268
actual_q0,4.171286582946777
actual_q1,-1.0465076726726075
actual_q2,1.188211743031637
actual_q3,-1.712576528588766
actual_q4,-1.5708211104022425
actual_q5,2.600552558898926
actual_q0,4.223595142364502
actual_q1,-1.0718209010413666
actual_q2,1.2277920881854456
actual_q3,-1.726757665673727
actual_q4,-1.5707686583148401
actual_q5,2.6528069972991943
actual_q0,4.2760515213012695
actual_q1,-1.0969598454288025
actual_q2,1.2672603766070765
actual_q3,-1.7407595119872035
actual_q4,-1.5708087126361292
actual_q5,2.7051339149475098
actual_q0,4.327452659606934
actual_q1,-1.1218462151340027
actual_q2,1.3057668844806116
actual_q3,-1.7548185787596644
actual_q4,-1.5707972685443323
actual_q5,2.756700038909912
actual_q0,4.375457286834717
actual_q1,-1.144918517475464
actual_q2,1.3418157736407679
actual_q3,-1.767895360986227
actual_q4,-1.570801083241598
actual_q5,2.8046469688415527
actual_q0,4.420071601867676
actual_q1,-1.1664543014815827
actual_q2,1.3754270712481897
actual_q3,-1.7799278698363246
actual_q4,-1.5708254019366663
actual_q5,2.849350929260254
actual_q0,4.461123943328857
actual_q1,-1.1861080390265961
actual_q2,1.4063175360309046
actual_q3,-1.7908717594542445
actual_q4,-1.5707724730121058
actual_q5,2.890411138534546
actual_q0,4.498839378356934
actual_q1,-1.2042809289744874
actual_q2,1.4345973173724573
actual_q3,-1.8012410602965296
actual_q4,-1.5707767645465296
actual_q5,2.9279801845550537
actual_q0,4.5329694747924805
actual_q1,-1.2206882399371644
actual_q2,1.4602826277362269
actual_q3,-1.810415884057516
actual_q4,-1.570801083241598
actual_q5,2.9619905948638916
actual_q0,4.563623905181885
actual_q1,-1.2354034942439576
actual_q2,1.4834960142718714
actual_q3,-1.8185044727721156
actual_q4,-1.570772949849264
actual_q5,2.9926929473876953
actual_q0,4.590686321258545
actual_q1,-1.2486997705749054
actual_q2,1.5035293737994593
actual_q3,-1.8260380230345667
actual_q4,-1.5708087126361292
actual_q5,3.0196731090545654
actual_q0,4.61421537399292
actual_q1,-1.2598791879466553
actual_q2,1.521524731312887
actual_q3,-1.83237948040151
actual_q4,-1.5708406607257288
actual_q5,3.0435678958892822
actual_q0,4.634270668029785
actual_q1,-1.2696217459491272
actual_q2,1.5366657415973108
actual_q3,-1.8378774128355921
actual_q4,-1.5708044211017054
actual_q5,3.06376314163208
actual_q0,4.651254177093506
actual_q1,-1.2776916188052674
actual_q2,1.549211327229635
actual_q3,-1.8425170383849085
actual_q4,-1.570756737385885
actual_q5,3.0802526473999023
actual_q0,4.664333820343018
actual_q1,-1.2839392584613343
actual_q2,1.5591571966754358
actual_q3,-1.84586824993276
actual_q4,-1.5707648436175745
actual_q5,3.0935466289520264
actual_q0,4.674038410186768
actual_q1,-1.2886583370021363
actual_q2,1.5663793722735804
actual_q3,-1.848642488519186
actual_q4,-1.5707967917071741
actual_q5,3.103240966796875
actual_q0,4.680118560791016
actual_q1,-1.2915677291205903
actual_q2,1.5711305777179163
actual_q3,-1.8502522907652796
actual_q4,-1.5708335081683558
actual_q5,3.109391450881958
actual_q0,4.682864189147949
actual_q1,-1.2929228109172364
actual_q2,1.573179070149557
actual_q3,-1.850964208642477
actual_q4,-1.5707767645465296
actual_q5,3.1121010780334473
actual_q0,4.682972431182861
actual_q1,-1.2927004259875794
actual_q2,1.5738228003131312
actual_q3,-1.8519498310484828
actual_q4,-1.5708254019366663
actual_q5,3.112164258956909
actual_q0,4.682971954345703
actual_q1,-1.2912946206382294
actual_q2,1.5766318480121058
actual_q3,-1.8563162289061488
actual_q4,-1.5707886854754847
actual_q5,3.1122207641601562
actual_q0,4.6829752922058105
actual_q1,-1.2885896128467103
actual_q2,1.5816767851458948
actual_q3,-1.8640290699400843
actual_q4,-1.570801083241598
actual_q5,3.1122119426727295
actual_q0,4.682982921600342
actual_q1,-1.284429596071579
actual_q2,1.5890563170062464
actual_q3,-1.8752457104124964
actual_q4,-1.570813004170553
actual_q5,3.1121819019317627
actual_q0,4.683019638061523
actual_q1,-1.2793370646289368
actual_q2,1.5985296408282679
actual_q3,-1.889998575250143
actual_q4,-1.570784870778219
actual_q5,3.112264394760132
actual_q0,4.683018684387207
actual_q1,-1.2728766065886994
actual_q2,1.610469166432516
actual_q3,-1.9083196125426234
actual_q4,-1.5707925001727503
actual_q5,3.112257242202759
actual_q0,4.682950496673584
actual_q1,-1.2652667623809357
actual_q2,1.6244190374957483
actual_q3,-1.929833551446432
actual_q4,-1.570813004170553
actual_q5,3.1121773719787598
actual_q0,4.683011054992676
actual_q1,-1.2564318937114258
actual_q2,1.640970532094137
actual_q3,-1.9551660023131312
actual_q4,-1.570784870778219
actual_q5,3.1122028827667236
actual_q0,4.683030605316162
actual_q1,-1.246944175367691
actual_q2,1.6582263151751917
actual_q3,-1.9820414982237757
actual_q4,-1.5707805792437952
actual_q5,3.112231731414795
actual_q0,4.683026313781738
actual_q1,-1.2386134427836915
actual_q2,1.6736844221698206
actual_q3,-2.005760808984274
actual_q4,-1.570784870778219
actual_q5,3.1122243404388428
actual_q0,4.682998180389404
actual_q1,-1.231564001446106
actual_q2,1.686695400868551
actual_q3,-2.026018281976217
actual_q4,-1.5707281271563929
actual_q5,3.1122074127197266
actual_q0,4.6830034255981445
actual_q1,-1.2257191699794312
actual_q2,1.6977513472186487
actual_q3,-2.0427733860411585
actual_q4,-1.5707929770099085
actual_q5,3.1122074127197266
actual_q0,4.683047771453857
actual_q1,-1.2208962899497529
actual_q2,1.706130329762594
actual_q3,-2.0560389957823695
actual_q4,-1.570813004170553
actual_q5,3.112189531326294
actual_q0,4.68303918838501
actual_q1,-1.21753944576297
actual_q2,1.7124488989459437
actual_q3,-2.065749784509176
actual_q4,-1.5707648436175745
actual_q5,3.1121983528137207
actual_q0,4.683018684387207
actual_q1,-1.2153797012618561
actual_q2,1.716459099446432
actual_q3,-2.0720278225340785
actual_q4,-1.5707767645465296
actual_q5,3.112210988998413
actual_q0,4.683018684387207
actual_q1,-1.2143139404109498
actual_q2,1.718325440083639
actual_q3,-2.07482447246694
actual_q4,-1.5707805792437952
actual_q5,3.1121983528137207
actual_q0,4.683046817779541
actual_q1,-1.2143784922412415
actual_q2,1.7183550039874476
actual_q3,-2.074906965295309
actual_q4,-1.5708087126361292
actual_q5,3.1122028827667236
actual_q0,4.683027267456055
actual_q1,-1.214349554186203
actual_q2,1.7183674017535608
actual_q3,-2.0748988590636195
actual_q4,-1.570813004170553
actual_q5,3.112182140350342
actual_q0,4.682981967926025
actual_q1,-1.214378522043564
actual_q2,1.7184317747699183
actual_q3,-2.074958463708395
actual_q4,-1.5707925001727503
actual_q5,3.1122074127197266
actual_q0,4.683071613311768
actual_q1,-1.2143631142428895
actual_q2,1.7184627691852015
actual_q3,-2.074923177758688
actual_q4,-1.5708048979388636
actual_q5,3.11221981048584
actual_q0,4.683011054992676
actual_q1,-1.2143675845912476
actual_q2,1.7184718290912073
actual_q3,-2.074942728082174
actual_q4,-1.5707967917071741
actual_q5,3.1121912002563477
actual_q0,4.682998180389404
actual_q1,-1.2143630546382447
actual_q2,1.7184956709491175
actual_q3,-2.074857374230856
actual_q4,-1.5707967917071741
actual_q5,3.1122331619262695
actual_q0,4.6830644607543945
actual_q1,-1.2143645745566864
actual_q2,1.7185080687152308
actual_q3,-2.0749064884581507
actual_q4,-1.5707967917071741
actual_q5,3.1122360229492188
actual_q0,4.682990074157715
actual_q1,-1.214297578935959
actual_q2,1.7184999624835413
actual_q3,-2.0749269924559535
actual_q4,-1.5708373228656214
actual_q5,3.1121792793273926
actual_q0,4.682976722717285
actual_q1,-1.2143364411643525
actual_q2,1.7185290495501917
actual_q3,-2.0749551258482875
actual_q4,-1.5708087126361292
actual_q5,3.1121954917907715
actual_q0,4.68300199508667
actual_q1,-1.2143184405616303
actual_q2,1.7184956709491175
actual_q3,-2.0749269924559535
actual_q4,-1.5707967917071741
actual_q5,3.112264394760132
actual_q0,4.683011054992676
actual_q1,-1.2142945390990754
actual_q2,1.7184999624835413
actual_q3,-2.074930807153219
actual_q4,-1.5708168188678187
actual_q5,3.112240791320801
actual_q0,4.683063507080078
actual_q1,-1.214322881107666
actual_q2,1.7185042540179651
actual_q3,-2.0749627552428187
actual_q4,-1.5707767645465296
actual_q5,3.1122405529022217
actual_q0,4.682973861694336
actual_q1,-1.2143876415542145
actual_q2,1.718407932912008
actual_q3,-2.0750585995116175
actual_q4,-1.570772949849264
actual_q5,3.1122806072235107
actual_q0,4.683032035827637
actual_q1,-1.2143675547889252
actual_q2,1.718436066304342
actual_q3,-2.0750419102110804
actual_q4,-1.570772949849264
actual_q5,3.11221981048584
actual_q0,4.6830363273620605
actual_q1,-1.214342252617218
actual_q2,1.718436066304342
actual_q3,-2.075010438958639
actual_q4,-1.570784870778219
actual_q5,3.1122405529022217
actual_q0,4.682994842529297
actual_q1,-1.2145157617381592
actual_q2,1.718184773121969
actual_q3,-2.073979517022604
actual_q4,-1.570824925099508
actual_q5,3.112222909927368
actual_q0,4.6830644607543945
actual_q1,-1.2159136098674317
actual_q2,1.7155960241900843
actual_q3,-2.070219179193014
actual_q4,-1.5708168188678187
actual_q5,3.1121866703033447
actual_q0,4.682985782623291
actual_q1,-1.218479261999466
actual_q2,1.710654083882467
actual_q3,-2.0624400577940882
actual_q4,-1.570829216633932
actual_q5,3.112185478210449
actual_q0,4.682987213134766
actual_q1,-1.2225565177253266
actual_q2,1.7032435576068323
actual_q3,-2.051415105859274
actual_q4,-1.570772949849264
actual_q5,3.1122024059295654
actual_q0,4.683011054992676
actual_q1,-1.2276952427676697
actual_q2,1.6937111059771937
actual_q3,-2.036919733087057
actual_q4,-1.570784870778219
actual_q5,3.1122028827667236
actual_q0,4.682994842529297
actual_q1,-1.2339885395816346
actual_q2,1.68207294145693
actual_q3,-2.0188352070250453
actual_q4,-1.5708330313311976
actual_q5,3.1122405529022217
actual_q0,4.683055877685547
actual_q1,-1.241610274916031
actual_q2,1.6681259314166468
actual_q3,-1.9973837337889613
actual_q4,-1.570784870778219
actual_q5,3.1122028827667236
actual_q0,4.683022975921631
actual_q1,-1.250382201080658
actual_q2,1.6518643538104456
actual_q3,-1.9723693333067835
actual_q4,-1.570784870778219
actual_q5,3.1122074127197266
actual_q0,4.683022975921631
actual_q1,-1.2599355441382905
actual_q2,1.6343782583819788
actual_q3,-1.9453760586180628
actual_q4,-1.570756737385885
actual_q5,3.11221981048584
actual_q0,4.683084487915039
actual_q1,-1.268232361679413
actual_q2,1.618972126637594
actual_q3,-1.9214517078795375
actual_q4,-1.5707967917071741
actual_q5,3.1121912002563477
actual_q0,4.683011054992676
actual_q1,-1.2754395765117188
actual_q2,1.6058037916766565
actual_q3,-1.9009677372374476
actual_q4,-1.5708206335650843
actual_q5,3.1121985912323
actual_q0,4.683020114898682
actual_q1,-1.281455711727478
actual_q2,1.5947173277484339
actual_q3,-1.8841444454588832
actual_q4,-1.5708006064044397
actual_q5,3.1122772693634033
actual_q0,4.682994842529297
actual_q1,-1.2861614984324952
actual_q2,1.5861199537860315
actual_q3,-1.870533128777975
actual_q4,-1.5708006064044397
actual_q5,3.112215518951416
actual_q0,4.68300199508667
actual_q1,-1.289615885620453
actual_q2,1.57959491411318
actual_q3,-1.860690256158346
actual_q4,-1.5707529226886194
actual_q5,3.1122567653656006
actual_q0,4.683011054992676
actual_q1,-1.291905627851822
actual_q2,1.5754182974444788
actual_q3,-1.8543220959105433
actual_q4,-1.5707529226886194
actual_q5,3.1121985912323
actual_q0,4.682976722717285
actual_q1,-1.292998031978943
actual_q2,1.573418919240133
actual_q3,-1.851229806939596
actual_q4,-1.5708048979388636
actual_q5,3.1121912002563477
actual_q0,4.682262420654297
actual_q1,-1.293002263908722
actual_q2,1.573423210774557
actual_q3,-1.8510991535582484
actual_q4,-1.5707967917071741
actual_q5,3.1114866733551025
actual_q0,4.678396701812744
actual_q1,-1.2936341327479859
actual_q2,1.5739882628070276
actual_q3,-1.8511549435057582
actual_q4,-1.5708125273333948
actual_q5,3.1074862480163574
actual_q0,4.670716285705566
actual_q1,-1.294564501648285
actual_q2,1.5751407782184046
actual_q3,-1.8513175449767054
actual_q4,-1.570784870778219
actual_q5,3.0999417304992676
actual_q0,4.659848690032959
actual_q1,-1.2960395973971863
actual_q2,1.5766866842852991
actual_q3,-1.8516079388060511
actual_q4,-1.5707362333880823
actual_q5,3.0889127254486084
actual_q0,4.645195960998535
actual_q1,-1.2977635723403473
actual_q2,1.5788987318622034
actual_q3,-1.8520060978331507
actual_q4,-1.5707324186908167
actual_q5,3.0745363235473633
actual_q0,4.627383708953857
actual_q1,-1.3001381915858765
actual_q2,1.581723992024557
actual_q3,-1.8524743519225062
actual_q4,-1.5707929770099085
actual_q5,3.0564351081848145
actual_q0,4.605740070343018
actual_q1,-1.3028284472278138
actual_q2,1.5850585142718714
actual_q3,-1.8530193767943324
actual_q4,-1.570813004170553
actual_q5,3.034999132156372
actual_q0,4.580848693847656
actual_q1,-1.3060951989940186
actual_q2,1.588900391255514
actual_q3,-1.8536387882628382
actual_q4,-1.5707891623126429
actual_q5,3.0102310180664062
actual_q0,4.552577972412109
actual_q1,-1.3096977931312104
actual_q2,1.5931623617755335
actual_q3,-1.8543702564635218
actual_q4,-1.5707085768329065
actual_q5,2.981814384460449
actual_q0,4.52064323425293
actual_q1,-1.3136941653541108
actual_q2,1.5981314818011683
actual_q3,-1.8550778828062953
actual_q4,-1.5707653204547327
actual_q5,2.949789047241211
actual_q0,4.485172748565674
actual_q1,-1.3182981473258515
actual_q2,1.6035750547992151
actual_q3,-1.8560525379576625
actual_q4,-1.5707362333880823
actual_q5,2.91433048248291
actual_q0,4.446193218231201
actual_q1,-1.323075310592987
actual_q2,1.6094477812396448
actual_q3,-1.8570944271483363
actual_q4,-1.5708048979388636
actual_q5,2.875394582748413
actual_q0,4.403800964355469
actual_q1,-1.3285181683352967
actual_q2,1.6158960501300257
actual_q3,-1.8581682644286097
actual_q4,-1.5708368460284632
actual_q5,2.8330132961273193
actual_q0,4.3579301834106445
actual_q1,-1.334439293747284
actual_q2,1.622856918965475
actual_q3,-1.8593045673766078
actual_q4,-1.570784870778219
actual_q5,2.7871880531311035
actual_q0,4.308497428894043
actual_q1,-1.3407075864127656
actual_q2,1.630523983632223
actual_q3,-1.8607083759703578
actual_q4,-1.5708254019366663
actual_q5,2.737663984298706
actual_q0,4.256381034851074
actual_q1,-1.3473403614810486
actual_q2,1.6385543982135218
actual_q3,-1.8620449505248011
actual_q4,-1.5708087126361292
actual_q5,2.685490846633911
actual_q0,4.203927516937256
actual_q1,-1.353952558045723
actual_q2,1.6464203039752405
actual_q3,-1.8632599316039027
actual_q4,-1.5707925001727503
actual_q5,2.6332955360412598
actual_q0,4.151621341705322
actual_q1,-1.3605387669852753
actual_q2,1.6543996969806116
actual_q3,-1.8647042713561
actual_q4,-1.5707724730121058
actual_q5,2.5809736251831055
actual_q0,4.099216938018799
actual_q1,-1.3673184973052521
actual_q2,1.6625192801104944
actual_q3,-1.8658844433226527
actual_q4,-1.5708048979388636
actual_q5,2.5283687114715576
actual_q0,4.046999931335449
actual_q1,-1.3739841890386124
actual_q2,1.6705415884601038
actual_q3,-1.867319246331686
actual_q4,-1.5707805792437952
actual_q5,2.47622013092041
actual_q0,3.9945850372314453
actual_q1,-1.380624533896782
actual_q2,1.6783712545977991
actual_q3,-1.8686830006041468
actual_q4,-1.5707886854754847
actual_q5,2.423764705657959
actual_q0,3.942263603210449
actual_q1,-1.3872479063323517
actual_q2,1.6864984671222132
actual_q3,-1.870035787621969
actual_q4,-1.5708211104022425
actual_q5,2.371281862258911
actual_q0,3.8898093700408936
actual_q1,-1.3939616692117234
actual_q2,1.6946914831744593
actual_q3,-1.8713227711119593
actual_q4,-1.570813004170553
actual_q5,2.319129705429077
actual_q0,3.8374853134155273
actual_q1,-1.400592328315117
actual_q2,1.7025426069842737
actual_q3,-1.8726550541319789
actual_q4,-1.5708487669574183
actual_q5,2.2667412757873535
actual_q0,3.785144805908203
actual_q1,-1.4072484982064744
actual_q2,1.7103999296771448
actual_q3,-1.874075552026266
actual_q4,-1.5707967917071741
actual_q5,2.214224338531494
actual_q0,3.732755661010742
actual_q1,-1.413932965402939
actual_q2,1.7183464209186
actual_q3,-1.875474592248434
actual_q4,-1.5708211104022425
actual_q5,2.1620283126831055
actual_q0,3.680481433868408
actual_q1,-1.4205091160586854
actual_q2,1.7265022436725062
actual_q3,-1.876756330529684
actual_q4,-1.5708254019366663
actual_q5,2.1096270084381104
actual_q0,3.62811279296875
actual_q1,-1.4272459757379075
actual_q2,1.7345741430865687
actual_q3,-1.878017087975973
actual_q4,-1.570784870778219
actual_q5,2.0571866035461426
actual_q0,3.5756630897521973
actual_q1,-1.433896006350853
actual_q2,1.7424734274493616
actual_q3,-1.8794118366637171
actual_q4,-1.570784870778219
actual_q5,2.005014181137085
actual_q0,3.523371934890747
actual_q1,-1.4405806821635743
actual_q2,1.7503402868853968
actual_q3,-1.8807226620116175
actual_q4,-1.570801083241598
actual_q5,1.9525692462921143
actual_q0,3.4709792137145996
actual_q1,-1.4471839305809517
actual_q2,1.7585542837726038
actual_q3,-1.8821050129332484
actual_q4,-1.5707925001727503
actual_q5,1.9000681638717651
actual_q0,3.418583631515503
actual_q1,-1.4538281944445153
actual_q2,1.7664549986468714
actual_q3,-1.8834215603270472
actual_q4,-1.570801083241598
actual_q5,1.8478587865829468
actual_q0,3.366225481033325
actual_q1,-1.4605122742107888
actual_q2,1.77440053621401
actual_q3,-1.8847748241820277
actual_q4,-1.5708254019366663
actual_q5,1.795447826385498
actual_q0,3.3161115646362305
actual_q1,-1.466940463786461
actual_q2,1.7821162382708948
actual_q3,-1.886036058465475
actual_q4,-1.5708325544940394
actual_q5,1.7452409267425537
actual_q0,3.269397497177124
actual_q1,-1.4728138607791443
actual_q2,1.7893837133990687
actual_q3,-1.887249609033102
actual_q4,-1.570801083241598
actual_q5,1.698634147644043
actual_q0,3.2262136936187744
actual_q1,-1.4784165409258385
actual_q2,1.7959173361407679
actual_q3,-1.8883706531920375
actual_q4,-1.5707610289203089
actual_q5,1.6553449630737305
actual_q0,3.1865339279174805
actual_q1,-1.483318918650486
actual_q2,1.8018596808062952
actual_q3,-1.889348646203512
actual_q4,-1.5708168188678187
actual_q5,1.6157164573669434
actual_q0,3.15029239654541
actual_q1,-1.4880159732750435
actual_q2,1.8074925581561487
actual_q3,-1.8903027973570765
actual_q4,-1.5707843939410608
actual_q5,1.5794894695281982
actual_q0,3.11759090423584
actual_q1,-1.4921520811370392
actual_q2,1.8124778906451624
actual_q3,-1.8910843334593714
actual_q4,-1.570801083241598
actual_q5,1.5468037128448486
actual_q0,2.9944937229156494
actual_q1,-1.5078331989100953
actual_q2,1.831353012715475
actual_q3,-1.8942257366576136
actual_q4,-1.570772949849264
actual_q5,1.4236503839492798
actual_q0,2.9861180782318115
actual_q1,-1.5088114377907296
actual_q2,1.8325827757464808
actual_q3,-1.894421239892477
actual_q4,-1.5708335081683558
actual_q5,1.415419578552246
actual_q0,2.9813663959503174
actual_q1,-1.509433814590313
actual_q2,1.8332913557635706
actual_q3,-1.8946253261961878
actual_q4,-1.5708091894732874
actual_q5,1.4105972051620483
actual_q0,2.9800806045532227
actual_q1,-1.5095711027136822
actual_q2,1.8333709875689905
actual_q3,-1.894665380517477
actual_q4,-1.570829216633932
actual_q5,1.4092857837677002
actual_q0,2.980071783065796
actual_q1,-1.5089247983745118
actual_q2,1.8349579016314905
actual_q3,-1.8969127140440882
actual_q4,-1.570784870778219
actual_q5,1.4092768430709839
actual_q0,2.9800970554351807
actual_q1,-1.5067485731891175
actual_q2,1.8384302298175257
actual_q3,-1.9024855099120082
actual_q4,-1.5708048979388636
actual_q5,1.4092857837677002
actual_q0,2.9800643920898438
actual_q1,-1.5032021042755623
actual_q2,1.8439725081073206
actual_q3,-1.9117547474303187
actual_q4,-1.5707686583148401
actual_q5,1.4093081951141357
actual_q0,2.9800491333007812
actual_q1,-1.4983762067607422
actual_q2,1.8521001974688929
actual_q3,-1.9242259464659632
actual_q4,-1.5707891623126429
actual_q5,1.4092216491699219
actual_q0,2.9800524711608887
actual_q1,-1.4922597420266648
actual_q2,1.862039868031637
actual_q3,-1.940585275689596
actual_q4,-1.5708325544940394
actual_q5,1.4092305898666382
actual_q0,2.9800610542297363
actual_q1,-1.4847167369774361
actual_q2,1.874103848134176
actual_q3,-1.9600378475584925
actual_q4,-1.5708406607257288
actual_q5,1.4092381000518799
actual_q0,2.9800119400024414
actual_q1,-1.475995586519577
actual_q2,1.8885791937457483
actual_q3,-1.9831582508482875
actual_q4,-1.5707724730121058
actual_q5,1.4092216491699219
actual_q0,2.9800491333007812
actual_q1,-1.4658608150533219
actual_q2,1.9047401587115687
actual_q3,-2.00988306621694
actual_q4,-1.5708254019366663
actual_q5,1.40924072265625
actual_q0,2.9800567626953125
actual_q1,-1.4549849045327683
actual_q2,1.9227688948260706
actual_q3,-2.0381208858885707
actual_q4,-1.5708048979388636
actual_q5,1.4092246294021606
