Andreas691667/Digital_Twin_UR/data_analysis/test_results/old/robot_output_blocks.csv
timestamp actual_q_0 actual_q_1 actual_q_2 actual_q_3 actual_q_4 actual_q_5 actual_qd_0 actual_qd_1 actual_qd_2 actual_qd_3 actual_qd_4 actual_qd_5 safety_status output_bit_register_65 output_bit_register_66
1077.291 3.7121236324310303 -0.825455443268158 0.8430092970477503 -1.5883456669249476 -1.5708006064044397 2.141317367553711 1.4636562459872714e-41 0.0 -0.0 -0.0 0.0 -0.0 1 False False
1077.341 3.7120444774627686 -0.8255080741694947 0.8429721037494105 -1.5882731876769007 -1.570772949849264 2.141263484954834 0.0 0.0 -0.0 -0.0 0.0 -0.0 1 False False
1077.3909999999998 3.7120726108551025 -0.825463132267334 0.842992130910055 -1.5882774792113246 -1.570784870778219 2.141270875930786 0.0 0.0 -0.0 -0.0 0.0 -0.0 1 False False
1077.441 3.7120399475097656 -0.8254379791072388 0.8430007139789026 -1.5882650814452113 -1.5708006064044397 2.1412765979766846 0.0 0.0 -0.0 -0.0 0.0 -0.0 1 False False
1077.491 3.7120697498321533 -0.8254675430110474 0.8429802099810999 -1.5882731876769007 -1.5708006064044397 2.141308546066284 0.0 0.0 -0.0 -0.0 0.0 -0.0 1 False False
1077.541 3.7120742797851562 -0.8254587215236207 0.8429930845843714 -1.5882498226561488 -1.5707648436175745 2.141287088394165 0.0 0.0 -0.0 -0.0 0.0 -0.0 1 False False
1077.591 3.7120981216430664 -0.8254707020572205 0.8429721037494105 -1.5883618793883265 -1.570829216633932 2.141295909881592 0.0 0.0 -0.0 -0.0 0.0 -0.0 1 False False
1077.6409999999998 3.712045669555664 -0.8254675430110474 0.8429434935199183 -1.5882331333556117 -1.5707767645465296 2.141270875930786 0.0 0.0 -0.0 -0.0 0.0 -0.0 1 False False
1077.691 3.7120862007141113 -0.8254706424525757 0.8429845015155237 -1.5882774792113246 -1.570829216633932 2.1412928104400635 0.0 0.0 -0.0 -0.0 0.0 -0.0 1 False False
1077.741 3.7120203971862793 -0.8254497212222596 0.8429802099810999 -1.588320871392721 -1.5707967917071741 2.141270875930786 0.0 0.0 -0.0 -0.0 0.0 -0.0 1 False False
1077.791 3.7120742797851562 -0.825463132267334 0.842959229146139 -1.5882774792113246 -1.5707886854754847 2.1412546634674072 0.0 0.0 -0.0 -0.0 0.0 -0.0 1 False False
1077.841 3.7121188640594482 -0.8255002063563843 0.8429392019854944 -1.5882774792113246 -1.5708330313311976 2.141263484954834 0.0 0.0 -0.0 -0.0 0.0 -0.0 1 False False
1077.8909999999998 3.7120368480682373 -0.8255002063563843 0.8429845015155237 -1.588245531121725 -1.5707886854754847 2.1412429809570312 0.0 0.0 -0.0 -0.0 0.0 -0.0 1 False False
1078.1409999999998 3.7120742797851562 -0.8254675430110474 0.8430126349078577 -1.5882846317686976 -1.5707967917071741 2.1412060260772705 0.0 0.0 -0.0 -0.0 0.0 -0.0 1 False False
1078.191 3.7120816707611084 -0.8254869145205994 0.8430493513690394 -1.5882569752135218 -1.5708048979388636 2.141275405883789 0.0 0.0 -0.0 -0.0 0.0 -0.0 1 False False
1078.241 3.712099552154541 -0.8254719537547608 0.8430288473712366 -1.5882331333556117 -1.5708406607257288 2.1413257122039795 0.0 0.0 -0.0 -0.0 0.0 -0.0 1 False False
1078.291 3.712045669555664 -0.825495795612671 0.8429716269122522 -1.5882846317686976 -1.5707529226886194 2.141279697418213 0.0 0.0 -0.0 -0.0 0.0 -0.0 1 False False
1078.341 3.712083101272583 -0.8255453866771241 0.8430050055133265 -1.588252683679098 -1.570772949849264 2.1412997245788574 0.0 0.0 -0.0 -0.0 0.0 -0.0 1 False False
1078.3909999999998 3.7120697498321533 -0.8254794043353577 0.8429759184466761 -1.5883094273009242 -1.5707929770099085 2.141295909881592 -1.3992112156887012e-35 0.0 -0.0 -0.0 0.0 -0.0 1 False False
1078.441 3.712095022201538 -0.825457291012146 0.8429964224444788 -1.5882412395873011 -1.5707891623126429 2.141275405883789 0.0 0.0 -0.0 -0.0 0.0 -0.0 1 False False
1078.491 3.712111234664917 -0.8255127233317872 0.8429501692401331 -1.588273664514059 -1.5708335081683558 2.141324758529663 0.0 0.0 -0.0 -0.0 0.0 -0.0 1 False False
1078.541 3.71207857131958 -0.825463132267334 0.8430212179767054 -1.5882817707457484 -1.5707724730121058 2.1413419246673584 0.0 0.0 -0.0 -0.0 0.0 -0.0 1 False False
1078.591 3.712062358856201 -0.825466052894928 0.8430374304400843 -1.5882569752135218 -1.5707929770099085 2.141275405883789 0.0 0.0 -0.0 -0.0 0.0 -0.0 1 False False
1078.6409999999998 3.712045907974243 -0.8254869741252442 0.8430245558368128 -1.5883051357665003 -1.5707686583148401 2.141231060028076 0.0 0.0 -0.0 -0.0 0.0 -0.0 1 False False
1078.691 3.7120370864868164 -0.8254261177829285 0.8429964224444788 -1.5883013210692347 -1.5707686583148401 2.1412839889526367 0.0 0.0 -0.0 -0.0 0.0 -0.0 1 False False
1078.741 3.712083101272583 -0.8254913848689576 0.8430007139789026 -1.5882255039610804 -1.5707891623126429 2.1412429809570312 0.0 0.0 -0.0 -0.0 0.0 -0.0 1 False False
1078.791 3.712090492248535 -0.8254675430110474 0.8429930845843714 -1.5882851086058558 -1.570801083241598 2.141267776489258 0.0 0.0 -0.0 -0.0 0.0 -0.0 1 False False
1078.841 3.7120981216430664 -0.8254260581782837 0.8429802099810999 -1.5882889233031214 -1.570801083241598 2.141295909881592 0.0 0.0 -0.0 -0.0 0.0 -0.0 1 False False
1078.8909999999998 3.712071180343628 -0.8254556816867371 0.8429802099810999 -1.588297029534811 -1.570784870778219 2.141329050064087 0.0 0.0 -0.0 -0.0 0.0 -0.0 1 False False
1078.941 3.712087392807007 -0.8254913252643128 0.8429845015155237 -1.5882617435851039 -1.5708368460284632 2.141275405883789 0.0 0.0 -0.0 -0.0 0.0 -0.0 1 False False
1078.991 3.712062358856201 -0.8254409593394776 0.8429845015155237 -1.588273664514059 -1.5707686583148401 2.14125919342041 0.0 0.0 -0.0 -0.0 0.0 -0.0 1 False False
1079.041 3.712062358856201 -0.8254913848689576 0.8429678122149866 -1.5882889233031214 -1.570801083241598 2.1413002014160156 0.0 0.0 -0.0 -0.0 0.0 -0.0 1 False False
1079.091 3.7120862007141113 -0.8254838746837159 0.8429930845843714 -1.5883094273009242 -1.5707967917071741 2.141312837600708 0.0 0.0 -0.0 -0.0 0.0 -0.0 1 False False
1079.1409999999998 3.712094783782959 -0.8254334491542359 0.8430054823504847 -1.5882817707457484 -1.570756737385885 2.141267776489258 0.0 0.0 -0.0 -0.0 0.0 -0.0 1 False False
1079.191 3.7120327949523926 -0.8254393500140687 0.8429845015155237 -1.5883056126036585 -1.5707686583148401 2.141279697418213 0.0 0.0 -0.0 -0.0 0.0 -0.0 1 False False
1079.241 3.712118625640869 -0.8254823845675965 0.8429587523089808 -1.588297029534811 -1.570813004170553 2.141247272491455 0.0 0.0 -0.0 -0.0 0.0 -0.0 1 False False
1079.291 3.7120580673217773 -0.8254543107799073 0.8429845015155237 -1.588268896142477 -1.570756737385885 2.1412546634674072 0.0 0.0 -0.0 -0.0 0.0 -0.0 1 False False
1079.341 3.7120165824890137 -0.8255046767047425 0.8429978529559534 -1.5882731876769007 -1.5707362333880823 2.141231060028076 0.0 0.0 -0.0 -0.0 0.0 -0.0 1 False False
1079.3909999999998 3.7120862007141113 -0.8254706424525757 0.8429306189166468 -1.5882932148375453 -1.570853058491842 2.1413183212280273 0.0 0.0 -0.0 -0.0 0.0 -0.0 1 False False
1079.441 3.712094783782959 -0.8254423898509522 0.8430007139789026 -1.5883165798582972 -1.5707925001727503 2.141279697418213 0.0 0.0 -0.0 -0.0 0.0 -0.0 1 False False
1079.491 3.712090492248535 -0.825466052894928 0.8429630438434046 -1.5883013210692347 -1.5708048979388636 2.14127516746521 0.0 0.0 -0.0 -0.0 0.0 -0.0 1 False False
1079.541 3.7120416164398193 -0.825451211338379 0.8429673353778284 -1.5883013210692347 -1.5707405249225062 2.14127516746521 0.0 0.0 -0.0 -0.0 0.0 -0.0 1 False False
1079.591 3.7120370864868164 -0.8254497212222596 0.8429721037494105 -1.5882288418211878 -1.5707486311541956 2.141270637512207 0.0 0.0 -0.0 -0.0 0.0 -0.0 1 False False
1079.841 3.712106704711914 -0.8254587215236207 0.8429845015155237 -1.5882650814452113 -1.5707648436175745 2.141279697418213 0.0 0.0 -0.0 -0.0 0.0 -0.0 1 False False
1079.8909999999998 3.7120044231414795 -0.8254468005946656 0.842992130910055 -1.5883127651610316 -1.57074481645693 2.141279697418213 0.0 0.0 -0.0 -0.0 0.0 -0.0 1 False False
1079.941 3.712110996246338 -0.825463132267334 0.8430054823504847 -1.5883094273009242 -1.5707767645465296 2.141282558441162 0.0 0.0 -0.0 -0.0 0.0 -0.0 1 False False
1079.991 3.7120819091796875 -0.8254750531962891 0.842971150075094 -1.5882207355894984 -1.570784870778219 2.14127516746521 0.0 0.0 -0.0 -0.0 0.0 -0.0 1 False False
1080.041 3.712111234664917 -0.8254587215236207 0.8429845015155237 -1.5882731876769007 -1.570723835621969 2.141313076019287 0.0 0.0 -0.0 -0.0 0.0 -0.0 1 False False
1080.091 3.7120699882507324 -0.8254468005946656 0.8430216948138636 -1.5882498226561488 -1.5707891623126429 2.14127516746521 0.0 0.0 -0.0 -0.0 0.0 -0.0 1 False False
1080.1409999999998 3.712094783782959 -0.8254706424525757 0.8429515997516077 -1.588245531121725 -1.5707967917071741 2.141242504119873 0.0 0.0 -0.0 -0.0 0.0 -0.0 1 False False
1080.191 3.712106704711914 -0.8254052561572571 0.8429425398456019 -1.5883094273009242 -1.5707648436175745 2.1412930488586426 0.0 0.0 -0.0 -0.0 0.0 -0.0 1 False False
1080.241 3.7121024131774902 -0.8254496616176148 0.8429721037494105 -1.5882650814452113 -1.570784870778219 2.141242504119873 0.0 0.0 -0.0 -0.0 0.0 -0.0 1 False False
1080.291 3.7120742797851562 -0.8254823845675965 0.8430097738849085 -1.5882650814452113 -1.5707967917071741 2.141284227371216 0.0 0.0 -0.0 -0.0 0.0 -0.0 1 False False
1080.341 3.712045907974243 -0.8254795235446473 0.8430007139789026 -1.5882846317686976 -1.5707967917071741 2.141279697418213 0.0 0.0 -0.0 -0.0 0.0 -0.0 1 False False
1080.3909999999998 3.712106704711914 -0.8255366843989869 0.8430216948138636 -1.5882932148375453 -1.5707925001727503 2.141284227371216 0.0 0.0 -0.0 -0.0 0.0 -0.0 1 False False
1080.441 3.7120537757873535 -0.825463132267334 0.8429892698871058 -1.5882774792113246 -1.5707805792437952 2.141329526901245 0.0 0.0 -0.0 -0.0 0.0 -0.0 1 False False
1080.491 3.7120578289031982 -0.8254750531962891 0.8429392019854944 -1.588252683679098 -1.5708048979388636 2.141267776489258 0.0 0.0 -0.0 -0.0 0.0 -0.0 1 False False
1080.541 3.7120323181152344 -0.8255091470531006 0.8429721037494105 -1.5882331333556117 -1.5707891623126429 2.141333818435669 0.0 0.0 -0.0 -0.0 0.0 -0.0 1 False False
1080.591 3.712062358856201 -0.8255483073047181 0.8430307547198694 -1.5882650814452113 -1.570784870778219 2.141313076019287 0.0 0.0 -0.0 -0.0 0.0 -0.0 1 False False
1080.6409999999998 3.712099552154541 -0.8254496616176148 0.8429892698871058 -1.5882169208922328 -1.5708091894732874 2.141284227371216 0.0 0.0 -0.0 -0.0 0.0 -0.0 1 False False
1080.691 3.712111473083496 -0.8254823845675965 0.8430293242083948 -1.5882932148375453 -1.5707605520831507 2.141235113143921 0.0 0.0 -0.0 -0.0 0.0 -0.0 1 False False
1080.741 3.7120323181152344 -0.8254958552173157 0.8430054823504847 -1.5883056126036585 -1.5708087126361292 2.141284227371216 0.0 0.0 -0.0 -0.0 0.0 -0.0 1 False False
1080.791 3.712083101272583 -0.8255455058864136 0.842971150075094 -1.5882536373534144 -1.5708449522601526 2.1413049697875977 0.0 0.0 -0.0 -0.0 0.0 -0.0 1 False False
1080.841 3.712078809738159 -0.8254823845675965 0.8429845015155237 -1.5883094273009242 -1.5708168188678187 2.141284227371216 0.0 0.0 -0.0 -0.0 0.0 -0.0 1 False False
1080.8909999999998 3.7120490074157715 -0.8254823845675965 0.8429935614215296 -1.588269372979635 -1.5708087126361292 2.141279697418213 0.0 0.0 -0.0 -0.0 0.0 -0.0 1 False False
1080.941 3.712062358856201 -0.8254913848689576 0.842971150075094 -1.5882488689818324 -1.5707724730121058 2.141296148300171 0.0 0.0 -0.0 -0.0 0.0 -0.0 1 False False
1080.991 3.712036609649658 -0.8254779738238831 0.8429802099810999 -1.588292738000387 -1.5707805792437952 2.141237735748291 0.0 0.0 -0.0 -0.0 0.0 -0.0 1 False False
1081.041 3.7120697498321533 -0.8254869741252442 0.8429845015155237 -1.5882851086058558 -1.5707686583148401 2.1412723064422607 0.0 0.0 -0.0 -0.0 0.0 -0.0 1 False False
1081.091 3.712083101272583 -0.8255039614490052 0.8429673353778284 -1.5883165798582972 -1.5707605520831507 2.141296148300171 0.0 0.0 -0.0 -0.0 0.0 -0.0 1 False False
1081.1409999999998 3.712078809738159 -0.8254706424525757 0.8429845015155237 -1.5882536373534144 -1.5707805792437952 2.141230583190918 0.0 0.0 -0.0 -0.0 0.0 -0.0 1 False False
1081.191 3.7120578289031982 -0.8254869741252442 0.8429630438434046 -1.588273664514059 -1.5707486311541956 2.1412885189056396 0.0 0.0 -0.0 -0.0 0.0 -0.0 1 False False
1081.241 3.7120907306671143 -0.8254543107799073 0.8430083433734339 -1.5883013210692347 -1.570784870778219 2.141308546066284 0.0 0.0 -0.0 -0.0 0.0 -0.0 1 False False
1081.291 3.7120862007141113 -0.8254869741252442 0.8429845015155237 -1.5883132419981898 -1.5707967917071741 2.141287088394165 -4.541666685570502e-24 0.0 -0.0 -0.0 0.0 -0.0 1 False False
1081.341 3.7120816707611084 -0.8254794639400025 0.8429515997516077 -1.5882851086058558 -1.5708654562579554 2.141267776489258 0.0 0.0 -0.0 -0.0 0.0 -0.0 1 False False
1081.3909999999998 3.7120652198791504 -0.8255127233317872 0.8429673353778284 -1.5882851086058558 -1.5707686583148401 2.141270637512207 0.0 0.0 -0.0 -0.0 0.0 -0.0 1 False False
1081.441 3.712062358856201 -0.825442449455597 0.8429845015155237 -1.5883094273009242 -1.5707648436175745 2.141284227371216 0.0 0.0 -0.0 -0.0 0.0 -0.0 1 False False
1081.491 3.712120532989502 -0.8254913848689576 0.8430040518390101 -1.5882460079588832 -1.5707929770099085 2.141267776489258 0.0 0.0 -0.0 -0.0 0.0 -0.0 1 False False
1081.541 3.7120578289031982 -0.8254707020572205 0.8429721037494105 -1.5883165798582972 -1.5707405249225062 2.141284227371216 0.0 0.0 -0.0 -0.0 0.0 -0.0 1 False False
1081.591 3.712033748626709 -0.8254661124995728 0.8429802099810999 -1.5882607899107875 -1.5707805792437952 2.141258955001831 0.0 0.0 -0.0 -0.0 0.0 -0.0 1 False False
1081.6409999999998 3.712021589279175 -0.8254869741252442 0.8430097738849085 -1.5882488689818324 -1.5707648436175745 2.1413040161132812 0.0 0.0 -0.0 -0.0 0.0 -0.0 1 False False
1081.691 3.7121145725250244 -0.8254957360080262 0.8429678122149866 -1.5882774792113246 -1.5708335081683558 2.1413159370422363 0.0 0.0 -0.0 -0.0 0.0 -0.0 1 False False
1081.741 3.7120907306671143 -0.8254692715457459 0.8429845015155237 -1.588313718835348 -1.570829216633932 2.141341209411621 0.0 0.0 -0.0 -0.0 0.0 -0.0 1 False False
1081.791 3.7120816707611084 -0.8254587215236207 0.8429759184466761 -1.5883094273009242 -1.5707605520831507 2.1412558555603027 0.0 0.0 -0.0 -0.0 0.0 -0.0 1 False False
1081.841 3.712050199508667 -0.8254454296878357 0.8429668585406702 -1.588252683679098 -1.5707724730121058 2.141235113143921 0.0 0.0 -0.0 -0.0 0.0 -0.0 1 False False
1081.8909999999998 3.712095260620117 -0.8254380983165284 0.8429845015155237 -1.5882774792113246 -1.570824925099508 2.141266345977783 0.0 0.0 -0.0 -0.0 0.0 -0.0 1 False False
1081.941 3.712036609649658 -0.8254823845675965 0.8429887930499476 -1.5882846317686976 -1.570784870778219 2.141275405883789 0.0 0.0 -0.0 -0.0 0.0 -0.0 1 False False
1081.991 3.7120981216430664 -0.825495795612671 0.8429430166827601 -1.588313718835348 -1.5708087126361292 2.141251564025879 0.0 0.0 -0.0 -0.0 0.0 -0.0 1 False False
1082.041 3.7120444774627686 -0.8255408567241211 0.8430336157428187 -1.5882731876769007 -1.5708048979388636 2.141263484954834 0.0 0.0 -0.0 -0.0 0.0 -0.0 1 False False
1082.091 3.712083339691162 -0.8254750531962891 0.8429759184466761 -1.5883094273009242 -1.5708211104022425 2.141291618347168 0.0 0.0 -0.0 -0.0 0.0 -0.0 1 False False
1082.1409999999998 3.712111473083496 -0.8254674834064026 0.8430126349078577 -1.5882731876769007 -1.5708091894732874 2.141279697418213 0.0 0.0 -0.0 -0.0 0.0 -0.0 1 False False
1082.191 3.712123394012451 -0.8255201143077393 0.8429515997516077 -1.588297029534811 -1.5707805792437952 2.141324996948242 0.0 0.0 -0.0 -0.0 0.0 -0.0 1 False False
1082.241 3.7120490074157715 -0.8255039018443604 0.8430336157428187 -1.5883013210692347 -1.5707929770099085 2.141317367553711 0.0 0.0 -0.0 -0.0 0.0 -0.0 1 False False
1082.291 3.712111473083496 -0.8254869741252442 0.8430007139789026 -1.5883575878539027 -1.5707686583148401 2.1413040161132812 0.0 0.0 -0.0 -0.0 0.0 -0.0 1 True False
1082.341 3.7120862007141113 -0.8254455488971253 0.8430007139789026 -1.5883127651610316 -1.5707891623126429 2.141295909881592 0.0 0.0 -0.0 -0.0 0.0 -0.0 1 True False
1082.3909999999998 3.7120652198791504 -0.8255538505366822 0.8429430166827601 -1.5883251629271449 -1.5708487669574183 2.141317129135132 0.0 0.0 -0.0 -0.0 0.0 -0.0 1 True False
1082.441 3.7121176719665527 -0.8255043190768738 0.8429887930499476 -1.588285585443014 -1.5707686583148401 2.1413257122039795 0.0 0.0 -0.0 -0.0 0.0 -0.0 1 True False
1082.491 3.712095022201538 -0.825433687572815 0.8429845015155237 -1.588320871392721 -1.570784870778219 2.141275405883789 0.0 0.0 -0.0 -0.0 0.0 -0.0 1 True False
1082.541 3.7121188640594482 -0.8254718345454712 0.8429678122149866 -1.5882932148375453 -1.5707648436175745 2.1412267684936523 0.0 0.0 -0.0 -0.0 0.0 -0.0 1 True False
1082.591 3.7120535373687744 -0.8254499596408387 0.8429802099810999 -1.5882731876769007 -1.570829216633932 2.1412620544433594 0.0 0.0 -0.0 -0.0 0.0 -0.0 1 True False
1082.6409999999998 3.7120413780212402 -0.8254425090602417 0.8429678122149866 -1.588280817071432 -1.5707691351519983 2.1412546634674072 0.0 0.0 -0.0 -0.0 0.0 -0.0 1 True False
1082.691 3.712106943130493 -0.8255081933787842 0.8429678122149866 -1.5882774792113246 -1.5707810560809534 2.1412665843963623 0.0 0.0 -0.0 -0.0 0.0 -0.0 1 True False
1082.741 3.7120580673217773 -0.8254425686648865 0.8429802099810999 -1.5882889233031214 -1.570772949849264 2.141223430633545 0.0 0.0 -0.0 -0.0 0.0 0.0003751788171939552 1 True False
1082.791 3.7120816707611084 -0.8254869741252442 0.842959229146139 -1.5882889233031214 -1.5707691351519983 2.141270875930786 0.0 0.0 -0.0 -0.0 -8.999673184462154e-08 3.552863919434213e-22 1 True False
1082.841 3.7120907306671143 -0.8254750531962891 0.8430126349078577 -1.5882374248900355 -1.5708006064044397 2.1412525177001953 1.2376022376964562e-33 0.0 -0.0 -0.0 -1.3670526538428636e-26 -0.0003897784627042711 1 True False
1082.8909999999998 3.7121024131774902 -0.8254456681064148 0.8429845015155237 -1.5883375606932582 -1.5707686583148401 2.1413159370422363 0.0 0.0 -0.0 -0.0 0.0004871274868492037 -2.760505268068324e-20 1 True False
1082.941 3.7120742797851562 -0.825482503776886 0.8430288473712366 -1.588285585443014 -1.5708048979388636 2.141279697418213 0.0 0.0 -0.0 -0.0 1.5970879065313297e-14 -4.193213294780903e-39 1 True False
1082.991 3.712045907974243 -0.8254382771304627 0.8429964224444788 -1.5883051357665003 -1.5708568731891077 2.1413040161132812 0.0 0.0 -0.0 -0.0 2.4259797310972675e-33 -0.0 1 True False
1083.041 3.713557720184326 -0.8264271181872864 0.8444045225726526 -1.5887156925597132 -1.5707810560809534 2.142690420150757 0.0597807876765728 -0.04322205111384392 0.062808096408844 -0.012590994127094746 -0.00011372481094440445 0.05601927265524864 1 True False
1083.091 3.7179031372070312 -0.8299993437579651 0.8496463934527796 -1.5901156864561976 -1.5708172957049769 2.1470847129821777 0.11867357045412064 -0.09915973246097565 0.14130321145057678 -0.03562130406498909 -2.0327816131164687e-21 0.11668308079242706 1 True False
1083.1409999999998 3.7254390716552734 -0.8363867563060303 0.858168903981344 -1.5926596126952113 -1.570836369191305 2.154567241668701 0.17917710542678833 -0.15329422056674957 0.20605333149433136 -0.055493537336587906 -3.087803205093664e-40 0.17168600857257843 1 True False
1083.191 3.7360026836395264 -0.8450337213328858 0.8702839056598108 -1.5958339176573695 -1.5707810560809534 2.1651010513305664 0.2425302118062973 -0.19063426554203033 0.2783416509628296 -0.07421354949474335 4.664563311962411e-05 0.2369833141565323 1 True False
1083.241 3.7496049404144287 -0.8563419741443177 0.8858163992511194 -1.6002923450865687 -1.5707767645465296 2.17872953414917 0.29751279950141907 -0.2531736493110657 0.34172239899635315 -0.09757876396179199 7.498045562215339e-08 0.3014703392982483 1 True False
1083.291 3.766101360321045 -0.8700458568385621 0.9048813025103968 -1.6054798565306605 -1.570784870778219 2.1953864097595215 0.3652380704879761 -0.29647335410118103 0.4165898561477661 -0.12428351491689682 7.50339895603247e-05 0.3569091260433197 1 True False
1083.341 3.7859084606170654 -0.8862715524486084 0.9273384253131312 -1.6118127308287562 -1.5707648436175745 2.2150981426239014 0.42240896821022034 -0.3480452299118042 0.4877375364303589 -0.14421075582504272 9.244529792340472e-05 0.42477530241012573 1 True False
1083.3909999999998 3.808743476867676 -0.9050053519061585 0.9534114042865198 -1.6189528904356898 -1.570756737385885 2.237724542617798 0.4857436716556549 -0.394441157579422 0.5555392503738403 -0.1624375730752945 -3.250712325097993e-05 0.4897628724575043 1 True False
1083.441 3.834348440170288 -0.9262131017497559 0.9829137961017054 -1.627491136590475 -1.5708211104022425 2.2636353969573975 0.5427375435829163 -0.4464659094810486 0.6308199167251587 -0.1720571666955948 -4.937840520781546e-24 0.5420883297920227 1 True False
1083.491 3.8633177280426025 -0.9501927059939881 1.0157812277423304 -1.636663099328512 -1.5707805792437952 2.292588710784912 0.6003125905990601 -0.5027732253074646 0.6874063611030579 -0.1904083490371704 -3.473912486490482e-18 0.5990973114967346 1 True False
1083.541 3.895214080810547 -0.9762206834605713 1.052398983632223 -1.6466523609557093 -1.5708048979388636 2.324446439743042 0.6681357026100159 -0.5473455786705017 0.763370156288147 -0.21319207549095154 -1.3771428658895801e-12 0.6632763147354126 1 True False
1083.591 3.930270195007324 -1.0051338237575074 1.0922396818744105 -1.658025404016012 -1.5707967917071741 2.3593525886535645 0.7226446270942688 -0.5927203893661499 0.8342406153678894 -0.23894844949245453 -2.0918834156498844e-31 0.7248311638832092 1 True False
1083.6409999999998 3.968209743499756 -1.0364565414241333 1.1358893553363245 -1.6700006924071253 -1.5708168188678187 2.397299289703369 0.7897401452064514 -0.6485714912414551 0.9031358361244202 -0.2529001235961914 -9.091930405702442e-05 0.7983449101448059 1 True False
1083.691 4.009379863739014 -1.0702832502177735 1.1827352682696741 -1.6831184826292933 -1.5707405249225062 2.438612461090088 0.8549765348434448 -0.6979287266731262 0.9748080372810364 -0.2832828760147095 -1.7461208874444456e-19 0.8510860204696655 1 True False
1083.741 4.053589820861816 -1.106519953613617 1.2331526915179651 -1.6973639927306117 -1.5707686583148401 2.482774496078491 0.9124908447265625 -0.7557337284088135 1.042734146118164 -0.29903388023376465 -0.00011160369467688724 0.9041505455970764 1 True False
1083.791 4.099239826202393 -1.1442743104747315 1.285323444996969 -1.7119161091246546 -1.5707610289203089 2.5284736156463623 0.9188166856765747 -0.7528301477432251 1.0417025089263916 -0.30990567803382874 -0.00038853948353789747 0.925860583782196 1 True False
1083.841 4.145084381103516 -1.1820088189891358 1.3377707640277308 -1.7266270122923792 -1.5707929770099085 2.5743632316589355 0.9157775044441223 -0.7545235753059387 1.0512267351150513 -0.2837315797805786 1.096804226108361e-06 0.9075477719306946 1 True False
1083.8909999999998 4.1909685134887695 -1.2197512549212952 1.390233341847555 -1.7413107357420863 -1.5707686583148401 2.620150327682495 0.9131981134414673 -0.7525625824928284 1.0480570793151855 -0.2896672189235687 -4.453755173017271e-05 0.9221343994140625 1 True False
1083.941 4.2367844581604 -1.2575346690467377 1.4425843397723597 -1.7557293377318324 -1.570784870778219 2.666088104248047 0.9176873564720154 -0.750937819480896 1.0486637353897095 -0.2815709710121155 -3.226269529310599e-10 0.9135735630989075 1 True False
1083.991 4.282630443572998 -1.2951902610114594 1.4949820677386683 -1.770304342309469 -1.5708006064044397 2.7116708755493164 0.9144394397735596 -0.7559655904769897 1.0536800622940063 -0.2713073790073395 -0.0016780314035713673 0.9294254779815674 1 True False
1084.041 4.328415393829346 -1.332960234289505 1.5471151510821741 -1.785267015496725 -1.5707529226886194 2.757810592651367 0.9186496734619141 -0.7555747628211975 1.0384342670440674 -0.31305834650993347 -2.4007266574699315e-07 0.909711480140686 1 True False
1084.091 4.372813701629639 -1.369419903760292 1.5978315512286585 -1.799248834649557 -1.5708087126361292 2.8020055294036865 0.854452908039093 -0.7060267329216003 0.9816773533821106 -0.28848734498023987 -0.00024229961854871362 0.8629041910171509 1 True False
1084.1409999999998 4.414309024810791 -1.4036190521768113 1.6452930609332483 -1.812477251092428 -1.570784870778219 2.8435332775115967 0.7994347214698792 -0.6605544686317444 0.9168933629989624 -0.23787303268909454 -1.2678051967626724e-12 0.8009419441223145 1 True False
1084.191 4.452685356140137 -1.4351633352092286 1.6890557448016565 -1.8247677288451136 -1.5707686583148401 2.881943464279175 0.7392485737800598 -0.6049540042877197 0.8457921147346497 -0.23334762454032898 0.00021763872064184397 0.7291592359542847 1 True False
1084.241 4.487950325012207 -1.464250498717167 1.729333225880758 -1.8361603222289027 -1.5708406607257288 2.9173080921173096 0.6747729778289795 -0.5602505207061768 0.7770897746086121 -0.21933035552501678 -0.00021551265672314912 0.6708088517189026 1 True False
1084.291 4.520116806030273 -1.4908287611654778 1.76616079012026 -1.8464576206602992 -1.570784870778219 2.9493331909179688 0.6137362718582153 -0.509172260761261 0.6990647315979004 -0.1826045662164688 -1.1215681839206806e-14 0.6100606918334961 1 True False
1084.341 4.549278736114502 -1.5148030941239377 1.7995556036578577 -1.855645319024557 -1.5708168188678187 2.978614330291748 0.5540643930435181 -0.45602652430534363 0.6315016150474548 -0.18223826587200165 4.6429207145592954e-09 0.5503506064414978 1 True False
1084.3909999999998 4.5753326416015625 -1.5363786232522507 1.8295381704913538 -1.86395325283193 -1.5708325544940394 3.0047457218170166 0.49531427025794983 -0.4002198576927185 0.5553582906723022 -0.15896707773208618 -0.0014286503428593278 0.4889885187149048 1 True False
1084.441 4.598459243774414 -1.5551519405892869 1.8558114210711878 -1.871364255944723 -1.570813004170553 3.027726411819458 0.42626938223838806 -0.3547274172306061 0.49273478984832764 -0.13462534546852112 -0.00014119963452685624 0.4379920959472656 1 True False
1084.491 4.618630409240723 -1.5718909702696742 1.87844163576235 -1.8778382740416468 -1.5707925001727503 3.047682285308838 0.3674570918083191 -0.3064011037349701 0.4228643774986267 -0.11104946583509445 -1.2170626106314947e-13 0.37525632977485657 1 True False
1084.541 4.6353983879089355 -1.585646768609518 1.8980491797076624 -1.8830939731993617 -1.5707886854754847 3.0647263526916504 0.3116637170314789 -0.25971078872680664 0.34809884428977966 -0.11303184181451797 -1.8487208305629387e-32 0.3066348731517792 1 True False
1084.591 4.649432182312012 -1.5971828899779261 1.914020840321676 -1.8874417744078578 -1.570813004170553 3.0786373615264893 0.24388636648654938 -0.19693990051746368 0.2975543141365051 -0.07263962924480438 -0.00022748758783563972 0.2524220645427704 1 True False
1084.6409999999998 4.660262584686279 -1.6061717472472132 1.9262154738055628 -1.8911172352232875 -1.570829216633932 3.089524745941162 0.18738850951194763 -0.15416261553764343 0.21163664758205414 -0.05473530665040016 -3.6496219771420366e-16 0.18735621869564056 1 True False
1084.691 4.668072700500488 -1.6124450169005335 1.9352601210223597 -1.8934718571104945 -1.5707648436175745 3.0972957611083984 0.12524577975273132 -0.11065531522035599 0.1406070441007614 -0.046288881450891495 -5.543784034990271e-35 0.1296589970588684 1 True False
1084.741 4.6728949546813965 -1.6164447269835414 1.940608326588766 -1.8950206242003382 -1.5707605520831507 3.102078914642334 0.06348460912704468 -0.05450954660773277 0.07806531339883804 -0.018921008333563805 -0.0 0.06649282574653625 1 True False
1084.791 4.674488067626953 -1.6179067097105921 1.94255239168276 -1.8955193958678187 -1.570801083241598 3.103701114654541 0.0031259579118341208 -0.0004748155770357698 0.00430013332515955 -6.092798139434308e-05 -0.0 0.00436905212700367 1 True False
1084.841 4.674398899078369 -1.6171943149962367 1.9435580412494105 -1.8972040615477503 -1.5707891623126429 3.1036908626556396 0.0010492266155779362 0.02279244363307953 0.04061958193778992 -0.05963551625609398 -0.0 0.0006990598631091416 1 True False
1084.8909999999998 4.67447566986084 -1.6154219112791957 1.946733299885885 -1.9021226368346156 -1.5707605520831507 3.1036863327026367 0.0008317360770888627 0.0533071793615818 0.084726482629776 -0.13742928206920624 -0.0 0.0008033605990931392 1 True False
1084.941 4.674447059631348 -1.6121407947936 1.952061955128805 -1.9107691250243128 -1.5708335081683558 3.10368013381958 0.0010559000074863434 0.0802464410662651 0.12456122785806656 -0.21563340723514557 -0.0 0.0003763748682104051 1 True False
1084.991 4.674527645111084 -1.6074468098082484 1.959285084401266 -1.922680517236227 -1.5707886854754847 3.103696584701538 0.0007709554629400373 0.10783946514129639 0.1676083505153656 -0.26668670773506165 -0.0 0.00016189533926080912 1 True False
1085.041 4.674564838409424 -1.6014467678465785 1.9688933531390589 -1.9383675060667933 -1.570784870778219 3.1037344932556152 0.0002619331353344023 0.1343865692615509 0.21545462310314178 -0.35478633642196655 -0.0 4.608874587574974e-05 1 True False
1085.091 4.674503326416016 -1.5940095386900843 1.9809473196612757 -1.9572531185545863 -1.5708406607257288 3.103692054748535 0.00015466897457372397 0.15601633489131927 0.25277140736579895 -0.40411317348480225 -0.0 1.4846076737740077e-05 1 True False
1085.1409999999998 4.674477577209473 -1.5855022869505824 1.9944136778460901 -1.9798804722227992 -1.5707724730121058 3.1037509441375732 9.015813702717423e-05 0.18505588173866272 0.29723861813545227 -0.48201027512550354 -0.0 1.010828054859303e-05 1 True False
1085.191 4.6745524406433105 -1.5755425892271937 2.0106008688556116 -2.0059176884093226 -1.5708087126361292 3.1037418842315674 6.360840052366257e-05 0.2119940221309662 0.3376353681087494 -0.5501675009727478 5.193479228182696e-05 1.321287505956644e-23 1 True False
1085.241 4.674502849578857 -1.5642241926728566 2.0285547415362757 -2.0350142918028773 -1.5707686583148401 3.1037418842315674 3.203698361176066e-05 0.22169770300388336 0.35601866245269775 -0.587226927280426 5.027768956881743e-21 2.006659400913138e-42 1 True False
1085.291 4.674544811248779 -1.5537677530995389 2.0455010573016565 -2.0624472103514613 -1.5707925001727503 3.103701114654541 -7.1658794453810515e-09 0.19938546419143677 0.3197685480117798 -0.5161774754524231 7.637188734447399e-40 0.0 1 True False
1085.341 4.674577713012695 -1.5446999625167628 2.0599969069110315 -2.08652462581777 -1.5707362333880823 3.103767156600952 0.0 0.17430108785629272 0.2766799032688141 -0.4484283924102783 0.0 0.0 1 True False
1085.3909999999998 4.674477577209473 -1.5366732490113755 2.0728381315814417 -2.106885095635885 -1.5707891623126429 3.103739023208618 0.0 0.14360228180885315 0.2294931709766388 -0.382625550031662 0.0 -4.083405169552634e-09 1 True False
1085.441 4.674565315246582 -1.5300942820361634 2.0831411520587366 -2.123784681359762 -1.570824925099508 3.1037392616271973 0.0 0.11393502354621887 0.18578365445137024 -0.3105618357658386 0.0 -6.202700053072086e-28 1 True False
1085.491 4.674498558044434 -1.5249542866698285 2.091442886983053 -2.137232919732565 -1.570784870778219 3.103755474090576 0.0 0.09141024947166443 0.1491999626159668 -0.2366446703672409 0.0 -0.0 1 True False
1085.541 4.674530982971191 -1.5211113442531605 2.09760553041567 -2.147341390649313 -1.5708048979388636 3.103752613067627 0.0 0.06493133306503296 0.10495585948228836 -0.15804211795330048 0.0 -0.0 1 True False
1085.591 4.6745524406433105 -1.5186483648470421 2.1016910711871546 -2.15383305172109 -1.5707281271563929 3.1037354469299316 0.0 0.03680138662457466 0.05705563351511955 -0.09299404174089432 0.0 -0.0 1 True False
1085.6409999999998 4.67452335357666 -1.5174773943475266 2.1035683790790003 -2.1567465267577113 -1.5707972685443323 3.103743553161621 0.0 0.011388038285076618 0.016972852870821953 -0.0269208662211895 0.0 -0.0 1 True False
1085.691 4.67452335357666 -1.517447092836239 2.103651825581686 -2.1569467983641566 -1.5707805792437952 3.103726625442505 0.0 -0.00018794130301102996 -0.0006837801192887127 0.00013450933329295367 0.0 -0.0 1 True False
1085.741 4.6745524406433105 -1.5174222265234967 2.1036503950702112 -2.1569224796690882 -1.5707810560809534 3.103710174560547 0.0 8.633805555291474e-05 -4.30397073951316e-29 -0.0005511437775567174 0.0 -0.0 1 True False
1085.791 4.674540042877197 -1.5174427789500733 2.1036251227008265 -2.15700687984609 -1.5707648436175745 3.103696584701538 -0.0 0.00021295475016813725 3.954853309551254e-05 -0.0006018308340571821 0.0 -0.0 1 True False
1085.841 4.674556732177734 -1.5173775193146248 2.103666130696432 -2.1569701633849085 -1.5708168188678187 3.103760004043579 0.0 0.00016863210476003587 9.29289308260195e-05 -0.0007030810229480267 0.0 -3.0583524536671736e-13 1 True False
1085.8909999999998 4.67453145980835 -1.5174557951143761 2.1036747137652796 -2.1570822201170863 -1.570784870778219 3.103776454925537 -2.5499284674879164e-05 0.00016621279064565897 6.230516009964049e-05 -0.000489607045892626 0.0 -4.645643893641106e-32 1 True False
1085.941 4.6744866371154785 -1.5174395230463524 2.1036623159991663 -2.157045980493063 -1.5708091894732874 3.103748083114624 -1.756657076508602e-15 0.00013960269279778004 4.553805774776265e-05 -0.0001997091603698209 0.0 -0.0 1 True False
1085.991 4.674519062042236 -1.5174196896008034 2.1036623159991663 -2.1570221386351527 -1.5708048979388636 3.1037299633026123 0.0 0.00012478191638365388 3.317781533951347e-07 -0.00011792520672315732 0.0 -0.0 1 True False
1086.041 4.674514293670654 -1.5173948568156739 2.103666130696432 -2.157069822350973 -1.570784870778219 3.103722095489502 0.0 9.439202403882518e-05 7.807090680156803e-37 -8.36659237393178e-05 0.0 -0.0 1 True False
1086.091 4.674535751342773 -1.5173948568156739 2.1036623159991663 -2.1570540867247523 -1.57074481645693 3.103705644607544 0.0 8.668564260005951e-05 0.0 -1.915603764919768e-20 0.0 -0.0 1 True False
1086.1409999999998 4.67449426651001 -1.5174196374467392 2.1036418120013636 -2.157046457330221 -1.570784870778219 3.103722095489502 0.0 6.682623630766103e-19 0.0 -2.909806070259733e-39 0.0 -0.0 1 True False
1086.191 4.674544811248779 -1.5173627075603981 2.1036794821368616 -2.157074113885397 -1.570824925099508 3.103710174560547 0.0 0.0 0.0 -0.0 1.4658923836469136e-22 -0.0 1 True False
1086.241 4.6745524406433105 -1.517523282473423 2.103553597127096 -2.1570779285826625 -1.5707405249225062 3.103743553161621 0.0 8.965301390162494e-09 -0.0019848071970045567 -3.212458565826637e-08 0.0017351871356368065 -0.0 1 True False
1086.291 4.674544811248779 -1.5174417097917576 2.103492085133688 -2.15722193340444 -1.5707529226886194 3.103713035583496 -0.0001381478359689936 0.0019207377918064594 0.0003538710006978363 -0.0002307026879861951 -4.3561780330492184e-05 -0.00012329874152783304 1 True False
1086.341 4.6744866371154785 -1.5174384501627465 2.1035593191729944 -2.157250066796774 -1.570733372365133 3.103788375854492 -6.061381645849906e-05 0.0006238332716748118 0.0006911152740940452 0.00044364604400470853 -5.3659965487895533e-05 -5.7561610447010025e-05 1 True True
1086.3909999999998 4.674499988555908 -1.5178241667202492 2.102884117756979 -2.1549650631346644 -1.5707967917071741 3.103767156600952 -3.8824266084702685e-05 -0.023757340386509895 -0.03663371875882149 0.06769020855426788 -0.0005266428925096989 -5.0063612434314564e-05 1 True True
1086.441 4.674532413482666 -1.51997526109729 2.0993345419513147 -2.1497932873167933 -1.5707967917071741 3.1037299633026123 -2.702091209203644e-13 -0.055529579520225525 -0.09369905292987823 0.15509893000125885 -0.00017857138300314546 -6.371008165473313e-10 1 True True
1086.491 4.674482345581055 -1.523586844359972 2.093722168599264 -2.1409417591490687 -1.5707925001727503 3.103743553161621 0.0 -0.0855005756020546 -0.13262853026390076 0.20529641211032867 -3.1018058507470414e-05 -2.434048624632433e-21 1 True True
1086.541 4.674532413482666 -1.5282762211612244 2.0861709753619593 -2.128681798974508 -1.5708416144000452 3.103701114654541 0.0 -0.1072818711400032 -0.1761557012796402 0.2933194041252136 -1.0839202332135756e-05 -3.69732599812103e-40 1 True True
1086.591 4.674605846405029 -1.53443547457967 2.0763919989215296 -2.112742086450094 -1.5707925001727503 3.103693723678589 0.0 -0.13316908478736877 -0.21666407585144043 0.35421615839004517 -4.340505153304364e-19 -0.0 1 True True
1086.6409999999998 4.674565315246582 -1.5418650855175038 2.064284149800436 -2.0935222111144007 -1.570756737385885 3.103696584701538 0.0 -0.16094309091567993 -0.2643236219882965 0.4203437566757202 -6.593235952029439e-38 -0.0 1 True True
1086.691 4.674479007720947 -1.5506074123880644 2.0503976980792444 -2.070728918115133 -1.570784870778219 3.103710174560547 -1.1247060683672316e-05 -0.19351983070373535 -0.3091023862361908 0.48119547963142395 -0.0 -0.0 1 True True
1086.741 4.674495697021484 -1.5606596304899831 2.0341857115374964 -2.044276376763815 -1.5708006064044397 3.103739023208618 0.0 -0.21401596069335938 -0.3496309816837311 0.5713902711868286 -0.0 -0.0 1 True True
1086.791 4.674516201019287 -1.5720082722105921 2.0161708037005823 -2.0149952373900355 -1.5708168188678187 3.1037344932556152 0.0 -0.22282768785953522 -0.35928431153297424 0.571817934513092 4.754144902108237e-05 -0.0 1 True True
1086.841 4.6745805740356445 -1.5824104748167933 1.9994366804706019 -1.9878770313658656 -1.5708168188678187 3.1037299633026123 0.0 -0.19857634603977203 -0.31590908765792847 0.5126832127571106 4.4072810851503164e-05 -0.0 1 True True
1086.8909999999998 4.674527645111084 -1.591487546960348 1.9850500265704554 -1.9641839466490687 -1.570796314870016 3.103726625442505 0.0 -0.169958233833313 -0.2757657766342163 0.4340458810329437 2.3333870070698128e-17 -0.0 1 True True
1086.941 4.674556732177734 -1.5993005237975062 1.972501579915182 -1.944134374658102 -1.5707724730121058 3.1037566661834717 0.0 -0.14158423244953156 -0.22885394096374512 0.36724838614463806 3.544420390275034e-36 -0.0 1 True True
1086.991 4.674526691436768 -1.6055566273131312 1.9623592535602015 -1.9273845158019007 -1.5707929770099085 3.1037070751190186 0.0 -0.11464104801416397 -0.18222565948963165 0.3063482940196991 0.0 -4.807407339926955e-23 1 True True
1087.041 4.674549102783203 -1.610635896722311 1.9542220274554651 -1.9143601856627406 -1.5708406607257288 3.1037344932556152 0.0 -0.0888833999633789 -0.14374442398548126 0.2460881918668747 0.0 -7.302166297596622e-42 1 True True
1087.091 4.674498558044434 -1.6144005260863246 1.948298756276266 -1.9045459232726039 -1.5708044211017054 3.103696823120117 0.0 -0.0639362782239914 -0.0966668650507927 0.1595280021429062 0.0 -0.0 1 True True
1087.1409999999998 4.674582004547119 -1.6167203388609828 1.94440204301943 -1.8983518085875453 -1.5707529226886194 3.103717565536499 0.0 -0.0377497524023056 -0.0571209192276001 0.08351273089647293 0.0 -0.0 1 True True
1087.191 4.674530982971191 -1.6177579365172328 1.9427741209613245 -1.8956662617125453 -1.5707767645465296 3.103684902191162 0.0 -0.006191604305058718 -0.01085466705262661 0.023062290623784065 0.0 -0.0 1 True True
1087.241 4.6735639572143555 -1.6175795994200648 1.9424598852740687 -1.895607133904928 -1.5707805792437952 3.1028003692626953 -0.05164068192243576 0.012368625029921532 -0.021643469110131264 0.0013860343024134636 2.4513209726504705e-14 -0.048667747527360916 1 True True
1087.291 4.669363975524902 -1.6165129146971644 1.9410541693316858 -1.8952394924559535 -1.5708168188678187 3.0985288619995117 -0.12162059545516968 0.030682247132062912 -0.0369064062833786 0.008747266605496407 3.723562027221912e-33 -0.11723816394805908 1 True True
1087.341 4.661550045013428 -1.6145554981627406 1.9383910338031214 -1.8948289356627406 -1.5707886854754847 3.0907700061798096 -0.18805906176567078 0.05066408962011337 -0.06005226820707321 0.011126232333481312 0.0 -0.1867648810148239 1 True True
1087.3909999999998 4.650212287902832 -1.611516614953512 1.9349468390094202 -1.894205709496969 -1.570784870778219 3.079561233520508 -0.25857213139533997 0.07087434828281403 -0.08583306521177292 0.01176105160266161 0.0 -0.26212236285209656 1 True True
1087.441 4.635558605194092 -1.607570310632223 1.9301207701312464 -1.8934794865050257 -1.5707891623126429 3.0647318363189697 -0.32458987832069397 0.08867150545120239 -0.10622919350862503 0.013498906046152115 -0.0001811395341064781 -0.3275921642780304 1 True True
1087.491 4.6172919273376465 -1.6026193104186 1.9243596235858362 -1.8925453625121058 -1.5707886854754847 3.046537399291992 -0.40137097239494324 0.10769550502300262 -0.13354147970676422 0.01811494491994381 -3.5099517958769866e-07 -0.40257376432418823 1 True True
1087.541 4.595626354217529 -1.596879621545309 1.917483154927389 -1.8912955723204554 -1.5708087126361292 3.024646520614624 -0.4686098098754883 0.12297636270523071 -0.14839918911457062 0.025835683569312096 0.00015993333363439888 -0.46268001198768616 1 True True
1087.591 4.57027530670166 -1.5901266537108363 1.9092829863177698 -1.8899551830687464 -1.570829216633932 2.9994070529937744 -0.5332794785499573 0.14155635237693787 -0.16824227571487427 0.027019111439585686 1.6541652769763715e-10 -0.5367037653923035 1 True True
1087.6409999999998 4.541374206542969 -1.582560201684469 1.9002717177020472 -1.8884898624815882 -1.5708125273333948 2.970672607421875 -0.6085574626922607 0.1611609309911728 -0.1870037466287613 0.03502315655350685 3.337008456583135e-05 -0.6031534075737 1 True True
1087.691 4.509279251098633 -1.5741692982115687 1.890071217213766 -1.8866497478880824 -1.5708087126361292 2.9385221004486084 -0.680891215801239 0.18194875121116638 -0.2228505164384842 0.03448992967605591 -0.0022762767039239407 -0.6786940693855286 1 True True
1087.741 4.473508834838867 -1.5646104461378236 1.8785279432879847 -1.884897371331686 -1.570869270955221 2.9027490615844727 -0.7518659830093384 0.19943493604660034 -0.24322785437107086 0.03220595419406891 1.5294710919988574e-07 -0.7402641177177429 1 True True
1087.791 4.43442440032959 -1.5542437148145218 1.866126839314596 -1.8826900921263636 -1.570813004170553 2.863619804382324 -0.8260989189147949 0.21781569719314575 -0.25780192017555237 0.038399480283260345 -0.002141158562153578 -0.8074951767921448 1 True True
1087.841 4.391767978668213 -1.5430671919933339 1.8524921576129358 -1.880315443078512 -1.5707691351519983 2.821061134338379 -0.8843897581100464 0.24063171446323395 -0.2723960280418396 0.04891018941998482 -3.5100372770102695e-05 -0.8945758938789368 1 True True
1087.8909999999998 4.345670700073242 -1.530683034365513 1.837841812764303 -1.8779083691039027 -1.570845905934469 2.77475905418396 -0.9583237171173096 0.251930832862854 -0.29625123739242554 0.052754778414964676 0.00015484288451261818 -0.9521671533584595 1 True True
1087.941 4.295934677124023 -1.517643255447485 1.8219359556781214 -1.8752695522704066 -1.5707491079913538 2.7251758575439453 -1.023846983909607 0.2686062455177307 -0.32924893498420715 0.05273614078760147 -7.463982143463e-08 -1.029357671737671 1 True True
1087.991 4.243800640106201 -1.503650763337948 1.8052485624896448 -1.8723403416075648 -1.570836369191305 2.672950506210327 -1.0483020544052124 0.27700290083885193 -0.32508763670921326 0.05382470786571503 -1.1337809374907706e-26 -1.0426422357559204 1 True True
1088.041 4.191399097442627 -1.4898307782462616 1.7886536757098597 -1.8696452579894007 -1.5707810560809534 2.620532989501953 -1.0445828437805176 0.2734847664833069 -0.33125531673431396 0.05198512226343155 -2.3585671193870894e-09 -1.0494105815887451 1 True True
1088.091 4.1389946937561035 -1.4760888528874894 1.7720039526568812 -1.8666192493834437 -1.570784870778219 2.5682997703552246 -1.0425899028778076 0.27853283286094666 -0.33690109848976135 0.062070101499557495 9.692171371034064e-11 -1.053760290145874 1 True True
1088.1409999999998 4.0866780281066895 -1.4620655861547966 1.7553136984454554 -1.863990922967428 -1.570829216633932 2.5158398151397705 -1.0523964166641235 0.2733646333217621 -0.32722344994544983 0.05758990719914436 4.040935266402812e-07 -1.04463529586792 1 True True
1088.191 4.034286975860596 -1.4482418087175866 1.738697353993551 -1.861152788201803 -1.5708444754229944 2.4633922576904297 -1.044453501701355 0.27963578701019287 -0.33871859312057495 0.05672796070575714 -7.012086280155927e-05 -1.045558214187622 1 True True
1088.241 3.9818484783172607 -1.434320018892624 1.721870247517721 -1.8582660160460414 -1.570784870778219 2.411111831665039 -1.0420352220535278 0.2754597067832947 -0.3334670066833496 0.05516436696052551 -5.261511828763516e-18 -1.0518549680709839 1 True True
1088.291 3.929647445678711 -1.4206381899169465 1.705317799245016 -1.8556186161436976 -1.5708006064044397 2.3587582111358643 -1.0528953075408936 0.27869713306427 -0.33335867524147034 0.05289989709854126 -7.992246824637215e-37 -1.0390092134475708 1 True True
1088.341 3.877281904220581 -1.4065809410861512 1.6884711424456995 -1.852588792840475 -1.5707929770099085 2.3063018321990967 -1.0461769104003906 0.27695536613464355 -0.33830738067626953 0.05878099426627159 -0.0 -1.0493173599243164 1 True True
1088.3909999999998 3.8249313831329346 -1.3928099286607285 1.671854321156637 -1.8499299488463343 -1.570829216633932 2.254131555557251 -1.0452280044555664 0.27571773529052734 -0.32820847630500793 0.056551139801740646 -0.0 -1.0511280298233032 1 True True
1088.441 3.7725443840026855 -1.378948451285698 1.6551087538348597 -1.847142835656637 -1.570732895527975 2.2017595767974854 -1.0506740808486938 0.2764126658439636 -0.3366381824016571 0.05889290198683739 -0.0 -1.0432075262069702 1 True True
1088.491 3.7201592922210693 -1.364912049179413 1.6386297384845179 -1.8442093334593714 -1.5708006064044397 2.1492576599121094 -1.045445203781128 0.27588000893592834 -0.3356001377105713 0.05174340307712555 -0.0 -1.040645956993103 1 True True
1088.541 3.6677350997924805 -1.3512737315944214 1.6217711607562464 -1.8414412937560023 -1.5707929770099085 2.0969648361206055 -1.0437744855880737 0.2799472510814667 -0.335209459066391 0.050699565559625626 -0.0 -1.052270770072937 1 True True
1088.591 3.615401268005371 -1.3371874404004593 1.6052168051349085 -1.8385077915587367 -1.57084829012026 2.0446863174438477 -1.0510286092758179 0.2710178792476654 -0.33483609557151794 0.05718528479337692 -0.0 -1.045996904373169 1 True True
1088.6409999999998 3.563063144683838 -1.323505700831749 1.5884483496295374 -1.8358913860716761 -1.5707886854754847 1.9921996593475342 -1.0498284101486206 0.27955713868141174 -0.3300282061100006 0.057412393391132355 -0.0 -1.0445666313171387 1 True True
1088.691 3.510706663131714 -1.309379742746689 1.5719106833087366 -1.832916875878805 -1.570772949849264 1.9399456977844238 -1.0433323383331299 0.2751437723636627 -0.3361741006374359 0.05991266295313835 -0.0 -1.0516488552093506 1 True True
1088.741 3.458418369293213 -1.2958296698382874 1.554995361958639 -1.8302542171873988 -1.5707891623126429 1.8875343799591064 -1.0518687963485718 0.2781059443950653 -0.32514604926109314 0.05263901129364967 -0.0 -1.0451208353042603 1 True True
1088.791 3.406002998352051 -1.281718449001648 1.5385220686541956 -1.8274113140501917 -1.570801083241598 1.835047960281372 -1.0460067987442017 0.2802883982658386 -0.33669862151145935 0.05142093449831009 -0.0 -1.0406641960144043 1 True True
1088.841 3.355412006378174 -1.2684172552875062 1.5223291555987757 -1.8245531521239222 -1.5708325544940394 1.784576416015625 -0.9687066674232483 0.2580200731754303 -0.30816176533699036 0.05857670679688454 -0.0 -0.9764771461486816 1 True True
1088.8909999999998 3.3082480430603027 -1.2559522551349183 1.5072115103351038 -1.8221880398192347 -1.5708087126361292 1.737433671951294 -0.9114097952842712 0.2416379451751709 -0.2872110903263092 0.05071546137332916 -0.0 -0.9038105607032776 1 True True
1088.941 3.264645576477051 -1.2442968350699921 1.4934843222247522 -1.819754262963766 -1.570813004170553 1.6939338445663452 -0.8373992443084717 0.21950161457061768 -0.2617964744567871 0.04602542892098427 5.723304639104754e-05 -0.8418031334877014 1 True True
1088.991 3.224639415740967 -1.2338600021651764 1.480696980153219 -1.8175727329649867 -1.5707972685443323 1.6536768674850464 -0.7715088725090027 0.2043493241071701 -0.24583786725997925 0.039428938180208206 0.00045835092896595597 -0.7667701840400696 1 True True
1089.041 3.1878771781921387 -1.2241627436927338 1.4688556830035608 -1.8157197437682093 -1.5708087126361292 1.6171048879623413 -0.6982658505439758 0.18695811927318573 -0.22777096927165985 0.04269174858927727 9.103375475660869e-08 -0.6941915154457092 1 True True
1089.091 3.15476393699646 -1.215138779287674 1.45848256746401 -1.813913484612936 -1.5707767645465296 1.583957314491272 -0.6306120753288269 0.16437573730945587 -0.19794589281082153 0.026394905522465706 1.382804449672018e-26 -0.6262004971504211 1 True True
1089.1409999999998 3.125117301940918 -1.2075685423663636 1.4489787260638636 -1.8122631512083949 -1.5707886854754847 1.5543287992477417 -0.5638165473937988 0.14888086915016174 -0.1820545792579651 0.03709179908037186 0.00010615549399517477 -0.5566885471343994 1 True True
1089.191 3.0989139080047607 -1.2005982559970398 1.4405248800860804 -1.8108636341490687 -1.5707925001727503 1.5281306505203247 -0.49200278520584106 0.12950316071510315 -0.16191814839839935 0.017784548923373222 -3.158529943902977e-05 -0.4854445159435272 1 True True
1089.241 3.076295852661133 -1.194439248447754 1.4333370367633265 -1.8095914326109828 -1.5707529226886194 1.5055416822433472 -0.4206308126449585 0.11353793740272522 -0.13307620584964752 0.021139413118362427 -6.567004427228407e-13 -0.4232497215270996 1 True True
1089.291 3.0573158264160156 -1.189376251106598 1.427300755177633 -1.8085671863951625 -1.5707929770099085 1.4862841367721558 -0.3489215075969696 0.08874782919883728 -0.11467321962118149 0.019796105101704597 0.000935436924919486 -0.3550344705581665 1 True True
1089.341 3.041379928588867 -1.1852194231799622 1.4222896734820765 -1.8077498875060023 -1.5707925001727503 1.4706287384033203 -0.27611884474754333 0.07278971374034882 -0.09066672623157501 0.01692873239517212 3.716416280621915e-13 -0.27916082739830017 1 True True
1089.3909999999998 3.029207229614258 -1.1821047526649018 1.4183324019061487 -1.8071919880309046 -1.570829216633932 1.4584803581237793 -0.21339930593967438 0.054241444915533066 -0.0662587583065033 0.010004679672420025 5.645242853404513e-32 -0.21107785403728485 1 True True
1089.441 3.020547866821289 -1.1796920460513611 1.4157455603228968 -1.8066579304137171 -1.5708654562579554 1.449756383895874 -0.14074331521987915 0.03773432597517967 -0.05137447267770767 0.00517483614385128 4.3243922846158966e-05 -0.14064614474773407 1 True True
1089.491 3.0153064727783203 -1.1783982676318665 1.4138405958758753 -1.8064543209471644 -1.5707967917071741 1.4444576501846313 -0.06953513622283936 0.01947937346994877 -0.02032213844358921 0.006335145328193903 1.9641647668322548e-05 -0.07177812606096268 1 True True
1089.541 3.0135111808776855 -1.1779195231250306 1.4134224096881312 -1.8063069782652796 -1.5708044211017054 1.4427893161773682 0.0067551471292972565 -0.0004381129110697657 -0.000432422268204391 0.000532121688593179 1.2707698260783218e-05 0.00023053264885675162 1 True True
1089.591 3.0136678218841553 -1.1772823494723816 1.4145100752459925 -1.8079701862730921 -1.5708091894732874 1.4428374767303467 -0.0017334267031401396 0.025872889906167984 0.04504689946770668 -0.06768713891506195 1.722387969493866e-05 -0.000623164523858577 1 True True
1089.6409999999998 3.013643980026245 -1.1756681364825745 1.4180267492877405 -1.8133570156493128 -1.5707805792437952 1.4428374767303467 -0.0015214466257020831 0.04442266374826431 0.0925443172454834 -0.14773790538311005 4.2515149671602564e-24 -0.0005058684619143605 1 True True
1089.691 3.0136070251464844 -1.1727928084186097 1.4240201155291956 -1.822055002252096 -1.5707610289203089 1.4428099393844604 -0.0003619191702455282 0.0693410262465477 0.1442417949438095 -0.21512888371944427 6.459985920537407e-43 -0.0002961644495371729 1 True True
1089.741 3.013559103012085 -1.1688603323749085 1.43237811723818 -1.8342334232726039 -1.5708091894732874 1.4427776336669922 -0.0003068259684368968 0.0895429477095604 0.189009889960289 -0.2841164171695709 0.0 -0.0002253300917800516 1 True True
1089.791 3.013564109802246 -1.1637724500945588 1.4431050459491175 -1.8501135311522425 -1.5707686583148401 1.442765712738037 -0.0002934334333986044 0.11201377213001251 0.23564216494560242 -0.35021016001701355 -0.00011600694415392354 -0.00012972732656635344 1 True True
1089.841 3.0135881900787354 -1.1574229759028931 1.4560530821429651 -1.8691889248290003 -1.5707405249225062 1.4427893161773682 -0.00015618433826602995 0.13376350700855255 0.27985879778862 -0.426491916179657 -7.484857633244246e-05 -7.53868735046126e-05 1 True True
1089.8909999999998 3.0135960578918457 -1.150166855459549 1.4713361899005335 -1.8919159374632777 -1.5707805792437952 1.4427934885025024 -8.310080738738179e-05 0.15664708614349365 0.33438926935195923 -0.4895499348640442 -5.874469206901267e-05 -5.313293877406977e-05 1 True True
1089.941 3.0135796070098877 -1.1417704385570069 1.4891474882708948 -1.918065687219137 -1.5707891623126429 1.4427613019943237 -6.772820779588073e-05 0.16383084654808044 0.34798553586006165 -0.5488615036010742 -3.1702864362159744e-05 -1.046292808129626e-19 1 True True
1089.991 3.0135512351989746 -1.1338526767543335 1.5058634916888636 -1.943225999871725 -1.5708087126361292 1.442753791809082 5.727323468818213e-07 0.1517849564552307 0.3182419240474701 -0.45349881052970886 -9.912669296507914e-11 -1.5893213291516066e-38 1 True True
1090.041 3.013580560684204 -1.1266627770713349 1.5205438772784632 -1.964562555352682 -1.5708087126361292 1.4428024291992188 0.0 0.1232907623052597 0.26924556493759155 -0.39842334389686584 -1.5057368685784588e-29 -0.0 1 True True
1090.091 3.0135598182678223 -1.1208722454360505 1.5327518622027796 -1.982626577416891 -1.5707805792437952 1.4427926540374756 0.0 0.10536542534828186 0.22810322046279907 -0.3266916573047638 -0.0 -0.0 1 True True
1090.1409999999998 3.0135881900787354 -1.1162807506373902 1.5427396933185022 -1.997340818444723 -1.5707767645465296 1.4427688121795654 0.0 0.07908867299556732 0.17040614783763885 -0.2546243667602539 -0.0 -0.0 1 True True
1090.191 3.0136003494262695 -1.1126344960979004 1.5501263777362269 -2.008326669732565 -1.5708048979388636 1.4427820444107056 0.0 0.06282175332307816 0.12785732746124268 -0.19536156952381134 -0.0 -0.0 1 True True
1090.241 3.0135676860809326 -1.1101725858500977 1.5552962462054651 -2.0160399876036585 -1.570801083241598 1.442798137664795 0.0 0.038554299622774124 0.08121849596500397 -0.10975043475627899 -0.0 -0.0 1 True True
1090.291 3.0135555267333984 -1.1089583498290558 1.5579894224749964 -2.0201436481871546 -1.5708211104022425 1.442793607711792 0.0 0.014256533235311508 0.030321771278977394 -0.05470968782901764 -0.0 -2.716901959719755e-23 1 True True
1090.341 3.0135676860809326 -1.108880178337433 1.5583794752704065 -2.0210052929320277 -1.5708044211017054 1.4427820444107056 0.0 4.918839380252393e-08 -4.3655830950228847e-07 0.0009692194871604443 -0.0 -4.126823977436586e-42 1 True True
1090.3909999999998 3.013530731201172 -1.1089099806598206 1.5583727995501917 -2.0209971867003382 -1.5708335081683558 1.442793607711792 0.0 0.0025458447635173798 0.004040725063532591 0.0003673443861771375 -0.0 -0.0 1 True True
1090.441 3.0135881900787354 -1.108472005730011 1.558918301259176 -2.0206815205016078 -1.5707925001727503 1.4428223371505737 0.0 0.006670336704701185 0.011580673046410084 0.011786987073719501 -0.0 -0.0 1 True True
1090.491 3.013625144958496 -1.108437256222107 1.5589636007892054 -2.020677705804342 -1.5707443396197718 1.4427016973495483 2.570317838848479e-17 -0.0008999998681247234 -0.0020390877034515142 -0.004147833678871393 9.75449729594402e-05 -0.0027742895763367414 1 True False
1090.541 3.0135838985443115 -1.108460084801056 1.558852497731344 -2.0207373104491175 -1.5707891623126429 1.4427480697631836 8.16389438114129e-05 -0.003321106545627117 -0.003682287409901619 -0.0030031464993953705 9.746389696374536e-05 0.002847712254151702 1 True False
1090.591 3.0135881900787354 -1.1085246366313477 1.5588343779193323 -2.020825525323385 -1.5708168188678187 1.4428058862686157 5.21012261742726e-05 -0.0025981119833886623 -0.0035770151298493147 -0.0035689587239176035 -2.1803842173540033e-05 0.0003842741425614804 1 True False
1090.6409999999998 3.0136208534240723 -1.1085274082473298 1.5587790648089808 -2.020829816857809 -1.5707686583148401 1.4427701234817505 3.64535745339678e-12 -0.0012953862315043807 -0.0011693581473082304 -0.0004065421235281974 -3.904261393472552e-05 1.6347031900011822e-22 1 True False
1090.691 3.0136003494262695 -1.1086159509471436 1.5585315863238733 -2.020649572412008 -1.5707891623126429 1.4427980184555054 0.0 -0.009943753480911255 -0.023054227232933044 0.023528585210442543 -2.5314315280411392e-05 2.483100878783576e-41 1 True False
1090.741 3.013592481613159 -1.1096461874297638 1.5566375891314905 -2.017944475213522 -1.5707686583148401 1.442786455154419 0.0 -0.02486257813870907 -0.05550255998969078 0.09262343496084213 -1.4033130213420009e-09 0.0 1 True False
1090.791 3.0135796070098877 -1.1114384990981598 1.5525992552386683 -2.011845727960104 -1.5708048979388636 1.4427613019943237 0.0 -0.05179271101951599 -0.11653397977352142 0.16239985823631287 -2.131635873593563e-28 0.0 1 True False
1090.841 3.0135960578918457 -1.1146573287299653 1.5460222403155726 -2.001989027062887 -1.5707967917071741 1.4427733421325684 0.0 -0.07136900722980499 -0.15720099210739136 0.23072700202465057 -5.669301630256175e-15 0.0 1 True False
1090.8909999999998 3.013559103012085 -1.118983433847763 1.5368979612933558 -1.988840719262594 -1.5707610289203089 1.4427733421325684 0.0 -0.0942542776465416 -0.20801839232444763 0.29897868633270264 -8.611676205898886e-34 -1.523730745189313e-16 1 True False
1090.941 3.0136046409606934 -1.1243435007384797 1.5256417433368128 -1.9721838436522425 -1.570784870778219 1.4428014755249023 0.0 -0.11687660217285156 -0.24578094482421875 0.3646898865699768 -0.0 -2.3145498116987116e-35 1 True False
1090.991 3.0135555267333984 -1.1308972400477906 1.5119970480548304 -1.9519936046996058 -1.5708168188678187 1.442747950553894 0.0 -0.1414281576871872 -0.29881933331489563 0.4309318959712982 -0.0 -0.0 1 True False
1091.041 3.013587474822998 -1.1385517877391358 1.4958727995501917 -1.9282413921751917 -1.5707767645465296 1.4428070783615112 0.0 -0.16698069870471954 -0.3483005166053772 0.5037286281585693 -0.0 -0.0 1 True False
1091.091 3.0136165618896484 -1.1471586984447022 1.4779928366290491 -1.901839395562643 -1.5708006064044397 1.442764401435852 0.0 -0.16843952238559723 -0.34614297747612 0.510389506816864 -0.0 -0.0 1 True False
1091.1409999999998 3.0135719776153564 -1.1548091930202027 1.4618309179889124 -1.8777514896788539 -1.570784870778219 1.442765712738037 1.5861094989494395e-12 -0.14059343934059143 -0.3052947521209717 0.4600332975387573 -0.0 -0.0 1 True False
1091.191 3.013575315475464 -1.1614330571940918 1.4479215780841272 -1.8570777378477992 -1.5708492437945765 1.4427688121795654 0.0 -0.12152587622404099 -0.2586294114589691 0.3872019052505493 -0.0 -0.0 1 True False
1091.241 3.013592481613159 -1.1669716101935883 1.4361441771136683 -1.840032239953512 -1.5707805792437952 1.442740559577942 0.0 -0.09743662923574448 -0.20748017728328705 0.302059143781662 -0.0 -0.0 1 True False
1091.291 3.013575315475464 -1.1712383490851899 1.4271753470050257 -1.826414247552389 -1.5707843939410608 1.442814826965332 0.0 -0.0775892585515976 -0.16495294868946075 0.23149913549423218 -0.0 -0.0 1 True False
1091.341 3.0136327743530273 -1.1746626061252137 1.4202068487750452 -1.8162218532957972 -1.5708654562579554 1.4428025484085083 0.0 -0.053409721702337265 -0.11738590151071548 0.16852501034736633 -5.043924020427102e-21 -0.0 1 True False
1091.3909999999998 3.013566732406616 -1.1768125754645844 1.4158361593829554 -1.8096076450743617 -1.5707648436175745 1.4427820444107056 0.0 -0.03327441215515137 -0.06751321256160736 0.09882194548845291 3.232699705157086e-20 -0.0 1 True False
1091.441 3.0135884284973145 -1.1777804654887696 1.4135778586017054 -1.806594034234518 -1.5707686583148401 1.4427613019943237 0.0 -0.00981502141803503 -0.01866070181131363 0.027590369805693626 4.910477722834811e-39 -0.0 1 True False
1091.491 3.0135674476623535 -1.1777561467937012 1.413426701222555 -1.8063546619811 -1.5707767645465296 1.4427776336669922 0.0 6.89189331329908e-27 5.578274440486104e-18 -0.0002843202091753483 0.0 -0.0 1 False False
1091.541 3.0135762691497803 -1.177735225563385 1.4134309927569788 -1.8063427410521449 -1.5707967917071741 1.442765712738037 0.0 0.0 0.0 0.0007481431239284575 0.0 -0.0 1 False False
1091.591 3.0135631561279297 -1.1777998369983216 1.4134185949908655 -1.8063470325865687 -1.5707767645465296 1.4427776336669922 0.0 -0.00024503798340447247 -5.8795725635718554e-05 0.0010340951848775148 0.0 -0.0 1 False False
1091.6409999999998 3.0135838985443115 -1.1778519910625 1.41343862215151 -1.806303163568014 -1.5708168188678187 1.4427733421325684 0.0 -0.00037995149614289403 -0.00018205402011517435 0.0011125203454867005 0.0 -0.0 1 False False
1091.691 3.0135586261749268 -1.1778236788562317 1.4133532683001917 -1.8063308201231898 -1.5708087126361292 1.4427449703216553 0.0 -0.0005118486005812883 -0.0005016563809476793 0.0002777368645183742 0.0 -0.0 1 False False
1091.741 3.0135586261749268 -1.1779090625098725 1.4133876005755823 -1.8062831364073695 -1.5707967917071741 1.4427733421325684 0.0 -0.00021296602790243924 -0.00027539534494280815 0.00015539469313807786 0.0 -0.0 1 False False
1091.791 3.0135838985443115 -1.177873508339264 1.4133995215045374 -1.806303163568014 -1.5708373228656214 1.4427613019943237 0.0 -9.949273226084188e-05 -0.00017417100025340915 0.00012203610822325572 0.0 -0.0 1 False False
1091.841 3.0136048793792725 -1.1778718394092103 1.4133876005755823 -1.8062507114806117 -1.5707967917071741 1.4428223371505737 0.0 -7.947023550514132e-05 -0.00012059581786161289 0.00010396335710538551 0.0 -0.0 1 False False
1091.8909999999998 3.0135631561279297 -1.177855448131897 1.4133995215045374 -1.8062707386412562 -1.5707405249225062 1.4427893161773682 0.0 -6.535183638334274e-05 -9.32251859921962e-05 6.556905282195657e-05 0.0 -0.0 1 False False
1091.941 3.0135509967803955 -1.177901880150177 1.4133861700641077 -1.8062511883177699 -1.570801083241598 1.4427733421325684 0.0 -5.228247755439952e-05 -6.237658089958131e-05 1.7813044905778952e-07 0.0 -0.0 1 False False
1091.991 3.0135884284973145 -1.1778780084899445 1.4133666197406214 -1.8062707386412562 -1.570829216633932 1.4428147077560425 0.0 -0.0 -9.828970319938901e-13 2.7058055390085057e-26 0.0 -0.0 1 False False
1092.041 3.0135586261749268 -1.1778882306865235 1.4133742491351526 -1.8062511883177699 -1.570813004170553 1.4428353309631348 0.0 0.0 -2.313543764600273e-42 4.203895392974451e-45 0.0 -0.0 1 False False
1092.091 3.0135927200317383 -1.1778192085078736 1.4133785406695765 -1.8062550030150355 -1.570813004170553 1.4427317380905151 0.0 0.0 -0.0 0.0 0.0 -0.0 1 False False
1092.1409999999998 3.0135552883148193 -1.1778599184802552 1.4133337179767054 -1.8062554798521937 -1.570813004170553 1.442826509475708 0.0 0.0 -0.0 0.0 0.0 -0.0 1 False False
1092.191 3.0135674476623535 -1.177892730837204 1.4133756796466272 -1.8062511883177699 -1.570824925099508 1.4427241086959839 0.0 0.0 -0.0 0.0 0.0 -0.0 1 False False
1092.241 3.0135552883148193 -1.1778807503036042 1.4133666197406214 -1.8062111339964808 -1.5708211104022425 1.4427571296691895 0.0 0.0 -0.0 0.0 0.0 -0.0 1 False False
1092.291 3.0135433673858643 -1.1778854888728638 1.4133742491351526 -1.8062831364073695 -1.570801083241598 1.4427525997161865 0.0 0.0 -0.0 0.0 0.0 -0.0 1 False False
1092.341 3.0135927200317383 -1.1778972309878846 1.4133337179767054 -1.8062511883177699 -1.5707925001727503 1.4427525997161865 0.0 0.0 -0.0 0.0 0.0 -0.0 1 False False
1092.3909999999998 3.013607978820801 -1.177885429268219 1.4133995215045374 -1.806263109246725 -1.570813004170553 1.4427525997161865 0.0 0.0 -0.0 0.0 0.0 -0.0 1 False False
1092.441 3.0135374069213867 -1.177829460506775 1.4133785406695765 -1.8062707386412562 -1.5708168188678187 1.4427372217178345 0.0 0.0 -0.0 0.0 0.0 -0.0 1 True False
1092.491 3.013564348220825 -1.1778473419002076 1.4133828322040003 -1.80627503017568 -1.5708168188678187 1.4427893161773682 0.0 0.0 -0.0 0.0 0.0 -0.0 1 True False
1092.541 3.0135927200317383 -1.177842841749527 1.4133918921100062 -1.8062392673888148 -1.5708254019366663 1.4428045749664307 0.0 0.0 -0.0 0.0 0.0 -0.0 1 True False
1092.591 3.0136005878448486 -1.1778473419002076 1.4133666197406214 -1.8062793217101039 -1.5707925001727503 1.4428178071975708 0.0 0.0 -0.0 0.0 0.0 -0.0 1 True False
1092.6409999999998 3.0135793685913086 -1.1778882306865235 1.4133546988116663 -1.8062268696227015 -1.5707648436175745 1.4428176879882812 0.0 0.0 -0.0 0.0 0.0 -0.0 1 True False
1092.691 3.0136301517486572 -1.1778882306865235 1.4133756796466272 -1.806291242639059 -1.5707686583148401 1.4427849054336548 0.0 0.0 -1.317360585062488e-07 0.0 0.0 1.1333466005687253e-14 1 True False
1092.741 3.0135929584503174 -1.1778564316085358 1.4133308569537562 -1.806263109246725 -1.5707967917071741 1.4427978992462158 0.0 0.0 -3.0998890119848957e-37 0.0 0.0 1.7215557414883882e-33 1 True False
1092.791 3.0135631561279297 -1.1778599184802552 1.4133709112750452 -1.8062874279417933 -1.57082444826235 1.4428263902664185 0.0 0.0 -0.0 0.0 0.0 0.0 1 True False
1092.841 3.0135793685913086 -1.1778309506228943 1.4133918921100062 -1.8062831364073695 -1.5707605520831507 1.4428263902664185 0.0 0.0 -0.0 0.0 0.0 0.0 1 True False
1092.8909999999998 3.013603448867798 -1.177892730837204 1.4133384863482874 -1.8062588177123011 -1.5707805792437952 1.4427372217178345 0.0 0.0 -0.0 1.569776647342139e-16 0.00011891346366610378 0.00030707503901794553 1 True False
1092.941 3.0135927200317383 -1.1778927010348816 1.4133294264422815 -1.806315084496969 -1.570829216633932 1.442773461341858 0.0 0.0 -0.0 2.3844950259107809e-35 5.517986573977396e-05 0.0007445994415320456 1 True False
1092.991 3.0135719776153564 -1.1778882306865235 1.4133575598346155 -1.8062669239439906 -1.5707605520831507 1.442770004272461 0.0 0.0 -0.0 0.0 -1.3654377108152094e-12 -0.002060509053990245 1 True False
1093.041 3.0135765075683594 -1.1779182118228455 1.4133546988116663 -1.8062387905516566 -1.5707486311541956 1.4428263902664185 0.0 0.0 -0.0 0.0 -1.7371493783377434e-14 2.8145102248799958e-08 1 True False
1093.091 3.0136332511901855 -1.1778690677932282 1.4133456389056605 -1.8062669239439906 -1.5708048979388636 1.442780613899231 0.0 0.0 -0.0 0.0 -2.6387342903625165e-33 3.491928509902209e-05 1 True False
1093.1409999999998 3.0136125087738037 -1.1778807503036042 1.4133699576007288 -1.806263109246725 -1.5707686583148401 1.442838430404663 0.028710588812828064 0.0 -0.0 0.0 -0.0 0.010012529790401459 1 True False
1093.191 3.0158302783966064 -1.1780647200397034 1.4135220686541956 -1.8063236675658167 -1.5708211104022425 1.4450918436050415 0.07585759460926056 -0.008461675606667995 0.008294904604554176 -0.0010725820902734995 0.00013854879944119602 0.08012125641107559 1 True False
1093.241 3.0217788219451904 -1.1785523754409333 1.4141228834735315 -1.8064586124815882 -1.5707648436175745 1.450851559638977 0.15108342468738556 -0.012375621125102043 0.013395619578659534 -0.003624208504334092 0.00012506992788985372 0.149097740650177 1 True False
1093.291 3.0308210849761963 -1.179090515976288 1.4149401823626917 -1.8067299328246058 -1.5708006064044397 1.4601116180419922 0.22107821702957153 -0.01300732884556055 0.02178375795483589 -0.006421680562198162 9.721626702230424e-05 0.2209310382604599 1 True False
1093.341 3.0436480045318604 -1.179889128809311 1.4162233511554163 -1.8071609936156214 -1.5708087126361292 1.472813367843628 0.28931891918182373 -0.01845007762312889 0.027427954599261284 -0.00825325958430767 8.017396612558514e-05 0.28421860933303833 1 True False
1093.3909999999998 3.0599093437194824 -1.1810484391501923 1.4177797476397913 -1.8074947796263636 -1.5707767645465296 1.489079236984253 0.3584093153476715 -0.0255707036703825 0.03304004296660423 -0.009187866933643818 5.906869046157226e-05 0.3561001420021057 1 True False
1093.441 3.079672336578369 -1.1824493569186707 1.419699494038717 -1.8079973659911097 -1.5707886854754847 1.508788824081421 0.43034839630126953 -0.02816929668188095 0.04173310846090317 -0.011743050068616867 5.121624417370185e-05 0.4257868528366089 1 True False
1093.491 3.1027565002441406 -1.1839704674533387 1.4218571821795862 -1.8086916408934535 -1.5708330313311976 1.5320119857788086 0.4975632429122925 -0.033843882381916046 0.047749608755111694 -0.01638936810195446 5.04827949043829e-05 0.4987254738807678 1 True False
1093.541 3.129533290863037 -1.1858565968326111 1.4245155493365687 -1.8093458614745082 -1.5707886854754847 1.5587328672409058 0.56836998462677 -0.038325294852256775 0.05328058451414108 -0.015594310127198696 8.429541776422411e-05 0.5671154856681824 1 True False
1093.591 3.1598289012908936 -1.18797920764003 1.4273336569415491 -1.8101469479002894 -1.5707572142230433 1.5888749361038208 0.6447373032569885 -0.04402216523885727 0.064531110227108 -0.015683429315686226 1.0237053167224157e-20 0.6387402415275574 1 True False
1093.6409999999998 3.1934149265289307 -1.190244899397232 1.4306195417987269 -1.8110319576659144 -1.5708048979388636 1.622589111328125 0.7122644186019897 -0.048552267253398895 0.06966615468263626 -0.017656885087490082 0.0002929886104539037 0.706063449382782 1 True False
1093.691 3.2304956912994385 -1.19289185226474 1.4340904394732874 -1.8121324978270472 -1.5708211104022425 1.659863829612732 0.7808603048324585 -0.054599229246377945 0.07635653018951416 -0.018999522551894188 1.3822894778876458e-16 0.7773275971412659 1 True False
1093.741 3.2712457180023193 -1.1956339639476319 1.4381259123431605 -1.8132249317564906 -1.5708048979388636 1.7004363536834717 0.8446683883666992 -0.05815572664141655 0.08301485329866409 -0.023604638874530792 -1.0328802476880194e-17 0.8398445248603821 1 True False
1093.791 3.3153469562530518 -1.1986904007247468 1.4423263708697718 -1.8144051037230433 -1.5707767645465296 1.744616985321045 0.9185647368431091 -0.06517455726861954 0.08517301827669144 -0.023987531661987305 -0.0001406740484526381 0.9164459109306335 1 True False
1093.841 3.3630008697509766 -1.2018980544856568 1.4469593206988733 -1.8156095943846644 -1.570824925099508 1.7922542095184326 0.9879323840141296 -0.06709130853414536 0.09169681370258331 -0.029618164524435997 -2.3227902069149583e-22 0.9847827553749084 1 True False
1093.8909999999998 3.414149284362793 -1.2055815023234864 1.4517467657672327 -1.8169733486571253 -1.570784870778219 1.8433349132537842 1.0376551151275635 -0.07042663544416428 0.10100381076335907 -0.027538016438484192 -1.864938454800058e-18 1.0521165132522583 1 True False
1093.941 3.4665184020996094 -1.2091575127891083 1.4566510359393519 -1.8184038601317347 -1.5707886854754847 1.8956071138381958 1.04273521900177 -0.07369009405374527 0.10053009539842606 -0.03067111037671566 -0.0007217032834887505 1.0462865829467773 1 True False
1093.991 3.5188422203063965 -1.2126805943301697 1.4617584387408655 -1.8198143444456996 -1.5707767645465296 1.9480879306793213 1.044471263885498 -0.06955676525831223 0.09790784865617752 -0.03047974221408367 -1.4538550918707926e-11 1.042924165725708 1 True False
1094.041 3.5711772441864014 -1.2163493198207398 1.4667614142047327 -1.8212276897826136 -1.5707405249225062 2.0004475116729736 1.0497866868972778 -0.0691758394241333 0.10017585754394531 -0.02547195926308632 -2.208409136211869e-30 1.0457462072372437 1 True False
1094.091 3.623588800430298 -1.2199179393104096 1.471790615712301 -1.8226219616331996 -1.5708525816546839 2.0526583194732666 1.0454093217849731 -0.07113684713840485 0.1047259196639061 -0.029605211690068245 -0.00010329504584660754 1.049340844154358 1 True False
1094.1409999999998 3.675949811935425 -1.223479525451996 1.4768121878253382 -1.8240052662291468 -1.5708087126361292 2.105206251144409 1.047011137008667 -0.07282914966344833 0.09745459258556366 -0.028397852554917336 -8.154581155395135e-05 1.0412789583206177 1 True False
1094.191 3.7283012866973877 -1.2271218460849305 1.481866184865133 -1.825449605981344 -1.5707810560809534 2.157464027404785 1.052099347114563 -0.07070252299308777 0.0974520668387413 -0.030216669663786888 -8.117030665744096e-05 1.0525696277618408 1 True False
1094.241 3.7806313037872314 -1.2307375830462952 1.4868300596820276 -1.826956411401266 -1.5707767645465296 2.2097036838531494 1.042687177658081 -0.07208199054002762 0.1006980761885643 -0.026701591908931732 -7.681446732021868e-06 1.0516679286956787 1 True False
1094.291 3.83294677734375 -1.2343405944160004 1.4918797651873987 -1.828207632104391 -1.570784870778219 2.262234926223755 1.044692039489746 -0.07104742527008057 0.10285456478595734 -0.02852599136531353 3.80149795091711e-05 1.0411421060562134 1 True False
1094.341 3.885349988937378 -1.2379844051650544 1.4967559019671839 -1.829674860040182 -1.570784870778219 2.314626693725586 1.0502429008483887 -0.07527617365121841 0.1006474643945694 -0.030999457463622093 5.053903502153157e-21 1.0517020225524902 1 True False
1094.3909999999998 3.9377927780151367 -1.2415636342814942 1.5019081274615687 -1.8309828243651332 -1.570784870778219 2.36686110496521 1.044631838798523 -0.07199111580848694 0.10131428390741348 -0.027654530480504036 1.5586640796543362e-18 1.0525798797607422 1 True False
1094.441 3.9901840686798096 -1.2452425521663208 1.5069235006915491 -1.832437654534811 -1.5708168188678187 2.4193050861358643 1.0478304624557495 -0.0683882087469101 0.10005953162908554 -0.02905520424246788 1.8448102474897393e-13 1.043127417564392 1 True False
1094.491 4.042387008666992 -1.2488583785346528 1.5119341055499476 -1.8338967762389125 -1.570784870778219 2.471715211868286 1.0514494180679321 -0.0726446807384491 0.0972612202167511 -0.024870676919817924 3.2572441965861287e-10 1.0502749681472778 1 True False
1094.541 4.094751834869385 -1.2524569791606446 1.5169084707843226 -1.835252424279684 -1.5708368460284632 2.5239009857177734 1.0452840328216553 -0.07172906398773193 0.09861910343170166 -0.02762545645236969 4.689415220582305e-07 1.0542762279510498 1 True False
1094.591 4.147125720977783 -1.2561330062201996 1.521914307271139 -1.8366719684996546 -1.570829216633932 2.5764756202697754 1.0450254678726196 -0.07074368745088577 0.09963419288396835 -0.028547093272209167 0.00010152871254831553 1.0356237888336182 1 True False
1094.6409999999998 4.199507236480713 -1.2596501869014283 1.5268963019000452 -1.8379670582213343 -1.570784870778219 2.628756284713745 1.0514147281646729 -0.07559384405612946 0.1020982414484024 -0.02934833988547325 -9.107199439029046e-09 1.0487831830978394 1 True False
1094.691 4.251937389373779 -1.2632843416980286 1.5318692366229456 -1.8395101032652796 -1.5707686583148401 2.681020975112915 1.041436791419983 -0.07515594363212585 0.10286962240934372 -0.03145221620798111 -1.3833857531071324e-27 1.0461573600769043 1 True False
1094.741 4.304200649261475 -1.266831414108612 1.5370720068561 -1.8408619366087855 -1.5707610289203089 2.7333321571350098 1.025467038154602 -0.07138240337371826 0.09769204258918762 -0.02883904241025448 -0.0 1.0217069387435913 1 True False
1094.791 4.353755474090576 -1.2703283590129395 1.5418179670916956 -1.842142244378561 -1.570801083241598 2.7830429077148438 0.9663913249969482 -0.0683135911822319 0.09571726620197296 -0.018716907128691673 -0.00011209343938389793 0.9607110619544983 1 True False
1094.841 4.399966239929199 -1.2734884482673188 1.546114746724264 -1.8434497318663539 -1.5708211104022425 2.8291475772857666 0.8864325284957886 -0.062170542776584625 0.08253411948680878 -0.02360662631690502 -7.960666698636487e-05 0.8854875564575195 1 True False
1094.8909999999998 4.442694664001465 -1.2763595444015046 1.5501392523394983 -1.8444911442198695 -1.5707805792437952 2.8718183040618896 0.8199194073677063 -0.05405187979340553 0.07595483958721161 -0.020942911505699158 -6.80618395563215e-05 0.8271784782409668 1 True False
1094.941 4.481978416442871 -1.2791735094836731 1.5539715925799769 -1.845633169213766 -1.5708048979388636 2.9111220836639404 0.753780722618103 -0.050977014005184174 0.07575353235006332 -0.020249970257282257 -4.61164272564929e-05 0.7540255784988403 1 True False
1094.991 4.517608165740967 -1.2815725964358826 1.5573557058917444 -1.8466345272459925 -1.5708335081683558 2.9469048976898193 0.6796368956565857 -0.046765271574258804 0.0642922967672348 -0.019291894510388374 -1.2588220803201253e-14 0.6761635541915894 1 True False
1095.041 4.549810409545898 -1.2838555437377472 1.5605009237872522 -1.8474732838072718 -1.5708168188678187 2.979268789291382 0.6074049472808838 -0.040763311088085175 0.06216556206345558 -0.0165274515748024 -1.9121529669246063e-33 0.6078519225120544 1 True False
1095.091 4.578486919403076 -1.285746769314148 1.563260857258932 -1.8482204876341761 -1.570813004170553 3.0078415870666504 0.5394814610481262 -0.036334820091724396 0.05092037841677666 -0.014871606603264809 -4.20719115936663e-05 0.5392721891403198 1 True False
1095.1409999999998 4.6038641929626465 -1.2876165968230744 1.5656903425799769 -1.8489285908141078 -1.5708044211017054 3.0331544876098633 0.4681558907032013 -0.032697588205337524 0.04285217821598053 -0.016143033280968666 -2.542451058712425e-12 0.47163310647010803 1 True False
1095.191 4.625736236572266 -1.2890785199454804 1.5678423086749476 -1.849429269830221 -1.5708172957049769 3.05484676361084 0.40054959058761597 -0.026547450572252274 0.03992283344268799 -0.011046194471418858 -3.861987007705676e-31 0.4082435667514801 1 True False
1095.241 4.643932819366455 -1.2904019516757508 1.5695341269122522 -1.8499022922911585 -1.5707891623126429 3.073147773742676 0.33924347162246704 -0.02472553588449955 0.03051198646426201 -0.006150736473500729 -0.0 0.32914888858795166 1 True False
1095.291 4.658580303192139 -1.291313962345459 1.5709317366229456 -1.8503114185728968 -1.5708492437945765 3.087874412536621 0.26180562376976013 -0.01856434904038906 0.024652039632201195 -0.006519569084048271 -8.343767694896087e-05 0.26477450132369995 1 True False
1095.341 4.669934272766113 -1.2920408707908173 1.5719545523272913 -1.850633283654684 -1.5708168188678187 3.0991170406341553 0.19221284985542297 -0.012510056607425213 0.017325663939118385 -0.006780677475035191 -1.9321078070788644e-05 0.19289574027061462 1 True False
1095.3909999999998 4.677726745605469 -1.2926884454539795 1.5727794806109827 -1.8508645496764125 -1.5707886854754847 3.1069555282592773 0.12078072130680084 -0.006897593382745981 0.01128791831433773 -0.003627812722697854 -1.2572771993291099e-05 0.12322244793176651 1 True False
1095.441 4.682056903839111 -1.2928597194007416 1.5730918089496058 -1.8509723148741664 -1.5708006064044397 3.1112759113311768 0.0511900894343853 -0.0026976363733410835 0.0022958938498049974 -0.003055053297430277 -4.083910726954132e-12 0.052557285875082016 1 True False
1095.491 4.6829633712768555 -1.2928900879672547 1.5733183065997522 -1.851297994653219 -1.5707686583148401 3.1121597290039062 -0.0006611578864976764 -7.472949903331028e-08 0.02709324099123478 -0.041957609355449677 -6.2034687812385406e-31 -0.0007434565341100097 1 True False
1095.541 4.68292236328125 -1.292293981914856 1.575186554585592 -1.853835245172018 -1.5708335081683558 3.1121761798858643 0.000656168267596513 0.029085936024785042 0.056298915296792984 -0.09277999401092529 -0.0 0.0010215993970632553 1 True False
1095.591 4.682988166809082 -1.2901233297637482 1.5790160338031214 -1.859871049920553 -1.5707967917071741 3.1121747493743896 0.0007396757137030363 0.06049560382962227 0.10126840323209763 -0.1544911414384842 -0.0 0.000973646470811218 1 True False
1095.6409999999998 4.682999134063721 -1.2865408223918458 1.5853784720050257 -1.8696114025511683 -1.5707967917071741 3.112236261367798 0.0010485299862921238 0.0853080078959465 0.15366899967193604 -0.22991707921028137 -0.0 0.0002173723914893344 1 True False
1095.691 4.682974338531494 -1.2818505030921479 1.593808952962057 -1.8827864132323207 -1.5707925001727503 3.1122183799743652 0.0005658553563989699 0.10128885507583618 0.19318638741970062 -0.30947017669677734 -0.0 0.00010366693459218368 1 True False
1095.741 4.683022975921631 -1.2759520274451752 1.6048815886126917 -1.8994747600951136 -1.5707605520831507 3.112240791320801 0.00018236592586617917 0.12761759757995605 0.23987360298633575 -0.35885611176490784 5.361719013308175e-05 6.577918247785419e-05 1 True False
1095.791 4.682974338531494 -1.2690566641143342 1.617584530507223 -1.9195929966368617 -1.5708211104022425 3.112257242202759 0.00010580074012978002 0.1547294706106186 0.29065564274787903 -0.437041699886322 5.905650813443513e-19 2.7464778895591735e-07 1 True False
1095.841 4.68306827545166 -1.260671691303589 1.6331136862384241 -1.943254133264059 -1.5708335081683558 3.1121938228607178 7.451549754478037e-05 0.17630186676979065 0.32387420535087585 -0.49582308530807495 8.970698544781424e-38 2.0232644448725523e-09 1 True False
1095.8909999999998 4.6830153465271 -1.2510388058475037 1.6505430380450647 -1.970091005364889 -1.5707810560809534 3.1122243404388428 4.9605965637098524e-43 0.18425649404525757 0.34731006622314453 -0.5411534905433655 5.5647771660005674e-05 3.073344838473465e-28 1 True False
1095.941 4.682941913604736 -1.2423322361758729 1.6669371763812464 -1.9953485927977503 -1.570784870778219 3.112236261367798 0.0 0.16442760825157166 0.30726712942123413 -0.47432366013526917 1.2689740719484555e-16 0.0 1 True False
1095.991 4.683080196380615 -1.2346757513335724 1.6808679739581507 -2.0173198185362757 -1.5707529226886194 3.1122617721557617 0.0 0.13797059655189514 0.26327359676361084 -0.4025968015193939 1.9275748329177957e-35 0.0 1 True False
1096.041 4.6830153465271 -1.2282788318446656 1.6929662863360804 -2.0356151066222132 -1.570813004170553 3.112252712249756 0.0 0.116266630589962 0.21565668284893036 -0.34445956349372864 0.0 0.0 1 True False
1096.091 4.6830153465271 -1.2229069930366059 1.7025840918170374 -2.0503226719298304 -1.5708168188678187 3.112231731414795 0.0 0.09464020282030106 0.16772869229316711 -0.2643878757953644 0.0 0.0 1 True False
1096.1409999999998 4.683006763458252 -1.219015048151352 1.7098014990436 -2.0617319546141566 -1.5708087126361292 3.11221981048584 0.0 0.0677613615989685 0.12900793552398682 -0.19978134334087372 0.0 0.0 1 True False
1096.191 4.683035850524902 -1.216208503847458 1.7149904409991663 -2.0696751079955042 -1.5707324186908167 3.112240791320801 0.0 0.043358638882637024 0.07819461077451706 -0.13222770392894745 0.0 0.0 1 True False
1096.241 4.683034896850586 -1.2147101920894166 1.7177026907550257 -2.0739180050291957 -1.5707686583148401 3.11220645904541 0.0 0.019961798563599586 0.03882782533764839 -0.054389722645282745 0.0 0.0 1 True False
1096.291 4.683014392852783 -1.214366005068161 1.7183640638934534 -2.074907442132467 -1.5708211104022425 3.112255573272705 0.0 -7.370055232769346e-09 -0.0004773269174620509 0.001004645018838346 0.0 0.0 1 True False
1096.341 4.682981491088867 -1.2143719059279938 1.7183879057513636 -2.074874540368551 -1.5707686583148401 3.1121864318847656 0.0 0.00021985858620610088 0.00044115277705714107 0.00012502085883170366 0.0 0.0 1 True False
1096.3909999999998 4.682999134063721 -1.2143184405616303 1.718452278767721 -2.07486691097402 -1.5707925001727503 3.112177610397339 0.0 -3.349517373801558e-32 0.0010550030274316669 -3.3985230402322486e-05 0.0 0.0 1 True False
1096.441 4.68302583694458 -1.2143525940230866 1.7185090223895472 -2.0749274692931117 -1.5708335081683558 3.112165689468384 2.9635830561856897e-22 -3.0653403907105373e-41 0.0011791260913014412 -3.46306806022767e-05 0.0 0.0 1 True False
1096.491 4.683032035827637 -1.2143837672523041 1.7184932867633265 -2.07489075283193 -1.5707686583148401 3.1122453212738037 0.0 0.00021077472774777561 0.00020127164316363633 -8.239831367973238e-05 0.0 0.0 1 True False
1096.541 4.68303918838501 -1.2143184703639527 1.7184956709491175 -2.0749389133849085 -1.5707805792437952 3.1122028827667236 0.0 0.00011721214832505211 0.0001449388510081917 -0.0001543263642815873 0.0 0.0 1 True False
1096.591 4.683046817779541 -1.2143229109099885 1.7184885183917444 -2.074895044366354 -1.5707805792437952 3.1121983528137207 0.0 0.00016644089191686362 0.00010717650729930028 -0.00015827035531401634 0.0 0.0 1 True False
1096.6409999999998 4.683063507080078 -1.214322881107666 1.7184956709491175 -2.0749389133849085 -1.570857350026266 3.1121535301208496 0.0 0.00012380782573018223 8.357156912097707e-05 -0.00013990495062898844 0.0 0.0 1 True False
1096.691 4.682985782623291 -1.2143007975867768 1.7184913794146937 -2.074975153008932 -1.5707281271563929 3.1122615337371826 0.0 7.86992532084696e-05 1.9363153321898604e-16 -9.905599290505052e-05 0.0 0.0 1 True False
1096.741 4.683022975921631 -1.2143229109099885 1.7184675375567835 -2.0749227009215296 -1.5707925001727503 3.1122074127197266 0.0 6.457075846233451e-11 0.0 -8.12630241853185e-05 0.0 0.0 1 True False
1096.791 4.683040618896484 -1.214327262049057 1.7184956709491175 -2.0749389133849085 -1.570784870778219 3.11221981048584 0.0 0.0 0.0 -3.7059328406030545e-06 0.0 0.0 1 True False
1096.841 4.682973861694336 -1.2143109303763886 1.7184675375567835 -2.074918886224264 -1.570784870778219 3.112210988998413 0.0 0.0 0.0 -5.629318322190061e-25 0.0 0.0 1 True False
1096.8909999999998 4.683034896850586 -1.214408205156662 1.7183721701251429 -2.0750585995116175 -1.570892635975973 3.11228084564209 0.0 2.356085500852291e-14 6.276842110311542e-13 -0.007174464873969555 -0.001884957542642951 7.62753261369653e-05 1 True False
1096.941 4.682987213134766 -1.2144594651511689 1.7183731237994593 -2.075182100335592 -1.5708087126361292 3.1121938228607178 0.0 0.00025807227939367294 7.642285345355049e-05 -0.00020894603221677244 -5.4177700803847983e-05 1.285009967356976e-12 1 True False
1096.991 4.682955741882324 -1.2143528324416657 1.7183764616595667 -2.0751658878722132 -1.5708325544940394 3.112215518951416 0.0 0.0006318478262983263 0.0006921674939803779 0.0009073531255125999 -2.112268157361541e-05 1.9519323496251652e-31 1 True True
1097.041 4.683011054992676 -1.21457855523143 1.7181008497821253 -2.0739041767516078 -1.5708254019366663 3.112260103225708 0.0 -0.011907109059393406 -0.023709576576948166 0.05138704925775528 -3.020372038413377e-13 0.0 1 True True
1097.091 4.682999134063721 -1.2158218485168 1.7156584898578089 -2.070047994653219 -1.5707810560809534 3.1121938228607178 0.0 -0.048001326620578766 -0.08802350610494614 0.11379783600568771 0.0002951885689981282 -2.191891871916596e-05 1 True True
1097.1409999999998 4.683032035827637 -1.2185309690288086 1.7105348745929163 -2.062300821343893 -1.5707123915301722 3.1121864318847656 0.0 -0.06339684873819351 -0.1235608384013176 0.1767064779996872 0.00012469898501876742 -4.90780733088431e-18 1 True True
1097.191 4.683043956756592 -1.222699449663498 1.703024689351217 -2.051159521142477 -1.5708091894732874 3.1121819019317627 0.0 -0.08783499896526337 -0.17053619027137756 0.26196086406707764 6.587933603441343e-05 -7.454969263132703e-37 1 True True
1097.241 4.6830034255981445 -1.2278182667544861 1.6935084501849573 -2.0366245708861292 -1.570784870778219 3.112236261367798 0.0 -0.11612415313720703 -0.21220771968364716 0.32284286618232727 1.6497848775998136e-07 -0.0 1 True True
1097.291 4.682990074157715 -1.234128252868988 1.681831185017721 -2.018468519250387 -1.5707805792437952 3.112194061279297 0.0 -0.13797743618488312 -0.25393974781036377 0.39642852544784546 7.304457819475578e-20 -2.9167165948395556e-17 1 True True
1097.341 4.683013916015625 -1.2418557566455384 1.6678274313556116 -1.996885438958639 -1.5707843939410608 3.1121983528137207 0.0 -0.16644804179668427 -0.30096518993377686 0.4738784730434418 1.1095482641822366e-38 -4.4304994797442945e-36 1 True True
1097.3909999999998 4.683045387268066 -1.250644401913025 1.6515262762652796 -1.9718309841551722 -1.5708006064044397 3.1121983528137207 0.0 -0.18693923950195312 -0.34269216656684875 0.5345274806022644 -6.589130498468876e-05 -0.0 1 True True
1097.441 4.683006286621094 -1.2601163250258942 1.6340392271624964 -1.9448944530882777 -1.5708168188678187 3.112182140350342 0.0 -0.17870326340198517 -0.33335596323013306 0.5079963803291321 -2.0350978957139887e-05 -0.0 1 True True
1097.491 4.682987213134766 -1.2683893305114289 1.6186450163470667 -1.9210568867125453 -1.570829216633932 3.1122117042541504 0.0 -0.15667152404785156 -0.2886210083961487 0.4564359784126282 -6.844989846916628e-21 -0.0 1 True True
1097.541 4.683034896850586 -1.275557355289795 1.605586353932516 -1.9005958042540492 -1.5708087126361292 3.112215518951416 0.0 -0.13237828016281128 -0.24260543286800385 0.3789744973182678 -1.0397550527382283e-39 -0.0 1 True True
1097.591 4.683022975921631 -1.2815311414054413 1.5944531599627894 -1.8838569126524867 -1.5708168188678187 3.1121864318847656 0.0 -0.10703154653310776 -0.20026235282421112 0.2974247932434082 -0.0 -0.0 1 True True
1097.6409999999998 4.683060169219971 -1.286239967947342 1.5859621206866663 -1.8702742062010707 -1.5707767645465296 3.1121983528137207 0.0 -0.08083488047122955 -0.15298321843147278 0.22852158546447754 -0.0 -0.0 1 True True
1097.691 4.6830153465271 -1.289642260675766 1.5794356505023401 -1.860563417474264 -1.570784870778219 3.1122066974639893 0.0 -0.05567951127886772 -0.10939424484968185 0.16092745959758759 -0.0 -0.0 1 True True
1097.741 4.6830902099609375 -1.2919407945922394 1.5754264036761683 -1.8541628322997035 -1.5707486311541956 3.11221981048584 0.0 -0.03404639661312103 -0.06349635124206543 0.10351449251174927 -0.0 -0.0 1 True True
1097.791 4.682990074157715 -1.2929797333529969 1.57341176668276 -1.8512097797789515 -1.5708168188678187 3.1121866703033447 0.0 -0.009228972718119621 -0.017258623614907265 0.021202975884079933 -0.0 -1.4129199222037446e-18 1 True True
1097.841 4.682616233825684 -1.292970971470215 1.5733516852008265 -1.8511630497374476 -1.5707529226886194 3.1114919185638428 -0.025809271261096 -2.0549988359122686e-27 0.0004318132996559143 -6.430441862903535e-05 -0.0 -0.040896762162446976 1 True True
1097.8909999999998 4.680650234222412 -1.2930434209159394 1.5733583609210413 -1.8510710201659144 -1.5707686583148401 3.1074342727661133 -0.060135308653116226 -0.0005581754958257079 0.001367878052406013 0.0010123996762558818 -0.0 -0.11676961928606033 1 True True
1097.941 4.67653751373291 -1.2931544047645112 1.573414150868551 -1.8510638676085414 -1.5707925001727503 3.0997049808502197 -0.09612400084733963 -0.0032174778170883656 0.004847107920795679 0.00018262940284330398 -0.0 -0.18166226148605347 1 True True
1097.991 4.670901775360107 -1.2933658522418519 1.5736396948443812 -1.8511072597899378 -1.570756737385885 3.0887222290039062 -0.1308569461107254 -0.004568769130855799 0.006842132192105055 9.894961112877354e-05 -0.0 -0.25197306275367737 1 True True
1098.041 4.663372993469238 -1.2936150890639802 1.573996369038717 -1.85107483486318 -1.5708168188678187 3.074215888977051 -0.16715221107006073 -0.006325209513306618 0.006746544502675533 -0.0008495638612657785 -0.0 -0.33061477541923523 1 True True
1098.091 4.654087543487549 -1.293953315620758 1.5743921438800257 -1.8512898884215296 -1.5707925001727503 3.0560789108276367 -0.20808017253875732 -0.00720194261521101 0.009369348175823689 -0.003415878862142563 -1.5166509261788064e-15 -0.39127570390701294 1 True True
1098.1409999999998 4.642711639404297 -1.2942198377898713 1.5748384634601038 -1.8513490162291468 -1.5708335081683558 3.034552574157715 -0.23666387796401978 -0.008437572047114372 0.009657202288508415 -0.002178455702960491 -2.303796047290166e-34 -0.46161848306655884 1 True True
1098.191 4.629973411560059 -1.2946643990329285 1.5753663221942347 -1.8515330753722132 -1.5707967917071741 3.0096993446350098 -0.2768266797065735 -0.008280506357550621 0.011018063873052597 -0.0025137998163700104 -7.228452886920422e-05 -0.5458705425262451 1 True True
1098.241 4.615089416503906 -1.295080618267395 1.5758422056781214 -1.851619382897848 -1.5707529226886194 2.98119854927063 -0.3135114908218384 -0.010148124769330025 0.012080672197043896 -0.003181204665452242 -5.1572060328908265e-05 -0.6063670516014099 1 True True
1098.291 4.5986738204956055 -1.2955484253219147 1.5765193144427698 -1.8517023525633753 -1.570784870778219 2.949171304702759 -0.34921279549598694 -0.011160515248775482 0.014135109260678291 -0.0027669190894812346 -1.3724761063393656e-21 -0.6786915063858032 1 True True
1098.341 4.58015775680542 -1.2960473758033295 1.5771773497210901 -1.8519579372801722 -1.5708168188678187 2.9135565757751465 -0.38000360131263733 -0.011076248250901699 0.0151442876085639 -0.0021523074246942997 -2.08479580328389e-40 -0.7497534155845642 1 True True
1098.3909999999998 4.56022310256958 -1.2966942352107544 1.5779336134540003 -1.852077146569723 -1.5708168188678187 2.8745310306549072 -0.4262807369232178 -0.013920595869421959 0.01721627078950405 -0.0038217734545469284 -5.878489986640132e-22 -0.8155693411827087 1 True True
1098.441 4.538043975830078 -1.2973106068423768 1.5787699858294886 -1.8522712192931117 -1.5708335081683558 2.832125186920166 -0.45146915316581726 -0.014091779477894306 0.018002012744545937 -0.004391855094581842 -8.929494204217032e-41 -0.8749644756317139 1 True True
1098.491 4.514132022857666 -1.2980707448771973 1.5797675291644495 -1.852518220941061 -1.5708368460284632 2.786191463470459 -0.49585285782814026 -0.012616300024092197 0.01817038096487522 -0.005814161617308855 -0.0 -0.9635894894599915 1 True True
1098.541 4.488814830780029 -1.2988663476756592 1.5807307402240198 -1.8527490101256312 -1.570824925099508 2.736647605895996 -0.53366619348526 -0.015663348138332367 0.019377516582608223 -0.005353540647774935 -0.0 -1.0146245956420898 1 True True
1098.591 4.4619526863098145 -1.2995943588069458 1.5818403402911585 -1.8529640636839808 -1.5707891623126429 2.684412717819214 -0.5386271476745605 -0.016776982694864273 0.023094091564416885 -0.0027154271956533194 0.0009676964837126434 -1.0544170141220093 1 True True
1098.6409999999998 4.4346513748168945 -1.3004150551608582 1.5828450361834925 -1.8532177410521449 -1.5708091894732874 2.6322877407073975 -0.5371432900428772 -0.017567642033100128 0.02236231416463852 -0.00378445815294981 -2.561039582360536e-05 -1.051215410232544 1 True True
1098.691 4.407468795776367 -1.3011582654765625 1.583796803151266 -1.8534885845580042 -1.5708325544940394 2.5798699855804443 -0.5408661365509033 -0.016563359647989273 0.019506599754095078 -0.004874655045568943 -0.0005051728803664446 -1.0403127670288086 1 True True
1098.741 4.380213260650635 -1.3019589644721528 1.5848186651812952 -1.8537379703917445 -1.5709050337420862 2.527395009994507 -0.5408424735069275 -0.01386156678199768 0.022555489093065262 -0.007378564216196537 -0.0011051640613004565 -1.0476593971252441 1 True True
1098.791 4.353207588195801 -1.3027753096869965 1.5859697500811976 -1.8538929424681605 -1.5708449522601526 2.4751780033111572 -0.5503752827644348 -0.014621426351368427 0.019755305722355843 -0.009509594179689884 -0.0029153062496334314 -1.0555634498596191 1 True True
1098.841 4.326327800750732 -1.3036342126182099 1.5870545546161097 -1.8541528187193812 -1.5707562605487269 2.4227609634399414 -0.5468930602073669 -0.013950834050774574 0.01875760592520237 -0.0051398733630776405 0.000556263024918735 -1.040174126625061 1 True True
1098.8909999999998 4.299320220947266 -1.3044474881938477 1.5881150404559534 -1.854386945764059 -1.570801083241598 2.370262622833252 -0.5395470261573792 -0.017074087634682655 0.022813305258750916 -0.0028615130577236414 0.0009247679845429957 -1.0501831769943237 1 True True
1098.941 4.27223539352417 -1.305224285726883 1.5890725294696253 -1.8546253643431605 -1.5707648436175745 2.3180527687072754 -0.5373260378837585 -0.01814710721373558 0.022742290049791336 -0.00184239714872092 0.0019451645202934742 -1.052233099937439 1 True True
1098.991 4.245083808898926 -1.3060094279101868 1.5901678244220179 -1.8548995457091273 -1.5707529226886194 2.2656757831573486 -0.5361818075180054 -0.017884545028209686 0.0223857294768095 -0.0017151649808511138 0.0003644887183327228 -1.0434993505477905 1 True True
1099.041 4.217823028564453 -1.3067975503257294 1.5911043326007288 -1.8551818333067835 -1.5708211104022425 2.2131941318511963 -0.5417715311050415 -0.016501616686582565 0.020481374114751816 -0.0035865374375134706 -0.00028383388416841626 -1.0449414253234863 1 True True
1099.091 4.190587043762207 -1.3075314325145264 1.592201058064596 -1.8553840122618617 -1.5708568731891077 2.1609623432159424 -0.5432440042495728 -0.014814472757279873 0.019825447350740433 -0.008567599579691887 -0.0007647542515769601 -1.0526231527328491 1 True True
1099.1409999999998 4.163485050201416 -1.3084583145431061 1.5931699911700647 -1.8556276760497035 -1.5708730856524866 2.108668327331543 -0.5474226474761963 -0.014115586876869202 0.02045711688697338 -0.008398901671171188 -0.002266814699396491 -1.0430790185928345 1 True True
1099.191 4.136597156524658 -1.3091805142215271 1.5942719618426722 -1.8557983837523402 -1.5708168188678187 2.0561490058898926 -0.5477263927459717 -0.015256840735673904 0.019317982718348503 -0.008536719717085361 2.6902853278443217e-05 -1.0458061695098877 1 True True
1099.241 4.109602451324463 -1.3100656133941193 1.5954626242267054 -1.855992933312887 -1.5707128683673304 2.003938913345337 -0.5428140759468079 -0.015487102791666985 0.02225448563694954 -0.0037113516591489315 0.0008093108190223575 -1.0557125806808472 1 True True
1099.291 4.082697868347168 -1.31094382823024 1.5964463392840784 -1.8563157520689906 -1.5707524458514612 1.9515377283096313 -0.5386738777160645 -0.017882339656352997 0.021873025223612785 -0.0024949696380645037 0.001119568943977356 -1.0449631214141846 1 True True
1099.341 4.055528163909912 -1.3116789621165772 1.597454849873678 -1.8565260372557582 -1.5707610289203089 1.8990471363067627 -0.5360485315322876 -0.01740526407957077 0.02058757096529007 -0.00186910608317703 0.003960613626986742 -1.0406097173690796 1 True True
1099.3909999999998 4.028205394744873 -1.312424288397171 1.5984681288348597 -1.8568316898741664 -1.5708325544940394 1.8468058109283447 -0.5350663065910339 -0.017174316570162773 0.021600911393761635 -0.002388342283666134 -0.0001530474255559966 -1.04807710647583 1 True True
1099.441 4.0009331703186035 -1.3131750387004395 1.5994494597064417 -1.8571025333800257 -1.5708449522601526 1.794430136680603 -0.5415264964103699 -0.015569291077554226 0.018832627683877945 -0.008002003654837608 -0.0008420961094088852 -1.0460102558135986 1 True True
1099.491 3.9737608432769775 -1.31403340518985 1.6005523840533655 -1.8572613201537074 -1.5708807150470179 1.7420170307159424 -0.5447872877120972 -0.012968217954039574 0.019133105874061584 -0.008153894916176796 -0.0015143654309213161 -1.046617865562439 1 True True
1099.541 3.9468917846679688 -1.3148692113212128 1.6016128698932093 -1.8575192890562953 -1.570829216633932 1.689760684967041 -0.5498493313789368 -0.01452689804136753 0.019146298989653587 -0.010274004191160202 -0.0031416325364261866 -1.0512605905532837 1 True True
1099.591 3.919997215270996 -1.3156641584685822 1.602743927632467 -1.8576585255064906 -1.5707204977618616 1.637363314628601 -0.5428850054740906 -0.01702708564698696 0.02031119354069233 -0.005675872787833214 0.0004992441972717643 -1.044837474822998 1 True True
