Andreas691667/Digital_Twin_UR/data_analysis/test_results/old/robot_output_two_blocks_semi_delimiter.csv
timestamp;actual_q_0;actual_q_1;actual_q_2;actual_q_3;actual_q_4;actual_q_5;actual_qd_0;actual_qd_1;actual_qd_2;actual_qd_3;actual_qd_4;actual_qd_5;output_bit_register_65;output_bit_register_66

10541.574999999999;3.7120862007141113;-0.8254675430110474;0.8430097738849085;-1.5882498226561488;-1.5708006064044397;2.1412925720214844;0.0;0.0;0.0;-0.0;0.0;-0.0;False;False

10541.595;3.7120771408081055;-0.8255498570254822;0.842898193989889;-1.588297029534811;-1.5708406607257288;2.1412384510040283;0.0;0.0;0.0;-0.0;0.0;-0.0;False;False

10541.615;3.712078809738159;-0.8254882854274292;0.8429678122149866;-1.5883051357665003;-1.5707929770099085;2.141324758529663;0.0;0.0;0.0;-0.0;0.0;-0.0;False;False

10541.635;3.712078809738159;-0.8255083125880738;0.8429544607745569;-1.5882889233031214;-1.5708172957049769;2.141279697418213;0.0;0.0;0.0;-0.0;0.0;-0.0;False;False

10541.654999999999;3.7120578289031982;-0.8255378168872376;0.8430169264422815;-1.5883094273009242;-1.5707805792437952;2.141345262527466;0.0;0.0;0.0;-0.0;0.0;-0.0;False;False

10541.675;3.712120532989502;-0.8254750531962891;0.842992130910055;-1.588297029534811;-1.5708087126361292;2.14125919342041;0.0;0.0;0.0;-0.0;0.0;-0.0;False;False

10541.695;3.7120535373687744;-0.825495795612671;0.8429878393756312;-1.588245531121725;-1.5708053747760218;2.141282796859741;0.0;0.0;0.0;-0.0;0.0;-0.0;False;False

10541.715;3.7120935916900635;-0.8254706424525757;0.8430050055133265;-1.5882851086058558;-1.5708525816546839;2.141291618347168;0.0;0.0;0.0;-0.0;0.0;-0.0;False;False

10541.734999999999;3.7120323181152344;-0.8254913252643128;0.8429759184466761;-1.5883051357665003;-1.5708125273333948;2.1412839889526367;0.0;0.0;0.0;-0.0;0.0;-0.0;False;False

10541.755;3.7120115756988525;-0.825524703865387;0.8429845015155237;-1.5883285007872523;-1.5708444754229944;2.141251564025879;0.0;0.0;0.0;-0.0;0.0;-0.0;False;False

10541.775;3.712029218673706;-0.8254706424525757;0.842992130910055;-1.588273664514059;-1.5707686583148401;2.141317129135132;0.0;0.0;0.0;-0.0;0.0;-0.0;False;False

10541.795;3.7120907306671143;-0.8254543107799073;0.8430050055133265;-1.5882655582823695;-1.570784870778219;2.141287088394165;0.0;0.0;0.0;-0.0;0.0;-0.0;False;False

10541.814999999999;3.712029457092285;-0.8254423898509522;0.8429845015155237;-1.5882851086058558;-1.5707925001727503;2.1412429809570312;0.0;0.0;0.0;-0.0;0.0;-0.0;False;False

10541.835;3.7120413780212402;-0.8254217070392151;0.842992130910055;-1.5882727108397425;-1.5707767645465296;2.1412353515625;0.0;0.0;0.0;-0.0;0.0;-0.0;False;False

10541.855;3.7121026515960693;-0.8255290550044556;0.8430126349078577;-1.5882379017271937;-1.5708172957049769;2.1413002014160156;0.0;0.0;0.0;-0.0;0.0;-0.0;False;False

10541.875;3.7120935916900635;-0.8255528968623658;0.8430331389056605;-1.5883094273009242;-1.5708335081683558;2.141251564025879;1.6253222838713555e-06;0.0;0.0;-0.0;0.0;-0.0;False;False

10541.894999999999;3.7120535373687744;-0.8255046171000977;0.8430083433734339;-1.5882650814452113;-1.5707886854754847;2.141270875930786;1.2703618032080891e-26;0.0;0.0;-0.0;0.0;-0.0;False;False

10541.914999999999;3.712071180343628;-0.8254304689219971;0.8430083433734339;-1.588273664514059;-1.570813004170553;2.1413040161132812;0.0;0.0;0.0;-0.0;0.0;-0.0;False;False

10541.935;3.7120654582977295;-0.8255202931216736;0.8429635206805628;-1.5883408985533656;-1.5708006064044397;2.141231060028076;0.0;0.0;0.0;-0.0;0.0;-0.0;False;False

10541.955;3.7120413780212402;-0.825454370384552;0.842959229146139;-1.5882774792113246;-1.5708125273333948;2.141287088394165;0.0;0.0;0.0;-0.0;0.0;-0.0;False;False

10541.975;3.7120444774627686;-0.8254707020572205;0.8430255095111292;-1.5883246860899867;-1.5708172957049769;2.141279697418213;0.0;0.0;0.0;-0.0;0.0;-0.0;False;False

10541.994999999999;3.7120368480682373;-0.825466052894928;0.8429520765887659;-1.588269372979635;-1.570813004170553;2.141295909881592;0.0;0.0;0.0;-0.0;0.0;-0.0;False;False

10542.015;3.712111473083496;-0.8254511517337342;0.8429549376117151;-1.5882460079588832;-1.5708044211017054;2.1412839889526367;0.0;0.0;0.0;-0.0;0.0;-0.0;False;False

10542.035;3.712111473083496;-0.8254261773875733;0.8429802099810999;-1.5882612667479457;-1.5707610289203089;2.1412546634674072;0.0;0.0;0.0;-0.0;0.0;-0.0;False;False

10542.055;3.7121188640594482;-0.8254334491542359;0.8429845015155237;-1.5883013210692347;-1.570857350026266;2.141247272491455;0.0;0.0;0.0;-0.0;0.0;-0.0;False;False

10542.074999999999;3.7120907306671143;-0.8254869741252442;0.8430126349078577;-1.5882932148375453;-1.5707562605487269;2.141251564025879;0.0;0.0;0.0;-0.0;0.0;-0.0;False;False

10542.095;3.7120907306671143;-0.825463132267334;0.8429802099810999;-1.588269372979635;-1.5707925001727503;2.1413002014160156;0.0;0.0;0.0;-0.0;0.0;-0.0;False;False

10542.115;3.7120697498321533;-0.8255366247943421;0.8429635206805628;-1.588269372979635;-1.5708211104022425;2.1413257122039795;0.0;0.0;0.0;-0.0;0.0;-0.0;False;False

10542.135;3.7120907306671143;-0.8255378168872376;0.8429759184466761;-1.588269372979635;-1.570772949849264;2.14125919342041;0.0;0.0;0.0;-0.0;0.0;-0.0;False;False

10542.154999999999;3.7120535373687744;-0.8255320352366944;0.842959229146139;-1.5883289776244105;-1.5707767645465296;2.141267776489258;0.0;0.0;0.0;-0.0;0.0;-0.0;False;False

10542.175;3.7120697498321533;-0.8254838746837159;0.842959229146139;-1.5882498226561488;-1.5707810560809534;2.1413087844848633;0.0;0.0;0.0;-0.0;0.0;-0.0;False;False

10542.195;3.712106943130493;-0.8254304689219971;0.8429721037494105;-1.5882932148375453;-1.5707767645465296;2.1412601470947266;0.0;0.0;0.0;-0.0;0.0;-0.0;False;False

10542.215;3.7120490074157715;-0.8254543107799073;0.8429549376117151;-1.5883051357665003;-1.5707891623126429;2.14125919342041;0.0;0.0;0.0;-0.0;0.0;-0.0;False;False

10542.234999999999;3.712106943130493;-0.8254617017558594;0.8429835478412073;-1.5882817707457484;-1.5707767645465296;2.1413044929504395;0.0;0.0;0.0;-0.0;0.0;-0.0;False;False

10542.255;3.7120862007141113;-0.8254468005946656;0.8430288473712366;-1.5883165798582972;-1.5707686583148401;2.141267776489258;0.0;0.0;0.0;-0.0;0.0;-0.0;False;False

10542.275;3.7120907306671143;-0.8254957360080262;0.8429802099810999;-1.5882731876769007;-1.5707886854754847;2.141279697418213;0.0;0.0;0.0;-0.0;0.0;-0.0;False;False

10542.295;3.712106943130493;-0.8254380387118836;0.8430212179767054;-1.588245531121725;-1.570768181477682;2.141231060028076;0.0;0.0;0.0;-0.0;0.0;-0.0;False;False

10542.314999999999;3.7121024131774902;-0.8254913848689576;0.8429845015155237;-1.5883013210692347;-1.5707648436175745;2.141291618347168;0.0;0.0;0.0;-0.0;0.0;-0.0;False;False

10542.335;3.7120981216430664;-0.8254913252643128;0.8430169264422815;-1.588313718835348;-1.5707767645465296;2.1412839889526367;0.0;0.0;0.0;-0.0;0.0;-0.0;False;False

10542.355;3.7120773792266846;-0.8254587215236207;0.8429835478412073;-1.5883289776244105;-1.5707810560809534;2.1413087844848633;0.0;0.0;0.0;-0.0;0.0;-0.0;False;False

10542.375;3.712132215499878;-0.8254217666438599;0.8429721037494105;-1.5883251629271449;-1.5708373228656214;2.1412546634674072;0.0;0.0;0.0;-0.0;0.0;-0.0;False;False

10542.394999999999;3.712062358856201;-0.8255157035640259;0.8429964224444788;-1.5882932148375453;-1.5708206335650843;2.1412665843963623;0.0;0.0;0.0;-0.0;0.0;-0.0;False;False

10542.414999999999;3.712123155593872;-0.8255540293506165;0.8429802099810999;-1.588269372979635;-1.5707529226886194;2.1412546634674072;0.0;0.0;0.0;-0.0;0.0;-0.0;False;False

10542.435;3.712050199508667;-0.825454370384552;0.8430245558368128;-1.5883251629271449;-1.570756737385885;2.141279697418213;0.0;0.0;0.0;-0.0;0.0;-0.0;False;False

10542.455;3.7120862007141113;-0.825487033729889;0.8430169264422815;-1.5883251629271449;-1.5707929770099085;2.141267776489258;0.0;0.0;0.0;-0.0;0.0;-0.0;False;False

10542.475;3.712095022201538;-0.825442449455597;0.842931095753805;-1.588280817071432;-1.5707929770099085;2.1412105560302734;0.0;0.0;0.0;-0.0;0.0;-0.0;False;False

10542.494999999999;3.7120580673217773;-0.8254750531962891;0.8430083433734339;-1.5882607899107875;-1.5707925001727503;2.1413333415985107;0.0;0.0;0.0;-0.0;0.0;-0.0;False;False

10542.515;3.712062358856201;-0.8255112928203125;0.8429802099810999;-1.5882288418211878;-1.5708006064044397;2.141317129135132;0.0;0.0;0.0;-0.0;0.0;-0.0;False;False

10542.535;3.7120611667633057;-0.825445370083191;0.8429721037494105;-1.5882846317686976;-1.5708006064044397;2.1412925720214844;0.0;0.0;0.0;-0.0;0.0;-0.0;False;False

10542.555;3.7120492458343506;-0.8255496782115479;0.8429802099810999;-1.5882607899107875;-1.5708125273333948;2.1412384510040283;0.0;0.0;0.0;-0.0;0.0;-0.0;False;False

10542.574999999999;3.7120325565338135;-0.8254749935916443;0.8430126349078577;-1.5883251629271449;-1.5707886854754847;2.141329050064087;0.0;0.0;0.0;-0.0;0.0;-0.0;False;False

10542.595;3.7120862007141113;-0.825454370384552;0.842992130910055;-1.5882650814452113;-1.5708087126361292;2.141312837600708;0.0;0.0;0.0;-0.0;0.0;-0.0;False;False

10542.615;3.712095022201538;-0.8255378168872376;0.8429477850543421;-1.5882817707457484;-1.5707929770099085;2.141308546066284;0.0;0.0;0.0;-0.0;0.0;-0.0;False;False

10542.635;3.7121024131774902;-0.825463132267334;0.8429964224444788;-1.5882650814452113;-1.5708048979388636;2.141270875930786;0.0;0.0;0.0;-0.0;0.0;-0.0;False;False

10542.654999999999;3.7120208740234375;-0.8255156439593812;0.8429802099810999;-1.5882569752135218;-1.5708044211017054;2.141251564025879;0.0;0.0;0.0;-0.0;0.0;-0.0;False;False

10542.675;3.7120535373687744;-0.8254750531962891;0.8430331389056605;-1.5882607899107875;-1.5708087126361292;2.14132022857666;0.0;0.0;0.0;-0.0;0.0;-0.0;False;False

10542.695;3.7120449542999268;-0.8254750531962891;0.8430007139789026;-1.5882731876769007;-1.570824925099508;2.14125919342041;0.0;0.0;0.0;-0.0;0.0;-0.0;False;False

10542.715;3.7120699882507324;-0.8254380983165284;0.8430126349078577;-1.5882817707457484;-1.5708125273333948;2.141270875930786;0.0;0.0;0.0;-0.0;0.0;-0.0;False;False

10542.734999999999;3.7121024131774902;-0.8255039018443604;0.842992130910055;-1.5882817707457484;-1.5707691351519983;2.1412503719329834;0.0;0.0;0.0;-0.0;0.0;-0.0;False;False

10542.755;3.7120611667633057;-0.8254949611476441;0.8430536429034632;-1.5882650814452113;-1.5707967917071741;2.1412546634674072;0.0;0.0;0.0;-0.0;0.0;-0.0;False;False

10542.775;3.712062358856201;-0.8255202335170289;0.8429635206805628;-1.5883165798582972;-1.5707767645465296;2.141251564025879;0.0;0.0;0.0;-0.0;0.0;-0.0;False;False

10542.795;3.712106943130493;-0.8254335683635254;0.8430092970477503;-1.5882817707457484;-1.5708048979388636;2.141214609146118;0.0;0.0;0.0;-0.0;0.0;-0.0;False;False

10542.814999999999;3.712071180343628;-0.8254956764033814;0.842992130910055;-1.5882932148375453;-1.5707886854754847;2.1412882804870605;0.0;0.0;0.0;-0.0;0.0;-0.0;False;False

10542.835;3.712099313735962;-0.8254454892924805;0.8429930845843714;-1.5882774792113246;-1.5707529226886194;2.141279697418213;0.0;0.0;0.0;-0.0;0.0;-0.0;False;False

10542.855;3.712062358856201;-0.825463132267334;0.8429392019854944;-1.5882889233031214;-1.570829216633932;2.141270875930786;0.0;0.0;0.0;-0.0;0.0;-0.0;False;False

10542.875;3.7120282649993896;-0.8254824441722413;0.8429763952838343;-1.5882817707457484;-1.5708125273333948;2.141279697418213;0.0;0.0;0.0;-0.0;0.0;-0.0;False;False

10542.894999999999;3.7120449542999268;-0.8254869741252442;0.8429845015155237;-1.5883175335326136;-1.570829216633932;2.141317129135132;0.0;0.0;0.0;-0.0;0.0;-0.0;False;False

10542.914999999999;3.712099313735962;-0.8254824441722413;0.8430007139789026;-1.5883013210692347;-1.5707529226886194;2.1412839889526367;0.0;0.0;0.0;-0.0;0.0;-0.0;False;False

10542.935;3.7120862007141113;-0.825454370384552;0.8430169264422815;-1.588280817071432;-1.5708044211017054;2.1412839889526367;0.0;0.0;0.0;-0.0;0.0;-0.0;False;False

10542.955;3.7120938301086426;-0.825454370384552;0.8429964224444788;-1.588268896142477;-1.5707691351519983;2.141263484954834;0.0;0.0;0.0;-0.0;0.0;-0.0;False;False

10542.975;3.7120819091796875;-0.8254957360080262;0.8429678122149866;-1.588280817071432;-1.570829216633932;2.141275405883789;0.0;0.0;0.0;-0.0;0.0;-0.0;False;False

10542.994999999999;3.7120862007141113;-0.8254573506167908;0.8429635206805628;-1.588269372979635;-1.570784870778219;2.141287088394165;0.0;0.0;0.0;-0.0;0.0;-0.0;False;False

10543.015;3.7120580673217773;-0.8255334061435242;0.8430007139789026;-1.5883175335326136;-1.570784870778219;2.141263484954834;0.0;0.0;0.0;-0.0;0.0;-0.0;False;False

10543.035;3.712106943130493;-0.8254335087588807;0.8430212179767054;-1.588229318658346;-1.5707810560809534;2.141308546066284;0.0;0.0;0.0;-0.0;0.0;-0.0;False;False

10543.055;3.7120776176452637;-0.8255202931216736;0.8429845015155237;-1.5883056126036585;-1.5707843939410608;2.141239643096924;0.0;0.0;0.0;-0.0;0.0;-0.0;False;False

10543.074999999999;3.7120370864868164;-0.8255601686290284;0.8430007139789026;-1.5883456669249476;-1.5707967917071741;2.141263484954834;0.0;0.0;0.0;-0.0;0.0;-0.0;False;False

10543.095;3.7120449542999268;-0.8254956764033814;0.8429678122149866;-1.5882932148375453;-1.5708087126361292;2.141279697418213;0.0;0.0;0.0;-0.0;0.0;-0.0;False;False

10543.115;3.7120862007141113;-0.8254736822894593;0.8429964224444788;-1.5882488689818324;-1.5708211104022425;2.1413333415985107;0.0;0.0;0.0;-0.0;0.0;-0.0;False;False

10543.135;3.7121024131774902;-0.8255000871470948;0.8430255095111292;-1.5883056126036585;-1.5707967917071741;2.141247272491455;0.0;0.0;0.0;-0.0;0.0;-0.0;False;False

10543.154999999999;3.712062358856201;-0.8254142564586182;0.8430331389056605;-1.5882889233031214;-1.5708087126361292;2.1412839889526367;0.0;0.0;0.0;-0.0;0.0;-0.0;False;False

10543.175;3.712123155593872;-0.8254587811282654;0.8429678122149866;-1.588297029534811;-1.5707648436175745;2.14125919342041;0.0;0.0;0.0;-0.0;0.0;-0.0;False;False

10543.195;3.712099075317383;-0.825463132267334;0.8429759184466761;-1.588297029534811;-1.5707925001727503;2.1412882804870605;0.0;0.0;0.0;-0.0;0.0;-0.0;False;False

10543.215;3.712045907974243;-0.8254455488971253;0.8429802099810999;-1.5882607899107875;-1.5707767645465296;2.141239643096924;0.0;0.0;0.0;-0.0;0.0;-0.0;False;False

10543.234999999999;3.712062358856201;-0.8255331677249451;0.8429477850543421;-1.5882889233031214;-1.570829216633932;2.1412925720214844;0.0;0.0;0.0;-0.0;0.0;-0.0;False;False

10543.255;3.712115526199341;-0.825552837257721;0.8429802099810999;-1.5882607899107875;-1.5708168188678187;2.141247272491455;0.0;0.0;0.0;-0.0;0.0;-0.0;False;False

10543.275;3.712045907974243;-0.8254957360080262;0.8430007139789026;-1.5882774792113246;-1.5707805792437952;2.141247272491455;0.0;0.0;0.0;-0.0;0.0;-0.0;False;False

10543.295;3.7120580673217773;-0.8254913252643128;0.8430083433734339;-1.5882612667479457;-1.570801083241598;2.141270875930786;0.0;0.0;0.0;-0.0;0.0;-0.0;False;False

10543.314999999999;3.7120537757873535;-0.8254381579211731;0.8430050055133265;-1.5883332691588343;-1.570829216633932;2.1412997245788574;0.0;0.0;0.0;-0.0;0.0;-0.0;False;False

10543.335;3.712082862854004;-0.8254661721042176;0.8430007139789026;-1.5882889233031214;-1.570784870778219;2.14132022857666;0.0;0.0;0.0;-0.0;0.0;-0.0;False;False

10543.355;3.7120416164398193;-0.8254380983165284;0.8430374304400843;-1.5882488689818324;-1.5707929770099085;2.1412384510040283;0.0;0.0;0.0;-0.0;0.0;-0.0;False;False

10543.375;3.7120211124420166;-0.825463132267334;0.842959229146139;-1.5882607899107875;-1.570829216633932;2.14132022857666;0.0;0.0;0.0;-0.0;0.0;-0.0;False;False

10543.394999999999;3.712062358856201;-0.8254950207522889;0.8429978529559534;-1.5882889233031214;-1.570829216633932;2.141317129135132;0.0;0.0;0.0;-0.0;0.0;-0.0;False;False

10543.414999999999;3.712094783782959;-0.825454370384552;0.8429763952838343;-1.5882774792113246;-1.570801083241598;2.1412546634674072;0.0;0.0;0.0;-0.0;0.0;-0.0;False;False

10543.435;3.7120819091796875;-0.8255039018443604;0.8429678122149866;-1.5882650814452113;-1.5708087126361292;2.1412267684936523;0.0;0.0;0.0;-0.0;0.0;-0.0;False;False

10543.455;3.71207857131958;-0.8254544299891968;0.8429935614215296;-1.5882650814452113;-1.5708449522601526;2.1412384510040283;0.0;0.0;0.0;-0.0;0.0;-0.0;False;False

10543.475;3.7120699882507324;-0.825463132267334;0.8430007139789026;-1.588268896142477;-1.5707891623126429;2.141214609146118;0.0;0.0;0.0;-0.0;0.0;-0.0;False;False

10543.494999999999;3.712106704711914;-0.8254630726626893;0.8429845015155237;-1.5882898769774378;-1.5707767645465296;2.141308546066284;0.0;0.0;0.0;-0.0;0.0;-0.0;False;False

10543.515;3.712050199508667;-0.8254913252643128;0.8430174032794397;-1.588297029534811;-1.5708368460284632;2.141279697418213;0.0;0.0;0.0;-0.0;0.0;-0.0;False;False

10543.535;3.712045907974243;-0.8254869741252442;0.8429587523089808;-1.5882288418211878;-1.5707686583148401;2.1412546634674072;0.0;0.0;0.0;-0.0;0.0;-0.0;False;False

10543.555;3.7120537757873535;-0.8254544299891968;0.8430336157428187;-1.5883332691588343;-1.5707925001727503;2.141251564025879;0.0;0.0;0.0;-0.0;0.0;-0.0;False;False

10543.574999999999;3.7120416164398193;-0.825473741894104;0.8429563681231897;-1.5882846317686976;-1.5708254019366663;2.1412503719329834;0.0;0.0;0.0;-0.0;0.0;-0.0;False;False

10543.595;3.712062358856201;-0.8254780930331727;0.8429845015155237;-1.5883175335326136;-1.570813004170553;2.1412601470947266;0.0;0.0;0.0;-0.0;0.0;-0.0;False;False

10543.615;3.7120699882507324;-0.8254707020572205;0.8430140654193323;-1.588252683679098;-1.5707891623126429;2.141270875930786;-2.463990719421933e-18;0.0;0.0;-0.0;0.0;-0.0;False;False

10543.654999999999;3.712066650390625;-0.8255364459804078;0.8429515997516077;-1.5882846317686976;-1.5707967917071741;2.141267776489258;0.0;0.0;0.0;-0.0;0.0;-0.0;False;False

10543.675;3.712045907974243;-0.8255201739123841;0.8429802099810999;-1.5882774792113246;-1.5707925001727503;2.1412558555603027;0.0;0.0;0.0;-0.0;0.0;-0.0;False;False

10543.695;3.7120208740234375;-0.8254869741252442;0.8430007139789026;-1.588320871392721;-1.5707805792437952;2.141317129135132;0.0;0.0;0.0;-0.0;0.0;-0.0;False;False

10543.715;3.7120537757873535;-0.8254661721042176;0.8429515997516077;-1.5883094273009242;-1.570801083241598;2.1412997245788574;0.0;0.0;0.0;-0.0;0.0;-0.0;False;False

10543.734999999999;3.7120754718780518;-0.8254574102214356;0.8430174032794397;-1.5882889233031214;-1.5707724730121058;2.1413257122039795;0.0;0.0;0.0;-0.0;0.0;-0.0;False;False

10543.755;3.7120862007141113;-0.8254837554744263;0.8430007139789026;-1.5882889233031214;-1.5707724730121058;2.141279697418213;0.0;0.0;0.0;-0.0;0.0;-0.0;False;False

10543.775;3.7120535373687744;-0.8254793447307129;0.8430054823504847;-1.588212629357809;-1.5708168188678187;2.1412925720214844;0.0;0.0;0.0;-0.0;0.0;-0.0;False;False

10543.795;3.7120537757873535;-0.8254750531962891;0.8429802099810999;-1.588252683679098;-1.570784870778219;2.141329050064087;0.0;0.0;0.0;-0.0;0.0;-0.0;False;False

10543.814999999999;3.7120862007141113;-0.8254837554744263;0.8430007139789026;-1.5882889233031214;-1.5707967917071741;2.1413333415985107;0.0;0.0;0.0;-0.0;0.0;-0.0;False;False

10543.835;3.7120370864868164;-0.8254381579211731;0.8430083433734339;-1.5882650814452113;-1.570801083241598;2.141287088394165;0.0;0.0;0.0;-0.0;0.0;-0.0;False;False

10543.855;3.712094783782959;-0.8254957360080262;0.8429673353778284;-1.5883332691588343;-1.5707925001727503;2.141267776489258;0.0;0.0;0.0;-0.0;0.0;-0.0;False;False

10543.875;3.712050199508667;-0.825463132267334;0.8429496924029749;-1.5882374248900355;-1.570784870778219;2.141247272491455;0.0;0.0;0.0;-0.0;0.0;-0.0;False;False

10543.894999999999;3.712062358856201;-0.8254499000361939;0.8430054823504847;-1.5883094273009242;-1.5707925001727503;2.1413044929504395;0.0;0.0;0.0;-0.0;0.0;-0.0;False;False

10543.914999999999;3.7121198177337646;-0.8254707020572205;0.8429978529559534;-1.5882774792113246;-1.5707648436175745;2.1412720680236816;0.0;0.0;0.0;-0.0;0.0;-0.0;False;False

10543.935;3.712082862854004;-0.8254869741252442;0.8430216948138636;-1.5882250271239222;-1.5708254019366663;2.1413087844848633;0.0;0.0;0.0;-0.0;0.0;-0.0;False;False

10543.955;3.712090492248535;-0.8254382175258179;0.842992130910055;-1.5882607899107875;-1.5708449522601526;2.141279697418213;0.0;0.0;0.0;-0.0;0.0;-0.0;True;False

10543.975;3.712062358856201;-0.8254707020572205;0.8430174032794397;-1.5882774792113246;-1.5707843939410608;2.1413333415985107;0.0;0.0;0.0;-0.0;0.0;-0.0;True;False

10543.994999999999;3.712127447128296;-0.8254249852946778;0.8429754416095179;-1.5882889233031214;-1.5707767645465296;2.1413214206695557;0.0;0.0;0.0;-0.0;0.0;-0.0;True;False

10544.015;3.712082862854004;-0.8254707020572205;0.8429630438434046;-1.5883056126036585;-1.570813004170553;2.1413040161132812;0.0;0.0;0.0;-0.0;0.0;-0.0;True;False

10544.035;3.7120416164398193;-0.8254468601993104;0.8430097738849085;-1.588313718835348;-1.5708373228656214;2.141287088394165;0.0;0.0;0.0;-0.0;0.0;-0.0;True;False

10544.055;3.712110996246338;-0.8254837554744263;0.8429673353778284;-1.5882936916747035;-1.570784870778219;2.141308546066284;0.0;0.0;0.0;-0.0;0.0;-0.0;True;False

10544.074999999999;3.712094783782959;-0.8254544299891968;0.8430054823504847;-1.588313718835348;-1.5708087126361292;2.1413159370422363;0.0;0.0;0.0;-0.0;0.0;-0.0;True;False

10544.095;3.7121036052703857;-0.8255039018443604;0.8429630438434046;-1.5883056126036585;-1.5708335081683558;2.141357183456421;0.0;0.0;0.0;-0.0;0.0;-0.0;True;False

10544.115;3.7120165824890137;-0.8254869741252442;0.842992130910055;-1.588245531121725;-1.5707767645465296;2.1412580013275146;0.0;0.0;0.0;-0.0;0.0;-0.0;True;False

10544.135;3.7120416164398193;-0.8254674834064026;0.8429673353778284;-1.5882774792113246;-1.5708335081683558;2.14125919342041;0.0;0.0;0.0;-0.0;0.0;-0.0;True;False

10544.154999999999;3.7121024131774902;-0.8255288165858765;0.842987362538473;-1.5882846317686976;-1.570801083241598;2.141291618347168;0.0;0.0;0.0;-0.0;0.0;-0.0;True;False

10544.175;3.7120580673217773;-0.8254382175258179;0.8429802099810999;-1.5882607899107875;-1.5707925001727503;2.1413257122039795;0.0;0.0;0.0;-0.0;0.0;-0.0;True;False

10544.195;3.7120699882507324;-0.8255244654468079;0.8430097738849085;-1.588320871392721;-1.5708335081683558;2.1412763595581055;0.0;0.0;0.0;-0.0;0.0;-0.0;True;False

10544.215;3.712082862854004;-0.8254956764033814;0.8430174032794397;-1.5882650814452113;-1.5708048979388636;2.1412057876586914;0.0;0.0;0.0;-0.0;0.0;-0.0;True;False

10544.234999999999;3.7120699882507324;-0.8255126041224976;0.8429845015155237;-1.5883332691588343;-1.5708168188678187;2.141287088394165;0.0;0.0;0.0;-0.0;0.0;-0.0;True;False

10544.255;3.7120742797851562;-0.8254174155047913;0.8429802099810999;-1.5883094273009242;-1.5707724730121058;2.141279697418213;0.0;0.0;0.0;-0.0;0.0;-0.0;True;False

10544.275;3.712099075317383;-0.8254674238017579;0.8429887930499476;-1.5882569752135218;-1.570801083241598;2.141270875930786;0.0;0.0;0.0;-0.0;0.0;-0.0;True;False

10544.295;3.712115526199341;-0.8255612415126343;0.8430245558368128;-1.5882731876769007;-1.570801083241598;2.1412720680236816;0.0;0.0;0.0;-0.0;0.0;-0.0;True;False

10544.314999999999;3.7120742797851562;-0.8254706424525757;0.8430145422564905;-1.5882288418211878;-1.5708254019366663;2.141279697418213;0.0;0.0;0.0;-0.0;0.0;-0.0;True;False

10544.335;3.7120580673217773;-0.8254824441722413;0.8429845015155237;-1.5882650814452113;-1.5707767645465296;2.141270875930786;0.0;0.0;0.0;-0.0;0.0;-0.0;True;False

10544.355;3.7120656967163086;-0.8254836958697815;0.8430307547198694;-1.5883013210692347;-1.5707925001727503;2.141317129135132;0.0;0.0;0.0;-0.0;0.0;-0.0;True;False

10544.375;3.712122917175293;-0.8254293364337464;0.8429473082171839;-1.5882846317686976;-1.5707886854754847;2.141160488128662;0.0;0.0;0.0;-0.0;0.0;-0.0;True;False

10544.394999999999;3.712090492248535;-0.8255039018443604;0.8429845015155237;-1.5882650814452113;-1.5708211104022425;2.141291618347168;5.582136116632195e-16;0.0;0.0;-0.0;0.0;-8.007862106751418e-08;True;False

10544.414999999999;3.7120296955108643;-0.825433687572815;0.8430126349078577;-1.588252683679098;-1.5708568731891077;2.141251564025879;4.363031958519975e-36;0.0;0.0;-0.0;0.0;-1.5596616265156626e-07;True;False

10544.435;3.712094783782959;-0.8254706424525757;0.8429630438434046;-1.588320871392721;-1.5708335081683558;2.141275405883789;0.0;0.0;0.0;-0.0;0.0;-4.630776556484306e-15;True;False

10544.455;3.7120656967163086;-0.8254544299891968;0.8430007139789026;-1.588245531121725;-1.5707843939410608;2.141263484954834;0.0;0.0;0.0;-0.0;0.0;-1.374919050790654e-22;True;False

10544.475;3.7120373249053955;-0.8254707020572205;0.8430097738849085;-1.5882498226561488;-1.5708335081683558;2.1412439346313477;0.0;0.0;0.0;-0.0;0.0;-4.0822586623266014e-30;True;False

10544.494999999999;3.7120776176452637;-0.8254544299891968;0.8429258505450647;-1.588313718835348;-1.5707929770099085;2.141270875930786;0.0;0.0;0.0;-0.0;0.0;-1.2120594966387478e-37;True;False

10544.515;3.712066650390625;-0.8254956167987366;0.8430145422564905;-1.588297029534811;-1.5707925001727503;2.141251564025879;0.0;0.0;0.0;-0.0;0.0;-4.203895392974451e-45;True;False

10544.535;3.712066650390625;-0.8254824441722413;0.8429892698871058;-1.5883127651610316;-1.5707925001727503;2.1412997245788574;0.0;0.0;0.0;-0.0;0.0;-0.0;True;False

10544.555;3.712094783782959;-0.8255375188640137;0.8430054823504847;-1.5882374248900355;-1.5708335081683558;2.141308546066284;0.0;0.0;0.0;-0.0;0.0;-0.0;True;False

10544.574999999999;3.7121548652648926;-0.8254993718913575;0.8430560270892542;-1.5882932148375453;-1.570784870778219;2.1413559913635254;0.032163262367248535;-0.011945120990276337;0.014776897616684437;-0.0025391713716089725;0.0;0.020765870809555054;True;False

10544.595;3.712681770324707;-0.825850860481598;0.8435500303851526;-1.588480611840719;-1.5708254019366663;2.141960620880127;0.038807567209005356;-0.025594593957066536;0.0402287133038044;-0.015428422950208187;0.0;0.038562048226594925;True;False

10544.615;3.713756561279297;-0.8266025942615052;0.8445881048785608;-1.5887276134886683;-1.570853058491842;2.142937660217285;0.0649612620472908;-0.04847727343440056;0.069011390209198;-0.012728371657431126;0.0;0.061098579317331314;True;False

10544.635;3.7152605056762695;-0.8277425926974793;0.8462718168841761;-1.5891944370665492;-1.570792023335592;2.14440655708313;0.08523239195346832;-0.06889655441045761;0.09878148883581161;-0.028799638152122498;0.0;0.0830233097076416;True;False

10544.654999999999;3.7172224521636963;-0.8293600243381043;0.848677937184469;-1.589872499505514;-1.5708406607257288;2.1464476585388184;0.10971245914697647;-0.09530586004257202;0.13083124160766602;-0.03219783306121826;0.0;0.10866023600101471;True;False

10544.675;3.719726324081421;-0.8314770621112366;0.8516405264483851;-1.5906464062132777;-1.5707967917071741;2.1488728523254395;0.13725323975086212;-0.11539514362812042;0.15665794909000397;-0.04371115192770958;0.0;0.13587091863155365;True;False

10544.695;3.7227602005004883;-0.8339660924724122;0.8550995031939905;-1.5917226276793421;-1.5708211104022425;2.151900291442871;0.16051213443279266;-0.1341993510723114;0.18157830834388733;-0.05733002349734306;0.0;0.15853844583034515;True;False

10544.715;3.7261500358581543;-0.8369914454272767;0.8590047995196741;-1.5928670368590296;-1.5708335081683558;2.155360460281372;0.18282869458198547;-0.15615595877170563;0.20777925848960876;-0.05444660782814026;0.0;0.17965371906757355;True;False

10544.734999999999;3.730043411254883;-0.8403042715838929;0.863532845173971;-1.5940586529173792;-1.5707843939410608;2.159339427947998;0.20843173563480377;-0.17105428874492645;0.24391214549541473;-0.06564688682556152;0.0;0.20756398141384125;True;False

10544.755;3.7345292568206787;-0.8439687055400391;0.8685920874225062;-1.5953990421690882;-1.5708168188678187;2.1637191772460938;0.2337512969970703;-0.18845225870609283;0.2685621976852417;-0.07471015304327011;0.0;0.22797049582004547;True;False

10544.775;3.739473819732666;-0.84801139057193;0.8742869536029261;-1.596933504144186;-1.5708449522601526;2.1686301231384277;0.2562287449836731;-0.21250294148921967;0.2916998267173767;-0.08224988728761673;0.0;0.25735732913017273;True;False

10544.795;3.744940996170044;-0.8525098127177735;0.8805306593524378;-1.5987478695311488;-1.570813004170553;2.174036741256714;0.2808123528957367;-0.23167887330055237;0.31785711646080017;-0.10734306275844574;0.0;0.2833370566368103;True;False

10544.814999999999;3.7508084774017334;-0.8573270601085206;0.8871968428241175;-1.6006347141661585;-1.5707805792437952;2.1799476146698;0.30526721477508545;-0.2510603666305542;0.34766289591789246;-0.09009664505720139;0.0;0.30302366614341736;True;False

10544.835;3.7570793628692627;-0.8625157040408631;0.8944867292987269;-1.6026483974852503;-1.570768181477682;2.186350107192993;0.3305836319923401;-0.27527502179145813;0.3772723078727722;-0.10549908131361008;0.0;0.326951801776886;True;False

10544.855;3.7639336585998535;-0.8682742875865479;0.9024432341205042;-1.604776998559469;-1.5708282629596155;2.1932194232940674;0.3566540777683258;-0.2925691604614258;0.40664613246917725;-0.11463802307844162;0.0;0.3504144251346588;True;False

10544.875;3.771397590637207;-0.8744044464877625;0.9109128157245081;-1.6072737179198207;-1.5707648436175745;2.2005341053009033;0.3799341022968292;-0.31247198581695557;0.42956724762916565;-0.1180819720029831;0.0;0.380311518907547;True;False

10544.894999999999;3.7793636322021484;-0.8808742326549073;0.9197943846331995;-1.6095463238158167;-1.570869270955221;2.2083773612976074;0.4049743413925171;-0.3300791382789612;0.463262677192688;-0.12579351663589478;0.0;0.41125544905662537;True;False

10544.914999999999;3.7875611782073975;-0.887701229458191;0.9292843977557581;-1.612389703790182;-1.5707724730121058;2.216759443283081;0.4314016103744507;-0.35619044303894043;0.4851992130279541;-0.14630112051963806;0.00029947535949759185;0.4266594350337982;True;False

10544.935;3.796326160430908;-0.8949151796153565;0.9393828550921839;-1.6152597866454066;-1.5707686583148401;2.2257354259490967;0.4535296559333801;-0.3735009729862213;0.5160561203956604;-0.1447419971227646;0.00020295575086493045;0.44626641273498535;True;False

10544.955;3.8058321475982666;-0.902647928600647;0.9501288572894495;-1.61804260830068;-1.5707891623126429;2.2348744869232178;0.4773349463939667;-0.38705119490623474;0.5416800379753113;-0.14844773709774017;0.00015349438763223588;0.47583597898483276;True;False

10544.975;3.815786838531494;-0.9106984895518799;0.9612630049334925;-1.6214124164977015;-1.5707805792437952;2.244702100753784;0.5036408305168152;-0.41111868619918823;0.5697056651115417;-0.1613762378692627;0.00011915368668269366;0.5032376050949097;True;False

10544.994999999999;3.8258795738220215;-0.9192398351481934;0.9730113188373011;-1.624669691125387;-1.5708044211017054;2.255136251449585;0.5207804441452026;-0.4390125870704651;0.5981519222259521;-0.16775718331336975;0.00013182172551751137;0.5217835903167725;True;False

10545.015;3.836529493331909;-0.9279149931720276;0.9853366057025355;-1.628094335595602;-1.570857350026266;2.265784502029419;0.546619176864624;-0.4509563744068146;0.6296757459640503;-0.17149372398853302;7.83926370786503e-05;0.549399733543396;True;False

10545.035;3.8479623794555664;-0.9372630280307312;0.9983490149127405;-1.631512304345602;-1.570801083241598;2.277094602584839;0.5838298797607422;-0.47340771555900574;0.6593389511108398;-0.17181354761123657;8.189755317289382e-05;0.5778781175613403;True;False

10545.055;3.859750986099243;-0.9471585911563416;1.0118120352374476;-1.6355248890318812;-1.5707767645465296;2.2889997959136963;0.5976656079292297;-0.4977886378765106;0.6766177415847778;-0.19616013765335083;6.283733091549948e-05;0.5954505205154419;True;False

10545.074999999999;3.8719537258148193;-0.9572717708400269;1.0256145636187952;-1.639360090295309;-1.570813004170553;2.301150321960449;0.6201726794242859;-0.5153387784957886;0.7122195959091187;-0.19361913204193115;5.097289977129549e-05;0.6284910440444946;True;False

10545.095;3.8847174644470215;-0.9676881593516846;1.040372673665182;-1.643383642236227;-1.5707405249225062;2.3139212131500244;0.6541392803192139;-0.5307751893997192;0.741145133972168;-0.2065189778804779;4.287745468900539e-05;0.650073766708374;True;False

10545.115;3.897935152053833;-0.9785115879825135;1.0554574171649378;-1.6475874386229457;-1.5708087126361292;2.3271267414093018;0.6703163385391235;-0.5530516505241394;0.7638484239578247;-0.22914591431617737;3.700117667904124e-05;0.6680691242218018;True;False

10545.135;3.911689281463623;-0.9897611302188416;1.0710614363299769;-1.6520897350706996;-1.5707405249225062;2.3408358097076416;0.7021070718765259;-0.5810845494270325;0.7931849360466003;-0.2170514464378357;3.254148396081291e-05;0.701036810874939;True;False

10545.154999999999;3.9258763790130615;-1.0015290540507813;1.087280575429098;-1.6565562687315882;-1.5707967917071741;2.3551337718963623;0.719111979007721;-0.5864495038986206;0.8268997073173523;-0.23813952505588531;2.546948678627814e-07;0.7137053608894348;True;False

10545.175;3.940545082092285;-1.0137073558619996;1.1040180365191858;-1.6612698040404261;-1.5707929770099085;2.369741916656494;0.7471486926078796;-0.6200280785560608;0.8474054336547852;-0.2458593100309372;7.562117876607367e-15;0.7503113746643066;True;False

10545.195;3.9557385444641113;-1.0260637563518067;1.121396843587057;-1.6660801372923792;-1.5707486311541956;2.3850526809692383;0.7730959057807922;-0.6301888823509216;0.8858137726783752;-0.24798215925693512;2.245261209585327e-22;0.7581731081008911;True;False

10545.215;3.9713873863220215;-1.0389924806407471;1.1394866148578089;-1.6710363827147425;-1.5707805792437952;2.400583505630493;0.7969354391098022;-0.6551451086997986;0.9080274701118469;-0.2421109825372696;6.666384569162982e-30;0.8036050200462341;True;False

10545.234999999999;3.9876277446746826;-1.0522222083858033;1.1577723662005823;-1.67631258587026;-1.570784870778219;2.416870355606079;0.8205052614212036;-0.6780596971511841;0.9367433190345764;-0.275467187166214;1.9793098664213406e-37;0.8141775727272034;True;False

10545.255;4.004377365112305;-1.0661535424045105;1.1769426504718226;-1.6813770733275355;-1.570772949849264;2.433481454849243;0.8428052663803101;-0.6916449666023254;0.9713239073753357;-0.2526930570602417;5.605193857299268e-45;0.8455774188041687;True;False

10545.275;4.021413803100586;-1.0801849526217957;1.1965010801898401;-1.6871396503844203;-1.5708091894732874;2.4506890773773193;0.8650798797607422;-0.7167697548866272;0.9860921502113342;-0.28666847944259644;0.0;0.8593245148658752;True;False

10545.295;4.039027214050293;-1.0946633082679291;1.2166121641742151;-1.6926919422545375;-1.570801083241598;2.4681901931762695;0.8943122625350952;-0.7305145859718323;1.0225520133972168;-0.2789853513240814;2.452291624974179e-12;0.898132860660553;True;False

10545.314999999999;4.057195663452148;-1.1096195739558716;1.237263027821676;-1.6985393963255824;-1.5708044211017054;2.4863247871398926;0.9134168028831482;-0.7588905692100525;1.0502946376800537;-0.2851676642894745;7.28107445753447e-20;0.9114241003990173;True;False

10545.335;4.075492858886719;-1.1247687202743073;1.2583134810077112;-1.7044078312315882;-1.5707815329181116;2.504660129547119;0.9238855838775635;-0.7505781054496765;1.0458884239196777;-0.2990599572658539;2.1618168810108123e-27;0.9184007048606873;True;False

10545.355;4.093812942504883;-1.1397137504867096;1.2791226545916956;-1.7100478611388148;-1.5707610289203089;2.522897958755493;0.9132370948791504;-0.7566381096839905;1.044688105583191;-0.3176281750202179;6.418628486434228e-35;0.9221446514129639;True;False

10545.375;4.112112998962402;-1.1548812252334137;1.3001082579242151;-1.7159878216185511;-1.5707772413836878;2.5414130687713623;0.9176900386810303;-0.7518961429595947;1.0513601303100586;-0.283521831035614;1.9057659114817512e-42;0.9142950177192688;True;False

10545.394999999999;4.1304521560668945;-1.1699953836253663;1.3210352102862757;-1.7219234905638636;-1.5707204977618616;2.559598684310913;0.91804438829422;-0.7567375302314758;1.04123055934906;-0.2945679724216461;0.0;0.9222715497016907;True;False

10545.414999999999;4.148767948150635;-1.1850147110274811;1.3419049421893519;-1.7276746235289515;-1.5707891623126429;2.5779967308044434;0.9119161367416382;-0.7504866123199463;1.0470248460769653;-0.28817689418792725;0.0;0.9051538109779358;True;False

10545.435;4.167159080505371;-1.2002139252475281;1.3628771940814417;-1.7334872684874476;-1.5707967917071741;2.5963406562805176;0.9233986735343933;-0.7539095878601074;1.0502359867095947;-0.2811278998851776;0.0;0.9190882444381714;True;False

10545.455;4.185486316680908;-1.2151854795268555;1.3838885466205042;-1.739627023736471;-1.5708015600787562;2.614574670791626;0.9094106554985046;-0.7547444105148315;1.046423316001892;-0.30461862683296204;-7.814962737029418e-05;0.9177212119102478;True;False

10545.475;4.203771114349365;-1.230309621696808;1.4048579374896448;-1.7451912365355433;-1.570801083241598;2.633115768432617;0.9189187288284302;-0.7550785541534424;1.0467313528060913;-0.30437809228897095;-7.977944915182889e-05;0.9104294776916504;True;False

10545.494999999999;4.222179889678955;-1.24537946403537;1.4257128874408167;-1.751226087609762;-1.570801083241598;2.6512515544891357;0.9153742790222168;-0.7570028901100159;1.050452709197998;-0.2852911949157715;-9.270593000110239e-05;0.925143837928772;True;False

10545.515;4.240484714508057;-1.2606329780868073;1.4468138853656214;-1.7569242916502894;-1.5707891623126429;2.6697092056274414;0.914288341999054;-0.7530122995376587;1.0425634384155273;-0.29328909516334534;-0.00013278977712616324;0.909349799156189;True;False

10545.535;4.258784294128418;-1.2755635541728516;1.4675043264972132;-1.7628685436644496;-1.5707810560809534;2.687974214553833;0.9180862903594971;-0.7520197629928589;1.0432767868041992;-0.29093703627586365;-0.00014453649055212736;0.9197092056274414;True;False

10545.555;4.277089595794678;-1.290690080528595;1.4886444250689905;-1.768637319604391;-1.5708616415606897;2.7060632705688477;0.913713812828064;-0.7536616325378418;1.051581859588623;-0.2703266143798828;-0.00023570447228848934;0.9153859615325928;True;False

10545.574999999999;4.295450687408447;-1.3056828540614625;1.509475056325094;-1.7747060261168421;-1.570829216633932;2.724741220474243;0.9188029766082764;-0.7555174827575684;1.0402753353118896;-0.30756381154060364;-0.00039939722046256065;0.9202295541763306;True;False

10545.595;4.313816070556641;-1.3209384840777894;1.5305145422564905;-1.7803036175169886;-1.5708325544940394;2.7429144382476807;0.9120720624923706;-0.7546666860580444;1.0526822805404663;-0.2980169653892517;-5.2131326810922474e-05;0.9161907434463501;True;False

10545.615;4.332089424133301;-1.3359107685140152;1.55127460161318;-1.7863317928709925;-1.5707805792437952;2.76139497756958;0.9172502756118774;-0.755264937877655;1.0451997518539429;-0.30359265208244324;-2.422526534928693e-08;0.9104111194610596;True;False

10545.635;4.3501152992248535;-1.3509118866971512;1.5721014181720179;-1.7919098339476527;-1.5707891623126429;2.7793233394622803;0.8960595726966858;-0.7314826250076294;1.0166746377944946;-0.2847859263420105;-7.192699915013691e-16;0.899055540561676;True;False

10545.654999999999;4.367746829986572;-1.365185723905899;1.5919440428363245;-1.7975827656187953;-1.570784870778219;2.7968616485595703;0.8609704375267029;-0.7103259563446045;0.981557309627533;-0.275765985250473;-2.1355775791157267e-23;0.8590996861457825;True;False

10545.675;4.3847150802612305;-1.379321665768959;1.6116216818438929;-1.8030992947020472;-1.5707648436175745;2.8140273094177246;0.8477790951728821;-0.6907865405082703;0.96634441614151;-0.2552115321159363;-6.340720912233772e-31;0.849193811416626;True;False

10545.695;4.4014363288879395;-1.3930339527181168;1.6303718725787562;-1.8083864651122035;-1.5707605520831507;2.8304049968719482;0.8160070180892944;-0.6750633120536804;0.9333666563034058;-0.2687912881374359;-1.8826171615003374e-38;0.8150831460952759;True;False

10545.715;4.417426109313965;-1.406263069515564;1.6489570776568812;-1.8134457073607386;-1.5707724730121058;2.8466672897338867;0.7969958782196045;-0.6519484519958496;0.9129615426063538;-0.24272064864635468;-0.0;0.7987480759620667;True;False

10545.734999999999;4.43308687210083;-1.4190924030593415;1.6667311827289026;-1.818493505517477;-1.5708211104022425;2.8621749877929688;0.7642680406570435;-0.6343539357185364;0.8732567429542542;-0.2506958544254303;-0.0;0.7693070769309998;True;False

10545.755;4.448270797729492;-1.4314825248769303;1.6839593092547815;-1.8233076534666957;-1.5707405249225062;2.8774876594543457;0.7476293444633484;-0.6143068075180054;0.846988320350647;-0.2377198338508606;-0.0;0.7453632950782776;True;False

10545.775;4.462807655334473;-1.4435949188521882;1.7008641401873987;-1.827994009057516;-1.570829216633932;2.891939640045166;0.7125577926635742;-0.5911548733711243;0.8212139010429382;-0.24038322269916534;-0.0;0.7199321985244751;True;False

10545.795;4.476996898651123;-1.4551907119205971;1.7167170683490198;-1.8324748478331507;-1.5706999937640589;2.9061126708984375;0.7026482224464417;-0.5765203237533569;0.7884013652801514;-0.22944751381874084;-0.0;0.7022026181221008;True;False

10545.814999999999;4.490626811981201;-1.4664599162391205;1.732520882283346;-1.8369347057738246;-1.5707925001727503;2.919881820678711;0.6662077307701111;-0.5518834590911865;0.7654746174812317;-0.20647470653057098;-5.918920214753598e-05;0.6626920700073242;True;False

10545.835;4.503789901733398;-1.4772856098464509;1.7476041952716272;-1.8409067593016566;-1.5707891623126429;2.932994842529297;0.6484017968177795;-0.5301764607429504;0.7367739677429199;-0.22418123483657837;-4.854562212130986e-05;0.6508670449256897;True;False

10545.855;4.516429424285889;-1.4876974088004609;1.7618492285357874;-1.8453523121275843;-1.5707843939410608;2.9457452297210693;0.6234263181686401;-0.5164325833320618;0.7052172422409058;-0.20024731755256653;-4.1146966395899653e-05;0.6187859177589417;True;False

10545.875;4.528650760650635;-1.497773365383484;1.7758501211749476;-1.8489405117430628;-1.5707605520831507;2.957646131515503;0.5986956357955933;-0.48917049169540405;0.6925583481788635;-0.19800657033920288;-3.57053431798704e-05;0.6043806672096252;True;False

10545.894999999999;4.540403842926025;-1.5074446660331269;1.7893312613116663;-1.8526936970152796;-1.5708048979388636;2.969609022140503;0.5766764879226685;-0.4720114469528198;0.6526451706886292;-0.1840105652809143;-3.153497164021246e-05;0.5733586549758911;True;False

10545.914999999999;4.551528453826904;-1.5166157533279438;1.8019784132586878;-1.8563305340208949;-1.5707886854754847;2.980836868286133;0.547642707824707;-0.45174822211265564;0.6249069571495056;-0.1756007820367813;-3.3378184660648458e-09;0.5425806045532227;True;False

10545.935;4.562399387359619;-1.5253735494664689;1.814218823109762;-1.859610219995016;-1.5707648436175745;2.991365671157837;0.5237935185432434;-0.4343026876449585;0.6067855954170227;-0.1510770469903946;-9.910284821130824e-17;0.5290268063545227;True;False

10545.955;4.5724406242370605;-1.533929744069912;1.826146427785055;-1.863077779809469;-1.570857350026266;3.001739978790283;0.49842238426208496;-0.41067904233932495;0.5703771710395813;-0.16747277975082397;-2.942452556980958e-24;0.49957501888275146;True;False

10545.975;4.582096576690674;-1.5419397421977301;1.8370922247516077;-1.866194864312643;-1.5708168188678187;3.011476755142212;0.48074764013290405;-0.3870832324028015;0.5401322245597839;-0.15074871480464935;-8.736405670678533e-32;0.4697186350822449;True;False

10545.994999999999;4.591629981994629;-1.5495176066509266;1.8476865927325647;-1.86901917080068;-1.5707605520831507;3.0204577445983887;0.4497431516647339;-0.37380528450012207;0.5210031270980835;-0.14497758448123932;-2.5939169626408467e-39;0.461700439453125;True;False

10546.015;4.6001200675964355;-1.5566392925432702;1.8578460852252405;-1.8718143902220667;-1.5707686583148401;3.0294415950775146;0.423641175031662;-0.3516770303249359;0.48981335759162903;-0.13948647677898407;-0.0;0.43128105998039246;True;False

10546.035;4.608456134796143;-1.5634786875783284;1.8672750631915491;-1.8743955097594203;-1.5708368460284632;3.037795066833496;0.4066971242427826;-0.33237650990486145;0.46211838722229004;-0.13633601367473602;-0.0;0.39987123012542725;True;False

10546.055;4.6164727210998535;-1.5700184002965507;1.8759477774249476;-1.8771172962584437;-1.5708416144000452;3.0454747676849365;0.3774498403072357;-0.31286874413490295;0.4276247024536133;-0.11590131372213364;-0.0;0.37918680906295776;True;False

10546.074999999999;4.623648166656494;-1.5759617290892542;1.8843477408038538;-1.8793279133238734;-1.570813004170553;3.0527865886688232;0.3464604318141937;-0.2884501814842224;0.40392470359802246;-0.10227615386247635;-0.0;0.35682928562164307;True;False

10546.095;4.630316257476807;-1.581395765344137;1.892390553151266;-1.8812428913512171;-1.5708616415606897;3.0596022605895996;0.33262914419174194;-0.2678668200969696;0.3797867000102997;-0.10969483107328415;-0.0;0.32865768671035767;True;False

10546.115;4.636684894561768;-1.5867420635619105;1.8993261496173304;-1.8836194477477015;-1.5708335081683558;3.06598162651062;0.30927547812461853;-0.25487902760505676;0.34414175152778625;-0.10349113494157791;-0.0;0.30102258920669556;True;False

10546.135;4.642611980438232;-1.5917006931700648;1.9057729879962366;-1.8854824505248011;-1.5708325544940394;3.071821928024292;0.28206080198287964;-0.2312413901090622;0.31923168897628784;-0.08304990828037262;-0.0;0.2755483388900757;True;False

10546.154999999999;4.648025035858154;-1.5959469280638636;1.9121440092669886;-1.88698210338735;-1.5707486311541956;3.0771286487579346;0.2509957253932953;-0.20158503949642181;0.30042845010757446;-0.07506544888019562;-1.586781921136815e-11;0.2575533390045166;True;False

10546.175;4.65278959274292;-1.5998712978758753;1.9180205504046839;-1.8885427914061488;-1.5708168188678187;3.081813335418701;0.2277652770280838;-0.18670980632305145;0.26139509677886963;-0.0868011862039566;-4.711297651675267e-19;0.23863793909549713;True;False

10546.195;4.657138347625732;-1.603530069390768;1.9227502981769007;-1.890115877191061;-1.570813004170553;3.0863144397735596;0.20605087280273438;-0.17288561165332794;0.22857089340686798;-0.0682750940322876;-1.3988268001397598e-26;0.21022802591323853;True;False

10546.215;4.660963535308838;-1.6067172489561976;1.9270904699908655;-1.8912564716734828;-1.5708211104022425;3.090221405029297;0.18497148156166077;-0.15233655273914337;0.2079041749238968;-0.05425230786204338;-4.1532428650008825e-34;0.18307362496852875;True;False

10546.234999999999;4.664462089538574;-1.6095291576781214;1.9310663382159632;-1.8922625980772914;-1.5707886854754847;3.093648910522461;0.16371311247348785;-0.1309993416070938;0.1849350929260254;-0.0475347675383091;-1.233142648605839e-41;0.15624497830867767;True;False

10546.255;4.667276382446289;-1.6118513546385707;1.9343646208392542;-1.8931690655150355;-1.5707886854754847;3.0965192317962646;0.13674567639827728;-0.11230754852294922;0.1530286967754364;-0.04351089149713516;-0.0;0.13260726630687714;True;False

10546.275;4.669742107391357;-1.6138831577696742;1.9370086828814905;-1.8940721950926722;-1.5707967917071741;3.0989437103271484;0.10962949693202972;-0.09360065311193466;0.12150439620018005;-0.03617297112941742;-0.0;0.10949929058551788;True;False

10546.295;4.671621322631836;-1.615464826623434;1.939145867024557;-1.8946978054442347;-1.5708087126361292;3.1008810997009277;0.08495425432920456;-0.06925954669713974;0.09964238852262497;-0.027488935738801956;-0.0;0.08311247825622559;True;False

10546.314999999999;4.673065185546875;-1.616575380364889;1.940845791493551;-1.8951360187926234;-1.5708416144000452;3.1022775173187256;0.058044783771038055;-0.04936894029378891;0.07582502067089081;-0.021553393453359604;-0.0;0.057787537574768066;True;False

10546.335;4.674117088317871;-1.6174684963622035;1.9420226255999964;-1.8954349956908167;-1.5708168188678187;3.103248357772827;0.03653482347726822;-0.030572324991226196;0.0418846569955349;-0.010910863056778908;-0.0;0.03534011170268059;True;False

10546.355;4.674418926239014;-1.6178389988341273;1.9425566832171839;-1.8955275020995082;-1.5708006064044397;3.103679895401001;0.011948051862418652;-0.009835019707679749;0.01269291527569294;-0.0007189923780970275;-0.0;0.010644162073731422;True;False

10546.375;4.674468517303467;-1.6177040539183558;1.9425743261920374;-1.8956757984557093;-1.570784870778219;3.103653907775879;0.003049393417313695;0.008460646495223045;0.011634968221187592;-0.024545177817344666;-0.0;-8.350935240741819e-05;True;False

10546.394999999999;4.6743669509887695;-1.6174479923644007;1.9430115858661097;-1.8963858089842738;-1.570829216633932;3.103691816329956;-0.0006140818586573005;0.015067803673446178;0.02665000408887863;-0.03793548420071602;-0.0;-2.4794682366297005e-12;True;False

10546.414999999999;4.6744890213012695;-1.617138525048727;1.9437549749957483;-1.8974248371519984;-1.570813004170553;3.1036462783813477;0.0008916771039366722;0.02371974103152752;0.04364119842648506;-0.06470753997564316;-0.0;0.0007086856639944017;True;False

10546.435;4.674378395080566;-1.6165467701353968;1.944756333027975;-1.899088045159811;-1.5707686583148401;3.1036624908447266;0.00041645264718681574;0.03551531210541725;0.06168466433882713;-0.09685546904802322;-0.0;0.001005409169010818;True;False

10546.455;4.674484729766846;-1.6157885990538539;1.9462226072894495;-1.901377340356344;-1.570829216633932;3.103682041168213;0.0014931124169379473;0.048536743968725204;0.07964593172073364;-0.12448475509881973;-0.0;0.0009965007193386555;True;False

10546.475;4.674509048461914;-1.6146208248534144;1.9480002562152308;-1.9043108425536097;-1.5707886854754847;3.103713274002075;0.0009948201477527618;0.06421088427305222;0.09583328664302826;-0.1556418091058731;-0.0;0.0005853789043612778;True;False

10546.494999999999;4.674459934234619;-1.613291402856344;1.9500964323626917;-1.9076644382872523;-1.5707967917071741;3.103726387023926;0.0008010328165255487;0.07361875474452972;0.10966943204402924;-0.17297130823135376;-0.0;0.00028195633785799146;True;False

10546.515;4.674499988555908;-1.6118818722166957;1.9525635878192347;-1.911572118798727;-1.5707805792437952;3.103717565536499;0.0012187000829726458;0.08413633704185486;0.12460493296384811;-0.2167220562696457;-0.0;0.00025462493067607284;True;False

10546.535;4.674490928649902;-1.610032697717184;1.9551895300494593;-1.916006704370016;-1.5708449522601526;3.103710174560547;0.0008336302707903087;0.09556017071008682;0.14858287572860718;-0.2382686883211136;-0.0;0.000190970124094747;True;False

10546.555;4.674479007720947;-1.6080976925291957;1.9583218733416956;-1.9210764370360316;-1.5708449522601526;3.1037344932556152;0.0004313184763304889;0.10615144670009613;0.16348928213119507;-0.25546857714653015;-0.0;0.00017046011635102332;True;False

10546.574999999999;4.674495697021484;-1.605908533135885;1.96183950105776;-1.9267531834044398;-1.5707967917071741;3.1037344932556152;0.00024315633345395327;0.11547958850860596;0.1883331537246704;-0.29309359192848206;2.455872618156718e-06;0.00015332034672610462;True;False

10546.595;4.674572944641113;-1.6035047970213832;1.9656999746905726;-1.932932516137594;-1.5707886854754847;3.1037306785583496;0.00021469374769367278;0.12360801547765732;0.19943010807037354;-0.3193167448043823;7.291708198613883e-14;0.00012640122440643609;True;False

10546.615;4.6745476722717285;-1.6009508572020472;1.9697497526751917;-1.939829011956686;-1.5708168188678187;3.103717565536499;0.00019555538892745972;0.13644064962863922;0.21842852234840393;-0.35925883054733276;2.164974203069749e-21;9.027032501762733e-05;True;False

10546.635;4.674527645111084;-1.59808411220693;1.9743731657611292;-1.9470592937865199;-1.5707886854754847;3.1036970615386963;0.00014356404426507652;0.14536206424236298;0.23664462566375732;-0.37780582904815674;6.428001837980067e-29;7.518645725212991e-05;True;False

10546.654999999999;4.674519062042236;-1.595041891137594;1.9794414679156702;-1.9548236332335414;-1.570772949849264;3.1037216186523438;0.00013231423508841544;0.15506795048713684;0.2477465569972992;-0.39985957741737366;1.90853137960629e-36;6.442221638280898e-05;True;False

10546.675;4.674511909484863;-1.5917393169798792;1.984643284474508;-1.963184495965475;-1.5707925001727503;3.103705883026123;0.00010934871534118429;0.16506342589855194;0.2654924690723419;-0.4335278868675232;5.605193857299268e-44;5.635424531647004e-05;True;False

10546.695;4.674563884735107;-1.5884181461729945;1.9898317495929163;-1.9723621807494105;-1.570784870778219;3.1037302017211914;9.31764006963931e-05;0.174673929810524;0.28267598152160645;-0.4619421660900116;0.0;4.008151518064551e-05;True;False

10546.715;4.6745524406433105;-1.5847884617247523;1.9955924193011683;-1.981725355187887;-1.570784870778219;3.103717565536499;8.117128891171888e-05;0.1869535595178604;0.3045949339866638;-0.4867047369480133;0.0;2.8146712391374784e-12;True;False

10546.734999999999;4.674514293670654;-1.5807205639281214;2.001979653035299;-1.9918714962401332;-1.5707929770099085;3.10370135307312;3.9494687371188775e-05;0.19920751452445984;0.3260665833950043;-0.5157250165939331;4.3168358388356864e-05;8.357014129676335e-20;True;False

10546.755;4.674553871154785;-1.5768348179259242;2.0085671583758753;-2.0025655231871546;-1.570784870778219;3.1037638187408447;-6.107187073212117e-05;0.2092549204826355;0.3325912058353424;-0.5520055890083313;4.989511944586411e-05;2.4812728068162675e-27;True;False

10546.775;4.674543380737305;-1.5725418529906214;2.015529457722799;-2.013761659661764;-1.5707891623126429;3.103771448135376;-4.5884533158843455e-23;0.22466427087783813;0.3512258529663086;-0.5707666873931885;1.481431080238571e-12;7.367121561965789e-35;True;False

10546.795;4.674561023712158;-1.5677858279417087;2.0226810614215296;-2.0254608593382777;-1.5707925001727503;3.1037702560424805;-3.587324068671532e-43;0.23144561052322388;0.37103167176246643;-0.5896437168121338;4.398503503564888e-20;2.1874269028110394e-42;True;False

10546.814999999999;4.67458963394165;-1.563417674308159;2.0299161116229456;-2.037379880944723;-1.5708048979388636;3.103722095489502;0.0;0.2215222269296646;0.35638630390167236;-0.581023633480072;1.3059550878440046e-27;0.0;True;False

10546.835;4.6745076179504395;-1.5590266206166525;2.03680926958193;-2.0485421619811;-1.5707967917071741;3.10370135307312;0.0;0.20841042697429657;0.3389642536640167;-0.5486887693405151;3.877498694783415e-35;0.0;True;False

10546.855;4.6745100021362305;-1.554965990861394;2.043537441884176;-2.059293886224264;-1.570784870778219;3.103722095489502;0.0;0.20056095719337463;0.32367143034935;-0.5161460041999817;1.1518673376749996e-42;3.135513537699808e-08;True;False

10546.875;4.67452335357666;-1.5510349732688447;2.0497658888446253;-2.0694200001158656;-1.5707767645465296;3.103759527206421;0.0;0.19441907107830048;0.3031216263771057;-0.5004919767379761;0.0;9.3096205386594e-16;True;False

10546.894999999999;4.674519062042236;-1.547410724019148;2.0555456320392054;-2.079179426232809;-1.5707767645465296;3.103743314743042;0.0;0.17769137024879456;0.2824932038784027;-0.46877604722976685;0.0;2.764109605098715e-23;True;False

10546.914999999999;4.6745805740356445;-1.544015885596611;2.061113182698385;-2.0882049999632777;-1.5708373228656214;3.103693962097168;0.0;0.17251820862293243;0.27144289016723633;-0.4345187842845917;0.0;8.206890604616164e-31;True;False

10546.935;4.674549102783203;-1.5405860406211396;2.0663793722735804;-2.096694131890768;-1.5708087126361292;3.103771448135376;0.0;0.16047175228595734;0.26029548048973083;-0.4111981987953186;0.0;2.436700523513467e-38;True;False

10546.955;4.6745524406433105;-1.5375656981817265;2.071357552205221;-2.1045390568175257;-1.5707886854754847;3.103747606277466;0.0;0.14690905809402466;0.2354007363319397;-0.394449919462204;0.0;1.401298464324817e-45;True;False

10546.975;4.674535751342773;-1.5345965412310143;2.076045815144674;-2.1119233570494593;-1.5708211104022425;3.103787660598755;0.0;0.13783393800258636;0.21493518352508545;-0.3633897602558136;0.0;0.0;True;False

10546.994999999999;4.674556732177734;-1.5319810298136254;2.0801852385150355;-2.11876978496694;-1.570801083241598;3.103739023208618;0.0;0.12268363684415817;0.20039266347885132;-0.33662623167037964;0.0;0.0;True;False

10547.015;4.6745100021362305;-1.5296805810979386;2.0838831106769007;-2.125052591363424;-1.5707967917071741;3.103717565536499;0.0;0.1151132807135582;0.18258704245090485;-0.31608161330223083;0.0;0.0;True;False

10547.035;4.674519062042236;-1.5274620440653344;2.087329689656393;-2.1307012043394984;-1.5707967917071741;3.103722095489502;0.0;0.10234003514051437;0.16919225454330444;-0.27680912613868713;0.0;-3.9262431528186426e-07;True;False

10547.055;4.6745076179504395;-1.5255320456675072;2.090595547352926;-2.1358238659300746;-1.5707247892962855;3.10370135307312;0.0;0.09228844195604324;0.14923810958862305;-0.23695579171180725;0.0;-1.1657368863618456e-14;True;False

10547.074999999999;4.6745758056640625;-1.5237646003118535;2.09335166612734;-2.1405469379820765;-1.5708254019366663;3.103750705718994;0.0;0.08210369199514389;0.13697540760040283;-0.2143191695213318;0.0;-3.4611785922793373e-22;True;False

10547.095;4.6745476722717285;-1.5222423572889348;2.095771137868063;-2.144515653649801;-1.5708254019366663;3.103677749633789;0.0;0.070838063955307;0.1154300794005394;-0.19256867468357086;0.0;-1.0276551534662623e-29;True;False

10547.115;4.67452335357666;-1.5209191267243405;2.098032299672262;-2.147956510583395;-1.570801083241598;3.1037464141845703;0.0;0.06291967630386353;0.10096482187509537;-0.15375015139579773;0.0;-3.051200728686114e-37;True;False

10547.135;4.67452335357666;-1.5197365556708355;2.099860493336813;-2.150835176507467;-1.5707529226886194;3.103717565536499;0.0;0.05030110850930214;0.08493375033140182;-0.1364145427942276;0.0;-8.407790785948902e-45;True;False

10547.154999999999;4.674479007720947;-1.5188918945244332;2.1013811270343226;-2.1533028088011683;-1.570813004170553;3.1037344932556152;0.0;0.04068110138177872;0.06495552510023117;-0.10558046400547028;0.0;-0.0;True;False

10547.175;4.674584865570068;-1.5182192896357556;2.1024091879474085;-2.1549908123412074;-1.5707891623126429;3.1036970615386963;0.0;0.028894541785120964;0.04603717476129532;-0.07426412403583527;0.0;-0.0;True;False

10547.195;4.674535751342773;-1.5176967394403;2.103224579487936;-2.1561762295165003;-1.5707805792437952;3.103689670562744;0.0;0.01996603049337864;0.02818780392408371;-0.04782860726118088;0.0;-0.00011932902270928025;True;False

10547.215;4.674482345581055;-1.5174417619458218;2.1036317984210413;-2.1569024525084437;-1.5707486311541956;3.103684186935425;0.0;0.007936251349747181;0.012439382262527943;-0.021476736292243004;0.0;-5.125314783072099e-05;True;False

10547.234999999999;4.674561023712158;-1.5174546998790284;2.1036704222308558;-2.1569224796690882;-1.5708168188678187;3.103726387023926;0.0;-0.0014503345591947436;-0.0008187581552192569;0.0053359284065663815;0.0;-3.264757106080651e-05;True;False

10547.255;4.674511909484863;-1.5174579818597813;2.103670899068014;-2.1569587192931117;-1.5708168188678187;3.103743314743042;0.0;-0.000537763349711895;-1.6751731422574487e-15;-0.00020274064445402473;0.0;-2.395550654910039e-05;True;False

10547.275;4.674514293670654;-1.5174471226385613;2.1036861578570765;-2.1569463215269984;-1.5708335081683558;3.1037144660949707;0.0;0.0006306243594735861;-2.358936773783818e-27;-9.375354420626536e-05;0.0;-5.675595093634911e-05;True;False

10547.295;4.674519062042236;-1.5174666729620476;2.10364276567568;-2.156966348687643;-1.5707967917071741;3.1036970615386963;0.0;0.00021010497584939003;-3.321796226562015e-39;-0.00026110344333574176;0.0;-4.689874913310632e-05;True;False

10547.314999999999;4.674474716186523;-1.5174351942590256;2.1036418120013636;-2.156938215295309;-1.5707605520831507;3.1037344932556152;0.0;0.0007015734445303679;-0.0;-0.0004578752559609711;0.0;-3.995650331489742e-05;True;False

10547.335;4.674509048461914;-1.5174513657442112;2.1036375204669397;-2.156938215295309;-1.5707805792437952;3.10366153717041;0.0;0.0003300801618024707;2.226392098236829e-05;-0.00025365216424688697;0.0;-3.480551458778791e-05;True;False

10547.355;4.674544811248779;-1.5174514849535008;2.1036341826068323;-2.1569258175291957;-1.5707724730121058;3.1036734580993652;0.0;0.0002386480919085443;5.044928184361197e-05;-0.0006437887204810977;0.0;-3.083105184487067e-05;True;False

10547.375;4.674458026885986;-1.5174927239171048;2.1036537329303187;-2.1569863758482875;-1.5708091894732874;3.103685140609741;0.0;0.00020346914243418723;3.245899279136211e-05;-0.0004271896614227444;0.0;-1.0428087560132582e-10;True;False

10547.394999999999;4.674540042877197;-1.5174514327994366;2.1036623159991663;-2.1569982967772425;-1.570784870778219;3.1037583351135254;-3.6797156813294426e-15;0.00015396489470731467;4.729482316179201e-05;-0.0010862781200557947;0.0;-3.0961926606821768e-18;True;False

10547.414999999999;4.6744914054870605;-1.5174103055945416;2.1036790052997034;-2.156990190545553;-1.5707648436175745;3.1037757396698;-6.058271901565604e-05;0.00022545078536495566;3.771135015995242e-05;-0.0006533722626045346;0.0;-9.192875927642771e-26;True;False

10547.435;4.674479007720947;-1.5174676974168797;2.1036298910724085;-2.1570946178831996;-1.5708254019366663;3.103722095489502;-3.639230635599233e-05;0.00016608949226792902;4.67682839371264e-05;-0.0015581919578835368;0.0;-2.729447556757457e-33;True;False

10547.455;4.67452335357666;-1.5174807508340855;2.103645149861471;-2.157070299188131;-1.5707772413836878;3.103747606277466;-2.5913672288879752e-05;0.00017915459466166794;3.986324372817762e-05;-0.0004861531488131732;0.0;-8.103989278883282e-41;True;False

10547.475;4.674511909484863;-1.5173948568156739;2.103605095540182;-2.157045980493063;-1.5708168188678187;3.1037344932556152;-3.823091901722364e-05;0.00015376861847471446;4.631318734027445e-05;-0.0003000589495059103;0.0;-0.0;True;False

10547.494999999999;4.67452335357666;-1.517417912637331;2.1036904493915003;-2.15708651165151;-1.5707891623126429;3.103743314743042;-1.6444195352960378e-05;0.0001396346342517063;4.103423998458311e-05;-0.0002365642285440117;0.0;-0.0;True;False

10547.515;4.674540042877197;-1.517389429067709;2.1036904493915003;-2.157057901422018;-1.570813004170553;3.103726387023926;-2.7807636797660962e-05;0.00014014395128469914;5.520106424228288e-05;-0.00017804864910431206;0.0;-0.0;True;False

10547.535;4.67452335357666;-1.5173905429295083;2.103661839162008;-2.1570540867247523;-1.5707891623126429;3.103705883026123;-2.408665204711724e-05;0.00012823607539758086;3.2458854093420086e-06;-0.00011197390995221213;0.0;-0.0;True;False

10547.555;4.674482345581055;-1.517354679559805;2.1036904493915003;-2.157045980493063;-1.5708168188678187;3.103726387023926;-2.1243951778160408e-05;0.0001208984904224053;4.5707734174801914e-18;-8.966019231593236e-05;0.0;-0.0;True;False

10547.574999999999;4.674495697021484;-1.5173818257502099;2.1036747137652796;-2.1570784054198207;-1.5708168188678187;3.1037302017211914;-1.7977008499436148e-13;-1.964822970990099e-09;6.436446589396374e-30;-7.47628218960017e-05;0.0;-0.0;True;False

10547.595;4.674519062042236;-1.5174849082580586;2.103694740925924;-2.1570784054198207;-1.5708168188678187;3.103726387023926;-1.4050937441348199e-33;-1.5357175792814918e-29;9.063598467252917e-42;-5.130192221258767e-05;0.0;-0.0;True;False

10547.615;4.674511909484863;-1.5173991707018395;2.103699032460348;-2.1570102177061976;-1.5708211104022425;3.1037025451660156;0.0;0.0;0.0;-4.489260754780844e-05;0.0;-0.0;True;False

10547.635;4.67446231842041;-1.5174023744514962;2.103645149861471;-2.1570545635619105;-1.5708373228656214;3.103705883026123;0.0;0.0;0.0;-3.991500852862373e-05;0.0;-0.0;True;False

10547.654999999999;4.674498558044434;-1.517443874185421;2.1036418120013636;-2.157005926171774;-1.5707524458514612;3.103747606277466;0.0;0.0;0.0;-1.1851125549661168e-12;0.0;-0.0;True;False

10547.675;4.674577236175537;-1.5174023632756253;2.103670899068014;-2.157126565972799;-1.570813004170553;3.103710174560547;0.0;0.0;0.0;-3.5187058030003913e-20;0.0;-3.296102590866212e-08;True;False

10547.695;4.674499988555908;-1.5174361330321808;2.1036375204669397;-2.157081743279928;-1.5707843939410608;3.1037089824676514;0.0;0.0;0.0;-1.0447354316969307e-27;0.0;7.179645035648718e-05;True;False

10547.715;4.6744794845581055;-1.5174196746996422;2.103612724934713;-2.157098432580465;-1.5707605520831507;3.103689670562744;0.0;0.0;0.0;-3.1019143523758964e-35;0.0;4.01669749408029e-05;True;False

10547.734999999999;4.674556732177734;-1.5173712533763428;2.103633228932516;-2.157042165795797;-1.5707686583148401;3.103726387023926;0.0;0.0;0.0;-9.206530910614048e-43;0.0;2.7768255677074194e-05;True;False

10547.755;4.674577236175537;-1.5174362447908898;2.1036861578570765;-2.157074590722555;-1.570784870778219;3.103726387023926;0.0;0.0;9.250814090450143e-14;-0.0;0.0;2.1219748305156827e-05;True;False

10547.775;4.674482345581055;-1.5174023371985932;2.1036623159991663;-2.157158990899557;-1.5707772413836878;3.103762626647949;0.0;0.0;6.449312004580543e-12;-0.0;0.0;2.3155629605753347e-05;True;False

10547.795;4.674563884735107;-1.5175207567266007;2.1034587065326136;-2.157285829583639;-1.570801083241598;3.1037702560424805;0.0;-0.0008543257135897875;-0.00047071828157640994;-0.0194808728992939;0.0;0.0004935084143653512;True;False

10547.814999999999;4.6745476722717285;-1.517550305729248;2.1034749189959925;-2.157337804833883;-1.5707648436175745;3.1037259101867676;-8.368754578214066e-09;0.0002563242451287806;-4.2793540933061536e-10;-0.0006703229737468064;0.0;3.477355070558019e-10;True;False

10547.835;4.674511909484863;-1.5175503243556996;2.1034544149981897;-2.1572891674437464;-1.5707724730121058;3.1037344932556152;6.919320730958134e-05;0.0011416408233344555;0.0013743765885010362;-4.6767610911047086e-05;0.0;1.0324582201394948e-17;True;False

10547.855;4.67446231842041;-1.5175337579897423;2.1034701506244105;-2.157342096368307;-1.5707925001727503;3.103705883026123;1.750114449202779e-21;0.0012397239916026592;0.0010779144940897822;0.0010011406848207116;0.0;3.065460722615815e-25;True;False

10547.875;4.674561023712158;-1.5174817529371758;2.103438202534811;-2.157273908654684;-1.5708335081683558;3.10370135307312;1.3679475608738864e-41;0.0017340758349746466;0.0007267782930284739;0.0017469007289037108;0.0;9.101627210438408e-33;True;False

10547.894999999999;4.674593448638916;-1.5175361794284363;2.1034587065326136;-2.1572610340514125;-1.5707648436175745;3.103750705718994;0.0;0.0013558848295360804;0.0014930738834664226;0.0022538448683917522;0.0;2.70236204949648e-40;True;False

10547.914999999999;4.6745076179504395;-1.5174785678139706;2.1035035292254847;-2.1572662792601527;-1.5707405249225062;3.103685140609741;0.0;0.0010644712019711733;0.001936663524247706;0.0039676944725215435;0.0;0.0;True;True

10547.935;4.6744704246521;-1.5175395061126729;2.103445831929342;-2.157097955743307;-1.5708006064044397;3.103717565536499;0.0;-0.007668400648981333;-0.007127539720386267;0.031045451760292053;0.0;0.0;True;True

10547.955;4.674492359161377;-1.5176099103740235;2.1032422224627894;-2.1564184627928675;-1.5707648436175745;3.103705883026123;0.0;-0.011605756357312202;-0.018050381913781166;0.04160939157009125;0.0;0.0;True;True

10547.975;4.674540996551514;-1.5178607267192383;2.1029275099383753;-2.155093332330221;-1.5708087126361292;3.103771448135376;0.0;-0.022697972133755684;-0.03366251289844513;0.06532979756593704;0.0;-1.1031377653125674e-05;True;True

10547.994999999999;4.6745076179504395;-1.5182756458273907;2.1022756735431116;-2.1532846889891566;-1.5708406607257288;3.1037344932556152;0.0;-0.03445815667510033;-0.05011344328522682;0.09149052947759628;0.0;-7.409976205963176e-07;True;True

10548.015;4.674548625946045;-1.519245271836855;2.100861374531881;-2.1513592205443324;-1.570784870778219;3.103766918182373;0.0;-0.05539938434958458;-0.09024306386709213;0.11470969021320343;0.0;-2.2000889676157716e-14;True;True

10548.035;4.674511909484863;-1.5204316575876256;2.0986526648150843;-2.148572107354635;-1.570829216633932;3.103705883026123;0.0;-0.06374403834342957;-0.11020798236131668;0.14998361468315125;0.0;-6.532263068789732e-22;True;True

10548.055;4.674466609954834;-1.5217652481845398;2.096531693135397;-2.145278116265768;-1.5707967917071741;3.103705883026123;0.0;-0.07134885340929031;-0.11186067014932632;0.1792813241481781;0.0;-1.9394880398058913e-29;True;True

10548.074999999999;4.674520492553711;-1.5233312782696267;2.094081226979391;-2.141256948510641;-1.570813004170553;3.103750705718994;0.0;-0.0819755420088768;-0.12674376368522644;0.21065953373908997;0.0;-5.758515639578781e-37;True;True

10548.095;4.674569606781006;-1.525046282713749;2.091342274342672;-2.1369244060912074;-1.5707767645465296;3.1037089824676514;0.0;-0.09264733642339706;-0.15112115442752838;0.2308989018201828;0.0;-1.6815581571897805e-44;True;True

10548.115;4.6745076179504395;-1.52706632137809;2.0881345907794397;-2.1319695911803187;-1.5707686583148401;3.103722095489502;0.0;-0.1014057844877243;-0.16106542944908142;0.2566263675689697;0.0;-0.0;True;True

10548.135;4.6745076179504395;-1.529197373693325;2.084693257008688;-2.1262108288206996;-1.5708048979388636;3.103755235671997;0.0;-0.11001243442296982;-0.18458670377731323;0.2982669770717621;0.0;-0.0;True;True

10548.154999999999;4.674499988555908;-1.5315780614367505;2.08095628419985;-2.12011780361318;-1.5708048979388636;3.103705883026123;0.0;-0.11902173608541489;-0.19327974319458008;0.32503485679626465;0.0;-5.516187684406759e-06;True;True

10548.175;4.674519062042236;-1.5341396753541012;2.0768168608294886;-2.113438745538229;-1.570784870778219;3.103705883026123;0.0;-0.13326214253902435;-0.21642693877220154;0.3578084409236908;0.0;1.588907980476506e-05;True;True

10548.195;4.674548625946045;-1.53699296087537;2.0722840468036097;-2.106185098687643;-1.5707891623126429;3.103677749633789;0.0;-0.1434972584247589;-0.23016564548015594;0.38204023241996765;0.0;4.717611392680843e-13;True;True

10548.215;4.674544334411621;-1.5399137300303956;2.0673306624041956;-2.0984116993346156;-1.570784870778219;3.1037089824676514;0.0;-0.15581680834293365;-0.25121206045150757;0.40609967708587646;0.0;1.4007012819465543e-20;True;True

10548.234999999999;4.674495697021484;-1.5432632074556132;2.0621560255633753;-2.0899650059142054;-1.5707925001727503;3.1037757396698;0.0;-0.16761325299739838;-0.2724185883998871;0.43041062355041504;0.0;4.158808825521076e-28;True;True

10548.255;4.674482345581055;-1.546628014450409;2.056861702595846;-2.081050535241598;-1.5707886854754847;3.103685140609741;0.0;-0.17924271523952484;-0.2804113030433655;0.4487530291080475;0.0;1.234787651930769e-35;True;True

10548.275;4.6745076179504395;-1.5501956784031172;2.0510247389422815;-2.0716544590392054;-1.5708168188678187;3.103717565536499;0.0;-0.19276553392410278;-0.30205658078193665;0.4862079918384552;0.0;3.671401976531021e-43;True;True

10548.295;4.674458026885986;-1.5541110143861552;2.0447624365436;-2.0615230999388636;-1.5707843939410608;3.103778839111328;0.0;-0.2017412781715393;-0.31603914499282837;0.5100852251052856;0.0;0.0;True;True

10548.314999999999;4.674466133117676;-1.5581998213059087;2.038286034260885;-2.0508319340147914;-1.5707967917071741;3.1037464141845703;0.0;-0.20871640741825104;-0.32539230585098267;0.5440226793289185;0.0;0.0;True;True

10548.335;4.674540042877197;-1.5625013991123815;2.0313904921161097;-2.0397402248778285;-1.5707925001727503;3.1037259101867676;0.0;-0.22043447196483612;-0.35144534707069397;0.5636636018753052;0.0;0.0;True;True

10548.355;4.674540996551514;-1.5670086248176922;2.0241807142840784;-2.0279981098570765;-1.570801083241598;3.103717565536499;0.0;-0.23038800060749054;-0.3624551296234131;0.6006841063499451;0.0;0.0;True;True

10548.375;4.674482822418213;-1.5714794598021449;2.016907040272848;-2.0162040195860804;-1.5707967917071741;3.103717565536499;0.0;-0.22349263727664948;-0.35702377557754517;0.5766510963439941;0.0;0.0;True;True

10548.394999999999;4.6745076179504395;-1.5758081875243128;2.009970013295309;-2.0049172840514125;-1.570801083241598;3.103713274002075;0.0;-0.20929065346717834;-0.3347174823284149;0.550616979598999;0.0;0.0;True;True

10548.414999999999;4.6744914054870605;-1.5799113712706507;2.0032675901996058;-1.9940859280028285;-1.5708044211017054;3.103739023208618;0.0;-0.20520080626010895;-0.31897419691085815;0.5226720571517944;0.0;0.0;True;True

10548.435;4.6745100021362305;-1.583935876885885;1.996958080922262;-1.983913084069723;-1.5707967917071741;3.103739023208618;0.0;-0.19340835511684418;-0.3007752001285553;0.4949500262737274;0.0;0.0;True;True

10548.455;4.67452335357666;-1.5876599750914515;1.991164509450094;-1.9742471180357875;-1.5708048979388636;3.103713274002075;0.0;-0.18140749633312225;-0.2832218110561371;0.48118606209754944;0.0;0.0;True;True

10548.475;4.674540042877197;-1.5911532841124476;1.9855583349811;-1.9650565586485804;-1.5708044211017054;3.1036689281463623;0.0;-0.1687786728143692;-0.2773300111293793;0.44057029485702515;0.0;0.0;True;True

10548.494999999999;4.674527645111084;-1.5944601498045863;1.980408016835348;-1.9565993748106898;-1.570784870778219;3.103717565536499;0.0;-0.15921832621097565;-0.2548155188560486;0.4107086658477783;0.0;0.0;True;True

10548.515;4.674488067626953;-1.5975219211974085;1.97534686723818;-1.9487525425352992;-1.5707524458514612;3.1036970615386963;0.0;-0.14526425302028656;-0.23608626425266266;0.386482834815979;0.0;0.0;True;True

10548.535;4.674548625946045;-1.600337644616598;1.9706833998309534;-1.941263814965719;-1.5708215872394007;3.103722095489502;0.0;-0.13443613052368164;-0.2197982519865036;0.3664546310901642;0.0;0.0;True;True

10548.555;4.6744914054870605;-1.6030203304686488;1.9664815107928675;-1.9343210659422816;-1.5707719961749476;3.103717565536499;0.0;-0.12482534348964691;-0.20204998552799225;0.34240028262138367;0.0;0.0;True;True

10548.574999999999;4.674504280090332;-1.6053391895689906;1.9627364317523401;-1.9280029735960902;-1.5707529226886194;3.103705883026123;0.0;-0.11631115525960922;-0.1791239082813263;0.3119194805622101;0.0;0.0;True;True

10548.595;4.674581527709961;-1.6075569591917933;1.9592416922198694;-1.9223081074156703;-1.5708168188678187;3.103778839111328;0.0;-0.10715166479349136;-0.17248550057411194;0.2753416895866394;0.0;0.0;True;True

10548.615;4.674503326416016;-1.6095825634398402;1.9559524695025843;-1.9172426662840785;-1.5707762877093714;3.103685140609741;0.0;-0.09805528819561005;-0.14672492444515228;0.23772834241390228;0.0;0.0;True;True

10548.635;4.67452335357666;-1.611276765862936;1.9531615416156214;-1.9124204121031703;-1.5708087126361292;3.103750705718994;0.0;-0.08438986539840698;-0.13729475438594818;0.22317425906658173;0.0;0.0;True;True

10548.654999999999;4.674487113952637;-1.6128441296019496;1.950700585042135;-1.9084860287108363;-1.5707686583148401;3.103710174560547;0.0;-0.0743204653263092;-0.11821051687002182;0.1967068910598755;0.0;0.0;True;True

10548.675;4.674503326416016;-1.6142789326109828;1.9484460989581507;-1.9049059353270472;-1.5707600752459925;3.10370135307312;0.0;-0.06565041840076447;-0.09793326258659363;0.15905384719371796;0.0;0.0;True;True

10548.695;4.674540042877197;-1.6153904400267542;1.946646515523092;-1.901924272576803;-1.5707805792437952;3.1037757396698;0.0;-0.04973496124148369;-0.08587714284658432;0.13745510578155518;0.0;0.0;True;True

10548.715;4.674475193023682;-1.6162482700743617;1.9450858275042933;-1.899461408654684;-1.5708449522601526;3.1037421226501465;0.0;-0.044306520372629166;-0.06611185520887375;0.1044732853770256;0.0;0.0;True;True

10548.734999999999;4.674535751342773;-1.616979261437887;1.9439709822284144;-1.8977853260436;-1.5707643667804163;3.103759527206421;0.0;-0.030740629881620407;-0.051752720028162;0.07869278639554977;0.0;0.0;True;True

10548.755;4.674556255340576;-1.6175314388670863;1.94324237505068;-1.896496435204977;-1.5708087126361292;3.1037344932556152;0.0;-0.019571956247091293;-0.028892757371068;0.054551899433135986;0.0;0.0;True;True

10548.775;4.674540042877197;-1.6177989445128382;1.9428351561175745;-1.8957058391966761;-1.570801083241598;3.103722095489502;0.0;-0.008670635521411896;-0.012398979626595974;0.023972535505890846;0.0;0.0;True;True

10548.795;4.674503326416016;-1.617753644982809;1.9427674452411097;-1.895646711389059;-1.5707767645465296;3.1036970615386963;-0.004804912954568863;0.003598280716687441;0.0006714520277455449;-0.007084819953888655;0.0;0.0;True;True

10548.814999999999;4.674132347106934;-1.617638727227682;1.9426716009723108;-1.895639558831686;-1.5707719961749476;3.10337495803833;-0.0349358469247818;0.010231791995465755;-0.014170071110129356;0.0012071734527125955;0.0;-0.026177166029810905;True;True

10548.835;4.673161506652832;-1.6174022159972132;1.9422395865069788;-1.8956195316710414;-1.570772949849264;3.1023857593536377;-0.06061549112200737;0.012881222181022167;-0.025939544662833214;0.003807572415098548;0.0;-0.06084730103611946;True;True

10548.855;4.671692848205566;-1.617098947564596;1.9417246023761194;-1.8954478702940882;-1.5707967917071741;3.1008224487304688;-0.0880495235323906;0.02023008093237877;-0.029166970402002335;0.008945261128246784;0.0;-0.08982005715370178;True;True

10548.875;4.669677734375;-1.6165734730162562;1.9410861174212855;-1.8952352009215296;-1.5708254019366663;3.098745822906494;-0.11874344199895859;0.030334684997797012;-0.03603178262710571;0.008503405377268791;0.0;-0.1160561665892601;True;True

10548.894999999999;4.66689920425415;-1.6159388027586878;1.940207306538717;-1.8950478039183558;-1.5708497206317347;3.0961410999298096;-0.14427055418491364;0.038282424211502075;-0.04946470260620117;0.007214519195258617;0.0;-0.14305643737316132;True;True

10548.914999999999;4.663780689239502;-1.615077634850973;1.9390834013568323;-1.8949324093260707;-1.5708053747760218;3.0928595066070557;-0.17165952920913696;0.0479305200278759;-0.055861473083496094;0.008773325011134148;0.0;-0.1697019636631012;True;True

10548.935;4.659991264343262;-1.6141187153258265;1.937887970601217;-1.89469637493276;-1.5708087126361292;3.089094400405884;-0.20182949304580688;0.05517005920410156;-0.06115197762846947;0.01150273997336626;0.0;-0.19970081746578217;True;True

10548.955;4.655694007873535;-1.6129652462401332;1.936634365712301;-1.8945046863951625;-1.5707772413836878;3.0849153995513916;-0.23147563636302948;0.0614362433552742;-0.06983093917369843;0.011501039378345013;0.0;-0.22754816710948944;True;True

10548.975;4.65077018737793;-1.6116634807982386;1.9351990858661097;-1.8942176304259242;-1.5708168188678187;3.0800020694732666;-0.25669386982917786;0.07043831050395966;-0.08346901088953018;0.011220047250390053;0.0;-0.26222726702690125;True;True

10548.994999999999;4.645208358764648;-1.610201974908346;1.933378044758932;-1.8939577541747035;-1.5707891623126429;3.074577808380127;-0.2819114029407501;0.0770399272441864;-0.09692101180553436;0.013506363146007061;0.0;-0.28685271739959717;True;True

10549.015;4.6392717361450195;-1.6085902653136195;1.9314115683185022;-1.8937026462950648;-1.570784870778219;3.068587303161621;-0.30667951703071594;0.0839875265955925;-0.10099537670612335;0.015481272712349892;0.0;-0.3092014193534851;True;True

10549.035;4.632914066314697;-1.606786390344137;1.929295841847555;-1.893355508843893;-1.570801083241598;3.062002420425415;-0.3373246192932129;0.09363128989934921;-0.10503657162189484;0.019119301810860634;0.0;-0.33941224217414856;True;True

10549.055;4.625769138336182;-1.6049090824522914;1.9271181265460413;-1.8929087124266566;-1.570772949849264;3.054868698120117;-0.3702504336833954;0.09794764965772629;-0.11565636843442917;0.020636506378650665;0.0;-0.36673638224601746;True;True

10549.074999999999;4.618124485015869;-1.602872987786764;1.9246113936053675;-1.8924929104247035;-1.5707610289203089;3.047297477722168;-0.3997440040111542;0.1039472371339798;-0.13186651468276978;0.01863372139632702;0.0;-0.39634010195732117;True;True

10549.095;4.60971736907959;-1.600711008111471;1.9219453970538538;-1.8921739063658656;-1.570829216633932;3.0390141010284424;-0.4250250458717346;0.113579161465168;-0.13206607103347778;0.021559327840805054;0.0;-0.4257284998893738;True;True

10549.115;4.601032257080078;-1.5983439884581507;1.919244114552633;-1.891595026055807;-1.570772949849264;3.0301620960235596;-0.44802403450012207;0.11870069056749344;-0.14214245975017548;0.028639864176511765;0.0;-0.44447091221809387;True;True

10549.135;4.5918121337890625;-1.5958787403502406;1.9162119070636194;-1.891064783135885;-1.5708091894732874;3.0210487842559814;-0.4837479591369629;0.12325993925333023;-0.15152069926261902;0.0239111315459013;0.0;-0.47812676429748535;True;True

10549.154999999999;4.581703186035156;-1.593276163140768;1.9129999319659632;-1.890637537042135;-1.570784870778219;3.0111165046691895;-0.5084505081176758;0.13139745593070984;-0.1630195826292038;0.026666205376386642;0.0;-0.5173054933547974;True;True

10549.175;4.571318626403809;-1.5904318294920863;1.9095953146563929;-1.8900710544981898;-1.570756737385885;3.000539541244507;-0.5332534909248352;0.13974149525165558;-0.16848887503147125;0.029105909168720245;0.0;-0.5335837602615356;True;True

10549.195;4.560544013977051;-1.5876933536925257;1.90619403520693;-1.8894077740111292;-1.57074481645693;2.9895527362823486;-0.5661035180091858;0.1486983746290207;-0.1741919219493866;0.030397513881325722;0.0;-0.5568766593933105;True;True

10549.215;4.5486860275268555;-1.5845824680724085;1.9024909178363245;-1.888825079003805;-1.5707967917071741;2.9780473709106445;-0.5924386978149414;0.15649327635765076;-0.19056788086891174;0.030750928446650505;0.0;-0.599237322807312;True;True

10549.234999999999;4.536440372467041;-1.581271310845846;1.8986967245685022;-1.8881665668883265;-1.5708048979388636;2.9657466411590576;-0.6149100661277771;0.1607249677181244;-0.19717146456241608;0.03696122393012047;1.6231307747513468e-12;-0.6122093796730042;True;True

10549.255;4.524177551269531;-1.5779553852477015;1.8947141806231897;-1.8873564205565394;-1.570700470601217;2.953226327896118;-0.6456241607666016;0.17315435409545898;-0.2062445878982544;0.03380391001701355;4.819221457158709e-20;-0.6479634046554565;True;True

10549.275;4.510592937469482;-1.57444491008901;1.890517536793844;-1.8867255649962367;-1.5708006064044397;2.9398858547210693;-0.6792214512825012;0.1828983724117279;-0.22278696298599243;0.033267635852098465;1.4308703262579774e-27;-0.6769604086875916;True;True

10549.295;4.4969482421875;-1.5707782071879883;1.886057202016012;-1.8860107860960902;-1.5707805792437952;2.926119089126587;-0.7025025486946106;0.1838245540857315;-0.2206760048866272;0.037570033222436905;4.248382372721898e-35;-0.6978287696838379;True;True

10549.314999999999;4.4826273918151855;-1.567020477294438;1.8814814726458948;-1.8852092228331507;-1.5707762877093714;2.911673069000244;-0.732115626335144;0.1922955960035324;-0.23392274975776672;0.03444491699337959;1.2611686178923354e-42;-0.7326724529266357;True;True

10549.335;4.46751070022583;-1.5629790483838697;1.8764947096454065;-1.8846103153624476;-1.5708368460284632;2.896864414215088;-0.7612982988357544;0.19881503283977509;-0.2480078637599945;0.04093759506940842;-7.834957796148956e-05;-0.7484317421913147;True;True

10549.355;4.452274322509766;-1.5589593875086685;1.8717740217791956;-1.8835846386351527;-1.570732895527975;2.881383180618286;-0.7794898748397827;0.2037682831287384;-0.24455763399600983;0.04644916579127312;-5.365562537917867e-05;-0.7963209748268127;True;True

10549.375;4.436084270477295;-1.5546877861819048;1.8666394392596644;-1.8827859363951625;-1.5708325544940394;2.865222692489624;-0.8219137191772461;0.21802707016468048;-0.25759801268577576;0.03496424853801727;-4.2421783291501924e-05;-0.8046996593475342;True;True

10549.394999999999;4.419459342956543;-1.550312591051199;1.861321751271383;-1.8818994961180628;-1.5708048979388636;2.8486742973327637;-0.8368573188781738;0.22042931616306305;-0.2710517644882202;0.053094666451215744;-7.160885218127078e-08;-0.8481260538101196;True;True

10549.414999999999;4.402484893798828;-1.545868731369712;1.8558977285968226;-1.8808862171568812;-1.570772949849264;2.8315351009368896;-0.8768259286880493;0.23365212976932526;-0.2769096791744232;0.052969954907894135;-2.126130836397678e-15;-0.863734245300293;True;True

10549.435;4.384559154510498;-1.5411050294390698;1.8502104918109339;-1.8798839054503382;-1.5707967917071741;2.8137457370758057;-0.89736008644104;0.2423841953277588;-0.2855219542980194;0.04208400472998619;-6.312673222857515e-23;-0.9008803963661194;True;True

10549.455;4.366365432739258;-1.5361848448267956;1.8443473021136683;-1.8790737591185511;-1.5707648436175745;2.795668125152588;-0.9294307231903076;0.24709583818912506;-0.29099950194358826;0.04462886601686478;-1.8742900073578724e-30;-0.9226526021957397;True;True

10549.475;4.3475189208984375;-1.531160895978548;1.8384388128863733;-1.878035684625143;-1.570784870778219;2.7765746116638184;-0.9549382328987122;0.2503667175769806;-0.3003385663032532;0.0528450682759285;-5.564936794496759e-38;-0.9511770009994507;True;True

10549.494999999999;4.328127861022949;-1.5260309253684063;1.8322880903827112;-1.876913686791891;-1.570756737385885;2.7574238777160645;-0.9808003902435303;0.2564217150211334;-0.3115801215171814;0.05954176187515259;-1.401298464324817e-45;-0.9885519742965698;True;True

10549.515;4.308239936828613;-1.520760217016079;1.8259485403644007;-1.875894685784811;-1.570836369191305;2.7373714447021484;-1.0107001066207886;0.2639109194278717;-0.3234805166721344;0.053593508899211884;-0.0;-1.003851294517517;True;True

10549.535;4.287696838378906;-1.5154089343598862;1.819275204335348;-1.8747731647887171;-1.5707610289203089;2.716738700866699;-1.0366177558898926;0.274173766374588;-0.330966979265213;0.061775848269462585;-0.0;-1.0363051891326904;True;True

10549.555;4.266705513000488;-1.5099531833878537;1.8125432173358362;-1.8736158810057582;-1.5707929770099085;2.696119785308838;-1.044030785560608;0.2789124846458435;-0.3362545669078827;0.06440237909555435;-0.0;-1.0542395114898682;True;True

10549.574999999999;4.2459397315979;-1.504291148190834;1.8059023062335413;-1.8724595508971156;-1.5708172957049769;2.67506742477417;-1.046768069267273;0.27952882647514343;-0.3300681412220001;0.05385088548064232;-0.0;-1.044737458229065;True;True

10549.595;4.224865913391113;-1.4986132618835946;1.79934007326235;-1.8713733158507289;-1.5707686583148401;2.654017686843872;-1.044148325920105;0.27590125799179077;-0.33811670541763306;0.05049269273877144;-0.0;-1.0460219383239746;True;True

10549.615;4.20391321182251;-1.4931611058167;1.792769734059469;-1.8702837429442347;-1.570824925099508;2.6332545280456543;-1.0449745655059814;0.2733002305030823;-0.3349568545818329;0.06274211406707764;-0.0;-1.051302433013916;True;True

10549.635;4.183104515075684;-1.4876356956413765;1.7859709898578089;-1.8692356548705042;-1.5708168188678187;2.6122472286224365;-1.0496771335601807;0.27785977721214294;-0.33846917748451233;0.05072227492928505;-0.0;-1.0423243045806885;True;True

10549.654999999999;4.162034511566162;-1.4822185796550293;1.7792394796954554;-1.8680740795531214;-1.5708048979388636;2.5911171436309814;-1.0440855026245117;0.2798723578453064;-0.3369137942790985;0.05916111171245575;-0.0;-1.0500080585479736;True;True

10549.675;4.141096591949463;-1.4766141188195725;1.7726238409625452;-1.8668133221068324;-1.570772949849264;2.570418357849121;-1.0423098802566528;0.28074729442596436;-0.3359997570514679;0.06441254168748856;-0.0;-1.0528733730316162;True;True

10549.695;4.12029504776001;-1.4708972212723275;1.7661131064044397;-1.8656846485533656;-1.5708048979388636;2.549315929412842;-1.0519851446151733;0.2810250222682953;-0.33752983808517456;0.047383539378643036;-0.0;-1.0406759977340698;True;True

10549.715;4.099115371704102;-1.4653312352350731;1.7594144980060022;-1.8646913967528285;-1.5708406607257288;2.5282795429229736;-1.0425342321395874;0.2747909724712372;-0.3371880352497101;0.04955730959773064;-0.0;-1.0482046604156494;True;True

10549.734999999999;4.0782647132873535;-1.4599041578224679;1.7525718847857874;-1.8635856113829554;-1.570784870778219;2.5075879096984863;-1.0456959009170532;0.2736786901950836;-0.3390583395957947;0.05334678664803505;-0.0;-1.049752116203308;True;True

10549.755;4.0574541091918945;-1.4544293147376557;1.745939079915182;-1.862432142297262;-1.570836369191305;2.4865920543670654;-1.0518653392791748;0.27596259117126465;-0.34114065766334534;0.05060184746980667;-0.0;-1.0439705848693848;True;True

10549.775;4.036362648010254;-1.4487771850875397;1.739405934010641;-1.8612877331175746;-1.5708168188678187;2.465442419052124;-1.045121192932129;0.281181663274765;-0.33380407094955444;0.05663147568702698;-0.0;-1.0465959310531616;True;True

10549.795;4.01542854309082;-1.4433507484248658;1.7327306906329554;-1.8600994549193324;-1.5708087126361292;2.4447596073150635;-1.0433357954025269;0.27596884965896606;-0.33894532918930054;0.05922621488571167;-0.0;-1.053882360458374;True;True

10549.814999999999;3.9945526123046875;-1.4376336497119446;1.7258876005755823;-1.858990331689352;-1.5708254019366663;2.4236886501312256;-1.0509074926376343;0.27729853987693787;-0.33051520586013794;0.04861971735954285;-0.0;-1.0419423580169678;True;True

10549.835;3.973451614379883;-1.4321155560067673;1.71922475496401;-1.8578721485533656;-1.5708444754229944;2.402709722518921;-1.043289303779602;0.27075204253196716;-0.3323715627193451;0.04605189710855484;-0.0;-1.048258900642395;True;True

10549.855;3.952667236328125;-1.426662878399231;1.712674919758932;-1.8567668400206507;-1.5707929770099085;2.381924867630005;-1.0418916940689087;0.2727322280406952;-0.33053240180015564;0.06249396502971649;-0.0;-1.052159070968628;True;True

10549.875;3.9317574501037598;-1.421151192193367;1.706022087727682;-1.855694433251852;-1.5708087126361292;2.3608286380767822;-1.0548725128173828;0.279358834028244;-0.3339346647262573;0.052900709211826324;-0.0;-1.0390151739120483;True;True

10549.894999999999;3.910698413848877;-1.4155613642982026;1.6993420759784144;-1.8545576534666957;-1.5707967917071741;2.339851140975952;-1.045668363571167;0.28203606605529785;-0.32789620757102966;0.06038045883178711;-0.0;-1.0523086786270142;True;True

10549.914999999999;3.88982892036438;-1.4100036335042496;1.6926029364215296;-1.8533364735045375;-1.5708048979388636;2.3190038204193115;-1.04548180103302;0.27733728289604187;-0.32882773876190186;0.064230777323246;-0.0;-1.0490593910217285;True;True

10549.935;3.868886709213257;-1.4043832433274765;1.6858018080340784;-1.8521791897215785;-1.5708282629596155;2.298070192337036;-1.0518910884857178;0.2756941616535187;-0.3303847312927246;0.052769966423511505;-0.0;-1.0435466766357422;True;True

10549.955;3.8478686809539795;-1.3987887662700196;1.6791580359088343;-1.8511425457396449;-1.570829216633932;2.277012586593628;-1.0424951314926147;0.27612361311912537;-0.32180726528167725;0.053212374448776245;-0.0;-1.0481525659561157;True;True

10549.975;3.8269643783569336;-1.3933618825725098;1.6725781599627894;-1.850049158135885;-1.5708087126361292;2.2561676502227783;-1.0451271533966064;0.2746419608592987;-0.32736146450042725;0.06215229630470276;-0.0;-1.048926591873169;True;True

10549.994999999999;3.8060452938079834;-1.3878232699683686;1.6659358183490198;-1.8489037952818812;-1.5708330313311976;2.235210418701172;-1.0527938604354858;0.2793087065219879;-0.3290530741214752;0.05547723546624184;-0.0;-1.043022871017456;True;True

10550.015;3.785074234008789;-1.3822287780097504;1.6591289679156702;-1.8478065929808558;-1.5708168188678187;2.214160442352295;-1.0459723472595215;0.2809644043445587;-0.3325739800930023;0.05925380438566208;-0.0;-1.0468335151672363;True;True

10550.035;3.76412296295166;-1.3767569226077576;1.6524422804461878;-1.8466059170165003;-1.570829216633932;2.193403482437134;-1.0445438623428345;0.27738404273986816;-0.33396610617637634;0.06751547753810883;-0.0;-1.0503493547439575;True;True

10550.055;3.7431600093841553;-1.3710556340268631;1.6459334532367151;-1.8454252682127894;-1.570829216633932;2.172309398651123;-1.0498957633972168;0.27873510122299194;-0.33202823996543884;0.05767273157835007;-0.0;-1.0432418584823608;True;True

10550.074999999999;3.722172260284424;-1.3655938071063538;1.639338795338766;-1.8442803821959437;-1.5708444754229944;2.151376247406006;-1.0450806617736816;0.27461692690849304;-0.338370680809021;0.05184828117489815;-0.0;-1.0446293354034424;True;True

10550.095;3.701282024383545;-1.3600948017886658;1.6324370543109339;-1.8432980976500453;-1.5707491079913538;2.1305525302886963;-1.0444447994232178;0.27341189980506897;-0.33645719289779663;0.0598587691783905;-0.0;-1.0514925718307495;True;True

10550.115;3.6804230213165283;-1.354631782775261;1.6256111303912562;-1.8421417675414027;-1.5708254019366663;2.109581470489502;-1.053243637084961;0.27927666902542114;-0.3331838548183441;0.059725165367126465;-0.0;-1.041975736618042;True;True

10550.135;3.6593611240386963;-1.3490053129247208;1.6191442648517054;-1.8409720859923304;-1.570824925099508;2.0885941982269287;-1.043346643447876;0.2810557186603546;-0.3347419202327728;0.05765889585018158;-0.0;-1.0464413166046143;True;True

10550.154999999999;3.6384923458099365;-1.343279169206955;1.6125667730914515;-1.8397718868651332;-1.5707810560809534;2.06770396232605;-1.043262004852295;0.27664825320243835;-0.3333236277103424;0.06263138353824615;-0.0;-1.0504070520401;True;True

10550.175;3.6175284385681152;-1.3376901161721726;1.6058977285968226;-1.8386594257750453;-1.5707562605487269;2.046785593032837;-1.0513877868652344;0.2702368497848511;-0.3399953544139862;0.05621995031833649;-0.0;-1.0444755554199219;True;True

10550.195;3.596574306488037;-1.332353026872017;1.5991314093219202;-1.8376132450499476;-1.5707967917071741;2.0257296562194824;-1.045546531677246;0.2730061113834381;-0.3376164138317108;0.05155743658542633;-0.0;-1.0453786849975586;True;True

10550.215;3.5756373405456543;-1.3268856567195435;1.5923646132098597;-1.8365637264647425;-1.5707891623126429;2.004887104034424;-1.044858455657959;0.27714231610298157;-0.3386244773864746;0.05961862951517105;-0.0;-1.0528720617294312;True;True

10550.234999999999;3.55469012260437;-1.3213110727122803;1.5858309904681605;-1.835318227807516;-1.5708211104022425;1.983893632888794;-1.0514222383499146;0.2821502685546875;-0.3326602876186371;0.05661282688379288;-0.0;-1.0414745807647705;True;True

10550.255;3.533755302429199;-1.3155783873847504;1.579202953969137;-1.8342777691283167;-1.5707691351519983;1.9628798961639404;-1.0455877780914307;0.2804391384124756;-0.33975520730018616;0.05580748990178108;-0.0;-1.0435863733291626;True;True

10550.275;3.5128159523010254;-1.3100209397128602;1.572540585194723;-1.8330689869322718;-1.5708335081683558;1.9420461654663086;-1.0442780256271362;0.2741653025150299;-0.336259663105011;0.059452272951602936;-0.0;-1.052009105682373;True;True

10550.295;3.491830587387085;-1.3044792276671906;1.565751854573385;-1.831888338128561;-1.5707648436175745;1.921104907989502;-1.0515040159225464;0.2737501859664917;-0.3383040726184845;0.05503786727786064;-0.0;-1.0429872274398804;True;True

10550.314999999999;3.470942735671997;-1.2991073292544861;1.5589969793902796;-1.8308903179564417;-1.5708048979388636;1.9000256061553955;-1.0452684164047241;0.2755289375782013;-0.338802307844162;0.04657522216439247;-0.0;-1.0440683364868164;True;True

10550.335;3.4499242305755615;-1.2935500901988526;1.5524147192584437;-1.8297935924925746;-1.570772949849264;1.8792215585708618;-1.0471006631851196;0.2812531292438507;-0.3344489634037018;0.05698041245341301;-0.0;-1.049999475479126;True;True

10550.355;3.428983449935913;-1.2879356902888794;1.54580003419985;-1.8286205730833949;-1.5707929770099085;1.8582985401153564;-1.050891637802124;0.2821577191352844;-0.33844590187072754;0.05275283008813858;-0.0;-1.0458133220672607;True;True

10550.375;3.4080920219421387;-1.2823183101466675;1.5391700903521937;-1.8275476894774378;-1.5707605520831507;1.837202787399292;-1.0453907251358032;0.27758410573005676;-0.33298107981681824;0.05065347999334335;-0.0;-1.0423153638839722;True;True

10550.394999999999;3.3873491287231445;-1.2768206757358094;1.5324528853045862;-1.8264380894102992;-1.5708168188678187;1.816650390625;-1.0238025188446045;0.2706219553947449;-0.3248368203639984;0.0525490827858448;-0.0;-1.0270915031433105;True;True

10550.414999999999;3.367155075073242;-1.2715799373439332;1.526059929524557;-1.8252812824644984;-1.5708211104022425;1.796384334564209;-0.9978649616241455;0.26156917214393616;-0.3160686790943146;0.05546271428465843;-0.0;-0.9931187629699707;True;True

10550.435;3.3476552963256836;-1.266435132627823;1.5198376814471644;-1.824184080163473;-1.5707767645465296;1.7767763137817383;-0.9635950326919556;0.257046639919281;-0.30336490273475647;0.045287199318408966;-0.0;-0.9622036814689636;True;True

10550.455;3.3286385536193848;-1.261380360727646;1.513813320790426;-1.8231855831541957;-1.5708006064044397;1.7578543424606323;-0.9399740099906921;0.25142261385917664;-0.2943374514579773;0.050796426832675934;-0.0;-0.9425923824310303;True;True

10550.475;3.3101186752319336;-1.2564477783492585;1.5078871885882776;-1.8222795925536097;-1.5708282629596155;1.7392327785491943;-0.9143032431602478;0.24278266727924347;-0.2920444905757904;0.04992268979549408;-0.0;-0.908962070941925;True;True

10550.494999999999;3.29219913482666;-1.251699761753418;1.5021160284625452;-1.821277757684225;-1.5708125273333948;1.7213881015777588;-0.877669095993042;0.23209601640701294;-0.2851131558418274;0.05030651390552521;-0.0;-0.8832734823226929;True;True

10550.515;3.2748796939849854;-1.2470022600940247;1.49662954012026;-1.82035555462026;-1.5708964506732386;1.7040413618087769;-0.8609763979911804;0.22338935732841492;-0.2767772376537323;0.049519628286361694;-0.0;-0.8523678779602051;True;True

10550.535;3.2579314708709717;-1.242517666225769;1.4913762251483362;-1.8193770847716273;-1.5708168188678187;1.6871806383132935;-0.826977014541626;0.21659357845783234;-0.26060476899147034;0.04714122787117958;-0.0;-0.8351237773895264;True;True

10550.555;3.2417588233947754;-1.2383492451957245;1.4861987272845667;-1.8184391460814417;-1.570772949849264;1.6709997653961182;-0.7976541519165039;0.20646414160728455;-0.25295335054397583;0.04480840265750885;-0.0;-0.8026015162467957;True;True

10550.574999999999;3.226179838180542;-1.234188274746277;1.4811318556415003;-1.8176280460753382;-1.5708134810077112;1.6552456617355347;-0.7687402367591858;0.2038099616765976;-0.24889124929904938;0.04202178120613098;2.3328663219940315e-12;-0.7732023596763611;True;True

10550.595;3.210972547531128;-1.2302134794047852;1.4762981573687952;-1.8168527088561;-1.5708168188678187;1.6402606964111328;-0.7490842938423157;0.20159213244915009;-0.2410316914319992;0.038199685513973236;6.92648991703169e-20;-0.7422381639480591;True;True

10550.615;3.1964023113250732;-1.2263812583735962;1.4715779463397425;-1.816141267816061;-1.570784870778219;1.62566077709198;-0.7084658145904541;0.1913640946149826;-0.22467860579490662;0.035136014223098755;2.0565366909728618e-27;-0.7192962169647217;True;True

10550.635;3.1824822425842285;-1.2226472657969971;1.467086140309469;-1.815374036828512;-1.5708211104022425;1.6116048097610474;-0.6894129514694214;0.18549132347106934;-0.22017315030097961;0.037011947482824326;6.106043416386466e-35;-0.6875101327896118;True;True

10550.654999999999;3.1689658164978027;-1.2190099221519013;1.4629400412188929;-1.8145858250060023;-1.5707967917071741;1.5981429815292358;-0.6548095345497131;0.17615735530853271;-0.2074011266231537;0.03976889327168465;0.00010451125126564875;-0.6602399945259094;True;True

