Andreas691667/Digital_Twin_UR/src/utilities/data_analysis/test_results/robot_output_dynamic_threshold_long.csv
timestamp actual_q_0 actual_q_1 actual_q_2 actual_q_3 actual_q_4 actual_q_5 actual_qd_0 actual_qd_1 actual_qd_2 actual_qd_3 actual_qd_4 actual_qd_5 output_bit_register_65 output_bit_register_66

877.573 3.712078809738159 -0.8254663509181519 0.8430331389056605 -1.588297029534811 -1.570853058491842 2.141284227371216 0.0 0.0 0.0 -0.0 0.0 -0.0 False False

877.593 3.712066888809204 -0.8254707616618653 0.8430255095111292 -1.5882607899107875 -1.5708254019366663 2.14127516746521 0.0 0.0 0.0 -0.0 0.0 -0.0 False False

877.6129999999999 3.712095022201538 -0.825450138454773 0.8429635206805628 -1.588320871392721 -1.5707925001727503 2.14131760597229 0.0 0.0 0.0 -0.0 0.0 -0.0 False False

877.6329999999999 3.712062358856201 -0.8255070012858887 0.8429678122149866 -1.5883056126036585 -1.5708087126361292 2.141333818435669 0.0 0.0 0.0 -0.0 0.0 -0.0 False False

877.6529999999999 3.7120535373687744 -0.8254469198039551 0.8430126349078577 -1.5883370838561 -1.5707724730121058 2.1413004398345947 0.0 0.0 0.0 -0.0 0.0 -0.0 False False

877.673 3.7120981216430664 -0.825450138454773 0.8429835478412073 -1.5882889233031214 -1.5707967917071741 2.1412394046783447 0.0 0.0 0.0 -0.0 0.0 -0.0 False False

877.693 3.7120535373687744 -0.8254912060550232 0.8430169264422815 -1.5882731876769007 -1.5707805792437952 2.14131760597229 0.0 0.0 0.0 -0.0 0.0 -0.0 False False

877.713 3.712127923965454 -0.8254426282695313 0.8429845015155237 -1.5882612667479457 -1.570813004170553 2.141296148300171 0.0 0.0 0.0 -0.0 0.0 -0.0 False False

877.733 3.7120490074157715 -0.825491265659668 0.8430407683001917 -1.5882846317686976 -1.5707767645465296 2.141279697418213 0.0 0.0 0.0 -0.0 0.0 -0.0 False False

877.7529999999999 3.712106943130493 -0.8254707616618653 0.8430331389056605 -1.5883251629271449 -1.570813004170553 2.141263246536255 0.0 0.0 0.0 -0.0 0.0 -0.0 False False

877.7729999999999 3.7120742797851562 -0.8254674238017579 0.8430331389056605 -1.5883251629271449 -1.5708048979388636 2.141267776489258 0.0 0.0 0.0 -0.0 0.0 -0.0 False False

877.793 3.712095260620117 -0.8254545491984864 0.8429802099810999 -1.588269372979635 -1.5708254019366663 2.141296148300171 0.0 0.0 0.0 -0.0 0.0 -0.0 False False

877.813 3.7120490074157715 -0.8255285781672974 0.8429716269122522 -1.5882817707457484 -1.5707925001727503 2.1412513256073 0.0 0.0 0.0 -0.0 0.0 -0.0 False False

877.833 3.712087631225586 -0.8255080741694947 0.8429845015155237 -1.5883170566954554 -1.5708335081683558 2.141279697418213 0.0 0.0 0.0 -0.0 0.0 -0.0 False False

877.853 3.712062358856201 -0.8254588407329102 0.8430040518390101 -1.5882250271239222 -1.5707967917071741 2.141267776489258 0.0 0.0 0.0 -0.0 0.0 -0.0 False False

877.8729999999999 3.7121026515960693 -0.825491265659668 0.8430083433734339 -1.588268896142477 -1.5708087126361292 2.1412951946258545 0.0 0.0 0.0 -0.0 0.0 -0.0 False False

877.8929999999999 3.7120742797851562 -0.8255038422397156 0.842931095753805 -1.5882774792113246 -1.570801083241598 2.141258955001831 0.0 0.0 0.0 -0.0 0.0 -0.0 False False

877.913 3.7121145725250244 -0.8254750531962891 0.8429678122149866 -1.588297029534811 -1.5707724730121058 2.141329526901245 0.0 0.0 0.0 -0.0 0.0 -0.0 False False

877.933 3.712116003036499 -0.8254577082446595 0.8430007139789026 -1.588280817071432 -1.5708168188678187 2.141230583190918 0.0 0.0 0.0 -0.0 0.0 -0.0 False False

877.953 3.7120697498321533 -0.8254619997790833 0.8429759184466761 -1.5882169208922328 -1.5707891623126429 2.141334056854248 0.0 0.0 0.0 -0.0 0.0 -0.0 False False

877.973 3.7120862007141113 -0.8254588407329102 0.8430374304400843 -1.588297029534811 -1.5707405249225062 2.141270637512207 0.0 0.0 0.0 -0.0 0.0 -0.0 False False

877.9929999999999 3.712066888809204 -0.825491265659668 0.8430050055133265 -1.5882650814452113 -1.570784870778219 2.141266107559204 0.0 0.0 0.0 -0.0 0.0 -0.0 False False

878.0129999999999 3.7121026515960693 -0.8254954975894471 0.8430007139789026 -1.5883370838561 -1.570784870778219 2.1412513256073 0.0 0.0 0.0 -0.0 0.0 -0.0 False False

878.033 3.7120907306671143 -0.8254716557315369 0.8429635206805628 -1.5882412395873011 -1.5708258787738245 2.1413040161132812 0.0 0.0 0.0 -0.0 0.0 -0.0 False False

878.053 3.7121100425720215 -0.8254825633815308 0.8429802099810999 -1.5883013210692347 -1.5708296934710901 2.141329526901245 0.0 0.0 0.0 -0.0 0.0 -0.0 False False

878.073 3.712087631225586 -0.8254954975894471 0.8430174032794397 -1.5883332691588343 -1.570813004170553 2.141254186630249 0.0 0.0 0.0 -0.0 0.0 -0.0 False False

878.093 3.7120907306671143 -0.8255080741694947 0.8429964224444788 -1.5882655582823695 -1.570801083241598 2.14127516746521 0.0 0.0 0.0 -0.0 0.0 -0.0 False False

878.1129999999999 3.712078809738159 -0.8255038422397156 0.8429544607745569 -1.5882889233031214 -1.5707929770099085 2.141270637512207 0.0 0.0 0.0 -0.0 0.0 -0.0 False False

878.1329999999999 3.712041139602661 -0.825450138454773 0.8429845015155237 -1.588269372979635 -1.5707805792437952 2.141284227371216 0.0 0.0 0.0 -0.0 0.0 -0.0 False False

878.1529999999999 3.712099552154541 -0.8255199950984498 0.8429887930499476 -1.5882650814452113 -1.5708087126361292 2.141242504119873 0.0 0.0 0.0 -0.0 0.0 -0.0 False False

878.173 3.7120697498321533 -0.8254750531962891 0.8429721037494105 -1.5882417164244593 -1.5708087126361292 2.141270637512207 0.0 0.0 0.0 -0.0 0.0 -0.0 False False

878.193 3.7120935916900635 -0.8254546088031312 0.8430426756488245 -1.5883013210692347 -1.5708211104022425 2.1412723064422607 0.0 0.0 0.0 -0.0 0.0 -0.0 False False

878.213 3.712036609649658 -0.825483576660492 0.8429802099810999 -1.588297029534811 -1.5708053747760218 2.14127516746521 0.0 0.0 0.0 -0.0 0.0 -0.0 False False

878.233 3.712111711502075 -0.8255243462375184 0.842971150075094 -1.5882569752135218 -1.5707724730121058 2.1413049697875977 0.0 0.0 0.0 -0.0 0.0 -0.0 False False

878.2529999999999 3.712066888809204 -0.8255285781672974 0.8430264631854456 -1.5883051357665003 -1.5707967917071741 2.141267776489258 0.0 0.0 0.0 -0.0 0.0 -0.0 False False

878.2729999999999 3.7120487689971924 -0.8254869741252442 0.842938248311178 -1.588245531121725 -1.570784870778219 2.141287088394165 0.0 0.0 0.0 -0.0 0.0 -0.0 False False

878.293 3.7120907306671143 -0.825491265659668 0.8429630438434046 -1.5882488689818324 -1.5707967917071741 2.1412603855133057 0.0 0.0 0.0 -0.0 0.0 -0.0 False False

878.313 3.712127923965454 -0.825483576660492 0.8429587523089808 -1.5882817707457484 -1.5707967917071741 2.1412513256073 0.0 0.0 0.0 -0.0 0.0 -0.0 False False

878.333 3.712036609649658 -0.8254383367351075 0.8429473082171839 -1.5882374248900355 -1.5708168188678187 2.141322135925293 0.0 0.0 0.0 -0.0 0.0 -0.0 False False

878.353 3.7120532989501953 -0.8254620593837281 0.8429935614215296 -1.5882774792113246 -1.5708215872394007 2.1413094997406006 0.0 0.0 0.0 -0.0 0.0 -0.0 False False

878.3729999999999 3.7120742797851562 -0.825478271847107 0.8429473082171839 -1.5882417164244593 -1.5707925001727503 2.14131760597229 0.0 0.0 0.0 -0.0 0.0 -0.0 False False

878.3929999999999 3.712087631225586 -0.8254869741252442 0.8429892698871058 -1.588297029534811 -1.5707967917071741 2.1412765979766846 0.0 0.0 0.0 -0.0 0.0 -0.0 False False

878.413 3.712087631225586 -0.8254663509181519 0.8430174032794397 -1.5882569752135218 -1.5708368460284632 2.1412723064422607 0.0 0.0 0.0 -0.0 0.0 -0.0 False False

878.433 3.7120771408081055 -0.825463132267334 0.8429845015155237 -1.588297029534811 -1.570784870778219 2.141270637512207 0.0 0.0 0.0 -0.0 0.0 -0.0 False False

878.453 3.712078809738159 -0.8254707616618653 0.8430307547198694 -1.5883094273009242 -1.570801083241598 2.1412887573242188 0.0 0.0 0.0 -0.0 0.0 -0.0 False False

878.473 3.71209979057312 -0.8255037826350708 0.8429845015155237 -1.588292738000387 -1.5708087126361292 2.1413004398345947 0.0 0.0 0.0 -0.0 0.0 -0.0 False False

878.4929999999999 3.7120578289031982 -0.8254750531962891 0.8429964224444788 -1.5882774792113246 -1.5707762877093714 2.141284227371216 0.0 0.0 0.0 -0.0 0.0 -0.0 False False

878.5129999999999 3.7120532989501953 -0.825491265659668 0.8429473082171839 -1.588245531121725 -1.5708215872394007 2.1412558555603027 0.0 0.0 0.0 -0.0 0.0 -0.0 False False

878.533 3.7120742797851562 -0.825482503776886 0.8429802099810999 -1.588269372979635 -1.5707762877093714 2.1412885189056396 0.0 0.0 0.0 -0.0 0.0 -0.0 False False

878.553 3.7120907306671143 -0.8254545491984864 0.8430083433734339 -1.5882894001402796 -1.5708254019366663 2.141267776489258 0.0 0.0 0.0 -0.0 0.0 -0.0 False False

878.573 3.7120578289031982 -0.8254793447307129 0.8430174032794397 -1.588273664514059 -1.5707967917071741 2.141300678253174 0.0 0.0 0.0 -0.0 0.0 -0.0 False False

878.593 3.712033748626709 -0.8254546088031312 0.8429754416095179 -1.5882650814452113 -1.5708296934710901 2.1412723064422607 0.0 0.0 0.0 -0.0 0.0 -0.0 False False

878.6129999999999 3.712095260620117 -0.825491265659668 0.8429845015155237 -1.5882650814452113 -1.5708087126361292 2.141263246536255 0.0 0.0 0.0 -0.0 0.0 -0.0 False False

878.6329999999999 3.7120907306671143 -0.8255123657039185 0.8429544607745569 -1.5882774792113246 -1.5708330313311976 2.141287088394165 0.0 0.0 0.0 -0.0 0.0 -0.0 False False

878.6529999999999 3.7120697498321533 -0.8255123060992737 0.8430174032794397 -1.5882650814452113 -1.570813004170553 2.14127516746521 0.0 0.0 0.0 -0.0 0.0 -0.0 False False

878.673 3.712066888809204 -0.8254426282695313 0.8430216948138636 -1.588285585443014 -1.5707643667804163 2.141342878341675 0.0 0.0 0.0 -0.0 0.0 -0.0 False False

878.693 3.712087631225586 -0.8254869741252442 0.8430007139789026 -1.5882493458189906 -1.5707762877093714 2.141313076019287 0.0 0.0 0.0 -0.0 0.0 -0.0 False False

878.713 3.7120532989501953 -0.825429694061615 0.8430007139789026 -1.5882612667479457 -1.570756737385885 2.141284227371216 0.0 0.0 0.0 -0.0 0.0 -0.0 False False

878.733 3.712083339691162 -0.8254793447307129 0.8430007139789026 -1.5882569752135218 -1.5707605520831507 2.141254186630249 0.0 0.0 0.0 -0.0 0.0 -0.0 False False

878.7529999999999 3.7120532989501953 -0.8254546088031312 0.8430007139789026 -1.5882774792113246 -1.5708335081683558 2.1412513256073 0.0 0.0 0.0 -0.0 0.0 -0.0 False False

878.7729999999999 3.7120578289031982 -0.8254792851260682 0.8430383841144007 -1.5882569752135218 -1.5707762877093714 2.141263246536255 0.0 0.0 0.0 -0.0 0.0 -0.0 False False

878.793 3.7120907306671143 -0.825482503776886 0.842938248311178 -1.5882569752135218 -1.5708044211017054 2.141279697418213 0.0 0.0 0.0 -0.0 0.0 -0.0 False False

878.813 3.712104082107544 -0.8254546088031312 0.8430007139789026 -1.5883251629271449 -1.570813004170553 2.141237735748291 0.0 0.0 0.0 -0.0 0.0 -0.0 False False

878.833 3.712045669555664 -0.8254350584796448 0.842992130910055 -1.5882607899107875 -1.5707843939410608 2.141242504119873 0.0 0.0 0.0 -0.0 0.0 -0.0 False False

878.853 3.7120742797851562 -0.8254739207080384 0.8429935614215296 -1.5882650814452113 -1.5707843939410608 2.141247034072876 0.0 0.0 0.0 -0.0 0.0 -0.0 False False

878.8729999999999 3.7120368480682373 -0.825491265659668 0.8429473082171839 -1.5882288418211878 -1.570784870778219 2.141279697418213 0.0 0.0 0.0 -0.0 0.0 -0.0 False False

878.8929999999999 3.712087631225586 -0.8255166572383423 0.8430174032794397 -1.5882774792113246 -1.5707767645465296 2.141279697418213 0.0 0.0 0.0 -0.0 0.0 -0.0 False False

878.913 3.712041139602661 -0.8254793447307129 0.842992130910055 -1.5882607899107875 -1.5707643667804163 2.141254186630249 0.0 0.0 0.0 -0.0 0.0 -0.0 False False

878.933 3.7120578289031982 -0.8254673641971131 0.8430007139789026 -1.5882889233031214 -1.570768181477682 2.1413040161132812 0.0 0.0 0.0 -0.0 0.0 -0.0 False False

878.953 3.712045669555664 -0.825463132267334 0.8430216948138636 -1.588297029534811 -1.5707724730121058 2.141221523284912 0.0 0.0 0.0 -0.0 0.0 -0.0 False False

878.973 3.7120578289031982 -0.8254878681949158 0.8429673353778284 -1.5882650814452113 -1.5707643667804163 2.141286849975586 0.0 0.0 0.0 -0.0 0.0 -0.0 False False

878.9929999999999 3.712041139602661 -0.8254469198039551 0.8429754416095179 -1.5882569752135218 -1.5707886854754847 2.141270637512207 0.0 0.0 0.0 -0.0 0.0 -0.0 False False

879.0129999999999 3.7120323181152344 -0.8254869741252442 0.8429439703570765 -1.5882207355894984 -1.5708296934710901 2.14127516746521 0.0 0.0 0.0 -0.0 0.0 -0.0 False False

879.033 3.712078809738159 -0.8253811162761231 0.8430383841144007 -1.588269372979635 -1.5707605520831507 2.141258716583252 0.0 0.0 0.0 -0.0 0.0 -0.0 False False

879.053 3.712041139602661 -0.8255404394916077 0.8430216948138636 -1.588273664514059 -1.570784870778219 2.141313076019287 0.0 0.0 0.0 -0.0 0.0 -0.0 False False

879.073 3.712111711502075 -0.8254836362651368 0.8429935614215296 -1.5882774792113246 -1.5707805792437952 2.141286849975586 0.0 0.0 0.0 -0.0 0.0 -0.0 False False

879.093 3.712095260620117 -0.8255038422397156 0.8429892698871058 -1.5882932148375453 -1.5707276503192347 2.1412723064422607 0.0 0.0 0.0 -0.0 0.0 -0.0 False False

879.1129999999999 3.7120652198791504 -0.825463132267334 0.8430174032794397 -1.5882774792113246 -1.5708125273333948 2.141242504119873 0.0 0.0 0.0 -0.0 0.0 -0.0 False False

879.1329999999999 3.712062358856201 -0.8254907888225098 0.8429673353778284 -1.5883170566954554 -1.5708330313311976 2.141279697418213 0.0 0.0 0.0 -0.0 0.0 -0.0 False False

879.1529999999999 3.7120862007141113 -0.8254426878741761 0.8429473082171839 -1.5882932148375453 -1.5707767645465296 2.1412558555603027 0.0 0.0 0.0 -0.0 0.0 -0.0 False False

879.173 3.712078809738159 -0.8255361479571839 0.8429845015155237 -1.5882650814452113 -1.5707529226886194 2.141263246536255 0.0 0.0 0.0 -0.0 0.0 -0.0 False False

879.193 3.712041139602661 -0.8254697483829041 0.8429515997516077 -1.5882817707457484 -1.5707810560809534 2.141270637512207 0.0 0.0 0.0 -0.0 0.0 -0.0 False False

879.213 3.7120578289031982 -0.8254555028728028 0.8429892698871058 -1.5882288418211878 -1.5707967917071741 2.1412513256073 0.0 0.0 0.0 -0.0 0.0 -0.0 False False

879.233 3.7120697498321533 -0.82550402105365 0.8429673353778284 -1.5882607899107875 -1.5708044211017054 2.1413040161132812 0.0 0.0 0.0 -0.0 0.0 -0.0 False False

879.2529999999999 3.712033748626709 -0.8254426878741761 0.8429845015155237 -1.5882569752135218 -1.5708087126361292 2.141308546066284 0.0 0.0 0.0 -0.0 0.0 -0.0 False False

879.2729999999999 3.7120907306671143 -0.8254708212665101 0.8429754416095179 -1.5882650814452113 -1.570768181477682 2.141267776489258 0.0 0.0 0.0 -0.0 0.0 -0.0 False False

879.293 3.712062358856201 -0.8254134219935914 0.8429473082171839 -1.588297029534811 -1.570784870778219 2.141279697418213 0.0 0.0 0.0 -0.0 0.0 -0.0 False False

879.313 3.712045669555664 -0.8255124253085633 0.8429892698871058 -1.588297029534811 -1.5708168188678187 2.141282558441162 0.0 0.0 0.0 -0.0 0.0 -0.0 False False

879.333 3.712095260620117 -0.825491265659668 0.8430007139789026 -1.588269372979635 -1.570784870778219 2.141296148300171 0.0 0.0 0.0 -0.0 0.0 -0.0 False False

879.353 3.712108612060547 -0.8254869741252442 0.8430336157428187 -1.588269372979635 -1.5708006064044397 2.1413004398345947 0.0 0.0 0.0 -0.0 0.0 -0.0 False False

879.3729999999999 3.712116003036499 -0.8254426878741761 0.8429935614215296 -1.5883575878539027 -1.5708325544940394 2.141247034072876 0.0 0.0 0.0 -0.0 0.0 -0.0 False False

879.3929999999999 3.7120578289031982 -0.8254997891238709 0.8430007139789026 -1.5882650814452113 -1.5708044211017054 2.141324996948242 0.0 0.0 0.0 -0.0 0.0 -0.0 False False

879.413 3.712123394012451 -0.8255242866328736 0.8430054823504847 -1.588320871392721 -1.5708087126361292 2.141226291656494 0.0 0.0 0.0 -0.0 0.0 -0.0 False False

879.433 3.712078809738159 -0.8254546088031312 0.8430007139789026 -1.588252683679098 -1.5707967917071741 2.141329526901245 0.0 0.0 0.0 -0.0 0.0 -0.0 False False

879.453 3.7120907306671143 -0.8255123060992737 0.8430054823504847 -1.5882932148375453 -1.570784870778219 2.141221523284912 0.0 0.0 0.0 -0.0 0.0 -0.0 False False

879.473 3.7120981216430664 -0.825451211338379 0.8430174032794397 -1.588268896142477 -1.5707967917071741 2.141254186630249 0.0 0.0 0.0 -0.0 0.0 -0.0 False False

879.4929999999999 3.712062358856201 -0.8254707616618653 0.8429754416095179 -1.5882569752135218 -1.5708492437945765 2.141270637512207 0.0 0.0 0.0 -0.0 0.0 -0.0 False False

879.5129999999999 3.7120742797851562 -0.8254793447307129 0.8429887930499476 -1.5882731876769007 -1.570772949849264 2.141221523284912 0.0 0.0 0.0 -0.0 0.0 -0.0 False False

879.533 3.712045669555664 -0.8254750531962891 0.8429845015155237 -1.5882817707457484 -1.570801083241598 2.141267776489258 0.0 0.0 0.0 -0.0 0.0 -0.0 False False

879.553 3.7120234966278076 -0.8254869145205994 0.842987362538473 -1.588297029534811 -1.5708168188678187 2.141249895095825 0.0 0.0 0.0 -0.0 0.0 -0.0 False False

879.573 3.712078809738159 -0.8254997295192261 0.8429892698871058 -1.5882889233031214 -1.5708125273333948 2.141267776489258 0.0 0.0 0.0 -0.0 0.0 -0.0 False False

879.593 3.7121026515960693 -0.8255165380290528 0.8430007139789026 -1.5882774792113246 -1.570829216633932 2.1413204669952393 0.0 0.0 0.0 -0.0 0.0 -0.0 False False

879.6129999999999 3.7121026515960693 -0.8254597348025818 0.8430126349078577 -1.5882774792113246 -1.5707967917071741 2.1412513256073 0.0 0.0 0.0 -0.0 0.0 -0.0 False False

879.6329999999999 3.7120203971862793 -0.8254383963397522 0.8430054823504847 -1.5882817707457484 -1.570784870778219 2.141324996948242 0.0 0.0 0.0 -0.0 0.0 -0.0 False False

879.6529999999999 3.712066888809204 -0.8254577678493042 0.8429845015155237 -1.5882569752135218 -1.5708487669574183 2.141270637512207 0.0 0.0 0.0 -0.0 0.0 -0.0 False False

879.673 3.7120323181152344 -0.8254954975894471 0.8429673353778284 -1.5882607899107875 -1.570784870778219 2.1412885189056396 0.0 0.0 0.0 -0.0 0.0 -0.0 False False

879.693 3.7120773792266846 -0.8254459065249939 0.8429673353778284 -1.5882607899107875 -1.570813004170553 2.141291618347168 0.0 0.0 0.0 -0.0 0.0 -0.0 False False

879.713 3.712029218673706 -0.8254588407329102 0.8429935614215296 -1.588297506371969 -1.570772949849264 2.141247034072876 0.0 0.0 0.0 -0.0 0.0 -0.0 False False

879.733 3.7120697498321533 -0.8255154651454468 0.8429892698871058 -1.588313718835348 -1.570784870778219 2.1412885189056396 0.0 0.0 0.0 -0.0 0.0 -0.0 False False

879.7529999999999 3.712045669555664 -0.8255404394916077 0.8430126349078577 -1.5882774792113246 -1.570801083241598 2.1412782669067383 0.0 0.0 0.0 -0.0 0.0 -0.0 False False

879.7729999999999 3.712099552154541 -0.8254792851260682 0.842971150075094 -1.5882765255370082 -1.5707724730121058 2.141263484954834 0.0 0.0 0.0 -0.0 0.0 -0.0 False False

879.793 3.712099552154541 -0.8254717153361817 0.8429845015155237 -1.588297029534811 -1.570784870778219 2.141291618347168 0.0 0.0 0.0 -0.0 0.0 -0.0 False False

879.813 3.7120819091796875 -0.8254416149905701 0.8429563681231897 -1.5883251629271449 -1.5708335081683558 2.141313076019287 0.0 0.0 0.0 -0.0 0.0 -0.0 False False

879.833 3.712062358856201 -0.8254469794085999 0.8430188337909144 -1.5883251629271449 -1.5707925001727503 2.141226291656494 0.0 0.0 0.0 -0.0 0.0 -0.0 False False

879.853 3.7120862007141113 -0.825425462131836 0.8429587523089808 -1.588252683679098 -1.5707529226886194 2.1413004398345947 0.0 0.0 0.0 -0.0 0.0 -0.0 False False

879.8729999999999 3.7120654582977295 -0.8254965108684083 0.8429721037494105 -1.588313718835348 -1.5708168188678187 2.1413381099700928 0.0 0.0 0.0 -0.0 0.0 -0.0 False False

879.8929999999999 3.712062358856201 -0.825478271847107 0.8429892698871058 -1.5882569752135218 -1.5708335081683558 2.141282558441162 0.0 0.0 0.0 -0.0 0.0 -0.0 False False

879.913 3.7120447158813477 -0.8254383963397522 0.8430007139789026 -1.5882774792113246 -1.5707925001727503 2.141263484954834 0.0 0.0 0.0 -0.0 0.0 -0.0 False False

879.933 3.7120163440704346 -0.8254793447307129 0.8429935614215296 -1.5882650814452113 -1.5707767645465296 2.141275405883789 0.0 0.0 0.0 -0.0 0.0 -0.0 False False

879.953 3.712095022201538 -0.8255200547030945 0.8429845015155237 -1.5882932148375453 -1.5708091894732874 2.141223192214966 0.0 0.0 0.0 -0.0 0.0 -0.0 False False

879.973 3.7120862007141113 -0.825450138454773 0.8429754416095179 -1.5883175335326136 -1.5707767645465296 2.1412885189056396 0.0 0.0 0.0 -0.0 0.0 -0.0 False False

879.9929999999999 3.712045669555664 -0.8255404394916077 0.8429515997516077 -1.5883289776244105 -1.5708168188678187 2.141284227371216 0.0 0.0 0.0 -0.0 0.0 -0.0 False False

880.0129999999999 3.712106943130493 -0.825463132267334 0.8429935614215296 -1.588313718835348 -1.5707605520831507 2.1412839889526367 0.0 0.0 0.0 -0.0 0.0 -0.0 False False

880.033 3.7120862007141113 -0.8254674238017579 0.8429630438434046 -1.5882331333556117 -1.5708048979388636 2.1413047313690186 0.0 0.0 0.0 -0.0 0.0 -0.0 False False

880.053 3.712062358856201 -0.8254954975894471 0.8429721037494105 -1.588297029534811 -1.5707648436175745 2.141235113143921 0.0 0.0 0.0 -0.0 0.0 -0.0 False False

880.073 3.7120325565338135 -0.8254663509181519 0.8429802099810999 -1.5882412395873011 -1.5707686583148401 2.141270637512207 0.0 0.0 0.0 -0.0 0.0 -0.0 False False

880.093 3.712087392807007 -0.8254663509181519 0.8429892698871058 -1.588252683679098 -1.5708254019366663 2.141254425048828 0.0 0.0 0.0 -0.0 0.0 -0.0 False False

880.1129999999999 3.712045669555664 -0.8254546088031312 0.8429845015155237 -1.5883289776244105 -1.570784870778219 2.141214609146118 0.0 0.0 0.0 -0.0 0.0 -0.0 False False

880.1329999999999 3.71207857131958 -0.8254993718913575 0.8429425398456019 -1.5882607899107875 -1.5708335081683558 2.1413424015045166 0.0 0.0 0.0 -0.0 0.0 -0.0 False False

880.1529999999999 3.712062358856201 -0.825491265659668 0.8429673353778284 -1.5882889233031214 -1.5708087126361292 2.141345500946045 0.0 0.0 0.0 -0.0 0.0 -0.0 False False

880.173 3.712095022201538 -0.8254511517337342 0.842992130910055 -1.5882607899107875 -1.5707967917071741 2.14132022857666 0.0 0.0 0.0 -0.0 0.0 -0.0 False False

880.193 3.712106943130493 -0.8254954975894471 0.8429802099810999 -1.588313718835348 -1.570801083241598 2.141258955001831 0.0 0.0 0.0 -0.0 0.0 -0.0 False False

880.213 3.7120370864868164 -0.8254869741252442 0.8429845015155237 -1.5883170566954554 -1.5707605520831507 2.141291618347168 0.0 0.0 0.0 -0.0 0.0 -0.0 False False

880.233 3.7120370864868164 -0.8254707616618653 0.8429892698871058 -1.5882731876769007 -1.5707724730121058 2.141312837600708 0.0 0.0 0.0 -0.0 0.0 -0.0 False False

880.2529999999999 3.712106943130493 -0.8254255217364808 0.8429630438434046 -1.5882774792113246 -1.5708211104022425 2.141295909881592 0.0 0.0 0.0 -0.0 0.0 -0.0 False False

880.2729999999999 3.712095022201538 -0.8254707616618653 0.8429587523089808 -1.5882731876769007 -1.5707925001727503 2.141275405883789 0.0 0.0 0.0 -0.0 0.0 -0.0 False False

880.293 3.7120938301086426 -0.8254673641971131 0.8429754416095179 -1.5883857212462367 -1.5707686583148401 2.141275405883789 0.0 0.0 0.0 -0.0 0.0 -0.0 False False

880.313 3.7120535373687744 -0.8254708212665101 0.8430083433734339 -1.588269372979635 -1.5707886854754847 2.141275405883789 0.0 0.0 0.0 -0.0 0.0 -0.0 False False

880.333 3.712082862854004 -0.8254908484271546 0.8429845015155237 -1.5882817707457484 -1.5708335081683558 2.1413047313690186 0.0 0.0 0.0 -0.0 0.0 -0.0 False False

880.353 3.7120819091796875 -0.825425462131836 0.8430293242083948 -1.588297029534811 -1.570857350026266 2.1412785053253174 0.0 0.0 0.0 -0.0 0.0 -0.0 False False

880.3729999999999 3.712045907974243 -0.82550402105365 0.8429802099810999 -1.5883013210692347 -1.5708048979388636 2.1412265300750732 0.0 0.0 0.0 -0.0 0.0 -0.0 False False

880.3929999999999 3.7121024131774902 -0.8255208891681214 0.8430307547198694 -1.5883056126036585 -1.570829216633932 2.1413002014160156 0.0 0.0 0.0 -0.0 0.0 -0.0 False False

880.413 3.7120742797851562 -0.8255123657039185 0.8429606596576136 -1.5882412395873011 -1.5707724730121058 2.141324758529663 0.0 0.0 0.0 -0.0 0.0 -0.0 False False

880.433 3.712090492248535 -0.8254707616618653 0.8429754416095179 -1.5882374248900355 -1.570784870778219 2.1413044929504395 0.0 0.0 0.0 -0.0 0.0 -0.0 False False

880.473 3.7120862007141113 -0.8254620593837281 0.8429721037494105 -1.5883127651610316 -1.5707486311541956 2.1412558555603027 0.0 0.0 0.0 -0.0 0.0 -0.0 False False

880.4929999999999 3.7121081352233887 -0.8254588407329102 0.8429845015155237 -1.5882488689818324 -1.5707972685443323 2.141270875930786 0.0 0.0 0.0 -0.0 0.0 -0.0 False False

880.5129999999999 3.7121353149414062 -0.825463132267334 0.8429845015155237 -1.5882488689818324 -1.570784870778219 2.1412928104400635 0.0 0.0 0.0 -0.0 0.0 -0.0 False False

880.533 3.7120699882507324 -0.8255285185626526 0.8429802099810999 -1.5882817707457484 -1.570801083241598 2.141247272491455 0.0 0.0 0.0 -0.0 0.0 -0.0 False False

880.553 3.712106943130493 -0.8255080145648499 0.8429258505450647 -1.5882412395873011 -1.5707767645465296 2.141267776489258 0.0 0.0 0.0 -0.0 0.0 -0.0 False False

880.573 3.7120862007141113 -0.8254469794085999 0.8429845015155237 -1.5882774792113246 -1.570829216633932 2.141317129135132 0.0 0.0 0.0 -0.0 0.0 -0.0 False False

880.593 3.7120370864868164 -0.8255242270282288 0.8429845015155237 -1.5882817707457484 -1.5707843939410608 2.141275405883789 0.0 0.0 0.0 -0.0 0.0 -0.0 False False

880.6129999999999 3.7120416164398193 -0.8254417341998597 0.8429763952838343 -1.5882889233031214 -1.570801083241598 2.14125919342041 0.0 0.0 0.0 -0.0 0.0 -0.0 False False

880.6329999999999 3.712082862854004 -0.8254707616618653 0.842992130910055 -1.5882731876769007 -1.5707648436175745 2.141267776489258 0.0 0.0 0.0 -0.0 0.0 -0.0 False False

880.6529999999999 3.7120537757873535 -0.8255284589580079 0.8430083433734339 -1.588297029534811 -1.5707529226886194 2.1413047313690186 0.0 0.0 0.0 -0.0 0.0 -0.0 False False

880.673 3.7120254039764404 -0.8254954975894471 0.8429964224444788 -1.5883051357665003 -1.5707562605487269 2.1413333415985107 0.0 0.0 0.0 -0.0 0.0 -0.0 False False

880.693 3.7121317386627197 -0.8255123060992737 0.8429563681231897 -1.5882774792113246 -1.5707891623126429 2.141279697418213 0.0 0.0 0.0 -0.0 0.0 -0.0 False False

880.713 3.7120776176452637 -0.8254469794085999 0.842992130910055 -1.5883051357665003 -1.5707767645465296 2.141329050064087 0.0 0.0 0.0 -0.0 0.0 -0.0 False False

880.733 3.7120699882507324 -0.8254708212665101 0.8429845015155237 -1.5882336101927699 -1.570801083241598 2.141279697418213 0.0 0.0 0.0 -0.0 0.0 -0.0 False False

880.7529999999999 3.712111234664917 -0.8254708212665101 0.8430245558368128 -1.5882250271239222 -1.5707925001727503 2.141263484954834 0.0 0.0 0.0 -0.0 0.0 -0.0 False False

880.7729999999999 3.712090492248535 -0.8255123060992737 0.8429515997516077 -1.588313718835348 -1.570801083241598 2.1412882804870605 0.0 0.0 0.0 -0.0 0.0 -0.0 False False

880.793 3.7120492458343506 -0.8254912060550232 0.8430126349078577 -1.588273664514059 -1.5707767645465296 2.1412546634674072 0.0 0.0 0.0 -0.0 0.0 -0.0 True False

880.813 3.7120537757873535 -0.8254954975894471 0.8429964224444788 -1.5882612667479457 -1.5707886854754847 2.1413087844848633 0.0 0.0 0.0 -0.0 0.0 -0.0 True False

880.833 3.71207857131958 -0.8254469794085999 0.8430169264422815 -1.5882774792113246 -1.5708168188678187 2.1412925720214844 0.0 0.0 0.0 -0.0 0.0 -0.0 True False

880.853 3.7120296955108643 -0.8254912060550232 0.8430007139789026 -1.58825745205068 -1.5707200209247034 2.1412839889526367 0.0 0.0 0.0 -0.0 0.0 -0.0 True False

880.8729999999999 3.712090492248535 -0.825463132267334 0.8429802099810999 -1.5882374248900355 -1.5707767645465296 2.141295909881592 0.0 0.0 0.0 -0.0 0.0 -0.0 True False

880.8929999999999 3.7120862007141113 -0.8255080741694947 0.8429845015155237 -1.5882894001402796 -1.5707686583148401 2.141263484954834 0.0 0.0 0.0 -0.0 0.0 -0.0 True False

880.913 3.712070941925049 -0.8255489033511658 0.8429515997516077 -1.5882650814452113 -1.570772949849264 2.141324758529663 0.0 0.0 0.0 -0.0 0.0 -0.0 True False

880.933 3.712090492248535 -0.8254877489856263 0.8429964224444788 -1.588297029534811 -1.5707891623126429 2.1412882804870605 0.0 0.0 0.0 -0.0 0.0 -0.0 True False

880.953 3.7121024131774902 -0.8254793447307129 0.8430007139789026 -1.588320871392721 -1.5707843939410608 2.141267776489258 0.0 0.0 0.0 -0.0 0.0 -0.0 True False

880.973 3.712062358856201 -0.8255038422397156 0.8430097738849085 -1.5882493458189906 -1.5707891623126429 2.1413495540618896 0.0 0.0 0.0 -0.0 0.0 -0.0 True False

880.9929999999999 3.7120416164398193 -0.8254951399615784 0.8429845015155237 -1.5882889233031214 -1.5707967917071741 2.1412839889526367 0.0 0.0 0.0 -0.0 0.0 -0.0 True False

881.0129999999999 3.7120370864868164 -0.8255165380290528 0.8429964224444788 -1.5882851086058558 -1.570801083241598 2.1413333415985107 0.0 0.0 0.0 -0.0 0.0 -0.0 True False

881.033 3.7120580673217773 -0.8254511517337342 0.8429887930499476 -1.5883008442320765 -1.570784870778219 2.141324758529663 0.0 0.0 0.0 -0.0 0.0 -0.0 True False

881.053 3.7120580673217773 -0.8254750531962891 0.8429845015155237 -1.5883246860899867 -1.5707967917071741 2.141312837600708 0.0 0.0 0.0 -0.0 0.0 -0.0 True False

881.073 3.7120699882507324 -0.825463132267334 0.8429763952838343 -1.588285585443014 -1.5707767645465296 2.141263484954834 0.0 0.0 0.0 -0.0 0.0 -0.0 True False

881.093 3.712066650390625 -0.825519935493805 0.8429759184466761 -1.5882894001402796 -1.5708087126361292 2.141336441040039 0.0 0.0 0.0 -0.0 0.0 -0.0 True False

881.1129999999999 3.712005853652954 -0.825512246494629 0.842992130910055 -1.5882774792113246 -1.5707605520831507 2.1412839889526367 0.0 0.0 0.0 -0.0 0.0 -0.0 True False

881.1329999999999 3.7120862007141113 -0.8254997295192261 0.8429473082171839 -1.5883170566954554 -1.570801083241598 2.141267776489258 0.0 0.0 0.0 -0.0 0.0 -0.0 True False

881.1529999999999 3.7120699882507324 -0.8254501980594178 0.8429630438434046 -1.588269372979635 -1.5707686583148401 2.1412429809570312 0.0 0.0 0.0 -0.0 0.0 -0.0 True False

881.173 3.7120327949523926 -0.8255037826350708 0.842971150075094 -1.588269372979635 -1.570801083241598 2.141275405883789 0.0 0.0 0.0 -0.0 0.0 -0.0 True False

881.193 3.7120416164398193 -0.8254825633815308 0.8430245558368128 -1.5882846317686976 -1.5707891623126429 2.1412384510040283 0.0 0.0 0.0 -0.0 0.0 -0.0 True False

881.213 3.7120862007141113 -0.8254178327373047 0.8429759184466761 -1.5882731876769007 -1.570801083241598 2.1412742137908936 0.0 0.0 0.0 -0.0 0.0 -0.0 True False

881.233 3.712050199508667 -0.8254908484271546 0.8429520765887659 -1.5882889233031214 -1.5707925001727503 2.141136646270752 0.0 0.0 0.0 -0.0 0.0 -0.0 True False

881.2529999999999 3.7120862007141113 -0.8254993718913575 0.842992130910055 -1.588292738000387 -1.5707767645465296 2.141195774078369 0.0 0.0 0.0 -0.0 0.0 -1.3931082676332807e-10 True False

881.2729999999999 3.7120862007141113 -0.8254792851260682 0.8429802099810999 -1.5883175335326136 -1.5708091894732874 2.1413002014160156 0.0 0.0 0.0 -0.0 0.0 3.906829970645731e-09 True False

881.293 3.7120370864868164 -0.8254708212665101 0.8430169264422815 -1.5882650814452113 -1.5707724730121058 2.1412665843963623 0.0 0.0 0.0 -0.0 0.0 1.1599728430376478e-16 True False

881.313 3.712066650390625 -0.8254459661296387 0.8429721037494105 -1.5882889233031214 -1.5707972685443323 2.141312837600708 0.0 0.0 0.0 -0.0 0.0 5.200673669492062e-09 True False

881.333 3.712099313735962 -0.8254739803126832 0.8430007139789026 -1.5882774792113246 -1.5708048979388636 2.141329050064087 0.0 0.0 0.0 -0.0 0.0 9.750220186788283e-08 True False

881.353 3.71207857131958 -0.825458900337555 0.8429473082171839 -1.5882607899107875 -1.5708211104022425 2.141312837600708 0.0 0.0 0.0 -0.0 0.0 2.8949280089953086e-15 True False

881.3729999999999 3.7120494842529297 -0.825519935493805 0.8430126349078577 -1.5883094273009242 -1.5707290808307093 2.1412763595581055 0.0 0.0 0.0 -0.0 0.0 8.59530536098693e-23 True False

881.3929999999999 3.7120754718780518 -0.8254783314517518 0.8430379072772425 -1.5882932148375453 -1.5707686583148401 2.1412763595581055 0.0 0.0 0.0 -0.0 0.0 4.5611966925207525e-05 True False

881.413 3.712062358856201 -0.825458900337555 0.8430050055133265 -1.5883094273009242 -1.5708211104022425 2.141263484954834 0.0 0.0 0.0 -0.0 0.0 5.533414878300391e-06 True False

881.433 3.712066650390625 -0.8254383963397522 0.8429964224444788 -1.5883251629271449 -1.570784870778219 2.1412148475646973 0.0 0.0 0.0 -0.0 0.0 1.6429206899006704e-13 True False

881.453 3.712062358856201 -0.8254750531962891 0.8430169264422815 -1.5883170566954554 -1.5707805792437952 2.141263484954834 0.0 0.0 0.0 -0.0 0.0 4.877979391866104e-21 True False

881.473 3.7120699882507324 -0.8255327504924317 0.8430050055133265 -1.588297029534811 -1.570801083241598 2.1413040161132812 0.0 0.0 0.0 -0.0 0.0 1.4483162904368363e-28 True False

881.4929999999999 3.7120537757873535 -0.8254621785930176 0.8430083433734339 -1.5882774792113246 -1.5707529226886194 2.1412665843963623 0.0 0.0 0.0 -0.0 0.0 4.300181682104443e-36 True False

881.5129999999999 3.7120044231414795 -0.8255080741694947 0.8429802099810999 -1.5882607899107875 -1.5707967917071741 2.141295909881592 0.0 0.0 0.0 -0.0 0.0 1.2751816025355835e-43 True False

881.533 3.712434768676758 -0.8255123060992737 0.8430007139789026 -1.5882932148375453 -1.570813004170553 2.1417236328125 0.03341137617826462 -0.001101141795516014 0.002261997666209936 -0.0 0.0 0.03479344770312309 True False

881.553 3.7134463787078857 -0.8255708974650879 0.8431938330279749 -1.5883971653380335 -1.5707967917071741 2.142622709274292 0.06196647509932518 -0.0055127558298408985 0.013042277656495571 -0.0029674721881747246 0.0 0.057330965995788574 True False

881.573 3.7149436473846436 -0.8256675761989136 0.8433712164508265 -1.5884329281248988 -1.5708406607257288 2.1441357135772705 0.08871624618768692 -0.0069729904644191265 0.014977478422224522 -0.005641755647957325 0.0 0.08857031911611557 True False

881.593 3.7169759273529053 -0.8258473438075562 0.8437431494342249 -1.5886203251280726 -1.5708254019366663 2.1461966037750244 0.11334425956010818 -0.010418246500194073 0.017738310620188713 -0.010443666018545628 0.0 0.11558376252651215 True False

881.6129999999999 3.7196125984191895 -0.8260548275760193 0.8441532293902796 -1.588884016076559 -1.570829216633932 2.148766279220581 0.14481645822525024 -0.013792120851576328 0.022089675068855286 -0.011338416486978531 0.0 0.14150027930736542 True False

881.6329999999999 3.7228035926818848 -0.8264377278140564 0.8446314970599573 -1.5890308819212855 -1.5708368460284632 2.15191912651062 0.17174537479877472 -0.01847190409898758 0.029157573357224464 -0.010421517305076122 0.0 0.1714368611574173 True False

881.6529999999999 3.7265517711639404 -0.8267533344081421 0.8452914396869105 -1.589262147943014 -1.5708325544940394 2.1556785106658936 0.19966784119606018 -0.01877688430249691 0.033926136791706085 -0.013614133931696415 0.0 0.19519343972206116 True False

881.673 3.730783700942993 -0.8271610301784058 0.8459761778460901 -1.589581152001852 -1.5708254019366663 2.1599314212799072 0.22345508635044098 -0.021710380911827087 0.0394282303750515 -0.013694994151592255 0.0 0.22616702318191528 True False

881.693 3.735605001449585 -0.8276283305934449 0.8468759695636194 -1.5899397335448207 -1.5708611647235315 2.1647820472717285 0.25516852736473083 -0.026166677474975586 0.0459161177277565 -0.018617821857333183 0.0 0.2492891103029251 True False

881.713 3.741088628768921 -0.8281430167010804 0.8478630224810999 -1.5903030834593714 -1.5708211104022425 2.1701862812042236 0.2787889838218689 -0.028479788452386856 0.0476376973092556 -0.02026509679853916 2.1081266073086358e-12 0.2836964726448059 True False

881.733 3.747107982635498 -0.8287860912135621 0.8488958517657679 -1.5907813511290492 -1.5707686583148401 2.1761844158172607 0.31011608242988586 -0.03251730278134346 0.05416856333613396 -0.02292323112487793 0.0002971261565107852 0.31547486782073975 True False

881.7529999999999 3.7534797191619873 -0.8294451397708436 0.8500598112689417 -1.5912558041014613 -1.570784870778219 2.182701826095581 0.33689552545547485 -0.03547464683651924 0.05687286704778671 -0.0255324337631464 0.0002658264129422605 0.3380126953125 True False

881.7729999999999 3.7604105472564697 -0.8302048009685059 0.8512652556048792 -1.591745992700094 -1.5708091894732874 2.189774751663208 0.3654208183288574 -0.036974530667066574 0.058385830372571945 -0.025554252788424492 0.00020781182684004307 0.36151647567749023 True False

881.793 3.7681798934936523 -0.8309833568385621 0.8524540106402796 -1.5922523937621058 -1.5708006064044397 2.1973676681518555 0.39844852685928345 -0.04084334895014763 0.0663168877363205 -0.02509116567671299 0.00014213845133781433 0.3893371820449829 True False

881.813 3.776583433151245 -0.8318599623492737 0.8538730780230921 -1.592762132684225 -1.570813004170553 2.2054948806762695 0.4234222173690796 -0.04324592277407646 0.07371298223733902 -0.027522843331098557 0.00012960551248397678 0.4248794615268707 True False

881.833 3.7852253913879395 -0.8327105206302186 0.8553202787982386 -1.5934530697264613 -1.5707810560809534 2.2143795490264893 0.4524522125720978 -0.0436512790620327 0.07605698704719543 -0.029138214886188507 0.00013879852485843003 0.44971781969070435 True False

881.853 3.7943482398986816 -0.8335820597461243 0.8568885962115687 -1.5940424404540003 -1.5708368460284632 2.223768472671509 0.4737953245639801 -0.04520893469452858 0.08101852238178253 -0.033381398767232895 0.00011676184658426791 0.4777827560901642 True False

881.8729999999999 3.8043155670166016 -0.8345307272723694 0.8586013952838343 -1.5947686634459437 -1.5708325544940394 2.233492612838745 0.5060007572174072 -0.04699595272541046 0.08554699271917343 -0.035402026027441025 0.00010046811803476885 0.5066730976104736 True False

881.8929999999999 3.814955234527588 -0.8355679673007508 0.8603418509112757 -1.5955225429930628 -1.5707686583148401 2.243943214416504 0.5374838709831238 -0.05311552435159683 0.09118983149528503 -0.037995241582393646 7.077848567860201e-05 0.5323266386985779 True False

881.913 3.825838327407837 -0.8366629642299195 0.8621600309955042 -1.5962521038451136 -1.5708168188678187 2.2550690174102783 0.5582984685897827 -0.05576919764280319 0.09651520103216171 -0.03804759681224823 7.000029290793464e-05 0.5600771903991699 True False

881.933 3.8372178077697754 -0.8378311556628724 0.8642547766314905 -1.5970736942686976 -1.5708368460284632 2.2664966583251953 0.5823719501495361 -0.05716712027788162 0.1015695333480835 -0.04186514765024185 6.196727190399542e-05 0.5871542096138 True False

881.953 3.8494205474853516 -0.838922993545868 0.8662636915790003 -1.5979029140868128 -1.5708168188678187 2.2786307334899902 0.627509593963623 -0.059891607612371445 0.10313573479652405 -0.04492763802409172 4.957619315071327e-10 0.6202271580696106 True False

881.973 3.8621323108673096 -0.8401942414096375 0.8682988325702112 -1.598931451837057 -1.5708087126361292 2.291334629058838 0.6447895765304565 -0.06366179883480072 0.10913422703742981 -0.04907326027750969 1.471962109773825e-17 0.6379202604293823 True False

881.9929999999999 3.8752758502960205 -0.8416457933238526 0.8705866972552698 -1.599844594995016 -1.570801083241598 2.3045036792755127 0.6701321601867676 -0.06945900619029999 0.11399941146373749 -0.042817216366529465 4.370388515575624e-25 0.6755738854408264 True False

882.0129999999999 3.8890891075134277 -0.8430188459208985 0.8728764692889612 -1.600741525689596 -1.5707767645465296 2.318269729614258 0.7006336450576782 -0.06559143215417862 0.11804941296577454 -0.04538670554757118 1.2976077896583776e-32 0.7019586563110352 True False

882.033 3.903390884399414 -0.8443970841220398 0.8754151503192347 -1.6017185650267542 -1.5708044211017054 2.3324742317199707 0.7290240526199341 -0.06990434974431992 0.12247741222381592 -0.0505090169608593 3.852715984830009e-40 0.7330636978149414 True False

882.053 3.918297290802002 -0.8458428543857117 0.8779457251178187 -1.6027752361693324 -1.5707967917071741 2.34755539894104 0.7616848349571228 -0.07314439117908478 0.13030283153057098 -0.053570009768009186 0.0 0.7562479376792908 True False

882.073 3.933828115463257 -0.8473279637149354 0.8805173079120081 -1.6038156948485316 -1.5707967917071741 2.3629181385040283 0.778548002243042 -0.07799579203128815 0.13085578382015228 -0.05434636399149895 0.0 0.786003053188324 True False

882.093 3.949711561203003 -0.8489752572825928 0.8832128683673304 -1.6050082645811976 -1.570801083241598 2.379101514816284 0.8168625831604004 -0.08210807293653488 0.13724608719348907 -0.0653662160038948 0.0 0.8128640055656433 True False

882.1129999999999 3.966305732727051 -0.8506294649890442 0.8859580198871058 -1.606215616265768 -1.5707724730121058 2.395407199859619 0.838653028011322 -0.08187209814786911 0.14045022428035736 -0.05878060311079025 0.0 0.8437829613685608 True False

882.1329999999999 3.983475685119629 -0.8522454661181946 0.8887556234942835 -1.607408185998434 -1.5708048979388636 2.4127590656280518 0.8716349005699158 -0.08355773240327835 0.14793647825717926 -0.05925857275724411 0.0 0.8701996803283691 True False

882.1529999999999 4.001267910003662 -0.8540361088565369 0.8918045202838343 -1.608533044854635 -1.5707324186908167 2.430314540863037 0.8926185965538025 -0.0887841135263443 0.1563383787870407 -0.06154514104127884 0.0 0.8960088491439819 True False

882.173 4.019425868988037 -0.8557738822749634 0.894909683858053 -1.6098281345763148 -1.5707648436175745 2.448693037033081 0.924250602722168 -0.0938044935464859 0.1551739126443863 -0.06621488928794861 0.0 0.9176617860794067 True False

882.193 4.038194179534912 -0.8576698464206238 0.8981660048114222 -1.6110998592772425 -1.570784870778219 2.467496871948242 0.9568578004837036 -0.09914986789226532 0.16310085356235504 -0.06476376950740814 0.0 0.9592297077178955 True False

882.213 4.0576677322387695 -0.8596393626979371 0.9014223257647913 -1.612659593621725 -1.570801083241598 2.486739158630371 0.9757941365242004 -0.09621468931436539 0.1658422201871872 -0.07722588628530502 0.0 0.9776562452316284 True False

882.233 4.077569007873535 -0.8616282504848023 0.9048469702350062 -1.6140748463072718 -1.5707767645465296 2.506784439086914 1.0109219551086426 -0.10058234632015228 0.1732398271560669 -0.06744476407766342 0.0 1.008415937423706 True False

882.2529999999999 4.097940444946289 -0.8636216086200257 0.9083827177630823 -1.615382810632223 -1.5708087126361292 2.5271522998809814 1.037057876586914 -0.10268261283636093 0.17410168051719666 -0.06801506876945496 0.0 1.0426380634307861 True False

882.2729999999999 4.118999004364014 -0.8656467956355591 0.9119294325457972 -1.616781850854391 -1.5707686583148401 2.5480310916900635 1.039049506187439 -0.10258723795413971 0.17765970528125763 -0.06860571354627609 0.0 1.040912389755249 True False

882.293 4.13986873626709 -0.8676867646029969 0.9153721968280237 -1.6182977161803187 -1.5707486311541956 2.5691771507263184 1.048729658126831 -0.10048819333314896 0.17027562856674194 -0.08065011352300644 0.0 1.0462316274642944 True False

882.313 4.160807132720947 -0.8697759670070191 0.9188454786883753 -1.6199594936766566 -1.5707486311541956 2.589864730834961 1.046593189239502 -0.10473547130823135 0.17831768095493317 -0.07548335939645767 0.0 1.054623007774353 True False

882.333 4.181819915771484 -0.8718712490848084 0.9222996870623987 -1.6213470898070277 -1.57074481645693 2.6108999252319336 1.0430039167404175 -0.10024967789649963 0.17807433009147644 -0.06535311788320541 0.0 1.0409770011901855 True False

882.353 4.202683925628662 -0.8739484709552308 0.9259031454669397 -1.622763296166891 -1.5707529226886194 2.631974458694458 1.0510729551315308 -0.10036278516054153 0.18140731751918793 -0.07147311419248581 0.0 1.0468053817749023 True False

882.3729999999999 4.223608493804932 -0.8759491008571167 0.92950946489443 -1.6242295704283656 -1.570784870778219 2.6528031826019287 1.0488457679748535 -0.10299965739250183 0.17469440400600433 -0.06987914443016052 1.4516619850635237e-10 1.0562045574188232 True False

882.3929999999999 4.244616985321045 -0.8779935997775574 0.9330084959613245 -1.6258212528624476 -1.5707929770099085 2.6737210750579834 1.0417397022247314 -0.10316035151481628 0.179841548204422 -0.08229381591081619 4.3101135036234e-18 1.043203353881836 True False

882.413 4.265547752380371 -0.8801157635501404 0.9365351835833948 -1.6273490391173304 -1.570813004170553 2.694812059402466 1.0503343343734741 -0.10513856261968613 0.1766754388809204 -0.06784002482891083 1.279711607605386e-25 1.0481069087982178 True False

882.433 4.286405086517334 -0.8821376127055665 0.9401400724994105 -1.6286961040892542 -1.5707486311541956 2.7155606746673584 1.0489898920059204 -0.10241957753896713 0.1789485067129135 -0.06706265360116959 3.799577940811727e-33 1.058988094329834 True False

882.453 4.307405471801758 -0.8842581075480958 0.9436991850482386 -1.6301681003966273 -1.5707772413836878 2.736633539199829 1.0437977313995361 -0.10076207667589188 0.17353595793247223 -0.07270703464746475 1.1281293416893372e-40 1.0411185026168823 True False

882.473 4.328428745269775 -0.8863141697696229 0.9472873846637171 -1.6316033802428187 -1.5707443396197718 2.757666826248169 1.0507034063339233 -0.10302168875932693 0.17698654532432556 -0.07774188369512558 0.0 1.044661521911621 True False

882.4929999999999 4.349223613739014 -0.8883543771556397 0.950752083455221 -1.6331221065916957 -1.5707891623126429 2.778445243835449 1.0484954118728638 -0.1034909263253212 0.17481514811515808 -0.0839693620800972 0.0 1.0555135011672974 True False

882.5129999999999 4.3702826499938965 -0.8905323308757325 0.9541876951800745 -1.6347137890257777 -1.5707405249225062 2.7994208335876465 1.0422372817993164 -0.10705526918172836 0.1785442978143692 -0.06966233998537064 0.0 1.0417232513427734 True False

882.533 4.391130447387695 -0.8925913733294983 0.9577673117267054 -1.6360413036742152 -1.5708048979388636 2.820477247238159 1.0539019107818604 -0.1021423265337944 0.18123145401477814 -0.07279221713542938 0.0 1.047312617301941 True False

882.553 4.412123203277588 -0.8946221035769959 0.9613388220416468 -1.637484689752096 -1.5707610289203089 2.841261863708496 1.051159143447876 -0.10169515758752823 0.1812702715396881 -0.06440555304288864 0.0 1.0551161766052246 True False

882.573 4.4331159591674805 -0.89670284212146 0.9648574034320276 -1.6389490566649378 -1.570801083241598 2.8622169494628906 1.041154146194458 -0.10089804232120514 0.17780326306819916 -0.07785413414239883 0.0 1.0439343452453613 True False

882.593 4.454033851623535 -0.8988028329661866 0.9684446493731897 -1.6405555210509242 -1.570784870778219 2.8833768367767334 1.0497671365737915 -0.10358704626560211 0.17697228491306305 -0.08122096955776215 0.0 1.0422104597091675 True False

882.6129999999999 4.474903583526611 -0.9008405369571229 0.9720338026629847 -1.641963621179098 -1.5707772413836878 2.904043197631836 1.0500223636627197 -0.10306846350431442 0.17638055980205536 -0.06525654345750809 -0.00011585767060751095 1.0593676567077637 True False

882.6329999999999 4.495913505554199 -0.902918354873993 0.9756982962237757 -1.643374582330221 -1.570801083241598 2.925048828125 1.0419583320617676 -0.10158638656139374 0.1766822189092636 -0.06998518109321594 -9.250154835171998e-05 1.040718913078308 True False

882.6529999999999 4.516748905181885 -0.9048932951739808 0.9791196028338831 -1.644890924493307 -1.570813004170553 2.9461934566497803 1.051037311553955 -0.10192746669054031 0.1732454150915146 -0.07883980125188828 -7.672791252844036e-05 1.0443426370620728 True False

882.673 4.537700176239014 -0.9070553344539185 0.9825905005084437 -1.646402498284811 -1.5707686583148401 2.9669716358184814 1.048418402671814 -0.10411369055509567 0.17563486099243164 -0.07775501906871796 -9.165438677882776e-05 1.056589126586914 True False

882.693 4.558838367462158 -0.9091189068606873 0.9860013167010706 -1.6479646168150843 -1.570784870778219 2.9879298210144043 1.0401417016983032 -0.10190338641405106 0.177530899643898 -0.0747402086853981 -8.010189048945904e-05 1.0410339832305908 True False

882.713 4.579634666442871 -0.9111549419215699 0.9896224180804651 -1.6492611370482386 -1.5707605520831507 3.008948564529419 1.0516071319580078 -0.10285616666078568 0.17972183227539062 -0.06690806895494461 -7.106584962457418e-05 1.0449318885803223 True False

882.733 4.600616455078125 -0.9132348460010071 0.9931977430926722 -1.6507603130736292 -1.5708654562579554 3.029709577560425 1.0490432977676392 -0.10316748917102814 0.17589059472084045 -0.0753965824842453 -7.177821680670604e-05 1.0609354972839355 True False

882.7529999999999 4.621614933013916 -0.9151961964419861 0.9967873732196253 -1.6521879635252894 -1.570801083241598 3.0507030487060547 1.0431697368621826 -0.10447558015584946 0.17654089629650116 -0.07143057137727737 -6.2035076553002e-05 1.0405172109603882 True False

882.7729999999999 4.642520427703857 -0.9173132938197632 1.0003541151629847 -1.6537672481932582 -1.5707648436175745 3.0717661380767822 1.0506938695907593 -0.10710358619689941 0.1757538616657257 -0.08589942753314972 -6.542282790178433e-05 1.0440548658370972 True False

882.793 4.663442134857178 -0.9194162648967286 1.0039294401751917 -1.6553026638426722 -1.5707686583148401 3.0925896167755127 1.046147108078003 -0.1052299365401268 0.1733013242483139 -0.0662974864244461 -1.3974008652439807e-06 1.0547562837600708 True False

882.813 4.684423923492432 -0.9215212029269715 1.0075143019305628 -1.6566821537413539 -1.5708449522601526 3.1135194301605225 1.0439448356628418 -0.10192153602838516 0.17330177128314972 -0.07183823734521866 -4.149008610634941e-14 1.043341040611267 True False

882.833 4.705321788787842 -0.923503116970398 1.010998551045553 -1.6581698856749476 -1.570801083241598 3.134730100631714 1.0499049425125122 -0.09967606514692307 0.17193490266799927 -0.07360643893480301 -1.2318778184768337e-21 1.0416457653045654 True False

882.853 4.726198196411133 -0.9256265324405213 1.0144508520709437 -1.6595303020873011 -1.5707891623126429 3.1554250717163086 1.0492631196975708 -0.10438651591539383 0.17698469758033752 -0.07131724804639816 -3.657556427803889e-29 1.0582268238067627 True False

882.8729999999999 4.747299671173096 -0.9276877206614991 1.0179207960711878 -1.6611362896361292 -1.570829216633932 3.176367998123169 1.0450516939163208 -0.10581269860267639 0.17468076944351196 -0.08024758845567703 -1.0859610198853663e-36 1.0422669649124146 True False

882.8929999999999 4.768213272094727 -0.9298581045917054 1.0214818159686487 -1.6626092396178187 -1.5708048979388636 3.197521924972534 1.0497820377349854 -0.10448567569255829 0.17771559953689575 -0.07129976898431778 -3.2229864679470793e-44 1.042701244354248 True False

882.913 4.789085388183594 -0.9319178026965638 1.0251291433917444 -1.6639610729613246 -1.570784870778219 3.218216896057129 1.0474987030029297 -0.10259565711021423 0.17581059038639069 -0.07215025275945663 -4.2449786974430026e-07 1.0551950931549072 True False

882.933 4.810069561004639 -0.9338613909533997 1.0286982695208948 -1.665447851220602 -1.5707767645465296 3.239196538925171 1.043782353401184 -0.10160699486732483 0.18173006176948547 -0.07147172093391418 -1.2603723200201901e-14 1.0417113304138184 True False

882.953 4.83074951171875 -0.9359363478473206 1.032180134450094 -1.6669289074339808 -1.570801083241598 3.26008939743042 1.0329077243804932 -0.10113197565078735 0.16854514181613922 -0.07823573797941208 -3.742158982251047e-22 1.0175107717514038 True False

882.973 4.850924015045166 -0.9379691642573853 1.0355518499957483 -1.6684838734068812 -1.5707290808307093 3.280048131942749 0.9933311343193054 -0.09867466241121292 0.1712830811738968 -0.06912011653184891 -1.1110808715158719e-29 1.0043023824691772 True False

882.9929999999999 4.8704681396484375 -0.939895824795105 1.0389674345599573 -1.669772287408346 -1.5707610289203089 3.2996249198913574 0.9619765877723694 -0.09262430667877197 0.15882746875286102 -0.060280706733465195 -3.2988991778107633e-37 0.9628977179527283 True False

883.0129999999999 4.889458179473877 -0.9417193692973633 1.0421398321734827 -1.6710144482054652 -1.5708172957049769 3.318809986114502 0.9446611404418945 -0.0899389460682869 0.15608391165733337 -0.07199911773204803 -9.80908925027372e-45 0.9379484057426453 True False

883.033 4.908051490783691 -0.9435792130282898 1.045253101979391 -1.6723877392210902 -1.5707486311541956 3.337040662765503 0.9095037579536438 -0.09093889594078064 0.1513100266456604 -0.06450316309928894 -0.0 0.9148247838020325 True False

883.053 4.925985813140869 -0.9453182381442566 1.0481298605548304 -1.6736952267088832 -1.570784870778219 3.3551747798919678 0.8818461894989014 -0.08849690109491348 0.14848460257053375 -0.06992004066705704 -0.0 0.8801255822181702 True False

883.073 4.943266868591309 -0.947047309284546 1.0511663595782679 -1.6750151119627894 -1.5707891623126429 3.3725028038024902 0.852058470249176 -0.08581250160932541 0.14974884688854218 -0.06055743247270584 -0.0 0.8651089072227478 True False

883.093 4.959975242614746 -0.948661283855774 1.0539897123919886 -1.6761232815184535 -1.5708335081683558 3.3893096446990967 0.8268934488296509 -0.08076458424329758 0.1383715569972992 -0.055552396923303604 -2.904890390731385e-11 0.8210340738296509 True False

883.1129999999999 4.9762396812438965 -0.9503257435611268 1.0567663351642054 -1.6771437130370082 -1.5707767645465296 3.4053843021392822 0.7992364764213562 -0.08051682263612747 0.13763776421546936 -0.05777737498283386 -8.624880932168177e-19 0.8102747797966003 True False

883.1329999999999 4.991940498352051 -0.9518222373775025 1.0593684355365198 -1.6783081493773402 -1.5707886854754847 3.42122745513916 0.7714934349060059 -0.07615257054567337 0.1300089806318283 -0.054326433688402176 -2.5608047386859195e-26 0.7674627304077148 True False

883.1529999999999 5.007049560546875 -0.9533491891673584 1.0618985334979456 -1.6793576679625453 -1.5707767645465296 3.4363186359405518 0.7429958581924438 -0.07368800789117813 0.12615841627120972 -0.049658648669719696 -0.0001143060508184135 0.7489114999771118 True False

883.173 5.02164888381958 -0.9547814291766663 1.0644529501544397 -1.6803943119444789 -1.5708006064044397 3.4509546756744385 0.7139824032783508 -0.06828852742910385 0.12240444123744965 -0.055338483303785324 -0.00010798506264109164 0.7097254991531372 True False

883.193 5.035612106323242 -0.9561447662166138 1.0668748060809534 -1.6814638576903285 -1.5708664099322718 3.4647748470306396 0.6861336827278137 -0.06895364075899124 0.1150859072804451 -0.0505458228290081 -0.00010609952005324885 0.6980882287025452 True False

883.213 5.0489606857299805 -0.9574437302402039 1.0691097418414515 -1.6823841534056605 -1.570874039326803 3.4784505367279053 0.6607259511947632 -0.06696460396051407 0.10789206624031067 -0.048423029482364655 -9.081738244276494e-05 0.6560807228088379 True False

883.233 5.0619611740112305 -0.9588387769511719 1.071315113698141 -1.6832291088499964 -1.5708454290973108 3.4910624027252197 0.6303572058677673 -0.06475694477558136 0.10525664687156677 -0.042780801653862 -9.067160863196477e-05 0.6369631886482239 True False

883.2529999999999 5.074278831481934 -0.959961013203003 1.0733135382281702 -1.6840831242003382 -1.5707719961749476 3.50355863571167 0.6096038818359375 -0.058341216295957565 0.09800910949707031 -0.039405226707458496 -8.056343358475715e-05 0.6012066006660461 True False

883.2729999999999 5.086068630218506 -0.9611194294742127 1.075320068989889 -1.684948583642477 -1.570833985005514 3.5152904987335205 0.5731452703475952 -0.055934373289346695 0.09965012967586517 -0.04089625924825668 -1.3386472486054402e-11 0.5708790421485901 True False

883.293 5.0972771644592285 -0.9622895282557984 1.0771973768817347 -1.68566956142568 -1.5707934538470667 3.5264341831207275 0.5456128716468811 -0.05239422619342804 0.0957023873925209 -0.03890184313058853 -3.974563810732143e-19 0.5572382211685181 True False

883.313 5.107895374298096 -0.9633253377727051 1.0789902845965784 -1.6864639721312464 -1.5707605520831507 3.537155866622925 0.5229918956756592 -0.04979922994971275 0.08857660740613937 -0.03512973710894585 -1.1800834518789486e-26 0.5175906419754028 True False

883.333 5.117930889129639 -0.9642588657191773 1.08067495027651 -1.687112947503561 -1.5707967917071741 3.547205924987793 0.4900723695755005 -0.048361871391534805 0.0835401862859726 -0.03617117181420326 -3.5037735117994337e-34 0.48856016993522644 True False

883.353 5.127684116363525 -0.9652440708926697 1.0822766462909144 -1.6879149876036585 -1.5707719961749476 3.5567359924316406 0.4623498320579529 -0.04666228964924812 0.08013017475605011 -0.03631434962153435 -1.0403239799147442e-41 0.4717128574848175 True False

883.3729999999999 5.136579513549805 -0.966207818394043 1.0837863127337855 -1.6885043583311976 -1.5708172957049769 3.565735101699829 0.4362654685974121 -0.04358690232038498 0.07465888559818268 -0.026985447853803635 -0.0 0.43136996030807495 True False

883.3929999999999 5.144826889038086 -0.9669955533793946 1.0852215925799769 -1.6891352138915003 -1.5708168188678187 3.574216365814209 0.4066627323627472 -0.038604553788900375 0.06973719596862793 -0.028564071282744408 -0.0 0.40711966156959534 True False

883.413 5.152780532836914 -0.9676855367473145 1.0865748564349573 -1.6896301708617152 -1.5707719961749476 3.5819265842437744 0.38218432664871216 -0.03446264937520027 0.0640568658709526 -0.024082986637949944 -0.0 0.38541746139526367 True False

883.433 5.160263538360596 -0.968479649429657 1.0878670851336878 -1.690087457696432 -1.5707772413836878 3.589254140853882 0.3541356027126312 -0.035989608615636826 0.05811507999897003 -0.02485954947769642 -0.0 0.3572536110877991 True False

883.453 5.166854381561279 -0.9691668909839173 1.0888775030719202 -1.690599103967184 -1.5707886854754847 3.596078395843506 0.3208213746547699 -0.03366757556796074 0.055105842649936676 -0.02586207538843155 -0.0 0.3228292167186737 True False

883.473 5.172887802124023 -0.9698025745204468 1.0898788611041468 -1.6910411320128382 -1.570756737385885 3.6023337841033936 0.294685035943985 -0.027789965271949768 0.05042177066206932 -0.020750224590301514 -0.0 0.29234543442726135 True False

883.4929999999999 5.178637504577637 -0.9702756565860291 1.0909579435931605 -1.6914035282530726 -1.5708087126361292 3.607900619506836 0.27396732568740845 -0.024715762585401535 0.04861655458807945 -0.018812745809555054 -0.0 0.2664799392223358 True False

883.5129999999999 5.183810710906982 -0.9707024854472657 1.0918968359576624 -1.6917835674681605 -1.5708087126361292 3.6129214763641357 0.23963814973831177 -0.02292226254940033 0.042366839945316315 -0.01845654472708702 -0.0 0.24902932345867157 True False

883.533 5.188220024108887 -0.9712216419032593 1.0926182905780237 -1.6920825443663539 -1.5708296934710901 3.617398262023926 0.21163751184940338 -0.019767843186855316 0.032923344522714615 -0.013407682068645954 -0.0 0.21753065288066864 True False

883.553 5.192138671875 -0.9716419738582154 1.0932534376727503 -1.6923819981017054 -1.570813004170553 3.621443033218384 0.18358823657035828 -0.0192370917648077 0.02980337105691433 -0.013562848791480064 -0.0 0.18415074050426483 True False

883.573 5.1955790519714355 -0.9719730180552979 1.0937908331500452 -1.6926046810545863 -1.5708168188678187 3.624845266342163 0.1591930240392685 -0.016736144199967384 0.025553641840815544 -0.011474618688225746 -0.0 0.15552936494350433 True False

883.593 5.1983819007873535 -0.9723432821086426 1.094290558491842 -1.692808290521139 -1.5707967917071741 3.6276516914367676 0.1301969438791275 -0.012812389992177486 0.02233925461769104 -0.007637720089405775 -0.0 0.12652744352817535 True False

883.6129999999999 5.200638294219971 -0.9724515837481995 1.0946977774249476 -1.6928678951659144 -1.5707967917071741 3.6298885345458984 0.10446125268936157 -0.009202000685036182 0.01715589128434658 -0.0058535123243927956 -0.0 0.09946990013122559 True False

883.6329999999999 5.202463626861572 -0.9725621503642579 1.0949977079974573 -1.693031450311178 -1.570801083241598 3.631639003753662 0.07331971824169159 -0.005104342475533485 0.011943168006837368 -0.00584762915968895 -0.0 0.07251323014497757 True False

883.6529999999999 5.203647136688232 -0.9726627033999939 1.0951817671405237 -1.69305481533193 -1.5707886854754847 3.6327600479125977 0.04483254626393318 -0.002110109431669116 0.006032763049006462 -0.0028934283182024956 -0.0 0.046047791838645935 True False

883.673 5.204161643981934 -0.9726969760707398 1.095203701649801 -1.693143983880514 -1.5708449522601526 3.633425235748291 0.017203517258167267 -0.00048137278645299375 0.0009836498647928238 -0.0008901355322450399 -0.0 0.017507443204522133 True False

883.693 5.204172611236572 -0.9726925057223816 1.0952237288104456 -1.6932441196837367 -1.5708168188678187 3.6334028244018555 0.00978525634855032 0.004507242236286402 0.020430361852049828 -0.023558277636766434 -0.0 -0.0023418280761688948 True False

883.713 5.204113483428955 -0.9725934428027649 1.0957492033587855 -1.6941052875914515 -1.5708325544940394 3.6334192752838135 -0.0012766551226377487 0.006786024663597345 0.03041105531156063 -0.03666529431939125 -0.0 9.750196477398276e-05 True False

883.733 5.2041335105896 -0.9724226158908387 1.096696678792135 -1.6949950657286585 -1.5707843939410608 3.6333835124969482 0.002404619473963976 0.012732758186757565 0.05115329474210739 -0.05884631350636482 -0.0 0.0004907820257358253 True False

883.7529999999999 5.204123020172119 -0.9721765679172059 1.0978973547564905 -1.6966711483397425 -1.570813004170553 3.6334192752838135 0.000537219806574285 0.019100595265626907 0.07125204801559448 -0.09103427827358246 -0.0 0.0006470851367339492 True False

883.7729999999999 5.204125881195068 -0.9717569512179871 1.0996273199664515 -1.6987654171385707 -1.5708406607257288 3.633389472961426 0.000195873697521165 0.02792888879776001 0.090265654027462 -0.1179000735282898 -0.0 0.0007936710608191788 True False

883.793 5.204139232635498 -0.9710052174380799 1.1016352812396448 -1.7014547787108363 -1.5708325544940394 3.633429527282715 0.0014753442956134677 0.037098463624715805 0.11292432993650436 -0.14899085462093353 -0.0 0.000649525027256459 True False

883.813 5.204235076904297 -0.9701937598041077 1.1041749159442347 -1.7048012218871058 -1.5708196798907679 3.633488416671753 0.0008541944553144276 0.04386302828788757 0.13305725157260895 -0.1739761084318161 -0.0 0.0006023585447110236 True False

883.833 5.204230308532715 -0.9693178695491333 1.1070249716388147 -1.7085310421385707 -1.570841137562887 3.633471965789795 0.001053456449881196 0.05114743113517761 0.155705988407135 -0.2050548642873764 -0.0 0.0003529793757479638 True False

883.853 5.204266548156738 -0.9682220977595826 1.1103203932391565 -1.7130586109557093 -1.5708044211017054 3.633458375930786 0.0017103702994063497 0.05892170965671539 0.17577342689037323 -0.2381248027086258 -0.0 0.0002866540744435042 True False

883.8729999999999 5.204266548156738 -0.9670121234706421 1.1141675154315394 -1.7180935345091761 -1.5708282629596155 3.633436918258667 0.00045544057502411306 0.06402233988046646 0.20340487360954285 -0.2741013467311859 -0.0 0.000245788338361308 True False

883.8929999999999 5.204248905181885 -0.9655330938151856 1.1183565298663538 -1.723626276055807 -1.5708487669574183 3.63344144821167 0.00027159377350471914 0.07131388038396835 0.2241399586200714 -0.2928856611251831 -0.0 0.00020251104433555156 True False

883.913 5.204245090484619 -0.9640305799296875 1.1230757872210901 -1.7296620808043421 -1.570768181477682 3.63348388671875 0.0001710742071736604 0.07661798596382141 0.24248047173023224 -0.3143455684185028 -0.0 0.00015628869005013257 True False

883.933 5.2042365074157715 -0.9624417585185547 1.1281455198871058 -1.7363039455809535 -1.5708492437945765 3.633436918258667 0.00019637166406027973 0.08231474459171295 0.2615758180618286 -0.3367387652397156 -0.0 0.00011599224671954289 True False

883.953 5.2042622566223145 -0.9607668680003663 1.1336348692523401 -1.7436047993102015 -1.5708168188678187 3.6334540843963623 0.0002595692058093846 0.08982977271080017 0.28100907802581787 -0.3668464422225952 -0.0 9.221827349392697e-05 True False

883.973 5.204257488250732 -0.9588461679271241 1.1395757834063929 -1.751427789727682 -1.570824925099508 3.6335082054138184 0.00023373449221253395 0.09656143188476562 0.3044106662273407 -0.4019967317581177 -0.0 7.653280772501603e-05 True False

883.9929999999999 5.204257488250732 -0.9568510216525574 1.1457770506488245 -1.7597323856749476 -1.570841137562887 3.633458375930786 0.0001616220106370747 0.10358811169862747 0.32730719447135925 -0.43697819113731384 -5.357789407446634e-13 6.54079849482514e-05 True False

884.0129999999999 5.204281806945801 -0.9546658557704468 1.1524775663958948 -1.7687398395934046 -1.5707724730121058 3.6335036754608154 0.00011891256872331724 0.11285734921693802 0.3498634099960327 -0.45816943049430847 -1.5907755929251627e-20 5.7107095926767215e-05 True False

884.033 5.204220771789551 -0.952383355503418 1.1597555319415491 -1.7780329189696253 -1.5707724730121058 3.633500337600708 0.00011286929657217115 0.11678972095251083 0.370365172624588 -0.47482526302337646 -4.723155410440118e-28 5.0675887905526906e-05 True False

884.053 5.204266548156738 -0.9500113886645813 1.1674802939044397 -1.7880922756590785 -1.570796314870016 3.63348388671875 9.335626964457333e-05 0.1242937222123146 0.3876839578151703 -0.5175384879112244 -1.4023469674036084e-35 1.991847832505389e-11 True False

884.073 5.2042646408081055 -0.9474304479411622 1.1753738562213343 -1.798617502252096 -1.5708048979388636 3.633474826812744 0.00010612767800921574 0.13150086998939514 0.4043877422809601 -0.5305627584457397 -4.161856439044707e-43 5.913975869320976e-19 True False

884.093 5.204253196716309 -0.9449746173671265 1.183136288319723 -1.8090039692320765 -1.5708211104022425 3.633467435836792 9.248894639313221e-05 0.1217256560921669 0.3865938186645508 -0.509544849395752 -0.0 1.755912546682224e-26 True False

884.1129999999999 5.204286098480225 -0.9425621193698426 1.190596882496969 -1.818843503991598 -1.5707967917071741 3.633491277694702 6.977587327128276e-05 0.11458821594715118 0.3614284098148346 -0.48193657398223877 -0.0 5.2134630051582555e-34 True False

884.1329999999999 5.204245090484619 -0.9402612012675782 1.1977408568011683 -1.8280135593810023 -1.5707605520831507 3.633462905883789 6.0116824897704646e-05 0.1074652448296547 0.33602622151374817 -0.45234596729278564 -0.0 1.547874283693193e-41 True False

884.1529999999999 5.204299449920654 -0.9380907577327271 1.204284969960348 -1.8367649517455042 -1.5707762877093714 3.633436918258667 5.303222133079544e-05 0.10160477459430695 0.3196960687637329 -0.4309215843677521 -0.0 0.0 True False

884.173 5.2042365074157715 -0.9362161320498963 1.2103503386126917 -1.8449775181212367 -1.5707767645465296 3.6334776878356934 1.4144330780403724e-13 0.09123915433883667 0.30226442217826843 -0.39858636260032654 -0.0 0.0 True False

884.193 5.204248905181885 -0.9344802063754578 1.2160199324237269 -1.8524862728514613 -1.5707529226886194 3.633462905883789 1.1055292944033296e-33 0.0844707265496254 0.28254491090774536 -0.3609890341758728 -0.0 0.0 True False

884.213 5.204235076904297 -0.9327718180469056 1.2214205900775355 -1.8594070873656214 -1.5707805792437952 3.633500337600708 0.0 0.07947389036417007 0.2563903033733368 -0.3311712443828583 -0.0 0.0 True False

884.233 5.204299449920654 -0.9311978977969666 1.2264660040484827 -1.865899225274557 -1.5707925001727503 3.633500337600708 0.0 0.0761277973651886 0.23471900820732117 -0.30531251430511475 -0.0 0.0 True False

884.2529999999999 5.20429801940918 -0.9297293585589905 1.2308839003192347 -1.8718539677061976 -1.5707648436175745 3.633436918258667 0.0 0.06633839011192322 0.21666941046714783 -0.2833256423473358 5.703242277377285e-05 0.0 True False

884.2729999999999 5.204294681549072 -0.9285104435733338 1.2347858587848108 -1.87730135540151 -1.570784870778219 3.633429527282715 0.0 0.060273364186286926 0.1933651864528656 -0.2614763379096985 5.061719275545329e-05 0.0 True False

884.293 5.204220294952393 -0.9274736803821106 1.238356892262594 -1.8819271526732386 -1.5708168188678187 3.6334657669067383 0.0 0.05318613350391388 0.17202425003051758 -0.2353394329547882 1.9895786407264637e-11 0.0 True False

884.313 5.204222679138184 -0.9263400000384827 1.2416752020465296 -1.8861805401244105 -1.5707724730121058 3.633450508117676 0.0 0.052099958062171936 0.15023958683013916 -0.20053420960903168 5.907239517207497e-19 0.0 True False

884.333 5.204272747039795 -0.9254133862308045 1.2445748488055628 -1.8898850880064906 -1.5708168188678187 3.6335127353668213 0.0 0.04250999912619591 0.13255703449249268 -0.17826849222183228 1.7539129691767633e-26 1.6720006215109606e-06 True False

884.353 5.2043023109436035 -0.9246890109828492 1.2468493620501917 -1.892977853814596 -1.5707967917071741 3.63348388671875 0.0 0.034063830971717834 0.10703341662883759 -0.1396006941795349 5.207525381154161e-34 4.964319835201389e-14 True False

884.3729999999999 5.2042365074157715 -0.9240929049304505 1.2487528959857386 -1.8955966434874476 -1.570813004170553 3.633481979370117 0.0 0.025649653747677803 0.08604393154382706 -0.12493488937616348 1.5461927255360032e-41 1.4739512351933577e-21 True False

884.3929999999999 5.204288959503174 -0.9236318033984681 1.250329319630758 -1.897595544854635 -1.5708449522601526 3.633424997329712 0.0 0.02195148356258869 0.06801139563322067 -0.0811302661895752 0.0 4.3762933209701003e-29 True False

884.413 5.204268932342529 -0.9232070606997986 1.2514899412738245 -1.8989883861937464 -1.5707767645465296 3.633491277694702 0.0 0.01576297916471958 0.04668841138482094 -0.060438137501478195 0.0 1.2993606151739382e-36 True False

884.433 5.204214096069336 -0.9230373662761231 1.2521403471576136 -1.8998266659178675 -1.5708377997027796 3.633458375930786 0.0 0.006013837177306414 0.021533161401748657 -0.028635341674089432 0.0 3.923635700109488e-44 True False

884.453 5.2042646408081055 -0.9229688209346314 1.2523883024798792 -1.900125642816061 -1.5707886854754847 3.63344144821167 0.0 4.041377010821634e-08 -0.0031896585132926702 -0.001118493382818997 0.0 0.0 True False

884.473 5.204268932342529 -0.9230452936938782 1.2522476355182093 -1.900057931939596 -1.570801083241598 3.63348388671875 0.0 3.961099677429747e-12 -1.452358511233598e-10 0.0007811941904947162 0.0 0.0 True False

884.4929999999999 5.2042555809021 -0.9230508369258423 1.2523048559771937 -1.9000455341734828 -1.5707362333880823 3.633458375930786 0.0 5.270254405331798e-05 -2.0451745295850695e-22 0.0003481807070784271 0.0 0.0 True False

884.5129999999999 5.204288959503174 -0.9230418366244812 1.252289120350973 -1.9000498257079066 -1.570784870778219 3.633392333984375 0.0 0.0001171601252281107 0.00022453574638348073 0.00022418984735850245 0.0 0.0 True False

884.533 5.204277038574219 -0.9230661553195496 1.2522671858416956 -1.900065084496969 -1.5707805792437952 3.633450508117676 0.0 2.7509000574355014e-05 0.00011983598960796371 6.722193575114943e-06 0.0 0.0 True False

884.553 5.2042646408081055 -0.9230373662761231 1.2522981802569788 -1.9000617466368617 -1.5707967917071741 3.633429527282715 0.0 8.908013114705682e-05 0.00018730113515630364 1.9958798611226236e-13 0.0 0.0 True False

884.573 5.204244136810303 -0.9230117362788697 1.252293888722555 -1.9001018009581507 -1.5708048979388636 3.6334540843963623 0.0 0.0002815656771417707 0.0005706169758923352 5.925948161620816e-21 0.0 0.0 True False

884.593 5.204277038574219 -0.9230327171138306 1.2522791067706507 -1.9000855884947718 -1.5707724730121058 3.633476495742798 2.547526491980534e-06 0.00015422071737702936 0.0002812983584590256 -0.0016611616592854261 0.0 0.0 True False

884.6129999999999 5.204309940338135 -0.9230508369258423 1.2523945013629358 -1.9000731907286585 -1.5707967917071741 3.6334540843963623 1.9911622701244004e-26 0.00016077679174486548 0.0002249897224828601 -0.0006874228129163384 0.0 0.0 True False

884.6329999999999 5.204239845275879 -0.9229642909816285 1.2523568312274378 -1.9000936947264613 -1.5707886854754847 3.633462905883789 0.0 0.00011875279597006738 0.0005073342472314835 -0.0003932361432816833 0.0 0.0 True False

884.6529999999999 5.204246520996094 -0.9230373662761231 1.252286736165182 -1.9001733265318812 -1.5708211104022425 3.633467435836792 0.0 9.39577876124531e-05 0.00023836626496631652 -0.002618973609060049 0.0 0.0 True False

884.673 5.2043023109436035 -0.923072413807251 1.2522981802569788 -1.9002095661559046 -1.5707967917071741 3.6334540843963623 0.0 0.00012431693903636187 0.00018695619655773044 -0.0009440797148272395 0.0 0.0 True False

884.693 5.2043232917785645 -0.9230016034892579 1.252322022114889 -1.9001571140685023 -1.5707767645465296 3.633445978164673 0.0 0.0004563993716146797 0.00016630157188046724 -0.00027644826332107186 0.0 0.0 True False

884.713 5.204277038574219 -0.9229926627925416 1.2523015181170862 -1.900177618066305 -1.5708335081683558 3.6334540843963623 0.0 0.00027183175552636385 0.00015821351553313434 -0.0002332485601073131 0.0 0.0 True False

884.733 5.204273700714111 -0.9230179947665711 1.252347771321432 -1.9001366100706996 -1.570824925099508 3.633445978164673 0.0 0.00028570377617143095 0.00020934149506501853 -0.00017353222938254476 0.0 0.0 True False

884.7529999999999 5.204223155975342 -0.9229896825603028 1.2523344198810022 -1.9001490078368128 -1.5708125273333948 3.633462905883789 0.0 0.0004503184463828802 0.00029459528741426766 -0.00015548450755886734 0.0 0.0 True False

884.7729999999999 5.204286098480225 -0.9230179947665711 1.252312962208883 -1.90018953899526 -1.5707925001727503 3.633474826812744 0.0 0.00026259623700752854 0.0002137421106453985 -0.00012786906154360622 0.0 0.0 True False

884.793 5.204347133636475 -0.9229851526072999 1.2524016539203089 -1.9001814327635707 -1.570772949849264 3.633420705795288 0.0 0.00021181807096581906 0.0001911736762849614 -0.00010858358291443437 0.0 0.0 True False

884.813 5.20429801940918 -0.9230078023723145 1.252326790486471 -1.9001900158324183 -1.5707648436175745 3.633420705795288 0.0 0.00011493003694340587 0.00013963188393972814 -9.435335960006341e-05 0.0 0.0 True False

884.833 5.204245090484619 -0.9230224651149292 1.252380673085348 -1.9001532993712367 -1.5707686583148401 3.6333835124969482 0.0 9.154869621852413e-05 0.0001278754643863067 -8.342096407432109e-05 0.0 0.0 True False

884.853 5.204244136810303 -0.9229688209346314 1.2523582617389124 -1.9001614056029261 -1.5708006064044397 3.633479356765747 0.0 9.128692909143865e-05 0.00012062257883371785 -2.427579026686999e-09 0.0 0.0 True False

884.8729999999999 5.204293251037598 -0.9230508369258423 1.2523344198810022 -1.9002014599242152 -1.570813004170553 3.633425235748291 0.0 9.110105020226911e-05 0.00011570133938221261 -7.20769914797389e-17 0.0 0.0 True False

884.8929999999999 5.204309463500977 -0.9229657214931031 1.252404514943258 -1.9001366100706996 -1.5707486311541956 3.6334540843963623 0.0 7.959190406836569e-05 9.968264203052968e-05 -2.140030935583971e-24 0.0 0.0 True False

884.913 5.2042555809021 -0.9229732912829895 1.2523792425738733 -1.9001695118346156 -1.570772949849264 3.633434295654297 0.0 8.075946243479848e-05 8.419156074523926e-05 -6.353944283285042e-32 0.0 0.0 True False

884.933 5.204240798950195 -0.9229732316783448 1.2523763815509241 -1.9001332722105921 -1.570784870778219 3.633504629135132 0.0 6.984251376707107e-05 7.092224404914305e-05 -1.8865428991481434e-39 0.0 0.0 True False

884.953 5.204253196716309 -0.9230032724193116 1.2523954550372522 -1.9001933536925257 -1.570801083241598 3.633462905883789 0.0 6.045908230589703e-05 6.126633525127545e-05 -0.0 0.0 0.0 True False

884.973 5.204282283782959 -0.9229688209346314 1.2523835341082972 -1.9001251659789027 -1.5707967917071741 3.633462905883789 0.0 6.395798118319362e-05 5.392467573983595e-05 -0.0 0.0 0.0 True False

884.9929999999999 5.204268932342529 -0.9229353827289124 1.2523673216449183 -1.9001733265318812 -1.5708048979388636 3.6334450244903564 0.0 1.716854523131639e-12 1.3848470814536995e-08 -0.0 0.0 0.0 True False

885.0129999999999 5.204288959503174 -0.9230224651149292 1.252354923878805 -1.9001614056029261 -1.5707648436175745 3.6335089206695557 0.0 1.34190379634362e-32 1.9501068899860326e-20 -2.9328878214940346e-10 0.0 0.0 True False

885.033 5.204306602478027 -0.9230016034892579 1.2523883024798792 -1.9002047977843226 -1.570700470601217 3.633471965789795 0.0 0.0 2.7460917486127344e-32 -8.708007413850928e-18 9.553332347422838e-07 0.0 True False

885.053 5.204281330108643 -0.9230720561793824 1.2522433439837855 -1.9003216228880824 -1.5707452932940882 3.633486747741699 0.0 -0.002953331684693694 -0.002069455338642001 -0.0010916603496298194 0.0024123734328895807 0.0002711181587073952 True False

885.073 5.204248905181885 -0.9230974477580567 1.252232853566305 -1.900388856927389 -1.5707891623126429 3.633500099182129 0.0 0.00039035911322571337 -0.00013741680595558137 -0.000907276407815516 -0.00019363057799637318 8.436399366473779e-05 True False

885.093 5.204244136810303 -0.923125759964325 1.252251927052633 -1.9004203281798304 -1.5707772413836878 3.6334705352783203 0.0 0.00024636765010654926 -1.9350686055706205e-16 -0.00031148901325650513 -9.31739850784652e-05 4.312979581300169e-05 True False

885.1129999999999 5.204223155975342 -0.9231437009624024 1.2522385756122034 -1.9004088840880335 -1.5708048979388636 3.633445978164673 0.0 0.00016867737576831132 0.0002595380356069654 -0.0001481651997892186 -6.138120807008818e-05 1.1018972401188876e-09 True False

885.1329999999999 5.204281330108643 -0.9230691355517884 1.2522357145892542 -1.9004131756224574 -1.5708087126361292 3.633445978164673 0.0 0.00023268969380296767 0.0005364757962524891 -7.50868784962222e-05 -4.576914579956792e-05 3.271632002417478e-17 True False

885.1529999999999 5.204253196716309 -0.9230899971774598 1.252251927052633 -1.9003521404662074 -1.570772949849264 3.633462905883789 0.0 0.00021472683874890208 0.0010735263349488378 0.0005843833787366748 -3.648936763056554e-05 9.713771876716685e-25 True True

885.173 5.204253196716309 -0.9231019181064148 1.252014462147848 -1.8998972378172816 -1.5707405249225062 3.633450508117676 0.0 -0.0026279003359377384 -0.01815745048224926 0.03334793448448181 -3.0338556825881824e-05 2.884105952595604e-32 True True

885.193 5.204277515411377 -0.9231167596629639 1.2516501585589808 -1.8987919292845667 -1.5707972685443323 3.633437156677246 0.0 -0.006499160081148148 -0.036376871168613434 0.0602908656001091 -2.596240483399015e-05 8.563166759673238e-40 True True

885.213 5.204268932342529 -0.9232351344874878 1.2507713476764124 -1.8971544704832972 -1.570784870778219 3.633462905883789 0.0 -0.01248170342296362 -0.0618671253323555 0.0800706073641777 -2.2689602701575495e-05 0.0 True True

885.233 5.204314231872559 -0.9235187333873291 1.249225918446676 -1.8954020939269007 -1.570784870778219 3.6334547996520996 0.0 -0.029056090861558914 -0.09724751114845276 0.10752017796039581 -2.0149595002294518e-05 0.0 True True

885.2529999999999 5.204220771789551 -0.9244100612453003 1.2468627134906214 -1.892731329003805 -1.5707805792437952 3.633483648300171 0.0 -0.04561478644609451 -0.12162470817565918 0.13349929451942444 -3.348055339913447e-12 0.0 True True

885.2729999999999 5.204268932342529 -0.9253953260234375 1.2442954222308558 -1.889801641503805 -1.5707648436175745 3.6334047317504883 0.0 -0.047987088561058044 -0.12893562018871307 0.16482312977313995 -9.940675969333541e-20 0.0 True True

885.293 5.204207420349121 -0.9263029259494324 1.241549317036764 -1.8858772716917933 -1.5707805792437952 3.633437156677246 0.0 -0.04804302379488945 -0.14885346591472626 0.2061326950788498 -2.9514764693797615e-27 0.0 True True

885.313 5.204260349273682 -0.9272581499866028 1.2384222189532679 -1.8817020855345667 -1.5707209745990198 3.633441686630249 0.0 -0.05590193718671799 -0.17160692811012268 0.2214055210351944 -8.763200756756615e-35 0.0 True True

885.333 5.204260349273682 -0.9284978669932862 1.2347663084613245 -1.8768512211241664 -1.5707967917071741 3.633462905883789 0.0 -0.06625889986753464 -0.20094680786132812 0.25305885076522827 -2.6022112482511853e-42 0.0 True True

885.353 5.204305171966553 -0.9298510116389771 1.2305076758014124 -1.8715020618834437 -1.5708134810077112 3.633488178253174 0.0 -0.0700330063700676 -0.21412307024002075 0.28906160593032837 -0.0 0.0 True True

885.3729999999999 5.204260349273682 -0.9312912386706849 1.2261093298541468 -1.8655067882933558 -1.5707529226886194 3.633483648300171 0.0 -0.0720265731215477 -0.23825742304325104 0.31827619671821594 -0.0 0.0 True True

885.3929999999999 5.204212665557861 -0.9327594798854371 1.2212017218219202 -1.8589936695494593 -1.5707648436175745 3.633467435836792 0.0 -0.08088136464357376 -0.25559040904045105 0.34379154443740845 -0.0 0.0 True True

885.413 5.204273223876953 -0.9344948095134278 1.2157700697528284 -1.8520690403380335 -1.5708091894732874 3.6334540843963623 0.0 -0.08823787420988083 -0.2750275731086731 0.3694761395454407 -0.0 0.0 True True

885.433 5.204285621643066 -0.9364442986300965 1.2099769751178187 -1.8443671665587367 -1.570813004170553 3.633392810821533 -6.322800616409552e-10 -0.09652335196733475 -0.29508474469184875 0.4015406668186188 -0.0 0.0 True True

885.453 5.204245090484619 -0.9384409946254273 1.2037642637835901 -1.8361288509764613 -1.5707772413836878 3.633434295654297 7.570212619611993e-05 -0.09844034165143967 -0.32097551226615906 0.4299463629722595 -0.0 0.0 True True

885.473 5.204220771789551 -0.9405868214419861 1.197193447743551 -1.8274580440916957 -1.570801083241598 3.633441686630249 1.7461343998113366e-22 -0.10464636236429214 -0.34292182326316833 0.44638416171073914 -0.0 0.0 True True

885.4929999999999 5.204220771789551 -0.942707971935608 1.1899836699115198 -1.818221231500143 -1.5707529226886194 3.633450508117676 1.3648647042523718e-42 -0.11334402114152908 -0.3616100251674652 0.48359936475753784 -0.0 0.0 True True

885.5129999999999 5.204240798950195 -0.945172981624939 1.182502571736471 -1.8083583317198695 -1.5707529226886194 3.6334617137908936 0.0 -0.12414910644292831 -0.38436681032180786 0.5143813490867615 -0.0 0.0 True True

885.533 5.2042975425720215 -0.9476552170566102 1.174697224293844 -1.7979041538634242 -1.5708091894732874 3.633495330810547 0.0 -0.12806329131126404 -0.4009958505630493 0.5288897752761841 -0.0 0.0 True True

885.553 5.204309463500977 -0.9501365584186097 1.1667855421649378 -1.7874380550780238 -1.5708211104022425 3.633491039276123 0.0 -0.12716278433799744 -0.3860752284526825 0.5132988095283508 -0.0 0.0 True True

885.573 5.204293251037598 -0.9526258868030091 1.1591766516314905 -1.777525087396139 -1.5708048979388636 3.6334590911865234 0.0 -0.11953570693731308 -0.365322083234787 0.4862240254878998 -8.002795648387462e-11 0.0 True True

885.593 5.204268932342529 -0.9548316162875672 1.15208608308901 -1.7681166134276332 -1.570772949849264 3.63349986076355 0.0 -0.10899567604064941 -0.3450554609298706 0.459405779838562 -2.376101952157561e-18 0.0 True True

885.6129999999999 5.204261779785156 -0.956947461967804 1.1453841368304651 -1.75921692470693 -1.5707767645465296 3.63349986076355 0.0 -0.10228502750396729 -0.3207895755767822 0.429733544588089 -7.054860112589284e-26 0.0 True True

885.6329999999999 5.204216480255127 -0.9589346212199708 1.1391218344317835 -1.7509566746153773 -1.570772949849264 3.63342547416687 0.0 -0.09700167179107666 -0.30544134974479675 0.3965311050415039 -2.094651770967628e-33 0.0 True True

885.6529999999999 5.204248905181885 -0.9608211082271119 1.1332414785968226 -1.7431117496886195 -1.5707772413836878 3.633441686630249 0.0 -0.09255257993936539 -0.27690762281417847 0.3638739287853241 -6.219242844366403e-41 0.0 True True

885.673 5.204232215881348 -0.9625740212253113 1.1277535597430628 -1.735915323297018 -1.5707767645465296 3.633467435836792 0.0 -0.08165478706359863 -0.26145339012145996 0.343966007232666 -0.0 0.0 True True

885.693 5.204273223876953 -0.9641439479640503 1.122732941304342 -1.7293578586974085 -1.5707805792437952 3.633445978164673 0.0 -0.07665366679430008 -0.24053168296813965 0.3139292299747467 -0.0 0.0 True True

885.713 5.204218864440918 -0.9656097453883667 1.118159596120016 -1.7232424221434535 -1.5708091894732874 3.6334586143493652 0.0 -0.07069704681634903 -0.2151843160390854 0.2859951853752136 -0.0 0.0 True True

885.733 5.204244613647461 -0.9669087690166016 1.1139105002032679 -1.7176910839476527 -1.5707686583148401 3.6334590911865234 0.0 -0.06135580688714981 -0.19757339358329773 0.25705814361572266 -0.0 0.0 True True

885.7529999999999 5.204261779785156 -0.9680897754481812 1.1102765242206019 -1.7127615414061488 -1.5708406607257288 3.6334285736083984 0.0 -0.0569298230111599 -0.1851521134376526 0.24301102757453918 -0.0 0.0 True True

885.7729999999999 5.204233646392822 -0.9691550892642518 1.1069038550006312 -1.708489557305807 -1.5707247892962855 3.63349986076355 0.0 -0.049935806542634964 -0.15665866434574127 0.2066647708415985 -0.0 0.0 True True

885.793 5.2042083740234375 -0.9701371353915711 1.1040270964251917 -1.7045213184752406 -1.5707648436175745 3.633479118347168 0.0 -0.04372499883174896 -0.13585487008094788 0.18228107690811157 -0.0 0.0 True True

885.813 5.20426607131958 -0.9708663386157532 1.101438347493307 -1.7013288937010707 -1.5707648436175745 3.633467435836792 0.0 -0.03351626172661781 -0.11729195713996887 0.14901824295520782 -0.0 0.0 True True

885.833 5.204273223876953 -0.9715350431254883 1.0994251410113733 -1.6985508404173792 -1.5707724730121058 3.6334760189056396 0.0 -0.029601968824863434 -0.0864851176738739 0.11795072257518768 -0.0 0.0 True True

885.853 5.204184055328369 -0.9720121783069153 1.0978029409991663 -1.696420808831686 -1.5708335081683558 3.633437395095825 0.0 -0.023582473397254944 -0.0720369890332222 0.09375041723251343 -0.0 0.0 True True

885.8729999999999 5.204277515411377 -0.9724407357028504 1.096565071736471 -1.6948572597899378 -1.5707805792437952 3.6334586143493652 0.0 -0.01644713245332241 -0.05561324954032898 0.06744591891765594 -0.0 0.0 True True

885.8929999999999 5.204260349273682 -0.9727242749980469 1.0956485907184046 -1.6936966381468714 -1.5708044211017054 3.633512258529663 0.0 -0.010770216584205627 -0.02948201820254326 0.045392900705337524 -0.0 0.0 True True

885.913 5.204240798950195 -0.9727708262256165 1.0953238646136683 -1.6931549511351527 -1.5708211104022425 3.633445978164673 0.0 -0.00020521049736998975 -0.009439140558242798 0.011479880660772324 -0.0 0.0 True True

885.933 5.204113006591797 -0.9727198046496888 1.0954301992999476 -1.6932360134520472 -1.5707929770099085 3.6333258152008057 -0.028859497979283333 -8.28384941087279e-07 0.00035909481812268496 -0.0014791225548833609 -8.780338234259943e-09 -0.024013645946979523 True True

885.953 5.203544616699219 -0.9727392357638855 1.095379654561178 -1.69321932415151 -1.5707653204547327 3.632753849029541 -0.04479913413524628 -6.474705302093717e-27 0.0009737932705320418 -0.0005007791332900524 -2.606960682670047e-16 -0.04158475995063782 True True

885.973 5.202465534210205 -0.9728250068477173 1.0953848997699183 -1.6932550869383753 -1.5708048979388636 3.6315369606018066 -0.07061891257762909 -0.0015468333149328828 0.00043168553384020925 -0.002333323936909437 -7.740301624306757e-24 -0.07062827795743942 True True

885.9929999999999 5.200758934020996 -0.972820596104004 1.0954535643206995 -1.6932507954039515 -1.5707529226886194 3.629835605621338 -0.10002753138542175 -0.0012845378369092941 0.004381590522825718 -0.0005478724488057196 -2.2981650418039336e-31 -0.10092157125473022 True True

886.0129999999999 5.198469638824463 -0.9728697699359437 1.0955856482135218 -1.6932784519591273 -1.5708006064044397 3.62747859954834 -0.12940573692321777 -0.0036260411143302917 0.0055313617922365665 -0.0009699480142444372 -6.823458920109371e-39 -0.12474707514047623 True True

886.033 5.195459842681885 -0.9729447525790711 1.0955827871905726 -1.6933633289732875 -1.5707653204547327 3.6245601177215576 -0.16099894046783447 -0.0065302555449306965 0.005118862260133028 -0.0031578587368130684 -0.0 -0.15447638928890228 True True

886.053 5.191997051239014 -0.9730709356120606 1.0957606474505823 -1.6933943233885707 -1.5707648436175745 3.6211135387420654 -0.1864326149225235 -0.007214805111289024 0.007903099991381168 -0.0024904829915612936 -0.0 -0.1810111254453659 True True

886.073 5.188006401062012 -0.9732219141772767 1.095914665852682 -1.693462987939352 -1.5707524458514612 3.617147207260132 -0.211074560880661 -0.007821649312973022 0.009283473715186119 -0.0037405467592179775 -0.0 -0.2101278454065323 True True

886.093 5.183446884155273 -0.9733314675143738 1.0960782209979456 -1.693554540673727 -1.5707929770099085 3.612661838531494 -0.24038274586200714 -0.00689512537792325 0.009447094984352589 -0.004666789900511503 -0.0 -0.2402256280183792 True True

886.1129999999999 5.178248405456543 -0.9735083741000672 1.0962699095355433 -1.6936541996397914 -1.5708168188678187 3.6076135635375977 -0.26982516050338745 -0.007087791338562965 0.011332657188177109 -0.004634602926671505 -0.0 -0.2698550820350647 True True

886.1329999999999 5.1725754737854 -0.973590688114502 1.096445385609762 -1.6936575374998988 -1.570756737385885 3.6018381118774414 -0.29475659132003784 -0.007208819035440683 0.011210919357836246 -0.0028842068277299404 -0.0 -0.29408419132232666 True True

886.1529999999999 5.166412353515625 -0.9737353485873719 1.0966561476336878 -1.6938497028746546 -1.570784870778219 3.5956850051879883 -0.3223324418067932 -0.007375011220574379 0.012657234445214272 -0.006743631791323423 -4.0436810800834055e-13 -0.3174130618572235 True True

886.173 5.159712314605713 -0.9739419382861634 1.0969203154193323 -1.6939412556090296 -1.5707805792437952 3.5888397693634033 -0.3510890007019043 -0.009164863266050816 0.013006312772631645 -0.004679547157138586 -1.2006056455351234e-20 -0.3501158654689789 True True

886.193 5.152359485626221 -0.9741341036609192 1.0971711317645472 -1.6939922771849574 -1.5708091894732874 3.5816762447357178 -0.38095957040786743 -0.009677128866314888 0.014953280799090862 -0.005350548308342695 -3.5647071044437375e-28 -0.3822932839393616 True True

886.213 5.1443963050842285 -0.974255697136261 1.0975454489337366 -1.6941000423827113 -1.570801083241598 3.5736520290374756 -0.41065651178359985 -0.009629330597817898 0.016242818906903267 -0.006496352143585682 -1.0583935464880868e-35 -0.41137346625328064 True True

886.233 5.135980129241943 -0.9744890493205567 1.0978801886187952 -1.6942640743651332 -1.5707767645465296 3.5651276111602783 -0.43581321835517883 -0.009790073148906231 0.016767840832471848 -0.006300817243754864 -0.00010882255446631461 -0.4293895661830902 True True

886.2529999999999 5.12698221206665 -0.9746529024890442 1.0981858412372034 -1.6943799457945765 -1.5708168188678187 3.556126594543457 -0.4615739583969116 -0.010149845853447914 0.017793811857700348 -0.0066672032698988914 -0.00010586743883322924 -0.45660683512687683 True True

886.2729999999999 5.117356777191162 -0.9747969669154664 1.0985754171954554 -1.6944791279234828 -1.5708211104022425 3.546682357788086 -0.4878499209880829 -0.011010552756488323 0.018050292506814003 -0.006230213679373264 -9.063570178113878e-05 -0.49744856357574463 True True

886.293 5.107074737548828 -0.9750760358623047 1.0989330450641077 -1.6946870289244593 -1.5708091894732874 3.5364692211151123 -0.5191121101379395 -0.011028783395886421 0.020032010972499847 -0.007219625636935234 -0.0001173011478385888 -0.5165943503379822 True True

886.313 5.096501350402832 -0.9753405612758179 1.0993898550616663 -1.6948472462096156 -1.5707686583148401 3.525697946548462 -0.5457937717437744 -0.013795462436974049 0.02123163267970085 -0.007072670850902796 -0.00011631259985733777 -0.5403979420661926 True True

886.333 5.085386753082275 -0.9755839866450806 1.099792782460348 -1.6949097118773402 -1.5707605520831507 3.514636516571045 -0.5700502395629883 -0.014039861969649792 0.020012790337204933 -0.007830018177628517 -9.569793473929167e-05 -0.5829344391822815 True True

886.353 5.073432445526123 -0.9758437436870118 1.1001957098590296 -1.6951776943602503 -1.570801083241598 3.5026750564575195 -0.6043724417686462 -0.014249393716454506 0.020844275131821632 -0.00944287795573473 -9.483867324888706e-05 -0.5974845290184021 True True

886.3729999999999 5.061129570007324 -0.9761490386775513 1.100661579762594 -1.6953770122923792 -1.570813004170553 3.4903407096862793 -0.6312551498413086 -0.014574718661606312 0.02290002442896366 -0.00841983500868082 -9.420530841453001e-05 -0.6289209723472595 True True

886.3929999999999 5.04832124710083 -0.9764555257609864 1.1011350790606897 -1.6955329380431117 -1.5707925001727503 3.4775140285491943 -0.6543198227882385 -0.01567671447992325 0.026292085647583008 -0.00896218791604042 -8.330532727995887e-05 -0.6632829904556274 True True

886.413 5.034782886505127 -0.9766944807818909 1.1016677061664026 -1.6957446537413539 -1.5708044211017054 3.4639430046081543 -0.6936254501342773 -0.016130845993757248 0.02411237731575966 -0.012123072519898415 -7.367157377302647e-05 -0.6814821362495422 True True

886.433 5.020702362060547 -0.9771631521037598 1.1021507422076624 -1.6959639988341273 -1.5708211104022425 3.450063705444336 -0.7124662399291992 -0.018397929146885872 0.028149358928203583 -0.007839459925889969 -6.379563274094835e-05 -0.7245241403579712 True True

886.453 5.00614595413208 -0.9774854344180604 1.1027305761920374 -1.6961194477477015 -1.5707925001727503 3.435255527496338 -0.7436853647232056 -0.017850123345851898 0.027761563658714294 -0.011649471707642078 -5.587413033936173e-05 -0.7397101521492004 True True

886.473 4.990949630737305 -0.9777793449214478 1.1032937208758753 -1.6963426075377406 -1.5707648436175745 3.4202520847320557 -0.7685151696205139 -0.01746547780930996 0.028564944863319397 -0.010335559025406837 -3.231394657632336e-05 -0.7695791125297546 True True

886.4929999999999 4.975193023681641 -0.9781080049327393 1.1039045492755335 -1.6965705356993617 -1.5707524458514612 3.4043848514556885 -0.8005544543266296 -0.01836540177464485 0.03000316023826599 -0.010503929108381271 -9.594302349119621e-13 -0.7930824160575867 True True

886.5129999999999 4.958969593048096 -0.9784830373576661 1.104516331349508 -1.6967531643309535 -1.5708087126361292 3.388336658477783 -0.8243120908737183 -0.021123001351952553 0.03384667634963989 -0.011652972549200058 -2.84863425375246e-20 -0.8319422006607056 True True

886.533 4.942202091217041 -0.9789447349360962 1.1051872412311 -1.6969849071898402 -1.5707805792437952 3.3712658882141113 -0.8561230897903442 -0.020439324900507927 0.033867496997117996 -0.012767210602760315 -8.457852314012765e-28 -0.8529180288314819 True True

886.553 4.924750328063965 -0.9793693584254761 1.1058433691607874 -1.697228570977682 -1.5708048979388636 3.3540420532226562 -0.8795238733291626 -0.022397466003894806 0.03450911119580269 -0.011340347118675709 -2.5112135178195713e-35 -0.8837364912033081 True True

886.573 4.906892776489258 -0.9797114890864869 1.1065457502948206 -1.6974989376463832 -1.570829216633932 3.3359060287475586 -0.9160495400428772 -0.021274864673614502 0.033087264746427536 -0.014444771222770214 -7.454907830208027e-43 -0.9063017964363098 True True

886.593 4.888221263885498 -0.9801762265018006 1.1071608702289026 -1.6978346310057582 -1.5708048979388636 3.317445993423462 -0.9321989417076111 -0.021468129009008408 0.03384123370051384 -0.013584666885435581 -0.0 -0.9426008462905884 True True

886.6129999999999 4.869213581085205 -0.9806217116168519 1.1078737417804163 -1.6980821094908656 -1.5708168188678187 3.2984652519226074 -0.9682077765464783 -0.02191862091422081 0.03604821488261223 -0.016155390068888664 -0.0 -0.9594027996063232 True True

886.6329999999999 4.8495917320251465 -0.9810010951808472 1.1086161772357386 -1.6984168491759242 -1.5708416144000452 3.278811454772949 -0.9941611886024475 -0.023803554475307465 0.03761840611696243 -0.012220283970236778 -0.0 -0.9915786385536194 True True

886.6529999999999 4.829387187957764 -0.981494740848877 1.1093505064593714 -1.698672433892721 -1.570801083241598 3.2587006092071533 -1.0221328735351562 -0.024165118113160133 0.03969799727201462 -0.01474465150386095 -0.0 -1.0288718938827515 True True

886.673 4.8086934089660645 -0.9819995921901246 1.110211197529928 -1.6989881000914515 -1.5707805792437952 3.237921714782715 -1.052603840827942 -0.02503226511180401 0.040606219321489334 -0.013808873482048512 -0.0 -1.042428731918335 True True

886.693 4.787750244140625 -0.9824660581401368 1.110936466847555 -1.6992064915099085 -1.570813004170553 3.2168965339660645 -1.0475914478302002 -0.023993298411369324 0.03975367918610573 -0.014621086418628693 -0.0 -1.0429372787475586 True True

886.713 4.766907691955566 -0.9830159705928345 1.1117399374591272 -1.699578424493307 -1.5708373228656214 3.196134090423584 -1.0449520349502563 -0.02476980909705162 0.03985670208930969 -0.011841746978461742 -0.0 -1.05500066280365 True True

886.733 4.745923042297363 -0.983455554848053 1.1125949064837855 -1.6998573742308558 -1.5708087126361292 3.1750457286834717 -1.0534391403198242 -0.023517316207289696 0.03961353376507759 -0.016169602051377296 -0.0 -1.0433998107910156 True True

886.7529999999999 4.724881649017334 -0.9839283984950562 1.1134236494647425 -1.7001601658263148 -1.5707925001727503 3.1540560722351074 -1.046781301498413 -0.023537229746580124 0.03804571554064751 -0.016514848917722702 -0.0 -1.0433621406555176 True True

886.7729999999999 4.7039923667907715 -0.9844101232341309 1.1141179243670862 -1.7004271946349085 -1.5707967917071741 3.133244514465332 -1.0411139726638794 -0.02528291568160057 0.03916626051068306 -0.0158199742436409 -0.0 -1.0566083192825317 True True

886.793 4.6830925941467285 -0.9849633139422913 1.1149209181415003 -1.7008072338499964 -1.5708087126361292 3.1122052669525146 -1.0516763925552368 -0.025623781606554985 0.040316250175237656 -0.014612825587391853 -0.0 -1.0415219068527222 True True

886.813 4.662045955657959 -0.9854473036578675 1.1157072226153772 -1.7010699711241664 -1.5707882086383265 3.0912530422210693 -1.0445852279663086 -0.02331313118338585 0.037739649415016174 -0.017482001334428787 -0.0 -1.0442167520523071 True True

886.833 4.641090393066406 -0.9858735364726563 1.1165102163897913 -1.7013846836485804 -1.5707886854754847 3.070425033569336 -1.0430454015731812 -0.025259356945753098 0.038780201226472855 -0.01243542693555355 -0.0 -1.0537269115447998 True True

886.853 4.620236396789551 -0.9863293927958985 1.117288891469137 -1.7016955814757289 -1.5708406607257288 3.049445629119873 -1.0512402057647705 -0.023756902664899826 0.039751552045345306 -0.01627965085208416 -0.0 -1.044016718864441 True True

886.8729999999999 4.59926700592041 -0.9868965309909363 1.1180370489703577 -1.7020064793028773 -1.5707724730121058 3.0283761024475098 -1.0449695587158203 -0.025609584525227547 0.040672432631254196 -0.017259061336517334 -0.0 -1.0438051223754883 True True

886.8929999999999 4.578293323516846 -0.9874182504466553 1.1188610235797327 -1.7023388348021449 -1.570784870778219 3.0076637268066406 -1.0429002046585083 -0.026743227615952492 0.03924880549311638 -0.012985816225409508 -0.0 -1.0585330724716187 True True

886.913 4.557476997375488 -0.9878785771182557 1.1196473280536097 -1.7025891743102015 -1.5708649794207972 2.986576557159424 -1.050861120223999 -0.023810863494873047 0.042427536100149155 -0.014897379092872143 -0.0 -1.0440939664840698 True True

886.933 4.536384582519531 -0.9883619707873841 1.1204655806170862 -1.7028361759581507 -1.5708335081683558 2.9655263423919678 -1.044763445854187 -0.022995203733444214 0.0383429154753685 -0.014034283347427845 -0.0 -1.0428858995437622 True True

886.953 4.5154900550842285 -0.9887769979289551 1.121232811604635 -1.7032119236388148 -1.5708048979388636 2.9447901248931885 -1.0441157817840576 -0.024633780121803284 0.036922793835401535 -0.015365416184067726 -0.0 -1.0519884824752808 True True

886.973 4.494611740112305 -0.989304856663086 1.1220162550555628 -1.703498979608053 -1.5708254019366663 2.923743486404419 -1.050557255744934 -0.02590855024755001 0.039012446999549866 -0.015945695340633392 -0.0 -1.0434552431106567 True True

886.9929999999999 4.473587989807129 -0.9898371261409302 1.1226852575885218 -1.7038260898985804 -1.5707686583148401 2.9026989936828613 -1.0457683801651 -0.025428583845496178 0.03944568336009979 -0.015607470646500587 -0.0 -1.04373037815094 True True

