Andreas691667/Digital_Twin_UR/data_analysis/test_results/robot_data/robot_output_wgo3.csv
timestamp actual_q_0 actual_q_1 actual_q_2 actual_q_3 actual_q_4 actual_q_5 actual_qd_0 actual_qd_1 actual_qd_2 actual_qd_3 actual_qd_4 actual_qd_5 safety_status output_bit_register_65 output_bit_register_66
18215.469999999998 3.7120699882507324 -0.8255165976336976 0.8429520765887659 -1.5882846317686976 -1.5708335081683558 2.1412222385406494 0.0 0.0 0.0 -0.0 0.0 0.0 1 False False
18215.52 3.7120413780212402 -0.8254792851260682 0.8429721037494105 -1.5882207355894984 -1.570801083241598 2.141282796859741 0.0 0.0 0.0 -0.0 0.0 0.0 1 False False
18215.57 3.712106943130493 -0.8255070608905335 0.8430169264422815 -1.5882607899107875 -1.570813004170553 2.141295909881592 0.0 0.0 0.0 -0.0 0.0 0.0 1 False False
18215.62 3.712078809738159 -0.8255037826350708 0.8430040518390101 -1.5882932148375453 -1.5708254019366663 2.141267776489258 0.0 0.0 0.0 -0.0 0.0 0.0 1 False False
18215.67 3.71209979057312 -0.825463132267334 0.8429563681231897 -1.5882331333556117 -1.570813004170553 2.141329526901245 0.0 0.0 0.0 -0.0 0.0 0.0 1 False False
18215.719999999998 3.7120368480682373 -0.825478271847107 0.8429887930499476 -1.5882374248900355 -1.5707967917071741 2.141284227371216 0.0 0.0 0.0 -0.0 0.0 0.0 1 False False
18215.77 3.712078809738159 -0.8254459661296387 0.8429835478412073 -1.5883127651610316 -1.570784870778219 2.141258955001831 0.0 0.0 0.0 -0.0 0.0 0.0 1 False False
18215.82 3.7120578289031982 -0.8254383963397522 0.8429635206805628 -1.5882932148375453 -1.5707686583148401 2.141284227371216 0.0 0.0 0.0 -0.0 0.0 0.0 1 False False
18215.87 3.712071180343628 -0.8254375022700806 0.8429635206805628 -1.5882488689818324 -1.5707891623126429 2.141279697418213 0.0 0.0 0.0 -0.0 0.0 0.0 1 False False
18215.92 3.7120578289031982 -0.825512246494629 0.8429845015155237 -1.5882331333556117 -1.570853058491842 2.1413049697875977 -9.893264359561726e-05 0.0 0.0 -0.0 0.0 0.0 1 False False
18215.969999999998 3.7120862007141113 -0.8255155247500916 0.8429964224444788 -1.5882817707457484 -1.5708048979388636 2.141333818435669 -2.6392708605271764e-05 0.0 0.0 -0.0 0.0 0.0 1 False False
18216.02 3.712041139602661 -0.8254783314517518 0.8430007139789026 -1.5882932148375453 -1.570784870778219 2.141329288482666 -1.5228349184326362e-05 0.0 0.0 -0.0 0.0 0.0 1 False False
18216.07 3.7120907306671143 -0.8254912060550232 0.8430007139789026 -1.5882765255370082 -1.570756737385885 2.14131760597229 -2.140310243703425e-05 0.0 0.0 -0.0 0.0 0.0 1 False False
18216.12 3.7120535373687744 -0.8254792851260682 0.8430379072772425 -1.588285585443014 -1.570784870778219 2.1412885189056396 -1.2597673194280105e-42 0.0 0.0 -0.0 0.0 0.0 1 False False
18216.17 3.7120816707611084 -0.8255232137492676 0.8430426756488245 -1.5883332691588343 -1.570772949849264 2.14127516746521 0.0 0.0 0.0 -0.0 0.0 0.0 1 False False
18216.219999999998 3.7120578289031982 -0.8254993122867127 0.8429587523089808 -1.5882650814452113 -1.5707805792437952 2.1413094997406006 0.0 0.0 0.0 -0.0 0.0 0.0 1 False False
18216.27 3.712045669555664 -0.8254512709430237 0.8429935614215296 -1.588297029534811 -1.570813004170553 2.1413004398345947 0.0 0.0 0.0 -0.0 0.0 0.0 1 False False
18216.32 3.712095022201538 -0.825524167423584 0.8429845015155237 -1.5883251629271449 -1.570801083241598 2.141258955001831 0.0 0.0 0.0 -0.0 0.0 0.0 1 False False
18216.37 3.712127923965454 -0.825463132267334 0.8430083433734339 -1.5882536373534144 -1.5707405249225062 2.1412975788116455 0.0 0.0 0.0 -0.0 0.0 0.0 1 False False
18216.42 3.7120742797851562 -0.8254578870585938 0.8430007139789026 -1.5882774792113246 -1.570784870778219 2.141321897506714 0.0 0.0 0.0 -0.0 0.0 0.0 1 False False
18216.469999999998 3.71209979057312 -0.8254835170558472 0.8429845015155237 -1.5882774792113246 -1.5707767645465296 2.1412723064422607 0.0 0.0 0.0 -0.0 0.0 0.0 1 False False
18216.52 3.7120606899261475 -0.8254794043353577 0.8429892698871058 -1.5883013210692347 -1.5707929770099085 2.1412723064422607 0.0 0.0 0.0 -0.0 0.0 0.0 1 False False
18216.57 3.712062358856201 -0.8254469794085999 0.8429306189166468 -1.5882498226561488 -1.570801083241598 2.1412930488586426 0.0 0.0 0.0 -0.0 0.0 0.0 1 False False
18216.62 3.7120535373687744 -0.8254664105227967 0.8429587523089808 -1.5882488689818324 -1.5707686583148401 2.1412513256073 0.0 0.0 0.0 -0.0 0.0 0.0 1 False False
18216.67 3.7120277881622314 -0.8254546684077759 0.8430293242083948 -1.5882650814452113 -1.570784870778219 2.141267776489258 0.0 0.0 0.0 -0.0 0.0 0.0 1 False False
18216.719999999998 3.7120862007141113 -0.8254912060550232 0.8429563681231897 -1.5882169208922328 -1.5707967917071741 2.1412439346313477 0.0 0.0 0.0 -0.0 0.0 0.0 1 False False
18216.77 3.712104082107544 -0.8254664105227967 0.8429935614215296 -1.5882731876769007 -1.5708335081683558 2.141308546066284 0.0 0.0 0.0 -0.0 0.0 0.0 1 False False
18216.82 3.7120578289031982 -0.8254543107799073 0.8429215590106409 -1.588297029534811 -1.5707772413836878 2.141333818435669 0.0 0.0 0.0 -0.0 0.0 0.0 1 False False
18216.87 3.712095260620117 -0.8254750531962891 0.8429425398456019 -1.5882569752135218 -1.570829216633932 2.1413004398345947 0.0 0.0 0.0 -0.0 0.0 0.0 1 False False
18216.92 3.712071418762207 -0.8254795235446473 0.8430588881122034 -1.5882774792113246 -1.5707686583148401 2.141308546066284 0.0 0.0 0.0 -0.0 0.0 0.0 1 False False
18216.969999999998 3.7120742797851562 -0.8255201739123841 0.8430007139789026 -1.588285585443014 -1.5707767645465296 2.141284227371216 0.0 0.0 0.0 -0.0 0.0 0.0 1 False False
18217.02 3.7120368480682373 -0.8254543107799073 0.8429845015155237 -1.588269372979635 -1.5707648436175745 2.141350269317627 0.0 0.0 0.0 -0.0 0.0 0.0 1 False False
18217.07 3.7120249271392822 -0.8254823845675965 0.8429606596576136 -1.588285585443014 -1.570813004170553 2.141333818435669 0.0 0.0 0.0 -0.0 0.0 0.0 1 False False
18217.12 3.712050199508667 -0.8254735630801697 0.8429721037494105 -1.588285585443014 -1.5708091894732874 2.141296148300171 0.0 0.0 0.0 -0.0 0.0 0.0 1 False False
18217.17 3.712045669555664 -0.8254736226848145 0.8429754416095179 -1.588313718835348 -1.570845905934469 2.141270637512207 0.0 0.0 0.0 -0.0 0.0 0.0 1 False False
18217.219999999998 3.712123394012451 -0.8254750531962891 0.8429845015155237 -1.5882846317686976 -1.5707443396197718 2.141321897506714 0.0 0.0 0.0 -0.0 0.0 0.0 1 False False
18217.27 3.712078809738159 -0.825463132267334 0.8429964224444788 -1.5882846317686976 -1.5707724730121058 2.1412513256073 -5.605193857299268e-44 0.0 0.0 -0.0 0.0 0.0 1 False False
18217.32 3.712045669555664 -0.8255202931216736 0.8429964224444788 -1.5882536373534144 -1.570813004170553 2.141258955001831 0.0 0.0 0.0 -0.0 0.0 0.0 1 False False
18217.37 3.7120578289031982 -0.8255365651896973 0.842992130910055 -1.5883094273009242 -1.570784870778219 2.141313076019287 0.0 0.0 0.0 -0.0 0.0 0.0 1 False False
18217.42 3.712071418762207 -0.8254794639400025 0.8430054823504847 -1.588285585443014 -1.570784870778219 2.141218662261963 0.0 0.0 0.0 -0.0 0.0 0.0 1 False False
18217.469999999998 3.7120697498321533 -0.8254393500140687 0.8429673353778284 -1.5882894001402796 -1.570784870778219 2.14131760597229 0.0 0.0 0.0 -0.0 0.0 0.0 1 False False
18217.52 3.7120907306671143 -0.8254750531962891 0.8430040518390101 -1.5882774792113246 -1.5707891623126429 2.1412723064422607 0.0 0.0 0.0 -0.0 0.0 0.0 1 False False
18217.57 3.712050199508667 -0.825495795612671 0.8429802099810999 -1.5882617435851039 -1.57074481645693 2.141313076019287 0.0 0.0 0.0 -0.0 0.0 0.0 1 False False
18217.62 3.7120323181152344 -0.8254869741252442 0.8430379072772425 -1.588245531121725 -1.5708211104022425 2.141267776489258 0.0 0.0 0.0 -0.0 0.0 0.0 1 False False
18217.67 3.712111473083496 -0.825445370083191 0.8430245558368128 -1.5883370838561 -1.570784870778219 2.141270637512207 0.0 0.0 0.0 -0.0 0.0 0.0 1 False False
18217.719999999998 3.7121357917785645 -0.8254869741252442 0.8429845015155237 -1.5882774792113246 -1.5708449522601526 2.141284227371216 0.0 0.0 0.0 -0.0 0.0 0.0 1 False False
18217.77 3.712059259414673 -0.825495795612671 0.8429587523089808 -1.5882774792113246 -1.5707686583148401 2.141345739364624 0.0 0.0 0.0 -0.0 0.0 0.0 1 False False
18217.82 3.7120697498321533 -0.8254706424525757 0.8430007139789026 -1.5883289776244105 -1.5707605520831507 2.1413414478302 0.0 0.0 0.0 -0.0 0.0 0.0 1 False False
18217.87 3.712127923965454 -0.825463132267334 0.8429930845843714 -1.5882417164244593 -1.5708449522601526 2.1413040161132812 0.0 0.0 0.0 -0.0 0.0 0.0 1 True False
18217.92 3.7120862007141113 -0.8254468005946656 0.8430126349078577 -1.588245531121725 -1.5707648436175745 2.141313076019287 0.0 0.0 0.0 -0.0 0.0 0.0 1 True False
18217.969999999998 3.712045669555664 -0.8254869741252442 0.8429887930499476 -1.58825745205068 -1.5708087126361292 2.141308546066284 0.0 0.0 0.0 -0.0 0.0 0.0 1 True False
18218.02 3.7120578289031982 -0.825470582847931 0.8430007139789026 -1.5883094273009242 -1.5708254019366663 2.141258955001831 0.0 0.0 0.0 -0.0 0.0 0.0 1 True False
18218.07 3.712083101272583 -0.825412706737854 0.8429845015155237 -1.5882498226561488 -1.570784870778219 2.1412723064422607 0.0 0.0 0.0 -0.0 0.0 0.0 1 True False
18218.12 3.7120742797851562 -0.8254794639400025 0.8429520765887659 -1.5882817707457484 -1.570801083241598 2.141291618347168 0.0 0.0 0.0 -0.0 0.0 0.0 1 True False
18218.17 3.7120981216430664 -0.8255002063563843 0.8430169264422815 -1.588245531121725 -1.570853058491842 2.141247034072876 0.0 0.0 0.0 -0.0 0.0 0.0 1 True False
18218.219999999998 3.7120535373687744 -0.8255001467517395 0.8429678122149866 -1.5883370838561 -1.570801083241598 2.141258716583252 0.0 0.0 0.0 -0.0 0.0 0.0 1 True False
18218.27 3.7120981216430664 -0.8254860800555726 0.8429635206805628 -1.5883051357665003 -1.5708254019366663 2.1412558555603027 0.0 0.0 0.0 -0.0 0.0 -1.594481924965807e-14 1 True False
18218.32 3.7121188640594482 -0.8254993718913575 0.8429887930499476 -1.5882774792113246 -1.5707529226886194 2.1413443088531494 0.0 0.0 0.0 -0.0 0.0 -3.315568756079301e-05 1 True False
18218.37 3.7120535373687744 -0.825495795612671 0.8429635206805628 -1.5883013210692347 -1.5708382765399378 2.1412513256073 0.0 0.0 0.0 -0.0 -0.001564802834764123 -2.2913537733870726e-08 1 True False
18218.42 3.712148666381836 -0.8255039018443604 0.8429845015155237 -1.5883251629271449 -1.5707486311541956 2.14131760597229 0.0 0.0 0.0 -0.0 1.6136646463493776e-09 -3.480571410375723e-27 1 True False
18218.469999999998 3.712351083755493 -0.8256428998759766 0.8432238737689417 -1.588349004785055 -1.570813004170553 2.141561269760132 0.02546137385070324 -0.017119834199547768 0.027053168043494225 -0.008342650718986988 6.127720265881528e-14 0.02674545906484127 1 True False
18218.52 3.7151882648468018 -0.8277106446078797 0.8463228384601038 -1.5892025432982386 -1.5708368460284632 2.144428253173828 0.08595933020114899 -0.06877205520868301 0.09891504049301147 -0.02937568537890911 9.308017569819908e-33 0.08403542637825012 1 True False
18218.57 3.721224308013916 -0.8326238554767151 0.8533361593829554 -1.5911604366698207 -1.5708211104022425 2.1503090858459473 0.1483183354139328 -0.12456469237804413 0.16782832145690918 -0.052598223090171814 0.0 0.15151984989643097 1 True False
18218.62 3.730051040649414 -0.8402740520289917 0.8635171095477503 -1.594039102593893 -1.5707805792437952 2.1592676639556885 0.20776651799678802 -0.17011672258377075 0.24487388134002686 -0.06117752939462662 0.0 0.2071884125471115 1 True False
18218.67 3.7421839237213135 -0.8502444189837952 0.8773062864886683 -1.5977312527098597 -1.5708616415606897 2.171234130859375 0.2677159011363983 -0.22258587181568146 0.31247565150260925 -0.08857730776071548 8.45402100821957e-05 0.27452704310417175 1 True False
18218.719999999998 3.757073402404785 -0.8625827592662354 0.8944209257708948 -1.6027199230589808 -1.5707762877093714 2.1863250732421875 0.33017346262931824 -0.2746836245059967 0.37686339020729065 -0.10443596541881561 0.00011843697575386614 0.32887527346611023 1 True False
18218.77 3.775345802307129 -0.8775262397578736 0.9152911345111292 -1.608389516870016 -1.5707891623126429 2.2043330669403076 0.39066508412361145 -0.31903523206710815 0.44474542140960693 -0.12059376388788223 7.143105904106051e-05 0.3949896991252899 1 True False
18218.82 3.796266555786133 -0.895011381512024 0.9393270651446741 -1.6152717075743617 -1.570813004170553 2.2257204055786133 0.45307400822639465 -0.3744673728942871 0.5166411399841309 -0.144638329744339 1.2925883311254438e-05 0.4452141523361206 1 True False
18218.87 3.820733070373535 -0.914942280655243 0.9669635931598108 -1.6229716740050257 -1.5707972685443323 2.249849557876587 0.5155397057533264 -0.4244435131549835 0.5868498086929321 -0.15903432667255402 0.00010504754027351737 0.5138543844223022 1 True False
18218.92 3.847966194152832 -0.9372866314700623 0.9983604590045374 -1.6315657101073207 -1.5707891623126429 2.277082681655884 0.5835400819778442 -0.47215142846107483 0.6601282954216003 -0.17245224118232727 -5.264142011185413e-09 0.5790548920631409 1 True False
18218.969999999998 3.878263473510742 -0.9624174994281312 1.032931152974264 -1.6413022480406703 -1.5707967917071741 2.3073718547821045 0.6360960602760315 -0.5245165824890137 0.7301302552223206 -0.20372772216796875 -7.655619265278801e-05 0.6382875442504883 1 True False
18219.02 3.9116690158843994 -0.9897992175868531 1.0710590521441858 -1.6520458660521449 -1.5708087126361292 2.340843915939331 0.7031623721122742 -0.581121563911438 0.7925865054130554 -0.21729867160320282 -3.3592760234822075e-16 0.7024680972099304 1 True False
18219.07 3.948105812072754 -1.0198307198337098 1.1126235167132776 -1.6635991535582484 -1.5708087126361292 2.377432346343994 0.7636160254478455 -0.6263613700866699 0.869896411895752 -0.23666101694107056 -8.873501933237549e-09 0.7580335736274719 1 True False
18219.12 3.987619400024414 -1.0521838825992127 1.1577613989459437 -1.6763488254942835 -1.5708125273333948 2.4168224334716797 0.8216981291770935 -0.678584635257721 0.938167929649353 -0.2746976613998413 -1.3478870123721868e-27 0.8130157589912415 1 True False
18219.17 4.030125617980957 -1.0873218041709443 1.2064908186541956 -1.6898871860899867 -1.570836369191305 2.459202766418457 0.8768025636672974 -0.7289302349090576 1.008263349533081 -0.2710902690887451 -0.0 0.8881731033325195 1 True False
18219.219999999998 4.075486660003662 -1.1247501832297822 1.2583993116961878 -1.7043920956053675 -1.5706918875323694 2.5047457218170166 0.9236594438552856 -0.749228298664093 1.044796347618103 -0.3000628352165222 0.0003311100590508431 0.9167490005493164 1 True False
18219.27 4.1213531494140625 -1.16250033796344 1.3106101194964808 -1.718896051446432 -1.5708172957049769 2.550427198410034 0.9119290113449097 -0.7485487461090088 1.051384687423706 -0.29353830218315125 -2.4240831035722034e-14 0.9189695119857788 1 True False
18219.32 4.167141914367676 -1.200191394691803 1.3629053274737757 -1.7334677181639613 -1.570784870778219 2.596327066421509 0.9231301546096802 -0.7529458999633789 1.049623727798462 -0.28360962867736816 -0.00025854408158920705 0.9169203042984009 1 True False
18219.37 4.212959289550781 -1.237728939657547 1.4151766935931605 -1.7483793697752894 -1.570772949849264 2.6421000957489014 0.9127300977706909 -0.7576902508735657 1.0354902744293213 -0.3019709587097168 -0.00011245672794757411 0.9117982983589172 1 True False
18219.42 4.2588396072387695 -1.2755551499179383 1.4675186316119593 -1.762785097161764 -1.5707767645465296 2.6880321502685547 0.917847752571106 -0.75288325548172 1.043236255645752 -0.2908148765563965 -6.47239361013422e-19 0.9190447330474854 1 True False
18219.469999999998 4.304649829864502 -1.313331977730133 1.5199740568744105 -1.7774764500060023 -1.5708211104022425 2.7338485717773438 0.9140282869338989 -0.7506347298622131 1.0477869510650635 -0.2703688442707062 0.0003953217528760433 0.9071520566940308 1 True False
18219.52 4.350162982940674 -1.3508749914220353 1.5721223990069788 -1.7918368778624476 -1.5707653204547327 2.779330253601074 0.8948072791099548 -0.730913519859314 1.0175584554672241 -0.2815488278865814 -1.0159525986396076e-15 0.8984938263893127 1 True False
18219.57 4.393160820007324 -1.3862467271140595 1.6211136023150843 -1.8055201969542445 -1.570801083241598 2.8224148750305176 0.8352569937705994 -0.6828014850616455 0.9473844766616821 -0.2631276249885559 1.8855216694646515e-05 0.8263787627220154 1 True False
18219.62 4.433042526245117 -1.4190834623626252 1.666675869618551 -1.8185497723021449 -1.5707886854754847 2.8621881008148193 0.7651904225349426 -0.6334977149963379 0.8729699850082397 -0.2536991238594055 -0.000588038528803736 0.7712851762771606 1 True False
18219.67 4.469930171966553 -1.4495306846550484 1.7089770475970667 -1.8301130733885707 -1.570796314870016 2.8989810943603516 0.7117413282394409 -0.5834382772445679 0.8087262511253357 -0.2104518562555313 -0.0009489500662311912 0.721892237663269 1 True False
18219.719999999998 4.5038065910339355 -1.4772554200938721 1.7475832144366663 -1.8409840069212855 -1.5707886854754847 2.9329612255096436 0.6465570330619812 -0.5288312435150146 0.7336090207099915 -0.22959525883197784 -9.550241520628333e-05 0.6508212685585022 1 True False
18219.77 4.534582138061523 -1.5026074436357995 1.7826669851886194 -1.8508664570250453 -1.5707610289203089 2.963674545288086 0.5888699293136597 -0.47638604044914246 0.6728847026824951 -0.18077927827835083 0.0011681781616061926 0.5982139706611633 1 True False
18219.82 4.562413215637207 -1.5253394705108185 1.8142741362201136 -1.8595878086485804 -1.5707362333880823 2.9913928508758545 0.5230185389518738 -0.434297114610672 0.6070157885551453 -0.15176931023597717 0.0014063104754313827 0.529177188873291 1 True False
18219.87 4.587043285369873 -1.5457481008819123 1.8424070517169397 -1.8675390682616175 -1.570801083241598 3.0160953998565674 0.46599963307380676 -0.3808121979236603 0.5286718010902405 -0.14863674342632294 0.0002289877738803625 0.4650450646877289 1 True False
18219.92 4.608437538146973 -1.5633906473270436 1.8672493139850062 -1.8744412861266078 -1.570853058491842 3.03778338432312 0.4056346118450165 -0.3313171863555908 0.4599063992500305 -0.14038799703121185 1.3336567405985988e-09 0.40010708570480347 1 True False
18219.969999999998 4.6270647048950195 -1.5787621937193812 1.8885048071490687 -1.8802887401976527 -1.570801083241598 3.0562875270843506 0.3408905863761902 -0.2774065136909485 0.39671915769577026 -0.10220300406217575 -9.296775533584878e-05 0.34698009490966797 1 True False
18220.02 4.642608642578125 -1.591780801812643 1.9057062307940882 -1.8854853115477503 -1.5708087126361292 3.071812629699707 0.2814425528049469 -0.23014366626739502 0.3205403685569763 -0.08272422105073929 3.979474527682214e-10 0.2773730456829071 1 True False
18220.07 4.655053615570068 -1.6017495594420375 1.9205101172076624 -1.889376779595846 -1.5708091894732874 3.0841610431671143 0.2174392193555832 -0.1798989325761795 0.2449335902929306 -0.07845104485750198 0.00023384770611301064 0.23130975663661957 1 True False
18220.12 4.664383411407471 -1.6094581089415492 1.9311001936541956 -1.8922621212401332 -1.5707843939410608 3.093630313873291 0.16219548881053925 -0.13110151886940002 0.18367518484592438 -0.04606758430600166 3.384997398825362e-05 0.15565279126167297 1 True False
18220.17 4.670764446258545 -1.614739557305807 1.938127342854635 -1.8943826160826625 -1.5707805792437952 3.0999624729156494 0.09906238317489624 -0.08102003484964371 0.11135178804397583 -0.032487887889146805 1.7444033801439218e-05 0.09554043412208557 1 True False
18220.219999999998 4.673985004425049 -1.6174704037108363 1.9420602957354944 -1.8953992329039515 -1.5708211104022425 3.1032490730285645 0.03573908656835556 -0.03138493373990059 0.04226253181695938 -0.012028995901346207 1.1750113117159344e-05 0.036628324538469315 1 True False
18220.27 4.674391746520996 -1.6176625690855921 1.9427793661700647 -1.895982404748434 -1.570829216633932 3.1036579608917236 -0.002679691417142749 0.014554214663803577 0.01867321878671646 -0.03670676797628403 3.388732504783394e-14 0.00014858201029710472 1 True False
18220.32 4.674460411071777 -1.6165529690184535 1.9448254744159144 -1.8990918598570765 -1.5708006064044397 3.1036908626556396 0.00041477728518657386 0.03582900017499924 0.060695964843034744 -0.09633587300777435 5.147490864276751e-33 0.0005027821171097457 1 True False
18220.37 4.674468517303467 -1.613997598687643 1.9490121046649378 -1.9059225521483363 -1.5707967917071741 3.103665590286255 0.0006378598627634346 0.06642778217792511 0.10190059244632721 -0.16269570589065552 0.0 0.0005114555824548006 1 True False
18220.42 4.6745405197143555 -1.6101452312865199 1.955273453389303 -1.9160572491087855 -1.5707967917071741 3.103705644607544 0.0004622475244104862 0.09547372162342072 0.14784695208072662 -0.23549164831638336 3.0030127690094943e-12 0.00038134458009153605 1 True False
18220.469999999998 4.674426078796387 -1.6046816311278285 1.963757340108053 -1.9297496281065882 -1.5707929770099085 3.103755474090576 0.0002179010771214962 0.12048669159412384 0.19078044593334198 -0.30108246207237244 4.561580589806599e-31 0.00015303697728086263 1 True False
18220.52 4.674540042877197 -1.598074575463766 1.974363152180807 -1.947066446343893 -1.5707886854754847 3.103760004043579 0.00017710721294861287 0.14570531249046326 0.23600172996520996 -0.37644436955451965 0.0 9.924700134433806e-05 1 True False
18220.57 4.674535751342773 -1.5900880299010218 1.9872072378741663 -1.9677568874754847 -1.57084829012026 3.103755474090576 7.610737520735711e-05 0.16649113595485687 0.269368439912796 -0.4568708837032318 0.0 6.80006414768286e-05 1 True False
18220.62 4.674556255340576 -1.5808330974974574 2.001962486897604 -1.9918271503844203 -1.5707691351519983 3.103717565536499 2.443842458887957e-05 0.20001643896102905 0.32936185598373413 -0.5114020705223083 0.0 1.4410110957472342e-15 1 True False
18220.67 4.674514293670654 -1.5701922100600605 2.0190685431109827 -2.0196052990355433 -1.5707805792437952 3.103739023208618 1.4556693713529967e-05 0.22905556857585907 0.36493638157844543 -0.5711257457733154 3.6827015719609335e-05 2.1888983621594993e-34 1 True False
18220.719999999998 4.674519062042236 -1.5590582948974152 2.0368245283709925 -2.0485421619811 -1.570784870778219 3.103739023208618 0.0 0.20769868791103363 0.3386804461479187 -0.5516382455825806 1.820192665036302e-05 0.0 1 True False
18220.77 4.674535751342773 -1.5492108979127188 2.0527008215533655 -2.0743490658202113 -1.5707967917071741 3.103726625442505 0.0 0.18384705483913422 0.2966931462287903 -0.48435914516448975 6.511407006405318e-24 0.0 1 True False
18220.82 4.674490928649902 -1.5406047117761155 2.066303555165426 -2.0967098675169886 -1.5707767645465296 3.1037418842315674 0.0 0.16124846041202545 0.2603488862514496 -0.41048723459243774 9.893167158133209e-43 0.0 1 True False
18220.87 4.674540042877197 -1.5332981322756787 2.078183952962057 -2.115406175652975 -1.5708091894732874 3.103743553161621 0.0 0.12921667098999023 0.2072530835866928 -0.33378633856773376 0.0 2.574809256913816e-24 1 True False
18220.92 4.674473285675049 -1.5274740395000954 2.0873807112323206 -2.13071932415151 -1.5707767645465296 3.1037211418151855 0.0 0.1028374582529068 0.16847597062587738 -0.27979013323783875 0.0 3.90962271546624e-43 1 True False
18220.969999999998 4.674532413482666 -1.5230265606990834 2.094612423573629 -2.1425849399962367 -1.5707605520831507 3.10371732711792 0.0 0.07630540430545807 0.12722936272621155 -0.19313588738441467 0.0 0.0 1 True False
18221.02 4.674511909484863 -1.519842666839697 2.099832359944479 -2.1507884464659632 -1.570784870778219 3.103726625442505 0.0 0.04967885836958885 0.08528256416320801 -0.1371811330318451 0.0 1.334988064627396e-05 1 True False
18221.07 4.674544811248779 -1.5179418486407776 2.1028392950641077 -2.1556173763670863 -1.5708048979388636 3.1037344932556152 0.0 0.02558046020567417 0.03597456216812134 -0.05885373800992966 0.0 2.0278501816961117e-24 1 True False
18221.12 4.674527645111084 -1.5174308766475697 2.1036818663226526 -2.1569019756712855 -1.5707767645465296 3.1037464141845703 0.0 -0.0015617685858160257 -0.001205273438245058 0.0031832195818424225 0.0 3.0828566215145976e-43 1 True False
18221.17 4.674535751342773 -1.517463543718197 2.1036375204669397 -2.1569467983641566 -1.5707967917071741 3.103722095489502 0.0 -4.288522996022116e-25 0.0001983478869078681 1.2245219152254478e-16 0.0 0.0 1 True False
18221.219999999998 4.67452335357666 -1.5174427789500733 2.103612248097555 -2.1569658718504847 -1.570801083241598 3.103696584701538 0.0 0.00036600540624931455 2.608808003289387e-26 -7.827141234884039e-05 0.0 0.0 1 True False
18221.27 4.674514293670654 -1.5174308580211182 2.103628937398092 -2.1569863758482875 -1.5707767645465296 3.103726625442505 0.0 0.00027721739024855196 0.0 -0.00031695200596004725 0.0 0.0 1 True False
18221.32 4.674540042877197 -1.5174056862345715 2.1036790052997034 -2.1570145092406214 -1.570784870778219 3.103692054748535 0.0 0.00017461470270063728 0.0 -0.0005275465664453804 0.0 0.0 1 True False
18221.37 4.674444675445557 -1.5174278703382988 2.103645149861471 -2.157086034814352 -1.570784870778219 3.1036593914031982 0.0 0.0001235245435964316 0.0 -0.00031820297590456903 0.0 0.0 1 True False
18221.42 4.6744866371154785 -1.5173948754421254 2.1036747137652796 -2.1570545635619105 -1.5708006064044397 3.103701114654541 0.0 0.00012385635636746883 0.0 -0.00011252627882640809 0.0 0.0 1 True False
18221.469999999998 4.674544811248779 -1.517393422578909 2.1036580244647425 -2.1570784054198207 -1.570801083241598 3.103705644607544 0.0 0.00010765511979116127 2.2285105618496948e-12 -7.967560668475926e-05 0.0 0.0 1 True False
18221.52 4.674527645111084 -1.5173740920475502 2.1036790052997034 -2.1570822201170863 -1.5708416144000452 3.103767156600952 0.0 9.431162470718846e-05 5.2436588535034655e-42 -7.851997452235082e-07 0.0 0.0 1 True False
18221.57 4.6745524406433105 -1.5174067255905648 2.1036904493915003 -2.1570898495116175 -1.570813004170553 3.103710174560547 0.0 2.1334220434710005e-07 0.0 -1.1927203410606883e-25 0.0 0.0 1 True False
18221.62 4.674549102783203 -1.5173669581166287 2.103666130696432 -2.157022615472311 -1.570772949849264 3.103717565536499 0.0 0.0 0.0 -1.8216880036222622e-44 0.0 0.0 1 True False
18221.67 4.674565315246582 -1.5173625101200123 2.1036704222308558 -2.157070299188131 -1.5707925001727503 3.103705644607544 0.0 0.0 0.0 -1.3170644706406165e-05 0.0 0.0 1 True False
18221.719999999998 4.674532413482666 -1.5175145429423829 2.1035264174090784 -2.157194276849264 -1.5708449522601526 3.1037464141845703 0.0 -3.505931545078056e-09 -9.100065319345152e-12 -0.001485395128838718 0.0 -0.0001726620102999732 1 True False
18221.77 4.674540042877197 -1.5174503077617665 2.1035950819598597 -2.157194276849264 -1.57074481645693 3.103713035583496 0.0 0.0003022512246388942 0.0003128236858174205 -9.252396557712927e-05 0.0 -6.407962064258754e-05 1 True False
18221.82 4.6745524406433105 -1.5174635288170357 2.103562657033102 -2.1571818790831507 -1.5707891623126429 3.103743553161621 0.0 0.0005933292559348047 0.0009563697967678308 0.00022256783267948776 0.0 -3.3901269489433616e-05 1 True True
18221.87 4.674516201019287 -1.5178562377444287 2.1029275099383753 -2.1549817524352015 -1.570784870778219 3.1037344932556152 -1.9996340890217736e-16 -0.025505250319838524 -0.03724265098571777 0.06610307097434998 0.0 -4.608480594470166e-05 1 True True
18221.92 4.674549102783203 -1.5200530265322705 2.099367920552389 -2.1497656307616175 -1.5708168188678187 3.1037628650665283 0.0 -0.055848002433776855 -0.09142811596393585 0.15740305185317993 0.0 -2.2818546097785886e-12 1 True True
18221.969999999998 4.674482345581055 -1.5235710752061387 2.093741242085592 -2.1409293613829554 -1.5707605520831507 3.1037747859954834 0.0 -0.08516018837690353 -0.13409724831581116 0.2061888575553894 0.0 -3.466142576450453e-31 1 True True
18222.02 4.674499988555908 -1.5282616217485447 2.0861833731280726 -2.1287108860411585 -1.5707886854754847 3.103755474090576 0.0 -0.10825947672128677 -0.17622274160385132 0.2924419939517975 0.0 -0.0 1 True True
18222.07 4.674527645111084 -1.5344241236201306 2.0764010588275355 -2.1126467190184535 -1.570813004170553 3.103705644607544 0.0 -0.13221357762813568 -0.21711716055870056 0.35149380564689636 0.0 -5.110746860736981e-05 1 True True
18222.12 4.674495697021484 -1.5418116778931399 2.0642975012408655 -2.093477865258688 -1.5707805792437952 3.103768825531006 0.0 -0.16127237677574158 -0.2634963095188141 0.42124953866004944 0.0 -3.7388937291921564e-22 1 True True
18222.17 4.674519062042236 -1.550589195718505 2.0503509680377405 -2.070704599420065 -1.5707529226886194 3.1037421226501465 0.0 -0.19326557219028473 -0.30995577573776245 0.483948290348053 0.0 -5.679322546062051e-41 1 True True
18222.219999999998 4.674495697021484 -1.5607097756913682 2.034194294606344 -2.044215818444723 -1.570784870778219 3.1037464141845703 0.0 -0.21344129741191864 -0.34796321392059326 0.5687054395675659 0.0 -0.0 1 True True
18222.27 4.67452335357666 -1.571949144402975 2.0161870161639612 -2.015020032922262 -1.5707772413836878 3.103743553161621 0.0 -0.2237040102481842 -0.35794317722320557 0.5711970925331116 0.0 -0.0 1 True True
18222.32 4.674514293670654 -1.5823341808714808 1.999380890523092 -1.987863679925436 -1.5707767645465296 3.1037509441375732 0.0 -0.20021644234657288 -0.3149154484272003 0.5129848122596741 8.980535928394131e-21 -0.0 1 True True
18222.37 4.674519062042236 -1.591532369653219 1.9850590864764612 -1.964266916314596 -1.5708335081683558 3.103767156600952 0.0 -0.1693427562713623 -0.2760090231895447 0.43421217799186707 1.3641458381401732e-39 -0.0 1 True True
18222.42 4.674519062042236 -1.5992566547789515 1.9725249449359339 -1.9441539249815882 -1.5707767645465296 3.1037256717681885 0.0 -0.14189177751541138 -0.228119894862175 0.36800527572631836 0.0 -7.260213697596329e-12 1 True True
18222.469999999998 4.6745100021362305 -1.6055671177306117 1.9623678366290491 -1.927443643609518 -1.5708048979388636 3.103696584701538 0.0 -0.11450120806694031 -0.18149618804454803 0.30599045753479004 0.0 -1.1028277350827034e-30 1 True True
18222.52 4.67452335357666 -1.6106587849059046 1.9541814962970179 -1.9142524204649867 -1.570813004170553 3.103780746459961 0.0 -0.08861016482114792 -0.14342902600765228 0.24633698165416718 0.0 -0.0 1 True True
18222.57 4.674529552459717 -1.6143909893431605 1.948301140462057 -1.9046102962889613 -1.5708449522601526 3.103717565536499 0.0 -0.06358073651790619 -0.09682832658290863 0.1589774340391159 0.0 -0.0 1 True True
18222.62 4.674502849578857 -1.616789003411764 1.9443929831134241 -1.8983918629088343 -1.5707805792437952 3.1037509441375732 0.0 -0.03778693825006485 -0.05760199576616287 0.08353698253631592 0.0 -0.0 1 True True
18222.67 4.674572944641113 -1.6178022823729457 1.9427979628192347 -1.8956824741759242 -1.5707724730121058 3.103743553161621 -2.4865713025785586e-18 -0.007265716325491667 -0.011148655787110329 0.021769195795059204 0.0 -0.0 1 True True
18222.719999999998 4.6736159324646 -1.6175719700255335 1.9424179236041468 -1.8955632648863734 -1.5707891623126429 3.102890729904175 -0.050922222435474396 0.011872421018779278 -0.02095690369606018 0.0022994030732661486 0.0 -0.048840295523405075 1 True True
18222.77 4.669350624084473 -1.6165219746031703 1.9410675207721155 -1.8952518902220667 -1.5708048979388636 3.0984718799591064 -0.12169910967350006 0.03156817704439163 -0.03697214275598526 0.007698242086917162 0.0 -0.11668386310338974 1 True True
18222.82 4.661578178405762 -1.6145268879332484 1.9384263197528284 -1.894848962823385 -1.570813004170553 3.090682029724121 -0.18917861580848694 0.050949305295944214 -0.06081308051943779 0.012441089376807213 -0.00012432019866537303 -0.185922771692276 1 True True
18222.87 4.6502275466918945 -1.6115576229491175 1.93494159380068 -1.8942095241942347 -1.5707805792437952 3.079517364501953 -0.25826916098594666 0.0710190013051033 -0.085365891456604 0.011940889991819859 -6.836535612819716e-05 -0.2578221261501312 1 True True
18222.92 4.635530948638916 -1.6075545750060023 1.9301288763629358 -1.8934833012022914 -1.5707324186908167 3.0647261142730713 -0.32221683859825134 0.08882014453411102 -0.10418780148029327 0.01379141490906477 -7.447107054758817e-05 -0.32780879735946655 1 True True
18222.969999999998 4.617303371429443 -1.6026488743224085 1.9242690245257776 -1.892444749871725 -1.570784870778219 3.046571731567383 -0.40134045481681824 0.1072743684053421 -0.13196466863155365 0.01800047606229782 -1.1312175450726114e-23 -0.40126803517341614 1 True True
18223.02 4.5955328941345215 -1.5968700848021449 1.9174492994891565 -1.8912636242308558 -1.5707925001727503 3.024681568145752 -0.468447744846344 0.12288086116313934 -0.14813192188739777 0.026257477700710297 -0.00015626590175088495 -0.4661584198474884 1 True True
18223.07 4.570288181304932 -1.5901404819884242 1.9091504255877894 -1.8899427853026332 -1.5707805792437952 2.9994418621063232 -0.5342835187911987 0.14322279393672943 -0.16893330216407776 0.02865666151046753 -0.00014544215810019523 -0.5366173982620239 1 True True
18223.12 4.5413384437561035 -1.5825206242003382 1.9002164045916956 -1.888482233087057 -1.5708654562579554 2.970721483230591 -0.6073158383369446 0.1605859249830246 -0.18836775422096252 0.034321483224630356 -4.6531248826277683e-20 -0.6060715317726135 1 True True
18223.17 4.509227275848389 -1.5741287670531214 1.8900850454913538 -1.8866898022093714 -1.5708044211017054 2.938575506210327 -0.6796653866767883 0.1819050908088684 -0.22244609892368317 0.0361851267516613 -0.0025302423164248466 -0.6808307766914368 1 True True
18223.219999999998 4.473504066467285 -1.564569527083524 1.8785021940814417 -1.8848816357054652 -1.5708044211017054 2.9027740955352783 -0.7523386478424072 0.20050789415836334 -0.24437253177165985 0.031945277005434036 1.429096664651297e-05 -0.7400701642036438 1 True True
18223.27 4.434448719024658 -1.5542387545904894 1.8661835829364222 -1.8827344379820765 -1.5708006064044397 2.8636138439178467 -0.8264921307563782 0.216599702835083 -0.25670742988586426 0.03847649693489075 -0.002388850785791874 -0.8081662058830261 1 True True
18223.32 4.391777515411377 -1.5430618815920134 1.8525717894183558 -1.8802348575987757 -1.5707772413836878 2.8211286067962646 -0.8852967619895935 0.24087531864643097 -0.27397894859313965 0.048946771770715714 9.813983653517155e-11 -0.892895519733429 1 True True
18223.37 4.345606327056885 -1.5306197305074711 1.8378399054156702 -1.8779684505858363 -1.5707967917071741 2.7747724056243896 -0.9578120112419128 0.25161293148994446 -0.29934483766555786 0.05279455706477165 0.0002311474527232349 -0.9524836540222168 1 True True
18223.42 4.295988082885742 -1.5176783849349995 1.822010342274801 -1.8753138981261195 -1.5707486311541956 2.72520112991333 -1.0243359804153442 0.26878121495246887 -0.3286147117614746 0.054224397987127304 -1.952549695261041e-07 -1.0297240018844604 1 True True
18223.469999999998 4.243821144104004 -1.5036903259209176 1.8052828947650355 -1.8723474941649378 -1.5708006064044397 2.6729187965393066 -1.0481876134872437 0.27618470788002014 -0.32912716269493103 0.0546879805624485 -2.9659268758268945e-26 -1.0427535772323608 1 True True
18223.52 4.191440105438232 -1.4898714286139985 1.7887728849994105 -1.869640966454977 -1.570813004170553 2.6204092502593994 -1.0439860820770264 0.2739807963371277 -0.3317257761955261 0.05102931708097458 0.00026132899802178144 -1.0492515563964844 1 True True
18223.57 4.138968467712402 -1.476066918378212 1.7719100157367151 -1.8666702709593714 -1.5708449522601526 2.568311929702759 -1.0427651405334473 0.27904054522514343 -0.33451956510543823 0.06388717144727707 -1.63117010743008e-06 -1.0536876916885376 1 True True
18223.62 4.086653232574463 -1.4619943362525483 1.7553051153766077 -1.8640428982176722 -1.5708325544940394 2.515885353088379 -1.0526363849639893 0.2728275954723358 -0.32985711097717285 0.05423353612422943 4.1785582993725257e-07 -1.043615698814392 1 True True
18223.67 4.034299373626709 -1.4482387167266388 1.7387598196612757 -1.8610927067198695 -1.5708006064044397 2.4633865356445312 -1.045953392982483 0.28030717372894287 -0.3378221094608307 0.057395417243242264 0.00016254153160843998 -1.042183756828308 1 True True
18223.719999999998 3.9818484783172607 -1.4342834514430542 1.7218144575702112 -1.8583060703673304 -1.5707805792437952 2.4111735820770264 -1.0409973859786987 0.27417948842048645 -0.33100172877311707 0.0555318184196949 -1.8831521033488323e-17 -1.053506851196289 1 True True
18223.77 3.9296212196350098 -1.4205958259156723 1.7053597609149378 -1.8555871448912562 -1.5708048979388636 2.358768939971924 -1.053354263305664 0.27880558371543884 -0.3348909914493561 0.05191202834248543 4.122115115023917e-06 -1.0381684303283691 1 True True
18223.82 3.8772315979003906 -1.4066181641868134 1.6884673277484339 -1.8526321850218714 -1.570784870778219 2.306272268295288 -1.0452605485916138 0.27681368589401245 -0.3385378122329712 0.0610097199678421 7.96994791016914e-05 -1.0495368242263794 1 True True
18223.87 3.8248722553253174 -1.3927934032729645 1.671847168599264 -1.8498693905272425 -1.570756737385885 2.254117488861084 -1.0465165376663208 0.27497175335884094 -0.3289327025413513 0.05802193284034729 8.120411979568095e-22 -1.0510917901992798 1 True True
18223.92 3.7725651264190674 -1.3788363349488755 1.6550806204425257 -1.8471261463561 -1.5707405249225062 2.2017199993133545 -1.0526220798492432 0.2757680416107178 -0.33697569370269775 0.05673167109489441 2.3912759187503564e-17 -1.041880488395691 1 True True
18223.969999999998 3.720144748687744 -1.364956260924675 1.6385896841632288 -1.844248434106344 -1.5707967917071741 2.1491801738739014 -1.045401692390442 0.2747902572154999 -0.3332458436489105 0.05380352959036827 2.3448268620995805e-05 -1.040696382522583 1 True True
18224.02 3.6677768230438232 -1.3512243044427414 1.6217287222491663 -1.8414293728270472 -1.570784870778219 2.097057580947876 -1.0439146757125854 0.2799578309059143 -0.3357665538787842 0.05135200545191765 2.3669788351554644e-10 -1.0545637607574463 1 True True
18224.07 3.6154282093048096 -1.337214545612671 1.6053083578692835 -1.8385073147215785 -1.570813004170553 2.044670581817627 -1.0509876012802124 0.27159538865089417 -0.33553242683410645 0.05910780280828476 6.357509118970484e-05 -1.0444656610488892 1 True True
18224.12 3.563067674636841 -1.3235904586366196 1.5884626547442835 -1.835879465142721 -1.5707805792437952 1.9921072721481323 -1.0494744777679443 0.2816639542579651 -0.32991114258766174 0.05899004265666008 -1.97100495646918e-11 -1.0445679426193237 1 True True
18224.17 3.5107479095458984 -1.3094206017306824 1.5718453566180628 -1.8329478702940882 -1.5707610289203089 1.9399851560592651 -1.0438350439071655 0.2735232710838318 -0.3375580906867981 0.058261606842279434 -2.99396060165735e-30 -1.0536551475524902 1 True True
18224.219999999998 3.4583561420440674 -1.2957674723914643 1.5549958387957972 -1.8302422962584437 -1.5707686583148401 1.8875735998153687 -1.0507205724716187 0.27801695466041565 -0.3237679600715637 0.05251459404826164 -0.0 -1.0447081327438354 1 True True
18224.27 3.40598201751709 -1.2817830008319397 1.5384600798236292 -1.8274074993529261 -1.5707648436175745 1.835038661956787 -1.044816493988037 0.2799643278121948 -0.3363092243671417 0.051738034933805466 -0.0 -1.0410125255584717 1 True True
18224.32 3.355419397354126 -1.2684360307506104 1.5222910086261194 -1.8245774708189906 -1.5707925001727503 1.7845826148986816 -0.9699243307113647 0.25885558128356934 -0.3067522644996643 0.058230966329574585 -2.2920121409697458e-05 -0.9785615801811218 1 True True
18224.37 3.308246612548828 -1.2560275358012696 1.5072591940509241 -1.8221799335875453 -1.5708368460284632 1.7374322414398193 -0.9121193289756775 0.24144518375396729 -0.2875400483608246 0.04888997599482536 -1.3528000636142679e-05 -0.903602659702301 1 True True
18224.42 3.2646124362945557 -1.244327114229538 1.493483845387594 -1.819738050500387 -1.5708087126361292 1.6939777135849 -0.8357799053192139 0.21881337463855743 -0.2646239697933197 0.04626687616109848 0.00018481574079487473 -0.8431045413017273 1 True True
18224.469999999998 3.2246246337890625 -1.2338622373393555 1.480570141469137 -1.8175512752928675 -1.570772949849264 1.6537076234817505 -0.7702537178993225 0.2042885422706604 -0.24459464848041534 0.0391596183180809 0.00047003349754959345 -0.7660753130912781 1 True True
18224.52 3.187971353530884 -1.2241283518126984 1.4688480536090296 -1.8157407246031703 -1.570813004170553 1.6171412467956543 -0.698276698589325 0.1861448884010315 -0.22695228457450867 0.042215295135974884 3.125114380964078e-05 -0.6961717009544373 1 True True
18224.57 3.154752254486084 -1.215170906191208 1.4584711233722132 -1.813909193078512 -1.5708368460284632 1.5839508771896362 -0.6305249929428101 0.16394072771072388 -0.19812238216400146 0.02670923061668873 1.4210373739228124e-22 -0.627190113067627 1 True True
18224.62 3.1251094341278076 -1.2074397665313263 1.4489830175982874 -1.812230726281637 -1.5708254019366663 1.5543369054794312 -0.5628035664558411 0.14809338748455048 -0.18283043801784515 0.037171803414821625 0.00018151020049117506 -0.557629406452179 1 True True
18224.67 3.0989065170288086 -1.2005860370448609 1.4405282179461878 -1.810803552667135 -1.5708492437945765 1.528145432472229 -0.4912640452384949 0.13081572949886322 -0.16059282422065735 0.01873287372291088 -1.6697036056715664e-17 -0.486194372177124 1 True True
18224.719999999998 3.0763158798217773 -1.1945049327662964 1.4333823362933558 -1.8095952473082484 -1.5708335081683558 1.5055668354034424 -0.42099592089653015 0.11349035054445267 -0.13331827521324158 0.02194482460618019 -2.536283675566445e-36 -0.4226897358894348 1 True True
18224.77 3.0573525428771973 -1.189351425772049 1.4273093382464808 -1.8085838756956996 -1.570716683064596 1.4863029718399048 -0.34733936190605164 0.08936242759227753 -0.1140362098813057 0.02066357247531414 0.0014672079123556614 -0.3528590202331543 1 True True
18224.82 3.0413479804992676 -1.185249076490738 1.422382656727926 -1.8078223667540492 -1.570813004170553 1.4706424474716187 -0.2760915458202362 0.07382611185312271 -0.0904642790555954 0.01747322268784046 -0.0001043194715748541 -0.27892446517944336 1 True True
18224.87 3.029247522354126 -1.1820302170566102 1.4183571974383753 -1.8072401485838832 -1.570756737385885 1.45838463306427 -0.21388116478919983 0.0553516149520874 -0.06721851974725723 0.010910541750490665 -5.425998761521217e-18 -0.21207229793071747 1 True True
18224.92 3.0205302238464355 -1.1796809297851105 1.4156821409808558 -1.8066655598082484 -1.5707886854754847 1.44967782497406 -0.14110742509365082 0.036462873220443726 -0.04608626291155815 0.006458580028265715 -8.242105739682222e-37 -0.14135506749153137 1 True True
18224.969999999998 3.015321969985962 -1.1783621472171326 1.4139307180987757 -1.8064552746214808 -1.570801083241598 1.4444941282272339 -0.06992664188146591 0.019864214584231377 -0.020168587565422058 0.005341347306966782 -0.0 -0.06964962929487228 1 True True
18225.02 3.013540267944336 -1.1779511135867615 1.4134309927569788 -1.8063637218871058 -1.570801083241598 1.4427849054336548 0.0055563258938491344 1.4781122104068345e-08 0.0002875156933441758 0.00045005002175457776 -0.0 -0.0006364788278006017 1 True True
18225.07 3.013599395751953 -1.1772735577872773 1.4144533316241663 -1.8079225025572718 -1.570784870778219 1.44284188747406 -0.0019936917815357447 0.02583772875368595 0.04571828618645668 -0.07207750529050827 -0.0 -0.00020016194321215153 1 True True
18225.12 3.013660192489624 -1.1757236880115052 1.4179046789752405 -1.8133775196471156 -1.5707686583148401 1.4427614212036133 -0.0010153403272852302 0.04412541911005974 0.093009352684021 -0.14654318988323212 -0.0 -0.0006624312954954803 1 True True
18225.17 3.013648271560669 -1.1727646452239533 1.4239800612079065 -1.8220869503416957 -1.5708211104022425 1.4427440166473389 -0.0003477895224932581 0.07076739519834518 0.14502929151058197 -0.21532905101776123 -0.0 -0.0002865972928702831 1 True True
18225.219999999998 3.0136122703552246 -1.168940619831421 1.4323037306415003 -1.834278245965475 -1.5707891623126429 1.4428143501281738 -0.00023179914569482207 0.08961421996355057 0.1874082088470459 -0.286838561296463 -8.330887067131698e-05 -0.00015623000217601657 1 True True
18225.27 3.0135881900787354 -1.163797752266266 1.4431374708758753 -1.850016256371969 -1.5707843939410608 1.442765712738037 -0.00012017406697850674 0.11128302663564682 0.23596742749214172 -0.35212138295173645 -9.815906378207728e-05 -9.643693920224905e-05 1 True True
18225.32 3.0135960578918457 -1.1574318569949646 1.4560735861407679 -1.8692642650999964 -1.5707886854754847 1.4427971839904785 -0.00010088316048495471 0.133551225066185 0.2798119783401489 -0.41820284724235535 -7.475095480913296e-05 -6.974551797611639e-05 1 True True
18225.37 3.0135719776153564 -1.1501375895789643 1.4713404814349573 -1.89196838955068 -1.5707724730121058 1.442770004272461 -8.233710104832426e-05 0.15760153532028198 0.3353319764137268 -0.48961496353149414 -4.32987024012732e-09 -1.0594356203185686e-23 1 True True
18225.42 3.013591766357422 -1.141770289545395 1.4891956488238733 -1.918032785455221 -1.5707772413836878 1.4428263902664185 -6.637534534092993e-05 0.16274961829185486 0.34833216667175293 -0.5506274700164795 -2.2339942006510682e-05 -1.60869063704489e-42 1 True True
18225.469999999998 3.0135512351989746 -1.1338780683330079 1.505892578755514 -1.9432255230345667 -1.5707686583148401 1.4428424835205078 -3.6464240110944957e-05 0.1508519947528839 0.3184550404548645 -0.45333144068717957 -4.222481948090717e-05 -0.0 1 True True
18225.52 3.013625144958496 -1.126591370706894 1.5205724875079554 -1.9645911655821742 -1.5707929770099085 1.4427603483200073 2.5000452296808362e-05 0.12380563467741013 0.26757487654685974 -0.39843034744262695 -5.794006225322279e-14 -0.0 1 True True
18225.57 3.0135393142700195 -1.1209438008121033 1.5327356497394007 -1.9826184711852015 -1.570772949849264 1.4427495002746582 1.3452465257518244e-43 0.10629632323980331 0.2285497635602951 -0.3272702693939209 -8.801109140914813e-33 -0.0 1 True True
18225.62 3.013596773147583 -1.11629273117099 1.542746369038717 -1.997267862359518 -1.5708335081683558 1.4427441358566284 0.0 0.07930755615234375 0.16975633800029755 -0.25308647751808167 -0.0 -0.0 1 True True
18225.67 3.0135598182678223 -1.1126792591861268 1.5501115957843226 -2.00833859066152 -1.5708044211017054 1.4428143501281738 0.0 0.062213681638240814 0.1282539963722229 -0.19651074707508087 -0.0 -0.0 1 True True
18225.719999999998 3.0135552883148193 -1.110265092258789 1.555277172719137 -2.015956064263815 -1.570784870778219 1.4427279233932495 0.0 0.039835330098867416 0.08094179630279541 -0.11145199835300446 -0.0 -0.0 1 True True
18225.77 3.0136048793792725 -1.1090241831592103 1.5579069296466272 -2.020291944543356 -1.5708254019366663 1.4427409172058105 3.810884916552286e-14 0.00864688865840435 0.028959885239601135 -0.06799566000699997 0.0030491906218230724 -5.138198755361145e-09 1 True True
18225.82 3.013570547103882 -1.1089566510966797 1.558244530354635 -2.0210725269713343 -1.5708368460284632 1.4428220987319946 0.0 0.0010713679948821664 0.001527815475128591 0.001021776464767754 -0.00011729054676834494 -7.8049365442937285e-28 1 True True
18225.87 3.0135884284973145 -1.1088875097087403 1.5583632628070276 -2.0210477314391078 -1.570829216633932 1.4428058862686157 -5.004273995765539e-32 0.0036825761198997498 0.003996467217803001 0.00204129028134048 -4.459776755538769e-05 4.818461820832454e-05 1 True True
18225.92 3.0135765075683594 -1.108128384952881 1.5594151655780237 -2.020266672173971 -1.570813004170553 1.4427776336669922 0.0 0.0110268983989954 0.010059026069939137 0.01600594073534012 -9.189039045870645e-16 5.63004807704881e-12 1 True True
18225.969999999998 3.013607978820801 -1.1083577138236542 1.5589664618121546 -2.020749708215231 -1.5707529226886194 1.4428348541259766 0.00016936060274019837 -0.001126027898862958 -0.0018166766967624426 -0.002643716288730502 -1.4988206231691947e-08 -3.8970847526798025e-06 1 True False
18226.02 3.0136005878448486 -1.1084357661059876 1.5588539282428187 -2.0207935772337855 -1.570784870778219 1.4427582025527954 7.005913357716054e-05 -0.004336935933679342 -0.004726829472929239 -0.004707535728812218 -2.2767116985171328e-27 0.00013044386287219822 1 True False
18226.07 3.0135674476623535 -1.1085863274386902 1.5587742964373987 -2.0208617649474085 -1.5707686583148401 1.4427286386489868 4.712975714937784e-05 -0.003298918716609478 -0.0041277422569692135 -0.002896958962082863 -0.0 -1.789607399310623e-15 1 True False
18226.12 3.0135345458984375 -1.108580307369568 1.5586560408221644 -2.020848890344137 -1.570784870778219 1.4427167177200317 9.637231722941243e-27 -0.00015416639507748187 -0.0007016945746727288 -0.00023420574143528938 -0.0 -2.718417470820409e-34 1 True False
18226.17 3.013580799102783 -1.1086264711669465 1.5586617628680628 -2.0208569965758265 -1.5708168188678187 1.442770004272461 0.0 -0.009487636387348175 -0.009285232052206993 0.0024941188748925924 -0.0 -0.0 1 True False
18226.219999999998 3.0135838985443115 -1.109501377945282 1.5570710341082972 -2.018715044061178 -1.5707529226886194 1.4427409172058105 0.0 -0.024607332423329353 -0.0505400188267231 0.08465753495693207 -0.0 -0.0 1 True False
18226.27 3.0135793685913086 -1.1110750001719971 1.5535476843463343 -2.013026376763815 -1.5708406607257288 1.4427614212036133 0.0 -0.04704560711979866 -0.10345087200403214 0.1403886079788208 -0.0 7.20290991012007e-05 1 True False
18226.32 3.0135631561279297 -1.1140887898257752 1.5471847693072718 -2.0038677654662074 -1.5708048979388636 1.442781925201416 0.0 -0.06979257613420486 -0.14599280059337616 0.23651956021785736 -0.0 4.798160443897359e-05 1 True False
18226.37 3.0135631561279297 -1.118182049398758 1.5385530630694788 -1.9911776981749476 -1.5708254019366663 1.4427893161773682 0.0 -0.0945679321885109 -0.19974131882190704 0.28725653886795044 -0.0 5.758126644650474e-05 1 True False
18226.42 3.0135960578918457 -1.1233503383449097 1.5275738875018519 -1.975046773950094 -1.5708211104022425 1.4427410364151 0.0 -0.11170739680528641 -0.23610219359397888 0.3665548264980316 -0.0 5.4797670600237325e-05 1 True False
18226.469999999998 3.0135674476623535 -1.1296719473651429 1.5143607298480433 -1.9553619823851527 -1.570801083241598 1.4427977800369263 0.0 -0.13630621135234833 -0.2888436019420624 0.43132057785987854 -0.0 1.2271437799822204e-17 1 True False
18226.52 3.0135884284973145 -1.137237624531128 1.498598877583639 -1.9322673283019007 -1.5707648436175745 1.4427934885025024 0.0 -0.16372059285640717 -0.33670637011528015 0.4875567555427551 -0.0 1.8640338531260816e-36 1 True False
18226.57 3.0135793685913086 -1.1456527274898072 1.480903450642721 -1.9059716663756312 -1.570756737385885 1.4427849054336548 0.0 -0.16834895312786102 -0.3572814166545868 0.5367920398712158 -0.0 0.0 1 True False
18226.62 3.0135765075683594 -1.15373049796138 1.464186970387594 -1.8813563785948695 -1.5707719961749476 1.4428143501281738 0.0 -0.14719341695308685 -0.306388258934021 0.4538324177265167 -0.0 0.0 1 True False
18226.67 3.0135929584503174 -1.1604404014400025 1.4500497023211878 -1.8602353535094203 -1.5707686583148401 1.442770004272461 0.0 -0.12487700581550598 -0.26432302594184875 0.38176557421684265 -0.0 0.0 1 True False
18226.719999999998 3.0136094093322754 -1.1661871832660218 1.437768284474508 -1.8425446949400843 -1.5707925001727503 1.4427934885025024 0.0 -0.10220242291688919 -0.21252213418483734 0.3148583769798279 -0.0 0.0 1 True False
18226.77 3.0135960578918457 -1.1707136791995545 1.428422753010885 -1.8283330402769984 -1.5708211104022425 1.44281005859375 0.0 -0.08264613151550293 -0.17011074721813202 0.25050830841064453 -0.0 0.0 1 True False
18226.82 3.0136258602142334 -1.1741850537112732 1.4212129751788538 -1.8176576099791468 -1.570784870778219 1.4427934885025024 0.0 -0.057949334383010864 -0.12540236115455627 0.1941530406475067 -0.0 1.3376917580401882e-22 1 True False
18226.87 3.0135345458984375 -1.1765761834434052 1.416374985371725 -1.8103882275023402 -1.570801083241598 1.442773461341858 0.0 -0.03554121032357216 -0.0747465267777443 0.1194159984588623 -0.0 2.0320229031174172e-41 1 True False
18226.92 3.0135793685913086 -1.1776712101748963 1.413708511983053 -1.8068367443480433 -1.570801083241598 1.44281005859375 0.0 -0.014674666337668896 -0.026629986241459846 0.043003782629966736 -0.0 0.0 1 True False
18226.969999999998 3.013585329055786 -1.1777879160693665 1.4134295622455042 -1.80637850383901 -1.570756737385885 1.442757248878479 0.0 0.000572194519918412 0.00036833941703662276 -9.946562931872904e-05 -0.0 0.0 1 False False
18227.02 3.0135960578918457 -1.1777634781650086 1.4134143034564417 -1.8063513241209925 -1.5708006064044397 1.4427614212036133 0.0 -0.0001697337720543146 -0.00011871733295265585 7.833536074031144e-05 -0.0 0.0 1 False False
18227.07 3.0135884284973145 -1.1777789753726502 1.4134114424334925 -1.8063470325865687 -1.5707886854754847 1.4427244663238525 0.0 -0.0002490066981408745 -0.00012803041317965835 0.0002834487531799823 -0.0 0.0 1 False False
18227.12 3.0136139392852783 -1.1778400999358674 1.4133504072772425 -1.8062712154784144 -1.570784870778219 1.442781925201416 0.0 -0.0004818911838810891 -0.0001824774662964046 0.00039512812509201467 -0.0 0.0 1 False False
18227.17 3.0135419368743896 -1.1778763693622132 1.4133532683001917 -1.8062831364073695 -1.5707610289203089 1.4427125453948975 0.0 -0.0008151690708473325 -0.00019956965115852654 0.0003464313340373337 -0.0 0.0 1 False False
18227.219999999998 3.0135927200317383 -1.1778384310058136 1.4133904615985315 -1.8062550030150355 -1.5707767645465296 1.4427495002746582 0.0 -0.00022044179786462337 -0.0001434299338143319 0.0001117875799536705 -0.0 0.0 1 False False
18227.27 3.0135765075683594 -1.1779090923121949 1.4133785406695765 -1.806234975854391 -1.5707810560809534 1.4427614212036133 0.0 -0.00013367905921768397 -0.00011492457997519523 8.274822175735608e-05 -0.0 0.0 1 False False
18227.32 3.0135838985443115 -1.1778882306865235 1.4133427778827112 -1.8062755070128382 -1.5708006064044397 1.44280207157135 0.0 -9.002399019664153e-05 -7.165796705521643e-05 5.982770744594745e-05 -0.0 0.0 1 False False
18227.37 3.0135552883148193 -1.1778807503036042 1.4133623282061976 -1.806263109246725 -1.5708048979388636 1.4427367448806763 0.0 -8.401527156820521e-05 -6.150468107080087e-05 9.087842500075247e-24 -0.0 0.0 1 False False
18227.42 3.0135765075683594 -1.1778882306865235 1.4133294264422815 -1.8062473736205042 -1.5707967917071741 1.4427934885025024 0.0 -4.933306627208367e-05 -2.5484362526533245e-31 1.3802789873599448e-42 -0.0 0.0 1 False False
18227.469999999998 3.0136005878448486 -1.17784737170253 1.413403336201803 -1.8062430820860804 -1.5707886854754847 1.4427850246429443 2.214776437302837e-37 -1.3802375405729222e-15 -0.0 0.0 -0.0 0.0 1 False False
18227.52 3.0136003494262695 -1.177876279955246 1.4133666197406214 -1.8062550030150355 -1.5708168188678187 1.442773461341858 0.0 0.0 -0.0 0.0 -0.0 0.0 1 False False
18227.57 3.0135674476623535 -1.1778763097575684 1.4133427778827112 -1.8062793217101039 -1.5708048979388636 1.4427605867385864 0.0 0.0 -0.0 0.0 -0.0 0.0 1 False False
18227.62 3.0135927200317383 -1.1778763097575684 1.413403336201803 -1.80627503017568 -1.570784870778219 1.442769169807434 0.0 0.0 -0.0 0.0 -0.0 0.0 1 False False
18227.67 3.0135838985443115 -1.1778718394092103 1.413347069417135 -1.8062426052489222 -1.570801083241598 1.4428099393844604 0.0 0.0 -0.0 0.0 -0.0 0.0 1 False False
18227.719999999998 3.0135884284973145 -1.1778926712325593 1.4133461157428187 -1.8062874279417933 -1.5707929770099085 1.442770004272461 0.0 0.0 -0.0 0.0 -0.0 0.0 1 False False
18227.77 3.0135793685913086 -1.1778763097575684 1.413391415272848 -1.8062554798521937 -1.5707691351519983 1.4428220987319946 0.0 0.0 -0.0 0.0 -0.0 0.0 1 False False
18227.82 3.0135750770568848 -1.1778882306865235 1.413347069417135 -1.8062793217101039 -1.5707648436175745 1.442806363105774 0.0 0.0 -0.0 0.0 -0.0 0.0 1 False False
18227.87 3.0135183334350586 -1.177855448131897 1.4133666197406214 -1.8062545261778773 -1.5708048979388636 1.4428091049194336 0.0 0.0 -0.0 0.0 -0.0 0.0 1 True False
18227.92 3.0136125087738037 -1.1778807801059266 1.41335374513735 -1.80627503017568 -1.5707810560809534 1.4428424835205078 0.0 0.0 -0.0 0.0 -0.0 0.0 1 True False
18227.969999999998 3.013580799102783 -1.1778673392585297 1.4133179823504847 -1.8062831364073695 -1.570784870778219 1.4427690505981445 0.0 0.0 -0.0 0.0 -0.0 0.0 1 True False
18228.02 3.0135631561279297 -1.1778599184802552 1.413391415272848 -1.8062588177123011 -1.5707967917071741 1.44281005859375 0.0 0.0 -0.0 0.0 -0.0 0.0 1 True False
18228.07 3.0135838985443115 -1.1778472822955628 1.4133666197406214 -1.8062788448729457 -1.5707405249225062 1.4428142309188843 0.0 0.0 -0.0 0.0 -0.0 0.0 1 True False
18228.12 3.0136330127716064 -1.1778355103782197 1.4133341948138636 -1.8062993488707484 -1.5707648436175745 1.4427934885025024 0.0 0.0 -0.0 0.0 -0.0 0.0 1 True False
18228.17 3.013570785522461 -1.1778763097575684 1.4133546988116663 -1.8062874279417933 -1.5708087126361292 1.4427367448806763 0.0 0.0 -0.0 0.0 -0.0 0.0 1 True False
18228.219999999998 3.0135838985443115 -1.1778927010348816 1.413391415272848 -1.806296011010641 -1.5708006064044397 1.4427971839904785 0.0 0.0 -0.0 0.0 -0.0 0.0 1 True False
18228.27 3.0136241912841797 -1.1778898996165772 1.4133871237384241 -1.8062511883177699 -1.5707891623126429 1.4427410364151 3.9067067624719745e-30 -4.757940708088881e-10 -0.0 2.7461485145617003e-20 -0.0 -0.0001110361481551081 1 True False
18228.32 3.0135796070098877 -1.1778598886779328 1.4133828322040003 -1.806303163568014 -1.5707967917071741 1.4427485466003418 0.0 0.0 3.033992501677574e-11 4.1714062880790803e-39 -0.0 0.0003213507297914475 1 True False
18228.37 3.0135796070098877 -1.1778718692115326 1.4133504072772425 -1.8062430820860804 -1.5707529226886194 1.4427934885025024 0.0 0.0 7.139335416042078e-41 0.0 -0.0 2.929045876953751e-06 1 True False
18228.42 3.0136003494262695 -1.1778763097575684 1.4133504072772425 -1.8062311611571253 -1.5707967917071741 1.442773461341858 0.0 0.0 0.0 0.0 -0.0 4.4492277674814775e-25 1 True False
18228.469999999998 3.0141608715057373 -1.1778882306865235 1.4133742491351526 -1.806296011010641 -1.570829216633932 1.4433882236480713 0.040551986545324326 -0.003225896507501602 0.002158160787075758 0.0 -0.0 0.03769833594560623 1 True False
18228.52 3.01786208152771 -1.1781872075847168 1.4137423674212855 -1.806310316125387 -1.5708211104022425 1.4471889734268188 0.11033184081315994 -0.009660080075263977 0.011877235025167465 -0.0033437644597142935 -4.59634029539302e-05 0.1116904616355896 1 True False
18228.57 3.0253450870513916 -1.1787918669036408 1.4143570105182093 -1.8066231213011683 -1.5707925001727503 1.4544637203216553 0.17494475841522217 -0.011692789383232594 0.0170573852956295 -0.008412109687924385 -6.660199281347673e-19 0.18034367263317108 1 True False
18228.62 3.036059617996216 -1.1794079107097168 1.415448013936178 -1.806857248345846 -1.5707886854754847 1.4652587175369263 0.24919253587722778 -0.016200605779886246 0.02521197684109211 -0.009115736931562424 2.8850907256128266e-05 0.2494099736213684 1 True False
18228.67 3.0504255294799805 -1.180371717815735 1.4168461004840296 -1.8072682819762171 -1.5707686583148401 1.4795562028884888 0.3174232244491577 -0.021337145939469337 0.030667895451188087 -0.007406293880194426 3.202886728104204e-05 0.31942620873451233 1 True False
18228.719999999998 3.0680408477783203 -1.1816179317286988 1.4184821287738245 -1.8077784977354945 -1.5708211104022425 1.4973149299621582 0.38779956102371216 -0.026337193325161934 0.03585430607199669 -0.010082505643367767 3.325100624351762e-05 0.3851035237312317 1 True False
18228.77 3.0894954204559326 -1.18309839189563 1.420607868825094 -1.8082853756346644 -1.5707605520831507 1.5186105966567993 0.4550412893295288 -0.030271099880337715 0.04648977145552635 -0.014642133377492428 6.239838694455102e-05 0.46459850668907166 1 True False
18228.82 3.1141631603240967 -1.184838132267334 1.4229639212237757 -1.809002538720602 -1.5708211104022425 1.5433526039123535 0.5310468673706055 -0.03680006414651871 0.051993031054735184 -0.013438224792480469 5.2703731949459464e-20 0.5263085961341858 1 True False
18228.87 3.142246961593628 -1.1867707532695313 1.4256117979632776 -1.8097278080382289 -1.5708368460284632 1.5716021060943604 0.5967831015586853 -0.03997918963432312 0.05708131566643715 -0.014557369984686375 2.4487274430384787e-09 0.5957581400871277 1 True False
18228.92 3.173999786376953 -1.1889497500709076 1.428727928792135 -1.8106214008727015 -1.5708487669574183 1.6033397912979126 0.6613343358039856 -0.043986037373542786 0.062571220099926 -0.01982438750565052 2.033543751167599e-05 0.6648017764091492 1 True False
18228.969999999998 3.2094085216522217 -1.191354439859726 1.4320648352252405 -1.8115302524962367 -1.5708168188678187 1.6385234594345093 0.7325162291526794 -0.049756065011024475 0.0679977610707283 -0.0262797512114048 4.0713121052249335e-06 0.7343204617500305 1 True False
18229.02 3.248056411743164 -1.194082186823227 1.4356964270221155 -1.8126222095885218 -1.5708449522601526 1.6772522926330566 0.8069530725479126 -0.055804647505283356 0.07917335629463196 -0.02124348282814026 -3.5836488677887246e-05 0.8091116547584534 1 True False
18229.07 3.290243625640869 -1.1969571572593232 1.439951244984762 -1.8137394390501917 -1.570784870778219 1.7194939851760864 0.8819254636764526 -0.06175659969449043 0.0840156078338623 -0.020632727071642876 -6.914844830603819e-23 0.8807386755943298 1 True False
18229.12 3.3360025882720947 -1.2001300913146515 1.444376293812887 -1.814930101434225 -1.5708168188678187 1.7650361061096191 0.943294882774353 -0.06761883944272995 0.09041207283735275 -0.022902805358171463 -1.0504133288578829e-41 0.9446324110031128 1 True False
18229.17 3.3851234912872314 -1.2035125953010102 1.4490321318255823 -1.8162371120848597 -1.570813004170553 1.8143898248672485 1.0218318700790405 -0.07085027545690536 0.09553193300962448 -0.027192497625947 -0.0 1.0142756700515747 1 True False
18229.219999999998 3.437239170074463 -1.207096890812256 1.4538963476764124 -1.8175770244994105 -1.5707324186908167 1.8663915395736694 1.0418809652328491 -0.07144846022129059 0.1003127172589302 -0.029756546020507812 -0.0 1.0489906072616577 1 True False
18229.27 3.489529609680176 -1.210772619848587 1.4589141050921839 -1.8190599880614222 -1.5707362333880823 1.918805718421936 1.0475996732711792 -0.07255872339010239 0.10392885655164719 -0.029077813029289246 -0.0 1.0407975912094116 1 True False
18229.32 3.5418574810028076 -1.214280681019165 1.4638832251178187 -1.8204714260497035 -1.5707767645465296 1.9710559844970703 1.0534090995788574 -0.07282877713441849 0.10165760666131973 -0.02524171955883503 -9.379808761877939e-05 1.0501949787139893 1 True False
18229.37 3.5942368507385254 -1.2179719668677826 1.4689253012286585 -1.8218590221800746 -1.570756737385885 2.0233278274536133 1.0416603088378906 -0.06924702227115631 0.10225263983011246 -0.026687581092119217 -1.5237388978814304e-15 1.0535342693328857 1 True False
18229.42 3.646630048751831 -1.221519098883011 1.4741128126727503 -1.8232666454710902 -1.5707562605487269 2.0757968425750732 1.0475618839263916 -0.07001929730176926 0.0991654321551323 -0.02887047454714775 -8.006561984075233e-05 1.04296875 1 True False
18229.469999999998 3.6989431381225586 -1.2252038282207032 1.479121510182516 -1.8246180019774378 -1.5707891623126429 2.1282386779785156 1.0514857769012451 -0.07308509945869446 0.0993628278374672 -0.02862279675900936 -1.9371940652490593e-05 1.0495513677597046 1 True False
18229.52 3.751312732696533 -1.2287512880614777 1.4839895407306116 -1.8260847530760707 -1.570756737385885 2.1805548667907715 1.045320749282837 -0.07338108122348785 0.09860526025295258 -0.02986176498234272 -4.695010284194723e-05 1.0493040084838867 1 True False
18229.57 3.803723096847534 -1.232325719004013 1.4890053907977503 -1.8274365864195765 -1.570829216633932 2.2328941822052 1.0465397834777832 -0.07120205461978912 0.09831400215625763 -0.027371807023882866 -3.184587330906652e-05 1.0383260250091553 1 True False
18229.62 3.8559975624084473 -1.235974983578064 1.4941085020648401 -1.8287598095335902 -1.570772949849264 2.285369396209717 1.0523402690887451 -0.0706135556101799 0.09915968775749207 -0.027175728231668472 -2.207953730248846e-05 1.0445187091827393 1 True False
18229.67 3.9083340167999268 -1.2395578485778351 1.4989154974566858 -1.8302465877928675 -1.5707805792437952 2.3374602794647217 1.0461231470108032 -0.07340303808450699 0.1047390028834343 -0.026210028678178787 -5.504371642928163e-07 1.0524822473526 1 True False
18229.719999999998 3.9607110023498535 -1.2431678932956238 1.5040352980243128 -1.8316790066161097 -1.570857350026266 2.389977216720581 1.0448131561279297 -0.07134614884853363 0.09982052445411682 -0.031489159911870956 8.31713848183438e-15 1.0349860191345215 1 True False
18229.77 4.013168811798096 -1.2467423242381592 1.5091608206378382 -1.8330661259093226 -1.5707891623126429 2.4424245357513428 1.0476216077804565 -0.07131395488977432 0.09982699900865555 -0.032141007483005524 1.263375043173731e-33 1.0465571880340576 1 True False
18229.82 4.065512180328369 -1.2503884595683594 1.5141804854022425 -1.8344608745970667 -1.5707405249225062 2.4946742057800293 1.0450547933578491 -0.07114621251821518 0.10304681956768036 -0.023621181026101112 2.9587526727985816e-19 1.0482910871505737 1 True False
18229.87 4.1179022789001465 -1.2541175347617646 1.519036595021383 -1.835893293420309 -1.570813004170553 2.5470163822174072 1.0449955463409424 -0.0732850581407547 0.10245587676763535 -0.02710120752453804 2.8221831254192148e-15 1.0422407388687134 1 True False
18229.92 4.170248985290527 -1.257713035946228 1.5241459051715296 -1.8372441730894984 -1.5707886854754847 2.5994668006896973 1.0490790605545044 -0.07030380517244339 0.09857630729675293 -0.029188506305217743 0.00025562994414940476 1.0499731302261353 1 True False
18229.969999999998 4.222550392150879 -1.261195496921875 1.5291860739337366 -1.8386393986144007 -1.5707767645465296 2.6516852378845215 1.0453592538833618 -0.07175241410732269 0.1005895808339119 -0.027654437348246574 2.8968740739543364e-09 1.0569429397583008 1 True False
18230.02 4.274905681610107 -1.2648590070060273 1.5341628233539026 -1.8401385746397914 -1.5708044211017054 2.704021453857422 1.0429989099502563 -0.07122272253036499 0.10016016662120819 -0.02674352005124092 4.400358959146123e-28 1.0401216745376587 1 True False
18230.07 4.32645320892334 -1.2683733266643067 1.5391600767718714 -1.8414422474303187 -1.5707772413836878 2.755638360977173 1.0012147426605225 -0.0702798143029213 0.09154701232910156 -0.0266858097165823 0.0 0.997746467590332 1 True False
18230.12 4.374516010284424 -1.2717914444259186 1.543823544179098 -1.8426786861815394 -1.5707605520831507 2.8036460876464844 0.9288241863250732 -0.06207307428121567 0.08734975755214691 -0.02738741785287857 0.0 0.9305252432823181 1 True False
18230.17 4.419230937957764 -1.2749120158008118 1.5479362646686 -1.843943258325094 -1.5707405249225062 2.848437786102295 0.8644745349884033 -0.05783463642001152 0.08436083793640137 -0.02214977517724037 0.00020845916878897697 0.860638439655304 1 True False
18230.219999999998 4.460366725921631 -1.2776495975307007 1.5518234411822718 -1.8450399837889613 -1.570813004170553 2.8895561695098877 0.7867649793624878 -0.057325348258018494 0.07681803405284882 -0.02126876264810562 -0.00016943778609856963 0.7788274884223938 1 True False
18230.27 4.498074054718018 -1.2802450519851227 1.5555990378009241 -1.84599032024526 -1.5708006064044397 2.9272196292877197 0.7176697850227356 -0.04774611070752144 0.07072682678699493 -0.021157406270503998 6.176567808324762e-07 0.7196373343467712 1 True False
18230.32 4.5322771072387695 -1.282640503054001 1.558707062398092 -1.8470117054381312 -1.570801083241598 2.9613280296325684 0.6523805260658264 -0.043461788445711136 0.0624372661113739 -0.017680717632174492 9.382221650120862e-26 0.663029134273529 1 True False
18230.37 4.562960624694824 -1.2847913068583985 1.5617364088641565 -1.8478194675841273 -1.570784870778219 2.9920833110809326 0.5804250240325928 -0.04043632000684738 0.056380171328783035 -0.014252481050789356 1.401298464324817e-44 0.5853044986724854 1 True False
18230.42 4.590204238891602 -1.2866392594626923 1.564361874257223 -1.8485189876952113 -1.570829216633932 3.0191659927368164 0.5129674077033997 -0.036532990634441376 0.04909716546535492 -0.015337883494794369 1.9580968790844366e-12 0.5187916159629822 1 True False
18230.469999999998 4.613744258880615 -1.2883039277843018 1.5666669050799769 -1.849142690698141 -1.5708368460284632 3.0430893898010254 0.44194215536117554 -0.02964313142001629 0.04367902874946594 -0.009996015578508377 2.974353355885634e-31 0.4359532594680786 1 True False
18230.52 4.633981704711914 -1.2896142166903992 1.5686095396624964 -1.8497239551939906 -1.5707524458514612 3.0633082389831543 0.3672167956829071 -0.0250379741191864 0.0318119116127491 -0.011897639371454716 5.2382497415237594e-06 0.3700384795665741 1 True False
18230.57 4.650920867919922 -1.2907905739596863 1.5702508131610315 -1.8500973186888636 -1.5707605520831507 3.0799169540405273 0.29530999064445496 -0.021511469036340714 0.026735559105873108 -0.010395079851150513 -2.954896882869729e-15 0.30582883954048157 1 True False
18230.62 4.664058208465576 -1.2917479437640687 1.5715048948871058 -1.8504582844176234 -1.5707772413836878 3.093351364135742 0.23444540798664093 -0.01580471731722355 0.02263076789677143 -0.005408077500760555 5.626893221759827e-18 0.2295786738395691 1 True False
18230.67 4.673793315887451 -1.2924248737147828 1.572355095540182 -1.8507534466185511 -1.570857350026266 3.1030521392822266 0.16141779720783234 -0.011895278468728065 0.015546002425253391 -0.0044144196435809135 8.547265048907834e-37 0.16018642485141754 1 True False
18230.719999999998 4.680090427398682 -1.2927766305259247 1.5729964415179651 -1.8509155712523402 -1.5707925001727503 3.1092536449432373 0.09081530570983887 -0.005031144246459007 0.007206453010439873 -0.0031632392201572657 0.0 0.09101990610361099 1 True False
18230.77 4.682882785797119 -1.2928900581649323 1.5731561819659632 -1.8509918651976527 -1.5707843939410608 3.112006664276123 0.022791333496570587 -0.0013700727140530944 0.0009000542340800166 -0.0009107153164222836 0.0 0.024019340053200722 1 True False
18230.82 4.682906150817871 -1.2927748423865815 1.5738161245929163 -1.8520690403380335 -1.5708492437945765 3.1121597290039062 -0.000520309607964009 0.011371291242539883 0.030640754848718643 -0.03731898218393326 0.0 0.00020621257135644555 1 True False
18230.87 4.682918071746826 -1.2915454071811219 1.5766032377826136 -1.8562327824034632 -1.5708211104022425 3.1121835708618164 5.609628351521678e-05 0.04265911877155304 0.07423750311136246 -0.1119263544678688 -3.7554578518267527e-23 0.0013096544425934553 1 True False
18230.92 4.682950973510742 -1.2887095969966431 1.5815308729754847 -1.8638888798155726 -1.5708006064044397 3.112215280532837 0.00023220875300467014 0.06942752003669739 0.12565186619758606 -0.18122458457946777 -5.70468604826633e-42 0.00033524580067023635 1 True False
18230.969999999998 4.6829915046691895 -1.2845197480968018 1.5888832251178187 -1.8749867878355921 -1.5707886854754847 3.1121983528137207 0.00040154060116037726 0.08829332143068314 0.17151661217212677 -0.25727203488349915 7.388259837171063e-05 0.00012992146366741508 1 True False
18231.02 4.682999134063721 -1.279436246757843 1.598269287739889 -1.8897181950011195 -1.5707925001727503 3.112257242202759 0.0003191682044416666 0.1123538464307785 0.21245238184928894 -0.335197776556015 1.579826686137764e-10 7.708414341323078e-05 1 True False
18231.07 4.683048248291016 -1.2730347079089661 1.6102593580829065 -1.9079176388182582 -1.5707605520831507 3.1122028827667236 0.00012303503172006458 0.13837675750255585 0.25701937079429626 -0.3972421884536743 8.177350537152961e-05 5.31657351530157e-05 1 True False
18231.12 4.683022975921631 -1.265426681642868 1.6241653601275843 -1.929408689538473 -1.570784870778219 3.112149238586426 0.00010451347770867869 0.1690925806760788 0.30910277366638184 -0.46233224868774414 1.901760151667986e-05 3.871663753485244e-11 1 True False
18231.17 4.683060169219971 -1.256640152340271 1.6406095663653772 -1.9546882114806117 -1.5707605520831507 3.1122074127197266 6.77445059409365e-05 0.18987931311130524 0.34363043308258057 -0.5311225652694702 2.7139572921441868e-05 5.881064441005743e-30 1 True False
18231.219999999998 4.68297815322876 -1.2470812064460297 1.657912556325094 -1.9814802608885707 -1.5707843939410608 3.112231731414795 1.848663373493764e-06 0.175601065158844 0.3349781930446625 -0.520685076713562 3.5215093703300226e-06 0.0 1 True False
18231.27 4.683067798614502 -1.238799737100937 1.6734350363360804 -2.005317350427145 -1.5708211104022425 3.1122524738311768 0.0 0.15483872592449188 0.28818991780281067 -0.4350925385951996 5.349178530566041e-25 0.0 1 True False
18231.32 4.683055877685547 -1.231668160562851 1.6864808241473597 -2.025593420068258 -1.5707648436175745 3.112222909927368 0.0 0.13419140875339508 0.2445572167634964 -0.3598039746284485 8.127531093083939e-44 0.0 1 True False
18231.37 4.68296480178833 -1.2257493895343323 1.6975725332843226 -2.0424848995604457 -1.5707686583148401 3.112224578857422 0.0 0.10717105120420456 0.19581827521324158 -0.3119864761829376 0.0 0.0 1 True False
18231.42 4.6830854415893555 -1.2210178536227723 1.7059834639178675 -2.0558134518065394 -1.5708048979388636 3.112248182296753 0.0 0.07868289202451706 0.15068480372428894 -0.24402301013469696 0.0 -1.7372353555700215e-10 1 True False
18231.469999999998 4.683053016662598 -1.217578188782074 1.71230394044985 -2.065599580804342 -1.5708254019366663 3.11221981048584 0.0 0.057081516832113266 0.10495305061340332 -0.1617894172668457 0.0 6.042736231393064e-07 1 True False
18231.52 4.683027744293213 -1.21538861215625 1.716379467641012 -2.071960588494772 -1.5707886854754847 3.1122288703918457 0.0 0.03138500824570656 0.06245826929807663 -0.09047666937112808 0.0 9.178932194845408e-26 1 True False
18231.57 4.6830034255981445 -1.2142889660647889 1.7183015982257288 -2.074724336663717 -1.5707529226886194 3.112231731414795 0.0 0.007425874937325716 0.017410842701792717 -0.02645830623805523 0.0 1.401298464324817e-44 1 True False
18231.62 4.683051109313965 -1.2143630546382447 1.718396011983053 -2.074923177758688 -1.570824925099508 3.1122615337371826 0.0 -1.13718892080783e-08 -1.9575061287468998e-06 -8.801357762422413e-05 0.0 0.0 1 True False
18231.67 4.682973861694336 -1.2143615645221253 1.7183988730060022 -2.0749312839903773 -1.570784870778219 3.1121819019317627 0.0 8.003472612472251e-05 0.0002514344232622534 -2.8967959224246442e-05 0.0 0.0 1 True False
18231.719999999998 4.683027744293213 -1.214371846323349 1.7184436956988733 -2.0749107799925746 -1.570813004170553 3.1121864318847656 0.0 4.763352626468986e-05 0.00043118736357428133 -1.4360700385991586e-20 0.0 0.0 1 True False
18231.77 4.683032035827637 -1.2143880885890503 1.7184303442584437 -2.0749031505980433 -1.570784870778219 3.112165689468384 0.0 7.166948489611968e-05 0.0003357495297677815 -2.1813929116236568e-39 0.0 0.0 1 True False
18231.82 4.683051109313965 -1.2143391829780121 1.7184799353228968 -2.07489075283193 -1.5707925001727503 3.1121983528137207 0.0 9.028952626977116e-05 0.0001223934959853068 -0.0 0.0 0.0 1 True False
18231.87 4.683076858520508 -1.2143525344184418 1.718518082295553 -2.074935098687643 -1.570813004170553 3.1121909618377686 0.0 0.00011782335059251636 9.114493150264025e-05 -0.0 0.0 0.0 1 True False
18231.92 4.682990074157715 -1.21430657923732 1.7185171286212366 -2.0749112568297328 -1.5707805792437952 3.1121819019317627 2.2019881202550823e-36 0.00012138452439103276 4.9447250738410276e-09 -2.000893033098661e-18 0.0 0.0 1 True False
18231.969999999998 4.683046817779541 -1.214315341120102 1.7184627691852015 -2.0749432049193324 -1.570801083241598 3.112264394760132 -2.23003480641637e-05 0.00010149501758860424 1.1635460393363755e-38 -3.0393605413897095e-37 0.0 0.0 1 True False
18232.02 4.683032035827637 -1.2142858666232605 1.7185333410846155 -2.0749551258482875 -1.570813004170553 3.112240791320801 -1.3770346413366497e-05 5.433059300230525e-07 0.0 -0.0 3.6094406449034296e-23 0.0 1 True False
18232.07 4.683043956756592 -1.2143229109099885 1.7185080687152308 -2.0749389133849085 -1.5708487669574183 3.1122524738311768 -9.960459465219174e-06 0.0 0.0 -3.703594302351121e-06 5.483280890903009e-42 -3.6066175823634694e-08 1 True False
18232.12 4.683011054992676 -1.214289055471756 1.7185123602496546 -2.0749227009215296 -1.5708091894732874 3.112248182296753 0.0 0.0 0.0 -5.625767955078501e-25 0.0 -5.4784614160190545e-27 1 True False
18232.17 4.682985782623291 -1.21430657923732 1.7185080687152308 -2.0749432049193324 -1.5707767645465296 3.112231731414795 0.0 0.0 0.0 -8.547920632381384e-44 0.0 -1.401298464324817e-45 1 True False
18232.219999999998 4.682994842529297 -1.2143525046161194 1.718407932912008 -2.0750190220274867 -1.570784870778219 3.1122958660125732 0.0 -3.273768015787937e-05 -0.0012617133324965835 -0.0005947513855062425 0.0 4.0168808482121676e-05 1 True False
18232.27 4.6829915046691895 -1.2143423420241852 1.7183788458453577 -2.075125833550924 -1.5707767645465296 3.112210750579834 0.0 0.0003002496960107237 -9.109060176298615e-23 -0.0002613175311125815 -0.00015141905169002712 -7.469020056305453e-05 1 True False
18232.32 4.682990074157715 -1.2143749457648774 1.7183969656573694 -2.0751215420165003 -1.5707925001727503 3.1122524738311768 0.0 0.0006715398631058633 0.0003207985428161919 0.0005062743439339101 -3.9104004827095196e-05 -3.665509939310141e-05 1 True True
18232.37 4.683097839355469 -1.2146580976298829 1.7178028265582483 -2.073127885858053 -1.5707967917071741 3.1122028827667236 0.0 -0.017288096249103546 -0.03630250319838524 0.06369402259588242 -1.9783840176086333e-16 -3.6433146306080744e-05 1 True True
18232.42 4.682985782623291 -1.216582791214325 1.714320484791891 -2.068324705163473 -1.5707967917071741 3.1121864318847656 0.0 -0.05523400753736496 -0.08932731300592422 0.13958194851875305 -3.005168814018633e-35 -7.743390997849708e-12 1 True True
18232.469999999998 4.682966232299805 -1.2195697289756318 1.7086265722857874 -2.059572835961813 -1.5708087126361292 3.112252712249756 0.0 -0.07611403614282608 -0.14244882762432098 0.21083366870880127 -0.0 -1.176222593082509e-30 1 True True
18232.52 4.6829962730407715 -1.2239710551551362 1.700752083455221 -2.0474778614439906 -1.570829216633932 3.1122303009033203 3.6281528683026923e-16 -0.09454476088285446 -0.17044350504875183 0.2701370120048523 -0.0 -0.0 1 True True
18232.57 4.683043956756592 -1.2294452649405976 1.6904376188861292 -2.0319577656187953 -1.5707443396197718 3.112161159515381 0.0 -0.1231364831328392 -0.2291211187839508 0.35382306575775146 -0.0 -0.0 1 True True
18232.62 4.6830153465271 -1.2361172896674653 1.6781819502459925 -2.012780328790182 -1.5707929770099085 3.112215280532837 0.0 -0.14586926996707916 -0.2681784927845001 0.39832788705825806 -0.0 -0.0 1 True True
18232.67 4.683051109313965 -1.2441628736308594 1.663504425679342 -1.9902144871153773 -1.5707767645465296 3.112236261367798 0.0 -0.17212481796741486 -0.31159961223602295 0.4817541837692261 -0.0 -9.755839710123837e-05 1 True True
18232.719999999998 4.682994842529297 -1.2533283096602936 1.6466129461871546 -1.96413054088735 -1.5707929770099085 3.112236261367798 0.0 -0.19286131858825684 -0.3611098825931549 0.5504761338233948 -0.0 -2.6272886316291988e-05 1 True True
18232.77 4.68303918838501 -1.2624842685512085 1.629432503377096 -1.9378191433348597 -1.5707529226886194 3.11221981048584 0.0 -0.17071065306663513 -0.3153330385684967 0.4891398847103119 -0.0 -1.5187461940513458e-05 1 True True
18232.82 4.683018684387207 -1.270506576900818 1.614852253590719 -1.914952894250387 -1.5708335081683558 3.112227201461792 0.0 -0.151448056101799 -0.27368247509002686 0.4203914999961853 -0.0 -1.0681179446692113e-05 1 True True
18232.87 4.682977199554443 -1.27743752420459 1.60217792192568 -1.8955594501891078 -1.5707805792437952 3.112222909927368 0.0 -0.12297239154577255 -0.2290082424879074 0.3379494249820709 4.7808498493395746e-05 -4.9742700006332386e-20 1 True True
18232.92 4.6830315589904785 -1.2828923624804993 1.5918877760516565 -1.8797861538329066 -1.5707724730121058 3.1122243404388428 0.0 -0.0997176468372345 -0.1858011782169342 0.3003605306148529 6.797487950109134e-22 -7.555928837799667e-39 1 True True
18232.969999999998 4.682978630065918 -1.2872833174518128 1.5839179197894495 -1.8673244915404261 -1.5707805792437952 3.112215280532837 0.0 -0.07376889139413834 -0.13910087943077087 0.21166236698627472 1.0325467734377415e-40 9.052010864252225e-05 1 True True
18233.02 4.682978630065918 -1.290440486078598 1.5780990759478968 -1.8582726917662562 -1.5708048979388636 3.1122243404388428 0.0 -0.05034736171364784 -0.09438259899616241 0.1500338315963745 0.0 2.5736306270118803e-05 1 True True
18233.07 4.682981491088867 -1.2922777992537995 1.574592415486471 -1.852938791314596 -1.5708006064044397 3.112210988998413 0.0 -0.02705339342355728 -0.050092220306396484 0.0852455124258995 0.0 1.5006619833002333e-05 1 True True
18233.12 4.6830153465271 -1.2930479806712647 1.5732596556292933 -1.8511072597899378 -1.5707967917071741 3.1121654510498047 0.0 -0.0003564519574865699 -0.0012931212550029159 0.004394413437694311 0.0 1.0591413229121827e-05 1 True True
18233.17 4.682207107543945 -1.2930067640594025 1.5733421484576624 -1.8510948620238246 -1.5707686583148401 3.110682487487793 -0.03341600298881531 -0.0009286744752898812 7.217445818241686e-05 -2.1628932045090376e-16 0.0 -0.06838974356651306 1 True True
18233.219999999998 4.679704189300537 -1.2930807036212464 1.5733345190631312 -1.851062913934225 -1.5707886854754847 3.105652093887329 -0.0725603774189949 -0.004235428757965565 0.0009236023179255426 0.0006172864814288914 0.0 -0.13820379972457886 1 True True
18233.27 4.675134181976318 -1.2932188671878357 1.5735090414630335 -1.8510667286314906 -1.5707772413836878 3.0969619750976562 -0.1028766930103302 -0.004046335816383362 0.004815585445612669 0.00019626374705694616 0.0 -0.20471960306167603 1 True True
18233.32 4.668885231018066 -1.2934793394855042 1.5737608114825647 -1.8511234722533167 -1.5707886854754847 3.085045576095581 -0.1418190449476242 -0.0047554089687764645 0.0070097013376653194 2.8756750314329338e-09 0.0 -0.27201908826828003 1 True True
18233.37 4.660904407501221 -1.2936463517001648 1.5740564505206507 -1.851138254205221 -1.5708211104022425 3.069479465484619 -0.1792738288640976 -0.005184877198189497 0.0074588581919670105 -0.002170585561543703 0.0 -0.3427805006504059 1 True True
18233.42 4.651066780090332 -1.2939795118621369 1.5745213667498987 -1.8512779674925746 -1.570772949849264 3.0504796504974365 -0.2148510068655014 -0.006516300607472658 0.009185368195176125 -0.0027610145043581724 0.0 -0.41163399815559387 1 True True
18233.469999999998 4.6393585205078125 -1.2943525177291413 1.5749042669879358 -1.8513766727843226 -1.5707929770099085 3.027885675430298 -0.2474261224269867 -0.008500874973833561 0.009683149866759777 -0.002556445077061653 -0.0001528840366518125 -0.48000848293304443 1 True True
18233.52 4.625990390777588 -1.2947777670672913 1.5754740873919886 -1.8514844379820765 -1.570813004170553 3.0019407272338867 -0.28948405385017395 -0.009437638334929943 0.010535347275435925 -0.0017102055717259645 3.354189743731695e-07 -0.5538899898529053 1 True True
18233.57 4.6105570793151855 -1.295229123239853 1.5759814421283167 -1.8516112766661585 -1.5707925001727503 2.972419023513794 -0.32399144768714905 -0.010381490923464298 0.013142524287104607 -0.005583132617175579 5.0950230159731443e-26 -0.6277806162834167 1 True True
18233.62 4.593722343444824 -1.2956811052611847 1.576637093220846 -1.8518182239928187 -1.5707724730121058 2.9395041465759277 -0.36160925030708313 -0.01099576335400343 0.012846609577536583 -0.004161626100540161 8.407790785948902e-45 -0.6959584355354309 1 True True
18233.67 4.574711322784424 -1.2961832147887726 1.577324692402975 -1.8519617519774378 -1.5708487669574183 2.9028360843658447 -0.3957311511039734 -0.010085208341479301 0.01571943797171116 -0.002597279381006956 0.0 -0.7554287314414978 1 True True
18233.719999999998 4.554137229919434 -1.2967872482589264 1.5782035032855433 -1.8521882496275843 -1.5707686583148401 2.8630309104919434 -0.4355272352695465 -0.013321815058588982 0.01746254414319992 -0.0044532110914587975 0.0 -0.8229007720947266 1 True True
18233.77 4.531713008880615 -1.2974877816489716 1.5790260473834437 -1.8523436985411585 -1.5708168188678187 2.8196914196014404 -0.4653988182544708 -0.01603546179831028 0.01987966150045395 -0.0044748540967702866 0.0 -0.9104323983192444 1 True True
18233.82 4.507206916809082 -1.298247681265213 1.5800522009478968 -1.852549215356344 -1.5708168188678187 2.772550582885742 -0.5009431838989258 -0.014432244934141636 0.019851332530379295 -0.0032107257284224033 0.0 -0.96317058801651 1 True True
18233.87 4.481055736541748 -1.2990421217731019 1.5810454527484339 -1.852811952630514 -1.5708168188678187 2.7221760749816895 -0.5419402718544006 -0.013979815877974033 0.020888935774564743 -0.007648894097656012 4.91495347887394e-06 -1.049771785736084 1 True True
18233.92 4.454240798950195 -1.2997885209373017 1.5820906797992151 -1.8529960117735804 -1.5708091894732874 2.6699931621551514 -0.5441205501556396 -0.016380425542593002 0.02047864720225334 -0.005646968260407448 0.0005214736447669566 -1.0421496629714966 1 True True
18233.969999999998 4.4272613525390625 -1.3006628912738343 1.583106819783346 -1.8533054790892542 -1.5707610289203089 2.617445230484009 -0.5376905798912048 -0.017753487452864647 0.022829150781035423 -0.002911715302616358 0.0010839552851393819 -1.0493719577789307 1 True True
18234.02 4.400127410888672 -1.3014187079719086 1.5841205755816858 -1.8535243473448695 -1.5707243124591272 2.5651557445526123 -0.5373838543891907 -0.018409404903650284 0.021728530526161194 -0.002582582412287593 0.0024625558871775866 -1.0532513856887817 1 True True
18234.07 4.372870445251465 -1.3021544081023713 1.5852025190936487 -1.8538185558714808 -1.5708168188678187 2.5128660202026367 -0.538096010684967 -0.016897570341825485 0.022497521713376045 -0.0025112361181527376 -0.00034610150032676756 -1.0442231893539429 1 True True
18234.12 4.345571517944336 -1.302983121281006 1.5862181822406214 -1.8540603123106898 -1.5708449522601526 2.4603688716888428 -0.5426822304725647 -0.015772631391882896 0.020083729177713394 -0.006626575253903866 -0.0008752748835831881 -1.0379478931427002 1 True True
18234.17 4.318532943725586 -1.3037913900664826 1.5872286001788538 -1.854272028008932 -1.5708697477923792 2.408050060272217 -0.548287570476532 -0.014662564732134342 0.018549874424934387 -0.010101431980729103 -0.0013346070190891623 -1.0495848655700684 1 True True
18234.219999999998 4.291573524475098 -1.3046353322318573 1.588309113179342 -1.8545028171935023 -1.570784870778219 2.3558168411254883 -0.5482698678970337 -0.013897974975407124 0.020615557208657265 -0.008619308471679688 7.057590664771851e-06 -1.0418473482131958 1 True True
18234.27 4.2646026611328125 -1.3054853540709992 1.5894025007831019 -1.854624410668844 -1.5707653204547327 2.3032877445220947 -0.5408098101615906 -0.015413394197821617 0.019931534305214882 -0.005433292593806982 0.0005080153350718319 -1.0451984405517578 1 True True
18234.32 4.237509250640869 -1.3062692147544404 1.5904510656939905 -1.854875227014059 -1.5707204977618616 2.2509868144989014 -0.5358871221542358 -0.01701963320374489 0.021437911316752434 -0.0032312534749507904 0.0009568490204401314 -1.0529423952102661 1 True True
18234.37 4.21051025390625 -1.3070574265769501 1.5913823286639612 -1.8551379642882289 -1.5707934538470667 2.1986868381500244 -0.5388039946556091 -0.017580127343535423 0.022991783916950226 -0.0011929383035749197 0.0018153202254325151 -1.0465126037597656 1 True True
18234.42 4.183335304260254 -1.3078130346587677 1.5924227873431605 -1.8554231129088343 -1.570833985005514 2.146172046661377 -0.5376350283622742 -0.01802411861717701 0.021830972284078598 -0.002515157451853156 -1.2627295291167684e-05 -1.0417693853378296 1 True True
18234.469999999998 4.15593957901001 -1.308581219320633 1.5934961477862757 -1.8557106457152308 -1.5708125273333948 2.0938756465911865 -0.542450487613678 -0.014174045994877815 0.02135525271296501 -0.003330707550048828 -0.0007130224257707596 -1.052330732345581 1 True True
18234.52 4.128915786743164 -1.3094675999930878 1.5945361296283167 -1.8558927975096644 -1.5708239714251917 2.0416576862335205 -0.545983076095581 -0.014595610089600086 0.018641702830791473 -0.007365494035184383 -0.0010363132460042834 -1.0473418235778809 1 True True
18234.57 4.101728916168213 -1.3102096182158967 1.5956648031817835 -1.8561202488341273 -1.570841137562887 1.989119529724121 -0.5481286644935608 -0.01334964856505394 0.02024054527282715 -0.009378412738442421 -0.002853048499673605 -1.0431095361709595 1 True True
18234.62 4.074880123138428 -1.31108711779628 1.5966766516314905 -1.8563629589476527 -1.5707653204547327 1.9368170499801636 -0.5471280813217163 -0.015345794148743153 0.020877618342638016 -0.006804218515753746 0.0004209972103126347 -1.0543240308761597 1 True True
18234.67 4.047926425933838 -1.311862276201584 1.597762409840719 -1.8565813503661097 -1.5707486311541956 1.8844962120056152 -0.5407965779304504 -0.016844309866428375 0.020664161071181297 -0.003986302763223648 0.0008328598341904581 -1.04702889919281 1 True True
18234.719999999998 4.020834922790527 -1.3127035063556214 1.5987961927997034 -1.8567916355528773 -1.5707686583148401 1.832045078277588 -0.5340896248817444 -0.018577219918370247 0.023815376684069633 -0.001485097804106772 0.0013154668267816305 -1.04310941696167 1 True True
18234.77 3.9936423301696777 -1.3134761613658448 1.5998218695269983 -1.8571139774718226 -1.5708087126361292 1.7796603441238403 -0.5367953181266785 -0.01687135361135006 0.023057034239172935 -0.0027251415885984898 0.002994727110490203 -1.0475765466690063 1 True True
18234.82 3.966477394104004 -1.3142736417106171 1.6008570829974573 -1.8573557339110316 -1.5708492437945765 1.7273987531661987 -0.5392934083938599 -0.016463035717606544 0.019408077001571655 -0.0035627649631351233 -0.00017100764671340585 -1.0483018159866333 1 True True
18234.87 3.9392170906066895 -1.3149949175170441 1.6019046942340296 -1.857659479180807 -1.5708687941180628 1.6750091314315796 -0.5453183650970459 -0.015015140175819397 0.020590683445334435 -0.006979160942137241 -0.0010194254573434591 -1.0412582159042358 1 True True
18234.92 3.9120821952819824 -1.3158065241626282 1.602959458027975 -1.8578053913512171 -1.5708406607257288 1.6226177215576172 -0.5465893149375916 -0.01468216348439455 0.018652765080332756 -0.00828879326581955 -0.002046734094619751 -1.051964282989502 1 True True
18234.969999999998 3.885157823562622 -1.3167008322528382 1.604056183491842 -1.8580404720702113 -1.5707805792437952 1.5704172849655151 -0.548639714717865 -0.014909015968441963 0.018772222101688385 -0.007036715280264616 -0.000251961057074368 -1.0443341732025146 1 True True
18235.02 3.8582403659820557 -1.3175622087768097 1.6050079504596155 -1.8582469425597132 -1.5707810560809534 1.5179340839385986 -0.5397902727127075 -0.01606435514986515 0.020211659371852875 -0.0048185777850449085 0.0008153411326929927 -1.0479485988616943 1 True True
18235.07 3.8312742710113525 -1.3183270555785676 1.6060789267169397 -1.8584820232787074 -1.5707414785968226 1.465549111366272 -0.5359431505203247 -0.018205342814326286 0.022157536819577217 -0.0026224020402878523 0.0011592473601922393 -1.046707034111023 1 True True
18235.12 3.803981065750122 -1.3191348177245636 1.6071117560016077 -1.8587995968260707 -1.5707686583148401 1.4132741689682007 -0.5347636342048645 -0.017521431669592857 0.02228706143796444 -0.0013139654183760285 0.0024243115913122892 -1.0549978017807007 1 True True
18235.17 3.776857852935791 -1.3198254865458985 1.6080635229693812 -1.8590504131712855 -1.5708368460284632 1.3609795570373535 -0.5387473702430725 -0.01585407927632332 0.021832725033164024 -0.0037200464867055416 -0.00019088138651568443 -1.0463387966156006 1 True True
18235.219999999998 3.7495672702789307 -1.320617989902832 1.6090944449054163 -1.8592845402159632 -1.5708282629596155 1.3084579706192017 -0.5410900712013245 -0.015811700373888016 0.021254615858197212 -0.006404589861631393 -0.0005810511065647006 -1.050580620765686 1 True True
18235.27 3.722520112991333 -1.3214132201722641 1.6101701895343226 -1.8595229587950648 -1.570796314870016 1.2561975717544556 -0.5485169887542725 -0.013839625753462315 0.01924176886677742 -0.00846558902412653 -0.0010607613949105144 -1.0498526096343994 1 True True
18235.32 3.6955032348632812 -1.3223389399102707 1.6112216154681605 -1.8596936664977015 -1.5708172957049769 1.2037526369094849 -0.5472083687782288 -0.01517094112932682 0.018617969006299973 -0.009570416063070297 -0.0015523092588409781 -1.0470455884933472 1 True True
18235.37 3.6684820652008057 -1.3230894368937989 1.6122902075396937 -1.8599206409850062 -1.5707696119891565 1.1514071226119995 -0.5454207062721252 -0.015315281227231026 0.020493604242801666 -0.00478726951405406 0.0006088222726248205 -1.0431376695632935 1 True True
18235.42 3.6415610313415527 -1.3238724035075684 1.6133316198932093 -1.8601991138853968 -1.570756737385885 1.0990248918533325 -0.5406160950660706 -0.01732947677373886 0.021050114184617996 -0.0028237514197826385 0.0008033079793676734 -1.0480175018310547 1 True True
18235.469999999998 3.614413022994995 -1.324770138864853 1.6143835226642054 -1.8604780636229457 -1.5707405249225062 1.0467185974121094 -0.5347110033035278 -0.017940470948815346 0.02347397617995739 -0.0015298982616513968 0.0025462519843131304 -1.0458050966262817 1 True True
18235.52 3.5872440338134766 -1.3254963916591187 1.6154473463641565 -1.8607036075987757 -1.5708053747760218 0.9943755865097046 -0.5382834672927856 -0.017931224778294563 0.022107310593128204 -0.00206723902374506 -0.0002238546294393018 -1.04860258102417 1 True True
18235.57 3.5600016117095947 -1.3262767058661957 1.6164382139789026 -1.8609940014281214 -1.570780102406637 0.9420297145843506 -0.5415270328521729 -0.016120925545692444 0.020952031016349792 -0.004673960153013468 -0.0006531776743941009 -1.0456058979034424 1 True True
18235.62 3.5328619480133057 -1.327051894073822 1.6175602118121546 -1.861204286614889 -1.5708239714251917 0.8896524906158447 -0.5447080135345459 -0.016035109758377075 0.019330911338329315 -0.007320884615182877 -0.0009798826649785042 -1.0414503812789917 1 True True
18235.67 3.505803346633911 -1.3278341901353379 1.6185148398028772 -1.8614474735655726 -1.5708649794207972 0.8372575044631958 -0.5471575856208801 -0.015041576698422432 0.017759647220373154 -0.010213456116616726 -0.0025444955099374056 -1.0441495180130005 1 True True
18235.719999999998 3.4788553714752197 -1.3287427884391327 1.6195700804339808 -1.8616143665709437 -1.570772949849264 0.784909188747406 -0.5490832924842834 -0.01571762189269066 0.01942494511604309 -0.007557045202702284 0.00016060132475104183 -1.0435577630996704 1 True True
18235.77 3.451852798461914 -1.3295988154462357 1.6206219832049769 -1.861845155755514 -1.5707290808307093 0.7325345277786255 -0.5404908657073975 -0.017738163471221924 0.022643381729722023 -0.004168583545833826 0.0006751994369551539 -1.0505634546279907 1 True True
18235.82 3.4248554706573486 -1.3303751808455964 1.6217358748065394 -1.862098833123678 -1.5707772413836878 0.6801905632019043 -0.5395401120185852 -0.01726248860359192 0.023426726460456848 -0.0020829823333770037 0.0016957168700173497 -1.0458606481552124 1 True True
18235.87 3.3976240158081055 -1.3310887527516861 1.6227014700519007 -1.8623415432372035 -1.5708211104022425 0.6278784871101379 -0.5362981557846069 -0.018391238525509834 0.023596107959747314 -0.002137795789167285 0.001149362768046558 -1.0520539283752441 1 True True
18235.92 3.3703575134277344 -1.33186029017482 1.6237385908709925 -1.8626438579955042 -1.5708444754229944 0.5755326151847839 -0.5404651761054993 -0.01651027612388134 0.020535647869110107 -0.0026051874738186598 -0.0002719887997955084 -1.0483100414276123 1 True True
18235.969999999998 3.343266010284424 -1.3327655804208298 1.6247828642474573 -1.8628622494139613 -1.5708492437945765 0.5230425596237183 -0.5443397760391235 -0.015328985638916492 0.018810411915183067 -0.0052319541573524475 -0.0008439123630523682 -1.0508652925491333 1 True True
18236.02 3.316152572631836 -1.3335329753211518 1.6257479826556605 -1.8630806408324183 -1.5708368460284632 0.470708429813385 -0.5434966087341309 -0.01459509041160345 0.018991945311427116 -0.007046756334602833 -0.0011265125358477235 -1.0405471324920654 1 True True
18236.07 3.2891287803649902 -1.3343322289041062 1.6269195715533655 -1.8632880649962367 -1.5707724730121058 0.41835707426071167 -0.5486594438552856 -0.015188324265182018 0.018186312168836594 -0.007730746176093817 8.036976942094043e-05 -1.0507800579071045 1 True True
18236.12 3.2621850967407227 -1.3352006089738389 1.6279729048358362 -1.8635426960387171 -1.5707486311541956 0.36602044105529785 -0.5427888035774231 -0.015181558206677437 0.020468110218644142 -0.004502896685153246 0.0005048899329267442 -1.0479720830917358 1 True True
18236.17 3.235147476196289 -1.3360004138997574 1.629012409840719 -1.863749166528219 -1.5707443396197718 0.3137212097644806 -0.5393185615539551 -0.017720669507980347 0.02080882340669632 -0.004765750374644995 -1.3786944919047528e-09 -1.044344425201416 1 True True
18236.219999999998 3.2079718112945557 -1.3367519539645691 1.6301153341876429 -1.8640395603575648 -1.5707405249225062 0.2613461911678314 -0.5391328930854797 -0.01639268547296524 0.02265092171728611 -0.0017680044984444976 0.001166573609225452 -1.0471011400222778 1 True True
18236.27 3.181467056274414 -1.3375426095775147 1.6310609022723597 -1.8643418751158656 -1.5707805792437952 0.2100227177143097 -0.5110177993774414 -0.01678295247256756 0.021515265107154846 -0.001947066280990839 -1.1874432175318361e-06 -0.9920176863670349 1 True True
18236.32 3.156525135040283 -1.3382305365851899 1.631960693989889 -1.8645407162108363 -1.570796314870016 0.16209155321121216 -0.47916555404663086 -0.01394613180309534 0.016835778951644897 -0.004247566685080528 -0.0007627586019225419 -0.9197594523429871 1 True True
18236.37 3.1334736347198486 -1.3389459711364289 1.6328704992877405 -1.8646913967528285 -1.5707810560809534 0.11783190816640854 -0.44651639461517334 -0.011417371220886707 0.014549399726092815 -0.00722883827984333 4.008521869991455e-08 -0.8586153984069824 1 True True
18236.42 3.1125643253326416 -1.3396010261825104 1.6337431112872522 -1.8648907146849574 -1.5708048979388636 0.07684161514043808 -0.41302913427352905 -0.012188072316348553 0.013955803588032722 -0.006213706452399492 0.0004009348340332508 -0.786476194858551 1 True True
18236.469999999998 3.0932369232177734 -1.3401278865388413 1.6344884077655237 -1.865037580529684 -1.5707610289203089 0.03940824046730995 -0.3679494559764862 -0.011586884036660194 0.01555613987147808 -0.0015508581418544054 0.00033432524651288986 -0.7135809063911438 1 True True
18236.52 3.075441360473633 -1.3406325739673157 1.6351164023028772 -1.8651758633055628 -1.5707929770099085 0.00545313348993659 -0.32988810539245605 -0.00993187353014946 0.013361208140850067 -0.0020962986163794994 2.2208218608283509e-13 -0.6419864892959595 1 True True
