Andreas691667/Digital_Twin_UR/data_analysis/test_results/robot_data/robot_output_wgo2.csv
timestamp actual_q_0 actual_q_1 actual_q_2 actual_q_3 actual_q_4 actual_q_5 actual_qd_0 actual_qd_1 actual_qd_2 actual_qd_3 actual_qd_4 actual_qd_5 safety_status output_bit_register_65 output_bit_register_66
18001.39 3.7120819091796875 -0.8254661721042176 0.8429878393756312 -1.588280817071432 -1.5708168188678187 2.1412267684936523 0.0 0.0 0.0 -0.0 0.0 -0.0 1 False False
18001.44 3.7120862007141113 -0.8255156439593812 0.8429845015155237 -1.588320871392721 -1.5707767645465296 2.1412503719329834 0.0 0.0 0.0 -0.0 0.0 -0.0 1 False False
18001.489999999998 3.7121036052703857 -0.8255169552615662 0.8430216948138636 -1.5882774792113246 -1.570784870778219 2.141295909881592 0.0 0.0 0.0 -0.0 0.0 -0.0 1 False False
18001.54 3.712045907974243 -0.8255275648883362 0.842992130910055 -1.5882774792113246 -1.5707925001727503 2.1412665843963623 0.0 0.0 0.0 -0.0 0.0 -0.0 1 False False
18001.59 3.7120862007141113 -0.8254707020572205 0.8429845015155237 -1.5882817707457484 -1.570853058491842 2.141270875930786 0.0 0.0 0.0 -0.0 0.0 -0.0 1 False False
18001.64 3.7121036052703857 -0.8255450886539002 0.8429802099810999 -1.588269372979635 -1.570801083241598 2.141295909881592 0.0 0.0 0.0 -0.0 0.0 -0.0 1 False False
18001.69 3.7120938301086426 -0.8254913252643128 0.8429678122149866 -1.5882817707457484 -1.5708449522601526 2.141308546066284 0.0 0.0 0.0 -0.0 0.0 -0.0 1 False False
18001.739999999998 3.712106704711914 -0.8254869741252442 0.8429630438434046 -1.588269372979635 -1.570784870778219 2.14125919342041 0.0 0.0 0.0 -0.0 0.0 -0.0 1 False False
18001.79 3.7120370864868164 -0.825454370384552 0.8429964224444788 -1.588245531121725 -1.5708487669574183 2.1412997245788574 0.0 0.0 0.0 -0.0 0.0 -0.0 1 False False
18001.84 3.7120742797851562 -0.825463132267334 0.8430126349078577 -1.588269372979635 -1.5707486311541956 2.141239643096924 0.0 0.0 0.0 -0.0 0.0 -0.0 1 False False
18001.89 3.712111234664917 -0.8254869741252442 0.8429587523089808 -1.5883175335326136 -1.570784870778219 2.141263484954834 0.0 0.0 0.0 -0.0 0.0 -0.0 1 False False
18001.94 3.7120699882507324 -0.8254780930331727 0.8430336157428187 -1.588313718835348 -1.5707891623126429 2.1412429809570312 0.0 0.0 0.0 -0.0 0.0 -0.0 1 False False
18001.989999999998 3.712090492248535 -0.8254794043353577 0.8429754416095179 -1.5882288418211878 -1.5707925001727503 2.141247272491455 0.0 0.0 0.0 -0.0 0.0 -0.0 1 False False
18002.04 3.71207857131958 -0.8255201143077393 0.8429845015155237 -1.5882817707457484 -1.570801083241598 2.141312837600708 0.0 0.0 0.0 -0.0 0.0 -0.0 1 False False
18002.09 3.7120699882507324 -0.8254956764033814 0.8430174032794397 -1.5882817707457484 -1.5708449522601526 2.1413040161132812 0.0 0.0 0.0 -0.0 0.0 -0.0 1 False False
18002.14 3.7120742797851562 -0.8254707616618653 0.8429587523089808 -1.5882607899107875 -1.5708211104022425 2.1413462162017822 0.0 0.0 0.0 -0.0 0.0 -0.0 1 False False
18002.19 3.712062358856201 -0.8254913252643128 0.8429845015155237 -1.5882932148375453 -1.5708006064044397 2.1412925720214844 0.0 0.0 0.0 -0.0 0.0 -0.0 1 False False
18002.239999999998 3.712050199508667 -0.8254618805697937 0.8429349104510706 -1.5882569752135218 -1.5707767645465296 2.141317129135132 0.0 0.0 0.0 -0.0 0.0 -0.0 1 False False
18002.29 3.712099313735962 -0.825491265659668 0.8429845015155237 -1.588297029534811 -1.5707805792437952 2.141279697418213 0.0 0.0 0.0 -0.0 0.0 -0.0 1 False False
18002.34 3.712062358856201 -0.8254999679378052 0.8429425398456019 -1.5883170566954554 -1.570784870778219 2.1412925720214844 0.0 0.0 0.0 -0.0 0.0 -0.0 1 False False
18002.39 3.7120580673217773 -0.825491265659668 0.842992130910055 -1.588245531121725 -1.5707805792437952 2.141275405883789 0.0 0.0 0.0 -0.0 0.0 -0.0 1 False False
18002.44 3.712050199508667 -0.825491265659668 0.8430007139789026 -1.5882774792113246 -1.570829216633932 2.141251564025879 0.0 0.0 0.0 -0.0 0.0 -0.0 1 False False
18002.489999999998 3.712071180343628 -0.8254836958697815 0.8429763952838343 -1.5882569752135218 -1.570801083241598 2.1413257122039795 0.0 0.0 0.0 -0.0 0.0 -0.0 1 False False
18002.54 3.7120981216430664 -0.8254793447307129 0.8429845015155237 -1.5882846317686976 -1.5707967917071741 2.141291618347168 0.0 0.0 0.0 -0.0 0.0 -0.0 1 False False
18002.59 3.7120580673217773 -0.8254707616618653 0.8430054823504847 -1.5882498226561488 -1.5707767645465296 2.141279697418213 0.0 0.0 0.0 -0.0 0.0 -0.0 1 False False
18002.64 3.712066650390625 -0.8254707616618653 0.8429964224444788 -1.5882374248900355 -1.570813004170553 2.141279697418213 0.0 0.0 0.0 -0.0 0.0 -0.0 1 False False
18002.69 3.7120449542999268 -0.8255124253085633 0.8429673353778284 -1.5882569752135218 -1.570784870778219 2.1412925720214844 0.0 0.0 0.0 -0.0 0.0 -0.0 1 False False
18002.739999999998 3.7120494842529297 -0.8254382771304627 0.8430245558368128 -1.5883094273009242 -1.5707925001727503 2.141317129135132 0.0 0.0 0.0 -0.0 0.0 -0.0 1 False False
18002.79 3.712110996246338 -0.8254662913135071 0.8429754416095179 -1.588269372979635 -1.5708168188678187 2.141295909881592 0.0 0.0 0.0 -0.0 0.0 -0.0 1 False False
18002.84 3.7120656967163086 -0.825491265659668 0.8429802099810999 -1.588285585443014 -1.5707891623126429 2.141267776489258 0.0 0.0 0.0 -0.0 0.0 -0.0 1 False False
18002.89 3.712082862854004 -0.8254750531962891 0.8429802099810999 -1.588320871392721 -1.5707967917071741 2.1412148475646973 0.0 0.0 0.0 -0.0 0.0 -0.0 1 False False
18002.94 3.7120699882507324 -0.8254793447307129 0.8429277578936976 -1.5882817707457484 -1.5707925001727503 2.141275405883789 0.0 0.0 0.0 -0.0 0.0 -0.0 1 False False
18002.989999999998 3.7120323181152344 -0.8254307073405762 0.8429754416095179 -1.5882607899107875 -1.5707529226886194 2.141279697418213 0.0 0.0 0.0 -0.0 0.0 -0.0 1 False False
18003.04 3.712066888809204 -0.8254338663867493 0.8430379072772425 -1.5882569752135218 -1.5707805792437952 2.141275405883789 0.0 0.0 0.0 -0.0 0.0 -0.0 1 False False
18003.09 3.7120816707611084 -0.8254555028728028 0.8430174032794397 -1.588280817071432 -1.5707767645465296 2.1412105560302734 0.0 0.0 0.0 -0.0 0.0 -0.0 1 False False
18003.14 3.7120816707611084 -0.8255081337741395 0.8429630438434046 -1.5882569752135218 -1.5707605520831507 2.1413257122039795 0.0 0.0 0.0 -0.0 0.0 -0.0 1 False False
18003.19 3.7120816707611084 -0.8254792851260682 0.8429430166827601 -1.5882774792113246 -1.5708044211017054 2.1413044929504395 0.0 0.0 0.0 -0.0 0.0 -0.0 1 False False
18003.239999999998 3.712095022201538 -0.8254383963397522 0.842987362538473 -1.5882569752135218 -1.5708254019366663 2.141267776489258 0.0 0.0 0.0 -0.0 0.0 -0.0 1 False False
18003.29 3.712078809738159 -0.8254545491984864 0.8430054823504847 -1.5882612667479457 -1.570772949849264 2.141275405883789 0.0 0.0 0.0 -0.0 0.0 -0.0 1 False False
18003.34 3.7120862007141113 -0.8254673641971131 0.8430169264422815 -1.588285585443014 -1.570756737385885 2.141270875930786 0.0 0.0 0.0 -0.0 0.0 -0.0 1 False False
18003.39 3.7120697498321533 -0.8255124253085633 0.8430083433734339 -1.588313718835348 -1.570784870778219 2.1412925720214844 0.0 0.0 0.0 -0.0 0.0 -0.0 1 False False
18003.44 3.7120532989501953 -0.8255242866328736 0.8429587523089808 -1.5882650814452113 -1.5707686583148401 2.141295909881592 0.0 0.0 0.0 -0.0 0.0 -0.0 1 False False
18003.489999999998 3.7120578289031982 -0.8255208295634766 0.8429678122149866 -1.5882774792113246 -1.5707648436175745 2.1412925720214844 0.0 0.0 0.0 -0.0 0.0 -0.0 1 False False
18003.54 3.712095260620117 -0.8254750531962891 0.8429630438434046 -1.5882731876769007 -1.5707486311541956 2.1412222385406494 0.0 0.0 0.0 -0.0 0.0 -0.0 1 False False
18003.59 3.7120862007141113 -0.8254631918719788 0.8429802099810999 -1.5882731876769007 -1.5707967917071741 2.141247272491455 0.0 0.0 0.0 -0.0 0.0 -0.0 1 False False
18003.64 3.7120816707611084 -0.825450138454773 0.8429845015155237 -1.5882569752135218 -1.570784870778219 2.1412763595581055 0.0 0.0 0.0 -0.0 0.0 -0.0 1 False False
18003.69 3.7120862007141113 -0.8254588407329102 0.8429635206805628 -1.5882650814452113 -1.5708215872394007 2.1413044929504395 0.0 0.0 0.0 -0.0 0.0 -0.0 1 False False
18003.739999999998 3.7120728492736816 -0.8254264754107972 0.8430379072772425 -1.5882650814452113 -1.570813004170553 2.141270637512207 0.0 0.0 0.0 -0.0 0.0 -0.0 1 False False
18003.79 3.7120816707611084 -0.8255123060992737 0.8429887930499476 -1.5883251629271449 -1.5707767645465296 2.141291618347168 0.0 0.0 0.0 -0.0 0.0 -0.0 1 True False
18003.84 3.7120862007141113 -0.825483576660492 0.8429930845843714 -1.588245531121725 -1.570801083241598 2.141321897506714 0.0 0.0 0.0 -0.0 0.0 -0.0 1 True False
18003.89 3.7120697498321533 -0.8254426878741761 0.8429716269122522 -1.5882288418211878 -1.5707605520831507 2.141287088394165 0.0 0.0 0.0 -0.0 0.0 -0.0 1 True False
18003.94 3.7120487689971924 -0.8254092496684571 0.8429759184466761 -1.588269372979635 -1.570784870778219 2.141296148300171 0.0 0.0 0.0 -0.0 0.0 -0.0 1 True False
18003.989999999998 3.71209979057312 -0.8254739803126832 0.8429802099810999 -1.5882889233031214 -1.5708125273333948 2.141254186630249 2.318419010309993e-24 0.0 0.0 -0.0 0.0 -0.0 1 True False
18004.04 3.712036609649658 -0.8254350584796448 0.8429845015155237 -1.5882331333556117 -1.5707767645465296 2.14123797416687 0.0 0.0 0.0 -0.0 0.0 -0.0 1 True False
18004.09 3.7120742797851562 -0.8254997295192261 0.8429845015155237 -1.588313718835348 -1.5707972685443323 2.141267776489258 0.0 0.0 0.0 -0.0 0.0 -0.0 1 True False
18004.14 3.712087631225586 -0.82550402105365 0.842992130910055 -1.5882774792113246 -1.5707967917071741 2.1413426399230957 0.0 0.0 0.0 -0.0 0.0 -0.0 1 True False
18004.19 3.7120532989501953 -0.8255208891681214 0.8429845015155237 -1.5882889233031214 -1.5708335081683558 2.141221523284912 0.0 0.0 0.0 -0.0 0.0 -0.0 1 True False
18004.239999999998 3.712078809738159 -0.8254739803126832 0.8429563681231897 -1.5883327923216761 -1.57074481645693 2.141313076019287 0.0 0.0 0.0 -0.0 0.0 -0.0 1 True False
18004.29 3.712071418762207 -0.825478271847107 0.8429721037494105 -1.588292738000387 -1.570772949849264 2.141362190246582 0.0 0.0 0.0 -0.0 0.0 -0.0 1 True False
18004.34 3.7121071815490723 -0.8254426878741761 0.842931095753805 -1.5882569752135218 -1.5708048979388636 2.141313076019287 0.0 0.0 0.0 -0.0 0.0 7.277916301973164e-05 1 True False
18004.39 3.712062358856201 -0.825572745209076 0.8430255095111292 -1.5882488689818324 -1.5707319418536585 2.141329526901245 0.0 0.0 0.0 -0.0 0.0 -3.513622532567009e-18 1 True False
18004.44 3.712050199508667 -0.8254458469203492 0.842959229146139 -1.588268896142477 -1.5707805792437952 2.141353130340576 0.016231974586844444 -0.010425062850117683 0.0026061637327075005 -0.0 -2.9329561584745534e-05 -5.337200570671619e-37 1 True False
18004.489999999998 3.7139790058135986 -0.8266565364650269 0.8448436895953577 -1.5887752972044886 -1.5707925001727503 2.143198013305664 0.06556294858455658 -0.0496620312333107 0.07498206198215485 -0.017092809081077576 -1.616083682165481e-05 0.07010696083307266 1 True False
18004.54 3.718956708908081 -0.830786721115448 0.8507407347308558 -1.5904113254942835 -1.570784870778219 2.148113250732422 0.13176946341991425 -0.11203286796808243 0.15168002247810364 -0.038058917969465256 -1.3327834391674287e-09 0.13173139095306396 1 True False
18004.59 3.726900339126587 -0.8376820844462891 0.8598459402667444 -1.5930458507933558 -1.5708406607257288 2.156149387359619 0.18652738630771637 -0.15945294499397278 0.21596534550189972 -0.05864482372999191 -2.024501446353405e-28 0.1864926815032959 1 True False
18004.64 3.7379844188690186 -0.8467054528049012 0.8725574652301233 -1.5965000591673792 -1.570784870778219 2.167140007019043 0.24918921291828156 -0.1998414844274521 0.2861880362033844 -0.08236072957515717 0.00012603634968400002 0.2516947090625763 1 True False
18004.69 3.752063274383545 -0.8583898705295105 0.8886187712298792 -1.6009818516173304 -1.5708087126361292 2.1811587810516357 0.3091414272785187 -0.2602434754371643 0.3544882833957672 -0.09015960246324539 9.29946982068941e-05 0.30928516387939453 1 True False
18004.739999999998 3.769172191619873 -0.8724876207164307 0.908297363911764 -1.6065598926939906 -1.5708048979388636 2.1982598304748535 0.37212544679641724 -0.3016129732131958 0.4214000105857849 -0.12865085899829865 9.163615004581516e-07 0.3706464171409607 1 True False
18004.79 3.7892870903015137 -0.8891531986049195 0.9312637487994593 -1.6129762134947718 -1.5708406607257288 2.2185795307159424 0.4314969778060913 -0.36198070645332336 0.49239641427993774 -0.14834438264369965 5.604079706245102e-05 0.43073710799217224 1 True False
18004.84 3.812704086303711 -0.9082755607417603 0.957862679158346 -1.6203762493529261 -1.5708048979388636 2.2417471408843994 0.49798598885536194 -0.4017229676246643 0.561194896697998 -0.17686647176742554 6.747938459739089e-05 0.49744489789009094 1 True False
18004.89 3.8387749195098877 -0.9297126096538086 0.9878910223590296 -1.6288215122618617 -1.5708325544940394 2.267932653427124 0.5541304349899292 -0.4526444971561432 0.6392649412155151 -0.1746317744255066 -0.0002492484636604786 0.5585283041000366 1 True False
18004.94 3.868218421936035 -0.9540944856456299 1.021327320729391 -1.6381999454894007 -1.570813004170553 2.2973873615264893 0.6100549101829529 -0.5088966488838196 0.7001280784606934 -0.19362081587314606 -0.0001835941948229447 0.6142165064811707 1 True False
18004.989999999998 3.900608539581299 -0.9806317848018189 1.058497730885641 -1.6485854587950648 -1.570813004170553 2.3297359943389893 0.675513744354248 -0.5593211054801941 0.7748302817344666 -0.23436596989631653 -9.047167986864224e-05 0.6742793917655945 1 True False
18005.04 3.9361307621002197 -1.0099194210818787 1.0989607016192835 -1.6598702869811 -1.5708168188678187 2.3652172088623047 0.7323778867721558 -0.6098794937133789 0.8420289754867554 -0.23069758713245392 -0.00010909727279795334 0.7442636489868164 1 True False
18005.09 3.974557638168335 -1.041636423473694 1.1431353727923792 -1.671945711175436 -1.5707805792437952 2.4038190841674805 0.8061080574989319 -0.6600146293640137 0.9138230681419373 -0.24099159240722656 -0.00021043451852165163 0.8068826794624329 1 True False
18005.14 4.016204357147217 -1.0758596819690247 1.1904996077166956 -1.6853648624815882 -1.570801083241598 2.44553804397583 0.8613983988761902 -0.7080974578857422 0.9813317060470581 -0.28372716903686523 -5.43727983313147e-05 0.8532766103744507 1 True False
18005.19 4.060867786407471 -1.1125992399505158 1.241452995930807 -1.6996485195555628 -1.5708254019366663 2.489985466003418 0.9028403162956238 -0.7535016536712646 1.047741174697876 -0.2851775586605072 -0.0001382671616738662 0.9187741279602051 1 True False
18005.239999999998 4.106562614440918 -1.1502918762019654 1.2938597838031214 -1.7144156895079554 -1.570756737385885 2.5358972549438477 0.9191861152648926 -0.7562519311904907 1.0429824590682983 -0.30227547883987427 -0.00029037779313512146 0.9160021543502808 1 True False
18005.29 4.15245246887207 -1.1880168479732056 1.3461368719684046 -1.7288195095457972 -1.5707925001727503 2.5814664363861084 0.9127572178840637 -0.7479754090309143 1.0530339479446411 -0.277794748544693 -0.0006107409717515111 0.9129968285560608 1 True False
18005.34 4.1982197761535645 -1.2258147162250062 1.3986266295062464 -1.7432919941344203 -1.5707767645465296 2.6275665760040283 0.9213401675224304 -0.7522369027137756 1.0535742044448853 -0.2684886157512665 1.8929727957583964e-05 0.9184097647666931 1 True False
18005.39 4.2441840171813965 -1.2635885638049622 1.4509742895709437 -1.7581287823119105 -1.570772949849264 2.673398494720459 0.9137188196182251 -0.7567051649093628 1.0405031442642212 -0.3164542615413666 2.875430934473381e-24 0.9114304184913635 1 True False
18005.44 4.289963245391846 -1.3011874717525025 1.5030859152423304 -1.7727767429747523 -1.570801083241598 2.7191622257232666 0.9215859174728394 -0.7548604011535645 1.0467476844787598 -0.31255239248275757 0.0006700219819322228 0.9218075275421143 1 True False
18005.489999999998 4.335777759552002 -1.3389418882182618 1.555469814931051 -1.7874990902342738 -1.5707767645465296 2.7649691104888916 0.9004268050193787 -0.7469900846481323 1.0409514904022217 -0.2823335528373718 -3.016988880943927e-09 0.9031656384468079 1 True False
18005.54 4.379536151885986 -1.3751056504300614 1.605795685444967 -1.8016334972777308 -1.5707529226886194 2.8088629245758057 0.8506187796592712 -0.6969411373138428 0.9747874736785889 -0.2753215432167053 0.0004248381301295012 0.857060432434082 1 True False
18005.59 4.420579433441162 -1.4088811737350007 1.6525781790362757 -1.8144790134825648 -1.5707810560809534 2.849897623062134 0.7890540361404419 -0.6447728276252747 0.9074832201004028 -0.24865254759788513 0.0001080084330169484 0.7889751195907593 1 True False
18005.64 4.458449363708496 -1.4399714332870026 1.6958735624896448 -1.8265000782408656 -1.5707767645465296 2.8876793384552 0.7233185768127441 -0.5957270860671997 0.8303014636039734 -0.24066686630249023 0.0002744457742664963 0.7192063331604004 1 True False
18005.69 4.493265151977539 -1.4686668080142518 1.735607926045553 -1.837656160394186 -1.5708406607257288 2.9224565029144287 0.6592413187026978 -0.5473440885543823 0.767913818359375 -0.19073604047298431 8.163158327079145e-08 0.6633733510971069 1 True False
18005.739999999998 4.525017738342285 -1.4948666927269478 1.7717097441302698 -1.84782137493276 -1.5708006064044397 2.954192876815796 0.603097140789032 -0.4964568316936493 0.696961522102356 -0.1875642091035843 -0.00026127835735678673 0.6073755025863647 1 True False
18005.79 4.55371618270874 -1.518303857450821 1.8044045607196253 -1.8569957218565882 -1.5708044211017054 2.983002185821533 0.5434689521789551 -0.44672900438308716 0.6214480400085449 -0.17506776750087738 -0.00028339584241621196 0.5368141531944275 1 True False
18005.84 4.579254627227783 -1.5395773214152833 1.8338692823993128 -1.865213533441061 -1.5708406607257288 3.008641242980957 0.4860873818397522 -0.39131471514701843 0.54880690574646 -0.145104318857193 -0.00030996144050732255 0.48053017258644104 1 True False
18005.89 4.601833343505859 -1.5580095083317538 1.859847370778219 -1.872310300866598 -1.5708168188678187 3.0311896800994873 0.41979745030403137 -0.3520359396934509 0.4852849245071411 -0.11844755709171295 1.0655032411932552e-09 0.42188823223114014 1 True False
18005.94 4.621527671813965 -1.5742823086180628 1.8818586508380335 -1.8786641559996546 -1.5707529226886194 3.0505928993225098 0.35538479685783386 -0.2951253652572632 0.4119597375392914 -0.11164329200983047 0.00013038175529800355 0.36574989557266235 1 True False
18005.989999999998 4.637873649597168 -1.5877391300597132 1.9006760756122034 -1.8839646778502406 -1.5708048979388636 3.0671679973602295 0.30062562227249146 -0.258891761302948 0.33979716897010803 -0.10007166862487793 -2.319667149878503e-14 0.29818010330200195 1 True False
18006.04 4.651388645172119 -1.5987712345519007 1.9162963072406214 -1.8879839382567347 -1.5708211104022425 3.080437183380127 0.236076220870018 -0.1935882568359375 0.2760542631149292 -0.08333433419466019 -0.00019959140627179295 0.24426493048667908 1 True False
18006.09 4.661630630493164 -1.6073018513121546 1.927847687398092 -1.89148010830068 -1.5708168188678187 3.0909340381622314 0.17833814024925232 -0.14491283893585205 0.20457665622234344 -0.05466070398688316 -1.6075319456900142e-18 0.17291229963302612 1 True False
18006.14 4.669017791748047 -1.6132718525328578 1.9362676779376429 -1.893811365167135 -1.570824925099508 3.0982542037963867 0.1167987585067749 -0.10245221108198166 0.13040809333324432 -0.03945881873369217 -2.441843513085293e-37 0.11695092916488647 1 True False
18006.19 4.673293113708496 -1.6167718372740687 1.941153351460592 -1.8952323398985804 -1.570784870778219 3.102497100830078 0.054478153586387634 -0.046956878155469894 0.06814511865377426 -0.017754005268216133 -0.0 0.05359204113483429 1 True False
18006.239999999998 4.67447566986084 -1.6177898846068324 1.9425504843341272 -1.8955232105650843 -1.5707486311541956 3.1037073135375977 -0.0030073276720941067 0.004976886790245771 0.007215349469333887 -0.000624416337814182 -0.0 -0.0036671801935881376 1 True False
18006.29 4.674464702606201 -1.6170836887755335 1.9439590612994593 -1.897731443444723 -1.570829216633932 3.103665351867676 0.0007160587701946497 0.02710605598986149 0.04776836559176445 -0.0697769820690155 -0.0 0.00015102126053534448 1 True False
18006.34 4.674438953399658 -1.615047117272848 1.947451416646139 -1.9033805332579554 -1.570829216633932 3.103701114654541 0.0005616460111923516 0.059163741767406464 0.0912664607167244 -0.1564091145992279 -0.0 0.00047849956899881363 1 True False
18006.39 4.67452335357666 -1.611488481561178 1.9531062285052698 -1.9125014744200648 -1.5707805792437952 3.103710174560547 0.0007124661351554096 0.08723319321870804 0.13071879744529724 -0.21929651498794556 -0.0 0.00031987958936952055 1 True False
18006.44 4.674516201019287 -1.606504579583639 1.9607957045184534 -1.9249559841551722 -1.5708487669574183 3.103717565536499 0.0008617653511464596 0.11167982965707779 0.17785607278347015 -0.29555973410606384 -0.0 0.00015113413974177092 1 True False
18006.489999999998 4.6745076179504395 -1.6003409824767054 1.9706562201129358 -1.9412108860411585 -1.570756737385885 3.10371732711792 0.00019619427621364594 0.13814888894557953 0.222909078001976 -0.3516547381877899 1.3299251897130581e-17 0.00010377245052950457 1 True False
18006.54 4.674540042877197 -1.5927320919432582 1.9830668608294886 -1.9606720409789027 -1.570829216633932 3.103717565536499 0.0001038424379657954 0.16343793272972107 0.2603174149990082 -0.43252667784690857 2.0201592188483628e-36 8.400349179282784e-05 1 True False
18006.59 4.674494743347168 -1.5839902363219203 1.9968331495868128 -1.983753343621725 -1.5707886854754847 3.1036593914031982 6.585230585187674e-05 0.19037386775016785 0.3091385066509247 -0.49185633659362793 0.0 2.957683800350798e-20 1 True False
18006.64 4.674563884735107 -1.5739432773985804 2.013413731251852 -2.010322233239645 -1.5707486311541956 3.103692054748535 1.4680057169869087e-10 0.21881918609142303 0.3417437672615051 -0.5676611065864563 4.99036286782939e-05 4.4927268285456895e-39 1 True False
18006.69 4.674548625946045 -1.5624243899113317 2.031351391469137 -2.0395976505675257 -1.5707805792437952 3.103680372238159 1.233131818878519e-09 0.2172861397266388 0.355708509683609 -0.5637784600257874 1.1659110165955073e-23 0.0 1 True False
18006.739999999998 4.674501419067383 -1.5521681413850565 2.0479958693133753 -2.066545625726217 -1.570772949849264 3.1037299633026123 0.0 0.19548825919628143 0.30857130885124207 -0.4975515604019165 1.7712412589065688e-42 1.3624085558244033e-15 1 True False
18006.79 4.674540042877197 -1.5432629746249695 2.0621541182147425 -2.0898615322508753 -1.5707281271563929 3.103726625442505 0.0 0.1715899109840393 0.266845166683197 -0.42890462279319763 0.0 2.069502574427014e-34 1 True False
18006.84 4.674503326416016 -1.5355333623341103 2.074657742177145 -2.109737535516256 -1.5708168188678187 3.103696584701538 0.0 0.1374986469745636 0.22375692427158356 -0.3602038323879242 0.0 0.0 1 True False
18006.89 4.674511909484863 -1.5292629164508362 2.0845916906939905 -2.126265665093893 -1.5707767645465296 3.1037256717681885 0.0 0.11221330612897873 0.1823529303073883 -0.3014892339706421 0.0 0.0 1 True False
18006.94 4.674499034881592 -1.5243314032307644 2.092543903981344 -2.139148851434225 -1.5707529226886194 3.1037673950195312 0.0 0.08657731860876083 0.13870373368263245 -0.23350399732589722 3.8133887023519514e-19 0.0 1 True False
18006.989999999998 4.674487113952637 -1.5206343692592164 2.0984318892108362 -2.1485516033568324 -1.5707686583148401 3.1037509441375732 0.0 0.059233881533145905 0.0958004966378212 -0.15525448322296143 5.792544098863182e-38 0.0 1 True False
18007.04 4.674540042877197 -1.5183476780406018 2.1022031942950647 -2.1545726261534632 -1.570784870778219 3.103701114654541 0.0 0.031616490334272385 0.05009721219539642 -0.08510222285985947 0.0 0.0 1 True False
18007.09 4.674482822418213 -1.517426424925663 2.1036880652057093 -2.1569467983641566 -1.5708015600787562 3.103663921356201 0.0 0.004244365729391575 0.009674495086073875 -0.016555778682231903 0.0 0.0 1 True False
18007.14 4.674535751342773 -1.5174800057760258 2.1036298910724085 -2.1569587192931117 -1.5707805792437952 3.103722095489502 0.0 0.0001406014198437333 0.0003257778298575431 4.041377302255178e-11 0.0 0.0 1 True False
18007.19 4.67453145980835 -1.5174383458546181 2.103647057210104 -2.156994482079977 -1.5708168188678187 3.103712797164917 0.0 0.00012156549928477034 9.999350731959566e-05 -0.0004956253687851131 0.0 0.0 1 True False
18007.239999999998 4.674560546875 -1.517426398848631 2.1036255995379847 -2.156994958917135 -1.5707686583148401 3.10367751121521 0.0 0.0002964106388390064 6.922457396285608e-05 -0.0006979364552535117 0.0 0.0 1 True False
18007.29 4.674511909484863 -1.5174189370921631 2.1036298910724085 -2.1570545635619105 -1.5707967917071741 3.103710174560547 0.0 0.00021900044521316886 2.7484758902573958e-05 -0.0016976422630250454 0.0 0.0 1 True False
18007.34 4.674511909484863 -1.5174279448441048 2.1036418120013636 -2.1570259533324183 -1.570801083241598 3.103755474090576 0.0 0.00016304734162986279 3.9782993553671986e-05 -0.0002928299945779145 0.0 0.0 1 True False
18007.39 4.6744914054870605 -1.517415703540184 2.1036704222308558 -2.1571108303465785 -1.5708168188678187 3.103710174560547 -3.3186770451720804e-05 0.00013182924885768443 4.38651186414063e-05 -0.00013270539056975394 0.0 0.0 1 True False
18007.44 4.674487113952637 -1.5174413447133084 2.1036255995379847 -2.1570941410460414 -1.5708373228656214 3.103743553161621 7.763193492359487e-43 0.00014918540546204895 6.002380541758612e-05 -7.638304668944329e-05 0.0 0.0 1 True False
18007.489999999998 4.674503326416016 -1.5173948493650933 2.103628937398092 -2.1570545635619105 -1.570784870778219 3.103717565536499 0.0 8.157531556207687e-05 5.497089129025038e-34 -5.362579759093933e-05 0.0 0.0 1 True False
18007.54 4.67453145980835 -1.517410074626543 2.1036704222308558 -2.157126565972799 -1.5708254019366663 3.103701114654541 0.0 5.613539906335063e-05 0.0 -5.906429397195078e-19 0.0 0.0 1 True False
18007.59 4.674535751342773 -1.5174279187670727 2.1036747137652796 -2.157074590722555 -1.570756737385885 3.103726625442505 0.0 3.472274166205983e-34 0.0 -8.971879559127157e-38 0.0 0.0 1 True False
18007.64 4.674593925476074 -1.5173711825958272 2.10372764268984 -2.157045980493063 -1.5708168188678187 3.103717565536499 0.0 0.0 0.0 -0.0 0.0 0.0 1 True False
18007.69 4.674493789672852 -1.5173534762910386 2.103645149861471 -2.157042165795797 -1.5707767645465296 3.103710174560547 0.0 1.4285440611654065e-17 0.0001914962922455743 -1.6259016888398037e-07 0.0 0.0 1 True False
18007.739999999998 4.67452335357666 -1.5174457815340539 2.1035059134112757 -2.1571623287596644 -1.570801083241598 3.1037392616271973 0.0 0.0005636647692881525 -0.0005154725513420999 -0.0008060317486524582 0.0001164255227195099 0.00017347236280329525 1 True False
18007.79 4.674490928649902 -1.5174382527223607 2.1035502592669886 -2.157121797601217 -1.5707524458514612 3.1037309169769287 0.0 0.00032412263681180775 0.00032142974669113755 -0.0001174082062789239 4.448617255548015e-05 -5.4571508371736854e-05 1 True False
18007.84 4.674490928649902 -1.5174755615046998 2.1035340468036097 -2.1571904621519984 -1.5708044211017054 3.103701114654541 0.0 0.0006088176742196083 0.0008973070653155446 6.972755363676697e-05 2.7495729227666743e-05 -3.1040784961078316e-05 1 True True
18007.89 4.674482345581055 -1.5179909703186532 2.1028221289264124 -2.154843946496481 -1.5708087126361292 3.103708505630493 0.0 -0.025199899449944496 -0.03878534585237503 0.06709062308073044 1.2936009625263978e-05 -3.250803638366051e-05 1 True True
18007.94 4.674519062042236 -1.520084587191679 2.09916860262026 -2.1494962177672328 -1.5707648436175745 3.103748083114624 0.0 -0.05731229484081268 -0.09761832654476166 0.15960289537906647 1.9649821090697494e-24 -1.3027646936203642e-18 1 True True
18007.989999999998 4.674558162689209 -1.5237358969501038 2.093503777180807 -2.1405040226378382 -1.5707405249225062 3.1037256717681885 0.0 -0.08530323952436447 -0.13308313488960266 0.21053725481033325 2.9847657290118604e-43 -5.3579096714884145e-08 1 True True
18008.04 4.674527645111084 -1.5285501231304188 2.0858266989337366 -2.1280647716917933 -1.5707686583148401 3.103760004043579 0.0 -0.10956405103206635 -0.17789797484874725 0.2979021668434143 0.0 -8.138680270281112e-27 1 True True
18008.09 4.674519062042236 -1.534716510479786 2.0759709517108362 -2.11196293453359 -1.570801083241598 3.1037344932556152 0.0 -0.13268941640853882 -0.21985670924186707 0.3507935106754303 0.0 -1.401298464324817e-45 1 True True
18008.14 4.674483299255371 -1.5422016710839053 2.063751999531881 -2.0926314793028773 -1.5707805792437952 3.103743553161621 0.0 -0.16112340986728668 -0.2644958794116974 0.42934855818748474 5.737110985197516e-17 -2.3192578737507574e-05 1 True True
18008.19 4.674540042877197 -1.551036474560835 2.049830738698141 -2.0696894131102503 -1.570829216633932 3.10371470451355 0.0 -0.19199366867542267 -0.3095804750919342 0.4863588809967041 8.714684925094124e-36 -1.1974185443912929e-14 1 True True
18008.239999999998 4.674466609954834 -1.5611532286605616 2.0334633032428187 -2.0431233845152796 -1.570801083241598 3.1037464141845703 0.0 -0.2145320028066635 -0.3479223847389221 0.571713387966156 0.0 -1.8188813472776964e-33 1 True True
18008.29 4.674466609954834 -1.5724202595152796 2.015536610280172 -2.0138641796507777 -1.570772949849264 3.103701114654541 0.0 -0.2216768115758896 -0.36056360602378845 0.5673630237579346 0.0 -0.0 1 True True
18008.34 4.6745076179504395 -1.58276428798818 1.998814884816305 -1.9868246517577113 -1.5707886854754847 3.1037509441375732 0.0 -0.1991308629512787 -0.3136652708053589 0.5038909316062927 0.0 -0.0 1 True True
18008.39 4.674527645111084 -1.5918566189207972 1.9845874945269983 -1.9633118114867152 -1.5707805792437952 3.103705644607544 0.0 -0.164030984044075 -0.2687608301639557 0.43577948212623596 0.0 -0.0 1 True True
18008.44 4.674527645111084 -1.599496980706686 1.9720481077777308 -1.9433781109251917 -1.5708373228656214 3.1037189960479736 0.0 -0.13880807161331177 -0.2255832552909851 0.36531466245651245 0.0 -0.0 1 True True
18008.489999999998 4.674498558044434 -1.6057597599425257 1.9619773069964808 -1.9268189869322718 -1.5707967917071741 3.1037254333496094 0.0 -0.1139601543545723 -0.1830415576696396 0.3043351471424103 0.0 -0.0 1 True True
18008.54 4.674565315246582 -1.6108247242369593 1.9539545218097132 -1.913832803765768 -1.5707967917071741 3.103705644607544 0.0 -0.08904711157083511 -0.14561673998832703 0.2395486682653427 0.0 -0.0 1 True True
18008.59 4.6745524406433105 -1.6144987545409144 1.9481309095965784 -1.9042331180968226 -1.5708254019366663 3.1037211418151855 0.0 -0.0607205368578434 -0.09574871510267258 0.15855076909065247 0.0 -0.0 1 True True
18008.64 4.67452335357666 -1.6168371639647425 1.944289509450094 -1.8982116184630335 -1.570772949849264 3.103726625442505 0.0 -0.033634766936302185 -0.0536944642663002 0.08129209280014038 0.0 -0.0 1 True True
18008.69 4.6745686531066895 -1.6178213558592738 1.9428394476519983 -1.895653863946432 -1.570829216633932 3.1037509441375732 0.0 -0.005569638218730688 -0.010193878784775734 0.019480476155877113 0.0 -0.0 1 True True
18008.739999999998 4.673470497131348 -1.6174904308714808 1.942395035420553 -1.8955470524229945 -1.5708168188678187 3.102721929550171 -0.05413735285401344 0.011410806328058243 -0.02202792279422283 0.0014050753088667989 0.0 -0.05135154351592064 1 True True
18008.79 4.6691575050354 -1.6165205440916957 1.9409545103656214 -1.895236154595846 -1.5708091894732874 3.0982728004455566 -0.12648524343967438 0.03155738487839699 -0.03880682215094566 0.00759563222527504 0.0 -0.12022146582603455 1 True True
18008.84 4.661175727844238 -1.6144758663573207 1.9382827917682093 -1.8947483501830042 -1.5708048979388636 3.0903568267822266 -0.19374072551727295 0.05274426192045212 -0.0596938356757164 0.01354962307959795 0.0 -0.19175375998020172 1 True True
18008.89 4.649655342102051 -1.611401697198385 1.9347947279559534 -1.8941613636412562 -1.5707772413836878 3.0789315700531006 -0.2625159025192261 0.07272853702306747 -0.08482423424720764 0.012776334770023823 0.0 -0.2646886110305786 1 True True
18008.94 4.6349005699157715 -1.607340475121969 1.9299467245685022 -1.893418928185934 -1.5707405249225062 3.06402587890625 -0.32710587978363037 0.08824076503515244 -0.10679730027914047 0.015502695925533772 -4.7354424168588594e-05 -0.32965677976608276 1 True True
18008.989999999998 4.6164655685424805 -1.602469106713766 1.9240506331073206 -1.8924972019591273 -1.5707610289203089 3.0457444190979004 -0.4045298993587494 0.10444001108407974 -0.1318032443523407 0.01729479618370533 7.191739856107537e-17 -0.40510398149490356 1 True True
18009.04 4.5946245193481445 -1.5966369114317835 1.9171736876117151 -1.8911882839598597 -1.570784870778219 3.0237746238708496 -0.4703182280063629 0.12452279776334763 -0.14748874306678772 0.02346256747841835 1.0924267051670178e-35 -0.46679770946502686 1 True True
18009.09 4.569176197052002 -1.5898133716978968 1.908893887196676 -1.8899065456786097 -1.570784870778219 2.998333692550659 -0.535595178604126 0.13969239592552185 -0.1705354005098343 0.025706201791763306 -8.441615500487387e-05 -0.5401140451431274 1 True True
18009.14 4.540127277374268 -1.5822764835753382 1.8998363653766077 -1.8884178600706996 -1.5707967917071741 2.9694204330444336 -0.6087067723274231 0.1622948795557022 -0.19085173308849335 0.03351883217692375 -3.2059605619437292e-18 -0.605881929397583 1 True True
18009.19 4.507880210876465 -1.5737034283080042 1.8896139303790491 -1.8865820370116175 -1.5707886854754847 2.9371273517608643 -0.6833385825157166 0.18463140726089478 -0.22335109114646912 0.03507267311215401 -0.0016125444089993834 -0.6795178651809692 1 True True
18009.239999999998 4.471987247467041 -1.5641603919542213 1.8780444304095667 -1.8848659000792445 -1.5707886854754847 2.901250123977661 -0.7566297054290771 0.2005959153175354 -0.24408861994743347 0.034391723573207855 -0.003970546182245016 -0.7411125302314758 1 True True
18009.29 4.432748794555664 -1.5537951861372967 1.865622345601217 -1.8826667271056117 -1.5708368460284632 2.862032651901245 -0.8252654075622559 0.21761858463287354 -0.2593543231487274 0.03947266936302185 -0.002015915932133794 -0.8124225735664368 1 True True
18009.34 4.390017032623291 -1.542605349128582 1.851954762135641 -1.8801552257933558 -1.5707281271563929 2.819284677505493 -0.8887218832969666 0.237678661942482 -0.2734711468219757 0.049054600298404694 5.581203004112467e-05 -0.8981277942657471 1 True True
18009.39 4.343708515167236 -1.5301313151470204 1.837259594594137 -1.8778001270689906 -1.5708373228656214 2.7728004455566406 -0.9637869000434875 0.25205478072166443 -0.30177971720695496 0.05065027251839638 0.00017388102423865348 -0.9501184225082397 1 True True
18009.44 4.293892860412598 -1.5170675379088898 1.8213241736041468 -1.8752147159972132 -1.5707929770099085 2.723057508468628 -1.0264843702316284 0.2726351320743561 -0.3319777548313141 0.05585108697414398 -2.0193875016616403e-08 -1.0382241010665894 1 True True
18009.489999999998 4.241679668426514 -1.5031611558846016 1.8046463171588343 -1.8722201786436976 -1.570784870778219 2.6708974838256836 -1.0486502647399902 0.2777744233608246 -0.32531994581222534 0.05267065763473511 2.422720958125988e-16 -1.0440571308135986 1 True True
18009.54 4.189324855804443 -1.4893896740726014 1.7879980246173304 -1.8695174656310023 -1.5708044211017054 2.618398666381836 -1.0446161031723022 0.2758094072341919 -0.33298546075820923 0.05382204428315163 -7.128255674615502e-05 -1.0462020635604858 1 True True
18009.59 4.136871337890625 -1.475483165388443 1.7712939421283167 -1.8665152988829554 -1.5707843939410608 2.5660884380340576 -1.0410212278366089 0.27948224544525146 -0.33778753876686096 0.060779817402362823 -2.0741774733323837e-06 -1.0528020858764648 1 True True
18009.64 4.084560394287109 -1.461542473440506 1.7546237150775355 -1.8638841114439906 -1.5708335081683558 2.5138444900512695 -1.0503640174865723 0.2740694582462311 -0.32841694355010986 0.0579463355243206 -3.1506803801307096e-25 -1.044173240661621 1 True True
18009.69 4.032190322875977 -1.447752335374691 1.7380536238299769 -1.861014028588766 -1.5708335081683558 2.4613399505615234 -1.0469284057617188 0.2818845212459564 -0.3380403518676758 0.05810589715838432 0.00011613388051046059 -1.0407228469848633 1 True True
18009.739999999998 3.9797213077545166 -1.4337278020432969 1.721201244984762 -1.8581186733641566 -1.570784870778219 2.4090025424957275 -1.0463244915008545 0.27249306440353394 -0.3307620584964752 0.05156709998846054 -2.3438555567481e-18 -1.0526763200759888 1 True True
18009.79 3.927553415298462 -1.4200030726245423 1.7046850363360804 -1.855483194390768 -1.5707805792437952 2.356827974319458 -1.052157998085022 0.278141587972641 -0.33687448501586914 0.05407428368926048 0.0001985053822863847 -1.0402294397354126 1 True True
18009.84 3.875138759613037 -1.4059879195741196 1.6877945105182093 -1.8525501690306605 -1.5708254019366663 2.304271697998047 -1.0496621131896973 0.27690204977989197 -0.33440902829170227 0.06117667630314827 -2.4711335408489354e-11 -1.04276704788208 1 True True
18009.89 3.822798013687134 -1.392264486556389 1.6712024847613733 -1.8497821293272914 -1.570784870778219 2.251945972442627 -1.0458406209945679 0.2773982584476471 -0.3333430588245392 0.05316734313964844 -3.753656645678528e-30 -1.053598165512085 1 True True
18009.94 3.770423412322998 -1.3784053337625046 1.6544564406024378 -1.8470031223692835 -1.5707767645465296 2.199702262878418 -1.049919843673706 0.2745608985424042 -0.3364942967891693 0.06308574229478836 4.218888716948602e-18 -1.0442843437194824 1 True True
18009.989999999998 3.7180063724517822 -1.3644467902234574 1.637965504323141 -1.8441053829588832 -1.5707648436175745 2.14715576171875 -1.0487273931503296 0.2743654251098633 -0.3285026252269745 0.05458909645676613 2.3484248231397942e-05 -1.0397175550460815 1 True True
18010.04 3.6655917167663574 -1.3507138055614014 1.6210692564593714 -1.8414064846434535 -1.570768181477682 2.0948188304901123 -1.043502926826477 0.28123414516448975 -0.33814767003059387 0.05070234090089798 3.264661110891076e-11 -1.0521066188812256 1 True True
18010.09 3.613326072692871 -1.3366469901851197 1.6046016852008265 -1.8384362659850062 -1.5707925001727503 2.042642593383789 -1.0474512577056885 0.27036672830581665 -0.33185943961143494 0.06036936864256859 4.9590269847631226e-30 -1.0485035181045532 1 True True
18010.14 3.560927391052246 -1.3230108332685013 1.5877745787249964 -1.8357445202269496 -1.570784870778219 1.990107536315918 -1.0462305545806885 0.28113865852355957 -0.33179202675819397 0.05899468809366226 0.0 -1.0414721965789795 1 True True
18010.19 3.5086452960968018 -1.3088078659823914 1.5712154547320765 -1.832834859887594 -1.5708168188678187 1.9377609491348267 -1.0459754467010498 0.27500373125076294 -0.3376816213130951 0.06325007975101471 9.754269558470696e-05 -1.053829550743103 1 True True
18010.239999999998 3.456343412399292 -1.295269564991333 1.5543621222125452 -1.8301388225951136 -1.570784870778219 1.8855475187301636 -1.050818681716919 0.27945294976234436 -0.3227190375328064 0.055114131420850754 4.141343379160389e-05 -1.0493303537368774 1 True True
18010.29 3.4039151668548584 -1.2812245053103943 1.537795368825094 -1.8273006878294886 -1.5707853476153772 1.8330297470092773 -1.0468499660491943 0.2786875069141388 -0.3355921804904938 0.05414343252778053 -1.516109023214085e-05 -1.041759729385376 1 True True
18010.34 3.3534624576568604 -1.2679375571063538 1.5216930548297327 -1.8244902096190394 -1.5708006064044397 1.7826229333877563 -0.967617928981781 0.25950682163238525 -0.30824944376945496 0.055385079234838486 -2.7928483177674934e-05 -0.9778696894645691 1 True True
18010.39 3.306504726409912 -1.2554967266372223 1.5066655317889612 -1.8220402203001917 -1.5708325544940394 1.7356789112091064 -0.9072632789611816 0.24241922795772552 -0.2827751934528351 0.04991593584418297 -2.9090009497381064e-23 -0.9022763967514038 1 True True
18010.44 3.2630109786987305 -1.243870036011078 1.492920223866598 -1.8197032413878382 -1.5708168188678187 1.6923692226409912 -0.833763062953949 0.2179955244064331 -0.25906476378440857 0.04764782637357712 8.975734817795455e-05 -0.8425129652023315 1 True True
18010.489999999998 3.223134994506836 -1.233456866150238 1.4801552931415003 -1.8174692593016566 -1.570829216633932 1.652165174484253 -0.7693380117416382 0.2037593424320221 -0.2409353405237198 0.035990145057439804 0.0003748987801373005 -0.762856125831604 1 True True
18010.54 3.186534881591797 -1.2237747472575684 1.4684541861163538 -1.8155886135497035 -1.570784870778219 1.6157402992248535 -0.6966736912727356 0.18647566437721252 -0.22711917757987976 0.04329165071249008 6.459088375265765e-09 -0.6945558786392212 1 True True
18010.59 3.15344500541687 -1.214855359201767 1.4580500761615198 -1.8138734302916468 -1.570853058491842 1.5826570987701416 -0.6316068172454834 0.16643276810646057 -0.19907400012016296 0.028749387711286545 9.174183079885267e-10 -0.6250309944152832 1 True True
18010.64 3.124022960662842 -1.2071960133365174 1.4486635367022913 -1.8121510944762171 -1.5708254019366663 1.5532031059265137 -0.5579943656921387 0.14859463274478912 -0.18089619278907776 0.03683653101325035 6.020135057127618e-09 -0.5544955134391785 1 True True
18010.69 3.097931146621704 -1.200238124733307 1.4402387777911585 -1.8107272587218226 -1.570813004170553 1.5271672010421753 -0.4920854866504669 0.1294805109500885 -0.1614152193069458 0.01871122419834137 3.927099533029832e-05 -0.4841392934322357 1 True True
18010.739999999998 3.0754542350769043 -1.1942888063243409 1.4331353346454065 -1.8096324406065882 -1.5708048979388636 1.5046910047531128 -0.41863885521888733 0.11307203024625778 -0.1310644894838333 0.01955542527139187 0.00014241435565054417 -0.41960248351097107 1 True True
18010.79 3.0565762519836426 -1.1891710323146363 1.427133862172262 -1.8085156879820765 -1.570756737385885 1.485586166381836 -0.34616386890411377 0.09296923130750656 -0.11309965699911118 0.01760980486869812 0.0010323001770302653 -0.3487912118434906 1 True True
18010.84 3.0408711433410645 -1.1850684446147461 1.4220970312701624 -1.8077780208983363 -1.5708335081683558 1.4701412916183472 -0.2732140123844147 0.07368817925453186 -0.08985241502523422 0.01536822784692049 -0.00010017582098953426 -0.2795667350292206 1 True True
18010.89 3.0287444591522217 -1.1818721753409882 1.4182418028460901 -1.8071519337096156 -1.5707925001727503 1.4580069780349731 -0.2099878489971161 0.05187446251511574 -0.06518370658159256 0.01144047174602747 -2.2677441870452585e-18 -0.20908667147159576 1 True True
18010.94 3.0203113555908203 -1.17965321362529 1.4155805746661585 -1.8066455326476039 -1.5707767645465296 1.4494562149047852 -0.141201913356781 0.03671298176050186 -0.04464865103363991 0.005539413075894117 -3.4447088792827235e-37 -0.13823820650577545 1 True True
18010.989999999998 3.0151937007904053 -1.1783098739436646 1.413849178944723 -1.8063703976073207 -1.5707967917071741 1.444369912147522 -0.06693088263273239 0.019870392978191376 -0.019580433145165443 0.005201220978051424 -0.0 -0.06938429921865463 1 True True
18011.04 3.0136091709136963 -1.1779359144023438 1.41343862215151 -1.8063308201231898 -1.5707605520831507 1.442871332168579 0.009669100865721703 1.2722021214273127e-09 -3.8550344470422715e-05 0.00043062385520897806 -0.0 0.005931954365223646 1 True True
18011.09 3.0136613845825195 -1.177263007765152 1.4145782629596155 -1.808077951470846 -1.5707891623126429 1.4428207874298096 -0.000738870701752603 0.026682693511247635 0.04689730331301689 -0.07331082224845886 -0.0 -0.0001818705932237208 1 True True
18011.14 3.0136525630950928 -1.175525353556015 1.418116871510641 -1.8137246570982875 -1.5707605520831507 1.4427926540374756 -0.00023057483485899866 0.04545445367693901 0.0953274518251419 -0.1516621708869934 -0.0 -0.0002755650202743709 1 True True
18011.19 3.0135905742645264 -1.1726679366878052 1.4243171850787562 -1.8225447140135707 -1.5708087126361292 1.442752480506897 -0.00022209966846276075 0.06779751181602478 0.14552387595176697 -0.2116209715604782 -0.0 -0.00031376571860164404 1 True True
18011.239999999998 3.0136165618896484 -1.1686968368342896 1.4327128569232386 -1.8348337612547816 -1.570829216633932 1.442793607711792 -0.0004429169639479369 0.09396142512559891 0.18971925973892212 -0.2882060706615448 -7.058570918161422e-05 -0.00020639724971260875 1 True True
18011.29 3.013559103012085 -1.163581447010376 1.4435585180865687 -1.8507496319212855 -1.570756737385885 1.442810297012329 -0.0002990983484778553 0.11334630846977234 0.2386123538017273 -0.3491019308567047 -2.570288003701099e-13 -0.00010414479038445279 1 True True
18011.34 3.0135512351989746 -1.1571796101382752 1.4565823713885706 -1.8701030216612757 -1.5708168188678187 1.4428024291992188 -0.00012182619684608653 0.13424107432365417 0.2813195586204529 -0.42759591341018677 -6.284940172918141e-05 -7.916577305877581e-05 1 True True
18011.39 3.0135796070098877 -1.1498181980899354 1.4720309416400355 -1.892965932885641 -1.5707891623126429 1.4427820444107056 -0.00010385850328020751 0.15698610246181488 0.3384949266910553 -0.49182748794555664 -9.832600289527704e-10 -3.3030650570253783e-07 1 True True
18011.44 3.0135555267333984 -1.1413919192603608 1.4898493925677698 -1.9190670452513636 -1.570784870778219 1.4428178071975708 -7.466961687896401e-05 0.16545088589191437 0.34940099716186523 -0.5439699292182922 -1.493574199682478e-28 -5.0173627413420467e-26 1 True True
18011.489999999998 3.013538360595703 -1.1334823828986664 1.506531063710348 -1.9441553554930628 -1.5707967917071741 1.4428309202194214 -5.2776500524487346e-05 0.14827407896518707 0.3170187175273895 -0.4514128565788269 -0.0 -7.006492321624085e-45 1 True True
18011.54 3.013564109802246 -1.1263658565333863 1.5210192839251917 -1.9653965435423792 -1.5708406607257288 1.4427980184555054 -3.6433760072445244e-44 0.12428499013185501 0.26511260867118835 -0.4014947712421417 -7.223780899628593e-14 -0.0 1 True True
18011.59 3.0135676860809326 -1.1206520360759278 1.5331829229937952 -1.9832354984679164 -1.5707486311541956 1.4427525997161865 0.0 0.10587654262781143 0.22844794392585754 -0.3249202370643616 7.168358268083708e-11 -0.0 1 True True
18011.64 3.0135393142700195 -1.116157667045929 1.5430682341205042 -1.9978424511351527 -1.5708335081683558 1.4427980184555054 -1.512278799964406e-07 0.07970526814460754 0.16674275696277618 -0.2511923313140869 1.0888752001836409e-29 -0.0 1 True True
18011.69 3.0135273933410645 -1.1125849348357697 1.5503667036639612 -2.008780618707174 -1.5707925001727503 1.442765712738037 0.0 0.06086026132106781 0.12374754995107651 -0.18762226402759552 0.0 -0.0 1 True True
18011.739999999998 3.013592481613159 -1.1100850266269227 1.5554855505572718 -2.016183992425436 -1.5707925001727503 1.4427847862243652 0.0 0.03762996196746826 0.08028450608253479 -0.108150914311409 0.0 -2.6310264189532973e-08 1 True True
18011.79 3.0135350227355957 -1.1090480548194428 1.5577829519854944 -2.0204159222044886 -1.5708325544940394 1.4427980184555054 0.0 0.010783769190311432 0.023349380120635033 -0.05421353504061699 -0.0023363186046481133 -3.996535746196841e-27 1 True True
18011.84 3.01350998878479 -1.1090450149825593 1.5581911245929163 -2.0210963688292445 -1.5708368460284632 1.4427570104599 0.0 0.0009731631143949926 0.002558344742283225 0.0008139320998452604 2.9241929973229447e-15 -0.0 1 True True
18011.89 3.0135436058044434 -1.1087828141501923 1.558349911366598 -2.0211526356139125 -1.5708487669574183 1.442768931388855 0.0 0.008453667163848877 0.0065117389895021915 0.0012539800954982638 4.441855197131563e-34 8.615245405962924e-09 1 True True
18011.94 3.0135796070098877 -1.1082756382277985 1.5592578093158167 -2.020283361474508 -1.5707686583148401 1.4428178071975708 0.0 -0.002685965271666646 -0.008988099172711372 -0.005635757464915514 0.0002865940041374415 7.573725500920059e-12 1 True True
18011.989999999998 3.013580560684204 -1.108276830320694 1.5590370337115687 -2.0205899677672328 -1.570784870778219 1.4426885843276978 8.704612264409661e-05 -0.00038812815910205245 -0.00026524942950345576 -0.000256926694419235 5.747738396166824e-05 6.984129140619189e-05 1 True False
18012.04 3.0136046409606934 -1.1084266763976593 1.5588658491717737 -2.020769258538717 -1.5707967917071741 1.4427493810653687 3.3026641176547855e-05 -0.0015755891799926758 -0.0015733262989670038 -0.001032753149047494 1.6122845408972353e-05 2.768561273569503e-07 1 True False
18012.09 3.013575315475464 -1.1086130005172272 1.5587804953204554 -2.02086939434194 -1.570801083241598 1.4427645206451416 3.4449141821824014e-05 -0.001943627605214715 -0.002398346085101366 -0.0007784793269820511 1.0104337505589811e-10 -9.885127838060725e-06 1 True False
18012.14 3.013608932495117 -1.1085639160922547 1.5587142149554651 -2.02086939434194 -1.5707805792437952 1.4428058862686157 2.3300754037336446e-05 -0.00015244152746163309 -0.0003595262533053756 -0.00021762799588032067 9.11146050101841e-13 -1.5015535429536351e-24 1 True False
18012.19 3.0135350227355957 -1.108559475546219 1.558707062398092 -2.020888944665426 -1.570784870778219 1.4427849054336548 2.2410313425884315e-28 -1.9338345737196505e-05 -0.00011111667117802426 -0.00012407565372996032 1.3840329261299154e-31 -2.284116496849452e-43 1 True False
18012.239999999998 3.013563394546509 -1.1087132555297394 1.5585134665118616 -2.0206099949278773 -1.5708373228656214 1.4427733421325684 0.0 -0.010845599696040154 -0.02019927278161049 0.022256702184677124 0.0 -0.0 1 True False
18012.29 3.013641357421875 -1.1097654861262818 1.5564850012408655 -2.017552991906637 -1.5708254019366663 1.4427613019943237 0.0 -0.025881988927721977 -0.05804327130317688 0.09598076343536377 0.0 -0.0 1 True False
18012.34 3.0135676860809326 -1.1116504532149811 1.552126709614889 -2.011070867578024 -1.570813004170553 1.4428014755249023 0.0 -0.05691046640276909 -0.12281332910060883 0.17230945825576782 0.0 8.873616856549257e-20 1 True False
18012.39 3.013637065887451 -1.1149977010539551 1.5453742186175745 -2.001002927819723 -1.5708091894732874 1.442814588546753 1.1855060932930428e-08 -0.0753643736243248 -0.15915630757808685 0.23117020726203918 0.0 1.3479042284192628e-38 1 True False
18012.44 3.0136122703552246 -1.1193763774684449 1.536001984273092 -1.9876071415343226 -1.570801083241598 1.4427613019943237 0.0 -0.09656292200088501 -0.2079024314880371 0.2913450002670288 0.0 0.0 1 True False
18012.489999999998 3.0135838985443115 -1.124794916515686 1.5246952215777796 -1.9706431827940882 -1.570801083241598 1.442752718925476 0.0 -0.12196999788284302 -0.255886971950531 0.37226781249046326 0.0 0.0 1 True False
18012.54 3.0135838985443115 -1.1314488512328644 1.5107715765582483 -1.9502741299071253 -1.5707805792437952 1.4428014755249023 0.0 -0.14220695197582245 -0.3033868074417114 0.4337557852268219 0.0 0.0 1 True False
18012.59 3.0135512351989746 -1.1391529005816956 1.494568173085348 -1.9261461697020472 -1.5708053747760218 1.4427863359451294 0.0 -0.1695665866136551 -0.35046568512916565 0.5149742960929871 0.0 0.0 1 True False
18012.64 3.0136327743530273 -1.14773382366214 1.4765670935260218 -1.8997532329955042 -1.5707886854754847 1.4427285194396973 0.0 -0.16834880411624908 -0.3467920422554016 0.520925760269165 0.0 0.0 1 True False
18012.69 3.013613224029541 -1.1554390353015442 1.460543457661764 -1.875920911828512 -1.570784870778219 1.4428014755249023 0.0 -0.13929997384548187 -0.29897406697273254 0.4464912414550781 0.0 0.0 1 True False
18012.739999999998 3.0135838985443115 -1.161905364399292 1.4468382040606897 -1.8556114635863246 -1.5707767645465296 1.4428709745407104 0.0 -0.11885371059179306 -0.25684142112731934 0.3708675503730774 0.0 0.0 1 True False
18012.79 3.0136003494262695 -1.1673501294902344 1.4353984037982386 -1.8387915096678675 -1.5707805792437952 1.4427849054336548 0.0 -0.09839746356010437 -0.20391184091567993 0.30680757761001587 0.0 0.0 1 True False
18012.84 3.0135838985443115 -1.1716122192195435 1.4264324347125452 -1.8255177936949671 -1.5708048979388636 1.4427614212036133 0.0 -0.07564762979745865 -0.16321423649787903 0.23147150874137878 0.0 0.0 1 True False
18012.89 3.0136122703552246 -1.1747900706580658 1.4198663870440882 -1.8156992397704066 -1.5708006064044397 1.4427893161773682 0.0 -0.052049316465854645 -0.1113605871796608 0.16175399720668793 0.0 0.0 1 True False
18012.94 3.0135796070098877 -1.1768711370280762 1.4155367056476038 -1.809216638604635 -1.5708211104022425 1.4427365064620972 0.0 -0.028666673228144646 -0.0626138299703598 0.08435070514678955 0.0 0.0 1 True False
18012.989999999998 3.013619899749756 -1.1778445106795807 1.4135106245623987 -1.80645813564443 -1.5707691351519983 1.442768931388855 0.0 -0.00635931733995676 -0.015405725687742233 0.022770291194319725 0.0 0.0 1 True False
18013.04 3.013563394546509 -1.177796797161438 1.4134143034564417 -1.8063909016051234 -1.5708125273333948 1.4427820444107056 2.1620920461099825e-22 0.00015688699204474688 0.0001047230398398824 0.00011919852113351226 0.0 0.0 1 False False
18013.09 3.0135838985443115 -1.1777673226645966 1.4134224096881312 -1.8063427410521449 -1.5708206335650843 1.4428308010101318 -2.828944328530725e-30 0.0 2.3874181531973208e-32 0.0008606717456132174 0.0 0.0 1 False False
18013.14 3.0135390758514404 -1.1778162282756348 1.413372818623678 -1.8063236675658167 -1.5707886854754847 1.442724347114563 0.0 -6.193255831021816e-05 -8.081855048658326e-05 0.0017945588333532214 0.0 0.0 1 False False
18013.19 3.0136168003082275 -1.1777955454638978 1.4133947531329554 -1.8062588177123011 -1.5707810560809534 1.4427614212036133 0.0 -0.00016090672579593956 -0.00019607153080869466 0.0010097891790792346 0.0 0.0 1 False False
18013.239999999998 3.0135419368743896 -1.1778444212726136 1.4133904615985315 -1.80627503017568 -1.570784870778219 1.4427571296691895 0.0 -0.0003683235845528543 -0.0001313781540375203 0.00019305958994664252 0.0 0.0 1 False False
18013.29 3.0135793685913086 -1.177795485859253 1.4133904615985315 -1.8062988720335902 -1.5707767645465296 1.4427776336669922 0.0 -0.00016299932030960917 -8.50953147164546e-05 0.0001359240704914555 0.0 0.0 1 False False
18013.34 3.013521194458008 -1.1778356593898316 1.4133947531329554 -1.806263109246725 -1.5707767645465296 1.442765712738037 0.0 -0.0001816905423766002 -0.00011840353545267135 7.431039557559416e-05 0.0 0.0 1 False False
18013.39 3.0135674476623535 -1.1778268081000824 1.4133341948138636 -1.8062998257079066 -1.570801083241598 1.4427776336669922 0.0 -0.00011704648204613477 -9.998996392823756e-05 6.311386096058413e-05 0.0 0.0 1 False False
18013.44 3.0135793685913086 -1.1779045921615143 1.4133666197406214 -1.8062550030150355 -1.5708168188678187 1.4427849054336548 0.0 -0.00011348238331265748 -8.181241719285026e-05 3.4175454914942774e-20 0.0 0.0 1 False False
18013.489999999998 3.0135719776153564 -1.1778926116279145 1.4133504072772425 -1.8062311611571253 -1.5708487669574183 1.442773461341858 0.0 -8.556617103749886e-05 -5.4236777941696346e-05 5.191257297430039e-39 0.0 0.0 1 False False
18013.54 3.0135960578918457 -1.1778474015048523 1.4134066740619105 -1.8062111339964808 -1.5707810560809534 1.44281005859375 0.0 -7.150273449951783e-05 -9.05439632611188e-26 0.0 0.0 0.0 1 False False
18013.59 3.0136168003082275 -1.1778600674918671 1.4133709112750452 -1.8062831364073695 -1.5707648436175745 1.4427495002746582 0.0 0.0 -0.0 0.0 0.0 0.0 1 False False
18013.64 3.0136094093322754 -1.1778556269458313 1.4133785406695765 -1.8062917194762171 -1.5707967917071741 1.4427862167358398 0.0 0.0 -0.0 0.0 0.0 0.0 1 False False
18013.69 3.0136005878448486 -1.1778719586184998 1.4133384863482874 -1.8062955341734828 -1.5708487669574183 1.4427776336669922 0.0 0.0 -0.0 0.0 0.0 0.0 1 False False
18013.739999999998 3.0136048793792725 -1.177901492719986 1.4133623282061976 -1.806263109246725 -1.5707648436175745 1.4427849054336548 0.0 0.0 -9.272260477677207e-22 0.0 0.0 0.0 1 False False
18013.79 3.0136005878448486 -1.17782677829776 1.4133990446673792 -1.8062831364073695 -1.5708125273333948 1.4427978992462158 0.0 0.0 -0.0 0.0 0.0 0.0 1 False False
18013.84 3.0136168003082275 -1.1778520208648224 1.4133546988116663 -1.80627503017568 -1.5708168188678187 1.4427125453948975 0.0 0.0 -0.0 0.0 0.0 0.0 1 False False
18013.89 3.0135464668273926 -1.1778600078872223 1.413391415272848 -1.806263109246725 -1.570829216633932 1.442781925201416 0.0 0.0 -0.0 0.0 0.0 0.0 1 False False
18013.94 3.013607978820801 -1.1779045027545472 1.4134109655963343 -1.8062192402281703 -1.5708168188678187 1.4427038431167603 0.0 0.0 -0.0 0.0 0.0 0.0 1 True False
18013.989999999998 3.0135793685913086 -1.1778719586184998 1.4133828322040003 -1.806234975854391 -1.5708168188678187 1.4428383111953735 0.0 0.0 -0.0 0.0 0.0 4.523730565489381e-14 1 True False
18014.04 3.0136048793792725 -1.177876279955246 1.4134076277362269 -1.8062712154784144 -1.5707886854754847 1.4427690505981445 0.0 0.0 -0.0 0.0 0.0 6.871556469875137e-33 1 True False
18014.09 3.0135838985443115 -1.1778806906989594 1.4133666197406214 -1.8062917194762171 -1.570824925099508 1.442770004272461 7.742986798996177e-34 0.0 -0.0 0.0 0.0 0.0 1 True False
18014.14 3.0136168003082275 -1.1779088240912934 1.4133828322040003 -1.8062473736205042 -1.5707572142230433 1.442780613899231 0.0 0.0 -0.0 0.0 0.0 3.737040584210656e-14 1 True False
18014.19 3.0135674476623535 -1.177834467296936 1.413403336201803 -1.806263109246725 -1.570784870778219 1.4427849054336548 0.0 0.0 -0.0 0.0 0.0 5.6765738920841545e-33 1 True False
18014.239999999998 3.0135884284973145 -1.177876279955246 1.4133709112750452 -1.8062311611571253 -1.5707452932940882 1.442773461341858 0.0 0.0 -0.0 0.0 0.0 0.0 1 True False
18014.29 3.0135345458984375 -1.1778600674918671 1.4133589903460901 -1.806263109246725 -1.5707767645465296 1.4427906274795532 0.0 0.0 -0.0 0.0 0.0 0.0 1 True False
18014.34 3.0135750770568848 -1.1778882306865235 1.4133222738849085 -1.8062907658019007 -1.570784870778219 1.4427742958068848 0.0 0.0 -1.373558297283584e-23 3.4169824747465327e-09 0.0 0.0006592660793103278 1 True False
18014.39 3.0135838985443115 -1.1778763097575684 1.4133785406695765 -1.806315084496969 -1.570801083241598 1.44281005859375 0.0 0.0 -0.0 5.190402866835475e-28 0.0 7.454750448232517e-05 1 True False
18014.44 3.0135927200317383 -1.1778925520232697 1.4133546988116663 -1.8062669239439906 -1.5707324186908167 1.4427971839904785 0.0 0.0 -0.0 0.0 0.0 0.0007300975266844034 1 True False
18014.489999999998 3.0136048793792725 -1.177840070133545 1.4133871237384241 -1.8062588177123011 -1.5708211104022425 1.4428176879882812 0.0 0.0 -0.0 0.0 -1.8202316174382512e-17 -5.557198937269437e-16 1 True False
18014.54 3.0135509967803955 -1.1778719884208222 1.4133947531329554 -1.806307931939596 -1.5707610289203089 1.442781925201416 0.0 0.0 -0.0 0.0 -2.7649361243794998e-36 -8.441398846725696e-35 1 True False
18014.59 3.0139243602752686 -1.17783875883136 1.4133589903460901 -1.8062311611571253 -1.5708325544940394 1.443152666091919 0.02925550751388073 -0.0015066812047734857 0.00123593641910702 0.0 -0.0 0.027091557160019875 1 True False
18014.64 3.0171773433685303 -1.178157017832138 1.4136584440814417 -1.8063112697997035 -1.5708211104022425 1.4465241432189941 0.09808306396007538 -0.009211699478328228 0.011419243179261684 -0.0015343374107033014 -0.0 0.10258542746305466 1 True False
18014.69 3.024310827255249 -1.1787060064128418 1.4142692724811 -1.8064938984312953 -1.5707648436175745 1.453421711921692 0.16714096069335938 -0.01190313883125782 0.014992984011769295 -0.005850034765899181 5.925120785832405e-05 0.17101819813251495 1 True False
18014.739999999998 3.03460693359375 -1.1793608230403443 1.4153321425067347 -1.8068295917906703 -1.5708168188678187 1.4638115167617798 0.24479596316814423 -0.015267197042703629 0.0255428496748209 -0.006885831709951162 3.827297405223362e-05 0.23964455723762512 1 True False
18014.79 3.048447608947754 -1.1802940231612702 1.4166339079486292 -1.8072596989073695 -1.570784870778219 1.4776263236999512 0.3091372549533844 -0.021885951980948448 0.030573079362511635 -0.009783395566046238 4.454043800450336e-09 0.31150949001312256 1 True False
18014.84 3.0657007694244385 -1.1815083187869568 1.4182699362384241 -1.8076702557005824 -1.5707643667804163 1.4949951171875 0.3838082253932953 -0.025411656126379967 0.03479451313614845 -0.010198543779551983 3.073175394718852e-11 0.3775564432144165 1 True False
18014.89 3.0867769718170166 -1.1828525227359314 1.4202716986285608 -1.8081890545287074 -1.570756737385885 1.515769600868225 0.4475632607936859 -0.028535421937704086 0.044708382338285446 -0.01151762530207634 4.668159653330118e-30 0.45592671632766724 1 True False
18014.94 3.110912561416626 -1.184581921701767 1.4226644674884241 -1.8088904819884242 -1.5707925001727503 1.5402636528015137 0.5224298238754272 -0.03495806083083153 0.051385510712862015 -0.013760650530457497 0.0 0.5145910978317261 1 True False
18014.989999999998 3.13866925239563 -1.1864606601050873 1.425326172505514 -1.809603830377096 -1.5708335081683558 1.5680545568466187 0.5884264707565308 -0.03762071579694748 0.05354296788573265 -0.016314849257469177 -0.0002182058960897848 0.5865004658699036 1 True False
18015.04 3.1700217723846436 -1.1887054604342957 1.428368870412008 -1.8104335270323695 -1.5707972685443323 1.5993306636810303 0.656298041343689 -0.0457393117249012 0.06479150056838989 -0.020731870085000992 0.00015619977784808725 0.6554166674613953 1 True False
18015.09 3.204965591430664 -1.1910993319800873 1.4316991011248987 -1.8113986454405726 -1.5707805792437952 1.6341496706008911 0.7283709049224854 -0.0486840158700943 0.06646241992712021 -0.024224823340773582 0.0001763866894179955 0.723541796207428 1 True False
18015.14 3.2431652545928955 -1.1936939519694825 1.435298267995016 -1.812434812585348 -1.5707886854754847 1.6724090576171875 0.7968839406967163 -0.05504791811108589 0.07696237415075302 -0.024390872567892075 4.781746136442222e-22 0.799895703792572 1 True False
18015.19 3.2850341796875 -1.1965880554965516 1.4394567648517054 -1.8135668239989222 -1.5707967917071741 1.7141834497451782 0.8698897361755371 -0.05806829780340195 0.08167209476232529 -0.020538508892059326 3.245015367525639e-11 0.8738914132118225 1 True False
18015.239999999998 3.330313205718994 -1.199739323263504 1.4438055197345179 -1.8147832355894984 -1.570801083241598 1.7595012187957764 0.9398241639137268 -0.06873380392789841 0.09044186770915985 -0.022669989615678787 4.929185979212696e-30 0.9322167038917542 1 True False
18015.29 3.3790135383605957 -1.2030001741698761 1.4483955542193812 -1.8160621128477992 -1.5708254019366663 1.80826997756958 1.0106942653656006 -0.07185027748346329 0.09322020411491394 -0.025464152917265892 0.0 1.006411075592041 1 True False
18015.34 3.430950880050659 -1.206657038336136 1.4533451239215296 -1.8174463711180628 -1.5707805792437952 1.8600977659225464 1.0449156761169434 -0.0723503828048706 0.09702746570110321 -0.03146950900554657 0.0 1.0451374053955078 1 True False
18015.39 3.483229398727417 -1.2103341084769745 1.4582842032061976 -1.8189135990538539 -1.5707486311541956 1.912584662437439 1.053239107131958 -0.07466451078653336 0.10128885507583618 -0.030159736052155495 -0.0001357583241770044 1.044541597366333 1 True False
18015.44 3.535531520843506 -1.213820831184723 1.4633167425738733 -1.82031311611318 -1.5707405249225062 1.964720606803894 1.0478698015213013 -0.07257794588804245 0.10023029893636703 -0.02662825584411621 -0.00013421008770819753 1.0547376871109009 1 True False
18015.489999999998 3.58803129196167 -1.217424826031067 1.4682586828814905 -1.8216282329955042 -1.5708254019366663 2.0170392990112305 1.0422719717025757 -0.0697593241930008 0.09844504296779633 -0.02947145886719227 -0.00010130772716365755 1.0436348915100098 1 True False
18015.54 3.6402885913848877 -1.2211921972087403 1.4734881559955042 -1.8230282268919886 -1.5707529226886194 2.069556713104248 1.0486584901809692 -0.07078994810581207 0.09771349281072617 -0.02853194996714592 -7.960644870763645e-05 1.0478315353393555 1 True False
18015.59 3.692689895629883 -1.2247344714454194 1.478544060383932 -1.8244267902769984 -1.5707891623126429 2.1218016147613525 1.047072410583496 -0.07307739555835724 0.10198462754487991 -0.026772242039442062 -3.802701394306496e-05 1.0491466522216797 1 True False
18015.64 3.745103597640991 -1.2282952827266236 1.4834159056292933 -1.8258944950499476 -1.570813004170553 2.174241781234741 1.0418587923049927 -0.07240018993616104 0.0982140302658081 -0.031104255467653275 -4.8139649152290076e-05 1.0448970794677734 1 True False
18015.69 3.7973709106445312 -1.231992707853653 1.488410774861471 -1.8272654018797816 -1.5707925001727503 2.2267308235168457 1.0489729642868042 -0.07287950068712234 0.09988532960414886 -0.027709729969501495 -1.7329579350189306e-05 1.0452960729599 1 True False
18015.739999999998 3.8496713638305664 -1.2356161040118714 1.4935501257525843 -1.8286658726134242 -1.5707362333880823 2.2788827419281006 1.0515483617782593 -0.07236530631780624 0.1030426099896431 -0.020909642800688744 -1.9350547089363296e-17 1.0551282167434692 1 True False
18015.79 3.902120590209961 -1.2391629976085206 1.4983633200274866 -1.830144544641012 -1.5707843939410608 2.331209182739258 1.0410404205322266 -0.07146883755922318 0.1043381541967392 -0.025809740647673607 -2.939353255527937e-36 1.0447314977645874 1 True False
18015.84 3.9544193744659424 -1.2427838009646912 1.503444019948141 -1.8315011463561 -1.5708487669574183 2.3837900161743164 1.0490323305130005 -0.06878373771905899 0.10019020736217499 -0.032790206372737885 -1.2490697365308279e-09 1.0392218828201294 1 True False
18015.89 4.0068511962890625 -1.2464059752276917 1.5086119810687464 -1.8328591785826625 -1.5707967917071741 2.436006546020508 1.0481953620910645 -0.07097531110048294 0.09844512492418289 -0.02543685771524906 -1.897340116215915e-28 1.049679160118103 1 True False
18015.94 4.059276580810547 -1.250061110859253 1.5134857336627405 -1.8343383274474085 -1.5707805792437952 2.4883642196655273 1.0428502559661865 -0.0699048638343811 0.09980883449316025 -0.025160549208521843 -0.0 1.0458279848098755 1 True False
18015.989999999998 4.1115641593933105 -1.253654883509018 1.518425766621725 -1.8356934986510218 -1.5708373228656214 2.540882110595703 1.050722599029541 -0.07362544536590576 0.10070525109767914 -0.02917606011033058 2.5510346873119927e-12 1.044155240058899 1 True False
18016.04 4.163868427276611 -1.257223055963852 1.52350360551943 -1.8370205364623011 -1.5708134810077112 2.593067169189453 1.051070213317871 -0.07243796437978745 0.10002958029508591 -0.026225585490465164 4.614782445067078e-10 1.054930567741394 1 True False
18016.09 4.216275215148926 -1.260816441183426 1.5285800139056605 -1.8384534321227015 -1.5708168188678187 2.645282030105591 1.0412501096725464 -0.06957461684942245 0.09870657324790955 -0.026733186095952988 7.009861987219016e-29 1.047980785369873 1 True False
18016.14 4.268635272979736 -1.2644406122020264 1.533510986958639 -1.8399750194945277 -1.5707362333880823 2.6979310512542725 1.0485378503799438 -0.07060521841049194 0.10302666574716568 -0.035455793142318726 0.0 1.0427801609039307 1 True False
18016.19 4.320409297943115 -1.26803611338649 1.53862172762026 -1.8412710628905238 -1.570772949849264 2.7496299743652344 1.0081226825714111 -0.0714799016714096 0.09427530318498611 -0.02402743697166443 0.0 1.013157606124878 1 True False
18016.239999999998 4.368994235992432 -1.2713188093951722 1.5433371702777308 -1.8425079784789027 -1.5707891623126429 2.7981784343719482 0.9368910193443298 -0.06273292005062103 0.08732353895902634 -0.022027606144547462 2.891230501007246e-20 0.9348844289779663 1 True False
18016.29 4.413957595825195 -1.2744760674289246 1.5474312941180628 -1.8437963924803675 -1.570801083241598 2.8432328701019287 0.8729163408279419 -0.06041465327143669 0.08463010936975479 -0.02145245112478733 -0.00010984552500303835 0.8751071095466614 1 True False
18016.34 4.455629348754883 -1.2773514848998566 1.5513857046710413 -1.844889303246969 -1.5708211104022425 2.8849804401397705 0.7956287860870361 -0.05436187982559204 0.074795663356781 -0.023018820211291313 -2.485242944771926e-08 0.7908498644828796 1 True False
18016.39 4.4936842918396 -1.2799267929843445 1.555167023335592 -1.8459192715086878 -1.570784870778219 2.9228811264038086 0.723106861114502 -0.048753879964351654 0.07097423821687698 -0.016373759135603905 -3.7750888545172966e-27 0.7249122858047485 1 True False
18016.44 4.528308868408203 -1.2823639076999207 1.5583561102496546 -1.8469444713988246 -1.5708368460284632 2.9573354721069336 0.6583642363548279 -0.04568420723080635 0.06525497883558273 -0.02041025459766388 -0.0 0.6664848923683167 1 True False
18016.489999999998 4.559510231018066 -1.2845140558532258 1.5614121595965784 -1.8477279148497523 -1.5708087126361292 2.988568067550659 0.5858892202377319 -0.041360218077898026 0.05841536447405815 -0.0171311404556036 -0.0 0.5919433236122131 1 True False
18016.54 4.5869951248168945 -1.2863891881755372 1.5640218893634241 -1.8484546146788539 -1.570813004170553 3.0162272453308105 0.5193502306938171 -0.0348874107003212 0.04977601021528244 -0.012379275634884834 -0.00015364194405265152 0.5188935399055481 1 True False
18016.59 4.611011981964111 -1.2880328458598633 1.5664165655719202 -1.8491150341429652 -1.5708006064044397 3.040513277053833 0.4463115632534027 -0.030535519123077393 0.04283934459090233 -0.012443281710147858 -0.0007931461441330612 0.4466133415699005 1 True False
18016.64 4.6317620277404785 -1.2894862455180665 1.5684831778155726 -1.849640508691305 -1.5708373228656214 3.0610783100128174 0.37316757440567017 -0.025590498000383377 0.03495477885007858 -0.014682881534099579 -0.0001447478571208194 0.3796122968196869 1 True False
18016.69 4.649166584014893 -1.2906949085048218 1.5700586477862757 -1.8500901661314906 -1.5707247892962855 3.0781474113464355 0.30551645159721375 -0.020513758063316345 0.02716953679919243 -0.009794426150619984 0.0005992752849124372 0.31271281838417053 1 True False
18016.739999999998 4.662642955780029 -1.2916761201671143 1.5713117758380335 -1.8504272900023402 -1.570784870778219 3.091872453689575 0.24303074181079865 -0.01773858815431595 0.02419271506369114 -0.004406367428600788 -0.00010272210784023628 0.23561125993728638 1 True False
18016.79 4.672858238220215 -1.29233934104953 1.5722420851336878 -1.850673337975973 -1.5708168188678187 3.102097988128662 0.1699962019920349 -0.012671906501054764 0.016086913645267487 -0.004818554036319256 -4.230202830513008e-05 0.1700841188430786 1 True False
18016.84 4.679538249969482 -1.2927766901305695 1.572911564503805 -1.8508802853026332 -1.5708406607257288 3.108748435974121 0.10051662474870682 -0.005003730300813913 0.00938496459275484 -0.003054568776860833 -2.664554449438583e-05 0.09909353405237198 1 True False
18016.89 4.682643890380859 -1.2929859024337311 1.57310659090151 -1.8509913883604945 -1.5708087126361292 3.11191463470459 0.02880694530904293 -0.0016561668599024415 0.001114890561439097 -0.0018477642443031073 -4.0280224311572965e-07 0.03149476647377014 1 True False
18016.94 4.682895660400391 -1.2927852433970948 1.5736396948443812 -1.8519026241698207 -1.5708325544940394 3.1121597290039062 -0.00028282214771024883 0.010116386227309704 0.02664158120751381 -0.03262525051832199 -6.118574662729274e-26 0.00011224481568206102 1 True False
18016.989999999998 4.682903289794922 -1.2916698020747681 1.5761759916888636 -1.8555404148497523 -1.5707405249225062 3.1122028827667236 0.00011014501069439575 0.03907603770494461 0.06920306384563446 -0.10887870192527771 -1.3954339185904388e-19 0.0007376744761131704 1 True False
18017.04 4.68292236328125 -1.2890736919692536 1.5807927290545862 -1.8627773723998011 -1.5708254019366663 3.112215995788574 0.00032350452966056764 0.06707813590765 0.11638573557138443 -0.18563559651374817 -2.1196672556984594e-38 0.0004109001893084496 1 True False
18017.09 4.682995796203613 -1.2851709884456177 1.587801758443014 -1.8735157452025355 -1.5707886854754847 3.1121749877929688 0.0005411279271356761 0.08852057158946991 0.1606077402830124 -0.2402847409248352 7.574706251034513e-05 0.00020121187844779342 1 True False
18017.14 4.682941436767578 -1.2801121038249512 1.5971129576312464 -1.8877669773497523 -1.5707886854754847 3.1122117042541504 0.00025452428963035345 0.1114344671368599 0.20760488510131836 -0.312605082988739 6.788483801756229e-07 0.00011242230539210141 1 True False
18017.19 4.683035850524902 -1.2738463443568726 1.6087821165667933 -1.9054771862425746 -1.5707762877093714 3.1122405529022217 0.00014760713384021074 0.13402622938156128 0.24999988079071045 -0.39249277114868164 0.00010314507380826399 7.395740249194205e-05 1 True False
18017.239999999998 4.683075904846191 -1.2664534610560914 1.6222670714007776 -1.9266873798766078 -1.5707805792437952 3.1122069358825684 0.00010638176900101826 0.16306404769420624 0.30310526490211487 -0.4534619152545929 7.318772986764088e-05 8.773012871721164e-11 1 True False
18017.29 4.682990550994873 -1.257808343773224 1.6384971777545374 -1.9514857731261195 -1.5707891623126429 3.112231731414795 5.579557182500139e-05 0.187671959400177 0.3412128984928131 -0.522318422794342 1.6756969919136682e-20 1.3326225490413354e-29 1 True False
18017.34 4.6830034255981445 -1.2481554311564942 1.6559770742999476 -1.9784652195372523 -1.5707362333880823 3.1121983528137207 4.1162474519483017e-35 0.17926308512687683 0.33625543117523193 -0.5136944055557251 2.545388595522814e-39 0.0 1 True False
18017.39 4.682990550994873 -1.2397182446769257 1.6717656294452112 -2.0026990375914515 -1.570784870778219 3.1121985912323 0.0 0.1602291762828827 0.29327717423439026 -0.45348313450813293 0.0 0.0 1 True False
18017.44 4.683043956756592 -1.2325743597796937 1.6850059668170374 -2.0234462223448695 -1.5707929770099085 3.1122243404388428 3.1698360544396564e-05 0.1358087956905365 0.24706733226776123 -0.3781815469264984 0.0 0.0 1 True False
18017.489999999998 4.683030605316162 -1.2263908249190827 1.6962865034686487 -2.0405880413451136 -1.570801083241598 3.1121866703033447 0.0 0.10895656049251556 0.2007051259279251 -0.3032360374927521 0.0 0.0 1 True False
18017.54 4.683011054992676 -1.2214925450137635 1.7050417105304163 -2.054331441918844 -1.5707605520831507 3.1123008728027344 0.0 0.08386354893445969 0.15282170474529266 -0.24453236162662506 0.0 0.0 1 True False
18017.59 4.68303918838501 -1.2178365749171753 1.7117136160479944 -2.0647007427611292 -1.5708168188678187 3.1122360229492188 0.0 0.060102835297584534 0.11292669177055359 -0.1624915599822998 0.0 0.0 1 True False
18017.64 4.682994842529297 -1.2155456107905884 1.7160070578204554 -2.0714427433409632 -1.570829216633932 3.1122491359710693 0.0 0.034838318824768066 0.06467702984809875 -0.09687793254852295 0.0 1.2950493194851891e-15 1 True False
18017.69 4.683018684387207 -1.214378522043564 1.7181881109820765 -2.074513097802633 -1.5708492437945765 3.1122448444366455 0.0 0.010799380019307137 0.022305648773908615 -0.03457051143050194 0.0 1.9671819900839247e-34 1 True False
18017.739999999998 4.683081150054932 -1.2144156855395813 1.7183964888202112 -2.07486691097402 -1.570801083241598 3.1122074127197266 5.876526656653376e-32 -0.00040850095683708787 7.980030204635113e-05 0.00021746182756032795 0.0 0.0 1 True False
18017.79 4.683055877685547 -1.2143740814975281 1.7184174696551722 -2.0749107799925746 -1.5708211104022425 3.112215518951416 0.0 0.00015635961608495563 0.0002935734810307622 -7.360850577242672e-05 0.0 0.0 1 True False
18017.84 4.683027744293213 -1.2143586438945313 1.7184317747699183 -2.0749389133849085 -1.5707767645465296 3.112182378768921 0.0 0.00010712389484979212 0.0005800509243272245 -9.329909516964108e-05 0.0 0.0 1 True False
18017.89 4.682961940765381 -1.2143920821002503 1.7185371557818812 -2.074878831902975 -1.5707524458514612 3.1122522354125977 -3.068757723667659e-05 0.00011328358232276514 0.00030530046205967665 -6.320951069938019e-05 0.0 0.0 1 True False
18017.94 4.682990074157715 -1.2143124502948304 1.718508545552389 -2.074947019616598 -1.5707929770099085 3.112247943878174 0.0 0.0001552889443701133 0.00012418012192938477 -0.0001766513887559995 0.0 0.0 1 True False
18017.989999999998 4.68300199508667 -1.2142856878093262 1.7185166517840784 -2.0748869381346644 -1.570801083241598 3.112166166305542 -2.7810550818685442e-05 0.000159405535669066 8.817957859719172e-05 -0.0001304941688431427 0.0 0.0 1 True False
18018.04 4.683011054992676 -1.2143631440452118 1.718475643788473 -2.074963232079977 -1.5707967917071741 3.1122243404388428 -2.322191903658677e-05 0.00011159062705701217 6.261694943532348e-05 -9.613626752980053e-05 0.0 0.0 1 True False
18018.09 4.68301248550415 -1.2143436831286927 1.7184999624835413 -2.07491459468984 -1.5707925001727503 3.1122243404388428 0.0 8.48537019919604e-05 1.528455318758383e-29 -7.761341112200171e-05 0.0 0.0 1 True False
18018.14 4.682999134063721 -1.214351163511612 1.718508545552389 -2.07494654277944 -1.5708211104022425 3.112215518951416 0.0 6.092166222515516e-05 0.0 -9.715008654330735e-17 0.0 0.0 1 True False
18018.19 4.683048248291016 -1.214379445915558 1.7184632460223597 -2.0749389133849085 -1.570801083241598 3.1121912002563477 0.0 0.0 0.0 -2.577291411398619e-07 0.0 0.0 1 True False
18018.239999999998 4.683009624481201 -1.2143303614905854 1.7184799353228968 -2.0749150715269984 -1.5707967917071741 3.1121985912323 0.0 0.0 0.0 -3.914912678112172e-26 0.0 0.0 1 True False
18018.29 4.68303918838501 -1.2143303614905854 1.7184999624835413 -2.0749551258482875 -1.5708168188678187 3.112194299697876 0.0 4.861572881471003e-26 0.0 -1.4899796042300295e-05 0.0 0.0 1 True False
18018.34 4.682981491088867 -1.2144231659225007 1.7184212843524378 -2.0751215420165003 -1.5708006064044397 3.1122522354125977 -2.925040877303146e-16 -8.617666823392368e-29 2.0555310742020454e-23 -0.00044470056309364736 4.9788872274803e-05 -1.85508338620801e-21 1 True False
18018.39 4.6830034255981445 -1.2144301694682618 1.7184136549579065 -2.075125833550924 -1.5708335081683558 3.112231731414795 0.0 0.000240003049839288 0.0 -7.49315887116353e-12 2.0887833670713007e-05 -2.8178710819107746e-40 1 True True
18018.44 4.683055877685547 -1.2144039434245606 1.7184012571917933 -2.0750214062132777 -1.5707967917071741 3.112236261367798 0.0 0.0005362872616387904 0.0005916630616411567 0.0007271393551491201 1.3217873856774531e-05 -2.5042356355697848e-05 1 True True
18018.489999999998 4.683032035827637 -1.2146352392486115 1.7180169264422815 -2.073493619958395 -1.570784870778219 3.1121699810028076 0.0 -0.014933908358216286 -0.0293281152844429 0.05507321283221245 1.6956573745119385e-07 -2.071713242912665e-05 1 True True
18018.54 4.683018684387207 -1.2162936490825196 1.7148798147784632 -2.069165369073385 -1.5707529226886194 3.112257242202759 6.939878153049222e-35 -0.051839932799339294 -0.08932338654994965 0.12654051184654236 2.5757072764467968e-26 -1.3041202108075849e-21 1 True True
18018.59 4.682999134063721 -1.2190989416888733 1.709550682698385 -2.060813089410299 -1.570784870778219 3.112227201461792 0.0 -0.07102315127849579 -0.13261675834655762 0.19370794296264648 4.203895392974451e-45 -5.981984577374533e-05 1 True True
18018.64 4.682961940765381 -1.223394588833191 1.701721493397848 -2.0490457020201625 -1.5707805792437952 3.1122028827667236 0.0 -0.0915335863828659 -0.17220547795295715 0.2589266300201416 0.0 -1.7770140827572112e-12 1 True True
18018.69 4.683043956756592 -1.2287554901889344 1.6918066183673304 -2.034088274041647 -1.570772949849264 3.112215280532837 0.0 -0.12080848217010498 -0.2209550142288208 0.32937511801719666 0.0 -2.69928908838644e-31 1 True True
18018.739999999998 4.683022975921631 -1.2352231603911896 1.6797316710101526 -2.0151454410948695 -1.5707967917071741 3.1121983528137207 0.0 -0.14299260079860687 -0.2563242018222809 0.4035540223121643 0.0 -0.0 1 True True
18018.79 4.6830153465271 -1.2431120735457917 1.665398899708883 -1.9930454693236292 -1.5707648436175745 3.11221981048584 0.0 -0.16772274672985077 -0.3015555143356323 0.47375163435935974 0.0 -0.0 1 True True
18018.84 4.683032035827637 -1.2521357995322724 1.6487038771258753 -1.9675117931761683 -1.570813004170553 3.112215280532837 0.0 -0.19199948012828827 -0.35620352625846863 0.5484699010848999 0.0 -0.0 1 True True
18018.89 4.683009624481201 -1.2614318293384095 1.631380860005514 -1.940798898736471 -1.5707529226886194 3.11220645904541 0.0 -0.1715070754289627 -0.3180188536643982 0.5203282833099365 0.0 -0.0 1 True True
18018.94 4.683011054992676 -1.2696039837649842 1.616394344960348 -1.917504449883932 -1.5707481543170374 3.112177610397339 0.0 -0.15331459045410156 -0.2745603621006012 0.43115952610969543 0.0 -0.0 1 True True
18018.989999999998 4.682990074157715 -1.2766702336123963 1.603619400654928 -1.8976713619627894 -1.5707605520831507 3.1122524738311768 0.0 -0.12700553238391876 -0.23224343359470367 0.3591342568397522 0.0 -0.0 1 True True
18019.04 4.683027744293213 -1.2823423606208344 1.5930150190936487 -1.8814660511412562 -1.5707891623126429 3.11221981048584 0.0 -0.1027446985244751 -0.18994273245334625 0.29507502913475037 0.0 -0.0 1 True True
18019.09 4.6830153465271 -1.2869185370257874 1.5847685972796839 -1.8685690365233363 -1.570784870778219 3.112236261367798 0.0 -0.07505904883146286 -0.1441119909286499 0.21226951479911804 0.0 -0.0 1 True True
18019.14 4.682969570159912 -1.2901498836329957 1.5786283651935022 -1.8592425785460414 -1.570784870778219 3.1122164726257324 0.0 -0.05126990005373955 -0.10322854667901993 0.16711649298667908 0.0 -8.239194049242116e-11 1 True True
18019.19 4.683022975921631 -1.2921608251384278 1.5749300161944788 -1.8534680805602015 -1.5708168188678187 3.1122243404388428 0.0 -0.03065081685781479 -0.05628213658928871 0.0931733027100563 0.0 -1.2515355569363026e-29 1 True True
18019.239999999998 4.682987213134766 -1.2930186551860352 1.5733268896686 -1.851114412347311 -1.5708335081683558 3.1122689247131348 0.0 -0.0017613946693018079 -0.00983741506934166 0.013224214315414429 0.0 -0.0 1 True True
18019.29 4.682348728179932 -1.292970971470215 1.573303524647848 -1.8511549435057582 -1.5707967917071741 3.1110987663269043 -0.030263051390647888 -0.00014906481374055147 1.0221469004534356e-08 0.0003922122123185545 0.0 -0.057715095579624176 1 True True
18019.34 4.680151462554932 -1.2930527788451691 1.5733674208270472 -1.8510195217528285 -1.570756737385885 3.106356382369995 -0.06629043817520142 -0.0031054418068379164 0.0012404459994286299 0.0006131871487013996 0.0 -0.12663216888904572 1 True True
18019.39 4.675811767578125 -1.2932287615588685 1.5734875837909144 -1.8510390720763148 -1.5707805792437952 3.0982508659362793 -0.09973563998937607 -0.004278313368558884 0.004719860851764679 0.00011120249837404117 0.0 -0.19337013363838196 1 True True
18019.44 4.669779300689697 -1.2934990686229249 1.5737131277667444 -1.8511549435057582 -1.5708168188678187 3.0866386890411377 -0.1379987746477127 -0.0037090107798576355 0.0057442341931164265 -0.00041591323679313064 0.0 -0.2627301812171936 1 True True
18019.489999999998 4.662025451660156 -1.2936296922019501 1.5740864912616175 -1.8511549435057582 -1.570772949849264 3.0715370178222656 -0.17434756457805634 -0.005112815648317337 0.007509076967835426 -0.0028989131096750498 0.0 -0.3385632336139679 1 True True
18019.54 4.6523237228393555 -1.2939347487739106 1.5744121710406702 -1.8512336216368617 -1.5707486311541956 3.0528576374053955 -0.21054454147815704 -0.0072237965650856495 0.008861221373081207 -0.0018652596045285463 0.0 -0.39690932631492615 1 True True
18019.59 4.640842914581299 -1.2942958039096375 1.5748518149005335 -1.8513695202269496 -1.570801083241598 3.0307259559631348 -0.24342796206474304 -0.007773576304316521 0.009869004599750042 -0.0024491928052157164 0.0 -0.4687980115413666 1 True True
18019.64 4.627742767333984 -1.294675664310791 1.5753677527057093 -1.8514887295165003 -1.5708254019366663 3.00522780418396 -0.28379949927330017 -0.010163003578782082 0.010733066126704216 -0.0027657614555209875 0.0 -0.5488553047180176 1 True True
18019.69 4.612525463104248 -1.2951949697783967 1.5759261290179651 -1.8516479931273402 -1.5708254019366663 2.976173162460327 -0.31798845529556274 -0.010247716680169106 0.0127596165984869 -0.002518008928745985 0.0 -0.6218376159667969 1 True True
18019.739999999998 4.595874309539795 -1.2956211429885407 1.5765684286700647 -1.8517834148802699 -1.5708087126361292 2.943673849105835 -0.3562573790550232 -0.010387813672423363 0.01269603706896305 -0.004637753125280142 8.920679829316214e-05 -0.6901982426643372 1 True True
18019.79 4.577005863189697 -1.2962276500514527 1.5772541205035608 -1.852002283135885 -1.5708487669574183 2.9074435234069824 -0.3884468376636505 -0.010220734402537346 0.016378311440348625 -0.004717912990599871 2.5629693482187577e-05 -0.7513495087623596 1 True True
18019.84 4.556758880615234 -1.2967267495444794 1.5781033674823206 -1.8521410427489222 -1.5708087126361292 2.8678994178771973 -0.4314543604850769 -0.013327923603355885 0.017552243545651436 -0.006140016485005617 1.497029370511882e-05 -0.8204353451728821 1 True True
18019.89 4.534417629241943 -1.297421709900238 1.5789302031146448 -1.8522950611510218 -1.5707605520831507 2.8250739574432373 -0.458661288022995 -0.01470651850104332 0.0186786949634552 -0.002303964691236615 1.7058677387327137e-11 -0.8975954055786133 1 True True
18019.94 4.510158061981201 -1.298170493250229 1.579895321522848 -1.8525616131224574 -1.5708492437945765 2.778331995010376 -0.4960010349750519 -0.013477231375873089 0.01893262006342411 -0.004050283692777157 1.847326380755021e-08 -0.9632470011711121 1 True True
18019.989999999998 4.484406471252441 -1.298976795082428 1.580862824116842 -1.852764745751852 -1.570772949849264 2.7285025119781494 -0.5414459705352783 -0.014621404930949211 0.019908055663108826 -0.007192414719611406 0.00013278989354148507 -1.034761905670166 1 True True
18020.04 4.457597255706787 -1.2997433108142395 1.5819461981402796 -1.852975984612936 -1.5707405249225062 2.6761317253112793 -0.5415025949478149 -0.016362633556127548 0.021693844348192215 -0.004371546674519777 0.0007567706052213907 -1.0449405908584595 1 True True
18020.09 4.430427551269531 -1.3005879682353516 1.5830286184894007 -1.8532096348204554 -1.5708168188678187 2.6237521171569824 -0.5351870656013489 -0.019497159868478775 0.024615157395601273 -0.0015454029198735952 0.0020068504381924868 -1.0514607429504395 1 True True
18020.14 4.403197288513184 -1.3013395828059693 1.5839842001544397 -1.8535238705077113 -1.5708211104022425 2.571540594100952 -0.5370092391967773 -0.018260186538100243 0.021089596673846245 -0.004434461239725351 -0.00010489907435839996 -1.0522035360336304 1 True True
18020.19 4.375924587249756 -1.3020704549602051 1.5850418249713343 -1.853802343408102 -1.5708368460284632 2.5190768241882324 -0.5422213673591614 -0.014278155751526356 0.02145594358444214 -0.005948026664555073 -0.0007885164814069867 -1.0418733358383179 1 True True
18020.239999999998 4.348775386810303 -1.3028913003257294 1.5861018339740198 -1.8540173969664515 -1.5708525816546839 2.4666073322296143 -0.5485217571258545 -0.014494845643639565 0.018784184008836746 -0.008584989234805107 -0.0015470761572942138 -1.047637939453125 1 True True
18020.29 4.321836948394775 -1.3037915390780945 1.5871894995318812 -1.8541723690428675 -1.570772949849264 2.4144256114959717 -0.5483696460723877 -0.014357385225594044 0.01823916658759117 -0.007941816933453083 -0.0016624173149466515 -1.0475211143493652 1 True True
18020.34 4.294942855834961 -1.3045228880694886 1.5882700125323694 -1.854427000085348 -1.5707529226886194 2.361887216567993 -0.5431721806526184 -0.015604553744196892 0.021204333752393723 -0.0053176553919911385 0.0006483483593910933 -1.0373049974441528 1 True True
18020.39 4.267956733703613 -1.3053676050952454 1.5893109480487269 -1.8546492062010707 -1.570728603993551 2.3095691204071045 -0.5381767153739929 -0.016256028786301613 0.02121465466916561 -0.002868883078917861 0.0007515941397286952 -1.051073431968689 1 True True
18020.44 4.240744113922119 -1.3061947387507935 1.5903118292437952 -1.8548633060851039 -1.5707815329181116 2.2573788166046143 -0.5362425446510315 -0.01781613565981388 0.021810876205563545 -0.0016112097073346376 0.001471918891184032 -1.0486881732940674 1 True True
18020.489999999998 4.2136759757995605 -1.306927816276886 1.5913293997394007 -1.8551813564696253 -1.5707686583148401 2.204979419708252 -0.5391744375228882 -0.017573243007063866 0.021167850121855736 -0.002670243149623275 0.0017791647696867585 -1.0420193672180176 1 True True
18020.54 4.186395645141602 -1.3076466482928772 1.592339340840475 -1.8554283581175746 -1.5708525816546839 2.1525113582611084 -0.541927695274353 -0.01631276123225689 0.020301630720496178 -0.003868872532621026 -0.00029715680284425616 -1.0460703372955322 1 True True
18020.59 4.159178256988525 -1.3085708779147645 1.5933640638934534 -1.8557030163206996 -1.5708320776568812 2.1003010272979736 -0.5448554158210754 -0.012818769551813602 0.020111646503210068 -0.007896828465163708 -0.0011613103561103344 -1.0518628358840942 1 True True
18020.64 4.132138252258301 -1.3093336385539551 1.594424072896139 -1.855889459649557 -1.5707762877093714 2.0478925704956055 -0.5490423440933228 -0.014874272979795933 0.01856721192598343 -0.007546097505837679 -0.001963769318535924 -1.04216468334198 1 True True
18020.69 4.105155944824219 -1.3102036875537415 1.5955818335162562 -1.8561331234373988 -1.5707438627826136 1.9953628778457642 -0.5457812547683716 -0.014226657338440418 0.02057565376162529 -0.006339579354971647 5.169322685105726e-05 -1.052166223526001 1 True True
18020.739999999998 4.078301429748535 -1.3109811705401917 1.5965974966632288 -1.8563233814635218 -1.5707204977618616 1.9432300329208374 -0.5404431819915771 -0.016313331201672554 0.022009428590536118 -0.004735567606985569 0.0006621813517995179 -1.0522983074188232 1 True True
18020.79 4.051206111907959 -1.3117826741984864 1.5976374785052698 -1.8565498791136683 -1.570733372365133 1.8907681703567505 -0.5358126759529114 -0.0171879343688488 0.021437376737594604 -0.0028871989343315363 0.0011787951225414872 -1.044100284576416 1 True True
18020.84 4.024005889892578 -1.3125429612449189 1.598593537007467 -1.8568560085692347 -1.570740048085348 1.8383132219314575 -0.5332322120666504 -0.01760161481797695 0.023015005514025688 -0.0015248379204422235 0.004036998376250267 -1.0419665575027466 1 True True
18020.89 3.99670672416687 -1.313342885380127 1.5996092001544397 -1.8571058712401332 -1.5708773771869105 1.7860771417617798 -0.5403138995170593 -0.015975050628185272 0.02048390544950962 -0.0036901687271893024 -0.00048707396490499377 -1.0476080179214478 1 True True
18020.94 3.969524621963501 -1.3140691083720704 1.6007207075702112 -1.8573929272093714 -1.5708687941180628 1.733649730682373 -0.5446447730064392 -0.01501794159412384 0.01974465511739254 -0.008601739071309566 -0.0008968384354375303 -1.0434648990631104 1 True True
18020.989999999998 3.9424521923065186 -1.314960704450943 1.6017358938800257 -1.8575669727721156 -1.5708449522601526 1.6812176704406738 -0.5497539043426514 -0.01418152917176485 0.019293000921607018 -0.008301278576254845 -0.0015328340232372284 -1.048177719116211 1 True True
18021.04 3.9154629707336426 -1.3157829505256196 1.6028950850116175 -1.8577619991698207 -1.570772949849264 1.6290405988693237 -0.5476747155189514 -0.01440338883548975 0.021532997488975525 -0.009655524045228958 -0.003526288317516446 -1.0520002841949463 1 True True
18021.09 3.8886218070983887 -1.316633628015854 1.603931728993551 -1.8579164944090785 -1.5707204977618616 1.5766055583953857 -0.5404371023178101 -0.016183948144316673 0.0221323911100626 -0.005460737738758326 0.000658623524941504 -1.0442376136779785 1 True True
18021.14 3.861598253250122 -1.3173962992480774 1.6048467795001429 -1.8581911526122035 -1.5707486311541956 1.5241386890411377 -0.537381112575531 -0.01807817816734314 0.02146104723215103 -0.0030482776928693056 0.0012563694035634398 -1.0434577465057373 1 True True
18021.19 3.8344216346740723 -1.3181855541518708 1.6059520880328577 -1.8584815464415492 -1.5707815329181116 1.4718927145004272 -0.5349141955375671 -0.018360381945967674 0.023629190400242805 -0.0016183964908123016 0.0027622138150036335 -1.047744631767273 1 True True
18021.239999999998 3.8071579933166504 -1.319015310411789 1.6068995634662073 -1.8587953052916468 -1.5708053747760218 1.4195783138275146 -0.5381209254264832 -0.01671404205262661 0.022813647985458374 -0.0021053203381597996 -0.0003339114773552865 -1.0476802587509155 1 True True
18021.29 3.7799272537231445 -1.3197804254344483 1.6080082098590296 -1.859042306939596 -1.5708087126361292 1.367167353630066 -0.5441614985466003 -0.014833220280706882 0.01989816501736641 -0.0069321440532803535 -0.0007111718878149986 -1.0454847812652588 1 True True
18021.34 3.7528321743011475 -1.3204933565906067 1.6089957396136683 -1.8592168293394984 -1.5708449522601526 1.314874529838562 -0.5458468198776245 -0.013435986824333668 0.020849546417593956 -0.00789466593414545 -0.0010170689783990383 -1.0516674518585205 1 True True
18021.39 3.725817918777466 -1.321390615110733 1.6100714842425745 -1.8594476185240687 -1.5707882086383265 1.2624733448028564 -0.5490773916244507 -0.014899038709700108 0.018790895119309425 -0.009506355039775372 -0.0029325636569410563 -1.0436267852783203 1 True True
18021.44 3.6988489627838135 -1.322185219531395 1.611126724873678 -1.8596826992430628 -1.5707653204547327 1.2100392580032349 -0.5464192032814026 -0.01605287194252014 0.019130544736981392 -0.006493552587926388 0.0004234588413964957 -1.047296166419983 1 True True
18021.489999999998 3.671830892562866 -1.3230790358832856 1.6122296492206019 -1.8599006138243617 -1.5707486311541956 1.1575897932052612 -0.5380495190620422 -0.015932196751236916 0.022303711622953415 -0.002755700843408704 0.0009605844970792532 -1.0473320484161377 1 True True
18021.54 3.6447858810424805 -1.3238787812045594 1.6132243315326136 -1.860239168206686 -1.5707572142230433 1.1052758693695068 -0.5353710651397705 -0.017411768436431885 0.02189883403480053 -0.0015433230437338352 0.0019450042163953185 -1.0507938861846924 1 True True
18021.59 3.6175591945648193 -1.3246337187341233 1.6142233053790491 -1.8604732952513636 -1.570772949849264 1.052925944328308 -0.5355498194694519 -0.018439989537000656 0.023134741932153702 -0.00319127319380641 0.00034440113813616335 -1.0441675186157227 1 True True
18021.64 3.590423107147217 -1.3253607165864487 1.6152427832232874 -1.8606678448119105 -1.570796314870016 1.000684142112732 -0.5426844358444214 -0.01591557264328003 0.020345743745565414 -0.0034907814115285873 -0.0003404451417736709 -1.0554202795028687 1 True True
18021.69 3.563162088394165 -1.3262042862227936 1.6163023153888147 -1.8609782658019007 -1.5708649794207972 0.9482290744781494 -0.5419530868530273 -0.01469680480659008 0.02133883163332939 -0.006966577377170324 -0.000848485971800983 -1.0424317121505737 1 True True
18021.739999999998 3.5360300540924072 -1.3269889217666169 1.6174243132220667 -1.8611804447569789 -1.57082444826235 0.8959338068962097 -0.5470349788665771 -0.014422876760363579 0.020271599292755127 -0.009672955609858036 -0.0019850959070026875 -1.0475815534591675 1 True True
18021.79 3.509148359298706 -1.3278061312488099 1.6184027830706995 -1.8614031277098597 -1.5708044211017054 0.8435044288635254 -0.545298159122467 -0.014842255041003227 0.018060991540551186 -0.00757669797167182 8.84518085513264e-05 -1.0391197204589844 1 True True
18021.84 3.482142448425293 -1.328672469859459 1.6194294134723108 -1.86155428508901 -1.5707371870623987 0.7911577820777893 -0.5420555472373962 -0.01688782498240471 0.021079858765006065 -0.002959679812192917 0.0005299576441757381 -1.0503262281417847 1 True True
18021.89 3.4551501274108887 -1.3294833314469834 1.6204708258258265 -1.8618251285948695 -1.5707529226886194 0.7387782335281372 -0.5391472578048706 -0.017654648050665855 0.02272876910865307 -0.0027955682016909122 0.000991263659670949 -1.045036792755127 1 True True
18021.94 3.42806077003479 -1.3302257818034668 1.6215761343585413 -1.8620149097838343 -1.5707891623126429 0.6865411996841431 -0.5373334288597107 -0.01847759820520878 0.02352258190512657 -0.001457756501622498 0.0017817722400650382 -1.0465724468231201 1 True True
18021.989999999998 3.400787591934204 -1.3310685020736237 1.62250262895693 -1.8624378643431605 -1.5708335081683558 0.6341649889945984 -0.5376193523406982 -0.017277313396334648 0.02346537448465824 -0.002162124263122678 -6.40542057226412e-05 -1.0487102270126343 1 True True
18022.04 3.3735179901123047 -1.331761197452881 1.6236398855792444 -1.8626281223692835 -1.570881191884176 0.5817811489105225 -0.5445519685745239 -0.01627339795231819 0.020021971315145493 -0.005452240817248821 -0.0007804595516063273 -1.0501986742019653 1 True True
18022.09 3.3464467525482178 -1.3326172691634675 1.6246708075152796 -1.8628384075560511 -1.5708044211017054 0.5293506979942322 -0.5463219881057739 -0.01458765845745802 0.019249675795435905 -0.0055096508003771305 -0.0007600334356538951 -1.043608546257019 1 True True
18022.14 3.3193600177764893 -1.3334445816329499 1.6257432142840784 -1.8630458317198695 -1.570829216633932 0.47694942355155945 -0.5460394620895386 -0.014266935177147388 0.018804650753736496 -0.009534287266433239 -0.0010858617024496198 -1.0480437278747559 1 True True
18022.19 3.2924721240997314 -1.3342200082591553 1.6268075148211878 -1.8632599316039027 -1.5707290808307093 0.42469584941864014 -0.5436803102493286 -0.015785865485668182 0.020014530047774315 -0.006320318207144737 0.0006187892868183553 -1.0499731302261353 1 True True
18022.239999999998 3.265472412109375 -1.3351525974324723 1.627829376851217 -1.8634468517699183 -1.5707691351519983 0.37235063314437866 -0.5392295122146606 -0.017981991171836853 0.022470304742455482 -0.003206556895747781 0.0007196430233307183 -1.0433447360992432 1 True True
18022.29 3.2384183406829834 -1.3358631891063233 1.628951374684469 -1.8637973270811976 -1.5707929770099085 0.31994786858558655 -0.5376296043395996 -0.017224397510290146 0.022468002513051033 -0.0014949097530916333 0.0019552025478333235 -1.045299768447876 1 True True
18022.34 3.211151123046875 -1.3366564524224778 1.6299718062030237 -1.863967081109518 -1.5708406607257288 0.26764801144599915 -0.5373807549476624 -0.016693564131855965 0.021837646141648293 -0.0024805611465126276 -0.0001351462269667536 -1.0474673509597778 1 True True
18022.39 3.1844232082366943 -1.3374313426068802 1.6308935324298304 -1.8642860851683558 -1.5708287397967737 0.21597018837928772 -0.5177422165870667 -0.015623727813363075 0.019117115065455437 -0.004373552743345499 -3.398604167159647e-05 -0.9970587491989136 1 True True
18022.44 3.1592752933502197 -1.338183806543686 1.6319025198565882 -1.8645087681212367 -1.5708368460284632 0.16770707070827484 -0.4840908348560333 -0.012287668883800507 0.016028156504034996 -0.004645544569939375 -0.0009039265569299459 -0.9331468343734741 1 True True
18022.489999999998 3.1362006664276123 -1.338876948957779 1.632766071950094 -1.864631792108053 -1.5708048979388636 0.12294375896453857 -0.4496636390686035 -0.012700134888291359 0.015027347952127457 -0.007698364555835724 -0.0002220499882241711 -0.8595117330551147 1 True True
18022.54 3.115064859390259 -1.3395095628551026 1.6336639563189905 -1.8647743664183558 -1.5707653204547327 0.08158811181783676 -0.4160017669200897 -0.013002715073525906 0.014634935185313225 -0.0030419775284826756 0.0005397556233219802 -0.7953377962112427 1 True True
