Andreas691667/Digital_Twin_UR/data_analysis/test_results/robot_data/robot_output.csv
timestamp actual_q_0 actual_q_1 actual_q_2 actual_q_3 actual_q_4 actual_q_5 actual_qd_0 actual_qd_1 actual_qd_2 actual_qd_3 actual_qd_4 actual_qd_5 safety_status output_bit_register_65 output_bit_register_66
9934.127999999999 3.7120537757873535 -0.8254869145205994 0.8429845015155237 -1.588280817071432 -1.5707724730121058 2.141308546066284 0.0 0.0 0.0 -0.0 0.0 -0.0 1 False False
9934.178 3.712045907974243 -0.8254913848689576 0.8430083433734339 -1.5882932148375453 -1.570772949849264 2.141263246536255 0.0 0.0 0.0 -0.0 0.0 -0.0 1 False False
9934.228 3.7120742797851562 -0.8254869741252442 0.8429635206805628 -1.588280817071432 -1.5708335081683558 2.1413352489471436 0.0 0.0 0.0 -0.0 0.0 -0.0 1 False False
9934.278 3.712062358856201 -0.8255001467517395 0.8430050055133265 -1.5882932148375453 -1.5707686583148401 2.141263246536255 0.0 0.0 0.0 -0.0 0.0 -0.0 1 False False
9934.328 3.712090492248535 -0.8254780334285279 0.8429845015155237 -1.588245531121725 -1.570829216633932 2.1412994861602783 0.0 0.0 0.0 -0.0 0.0 -0.0 1 False False
9934.377999999999 3.712094783782959 -0.8254454296878357 0.8430007139789026 -1.5883175335326136 -1.5707605520831507 2.1412782669067383 0.0 0.0 0.0 -0.0 0.0 -0.0 1 False False
9934.428 3.712066650390625 -0.8254587215236207 0.8429845015155237 -1.5882650814452113 -1.5707967917071741 2.141313076019287 0.0 0.0 0.0 -0.0 0.0 -0.0 1 False False
9934.478 3.7120656967163086 -0.8255453866771241 0.8429678122149866 -1.588252683679098 -1.5707805792437952 2.141258955001831 0.0 0.0 0.0 -0.0 0.0 -0.0 1 False False
9934.528 3.7120425701141357 -0.8254736226848145 0.8429845015155237 -1.5882498226561488 -1.5707805792437952 2.141284227371216 0.0 0.0 0.0 -0.0 0.0 -0.0 1 False False
9934.578 3.7121036052703857 -0.8254823845675965 0.8429759184466761 -1.5883413753905238 -1.570801083241598 2.1412603855133057 0.0 0.0 0.0 -0.0 0.0 -0.0 1 False False
9934.627999999999 3.7120494842529297 -0.8254497808269043 0.8429845015155237 -1.5882932148375453 -1.570801083241598 2.141279697418213 0.0 0.0 0.0 -0.0 0.0 -0.0 1 False False
9934.678 3.7120862007141113 -0.8254823845675965 0.8430007139789026 -1.5883170566954554 -1.570772949849264 2.141296148300171 0.0 0.0 0.0 -0.0 0.0 -0.0 1 False False
9934.728 3.7120699882507324 -0.8254838150790711 0.8429496924029749 -1.5883094273009242 -1.5707891623126429 2.141230583190918 0.0 0.0 0.0 -0.0 0.0 -0.0 1 False False
9934.778 3.712082862854004 -0.8255126637271424 0.8429673353778284 -1.5883056126036585 -1.5708211104022425 2.1413049697875977 0.0 0.0 0.0 -0.0 0.0 -0.0 1 False False
9934.828 3.712118625640869 -0.8255126637271424 0.842992130910055 -1.588252683679098 -1.5707805792437952 2.141284227371216 0.0 0.0 0.0 -0.0 0.0 -0.0 1 False False
9934.877999999999 3.7120742797851562 -0.8254957360080262 0.8429630438434046 -1.5882488689818324 -1.5707605520831507 2.141270637512207 0.0 0.0 0.0 -0.0 0.0 -0.0 1 False False
9934.928 3.7120001316070557 -0.8255319756320496 0.8429630438434046 -1.5882774792113246 -1.5707486311541956 2.141296148300171 0.0 0.0 0.0 -0.0 0.0 -0.0 1 False False
9934.978 3.712099075317383 -0.8254956764033814 0.8430126349078577 -1.5882731876769007 -1.5707605520831507 2.141270637512207 0.0 0.0 0.0 -0.0 0.0 -0.0 1 False False
9935.028 3.7120907306671143 -0.8254780930331727 0.8429802099810999 -1.5882817707457484 -1.5707648436175745 2.1412765979766846 0.0 0.0 0.0 -0.0 0.0 -0.0 1 False False
9935.078 3.7120323181152344 -0.825463132267334 0.8429964224444788 -1.5882607899107875 -1.5707767645465296 2.1412765979766846 0.0 0.0 0.0 -0.0 0.0 -0.0 1 False False
9935.127999999999 3.7120532989501953 -0.8254913252643128 0.8429887930499476 -1.5882731876769007 -1.5708091894732874 2.141267776489258 0.0 0.0 0.0 -0.0 0.0 -0.0 1 False False
9935.178 3.7120862007141113 -0.8254661721042176 0.842992130910055 -1.588269372979635 -1.570784870778219 2.1412513256073 0.0 0.0 0.0 -0.0 0.0 -0.0 1 False False
9935.228 3.712078809738159 -0.8255365055850525 0.8430097738849085 -1.588268896142477 -1.570853058491842 2.1413092613220215 0.0 0.0 0.0 -0.0 0.0 -0.0 1 False False
9935.278 3.712095260620117 -0.825473741894104 0.8429845015155237 -1.5883094273009242 -1.5707686583148401 2.141242504119873 0.0 0.0 0.0 -0.0 0.0 -0.0 1 False False
9935.328 3.7120368480682373 -0.8254869741252442 0.8429630438434046 -1.588268896142477 -1.5707772413836878 2.141266107559204 0.0 0.0 0.0 -0.0 0.0 -0.0 1 False False
9935.377999999999 3.7121145725250244 -0.825536386375763 0.8430174032794397 -1.5882607899107875 -1.5708211104022425 2.141226291656494 0.0 0.0 0.0 -0.0 0.0 -0.0 1 False False
9935.428 3.712062358856201 -0.8254544299891968 0.8429563681231897 -1.5882607899107875 -1.570801083241598 2.141254186630249 0.0 0.0 0.0 -0.0 0.0 -0.0 1 False False
9935.478 3.712095260620117 -0.8254587811282654 0.8429845015155237 -1.5882650814452113 -1.5708211104022425 2.141279697418213 0.0 0.0 0.0 -0.0 0.0 -0.0 1 False False
9935.528 3.7120578289031982 -0.8254913252643128 0.842971150075094 -1.5882569752135218 -1.5707886854754847 2.141287088394165 0.0 0.0 0.0 -0.0 0.0 -0.0 1 False False
9935.578 3.712095022201538 -0.825482503776886 0.8429964224444788 -1.5883251629271449 -1.570784870778219 2.141258955001831 0.0 0.0 0.0 -0.0 0.0 -0.0 1 False False
9935.627999999999 3.712083101272583 -0.8254707020572205 0.8430174032794397 -1.5882331333556117 -1.5707967917071741 2.141296148300171 0.0 0.0 0.0 -0.0 0.0 -0.0 1 False False
9935.678 3.712123394012451 -0.8254588407329102 0.8429673353778284 -1.5882569752135218 -1.5708087126361292 2.1412513256073 0.0 0.0 0.0 -0.0 0.0 -0.0 1 False False
9935.728 3.7120652198791504 -0.8254293960383912 0.8429845015155237 -1.588245531121725 -1.5707891623126429 2.141313076019287 0.0 0.0 0.0 -0.0 0.0 -0.0 1 False False
9935.778 3.7120532989501953 -0.8254913252643128 0.8429754416095179 -1.5882607899107875 -1.570829216633932 2.141291618347168 0.0 0.0 0.0 -0.0 0.0 -0.0 1 False False
9935.828 3.712132453918457 -0.8254950207522889 0.8429845015155237 -1.5882369480528773 -1.570784870778219 2.141246795654297 0.0 0.0 0.0 -0.0 0.0 -0.0 1 False False
9935.877999999999 3.7120158672332764 -0.8254511517337342 0.8429845015155237 -1.5883056126036585 -1.5707925001727503 2.141258955001831 0.0 0.0 0.0 -0.0 0.0 -0.0 1 False False
9935.928 3.7120862007141113 -0.8254587811282654 0.8429754416095179 -1.588252683679098 -1.5708211104022425 2.141233205795288 0.0 0.0 0.0 -0.0 0.0 -0.0 1 False False
9935.978 3.712078809738159 -0.8255112928203125 0.8429845015155237 -1.5883175335326136 -1.570784870778219 2.14127516746521 0.0 0.0 0.0 -0.0 0.0 -0.0 1 False False
9936.028 3.7120697498321533 -0.8254555028728028 0.8429964224444788 -1.588252683679098 -1.5707967917071741 2.14131760597229 0.0 0.0 0.0 -0.0 0.0 -0.0 1 False False
9936.078 3.712062358856201 -0.8254295152476807 0.8429845015155237 -1.588252683679098 -1.5708254019366663 2.141263246536255 0.0 0.0 0.0 -0.0 0.0 -0.0 1 False False
9936.127999999999 3.7120203971862793 -0.8254166406444092 0.8429802099810999 -1.5882488689818324 -1.570801083241598 2.141287088394165 0.0 0.0 0.0 -0.0 0.0 -0.0 1 False False
9936.178 3.712116003036499 -0.8254869741252442 0.8429802099810999 -1.5882288418211878 -1.5708296934710901 2.141284227371216 0.0 0.0 0.0 -0.0 0.0 -0.0 1 False False
9936.228 3.712036609649658 -0.8254468601993104 0.8429964224444788 -1.5882889233031214 -1.5707967917071741 2.14127516746521 0.0 0.0 0.0 -0.0 0.0 -0.0 1 False False
9936.278 3.7120578289031982 -0.8254999083331604 0.8429845015155237 -1.588252683679098 -1.5707686583148401 2.141230583190918 0.0 0.0 0.0 -0.0 0.0 -0.0 1 False False
9936.328 3.712095260620117 -0.8254500192454834 0.8430336157428187 -1.5882607899107875 -1.5707891623126429 2.141286849975586 0.0 0.0 0.0 -0.0 0.0 -0.0 1 False False
9936.377999999999 3.712036609649658 -0.8255041402629395 0.8429845015155237 -1.5882817707457484 -1.5707162062274378 2.141334056854248 0.0 0.0 0.0 -0.0 0.0 -0.0 1 False False
9936.428 3.7120862007141113 -0.8254869741252442 0.8429673353778284 -1.5882774792113246 -1.5707882086383265 2.141202211380005 0.0 0.0 0.0 -0.0 0.0 -0.0 1 False False
9936.478 3.7120816707611084 -0.8254383367351075 0.8430007139789026 -1.5882817707457484 -1.5707724730121058 2.141270637512207 0.0 0.0 0.0 -0.0 0.0 -0.0 1 False False
9936.528 3.712116003036499 -0.8254545491984864 0.8429587523089808 -1.5882851086058558 -1.570801083241598 2.141279697418213 0.0 0.0 0.0 -0.0 0.0 -0.0 1 False False
9936.578 3.7120249271392822 -0.8254707616618653 0.8429716269122522 -1.5882932148375453 -1.5707891623126429 2.1413040161132812 0.0 0.0 0.0 -0.0 0.0 -0.0 1 False False
9936.627999999999 3.7121236324310303 -0.8254707616618653 0.8430007139789026 -1.5883051357665003 -1.5708006064044397 2.141296148300171 0.0 0.0 0.0 -0.0 0.0 -0.0 1 False False
9936.678 3.712062358856201 -0.8254630726626893 0.8429678122149866 -1.5882774792113246 -1.5707719961749476 2.141246795654297 0.0 0.0 0.0 -0.0 0.0 -0.0 1 False False
9936.728 3.7120487689971924 -0.8254993718913575 0.8429549376117151 -1.588273664514059 -1.5708254019366663 2.141291618347168 0.0 0.0 0.0 -0.0 0.0 -0.0 1 False False
9936.778 3.7121026515960693 -0.8254264754107972 0.8429802099810999 -1.588292738000387 -1.5708296934710901 2.1413040161132812 0.0 0.0 0.0 -0.0 0.0 -0.0 1 False False
9936.828 3.7120532989501953 -0.825463132267334 0.8429678122149866 -1.588273664514059 -1.5707882086383265 2.141287088394165 0.0 0.0 0.0 -0.0 0.0 -0.0 1 False False
9936.877999999999 3.7121191024780273 -0.8255040806582947 0.8429721037494105 -1.5883370838561 -1.570772949849264 2.141263246536255 0.0 0.0 0.0 -0.0 0.0 -0.0 1 False False
9936.928 3.7120862007141113 -0.8254825633815308 0.8430050055133265 -1.5883094273009242 -1.5708168188678187 2.141258955001831 0.0 0.0 0.0 -0.0 0.0 -0.0 1 False False
9936.978 3.7120413780212402 -0.8255037826350708 0.8430007139789026 -1.5882650814452113 -1.570784870778219 2.1413087844848633 0.0 0.0 0.0 -0.0 0.0 -0.0 1 False False
9937.028 3.7120907306671143 -0.8254954975894471 0.8429716269122522 -1.588320871392721 -1.5708044211017054 2.141226053237915 0.0 0.0 0.0 -0.0 0.0 -0.0 1 False False
9937.078 3.7120578289031982 -0.8254708212665101 0.8429678122149866 -1.5882774792113246 -1.570772949849264 2.14127516746521 0.0 0.0 0.0 -0.0 0.0 -0.0 1 False False
9937.127999999999 3.7121355533599854 -0.8254954975894471 0.8429678122149866 -1.5882450542845667 -1.5707491079913538 2.1412603855133057 0.0 0.0 0.0 -0.0 0.0 -0.0 1 False False
9937.178 3.712078809738159 -0.8254707616618653 0.8429678122149866 -1.5883408985533656 -1.5707929770099085 2.141263246536255 0.0 0.0 0.0 -0.0 0.0 -0.0 1 False False
9937.228 3.7120773792266846 -0.8254954975894471 0.8429721037494105 -1.5882650814452113 -1.5707686583148401 2.1412930488586426 0.0 0.0 0.0 -0.0 0.0 -0.0 1 False False
9937.278 3.712083101272583 -0.8254792851260682 0.8429635206805628 -1.5882812939085902 -1.5708048979388636 2.141284227371216 0.0 0.0 0.0 -0.0 0.0 -0.0 1 False False
9937.328 3.7120492458343506 -0.825430766945221 0.8429835478412073 -1.588273664514059 -1.5707810560809534 2.141263246536255 0.0 0.0 0.0 -0.0 0.0 -0.0 1 False False
9937.377999999999 3.7120535373687744 -0.8254144948771973 0.8429964224444788 -1.5882655582823695 -1.5708211104022425 2.141263246536255 0.0 0.0 0.0 -0.0 0.0 -0.0 1 False False
9937.428 3.7120535373687744 -0.8254869741252442 0.842992130910055 -1.5882851086058558 -1.570801083241598 2.141247034072876 0.0 0.0 0.0 -0.0 0.0 -0.0 1 False False
9937.478 3.7120773792266846 -0.8254793447307129 0.8430050055133265 -1.588341852227682 -1.5707805792437952 2.141254186630249 0.0 0.0 0.0 -0.0 0.0 -0.0 1 False False
9937.528 3.7120819091796875 -0.825430766945221 0.8430503050433558 -1.5883013210692347 -1.570768181477682 2.141247034072876 0.0 0.0 0.0 -0.0 0.0 -0.0 1 True False
9937.578 3.7120535373687744 -0.8254707616618653 0.8430007139789026 -1.5882731876769007 -1.570772949849264 2.141258955001831 0.0 0.0 0.0 -0.0 0.0 -0.0 1 True False
9937.627999999999 3.712111234664917 -0.8255037826350708 0.8430169264422815 -1.5883218250670375 -1.570801083241598 2.14131760597229 0.0 0.0 0.0 -0.0 0.0 -0.0 1 True False
9937.678 3.7120981216430664 -0.8254383963397522 0.8429759184466761 -1.5882817707457484 -1.5707724730121058 2.141313076019287 0.0 0.0 0.0 -0.0 0.0 -0.0 1 True False
9937.728 3.7120699882507324 -0.8254673641971131 0.8429935614215296 -1.5882889233031214 -1.5707891623126429 2.141287088394165 0.0 0.0 0.0 -0.0 0.0 -0.0 1 True False
9937.778 3.7120611667633057 -0.8254793447307129 0.8429845015155237 -1.588252683679098 -1.5707929770099085 2.1412723064422607 0.0 0.0 0.0 -0.0 0.0 -0.0 1 True False
9937.828 3.712131977081299 -0.8254264754107972 0.8429673353778284 -1.5883289776244105 -1.570801083241598 2.141270637512207 0.0 0.0 0.0 -0.0 0.0 -0.0 1 True False
9937.877999999999 3.7120537757873535 -0.8254468601993104 0.8430350462542933 -1.5882731876769007 -1.5707648436175745 2.141230583190918 0.0 0.0 0.0 -0.0 0.0 -0.0 1 True False
9937.928 3.7120370864868164 -0.8254059714129944 0.8430174032794397 -1.588269372979635 -1.5708211104022425 2.1412765979766846 0.0 0.0 0.0 -0.0 0.0 -0.0 1 True False
9937.978 3.71207857131958 -0.82541777313266 0.8429802099810999 -1.588320871392721 -1.5708368460284632 2.1412229537963867 0.0 0.0 0.0 -0.0 0.0 -0.0 1 True False
9938.028 3.7120537757873535 -0.8254793447307129 0.8430245558368128 -1.5882731876769007 -1.570824925099508 2.14127516746521 0.0 0.0 0.0 -0.0 0.0 -0.0 1 True False
9938.078 3.71201753616333 -0.8254707616618653 0.8430174032794397 -1.5882932148375453 -1.5707767645465296 2.141295909881592 0.0 0.0 0.0 -0.0 0.0 -0.0 1 True False
9938.127999999999 3.7120580673217773 -0.8254955571940918 0.8429430166827601 -1.5883575878539027 -1.5707648436175745 2.141345977783203 0.0 0.0 0.0 -0.0 0.0 -0.0 1 True False
9938.178 3.7120819091796875 -0.8255242270282288 0.8430007139789026 -1.5882846317686976 -1.570829216633932 2.1413004398345947 0.02821318432688713 -0.015992211177945137 0.006532609928399324 -0.0 0.0 0.00599758792668581 1 True False
9938.228 3.714144468307495 -0.8268940013698121 0.8450282255755823 -1.5887953243651332 -1.5707843939410608 2.1433229446411133 0.07055255025625229 -0.05390721186995506 0.0781509280204773 -0.019450634717941284 0.0 0.07134020328521729 1 True False
9938.278 3.719226360321045 -0.8310542863658448 0.8510411421405237 -1.5904461346068324 -1.5708044211017054 2.1483473777770996 0.13125304877758026 -0.11073167622089386 0.15127043426036835 -0.03978925943374634 0.0 0.1280665546655655 1 True False
9938.328 3.727290153503418 -0.8379815381816407 0.8602631727801722 -1.5932141743102015 -1.570813004170553 2.1564385890960693 0.18981370329856873 -0.15892693400382996 0.2194235771894455 -0.05729227885603905 0.0 0.1894274353981018 1 True False
9938.377999999999 3.7385096549987793 -0.8470792335322876 0.8731649557696741 -1.5966555080809535 -1.5708087126361292 2.1676526069641113 0.250901460647583 -0.2047613561153412 0.28620702028274536 -0.08325301110744476 0.0 0.2574440538883209 1 True False
9938.428 3.7526016235351562 -0.858828143482544 0.8893187681781214 -1.6012608013548792 -1.5707805792437952 2.1817731857299805 0.3104824721813202 -0.25847959518432617 0.35933828353881836 -0.08947128057479858 7.335773261729628e-05 0.3080807626247406 1 True False
9938.478 3.769942283630371 -0.8731394571116944 0.9091914335833948 -1.6067749462523402 -1.5708416144000452 2.1990764141082764 0.37522828578948975 -0.306954950094223 0.42476797103881836 -0.12818334996700287 3.0723999733250906e-11 0.3757994771003723 1 True False
9938.528 3.790151834487915 -0.889785961513855 0.932220760975973 -1.6132704220213832 -1.5707767645465296 2.21943998336792 0.4348319172859192 -0.3602266311645508 0.499043345451355 -0.14327681064605713 7.007990643614903e-05 0.43022421002388 1 True False
9938.578 3.813735246658325 -0.9090781372836609 0.958996597920553 -1.6207386455931605 -1.5707371870623987 2.2427010536193848 0.5004307627677917 -0.4014003574848175 0.5651436448097229 -0.1730392873287201 1.986101890656439e-15 0.4990885555744171 1 True False
9938.627999999999 3.839953660964966 -0.9306933444789429 0.9890883604632776 -1.6291715107359828 -1.570824925099508 2.2689900398254395 0.5572625994682312 -0.45528948307037354 0.6436161994934082 -0.17412298917770386 -0.0001563029654789716 0.5633732080459595 1 True False
9938.678 3.8694097995758057 -0.9551907938769837 1.0227263609515589 -1.6386386356749476 -1.5707967917071741 2.2985846996307373 0.6123477816581726 -0.5104545950889587 0.7069143056869507 -0.19427332282066345 -0.00011481259571155533 0.619989275932312 1 True False
9938.728 3.901944398880005 -0.9817027610591431 1.0600240866290491 -1.6489869556822718 -1.570796314870016 2.3310837745666504 0.6759599447250366 -0.5620256066322327 0.7765195965766907 -0.22969689965248108 -1.27681230308411e-16 0.6827493906021118 1 True False
9938.778 3.9376423358917236 -1.0113009971431275 1.1006434599505823 -1.6603366337218226 -1.5708087126361292 2.366748332977295 0.7373701333999634 -0.6131966710090637 0.8432614803314209 -0.23546312749385834 -0.0001704963797237724 0.7454394102096558 1 True False
9938.828 3.9761438369750977 -1.0429016512683411 1.1449535528766077 -1.6724358997740687 -1.5707405249225062 2.4054386615753174 0.8072980642318726 -0.6614664793014526 0.9110725522041321 -0.24674773216247559 -8.224798511946574e-05 0.8055931925773621 1 True False
9938.877999999999 4.0179572105407715 -1.0772944253734131 1.1924460569964808 -1.6860271892943324 -1.570813004170553 2.447195053100586 0.8629659414291382 -0.7143189311027527 0.9814730882644653 -0.28182438015937805 1.787558721844107e-05 0.8537026047706604 1 True False
9938.928 4.062732696533203 -1.114096687441208 1.2435901800738733 -1.700242658654684 -1.5707443396197718 2.4918572902679443 0.9021245837211609 -0.7516455054283142 1.0419200658798218 -0.2863757610321045 2.5796748216040306e-21 0.9194166660308838 1 True False
9938.978 4.1084675788879395 -1.151844636803009 1.29592210451235 -1.7149139843382777 -1.570801083241598 2.537832736968994 0.9197035431861877 -0.7541553974151611 1.045981526374817 -0.2958125174045563 -0.0002108025801135227 0.9151245951652527 1 True False
9939.028 4.15424108505249 -1.1895421010306855 1.3482540289508265 -1.7294351063170375 -1.5708816687213343 2.583298444747925 0.910052478313446 -0.7486764788627625 1.05392324924469 -0.2829527258872986 -0.00031802442390471697 0.9171234965324402 1 True False
9939.078 4.200070858001709 -1.227319137459137 1.4007533232318323 -1.743910928765768 -1.5708211104022425 2.629373073577881 0.9166208505630493 -0.7544742226600647 1.0511683225631714 -0.28754255175590515 -9.868243201061694e-18 0.9161736369132996 1 True False
9939.127999999999 4.245993614196777 -1.2650369864753266 1.4530866781817835 -1.7587176762022914 -1.5708168188678187 2.675102710723877 0.9130666851997375 -0.7559118866920471 1.0427415370941162 -0.31640592217445374 1.7384594874769732e-09 0.9131397008895874 1 True False
9939.178 4.29179573059082 -1.3026611667922516 1.5052374045001429 -1.7734385929503382 -1.5707805792437952 2.720978260040283 0.9232681393623352 -0.7562728524208069 1.0403424501419067 -0.3119528889656067 0.0006783847347833216 0.9196033477783203 1 True False
9939.228 4.337574005126953 -1.3404188466123124 1.557606045399801 -1.7880665264525355 -1.570829216633932 2.766749382019043 0.8937565088272095 -0.7393491268157959 1.0432407855987549 -0.2765231430530548 9.855283877868715e-08 0.9025402069091797 1 True False
9939.278 4.381302833557129 -1.3765171331218262 1.607760254536764 -1.8021155796446742 -1.5707648436175745 2.810541868209839 0.8485307097434998 -0.6980641484260559 0.9720609784126282 -0.27357709407806396 -1.0806459613377228e-05 0.8572118878364563 1 True False
9939.328 4.422119140625 -1.4101616156152268 1.6543892065631312 -1.8149754009642542 -1.570813004170553 2.8514816761016846 0.78605717420578 -0.6419264078140259 0.9011253118515015 -0.25188276171684265 6.520226452266797e-05 0.7838132381439209 1 True False
9939.377999999999 4.459860801696777 -1.4411961150220414 1.6975811163531702 -1.827029367486471 -1.5707929770099085 2.88912034034729 0.7202089428901672 -0.591566801071167 0.8241643905639648 -0.24272224307060242 0.0001396511070197448 0.7155625224113464 1 True False
9939.428 4.494610786437988 -1.4697909218123932 1.7371447722064417 -1.8380090198912562 -1.5708211104022425 2.923795461654663 0.6597619652748108 -0.5411695241928101 0.7663059234619141 -0.18798010051250458 3.7906563221667966e-08 0.6620147228240967 1 True False
9939.478 4.526197910308838 -1.4957950574210663 1.7730782667743128 -1.8482228718199671 -1.5708492437945765 2.9553651809692383 0.6010209321975708 -0.49598804116249084 0.6934713125228882 -0.18862295150756836 -0.0002594133256934583 0.6057332158088684 1 True False
9939.528 4.55484676361084 -1.519250014131405 1.8056462446795862 -1.857405801812643 -1.5708254019366663 2.983973503112793 0.5392130613327026 -0.4433085322380066 0.620660662651062 -0.17020286619663239 -9.927935752784833e-05 0.540755033493042 1 True False
9939.578 4.580269813537598 -1.5403317560306569 1.8349998633014124 -1.8655239544310511 -1.5708616415606897 3.009641170501709 0.4825855791568756 -0.38954922556877136 0.5451391935348511 -0.1474454402923584 -0.0005665567005053163 0.47373536229133606 1 True False
9939.627999999999 4.6027045249938965 -1.5586681051975866 1.8608368078814905 -1.872512002984518 -1.5708492437945765 3.0320417881011963 0.4179530441761017 -0.34800252318382263 0.4842595160007477 -0.11712384223937988 3.500573802739382e-05 0.4224075973033905 1 True False
9939.678 4.622212886810303 -1.574878831902975 1.882651154194967 -1.8789683781065882 -1.570829216633932 3.051362991333008 0.3549380898475647 -0.2940073013305664 0.4075547754764557 -0.11448106914758682 5.317378462792837e-24 0.3630072772502899 1 True False
9939.728 4.638507843017578 -1.5882412395873011 1.9012716452227991 -1.8843075237669886 -1.5708168188678187 3.067805528640747 0.2983495593070984 -0.25227099657058716 0.3340420722961426 -0.09806007891893387 -1.3860530358547098e-14 0.2983214855194092 1 True False
9939.778 4.651872158050537 -1.5991116962828578 1.9169309774981897 -1.8881474934019984 -1.5707605520831507 3.08088755607605 0.23426507413387299 -0.19130989909172058 0.26922938227653503 -0.08247973769903183 5.16897809277328e-12 0.23849622905254364 1 True False
9939.828 4.661984443664551 -1.607586523095602 1.9283140341388147 -1.8916288814940394 -1.570813004170553 3.0913095474243164 0.17742720246315002 -0.14308589696884155 0.20296254754066467 -0.053980886936187744 2.922379135558706e-12 0.1754641979932785 1 True False
9939.877999999999 4.669265270233154 -1.6135264835753382 1.9365394751178187 -1.8938833675780238 -1.5708492437945765 3.0985267162323 0.11488108336925507 -0.09752456843852997 0.12772215902805328 -0.037214476615190506 4.43909831023058e-31 0.11282126605510712 1 True False
9939.928 4.673399925231934 -1.616908689538473 1.9413049856769007 -1.8952323398985804 -1.5707724730121058 3.102637529373169 0.0534011647105217 -0.04362846165895462 0.06487073749303818 -0.018662601709365845 0.0 0.052053604274988174 1 True False
9939.978 4.674442768096924 -1.6177731953062953 1.9426043669330042 -1.8955675564207972 -1.5707929770099085 3.1036863327026367 0.001959746005013585 0.00576169416308403 0.014165781438350677 -0.003667084965854883 0.0 -0.003234799951314926 1 True False
9940.028 4.6743693351745605 -1.6169568500914515 1.9440420309649866 -1.8978601894774378 -1.5707925001727503 3.1037280559539795 0.0006009956123307347 0.027153145521879196 0.047404684126377106 -0.07243794947862625 0.0 0.0005799811333417892 1 True False
9940.078 4.674418926239014 -1.6148492298521937 1.947674576436178 -1.9036885700621546 -1.5707967917071741 3.103748083114624 0.0005663511110469699 0.05746585875749588 0.09465239942073822 -0.1598237305879593 0.0 0.0007097650086507201 1 True False
9940.127999999999 4.674495697021484 -1.6113373241820277 1.9532855192767542 -1.9128858051695765 -1.570784870778219 3.103692054748535 0.0007722728187218308 0.08823318034410477 0.1326172649860382 -0.21494686603546143 0.0 0.00019684270955622196 1 True False
9940.178 4.674502849578857 -1.606293340722555 1.9611170927630823 -1.9255768261351527 -1.5708168188678187 3.1037392616271973 0.0003231933806091547 0.11441341042518616 0.17922747135162354 -0.297174334526062 0.0 0.0001373010891256854 1 True False
9940.228 4.674540042877197 -1.6000787220396937 1.971097771321432 -1.9419499836363734 -1.5707886854754847 3.1037344932556152 0.0001406708179274574 0.13855594396591187 0.22202801704406738 -0.349972665309906 8.467977632625393e-17 0.00010903696966124699 1 True False
9940.278 4.674466609954834 -1.5923978290953578 1.9835718313800257 -1.9615117512144984 -1.5708416144000452 3.103692054748535 9.938877337845042e-05 0.16211099922657013 0.26276060938835144 -0.43271705508232117 1.2862884242043195e-35 7.610570901306346e-05 1 True False
9940.328 4.67452335357666 -1.5835763416686 1.9974644819842737 -1.984635969201559 -1.5707486311541956 3.103705644607544 7.127730350475758e-05 0.19053301215171814 0.3129124641418457 -0.48994970321655273 0.0 4.6864174030181674e-18 1 True False
9940.377999999999 4.674514293670654 -1.5734755001463832 2.0140469709979456 -2.0114814243712367 -1.570784870778219 3.103710174560547 3.133641803287901e-05 0.22045324742794037 0.3440476953983307 -0.5634557604789734 0.0 7.105817236702228e-12 1 True False
9940.428 4.6744866371154785 -1.56199403226886 2.032112423573629 -2.04071106533193 -1.5707972685443323 3.103739023208618 -9.206350091974846e-32 0.21426044404506683 0.35325682163238525 -0.560436487197876 0.0 1.0793756823883181e-30 1 True False
9940.478 4.674593925476074 -1.5517899853042145 2.048622433339254 -2.0675579510130824 -1.5707891623126429 3.103760004043579 0.0 0.19458341598510742 0.3073422312736511 -0.4915229082107544 0.0 0.0 1 True False
9940.528 4.674498558044434 -1.5428763081184407 2.0626686255084437 -2.0907751522459925 -1.5708449522601526 3.103760004043579 0.0 0.17120912671089172 0.2673643231391907 -0.4311715364456177 0.0 0.0 1 True False
9940.578 4.674527645111084 -1.5352495995214959 2.0751007238971155 -2.110446115533346 -1.5708048979388636 3.1037354469299316 0.0 0.13993637263774872 0.21870356798171997 -0.3666885197162628 0.0 3.5024966952478193e-15 1 True False
9940.627999999999 4.674612045288086 -1.5290070858648797 2.0849536100970667 -2.12692989925527 -1.5707891623126429 3.1037299633026123 0.0 0.10951738059520721 0.180479034781456 -0.29736557602882385 0.0 5.320300288791135e-34 1 True False
9940.678 4.674493789672852 -1.52401506275449 2.0928366819964808 -2.1396566830077113 -1.570801083241598 3.103717565536499 0.0 0.08427463471889496 0.13868829607963562 -0.22977972030639648 0.0 0.0 1 True False
9940.728 4.674527645111084 -1.520489053135254 2.098639790211813 -2.1488381824889125 -1.5707886854754847 3.103696584701538 0.0 0.05929655209183693 0.09322161972522736 -0.14893361926078796 0.0 0.0 1 True False
9940.778 4.6745100021362305 -1.5182756458273907 2.102225128804342 -2.1546832523741664 -1.5707562605487269 3.103748083114624 0.0 0.03079419955611229 0.04806831479072571 -0.07812004536390305 -2.631877396197524e-05 0.0 1 True False
9940.828 4.674519062042236 -1.5173931953362008 2.1036790052997034 -2.1569181881346644 -1.5708211104022425 3.1037299633026123 0.0 0.0026679469738155603 0.007910576649010181 -0.01204267330467701 -5.432976443578408e-18 0.0 1 True False
9940.877999999999 4.6744866371154785 -1.5174054999700566 2.1036375204669397 -2.156910558740133 -1.5707843939410608 3.1037344932556152 0.0 -1.7893796167012255e-10 -2.2019805328454822e-05 1.4048731795945901e-12 -8.252703591812095e-37 0.0 1 True False
9940.928 4.674549102783203 -1.5174591441503544 2.1037071386920374 -2.1569425068297328 -1.570813004170553 3.10367751121521 0.0 0.0006046275957487524 0.00010791011300170794 -0.00036213136627338827 -0.0 -4.368810186861083e-05 1 True False
9940.978 4.674540042877197 -1.5174816113761445 2.103649441395895 -2.1570102177061976 -1.5708168188678187 3.103705644607544 0.0 0.00021250612917356193 7.062670920277014e-05 -0.000578101840801537 -0.0 -5.3418575118868716e-11 1 True False
9941.028 4.6745524406433105 -1.517423478221037 2.1036375204669397 -2.157074113885397 -1.5708048979388636 3.103726625442505 0.0 0.00047711009392514825 5.3485975513467565e-05 -0.0005323193618096411 -0.0 -8.114294939771383e-30 1 True False
9941.078 4.674565315246582 -1.5174427789500733 2.10366660753359 -2.1570140324034632 -1.5708168188678187 3.103743553161621 0.0 0.00020914108608849347 4.7694167733425274e-05 -0.00017078767996281385 -0.0 -0.0 1 True False
9941.127999999999 4.6745524406433105 -1.5174324300936242 2.103628937398092 -2.157066961328024 -1.5707925001727503 3.103792428970337 0.0 0.00013999170914757997 5.5217697081388906e-05 -0.0001163330307463184 -0.0 -0.0 1 True False
9941.178 4.674499988555908 -1.5173828986338158 2.103666130696432 -2.1570540867247523 -1.57074481645693 3.103722095489502 -3.1112355713958095e-07 0.00010983732499880716 5.4254275576896015e-24 -8.286108641186729e-05 -0.0 -0.0 1 True False
9941.228 4.674540042877197 -1.5174279895475884 2.1036623159991663 -2.1570903263487757 -1.5708406607257288 3.103776216506958 0.0 6.346270674839616e-05 0.0 -5.216034133387818e-21 -0.0 -0.0 1 True False
9941.278 4.674474716186523 -1.517415703540184 2.103671375905172 -2.157018323937887 -1.5708492437945765 3.1037344932556152 0.0 0.0 0.0 -7.923165725046808e-40 -0.0 -0.0 1 True False
9941.328 4.674519062042236 -1.5174201440862198 2.1036489645587366 -2.1570140324034632 -1.570801083241598 3.103747844696045 0.0 0.0 0.0 -0.0 -0.0 -0.0 1 True False
9941.377999999999 4.674531936645508 -1.5173111346415062 2.1036985556231897 -2.1570502720274867 -1.570784870778219 3.1037309169769287 0.0 0.0 3.6485292959805315e-21 -0.0 -0.0 -0.0 1 True False
9941.428 4.67450475692749 -1.5175056842020531 2.1034653822528284 -2.157274385491842 -1.5708044211017054 3.103713035583496 0.0 -3.6834284401265904e-05 0.00030285524553619325 -0.002171503147110343 8.764710401010234e-06 -0.0002526483149267733 1 True False
9941.478 4.674511909484863 -1.5174457368305703 2.1035459677325647 -2.1572095356383265 -1.5708449522601526 3.103767156600952 0.0 0.00044736918061971664 0.0008192083914764225 -1.3454902614284947e-07 1.331360845564341e-24 -8.811919542495161e-05 1 True False
9941.528 4.674531936645508 -1.5174576391330739 2.1035426298724573 -2.1572700939574183 -1.5707886854754847 3.103696823120117 0.0 0.0007076911279000342 0.0016187081346288323 0.0009577861637808383 3.66149797628168e-05 -4.8522113502258435e-05 1 True True
9941.578 4.6745076179504395 -1.5175995056382199 2.1033228079425257 -2.1563874683775843 -1.5708087126361292 3.1037302017211914 0.0 -0.01303558424115181 -0.017175370827317238 0.040856074541807175 0.0009590605041012168 -4.4639527914114296e-05 1 True True
9941.627999999999 4.674499988555908 -1.5187987138381978 2.1013878027545374 -2.1525737247862757 -1.570772949849264 3.103750705718994 -1.961817850054744e-44 -0.0477067232131958 -0.07192922383546829 0.09623401612043381 0.0002867854491341859 -1.6350263745959959e-16 1 True True
9941.678 4.674487113952637 -1.5217869964293023 2.096548382435934 -2.145273824731344 -1.5707772413836878 3.103726625442505 0.0 -0.07125745713710785 -0.11192148178815842 0.1751449853181839 -2.7134256015415303e-05 -1.0752524753043747e-16 1 True True
9941.728 4.674535751342773 -1.526007280950882 2.0897420088397425 -2.134432931939596 -1.5707772413836878 3.103776216506958 0.0 -0.09580611437559128 -0.15512876212596893 0.25578930974006653 -0.00020842908998019993 -1.633310513874664e-35 1 True True
9941.778 4.674544334411621 -1.5315325197628518 2.08096152940859 -2.1201816997923792 -1.570772949849264 3.103776216506958 0.0 -0.11827549338340759 -0.19229470193386078 0.3262174725532532 -0.00019377455464564264 -0.0 1 True True
9941.828 4.674531936645508 -1.5383810859969635 2.0699079672442835 -2.1024023495116175 -1.570801083241598 3.1037087440490723 0.0 -0.14812996983528137 -0.23933924734592438 0.38279733061790466 -0.0001942369999596849 -0.0 1 True True
9941.877999999999 4.67452335357666 -1.5465438582799216 2.0568693319903772 -2.0810376606383265 -1.5708087126361292 3.103783369064331 0.0 -0.17903199791908264 -0.28208282589912415 0.45032259821891785 -0.00012562857591547072 -4.684242594521493e-05 1 True True
9941.928 4.674511909484863 -1.556040183906891 2.0416534582721155 -2.0562387905516566 -1.5707686583148401 3.103713274002075 0.0 -0.20338276028633118 -0.32458963990211487 0.5217929482460022 -3.786875095102005e-05 -2.035128818533849e-05 1 True True
9941.978 4.674516201019287 -1.5670491205858816 2.0241344610797327 -2.028027196923727 -1.5707524458514612 3.103673219680786 0.0 -0.22980476915836334 -0.361189067363739 0.6003321409225464 -2.4026378014241345e-05 -1.3001018487557303e-05 1 True True
9942.028 4.674498558044434 -1.5779334507384242 2.006528679524557 -1.999380727807516 -1.570813004170553 3.103726387023926 0.0 -0.20511014759540558 -0.3362632989883423 0.537777841091156 3.4875611163442954e-05 -6.14669183968922e-23 1 True True
9942.078 4.6745076179504395 -1.5876475773253382 1.9912069479571741 -1.974192281762594 -1.570784870778219 3.1037309169769287 0.0 -0.18149136006832123 -0.28438958525657654 0.47713303565979004 1.1750478734029457e-05 -9.336851667796256e-42 1 True True
9942.127999999999 4.674565315246582 -1.5959459743895472 1.977750603352682 -1.9524685345091761 -1.5708168188678187 3.1037302017211914 0.0 -0.15003347396850586 -0.2454538196325302 0.40286797285079956 3.3887724847385045e-14 -0.0 1 True True
9942.178 4.674527645111084 -1.6029416523375453 1.966532055531637 -1.9342366657652796 -1.5707767645465296 3.103739023208618 0.0 -0.12400442361831665 -0.20532278716564178 0.33957937359809875 5.147554781782077e-33 -0.0 1 True True
9942.228 4.674522399902344 -1.6085401974120082 1.957517449055807 -1.919553895989889 -1.570845905934469 3.1037344932556152 0.0 -0.09856149554252625 -0.16804955899715424 0.26073601841926575 0.0 -0.0 1 True True
9942.278 4.674499034881592 -1.6128784618773402 1.9506877104388636 -1.9084817371764125 -1.570784870778219 3.103722095489502 0.0 -0.07455523312091827 -0.11767499893903732 0.19507862627506256 0.0 -0.0 1 True True
9942.328 4.67457389831543 -1.6158505878844203 1.94578725496401 -1.9006267986693324 -1.5707805792437952 3.103713035583496 0.0 -0.04724662005901337 -0.07751443237066269 0.1300475001335144 0.0 -0.0 1 True True
9942.377999999999 4.674531936645508 -1.6174918613829554 1.9432051817523401 -1.8965050182738246 -1.570756737385885 3.103739023208618 0.0 -0.020059708505868912 -0.029691597446799278 0.053347427397966385 0.0 -0.0 1 True True
9942.428 4.674420356750488 -1.617828985253805 1.9427631537066858 -1.895555158654684 -1.5707648436175745 3.103508234024048 -0.025536460801959038 0.005502934101969004 -0.003900233656167984 -2.374217365286313e-05 0.0 -0.022514034062623978 1 True True
9942.478 4.671745300292969 -1.6171227894225062 1.9417293707477015 -1.895491739312643 -1.5707891623126429 3.1007933616638184 -0.08803233504295349 0.02070636861026287 -0.027840690687298775 0.008837517350912094 2.8564862657171194e-17 -0.08832447230815887 1 True True
9942.528 4.665435314178467 -1.6155296764769496 1.9396761099444788 -1.8950525722899378 -1.5707648436175745 3.094526767730713 -0.16096651554107666 0.04251451790332794 -0.051545340567827225 0.006852427497506142 4.3390094428941164e-36 -0.15818461775779724 1 True True
9942.578 4.655700206756592 -1.6130053005614222 1.9366644064532679 -1.8944894276061 -1.5707610289203089 3.084975481033325 -0.23007570207118988 0.06227421015501022 -0.07019136101007462 0.011484531685709953 0.0 -0.2281775176525116 1 True True
9942.627999999999 4.642353057861328 -1.6093551121153773 1.9323590437518519 -1.893806596795553 -1.5708168188678187 3.0716867446899414 -0.2951260507106781 0.08350036293268204 -0.0964653342962265 0.014189892448484898 -8.653207623865455e-05 -0.2996373474597931 1 True True
9942.678 4.62575626373291 -1.6049586735167445 1.927150074635641 -1.8929325542845667 -1.5707767645465296 3.0549068450927734 -0.36963847279548645 0.09857674688100815 -0.11329717189073563 0.02068663202226162 1.2952940053878592e-08 -0.3671203553676605 1 True True
9942.728 4.6053996086120605 -1.5995460949339808 1.9206374327289026 -1.8919393024840296 -1.570853058491842 3.0346298217773438 -0.43747514486312866 0.11472208797931671 -0.13770143687725067 0.02776120975613594 -0.00017261567700188607 -0.4357033669948578 1 True True
9942.778 4.581722259521484 -1.5932871303954066 1.9130099455462855 -1.8906575642027796 -1.5708254019366663 3.0111300945281982 -0.5088750720024109 0.1315137892961502 -0.16247332096099854 0.027391744777560234 3.6068533518118784e-05 -0.5169989466667175 1 True True
9942.828 4.554718017578125 -1.5861398182311 1.9044111410724085 -1.8891693554320277 -1.5708335081683558 2.983973503112793 -0.5820498466491699 0.15395638346672058 -0.1881079226732254 0.030701274052262306 4.842125878293975e-21 -0.5751837491989136 1 True True
9942.877999999999 4.524156093597412 -1.578038831750387 1.894686524068014 -1.887371679345602 -1.5707610289203089 2.953251361846924 -0.6466691493988037 0.1741422861814499 -0.20765097439289093 0.03309210389852524 0.002328597940504551 -0.6480332016944885 1 True True
9942.928 4.489991664886475 -1.5689713581562792 1.8838747183429163 -1.8855558834471644 -1.570772949849264 2.9190852642059326 -0.7144718766212463 0.19006335735321045 -0.22504107654094696 0.04445160552859306 0.0014245461206883192 -0.7157893180847168 1 True True
9942.978 4.452237606048584 -1.5589413561723013 1.8717177549945276 -1.883644243279928 -1.5707443396197718 2.8814198970794678 -0.7806111574172974 0.20442776381969452 -0.24904775619506836 0.04516731947660446 0.001915919710882008 -0.7979877591133118 1 True True
9943.028 4.410953998565674 -1.5481697407415886 1.8586695829974573 -1.8814250431456507 -1.570756737385885 2.8400816917419434 -0.8533582091331482 0.22984179854393005 -0.27105453610420227 0.045154035091400146 0.000414990761782974 -0.8539329171180725 1 True True
9943.078 4.3664231300354 -1.5361953762224694 1.8443377653705042 -1.8790623150267542 -1.5707967917071741 2.795661687850952 -0.9294493794441223 0.2450275868177414 -0.29248079657554626 0.04580869898200035 -1.975796167842138e-14 -0.921761691570282 1 True True
9943.127999999999 4.318279266357422 -1.523396485751011 1.8291800657855433 -1.8764192066588343 -1.5707767645465296 2.7473738193511963 -0.9912781715393066 0.2605952024459839 -0.3221287429332733 0.04439229145646095 -7.43513519410044e-05 -0.9985142946243286 1 True True
9943.178 4.266718864440918 -1.5099289540997525 1.8125136534320276 -1.8735596142210902 -1.5707805792437952 2.696120500564575 -1.0431618690490723 0.27854806184768677 -0.3355135917663574 0.06835205852985382 6.734151014597956e-08 -1.0535149574279785 1 True True
9943.228 4.2144775390625 -1.4958959382823487 1.7960980574237269 -1.8709007702269496 -1.5708769003497522 2.643606424331665 -1.0534290075302124 0.27354195713996887 -0.33357879519462585 0.05308367311954498 -0.0008232819382101297 -1.038064956665039 1 True True
9943.278 4.1620402336120605 -1.4822016891888161 1.7792614142047327 -1.8680664501585902 -1.5708335081683558 2.5911483764648438 -1.04336416721344 0.27980661392211914 -0.33605533838272095 0.05655709654092789 0.0002227496588602662 -1.049220323562622 1 True True
9943.328 4.109654903411865 -1.4681331378272553 1.76274282137026 -1.8651510677733363 -1.570784870778219 2.5390493869781494 -1.0459575653076172 0.2748619616031647 -0.32716497778892517 0.05866162106394768 -1.4523774838059989e-16 -1.0521279573440552 1 True True
9943.377999999999 4.057504653930664 -1.4543858778527756 1.745936695729391 -1.8623959026732386 -1.5708282629596155 2.4865775108337402 -1.0510039329528809 0.2751673460006714 -0.34004780650138855 0.04828362539410591 0.00010288614430464804 -1.0423771142959595 1 True True
9943.428 4.0049824714660645 -1.4403976661017914 1.7292965094195765 -1.859518667260641 -1.5707686583148401 2.434058904647827 -1.0431649684906006 0.2761315405368805 -0.33410969376564026 0.06062701344490051 -5.080242004851243e-08 -1.053335428237915 1 True True
9943.478 3.952622890472412 -1.4266638916781922 1.7125938574420374 -1.8568469486632289 -1.570756737385885 2.3819451332092285 -1.043758749961853 0.27295637130737305 -0.33134037256240845 0.06092413514852524 -4.38972847405239e-06 -1.0545495748519897 1 True True
9943.528 3.900273561477661 -1.4127164495042344 1.6959345976458948 -1.8539678059019984 -1.5708087126361292 2.329531669616699 -1.0500155687332153 0.27962157130241394 -0.3393312692642212 0.057977911084890366 -6.668006052675844e-25 -1.0440454483032227 1 True True
9943.578 3.847898483276367 -1.3987806004336854 1.6791694800006312 -1.8511301479735316 -1.570801083241598 2.2770092487335205 -1.0424444675445557 0.27634909749031067 -0.32237881422042847 0.05094911903142929 -4.905787331921374e-09 -1.0463534593582153 1 True True
9943.627999999999 3.795499801635742 -1.3850988459638138 1.6625340620623987 -1.848363538781637 -1.5707486311541956 2.224858522415161 -1.0453599691390991 0.27875658869743347 -0.33389711380004883 0.057204071432352066 -1.9470312915893624e-17 -1.0567631721496582 1 True True
9943.678 3.743169069290161 -1.3710595679334183 1.6459115187274378 -1.8453694782652796 -1.5707886854754847 2.1724047660827637 -1.049698829650879 0.2772653102874756 -0.3325824439525604 0.05606609582901001 -2.9575445758801705e-36 -1.0415178537368774 1 True True
9943.728 3.690807342529297 -1.357320488696434 1.6290066877948206 -1.842752595941061 -1.570813004170553 2.1199488639831543 -1.0459222793579102 0.2788092792034149 -0.33134937286376953 0.05661231651902199 -0.0 -1.0481829643249512 1 True True
9943.778 3.6384756565093994 -1.3432549846223374 1.612530533467428 -1.8397866688170375 -1.57074481645693 2.0677103996276855 -1.0432323217391968 0.2758951187133789 -0.33550700545310974 0.06327547132968903 -0.0 -1.0520358085632324 1 True True
9943.828 3.5861494541168213 -1.329528496866562 1.5957143942462366 -1.8370915851988734 -1.5707686583148401 2.015406608581543 -1.0525068044662476 0.27752718329429626 -0.33212774991989136 0.046782806515693665 -0.0 -1.0459994077682495 1 True True
9943.877999999999 3.533750295639038 -1.315650002365448 1.5792210737811487 -1.8343092403807582 -1.570784870778219 1.9629008769989014 -1.0444812774658203 0.2814435064792633 -0.33811330795288086 0.05514546483755112 -0.0 -1.0424785614013672 1 True True
9943.928 3.4813270568847656 -1.3017678421786805 1.5623005072223108 -1.8313318691649378 -1.570801083241598 1.9106545448303223 -1.045243501663208 0.2738439440727234 -0.332615464925766 0.055814143270254135 -0.0 -1.0526610612869263 1 True True
9943.978 3.428959369659424 -1.287949876194336 1.5458172003375452 -1.8286482296385707 -1.5708044211017054 1.858257532119751 -1.052074670791626 0.2835339307785034 -0.3381059765815735 0.052795249968767166 -0.0 -1.044547200202942 1 True True
9944.028 3.37719988822937 -1.2741028529456635 1.5291665236102503 -1.8258205852904261 -1.5708654562579554 1.8064252138137817 -1.008835792541504 0.2630065679550171 -0.32156863808631897 0.0617089681327343 -0.0 -1.0121755599975586 1 True True
9944.078 3.3286569118499756 -1.2614110273173829 1.5138300100909632 -1.8232017956175746 -1.570841137562887 1.7579593658447266 -0.941493034362793 0.2527718245983124 -0.29410549998283386 0.050862912088632584 -0.0 -0.9429628849029541 1 True True
9944.127999999999 3.2834830284118652 -1.2493276459029694 1.4993723074542444 -1.820808549920553 -1.570768181477682 1.7125625610351562 -0.8698147535324097 0.23083385825157166 -0.27046868205070496 0.0423409566283226 0.00012117355072405189 -0.8637876510620117 1 True True
9944.178 3.241765260696411 -1.2383404237082978 1.4861248175250452 -1.818462987939352 -1.5707805792437952 1.6709904670715332 -0.7976367473602295 0.20635391771793365 -0.25487586855888367 0.04185495153069496 9.882273297989741e-05 -0.8009621500968933 1 True True
9944.228 3.2034971714019775 -1.2282596689513703 1.4738920370685022 -1.8164950809874476 -1.570801083241598 1.6328980922698975 -0.7278377413749695 0.1942724734544754 -0.23141710460186005 0.04053029790520668 5.052320193499327e-05 -0.7328239679336548 1 True True
9944.278 3.1689186096191406 -1.2190142136863251 1.463005844746725 -1.8146263561644496 -1.57080585161318 1.5981934070587158 -0.6551534533500671 0.17562951147556305 -0.2075476348400116 0.03778604790568352 -3.2250879484357897e-12 -0.6612668037414551 1 True True
9944.328 3.137812614440918 -1.2108143729022522 1.4529922644244593 -1.8129807911314906 -1.5707686583148401 1.5670430660247803 -0.5846032500267029 0.15183712542057037 -0.19015438854694366 0.03106503374874592 -4.898915495046253e-31 -0.5952547788619995 1 True True
9944.377999999999 3.1101062297821045 -1.2034340363791962 1.4441793600665491 -1.8113414249815882 -1.5708168188678187 1.5392882823944092 -0.5191715359687805 0.13705170154571533 -0.15902265906333923 0.02986086532473564 -0.0 -0.5239736437797546 1 True True
9944.428 3.085899591445923 -1.1971776348403473 1.4362624327289026 -1.8101746044554652 -1.5707691351519983 1.5151207447052002 -0.4490731358528137 0.11616911739110947 -0.13955050706863403 0.026454133912920952 -0.0 -0.4511202871799469 1 True True
9944.478 3.0650789737701416 -1.1914316576770325 1.429854694996969 -1.8090936146178187 -1.570857350026266 1.4943509101867676 -0.3764207363128662 0.10208068788051605 -0.12228994071483612 0.02070676162838936 -0.0005569196655414999 -0.3773423135280609 1 True True
9944.528 3.047865867614746 -1.1869214636138459 1.4243329207049769 -1.8081890545287074 -1.5707839171039026 1.4771623611450195 -0.31561121344566345 0.07725072652101517 -0.0950789749622345 0.015995200723409653 0.00015831372002139688 -0.3124731183052063 1 True True
9944.578 3.0342626571655273 -1.1833334130099793 1.4200504461871546 -1.8073474369444789 -1.5707572142230433 1.463436484336853 -0.24210640788078308 0.0621761716902256 -0.08025173097848892 0.01154225692152977 -6.740148439376981e-10 -0.24249430000782013 1 True True
9944.627999999999 3.0240116119384766 -1.1806744796088715 1.41677171388735 -1.8068376980223597 -1.5707891623126429 1.453139066696167 -0.17100892961025238 0.04514496028423309 -0.05484684929251671 0.009304367937147617 -1.0238302565967093e-28 -0.17238803207874298 1 True True
9944.678 3.0170934200286865 -1.1789136987975617 1.4145210425006312 -1.806514402429098 -1.5707805792437952 1.446439504623413 -0.10238651931285858 0.026460973545908928 -0.03372795879840851 0.004118470940738916 -0.0 -0.1023627370595932 1 True True
9944.728 3.013927459716797 -1.1779346329024811 1.4135521093951624 -1.8062988720335902 -1.5707648436175745 1.4430902004241943 -0.031894080340862274 0.008911101147532463 -0.010518768802285194 0.0017926277359947562 -0.0 -0.03038732521235943 1 True True
9944.778 3.0136830806732178 -1.1777923864177247 1.4137113730060022 -1.8067981205382289 -1.5707572142230433 1.442866563796997 0.0004886259557679296 0.01732303388416767 0.023369530215859413 -0.02691781334578991 -0.0 -0.00018726536654867232 1 True True
9944.828 3.0136890411376953 -1.1765447419932862 1.416140381489889 -1.8104626140990199 -1.5707772413836878 1.4428296089172363 -0.0002404543774900958 0.03271029144525528 0.07493429630994797 -0.1065543070435524 5.272323969415923e-15 -0.0003474587865639478 1 True True
9944.877999999999 3.013603448867798 -1.1741805237582703 1.421044651662008 -1.817629953423971 -1.5707972685443323 1.4428220987319946 -0.000501378090120852 0.05750072002410889 0.1278836876153946 -0.16818785667419434 8.008667807736207e-34 -0.00025042114430107176 1 True True
9944.928 3.0135719776153564 -1.170724944477417 1.4283211866961878 -1.828456541100973 -1.5707648436175745 1.4427849054336548 -0.0006959675811231136 0.08168898522853851 0.17185081541538239 -0.25270596146583557 0.0 -0.00019799754954874516 1 True True
9944.978 3.0135838985443115 -1.1661908489516755 1.4379976431476038 -1.8427053890623988 -1.5707762877093714 1.442740797996521 -0.00016465573571622372 0.10194031894207001 0.21813912689685822 -0.32586753368377686 -0.00010767092317109928 -0.00013902534556109458 1 True True
9945.028 3.0136168003082275 -1.1603709024241944 1.4501975218402308 -1.8602343998351039 -1.5707843939410608 1.4427646398544312 -0.0001315444242209196 0.12933817505836487 0.2572259306907654 -0.38187405467033386 -8.621450251666829e-05 -0.000103134305390995 1 True True
9945.078 3.0135838985443115 -1.1535343688777466 1.4642789999591272 -1.8815418682494105 -1.570784870778219 1.4427165985107422 -0.00016210567264351994 0.14300015568733215 0.3123417794704437 -0.44697853922843933 -7.124061085050926e-05 -7.877477037254721e-05 1 True True
9945.127999999999 3.0135433673858643 -1.145590828066208 1.4811890761004847 -1.9061867199339808 -1.5708168188678187 1.442781925201416 -0.00011940879630856216 0.1679869145154953 0.3527534306049347 -0.5235140919685364 -0.00011758013715734705 -5.4793879826320335e-05 1 True True
9945.178 3.0135552883148193 -1.1372064513019104 1.4988568464862269 -1.9323674641051234 -1.5708006064044397 1.442768931388855 -8.017872460186481e-05 0.15858390927314758 0.3360000550746918 -0.5042535662651062 8.932431685049376e-15 -1.448251142951115e-17 1 True True
9945.228 3.013547897338867 -1.1297127467444916 1.5146496931659144 -1.9554749927916468 -1.5707529226886194 1.4428058862686157 -1.887566014602271e-08 0.14198364317417145 0.2955770492553711 -0.4282979369163513 1.3568381398301303e-33 -2.1998961722244365e-36 1 True True
9945.278 3.0136094093322754 -1.1234149497798462 1.5275386015521448 -1.9752575359740199 -1.5707724730121058 1.4427893161773682 0.0 0.11426819115877151 0.24343664944171906 -0.35329365730285645 0.0 -0.0 1 True True
9945.328 3.013564348220825 -1.1180920463851471 1.5387104193316858 -1.9912759266295375 -1.570829216633932 1.442752718925476 0.0 0.09349250793457031 0.1936171054840088 -0.28482484817504883 0.0 -0.0 1 True True
9945.377999999999 3.0135598182678223 -1.114034042959549 1.5471304098712366 -2.0039435825743617 -1.570772949849264 1.4427978992462158 5.2105242502875626e-05 0.07222840934991837 0.1484682857990265 -0.20955528318881989 0.0 -5.143879550742149e-23 1 True True
9945.428 3.0136213302612305 -1.1111897093108674 1.5532720724688929 -2.012984891931051 -1.570772949849264 1.4427978992462158 3.514802301651798e-05 0.04736853763461113 0.10354628413915634 -0.15285004675388336 0.0 -7.81364023707518e-42 1 True True
9945.478 3.0135719776153564 -1.1093079012683411 1.557126824055807 -2.018571992913717 -1.5707648436175745 1.4428058862686157 9.526236913572307e-28 0.02565065212547779 0.05182550102472305 -0.07934048771858215 0.0 -0.0 1 True True
9945.528 3.013597249984741 -1.1090524953654786 1.5580647627459925 -2.021148820916647 -1.5708492437945765 1.4428306818008423 2.422398992507624e-08 0.001454247161746025 0.008161747828125954 -0.006534998305141926 -0.0006201430805958807 -0.0 1 True True
9945.578 3.0135674476623535 -1.1090256434730072 1.5581653753863733 -2.0211645565428675 -1.5708087126361292 1.4427971839904785 0.0 0.004254869185388088 0.006227291654795408 0.0008089195471256971 -6.143873906694353e-05 -0.0 1 True True
9945.627999999999 3.0135884284973145 -1.1080758732608338 1.559493366871969 -2.020290514031881 -1.5707891623126429 1.4427484273910522 0.0 0.016445159912109375 0.018957819789648056 0.022645169869065285 0.0003193306620232761 -2.607516535135801e-06 1 True True
9945.678 3.0136125087738037 -1.1083237093738099 1.5589125792132776 -2.0207492313780726 -1.5707610289203089 1.4428558349609375 1.4979733004439224e-17 -0.002837457926943898 -0.004783394746482372 -0.00738351047039032 8.694724911534021e-16 0.0007594451890327036 1 True False
9945.728 3.0135915279388428 -1.108453319673874 1.5588825384723108 -2.0207492313780726 -1.570801083241598 1.4428021907806396 0.0 -0.007266593631356955 -0.008603814989328384 -0.00684055732563138 -4.713344310403045e-07 0.0004228324687574059 1 True False
9945.778 3.0135915279388428 -1.1085498195937653 1.5587924162494105 -2.0208054981627406 -1.5707443396197718 1.4427934885025024 0.0 -0.0030294505413621664 -0.0028813104145228863 -0.0014345322269946337 -7.159580781459791e-26 -1.8734472306825012e-10 1 True False
9945.828 3.0135884284973145 -1.1086085599711915 1.5587175528155726 -2.0209294758238734 -1.5707929770099085 1.44281005859375 0.0 2.1979659059825788e-23 -0.0004352561372797936 -0.00031931616831570864 -1.1210387714598537e-44 -2.8457700349339317e-29 1 True False
9945.877999999999 3.0135750770568848 -1.108611599808075 1.5586817900287073 -2.020809312860006 -1.5707648436175745 1.442781925201416 0.0 -0.011888161301612854 -0.018685823306441307 0.009115996770560741 -7.073042070260271e-05 -0.0 1 True False
9945.928 3.0135464668273926 -1.1096114677241822 1.5570123831378382 -2.018595357934469 -1.5708254019366663 1.4428176879882812 0.0 -0.024573007598519325 -0.05302568897604942 0.08792828023433685 -7.124647527234629e-05 -0.0 1 True False
9945.978 3.0135793685913086 -1.111204908495285 1.5532897154437464 -2.01271452526235 -1.570768181477682 1.4428014755249023 0.0 -0.04744388908147812 -0.11097275465726852 0.14771777391433716 -0.00011965224985033274 -0.0 1 True False
9946.028 3.0135884284973145 -1.1142204266837616 1.5468643347369593 -2.0033771000304164 -1.5707843939410608 1.4427849054336548 0.0 -0.0699816569685936 -0.14690332114696503 0.23257069289684296 -0.00010199276584899053 -0.0 1 True False
9946.078 3.0135509967803955 -1.1183584493449708 1.538111988698141 -1.9904986820616664 -1.5708325544940394 1.4427893161773682 0.0 -0.09277357161045074 -0.2002217322587967 0.2964589595794678 -0.0001034035740303807 -0.0 1 True False
9946.127999999999 3.0135960578918457 -1.1235796374133606 1.527123753224508 -1.974344869653219 -1.570813004170553 1.4427690505981445 0.0 -0.11189225316047668 -0.23781704902648926 0.36276644468307495 -1.1981870784438797e-07 -0.0 1 True False
9946.178 3.0135719776153564 -1.13003225744281 1.5137766043292444 -1.9545685253539027 -1.570801083241598 1.44281005859375 0.0 -0.13868731260299683 -0.2860087454319 0.4346744120121002 -1.820048324946252e-26 -0.0 1 True False
9946.228 3.0135676860809326 -1.1375712615302582 1.4979308287249964 -1.9312578640379847 -1.5708168188678187 1.4427776336669922 0.0 -0.16746105253696442 -0.33913832902908325 0.48912984132766724 -2.802596928649634e-45 -0.0 1 True False
9946.278 3.013537883758545 -1.146013305788376 1.480199162160055 -1.9049097500243128 -1.5707529226886194 1.4427614212036133 0.0 -0.17062710225582123 -0.35457438230514526 0.5244522094726562 -1.5057766113228373e-15 -0.0 1 True False
9946.328 3.0135631561279297 -1.1539534491351624 1.4635570685016077 -1.880503316918844 -1.570784870778219 1.4427647590637207 0.0 -0.14941361546516418 -0.30753669142723083 0.45333555340766907 2.3787380996509455e-05 -0.0 1 True False
9946.377999999999 3.013542413711548 -1.1607259672931214 1.4495165983783167 -1.8594638309874476 -1.570801083241598 1.442773461341858 0.0 -0.12252136319875717 -0.26231032609939575 0.38453614711761475 2.6073084882227704e-05 -0.0 1 True False
9946.428 3.013597011566162 -1.166352556352951 1.4373820463763636 -1.8418408832945765 -1.5707805792437952 1.442773461341858 -4.587885982232365e-08 -0.10306721180677414 -0.21000654995441437 0.3114386796951294 1.0245987141388468e-05 -0.0 1 True False
9946.478 3.0135881900787354 -1.1708884698203583 1.428091828023092 -1.8278471432127894 -1.5707967917071741 1.442732334136963 0.0 -0.08332960307598114 -0.1670762598514557 0.24673447012901306 1.1528381714463658e-22 -0.0 1 True False
9946.528 3.0135838985443115 -1.174210326080658 1.4208982626544397 -1.8173366985716761 -1.5707805792437952 1.4427690505981445 0.0 -0.05585082247853279 -0.12263498455286026 0.18749432265758514 1.751202690866724e-41 -0.0 1 True False
9946.578 3.0135796070098877 -1.1766167742064972 1.4162285963641565 -1.8101488552489222 -1.570784870778219 1.4428176879882812 0.0 -0.03597627207636833 -0.07407570630311966 0.11439153552055359 0.0 -0.0 1 True False
9946.627999999999 3.0135796070098877 -1.1777117413333436 1.4136813322650355 -1.806833406487936 -1.5708048979388636 1.4427934885025024 0.0 -0.013188802637159824 -0.024869076907634735 0.04079781845211983 0.0 -0.0 1 True False
9946.678 3.0135796070098877 -1.1777923864177247 1.4134920279132288 -1.8063951931395472 -1.5708168188678187 1.442757248878479 0.0 0.0010561144445091486 1.4030404510184842e-14 -1.066352228740186e-09 0.0 -0.0 1 False False
9946.728 3.013580799102783 -1.1778043073466797 1.413389031087057 -1.8063551388182582 -1.570784870778219 1.442773461341858 0.0 1.5196199027570116e-39 -0.00011101276322733611 0.0013769363285973668 0.0 -0.0 1 False False
9946.778 3.0136003494262695 -1.1778312486461182 1.41337758699526 -1.8063184223570765 -1.5708368460284632 1.4428220987319946 0.0 -6.866928015369922e-05 -7.548007852165028e-05 0.0002623418113216758 0.0 -0.0 1 False False
9946.828 3.0136122703552246 -1.1778519910625 1.4133580366717737 -1.80627503017568 -1.5708211104022425 1.4427776336669922 0.0 -0.000167011734447442 -0.0001704925234662369 0.0003712320467457175 0.0 -0.0 1 False False
9946.877999999999 3.013592481613159 -1.177869276409485 1.4133818785296839 -1.806303163568014 -1.570813004170553 1.4427850246429443 0.0 -0.00010166419815504923 -0.00042878586100414395 0.00021432222274597734 0.0 -0.0 1 False False
9946.928 3.0136003494262695 -1.1778032344630738 1.4133580366717737 -1.80627503017568 -1.570784870778219 1.4427690505981445 0.0 -0.00016525476530659944 -0.00019143265672028065 0.00015337952936533839 0.0 -0.0 1 False False
9946.978 3.0135838985443115 -1.177888200884201 1.4134238401996058 -1.8062430820860804 -1.5707724730121058 1.4427614212036133 0.0 -0.00015349748719017953 -8.033380436245352e-05 0.00011592800728976727 0.0 -0.0 1 False False
9947.028 3.013608932495117 -1.1778149765780945 1.4134481588946741 -1.8062707386412562 -1.5708087126361292 1.4427934885025024 0.0 -0.00011611442459980026 -6.665290129603818e-05 9.07423673197627e-05 0.0 -0.0 1 False False
9947.078 3.013563394546509 -1.1778763097575684 1.4133341948138636 -1.806296011010641 -1.5707891623126429 1.4427452087402344 0.0 -9.084428165806457e-05 -2.5473178487973162e-23 2.3072652322779844e-15 0.0 -0.0 1 False False
9947.127999999999 3.0136122703552246 -1.1778969031623383 1.4133990446673792 -1.8062306843199671 -1.5707967917071741 1.4427520036697388 0.0 -5.928182144998573e-05 -0.0 3.5047428354613813e-34 0.0 -0.0 1 False False
9947.178 3.013559103012085 -1.1778345567039032 1.4133666197406214 -1.8062430820860804 -1.570784870778219 1.4428142309188843 0.0 -1.219313211954238e-25 -0.0 0.0 0.0 -0.0 1 False False
9947.228 3.013592481613159 -1.1778519612601777 1.4133546988116663 -1.8062311611571253 -1.5708044211017054 1.442821979522705 0.0 0.0 -0.0 0.0 0.0 -0.0 1 False False
9947.278 3.0135881900787354 -1.1778731805137177 1.4133785406695765 -1.8062831364073695 -1.5707767645465296 1.442757248878479 0.0 0.0 -0.0 0.0 0.0 -0.0 1 False False
9947.328 3.013563394546509 -1.1778519910625 1.4133179823504847 -1.806263109246725 -1.5708087126361292 1.442773461341858 0.0 0.0 -1.0450087933457455e-15 0.0 0.0 -0.0 1 False False
9947.377999999999 3.0135555267333984 -1.177880660896637 1.4133504072772425 -1.806303163568014 -1.5707686583148401 1.442732334136963 0.0 -8.634667416837494e-14 -2.802596928649634e-45 0.0 0.0 -0.0 1 False False
9947.428 3.0135838985443115 -1.1779044729522248 1.413375202809469 -1.8062635860838832 -1.5708211104022425 1.4428142309188843 0.0 0.0 -0.0 0.0 0.0 -0.0 1 False False
9947.478 3.0136208534240723 -1.1778600674918671 1.4133427778827112 -1.8062182865538539 -1.5707925001727503 1.4427614212036133 0.0 0.0 -0.0 0.0 0.0 -0.0 1 False False
9947.528 3.013592481613159 -1.1778925222209473 1.4133871237384241 -1.8062592945494593 -1.5707605520831507 1.4427529573440552 0.0 0.0 -0.0 0.0 0.0 -0.0 1 False False
9947.578 3.0135719776153564 -1.1778643888286133 1.4133666197406214 -1.8062592945494593 -1.5707805792437952 1.442773461341858 0.0 0.0 -0.0 0.0 0.0 -0.0 1 True False
9947.627999999999 3.013608932495117 -1.1778388780406495 1.413325611745016 -1.8062674007811488 -1.570813004170553 1.442826271057129 0.0 0.0 -0.0 0.0 0.0 6.952259985845697e-21 1 True False
9947.678 3.0135719776153564 -1.1778732401183625 1.4133709112750452 -1.8063069782652796 -1.5708048979388636 1.4427893161773682 0.0 0.0 -0.0 0.0 0.0 1.0560493512813973e-39 1 True False
9947.728 3.0136003494262695 -1.1778312486461182 1.4133461157428187 -1.8062550030150355 -1.5707843939410608 1.442781925201416 0.0 0.0 -0.0 0.0 0.0 -1.3086058061162475e-05 1 True False
9947.778 3.0135881900787354 -1.1778806310943146 1.413325611745016 -1.8062836132445277 -1.5708087126361292 1.4427934885025024 0.0 0.0 -0.0 0.0 0.0 -2.3125316772620863e-08 1 True False
9947.828 3.013546943664551 -1.1778389376452942 1.4133742491351526 -1.8062788448729457 -1.5708168188678187 1.4427614212036133 0.0 0.0 -0.0 0.0 0.0 -3.512739062678856e-27 1 True False
9947.877999999999 3.0135393142700195 -1.1778839391520997 1.4133709112750452 -1.8061958752074183 -1.570824925099508 1.442765712738037 0.0 0.0 -0.0 0.0 0.0 -2.0030814994242974e-05 1 True False
9947.928 3.0135838985443115 -1.1778882306865235 1.4133918921100062 -1.8063188991942347 -1.570829216633932 1.4428348541259766 0.0 0.0 -0.0 0.0 0.0 -7.198064670467706e-24 1 True False
9947.978 3.0135838985443115 -1.1779056054404755 1.4133904615985315 -1.806263109246725 -1.570853058491842 1.4428305625915527 0.0 0.0 -0.0 0.0 0.0 -1.0930128021733573e-42 1 True False
9948.028 3.013580560684204 -1.1778520208648224 1.4133294264422815 -1.8062988720335902 -1.570813004170553 1.442745327949524 0.0 0.0 -0.0 0.0 8.675848948769271e-05 0.00036313783493824303 1 True False
9948.078 3.0136003494262695 -1.1778718692115326 1.4133546988116663 -1.8062874279417933 -1.5707929770099085 1.4428142309188843 0.0 0.0 -0.0 0.0 3.645796530343552e-22 -0.0009231996955350041 1 True False
9948.127999999999 3.0135350227355957 -1.1778807801059266 1.4133918921100062 -1.8062550030150355 -1.570801083241598 1.44281005859375 0.0 0.0 -0.0 0.0 0.00043137933243997395 -1.2543112461571582e-05 1 True False
9948.178 3.0135960578918457 -1.177910642032959 1.4133546988116663 -1.8063026867308558 -1.5707967917071741 1.4427690505981445 0.0 0.0 -0.0 4.9800807921940304e-09 -1.146546468877574e-10 -1.9053024150070642e-24 1 True False
9948.228 3.0135676860809326 -1.1778718394092103 1.4133427778827112 -1.8062712154784144 -1.5707767645465296 1.4428133964538574 0.0 0.0 -0.0 7.564755746859141e-28 -1.7416071639636095e-29 -2.9006878211523713e-43 1 True False
9948.278 3.015429973602295 -1.1780029696277161 1.4134624640094202 -1.806246896783346 -1.5708168188678187 1.4445565938949585 0.070600725710392 -0.007661524228751659 0.008747296407818794 -2.7137602955917828e-05 -0.0 0.0697040781378746 1 True False
9948.328 3.020829439163208 -1.17844911039386 1.4139984289752405 -1.8063870869078578 -1.5708168188678187 1.4499181509017944 0.14358973503112793 -0.010626714676618576 0.013619634322822094 -0.004898011218756437 -0.0 0.13870887458324432 1 True False
9948.377999999999 3.029616117477417 -1.1790170532516022 1.414788071309225 -1.8066255054869593 -1.5708168188678187 1.4587643146514893 0.20993824303150177 -0.013196212239563465 0.021285345777869225 -0.006149556487798691 -0.0 0.2087167352437973 1 True False
9948.428 3.0419118404388428 -1.1798424881747742 1.4160845915423792 -1.8070126972594203 -1.570829216633932 1.4711649417877197 0.2819519340991974 -0.019263917580246925 0.02811669372022152 -0.007844655774533749 -0.0 0.27333709597587585 1 True False
9948.478 3.0577914714813232 -1.1808928114226838 1.4176314512835901 -1.8074914417662562 -1.5708449522601526 1.486963152885437 0.3484182059764862 -0.024653825908899307 0.03391052037477493 -0.007251377683132887 0.00011417162750149146 0.35253670811653137 1 True False
9948.528 3.0770480632781982 -1.1823028785041352 1.4193981329547327 -1.8079616032042445 -1.5708211104022425 1.5061991214752197 0.4237140119075775 -0.029413048177957535 0.0415828712284565 -0.010210759937763214 8.276699372800067e-05 0.4143833816051483 1 True False
9948.578 3.0998315811157227 -1.1838164192489167 1.4215667883502405 -1.8085714779295863 -1.5707605520831507 1.5290554761886597 0.4864010214805603 -0.03555231913924217 0.04442179948091507 -0.012207184918224812 7.322255987673998e-05 0.48992088437080383 1 True False
9948.627999999999 3.12621808052063 -1.1856596034816285 1.424155060444967 -1.8092700443663539 -1.5707405249225062 1.5553234815597534 0.5605813264846802 -0.036532334983348846 0.055497292429208755 -0.013340488076210022 0.00013387194485403597 0.5586153268814087 1 True False
9948.678 3.1560208797454834 -1.1877280932715912 1.4269173781024378 -1.8100186787047328 -1.570756737385885 1.585046410560608 0.633439302444458 -0.04362943395972252 0.0624832808971405 -0.012758197262883186 0.00021259943605400622 0.6349167823791504 1 True False
9948.728 3.189143419265747 -1.189967857008316 1.4302380720721644 -1.81093229869985 -1.5707891623126429 1.6183364391326904 0.7034330368041992 -0.04730246961116791 0.06878429651260376 -0.01506797131150961 -0.00011416989582357928 0.6993228197097778 1 True False
9948.778 3.2259297370910645 -1.1925273102572937 1.4336279074298304 -1.8119961223998011 -1.570784870778219 1.6551321744918823 0.7700657844543457 -0.05542414262890816 0.07378231734037399 -0.018514934927225113 -3.9755188481649384e-05 0.7693919539451599 1 True False
9948.828 3.2661502361297607 -1.1953223210624238 1.4375560919391077 -1.8130532703795375 -1.5707967917071741 1.6954387426376343 0.8371520638465881 -0.058432839810848236 0.08079253137111664 -0.02171148732304573 -4.6856827445873606e-11 0.8316701054573059 1 True False
9948.877999999999 3.3098433017730713 -1.1983068150332947 1.4417732397662562 -1.8142415485777796 -1.5707967917071741 1.7391488552093506 0.9055554866790771 -0.061774030327796936 0.08656666427850723 -0.02528771013021469 -7.117562246658304e-30 0.9092149138450623 1 True False
9948.928 3.3570728302001953 -1.2015642088702698 1.4464357534991663 -1.815442224542135 -1.570813004170553 1.7864372730255127 0.9816892147064209 -0.06570856273174286 0.09085341542959213 -0.02454194985330105 -0.0 0.9786357283592224 1 True False
9948.978 3.4078478813171387 -1.2051834029010315 1.4511750380145472 -1.816794057885641 -1.5707686583148401 1.8369853496551514 1.047803282737732 -0.07397047430276871 0.1012035608291626 -0.024160156026482582 -0.0 1.0567904710769653 1 True False
9949.028 3.460218906402588 -1.2086784404567261 1.456047836934225 -1.81825651744985 -1.5708211104022425 1.8894189596176147 1.0433682203292847 -0.07340583205223083 0.09917369484901428 -0.033821772783994675 -0.0 1.041347861289978 1 True False
9949.078 3.5124876499176025 -1.2123390299132843 1.4610822836505335 -1.819700380364889 -1.5707724730121058 1.9418429136276245 1.0498160123825073 -0.06966440379619598 0.09850109368562698 -0.03100018948316574 -0.00012576929293572903 1.0473711490631104 1 True False
9949.127999999999 3.5649118423461914 -1.2159425777247925 1.4661262671100062 -1.8210998974242152 -1.5707405249225062 1.9941790103912354 1.0462517738342285 -0.07295773923397064 0.10119088739156723 -0.022595340386033058 -2.2947573597775772e-05 1.0461819171905518 1 True False
9949.178 3.6173229217529297 -1.2195204955390473 1.4711974302874964 -1.8225318394102992 -1.5708044211017054 2.0464491844177246 1.0431814193725586 -0.07076757401227951 0.10250099003314972 -0.029070736840367317 3.995143392288215e-18 1.0415416955947876 1 True False
9949.228 3.6696412563323975 -1.223192886715271 1.4762714544879358 -1.8238107166686 -1.5708449522601526 2.0990355014801025 1.0496883392333984 -0.07286803424358368 0.09662964195013046 -0.028600923717021942 6.068632182251789e-37 1.0437538623809814 1 True False
9949.278 3.7219693660736084 -1.2267545622638245 1.4812849203692835 -1.8252464733519496 -1.5707524458514612 2.151157855987549 1.0478922128677368 -0.07219511270523071 0.09623795747756958 -0.02787875570356846 -6.699175719404593e-05 1.057098388671875 1 True False
9949.328 3.7743630409240723 -1.2303094130805512 1.4862549940692347 -1.8267532787718714 -1.5707925001727503 2.203444004058838 1.0423297882080078 -0.07446178793907166 0.10295143723487854 -0.02723814733326435 -2.2729658866876834e-12 1.044842004776001 1 True False
9949.377999999999 3.826737880706787 -1.2339749795249482 1.491220776234762 -1.8280331097044886 -1.5708254019366663 2.2560348510742188 1.0474587678909302 -0.0733831450343132 0.1026485487818718 -0.029069453477859497 4.5376109483186156e-05 1.0467065572738647 1 True False
9949.428 3.879038095474243 -1.237498627310135 1.4961736837970179 -1.8294159374632777 -1.5707810560809534 2.3082592487335205 1.0468829870224 -0.07269827276468277 0.0969679057598114 -0.02952847070991993 1.44684363310031e-18 1.0486725568771362 1 True False
9949.478 3.931520700454712 -1.2412168842605134 1.5011966864215296 -1.8308679066100062 -1.5707886854754847 2.3605570793151855 1.0448540449142456 -0.07023616880178452 0.10272188484668732 -0.024529220536351204 2.1977586203365678e-37 1.044627070426941 1 True False
9949.528 3.9837653636932373 -1.2447946232608338 1.5063360373126429 -1.8323432407774867 -1.5707967917071741 2.4131381511688232 1.0512446165084839 -0.0719342827796936 0.0997571125626564 -0.032956380397081375 3.049310109970449e-11 1.0476861000061035 1 True False
9949.578 4.036081314086914 -1.2484296423247834 1.511306111012594 -1.8337623081602992 -1.5707805792437952 2.465214490890503 1.0459285974502563 -0.07293838262557983 0.09744075685739517 -0.026521645486354828 1.2324370857186295e-07 1.059955358505249 1 True False
9949.627999999999 4.088479518890381 -1.251971648340561 1.5163148085223597 -1.83510222057485 -1.570801083241598 2.517632246017456 1.0423345565795898 -0.07056591659784317 0.09922028332948685 -0.027137331664562225 1.8720747801663467e-26 1.0442339181900024 1 True False
9949.678 4.140872001647949 -1.2556766730597992 1.5213115851031702 -1.8364883861937464 -1.570784870778219 2.5702364444732666 1.0471571683883667 -0.06777357310056686 0.10283392667770386 -0.03036717139184475 0.0005764018278568983 1.0457428693771362 1 True False
9949.728 4.193197250366211 -1.2593019765666504 1.5262845198260706 -1.8378211460509242 -1.5707610289203089 2.6223878860473633 1.0475112199783325 -0.07481445372104645 0.10322733223438263 -0.026003044098615646 -2.237708577013109e-05 1.0504329204559326 1 True False
9949.778 4.245650291442871 -1.262808458214142 1.5312965551959437 -1.839327951470846 -1.5707805792437952 2.674785852432251 1.0441596508026123 -0.07394994795322418 0.1025305986404419 -0.027379082515835762 -3.3990844947529145e-24 1.0414848327636719 1 True False
9949.828 4.297926902770996 -1.2664253872684021 1.5365074316607874 -1.8407508335509242 -1.570756737385885 2.7272942066192627 1.0306217670440674 -0.06959003210067749 0.09492892026901245 -0.027854371815919876 -6.43599487375468e-05 1.0394502878189087 1 True False
9949.877999999999 4.347934722900391 -1.2699299317649384 1.5413358847247522 -1.8420349560179652 -1.570801083241598 2.777186155319214 0.9696156978607178 -0.0673825666308403 0.09157393872737885 -0.021668335422873497 -0.0005278357421047986 0.9814708232879639 1 True False
9949.928 4.394575595855713 -1.2731120449355622 1.5455940405475062 -1.8433906040587367 -1.5707772413836878 2.8239049911499023 0.9010668992996216 -0.06335745006799698 0.0832485556602478 -0.025707896798849106 -5.2574345318134874e-05 0.8934949636459351 1 True False
9949.978 4.437812328338623 -1.276076392536499 1.5497940222369593 -1.8443643055357875 -1.5708449522601526 2.866955280303955 0.8227804899215698 -0.05526375398039818 0.07951202988624573 -0.022532038390636444 5.756259113809392e-08 0.8344424962997437 1 True False
9950.028 4.477402210235596 -1.2788927120021363 1.55351430574526 -1.8454138241209925 -1.5708134810077112 2.906576633453369 0.7638859748840332 -0.05381273478269577 0.07634022831916809 -0.018326183781027794 3.631132858572528e-05 0.7642729878425598 1 True False
9950.078 4.513433933258057 -1.2813283962062378 1.5570390860186976 -1.8464914760985316 -1.5707886854754847 2.942802906036377 0.6906976699829102 -0.046201761811971664 0.06380602717399597 -0.02090960368514061 5.391049189500769e-16 0.6852832436561584 1 True False
9950.127999999999 4.5461015701293945 -1.2835525435260315 1.5601332823382776 -1.84739412883901 -1.570756737385885 2.975458860397339 0.6194884777069092 -0.04239971190690994 0.060871630907058716 -0.017678188160061836 8.189016536184304e-35 0.615226686000824 1 True False
9950.178 4.575315952301025 -1.2856721442988892 1.5629923979388636 -1.848157068292135 -1.570784870778219 3.004605531692505 0.5494318604469299 -0.03715253621339798 0.05120551213622093 -0.015455885790288448 0.0 0.5455745458602905 1 True False
9950.228 4.601096153259277 -1.2874229413321991 1.5654376188861292 -1.8487855396666468 -1.5707977453814905 3.0302019119262695 0.47685688734054565 -0.03440379723906517 0.04841984063386917 -0.013807808980345726 0.0005192626267671585 0.4816257059574127 1 True False
9950.278 4.623359680175781 -1.2889360648444672 1.5675738493548792 -1.8494464359679164 -1.5707934538470667 3.05236554145813 0.4106665551662445 -0.030152618885040283 0.04116065055131912 -0.009520399384200573 0.00021094875410199165 0.41500067710876465 1 True False
9950.328 4.6418938636779785 -1.290229247217514 1.5693591276751917 -1.8498903713622035 -1.5707886854754847 3.071176052093506 0.3474991023540497 -0.02344868890941143 0.0316733717918396 -0.008132584393024445 1.0406508723595932e-14 0.33828362822532654 1 True False
9950.377999999999 4.6570329666137695 -1.2912515860847016 1.570737663899557 -1.8502751789488734 -1.5708406607257288 3.0862936973571777 0.26650571823120117 -0.018095487728714943 0.02319224551320076 -0.007746221963316202 3.3282681055624153e-09 0.2774229645729065 1 True False
9950.428 4.668770790100098 -1.2920859319022675 1.5718749205218714 -1.850602766076559 -1.5707843939410608 3.0980184078216553 0.20025789737701416 -0.014830789528787136 0.017538849264383316 -0.00494080176576972 5.055647956039131e-28 0.19996866583824158 1 True False
9950.478 4.677001953125 -1.292618380194046 1.5727203528033655 -1.850828310052389 -1.5707891623126429 3.1062092781066895 0.12904195487499237 -0.007193647790700197 0.012672847136855125 -0.00445405812934041 2.326250796613749e-05 0.13342434167861938 1 True False
9950.528 4.681800842285156 -1.2928915482810517 1.5731523672686976 -1.8509475193419398 -1.5708172957049769 3.110891103744507 0.06033758446574211 -0.0034866321366280317 0.00361768645234406 -0.003333216067403555 2.2267199164115073e-16 0.06365595757961273 1 True False
9950.578 4.6830153465271 -1.2929183405688782 1.5731876532184046 -1.851039548913473 -1.5707686583148401 3.1121792793273926 0.001957036554813385 0.002611661795526743 0.01858583465218544 -0.012608051300048828 3.3823920110512723e-35 -0.0020480258390307426 1 True False
9950.627999999999 4.682987213134766 -1.2924187940410157 1.5748303572284144 -1.853283544579977 -1.5707719961749476 3.1121673583984375 0.0009029995417222381 0.023552194237709045 0.053732700645923615 -0.07903066277503967 0.0 0.0004459247284103185 1 True False
9950.678 4.682999134063721 -1.290451006298401 1.578512970601217 -1.858981271783346 -1.5708406607257288 3.1121912002563477 0.0011348085245117545 0.056132957339286804 0.09876903891563416 -0.1435428261756897 0.0 0.0007453504949808121 1 True False
9950.728 4.683006763458252 -1.2871062618545075 1.584557835255758 -1.8682300053038539 -1.5708296934710901 3.112227201461792 0.0008305943920277059 0.07940711826086044 0.142062246799469 -0.224081888794899 7.985755655681714e-05 0.0004081449587829411 1 True False
9950.778 4.682997703552246 -1.282466934328415 1.5926764647113245 -1.880974908868307 -1.570801083241598 3.112211227416992 0.0007931219879537821 0.10043397545814514 0.18514645099639893 -0.284387469291687 7.744280446786433e-05 0.00011869563604705036 1 True False
9950.828 4.683019638061523 -1.2767507594874878 1.6034367720233362 -1.897289892236227 -1.5707600752459925 3.1121819019317627 0.00017601154104340822 0.12676747143268585 0.2335977852344513 -0.3680419921875 7.758870196994394e-05 7.152502075769007e-05 1 True False
9950.877999999999 4.683018684387207 -1.2700219613364716 1.6159246603595179 -1.916980882684225 -1.5707719961749476 3.11224365234375 5.047363447374664e-05 0.1479400396347046 0.27731573581695557 -0.42788833379745483 6.670546281384304e-05 5.118526678415947e-05 1 True False
9950.928 4.6830153465271 -1.2617443662932892 1.6311939398394983 -1.9401780567564906 -1.5707691351519983 3.1122846603393555 3.44093277817592e-05 0.1746665984392166 0.32467201352119446 -0.5025733709335327 8.347439550275185e-17 5.759304084805038e-22 1 True False
9950.978 4.6830315589904785 -1.2522039872458954 1.6484563986407679 -1.9667679272093714 -1.5707805792437952 3.112255573272705 2.6422749215271324e-05 0.1835811585187912 0.34477588534355164 -0.5703136920928955 1.267978148185969e-35 8.748446442626265e-41 1 True False
9951.028 4.683034896850586 -1.2432956260493775 1.6650460402118128 -1.9925276241698207 -1.5707686583148401 3.11220645904541 1.8675946900081897e-10 0.1646536886692047 0.31530138850212097 -0.47659599781036377 1.4205842231718169e-11 0.0 1 True False
9951.078 4.6829729080200195 -1.2354864937118073 1.6793206373797815 -2.014797349969381 -1.5708125273333948 3.1122453212738037 0.0 0.1414584517478943 0.26641955971717834 -0.41833484172821045 -2.705822407733649e-05 0.0 1 True False
9951.127999999999 4.683043956756592 -1.228910283451416 1.6916211287127894 -2.0334984264769496 -1.5708172957049769 3.1122853755950928 0.0 0.12438120692968369 0.22082118690013885 -0.337490051984787 -5.0628484863951984e-15 0.0 1 True False
9951.178 4.683056831359863 -1.2235064071467896 1.7015593687640589 -2.048701902429098 -1.5708406607257288 3.1122853755950928 0.0 0.09681069105863571 0.17491818964481354 -0.27972719073295593 -7.6904761806479995e-34 3.8089632104703635e-24 1 True False
9951.228 4.682990550994873 -1.2193639141372223 1.7090070883380335 -2.060482164422506 -1.5707810560809534 3.1122524738311768 0.0 0.07088015228509903 0.12998883426189423 -0.19856709241867065 -0.0 5.7873626576614945e-43 1 True False
9951.278 4.68306303024292 -1.2165213984302063 1.7144277731524866 -2.0687619648375453 -1.5707805792437952 3.112222671508789 0.0 0.04435110464692116 0.09036029875278473 -0.14515966176986694 -0.0 0.0 1 True False
9951.328 4.683055400848389 -1.2147643727115174 1.7175090948687952 -2.073519369164938 -1.5707686583148401 3.11221981048584 0.0 0.022230591624975204 0.04346976801753044 -0.0630251094698906 -0.0 -1.841319111073325e-11 1 True False
9951.377999999999 4.683014392852783 -1.214365915661194 1.7183674017535608 -2.0748988590636195 -1.5707767645465296 3.112227201461792 0.0 -0.0024325186386704445 -0.0005738540203310549 0.0038601283449679613 -0.0 -2.796967308685532e-30 1 True False
9951.428 4.683006763458252 -1.2144084733775635 1.718445126210348 -2.0748592815794886 -1.5707967917071741 3.1122119426727295 0.0 0.00024154425773303956 0.000834304082673043 1.3704983651545718e-20 -0.0 -0.0 1 True False
9951.478 4.683006763458252 -1.2143258613399048 1.718485180531637 -2.0749227009215296 -1.5708087126361292 3.1122119426727295 0.0 0.00047066115075722337 0.0015090672532096505 2.081790018077913e-39 -0.0 -9.354940155859026e-10 1 True False
9951.528 4.683006763458252 -1.2143631142428895 1.7184932867633265 -2.0749031505980433 -1.5707967917071741 3.1122162342071533 0.0 5.675258780515509e-43 0.00028732625651173294 0.0 -0.0 -1.4210168353282548e-28 1 True False
9951.578 4.682998180389404 -1.2143094402602692 1.7184718290912073 -2.074918886224264 -1.5707691351519983 3.1121938228607178 0.0 0.0001828774402383715 0.00023294273705687374 0.0 -0.0 -0.0 1 True False
9951.627999999999 4.683055400848389 -1.214313880806305 1.7184866110431116 -2.0749665699400843 -1.5707686583148401 3.112231731414795 -1.5067507065086509e-25 0.00013903339277021587 0.00012778582458849996 -5.889388980268118e-17 -0.0 -0.0 1 True False
9951.678 4.6830153465271 -1.2143139106086274 1.7184494177447718 -2.0749107799925746 -1.5707810560809534 3.1122496128082275 0.0 0.00012550769315566868 9.401916031492874e-05 -8.945995581042065e-36 -0.0 -0.0 1 True False
9951.728 4.68303918838501 -1.2142886084369202 1.7184799353228968 -2.0749269924559535 -1.5707767645465296 3.1121864318847656 -2.9939954401925206e-05 0.00011642633762676269 7.411160186165944e-05 -0.0 -0.0 -0.0 1 True False
9951.778 4.6830034255981445 -1.2143809360316773 1.7184584776507776 -2.0749031505980433 -1.5708492437945765 3.112231731414795 -3.171991920680739e-05 9.103916090680286e-05 1.5239389882393956e-13 -0.0 -0.0 -0.0 1 True False
9951.828 4.683047771453857 -1.2142611306956788 1.7184761206256312 -2.0748869381346644 -1.5707929770099085 3.1122496128082275 -1.8216880036222622e-44 7.524210377596319e-05 3.587324068671532e-43 -0.0 -0.0 -0.0 1 True False
9951.877999999999 4.682994842529297 -1.214310960178711 1.7185214201556605 -2.074895044366354 -1.5707843939410608 3.112236261367798 0.0 5.1316147768087e-17 5.093831122580179e-22 -8.735831830952651e-20 -0.0 -0.0 1 True False
9951.928 4.6830034255981445 -1.214318410759308 1.7184627691852015 -2.0748988590636195 -1.570784870778219 3.1122074127197266 0.0 0.0 -1.8263828526395452e-31 -1.326974014166568e-38 -0.0 -0.0 1 True False
9951.978 4.6830153465271 -1.2144337457469483 1.718407932912008 -2.0749269924559535 -1.5707972685443323 3.112276315689087 -9.442831933048623e-12 0.0 -0.0 -0.0014384828973561525 -0.0 -0.0 1 True False
9952.028 4.683043479919434 -1.2143740516952057 1.7183597723590296 -2.075045724908346 -1.570796314870016 3.112215280532837 0.0 0.0001728058559820056 -4.8379858425593215e-17 -1.435093111012975e-07 -0.00019480618357192725 -0.00010158529039472342 1 True False
9952.078 4.682978630065918 -1.214365915661194 1.7183879057513636 -2.0750776729979457 -1.5707967917071741 3.1121983528137207 0.0 0.00031505501829087734 0.0004231696657370776 0.0003575921291485429 -8.277680171886459e-05 -4.212456042296253e-05 1 True True
9952.127999999999 4.68306303024292 -1.2146024864963074 1.7179330031024378 -2.073413988152975 -1.570801083241598 3.112264394760132 0.0 -0.015521442517638206 -0.033401969820261 0.0601838082075119 -3.942025068681687e-05 -2.6575014999252744e-05 1 True True
9952.178 4.682994842529297 -1.2164018613151093 1.714736286793844 -2.0688864193358363 -1.570784870778219 3.1121909618377686 0.0 -0.050478462129831314 -0.0889558494091034 0.12649524211883545 -1.070410320380688e-07 -8.966599873777174e-21 1 True True
9952.228 4.683011054992676 -1.219299541120865 1.7092145125018519 -2.0603653393187464 -1.5707691351519983 3.112240791320801 0.0 -0.07134728133678436 -0.13650931417942047 0.20103926956653595 -1.6259555703412353e-26 -1.3620284761605784e-39 1 True True
9952.278 4.683010101318359 -1.2235136491111298 1.701409165059225 -2.048546930352682 -1.5708044211017054 3.112239122390747 0.0 -0.09205129742622375 -0.17064686119556427 0.26284509897232056 -2.802596928649634e-45 -0.0 1 True True
9952.328 4.683052062988281 -1.22895963609729 1.6913216749774378 -2.033393522302145 -1.5708091894732874 3.112173080444336 1.1675188582554612e-27 -0.1244613453745842 -0.22424045205116272 0.33316799998283386 -0.0 -0.0 1 True True
9952.377999999999 4.6830315589904785 -1.235510454779007 1.679220978413717 -2.0143314800658167 -1.5707767645465296 3.112227201461792 2.5016150175360963e-05 -0.1461416780948639 -0.2572746276855469 0.4050007164478302 -0.0 -0.0 1 True True
9952.428 4.682998180389404 -1.243474618797638 1.6647451559649866 -1.9921370945372523 -1.5708168188678187 3.112215280532837 1.475977296649944e-05 -0.17015549540519714 -0.3065726161003113 0.47533461451530457 -0.0 -0.0 1 True True
9952.478 4.683019638061523 -1.2525425118258973 1.648022476826803 -1.9663154087462367 -1.5707529226886194 3.112231731414795 1.0468032087374013e-05 -0.1907438337802887 -0.35676106810569763 0.5473962426185608 -0.0 -0.0 1 True True
9952.528 4.683055400848389 -1.2617899638465424 1.6307280699359339 -1.939827104608053 -1.5707891623126429 3.112210988998413 0.0 -0.17257754504680634 -0.31209737062454224 0.509100079536438 -0.0 -0.0 1 True True
9952.578 4.68297004699707 -1.2699402135661622 1.615885082875387 -1.9166466198363246 -1.5707886854754847 3.1122074127197266 0.0 -0.15487343072891235 -0.2763531804084778 0.42452526092529297 -0.0 -0.0 1 True True
9952.627999999999 4.683040142059326 -1.2768512529185791 1.603144947682516 -1.896989484826559 -1.570801083241598 3.1122028827667236 0.0 -0.12511993944644928 -0.22913727164268494 0.3524474799633026 -0.0 -0.0 1 True True
9952.678 4.683072090148926 -1.2825943392566224 1.592618767415182 -1.880906721154684 -1.5707805792437952 3.1122734546661377 0.0 -0.10210832953453064 -0.1925230324268341 0.2940315306186676 -0.0 -0.0 1 True True
9952.728 4.683027744293213 -1.2870132488063355 1.5845235029803675 -1.868171831170553 -1.570829216633932 3.1122524738311768 0.0 -0.07484424114227295 -0.14663390815258026 0.2090596854686737 -0.0 -0.0 1 True True
9952.778 4.6830153465271 -1.2902140778354187 1.578397576008932 -1.8589331112303675 -1.5708211104022425 3.1121983528137207 0.0 -0.05015327036380768 -0.10001496225595474 0.1662478893995285 -0.0 -0.0 1 True True
9952.828 4.683011054992676 -1.292249695663788 1.5748747030841272 -1.853281160394186 -1.5707886854754847 3.1122496128082275 0.0 -0.028525814414024353 -0.05154789239168167 0.0902608335018158 -0.0 -0.0 1 True True
9952.877999999999 4.683043956756592 -1.2930275362781067 1.573303524647848 -1.8511868915953578 -1.5708406607257288 3.112236261367798 0.0 -0.0015808554599061608 -0.00724611384794116 0.010122615844011307 -0.0 -0.0 1 True True
9952.928 4.682319164276123 -1.2929740411094208 1.5733359495746058 -1.8511387310423792 -1.5708335081683558 3.1109702587127686 -0.03148411214351654 3.7571614425476995e-41 0.00026196602266281843 0.0004541827947832644 -0.0 -0.05983889847993851 1 True True
9952.978 4.679966926574707 -1.293061540727951 1.5733392874347132 -1.8510710201659144 -1.570756737385885 3.106118679046631 -0.06915067136287689 -0.003571820445358753 0.0008519419352523983 0.0007461041677743196 -0.0 -0.1297583281993866 1 True True
9953.028 4.67557430267334 -1.2932411295226593 1.5734966436969202 -1.8510991535582484 -1.5707967917071741 3.0977556705474854 -0.10081157833337784 -0.004340182989835739 0.004959964659065008 0.00013949579442851245 -3.0552253414336e-17 -0.19865912199020386 1 True True
9953.078 4.669509410858154 -1.2934034627727051 1.5737531820880335 -1.851131101647848 -1.570813004170553 3.086106300354004 -0.1394895762205124 -0.003992414101958275 0.006928220856934786 -0.0005757535109296441 -4.6408946014422524e-36 -0.26403841376304626 1 True True
9953.127999999999 4.6616740226745605 -1.2936930817416687 1.5740731398211878 -1.8511105976500453 -1.570784870778219 3.07088041305542 -0.1751980185508728 -0.005236205644905567 0.0073448834009468555 -0.002346003893762827 -0.0 -0.3416626453399658 1 True True
9953.178 4.651905059814453 -1.2939222616008301 1.5744779745685022 -1.8512736759581507 -1.5707767645465296 3.052147388458252 -0.21233059465885162 -0.0071814581751823425 0.009247853420674801 -0.0020018480718135834 -0.0 -0.40085840225219727 1 True True
9953.228 4.640383720397949 -1.2942495805076142 1.5749252478228968 -1.8513571224608363 -1.5708168188678187 3.0298550128936768 -0.24435503780841827 -0.008309793658554554 0.011030509136617184 -0.00417001498863101 -1.1368726404725749e-08 -0.47315964102745056 1 True True
9953.278 4.62716007232666 -1.2946875852397461 1.5753844420062464 -1.851504465142721 -1.5708168188678187 3.004115104675293 -0.28760966658592224 -0.00951961986720562 0.010154185816645622 -0.002631593495607376 -6.517363362945616e-05 -0.5492382049560547 1 True True
9953.328 4.611911296844482 -1.2951633793166657 1.5758679548846644 -1.8516518078246058 -1.5707767645465296 2.974929094314575 -0.3163921535015106 -0.009713726118206978 0.012373086996376514 -0.003326481906697154 -3.420489520067349e-05 -0.6233057379722595 1 True True
9953.377999999999 4.595160007476807 -1.2956701082042237 1.5765684286700647 -1.851819177667135 -1.5707925001727503 2.94221830368042 -0.35686153173446655 -0.011033548042178154 0.01381534244865179 -0.00605893274769187 -1.1594123861868866e-05 -0.6943383812904358 1 True True
9953.428 4.576246738433838 -1.296171860103943 1.5772813002215784 -1.851985593835348 -1.570813004170553 2.9059672355651855 -0.3899015784263611 -0.010840878821909428 0.015806099399924278 -0.003952309489250183 -5.986133033627225e-15 -0.7536483407020569 1 True True
9953.478 4.555896282196045 -1.2968017917922516 1.5781672636615198 -1.8521086178221644 -1.570784870778219 2.8662405014038086 -0.43372443318367004 -0.013251641765236855 0.017987413331866264 -0.005808551795780659 -9.09294655199957e-34 -0.818116307258606 1 True True
9953.528 4.533496856689453 -1.2974780958941956 1.5789979139911097 -1.8522869549193324 -1.5708492437945765 2.8233537673950195 -0.46211740374565125 -0.016023699194192886 0.01783597841858864 -0.003972154576331377 -0.0 -0.9017775058746338 1 True True
9953.578 4.509222984313965 -1.2981168788722535 1.5799177328692835 -1.8525458774962367 -1.570857350026266 2.7764620780944824 -0.49795931577682495 -0.013903825543820858 0.018991101533174515 -0.002791401231661439 -8.227438956964761e-05 -0.9649754762649536 1 True True
9953.627999999999 4.483323097229004 -1.298939363365509 1.5808904806720179 -1.852795740167135 -1.570824925099508 2.726440191268921 -0.5436030626296997 -0.014913003891706467 0.020044704899191856 -0.006689060479402542 -3.3285019930194787e-16 -1.0409801006317139 1 True True
9953.678 4.456495761871338 -1.2997506123832245 1.5820272604571741 -1.8529836140074671 -1.5707486311541956 2.6740643978118896 -0.5421774983406067 -0.015948740765452385 0.021555239334702492 -0.003947163932025433 0.0007843589992262423 -1.0434290170669556 1 True True
9953.728 4.429328918457031 -1.3005668979934235 1.5830596129046839 -1.8532663784422816 -1.570756737385885 2.621634006500244 -0.535883367061615 -0.01884179562330246 0.02505309507250786 -0.0016326910117641091 0.0016239937394857407 -1.0536997318267822 1 True True
9953.778 4.402217864990234 -1.301358775501587 1.5841062704669397 -1.853555818597311 -1.5707967917071741 2.5694167613983154 -0.5360044240951538 -0.019023947417736053 0.020359955728054047 -0.003121000714600086 0.0026418068446218967 -1.0524382591247559 1 True True
9953.828 4.374931812286377 -1.3021274370006104 1.5851014296161097 -1.8537937603392542 -1.5708444754229944 2.5169947147369385 -0.5396714210510254 -0.014709756709635258 0.02159387804567814 -0.0034781128633767366 -0.0007238227408379316 -1.0434017181396484 1 True True
9953.877999999999 4.347751140594482 -1.3029274505427857 1.5861132780658167 -1.8540893993773402 -1.5708730856524866 2.46451997756958 -0.5477930903434753 -0.015671750530600548 0.020022770389914513 -0.008437943644821644 -0.0017598997801542282 -1.046059012413025 1 True True
9953.928 4.320687770843506 -1.3037424844554444 1.5872414747821253 -1.8542481861510218 -1.5708335081683558 2.4122860431671143 -0.5501056909561157 -0.01457713358104229 0.01891288347542286 -0.008165612816810608 -0.0017140257405117154 -1.0507359504699707 1 True True
9953.978 4.2937846183776855 -1.3045870822719117 1.5883143583880823 -1.854427000085348 -1.5707686583148401 2.359881639480591 -0.5438554286956787 -0.014894533902406693 0.02166498266160488 -0.006489026825875044 0.00018229322449769825 -1.0344574451446533 1 True True
9954.028 4.266863822937012 -1.3054367166808625 1.5893142859088343 -1.8546534977354945 -1.5707414785968226 2.307438373565674 -0.538342297077179 -0.01647345907986164 0.02044251374900341 -0.003194462275132537 0.0008060125401243567 -1.049331784248352 1 True True
9954.078 4.239751815795898 -1.3062462967685242 1.5903390089618128 -1.8549238644041957 -1.5707443396197718 2.255235433578491 -0.5356176495552063 -0.018048400059342384 0.021160999312996864 -0.002930325223132968 0.0010900795459747314 -1.0504118204116821 1 True True
9954.127999999999 4.212595462799072 -1.3069693011096497 1.5912712256061 -1.85514559368276 -1.5707929770099085 2.202869415283203 -0.5367200374603271 -0.017235463485121727 0.02124163694679737 -0.0014663420151919127 0.0023266146890819073 -1.0422695875167847 1 True True
9954.178 4.185413360595703 -1.3077944380095978 1.592391316090719 -1.855424543420309 -1.570792023335592 2.1503219604492188 -0.5386984944343567 -0.017687251791357994 0.020700497552752495 -0.002637014724314213 -0.00013607194705400616 -1.042348861694336 1 True True
9954.228 4.158063888549805 -1.3085781198791047 1.593440357838766 -1.8557306728758753 -1.5708769003497522 2.0982470512390137 -0.5460032224655151 -0.014683982357382774 0.02123151905834675 -0.007158645894378424 -0.0009693534229882061 -1.0559099912643433 1 True True
9954.278 4.131042957305908 -1.3093857032111664 1.5944436232196253 -1.8558808765807093 -1.570853058491842 2.0457539558410645 -0.5471073389053345 -0.014948991127312183 0.018184611573815346 -0.008482984267175198 -0.0016741729341447353 -1.0444282293319702 1 True True
9954.328 4.104035377502441 -1.310153142814972 1.5956266562091272 -1.8561049900450648 -1.5708254019366663 1.993314266204834 -0.5456971526145935 -0.013842626474797726 0.020087765529751778 -0.007388381753116846 -0.002426696475595236 -1.0474696159362793 1 True True
9954.377999999999 4.077151298522949 -1.3110502523234864 1.5966504255877894 -1.856347223321432 -1.570732895527975 1.9411036968231201 -0.5437405109405518 -0.016316615045070648 0.02143949829041958 -0.006117434706538916 0.0008001315873116255 -1.0529931783676147 1 True True
9954.428 4.050179958343506 -1.3118347388556977 1.5976813475238245 -1.8565689525999964 -1.570716683064596 1.8887479305267334 -0.5387924313545227 -0.016688410192728043 0.020864302292466164 -0.0033814420457929373 0.0011448640143498778 -1.0459847450256348 1 True True
9954.478 4.022961616516113 -1.3125955325416108 1.5986579100238245 -1.856819292108053 -1.5707653204547327 1.8362469673156738 -0.5345157384872437 -0.01816033199429512 0.023288235068321228 -0.0015474172541871667 0.0025496818125247955 -1.0414116382598877 1 True True
9954.528 3.9957337379455566 -1.3133910459331055 1.5996883551227015 -1.8572026691832484 -1.5708492437945765 1.7839946746826172 -0.5380014181137085 -0.017555704340338707 0.02074396051466465 -0.0033547328785061836 -4.4723714381689206e-05 -1.0520373582839966 1 True True
9954.578 3.968489646911621 -1.314131037597992 1.6007197538958948 -1.8573609791197718 -1.57082444826235 1.7315638065338135 -0.5413225889205933 -0.014373871497809887 0.01911342889070511 -0.005952552426606417 -0.0005411535385064781 -1.0454710721969604 1 True True
9954.627999999999 3.9413719177246094 -1.3149593037417908 1.6017926375018519 -1.8576508961119593 -1.5708611647235315 1.6791653633117676 -0.5494847893714905 -0.014974593184888363 0.01972980797290802 -0.008319766260683537 -0.0012553012929856777 -1.0449022054672241 1 True True
9954.678 3.914306402206421 -1.3158414226821442 1.6029365698443812 -1.8577619991698207 -1.570801083241598 1.6269476413726807 -0.548903226852417 -0.01407267153263092 0.01880553737282753 -0.009525816887617111 -0.003749408293515444 -1.0496327877044678 1 True True
9954.728 3.8874402046203613 -1.3166126173785706 1.6039264837848108 -1.8579851589598597 -1.5707891623126429 1.5745620727539062 -0.5464472770690918 -0.01537555642426014 0.021124018356204033 -0.005482219159603119 0.00047908598207868636 -1.0429649353027344 1 True True
9954.778 3.860461711883545 -1.3174653512290497 1.604919735585348 -1.8582025967040003 -1.5707486311541956 1.5220943689346313 -0.5385841131210327 -0.017813414335250854 0.020303688943386078 -0.003045450896024704 0.0010289758211001754 -1.0422096252441406 1 True True
9954.828 3.8333730697631836 -1.318283663397171 1.6060088316546839 -1.858429571191305 -1.570732895527975 1.469822645187378 -0.5342589020729065 -0.018820133060216904 0.02334773913025856 -0.0017091445624828339 0.002267583506181836 -1.0467864274978638 1 True True
9954.877999999999 3.8061394691467285 -1.3190497320941468 1.6070087591754358 -1.858755727807516 -1.5707805792437952 1.4174907207489014 -0.536990225315094 -0.018050553277134895 0.02198350988328457 -0.0028076169546693563 9.160459012491629e-05 -1.0529899597167969 1 True True
9954.928 3.778926372528076 -1.3197978895953675 1.6080120245562952 -1.859042306939596 -1.5708087126361292 1.3650126457214355 -0.5436715483665466 -0.014610382728278637 0.02076612040400505 -0.005400805734097958 -0.0004333159595262259 -1.044875979423523 1 True True
9954.978 3.751690149307251 -1.3205861014178772 1.6090672651873987 -1.85927214244985 -1.5708449522601526 1.3127648830413818 -0.5433365702629089 -0.014695988968014717 0.020545989274978638 -0.006635668687522411 -0.000906579487491399 -1.0541255474090576 1 True True
9955.028 3.7247154712677 -1.3214559716037293 1.6101234594928187 -1.859471937219137 -1.5707843939410608 1.2604286670684814 -0.548366904258728 -0.013229419477283955 0.018501359969377518 -0.008903149515390396 -0.0023116394877433777 -1.0430089235305786 1 True True
9955.078 3.6976990699768066 -1.3222254079631348 1.611241642628805 -1.8596540890135707 -1.5707886854754847 1.2079834938049316 -0.5443815588951111 -0.014949221163988113 0.018354542553424835 -0.007206750568002462 0.00033971460652537644 -1.0478652715682983 1 True True
9955.127999999999 3.6706907749176025 -1.3230575037053605 1.6122291723834437 -1.8598925075926722 -1.5707443396197718 1.1556137800216675 -0.5422318577766418 -0.01662363111972809 0.022226853296160698 -0.0045766099356114864 0.0008555148961022496 -1.0474501848220825 1 True True
9955.178 3.6437253952026367 -1.323815481071808 1.613255802785055 -1.8602353535094203 -1.5707486311541956 1.1032369136810303 -0.5380352139472961 -0.01774255745112896 0.022475846111774445 -0.0026429579593241215 0.0011665949132293463 -1.052382230758667 1 True True
9955.228 3.6165072917938232 -1.3247098338655015 1.614295784627096 -1.8604299030699671 -1.5707610289203089 1.0509105920791626 -0.5355812907218933 -0.017574386671185493 0.022898614406585693 -0.002348783891648054 0.0023351265117526054 -1.0453107357025146 1 True True
9955.278 3.58933424949646 -1.3254292619279404 1.6153023878680628 -1.8607241115965785 -1.5708044211017054 0.998675525188446 -0.5433696508407593 -0.017276719212532043 0.0209098719060421 -0.002659684047102928 -6.733255577273667e-05 -1.0505234003067017 1 True True
9955.328 3.5621697902679443 -1.326191322212555 1.6163714567767542 -1.8610097370543421 -1.570857350026266 0.9462323188781738 -0.5423346161842346 -0.01583494059741497 0.02091837488114834 -0.006725600454956293 -0.0008361165528185666 -1.0481770038604736 1 True True
9955.377999999999 3.535003900527954 -1.3270486009171982 1.6174853483783167 -1.8612209759154261 -1.5708282629596155 0.8937912583351135 -0.5444279909133911 -0.016169942915439606 0.020198866724967957 -0.006281236186623573 -0.0015630254056304693 -1.0454339981079102 1 True True
9955.428 3.5079562664031982 -1.3278682243875046 1.6184552351581019 -1.8614479504027308 -1.5708368460284632 0.8414226174354553 -0.5471872091293335 -0.014537443406879902 0.019224340096116066 -0.00976977776736021 -0.0020828747656196356 -1.0391993522644043 1 True True
9955.478 3.481058120727539 -1.328715757732727 1.6194818655597132 -1.8616024456419886 -1.5707810560809534 0.789065420627594 -0.5431640148162842 -0.01574428752064705 0.021642250940203667 -0.006013956386595964 0.0005176973063498735 -1.0464400053024292 1 True True
9955.528 3.4540746212005615 -1.3295224767974396 1.620547119771139 -1.8617927036681117 -1.570732895527975 0.7367501258850098 -0.5411213636398315 -0.017745276913046837 0.022439762949943542 -0.003839393611997366 0.0009654476307332516 -1.0445761680603027 1 True True
9955.578 3.4270055294036865 -1.330282525425293 1.621575180684225 -1.862091680566305 -1.5707362333880823 0.6844238638877869 -0.5366987586021423 -0.016729824244976044 0.022270245477557182 -0.001760362065397203 0.0023825441021472216 -1.0469624996185303 1 True True
