Andreas691667/Digital_Twin_UR/data_analysis/test_results/robot_data/robot_output.csv
timestamp actual_q_0 actual_q_1 actual_q_2 actual_q_3 actual_q_4 actual_q_5 actual_qd_0 actual_qd_1 actual_qd_2 actual_qd_3 actual_qd_4 actual_qd_5 safety_status output_bit_register_65 output_bit_register_66
11361.56 3.7120444774627686 -0.8254792851260682 0.8430379072772425 -1.5882932148375453 -1.570824925099508 2.141263484954834 0.0 0.0 0.0 -0.0 0.0 -0.0 1 False False
11361.609999999999 3.7120742797851562 -0.8254698079875489 0.8429258505450647 -1.5882445774474085 -1.5707686583148401 2.141312837600708 0.0 0.0 0.0 -0.0 0.0 -0.0 1 False False
11361.66 3.712095260620117 -0.8254427474788208 0.8430126349078577 -1.5882774792113246 -1.570772949849264 2.141279697418213 0.0 0.0 0.0 -0.0 0.0 -0.0 1 False False
11361.71 3.712062358856201 -0.825438455944397 0.8429964224444788 -1.588269372979635 -1.570772949849264 2.1412763595581055 0.0 0.0 0.0 -0.0 0.0 -0.0 1 False False
11361.76 3.7120490074157715 -0.8254578870585938 0.842992130910055 -1.5882650814452113 -1.5708449522601526 2.141345262527466 0.0 0.0 0.0 -0.0 0.0 -0.0 1 False False
11361.81 3.7120907306671143 -0.8254997295192261 0.8430245558368128 -1.5882774792113246 -1.5707805792437952 2.1412839889526367 0.0 0.0 0.0 -0.0 0.0 -0.0 1 False False
11361.859999999999 3.7121312618255615 -0.8255360883525391 0.8430007139789026 -1.5882846317686976 -1.5707891623126429 2.1412222385406494 0.0 0.0 0.0 -0.0 0.0 -0.0 1 False False
11361.91 3.7120697498321533 -0.8254589599421998 0.8429630438434046 -1.5882569752135218 -1.570784870778219 2.1412720680236816 0.0 0.0 0.0 -0.0 0.0 -0.0 1 False False
11361.96 3.7120490074157715 -0.8254997295192261 0.8430259863482874 -1.5882932148375453 -1.5708044211017054 2.1412506103515625 0.0 0.0 0.0 -0.0 0.0 -0.0 1 False False
11362.01 3.712078809738159 -0.8254664105227967 0.8430007139789026 -1.5882331333556117 -1.5708168188678187 2.1412839889526367 0.0 0.0 0.0 -0.0 0.0 -0.0 1 False False
11362.06 3.712066888809204 -0.8255317372134705 0.8429635206805628 -1.5883094273009242 -1.570784870778219 2.14125919342041 0.0 0.0 0.0 -0.0 0.0 -0.0 1 False False
11362.109999999999 3.7120368480682373 -0.825482503776886 0.8429721037494105 -1.5882445774474085 -1.5708168188678187 2.1412839889526367 0.0 0.0 0.0 -0.0 0.0 -0.0 1 False False
11362.16 3.7121145725250244 -0.8255112332156678 0.8430007139789026 -1.5882569752135218 -1.5707886854754847 2.1413495540618896 0.0 0.0 0.0 -0.0 0.0 -0.0 1 False False
11362.21 3.7120532989501953 -0.8255317372134705 0.8429763952838343 -1.588269372979635 -1.5708368460284632 2.1413333415985107 0.0 0.0 0.0 -0.0 0.0 -0.0 1 False False
11362.26 3.7120578289031982 -0.8254459065249939 0.8429678122149866 -1.588269372979635 -1.570784870778219 2.1412997245788574 0.0 0.0 0.0 -0.0 0.0 -0.0 1 False False
11362.31 3.7120413780212402 -0.8254954975894471 0.8429434935199183 -1.5882774792113246 -1.5707529226886194 2.14132022857666 0.0 0.0 0.0 -0.0 0.0 -0.0 1 False False
11362.359999999999 3.712045669555664 -0.8254621785930176 0.8429721037494105 -1.5882774792113246 -1.5708211104022425 2.141251564025879 0.0 0.0 0.0 -0.0 0.0 -0.0 1 False False
11362.41 3.7120532989501953 -0.8254793447307129 0.8429759184466761 -1.5882412395873011 -1.5707891623126429 2.1413116455078125 0.0 0.0 0.0 -0.0 0.0 -0.0 1 False False
11362.46 3.7120652198791504 -0.8255242270282288 0.8429721037494105 -1.5883175335326136 -1.5708168188678187 2.141263484954834 0.0 0.0 0.0 -0.0 0.0 -0.0 1 False False
11362.51 3.7120742797851562 -0.825483576660492 0.8430331389056605 -1.5882774792113246 -1.5707648436175745 2.141312837600708 0.0 0.0 0.0 -0.0 0.0 -0.0 1 False False
11362.56 3.7121191024780273 -0.8254912060550232 0.8430288473712366 -1.588297029534811 -1.570756737385885 2.1413044929504395 0.0 0.0 0.0 -0.0 0.0 -0.0 1 False False
11362.609999999999 3.7120697498321533 -0.8255080741694947 0.8430169264422815 -1.5883165798582972 -1.5707929770099085 2.141287088394165 0.0 0.0 0.0 -0.0 0.0 -0.0 1 False False
11362.66 3.7120907306671143 -0.8254546684077759 0.8429845015155237 -1.5882932148375453 -1.5707805792437952 2.14132022857666 0.0 0.0 0.0 -0.0 0.0 -0.0 1 False False
11362.71 3.712078809738159 -0.8254673641971131 0.8430007139789026 -1.5883094273009242 -1.5708211104022425 2.141295909881592 0.0 0.0 0.0 -0.0 0.0 -0.0 1 False False
11362.76 3.7120158672332764 -0.8255123060992737 0.8430007139789026 -1.5883251629271449 -1.5707929770099085 2.1413044929504395 0.0 0.0 0.0 -0.0 0.0 -0.0 1 False False
11362.81 3.712078809738159 -0.8254793447307129 0.8429353872882288 -1.5882765255370082 -1.5708168188678187 2.1413044929504395 0.0 0.0 0.0 -0.0 0.0 -0.0 1 False False
11362.859999999999 3.712078809738159 -0.8254823249629517 0.8429845015155237 -1.5882774792113246 -1.5708168188678187 2.1412839889526367 0.0 0.0 0.0 -0.0 0.0 -0.0 1 False False
11362.91 3.712045669555664 -0.8254708212665101 0.8430212179767054 -1.5883013210692347 -1.5707886854754847 2.1412558555603027 0.0 0.0 0.0 -0.0 0.0 -0.0 1 False False
11362.96 3.7120816707611084 -0.8255199950984498 0.8430007139789026 -1.5883251629271449 -1.5707967917071741 2.141279697418213 0.0 0.0 0.0 -0.0 0.0 -0.0 1 False False
11363.01 3.7120742797851562 -0.8255360883525391 0.8429845015155237 -1.588292738000387 -1.570801083241598 2.1412839889526367 0.0 0.0 0.0 -0.0 0.0 -0.0 1 False False
11363.06 3.7120444774627686 -0.8254620593837281 0.8430007139789026 -1.5882774792113246 -1.5707648436175745 2.1412839889526367 0.0 0.0 0.0 -0.0 0.0 -0.0 1 False False
11363.109999999999 3.712095260620117 -0.8254792851260682 0.8429759184466761 -1.5883251629271449 -1.5707967917071741 2.141263484954834 0.0 0.0 0.0 -0.0 0.0 -0.0 1 False False
11363.16 3.7120697498321533 -0.8254954975894471 0.8429678122149866 -1.5882650814452113 -1.5707648436175745 2.141308546066284 0.0 0.0 0.0 -0.0 0.0 -0.0 1 False False
11363.21 3.712099552154541 -0.8254869741252442 0.8429721037494105 -1.5882932148375453 -1.5708335081683558 2.141270875930786 0.0 0.0 0.0 -0.0 0.0 -0.0 1 False False
11363.26 3.7120697498321533 -0.8254339855960389 0.8430126349078577 -1.5882445774474085 -1.570801083241598 2.141279697418213 0.0 0.0 0.0 -0.0 0.0 -0.0 1 False False
11363.31 3.712050199508667 -0.825519935493805 0.8429434935199183 -1.5882498226561488 -1.5708254019366663 2.141279697418213 0.0 1.167142980671191e-24 0.0 -0.0 0.0 -0.0 1 False False
11363.359999999999 3.7120578289031982 -0.8254427474788208 0.8429763952838343 -1.588212629357809 -1.5707648436175745 2.141263484954834 0.0 -1.0445467087590792e-36 0.0 -0.0 0.0 -0.0 1 False False
11363.41 3.7120742797851562 -0.8255155247500916 0.8430007139789026 -1.588313718835348 -1.570772949849264 2.1412601470947266 0.0 0.0 0.0 -0.0 0.0 -0.0 1 False False
11363.46 3.7120697498321533 -0.8254708212665101 0.8429754416095179 -1.5882731876769007 -1.5707967917071741 2.141267776489258 0.0 0.0 0.0 -0.0 0.0 -0.0 1 False False
11363.51 3.712062358856201 -0.8254546088031312 0.8429964224444788 -1.588285585443014 -1.570813004170553 2.141279697418213 0.0 0.0 0.0 -0.0 0.0 -0.0 1 False False
11363.56 3.7120742797851562 -0.8254546684077759 0.8430007139789026 -1.5882846317686976 -1.570801083241598 2.141312837600708 0.0 0.0 0.0 -0.0 0.0 -0.0 1 False False
11363.609999999999 3.712087631225586 -0.8254621785930176 0.8430007139789026 -1.5882374248900355 -1.5707891623126429 2.141270875930786 0.0 0.0 0.0 -0.0 0.0 -0.0 1 False False
11363.66 3.712083339691162 -0.8255154651454468 0.8429754416095179 -1.5882774792113246 -1.5707648436175745 2.1412384510040283 0.0 0.0 0.0 -0.0 0.0 -0.0 1 False False
11363.71 3.7120697498321533 -0.8255037826350708 0.8429964224444788 -1.588313718835348 -1.5707724730121058 2.141270875930786 0.0 0.0 0.0 -0.0 0.0 -0.0 1 False False
11363.76 3.7120532989501953 -0.8254385155490418 0.8429721037494105 -1.5882774792113246 -1.5708211104022425 2.141308546066284 0.0 0.0 0.0 -0.0 0.0 -0.0 1 False False
11363.81 3.712041139602661 -0.8254912060550232 0.8430293242083948 -1.588269372979635 -1.5708449522601526 2.141270875930786 0.0 0.0 0.0 -0.0 0.0 -0.0 1 False False
11363.859999999999 3.712095260620117 -0.8254255813411255 0.8429630438434046 -1.5882932148375453 -1.570772949849264 2.141317129135132 0.0 0.0 0.0 -0.0 0.0 -0.0 1 False False
11363.91 3.712003707885742 -0.8254907888225098 0.8430126349078577 -1.5882655582823695 -1.5707281271563929 2.141247272491455 0.0 0.0 0.0 -0.0 0.0 -0.0 1 False False
11363.96 3.7120816707611084 -0.8255123060992737 0.8430007139789026 -1.5882774792113246 -1.5708211104022425 2.141295909881592 0.0 0.0 0.0 -0.0 0.0 -0.0 1 False False
11364.01 3.7120368480682373 -0.8254673641971131 0.8429845015155237 -1.5882894001402796 -1.570824925099508 2.141267776489258 0.0 0.0 0.0 -0.0 0.0 -0.0 1 False False
11364.06 3.7120490074157715 -0.8254017394832154 0.8429845015155237 -1.588280817071432 -1.570784870778219 2.1412763595581055 0.0 0.0 0.0 -0.0 0.0 -0.0 1 False False
11364.109999999999 3.7120323181152344 -0.8254825633815308 0.842971150075094 -1.588292738000387 -1.570829216633932 2.1412839889526367 0.0 0.0 0.0 -0.0 0.0 -0.0 1 False False
11364.16 3.7121026515960693 -0.8254912060550232 0.8430126349078577 -1.5882817707457484 -1.5707686583148401 2.141287088394165 0.0 0.0 0.0 -0.0 0.0 -0.0 1 False False
11364.21 3.712106943130493 -0.8254792851260682 0.8429845015155237 -1.5882774792113246 -1.5708492437945765 2.1412839889526367 0.0 0.0 0.0 -0.0 0.0 -0.0 1 False False
11364.26 3.7120773792266846 -0.8255080145648499 0.8429425398456019 -1.5882655582823695 -1.5707805792437952 2.1413040161132812 0.0 0.0 0.0 -0.0 0.0 -0.0 1 False False
11364.31 3.712029457092285 -0.8254546684077759 0.8430054823504847 -1.588285585443014 -1.5707529226886194 2.1413214206695557 0.0 0.0 0.0 -0.0 0.0 -0.0 1 False False
11364.359999999999 3.7120862007141113 -0.8254708212665101 0.8429563681231897 -1.5883246860899867 -1.570801083241598 2.141291618347168 0.0 0.0 0.0 -0.0 0.0 -0.0 1 False False
11364.41 3.7121024131774902 -0.8254555028728028 0.8429630438434046 -1.5882774792113246 -1.570801083241598 2.1413214206695557 0.0 0.0 0.0 -0.0 0.0 -0.0 1 False False
11364.46 3.712095022201538 -0.8254664701274415 0.8430503050433558 -1.588269372979635 -1.5707891623126429 2.141267776489258 0.0 0.0 0.0 -0.0 0.0 -0.0 1 False False
11364.51 3.7121026515960693 -0.8254912060550232 0.8429802099810999 -1.588297029534811 -1.5708087126361292 2.141275405883789 0.0 0.0 0.0 -0.0 0.0 -0.0 1 False False
11364.56 3.7120981216430664 -0.8254708212665101 0.8429515997516077 -1.588297506371969 -1.570833985005514 2.141291618347168 0.0 0.0 0.0 -0.0 0.0 -0.0 1 False False
11364.609999999999 3.712106943130493 -0.8255154651454468 0.842992130910055 -1.588269372979635 -1.570813004170553 2.141295909881592 0.0 0.0 0.0 -0.0 0.0 -0.0 1 False False
11364.66 3.7121024131774902 -0.8254546684077759 0.8429802099810999 -1.588320871392721 -1.570829216633932 2.141312837600708 0.0 0.0 0.0 -0.0 0.0 -0.0 1 False False
11364.71 3.712111234664917 -0.8255037826350708 0.8429845015155237 -1.5883132419981898 -1.5707686583148401 2.141279697418213 0.0 0.0 0.0 -0.0 0.0 -0.0 1 False False
11364.76 3.7120981216430664 -0.8255037826350708 0.8429721037494105 -1.5882889233031214 -1.5708091894732874 2.1413333415985107 0.0 0.0 0.0 -0.0 0.0 -0.0 1 False False
11364.81 3.712045669555664 -0.8254869741252442 0.8429845015155237 -1.5882650814452113 -1.5707886854754847 2.1412439346313477 0.0 0.0 0.0 -0.0 0.0 -0.0 1 False False
11364.859999999999 3.7120862007141113 -0.8254631918719788 0.8429563681231897 -1.5883285007872523 -1.5707762877093714 2.141312837600708 0.0 0.0 0.0 -0.0 0.0 -0.0 1 False False
11364.91 3.7120492458343506 -0.8254750531962891 0.8430426756488245 -1.5882774792113246 -1.570784870778219 2.1412384510040283 0.0 0.0 0.0 -0.0 0.0 -0.0 1 False False
11364.96 3.712099313735962 -0.8254912060550232 0.8429964224444788 -1.588320871392721 -1.5708168188678187 2.141279697418213 0.0 0.0 0.0 -0.0 0.0 -0.0 1 False False
11365.01 3.7121024131774902 -0.8254869741252442 0.8429392019854944 -1.5883332691588343 -1.5708335081683558 2.141295909881592 0.0 0.0 0.0 -0.0 0.0 -0.0 1 False False
11365.06 3.712083101272583 -0.8254954975894471 0.8429845015155237 -1.5883175335326136 -1.5708172957049769 2.141296863555908 0.0 0.0 0.0 -0.0 0.0 -0.0 1 False False
11365.109999999999 3.7120862007141113 -0.8254673641971131 0.8429759184466761 -1.5882412395873011 -1.5707762877093714 2.1413214206695557 0.0 0.0 0.0 -0.0 0.0 -0.0 1 False False
11365.16 3.7120535373687744 -0.8254674238017579 0.8430169264422815 -1.5882650814452113 -1.5708168188678187 2.1412439346313477 0.0 0.0 0.0 -0.0 0.0 -0.0 1 False False
11365.21 3.7120413780212402 -0.8255080741694947 0.8429678122149866 -1.5882846317686976 -1.5708168188678187 2.141263484954834 0.0 0.0 0.0 -0.0 0.0 -0.0 1 False False
11365.26 3.712115526199341 -0.8254385155490418 0.842971150075094 -1.588245531121725 -1.5708215872394007 2.141267776489258 0.0 0.0 0.0 -0.0 0.0 -0.0 1 False False
11365.31 3.712029457092285 -0.825438455944397 0.8429587523089808 -1.5882898769774378 -1.5707605520831507 2.1413040161132812 0.0 0.0 0.0 -0.0 0.0 -0.0 1 False False
11365.359999999999 3.7120699882507324 -0.825519935493805 0.8430007139789026 -1.5883127651610316 -1.5708449522601526 2.1412882804870605 0.0 0.0 0.0 -0.0 0.0 -0.0 1 False False
11365.41 3.7120416164398193 -0.8254673641971131 0.8430126349078577 -1.5882817707457484 -1.5707925001727503 2.141308546066284 0.0 0.0 0.0 -0.0 0.0 -0.0 1 False False
11365.46 3.712123155593872 -0.825495795612671 0.8430050055133265 -1.5883094273009242 -1.5708048979388636 2.1412546634674072 0.0 0.0 0.0 -0.0 0.0 -0.0 1 False False
11365.51 3.712050199508667 -0.8255453866771241 0.8430216948138636 -1.5883094273009242 -1.570784870778219 2.1412222385406494 0.0 0.0 0.0 -0.0 0.0 -0.0 1 False False
11365.56 3.712099313735962 -0.8254838746837159 0.8429845015155237 -1.588245531121725 -1.570784870778219 2.1412439346313477 0.0 0.0 0.0 -0.0 0.0 -0.0 1 False False
11365.609999999999 3.712110996246338 -0.8254794639400025 0.8430288473712366 -1.5883094273009242 -1.5708406607257288 2.1412546634674072 0.0 0.0 0.0 -0.0 0.0 -0.0 1 False False
11365.66 3.712099313735962 -0.8255002063563843 0.8429191748248499 -1.588313718835348 -1.570801083241598 2.141295909881592 0.0 0.0 0.0 -0.0 0.0 -0.0 1 False False
11365.71 3.712090492248535 -0.8255171340755005 0.8429845015155237 -1.5883332691588343 -1.570813004170553 2.1413333415985107 0.0 0.0 0.0 -0.0 0.0 -0.0 1 False False
11365.76 3.712050199508667 -0.8254719537547608 0.8430007139789026 -1.5883013210692347 -1.5707891623126429 2.1412839889526367 0.0 0.0 0.0 -0.0 0.0 -0.0 1 False False
11365.81 3.712056875228882 -0.8254913848689576 0.8429887930499476 -1.5882932148375453 -1.5708330313311976 2.141275405883789 0.0 0.0 0.0 -0.0 0.0 -0.0 1 False False
11365.859999999999 3.71207857131958 -0.8255616587451478 0.8430541197406214 -1.588297029534811 -1.570801083241598 2.1412925720214844 0.0 0.0 0.0 -0.0 0.0 -0.0 1 False False
11365.91 3.712143898010254 -0.8254763644984742 0.8430126349078577 -1.588269372979635 -1.570784870778219 2.141270875930786 0.0 0.0 0.0 -0.0 0.0 -0.0 1 False False
11365.96 3.712082862854004 -0.8254423898509522 0.8429845015155237 -1.5882846317686976 -1.5707686583148401 2.141317129135132 0.0 0.0 0.0 -0.0 0.0 -0.0 1 False False
11366.01 3.712062358856201 -0.8254706424525757 0.842992130910055 -1.588297029534811 -1.5708125273333948 2.141287088394165 0.0 0.0 0.0 -0.0 0.0 -0.0 1 False False
11366.06 3.7120654582977295 -0.8255039614490052 0.8429802099810999 -1.5882731876769007 -1.5708172957049769 2.14125919342041 0.0 0.0 0.0 -0.0 0.0 -0.0 1 False False
11366.109999999999 3.7120699882507324 -0.8254779738238831 0.8430007139789026 -1.5882932148375453 -1.570829216633932 2.1413044929504395 0.0 0.0 0.0 -0.0 0.0 -0.0 1 False False
11366.16 3.7120580673217773 -0.825466052894928 0.8430007139789026 -1.5882569752135218 -1.5707810560809534 2.1412503719329834 0.0 0.0 0.0 -0.0 0.0 -0.0 1 False False
11366.21 3.7120494842529297 -0.8254587215236207 0.8430050055133265 -1.5882889233031214 -1.5708330313311976 2.1412665843963623 0.0 0.0 0.0 -0.0 0.0 -0.0 1 False False
11366.26 3.712033987045288 -0.8255291146091004 0.8429802099810999 -1.5882488689818324 -1.5708206335650843 2.141308546066284 0.0 0.0 0.0 -0.0 0.0 -0.0 1 False False
11366.31 3.7121024131774902 -0.8254587215236207 0.8430288473712366 -1.588320871392721 -1.5708053747760218 2.141267776489258 0.0 0.0 0.0 -0.0 0.0 -0.0 1 False False
11366.359999999999 3.7120208740234375 -0.8255289953998108 0.8429887930499476 -1.5882817707457484 -1.5707405249225062 2.141308546066284 0.0 0.0 0.0 -0.0 0.0 -0.0 1 False False
11366.41 3.712095022201538 -0.8254675430110474 0.8429845015155237 -1.5882774792113246 -1.5708006064044397 2.141287088394165 0.0 0.0 0.0 -0.0 0.0 -0.0 1 False False
11366.46 3.7120537757873535 -0.8255039614490052 0.8429673353778284 -1.5882569752135218 -1.570772949849264 2.1412925720214844 0.0 0.0 0.0 -0.0 0.0 -0.0 1 False False
11366.51 3.7120494842529297 -0.8254823845675965 0.8430169264422815 -1.5882932148375453 -1.5708125273333948 2.141317129135132 0.0 0.0 0.0 -0.0 0.0 -0.0 1 False False
11366.56 3.7121024131774902 -0.825463132267334 0.8429678122149866 -1.588285585443014 -1.5708048979388636 2.1412720680236816 0.0 0.0 0.0 -0.0 0.0 -0.0 1 False False
11366.609999999999 3.712090492248535 -0.8254675430110474 0.842959229146139 -1.5883051357665003 -1.5707886854754847 2.1412503719329834 0.0 0.0 0.0 -0.0 0.0 -0.0 1 False False
11366.66 3.7121024131774902 -0.8254913848689576 0.8429635206805628 -1.5882774792113246 -1.5707929770099085 2.141263484954834 0.0 0.0 0.0 -0.0 0.0 -0.0 1 False False
11366.71 3.712094783782959 -0.8254468005946656 0.8430460135089319 -1.588269372979635 -1.5708087126361292 2.1412839889526367 0.0 0.0 0.0 -0.0 0.0 -0.0 1 False False
11366.76 3.71207857131958 -0.8254751128009339 0.8429845015155237 -1.5883175335326136 -1.5708087126361292 2.1413044929504395 0.0 0.0 0.0 -0.0 0.0 -0.0 1 False False
11366.81 3.712090492248535 -0.8254497212222596 0.8429845015155237 -1.588268896142477 -1.5707929770099085 2.141279697418213 0.0 0.0 0.0 -0.0 0.0 -0.0 1 False False
11366.859999999999 3.712090492248535 -0.8255039614490052 0.8429802099810999 -1.5882774792113246 -1.5708330313311976 2.141317129135132 0.0 0.0 0.0 -0.0 0.0 -0.0 1 False False
11366.91 3.7121315002441406 -0.8254993122867127 0.8429802099810999 -1.5882817707457484 -1.570772949849264 2.141282796859741 0.0 0.0 0.0 -0.0 0.0 -0.0 1 False False
11366.96 3.71207857131958 -0.8254587215236207 0.8429721037494105 -1.5882650814452113 -1.5707891623126429 2.1412720680236816 0.0 0.0 0.0 -0.0 0.0 -0.0 1 True False
11367.01 3.7120490074157715 -0.8255002063563843 0.842999283467428 -1.5882731876769007 -1.5707810560809534 2.1412546634674072 0.0 0.0 0.0 -0.0 0.0 -0.0 1 True False
11367.06 3.7120907306671143 -0.8255365651896973 0.8429935614215296 -1.5882889233031214 -1.5707929770099085 2.14125919342041 0.0 0.0 0.0 -0.0 0.0 -0.0 1 True False
11367.109999999999 3.712062358856201 -0.8254543107799073 0.8429721037494105 -1.5882536373534144 -1.5708048979388636 2.141295909881592 0.0 0.0 0.0 -0.0 0.0 -0.0 1 True False
11367.16 3.712050199508667 -0.8254380387118836 0.8429630438434046 -1.5882731876769007 -1.570784870778219 2.1413087844848633 0.0 0.0 0.0 -0.0 0.0 -0.0 1 True False
11367.21 3.712062358856201 -0.825463132267334 0.842971150075094 -1.5882774792113246 -1.5707967917071741 2.1412720680236816 0.0 0.0 0.0 -0.0 0.0 -0.0 1 True False
11367.26 3.712116003036499 -0.8254497808269043 0.8430503050433558 -1.5882331333556117 -1.5708206335650843 2.1412882804870605 0.0 0.0 0.0 -0.0 0.0 -0.0 1 True False
11367.31 3.7120578289031982 -0.8254543107799073 0.8429845015155237 -1.5883175335326136 -1.5707967917071741 2.141317129135132 0.0 0.0 0.0 -0.0 0.0 -0.0 1 True False
11367.359999999999 3.712106943130493 -0.8254794043353577 0.8429392019854944 -1.5883375606932582 -1.570772949849264 2.1413002014160156 0.0 0.0 0.0 -0.0 0.0 -0.0 1 True False
11367.41 3.7120862007141113 -0.8254630726626893 0.8429892698871058 -1.5882817707457484 -1.5707810560809534 2.14132022857666 0.0 0.0 0.0 -0.0 0.0 -0.0 1 True False
11367.46 3.712066888809204 -0.825495795612671 0.842966381703512 -1.5882846317686976 -1.5708697477923792 2.1412429809570312 0.0 0.0 0.0 -0.0 -1.0291947546647862e-05 -0.0 1 True False
11367.51 3.712029457092285 -0.8254838746837159 0.8429515997516077 -1.5882579288878382 -1.57074481645693 2.141312837600708 0.0 0.0 0.0 -0.0 -1.9273378954422653e-21 -0.0 1 True False
11367.56 3.712045907974243 -0.8255290550044556 0.8430097738849085 -1.5882731876769007 -1.57084829012026 2.1412060260772705 0.0 0.0 0.0 -0.0 -2.9276347906213376e-40 -0.0 1 True False
11367.609999999999 3.71303391456604 -0.8261508506587525 0.8439934889422815 -1.5886489353575648 -1.5707929770099085 2.1423745155334473 0.05006272718310356 -0.03756369650363922 0.0519084706902504 -0.01396782323718071 -0.0 0.04901798069477081 1 True False
11367.66 3.7171552181243896 -0.8293801707080384 0.8486645857440394 -1.5899363956847132 -1.5708330313311976 2.1464061737060547 0.11255226284265518 -0.09465654194355011 0.13123942911624908 -0.03435757756233215 -0.0 0.11011932790279388 1 True False
11367.71 3.7244014739990234 -0.8354468506625672 0.8570030371295374 -1.592297216454977 -1.5708206335650843 2.1535706520080566 0.17372670769691467 -0.1464204490184784 0.19744208455085754 -0.054883427917957306 -0.0 0.16913291811943054 1 True False
11367.76 3.7346270084381104 -0.8439257901958008 0.8686412016498011 -1.5953909359373988 -1.570829216633932 2.1636745929718018 0.23516301810741425 -0.18598873913288116 0.27081531286239624 -0.06971331685781479 -0.0 0.22817663848400116 1 True False
11367.81 3.747812271118164 -0.8548109096339722 0.8837998549090784 -1.5997334919371546 -1.570801083241598 2.176892042160034 0.2893597185611725 -0.24200645089149475 0.334161639213562 -0.09394613653421402 8.129377965815365e-05 0.2908805012702942 1 True False
11367.859999999999 3.7639636993408203 -0.8682193917087098 0.9024565855609339 -1.6048451862730921 -1.5707724730121058 2.193229913711548 0.3581596910953522 -0.2922818660736084 0.4063844680786133 -0.11205630004405975 5.600126678473316e-05 0.3510062098503113 1 True False
11367.91 3.7834041118621826 -0.8842310470393677 0.9244187513934534 -1.6109210453429164 -1.5707810560809534 2.21246337890625 0.41802626848220825 -0.3432447910308838 0.4740569591522217 -0.13674670457839966 2.547961926218029e-16 0.4178988039493561 1 True False
11367.96 3.805795669555664 -0.9026889365962525 0.9501827398883265 -1.6180712185301722 -1.5708006064044397 2.2349095344543457 0.4776926338672638 -0.3867220878601074 0.5419973134994507 -0.14614608883857727 3.5760927552530575e-10 0.47752779722213745 1 True False
11368.01 3.8310840129852295 -0.9235499066165467 0.9791162649737757 -1.6263486347594203 -1.5707886854754847 2.2603530883789062 0.5353960990905762 -0.4453517496585846 0.6123777627944946 -0.1793382465839386 -0.0005699609173461795 0.5302339196205139 1 True False
11368.06 3.8597042560577393 -0.94712849081073 1.01172382036318 -1.635536333123678 -1.5707529226886194 2.288971185684204 0.5978724956512451 -0.4964890778064728 0.6760184168815613 -0.19586063921451569 0.000245153671130538 0.5949588418006897 1 True False
11368.109999999999 3.891289710998535 -0.9730399411967774 1.0478814283954065 -1.6453777752318324 -1.5707805792437952 2.3205175399780273 0.6658403873443604 -0.5379893183708191 0.7552086114883423 -0.1983521580696106 -4.7847115638433024e-05 0.6534704566001892 1 True False
11368.16 3.925851821899414 -1.0016188782504578 1.0872800985919397 -1.6565891704955042 -1.5708048979388636 2.3551266193389893 0.7201835513114929 -0.5873276591300964 0.827193558216095 -0.23708830773830414 -3.468635622994043e-05 0.7151520848274231 1 True False
11368.21 3.963519334793091 -1.0323683780482789 1.130453888569967 -1.66847624401235 -1.5707524458514612 2.392556667327881 0.7763977646827698 -0.6400994658470154 0.8975136876106262 -0.25499671697616577 -5.544793384615332e-05 0.7802058458328247 1 True False
11368.26 4.004361152648926 -1.0661286276629944 1.1769769827472132 -1.6813603840269984 -1.570772949849264 2.4334402084350586 0.8413193225860596 -0.691162645816803 0.9708452820777893 -0.25414949655532837 -1.808172316723963e-17 0.8456332683563232 1 True False
11368.31 4.048001766204834 -1.1020919245532532 1.226917568837301 -1.6955443821349085 -1.570813004170553 2.4774422645568848 0.907349705696106 -0.7461429834365845 1.0319887399673462 -0.30147263407707214 -0.00025824393378570676 0.90104079246521 1 True False
11368.359999999999 4.093719959259033 -1.139792100792267 1.2791488806353968 -1.7100168667235316 -1.5707772413836878 2.522897481918335 0.9132877588272095 -0.7565152049064636 1.0452686548233032 -0.31499823927879333 -0.0012275470653548837 0.9224667549133301 1 True False
11368.41 4.139659881591797 -1.1775178474238892 1.3314383665667933 -1.7249232731261195 -1.5707686583148401 2.5689504146575928 0.9206119179725647 -0.7575750946998596 1.0420821905136108 -0.2931249737739563 9.272269380744547e-05 0.9154570698738098 1 True False
11368.46 4.185495853424072 -1.2151609820178528 1.383885685597555 -1.739570756951803 -1.570813004170553 2.6146106719970703 0.9098412394523621 -0.7555314898490906 1.047121286392212 -0.3044641315937042 -0.00013397489965427667 0.9179913401603699 1 True False
11368.51 4.2312493324279785 -1.2529871624759217 1.4362457434283655 -1.7540422878661097 -1.5708053747760218 2.6605000495910645 0.9214412569999695 -0.7498067617416382 1.0515756607055664 -0.282439649105072 0.00018697466293815523 0.9173526763916016 1 True False
11368.56 4.277007102966309 -1.290698693399765 1.4887169043170374 -1.7686521015562953 -1.5708649794207972 2.706083297729492 0.9145826101303101 -0.7542648911476135 1.0518925189971924 -0.2705584168434143 -0.00043585963430814445 0.9167434573173523 1 True False
11368.609999999999 4.322890758514404 -1.3284632426551362 1.54094106355776 -1.7833811245360316 -1.570784870778219 2.7521860599517822 0.9174124002456665 -0.7569639086723328 1.0359501838684082 -0.30091726779937744 1.8797795264813288e-10 0.9176351428031921 1 True False
11368.66 4.367737770080566 -1.3652783942273636 1.5919883886920374 -1.7975737057127894 -1.5708416144000452 2.796952724456787 0.8620467782020569 -0.7111168503761292 0.9832229614257812 -0.2734638750553131 -0.0004096353950444609 0.8588418364524841 1 True False
11368.71 4.4095139503479 -1.3996816736510773 1.6397555510150355 -1.8110796413817347 -1.5707691351519983 2.838566541671753 0.805364191532135 -0.6652028560638428 0.9185763001441956 -0.25698769092559814 -1.8875998648582026e-06 0.8186832666397095 1 True False
11368.76 4.4482645988464355 -1.4314523798278351 1.6840303579913538 -1.8232737980284632 -1.5707405249225062 2.8774986267089844 0.7477948665618896 -0.6156402230262756 0.8482459783554077 -0.2336815595626831 0.0003270257147960365 0.7433801293373108 1 True False
11368.81 4.483885765075684 -1.460926042204239 1.7245200316058558 -1.8348237476744593 -1.570772949849264 2.913123607635498 0.6849983930587769 -0.564696192741394 0.7831606864929199 -0.2283809781074524 0.00026259690639562905 0.6823439598083496 1 True False
11368.859999999999 4.516341686248779 -1.4877951604178925 1.761855427418844 -1.8453136883177699 -1.570801083241598 2.945727825164795 0.6235387921333313 -0.5176457762718201 0.7061743140220642 -0.2001829594373703 0.00031107227550819516 0.6189784407615662 1 True False
11368.91 4.545917510986328 -1.5121064160815259 1.7957642714129847 -1.854541917840475 -1.5708368460284632 2.975283622741699 0.5599989295005798 -0.464988112449646 0.6371837854385376 -0.19642356038093567 1.4078282219998073e-06 0.5576080083847046 1 True False
11368.96 4.572386264801025 -1.5339582499912758 1.8262007872210901 -1.863016744653219 -1.5708406607257288 3.0017142295837402 0.49877023696899414 -0.4095703065395355 0.569655179977417 -0.1710769385099411 6.611435674130917e-05 0.49845632910728455 1 True False
11369.01 4.596000671386719 -1.553128208299615 1.8527334372149866 -1.8705741367735804 -1.5708048979388636 3.0251266956329346 0.4337061047554016 -0.36277756094932556 0.507334291934967 -0.1398606151342392 -6.900655130899025e-16 0.45160502195358276 1 True False
11369.06 4.616440773010254 -1.5700130318621923 1.875922981892721 -1.8771125278868617 -1.570801083241598 3.045483112335205 0.37668561935424805 -0.3109807074069977 0.4331933259963989 -0.11334200948476791 4.027132043388683e-21 0.37756308913230896 1 True False
11369.109999999999 4.633546829223633 -1.5839783153929652 1.8959930578814905 -1.882444520989889 -1.5707805792437952 3.062922239303589 0.3221021592617035 -0.26271432638168335 0.35997501015663147 -0.1196456030011177 6.1172283161635564e-40 0.3149561882019043 1 True False
11369.16 4.6479573249816895 -1.5960055790343226 1.9120562712298792 -1.8870021305479945 -1.5707929770099085 3.0770792961120605 0.25051969289779663 -0.20123793184757233 0.30015650391578674 -0.07094518095254898 4.1866492210829165e-06 0.25881627202033997 1 True False
11369.21 4.659148216247559 -1.6052099666991175 1.9249451796161097 -1.890738149682516 -1.5708044211017054 3.088329315185547 0.19344447553157806 -0.15966589748859406 0.2158658802509308 -0.05949900299310684 1.251553840120323e-06 0.19251316785812378 1 True False
11369.26 4.667308807373047 -1.6118065319456996 1.9344051519977015 -1.8931652508177699 -1.570824925099508 3.0965538024902344 0.1361779272556305 -0.11339046061038971 0.15312625467777252 -0.046840108931064606 1.9011134896446308e-25 0.132317915558815 1 True False
11369.31 4.672420024871826 -1.6160766086974085 1.9400151411639612 -1.894972940484518 -1.570772949849264 3.101649045944214 0.07399646937847137 -0.05973698943853378 0.08709180355072021 -0.025905070826411247 2.942726775082116e-44 0.07143783569335938 1 True False
11369.359999999999 4.674432277679443 -1.6178227863707484 1.9424999395953577 -1.8955308399596156 -1.57074481645693 3.1036460399627686 0.012068024836480618 -0.01082284189760685 0.012314751744270325 -0.0012195014860481024 0.0 0.011716630309820175 1 True False
11369.41 4.67445182800293 -1.6173206768431605 1.9433520475970667 -1.8967730007567347 -1.5708406607257288 3.1036579608917236 -8.821380292900471e-10 0.01915464736521244 0.03489287570118904 -0.04813786596059799 0.0 -5.888052356795015e-08 1 True False
11369.46 4.674513339996338 -1.6157709560790003 1.9462178389178675 -1.901348730126852 -1.5707805792437952 3.1036908626556396 0.0009265508269891143 0.04802888631820679 0.07936085760593414 -0.12211838364601135 0.0 0.0004944572574459016 1 True False
11369.51 4.674479961395264 -1.6126347980894984 1.951294247304098 -1.9094444713988246 -1.5708044211017054 3.1036863327026367 0.0014144652523100376 0.0749688372015953 0.11821173876523972 -0.1952797770500183 0.0 0.0002807692508213222 1 True False
11369.56 4.674511909484863 -1.6080838642516078 1.9583724180804651 -1.9210950336852015 -1.570784870778219 3.103780746459961 0.0003347654710523784 0.10715173929929733 0.16275814175605774 -0.2571185529232025 0.0 0.00019888619135599583 1 True False
11369.609999999999 4.674527645111084 -1.6022845707335414 1.9676159063922327 -1.936199804345602 -1.570813004170553 3.103717565536499 0.0007410552352666855 0.13077855110168457 0.2058856338262558 -0.3314909338951111 2.677918720106476e-10 0.00010117868805537 1 True False
11369.66 4.674527645111084 -1.59497131923818 1.9793747107135218 -1.9548207722105921 -1.5708335081683558 3.1037211418151855 0.00017378636403009295 0.15554344654083252 0.2478092461824417 -0.40215998888015747 4.067765663336895e-29 7.77225723140873e-05 1 True False
11369.71 4.674556732177734 -1.58659090618276 1.992638889943258 -1.9770776234068812 -1.5707891623126429 3.103705644607544 8.526955934939906e-05 0.1810264140367508 0.29148542881011963 -0.4693700969219208 0.0 3.783627633424658e-08 1 True False
11369.76 4.674516201019287 -1.5768281422057093 2.008578125630514 -2.0025998554625453 -1.5708487669574183 3.1037509441375732 5.550612331717275e-05 0.20967964828014374 0.3338678181171417 -0.546826183795929 0.0 2.9723934858338907e-05 1 True False
11369.81 4.6744914054870605 -1.5656076532653351 2.026400868092672 -2.0315572224059046 -1.570813004170553 3.1037299633026123 4.069409842231617e-36 0.21895937621593475 0.35681620240211487 -0.6047018766403198 0.0 -3.263605685788207e-05 1 True False
11369.859999999999 4.674556255340576 -1.5549707573703309 2.043525044118063 -2.0593682728209437 -1.570801083241598 3.103693723678589 0.0 0.20043161511421204 0.3233623206615448 -0.519135594367981 0.0 -1.7116060917032883e-05 1 True False
11369.91 4.674535751342773 -1.545774684553482 2.058370892201559 -2.083684583703512 -1.5707362333880823 3.103713035583496 -3.1085268907549146e-12 0.17813292145729065 0.2770218551158905 -0.46047666668891907 0.0 -1.1600383004406467e-05 1 True False
11369.96 4.6745476722717285 -1.537550800745823 2.071381394063131 -2.1045543156065882 -1.5707805792437952 3.103705644607544 0.0 0.1464846432209015 0.23708193004131317 -0.3900347352027893 0.0 -5.98892188960606e-15 1 True False
11370.01 4.674531936645508 -1.5308023554137726 2.082064453755514 -2.1220232448973597 -1.5708335081683558 3.1037344932556152 0.0 0.11655359715223312 0.1877032369375229 -0.3127744793891907 0.0 -9.097188433567108e-34 1 True False
11370.06 4.674527645111084 -1.5255428192070504 2.0906222502337855 -2.135770937005514 -1.5708335081683558 3.1037509441375732 0.0 0.09207956492900848 0.1496490091085434 -0.23393294215202332 0.0 -0.0 1 True False
11370.109999999999 4.6744794845581055 -1.521561251287796 2.0969389120685022 -2.1463352642455042 -1.5708048979388636 3.103771924972534 0.0 0.06732998043298721 0.11313056945800781 -0.17461933195590973 0.0 -0.0 1 True False
11370.16 4.674556255340576 -1.5188763712397595 2.1013358275042933 -2.1532784901061 -1.570772949849264 3.103726625442505 0.0 0.04008921980857849 0.0651504397392273 -0.10454977303743362 0.0 -0.0 1 True False
11370.21 4.674527645111084 -1.5175291386297722 2.1034157911883753 -2.1565991840758265 -1.5708006064044397 3.103739023208618 0.0 0.015366333536803722 0.021637508645653725 -0.036379124969244 0.0 -0.0 1 True False
11370.26 4.674495697021484 -1.5174740937403222 2.103644673024313 -2.156926294366354 -1.5708168188678187 3.103701114654541 0.0 -3.679012934298953e-07 -0.0008345426176674664 0.0002489656617399305 0.0 -0.0 1 True False
11370.31 4.674536228179932 -1.5174666208079834 2.103631321583883 -2.1569706402220667 -1.5707686583148401 3.103731155395508 0.0 0.00017126859165728092 4.704223101725802e-05 -0.0007532181916758418 0.0 -0.00014556042151525617 1 True False
11370.359999999999 4.674482822418213 -1.5174800132266064 2.103643242512838 -2.156978269616598 -1.5708335081683558 3.103708505630493 0.0 0.0001485084358137101 6.117548036854714e-05 -0.0012828606413677335 0.0 -4.8168760258704424e-05 1 True False
11370.41 4.674487113952637 -1.5173887994936486 2.1036461035357874 -2.1570545635619105 -1.5707524458514612 3.103722095489502 0.0 0.00016494383453391492 3.0338163924170658e-05 -0.0017892082687467337 0.0 -2.8859303711215034e-05 1 True False
11370.46 4.674475193023682 -1.5173977439156552 2.1036623159991663 -2.1570426426329554 -1.570829216633932 3.1037344932556152 0.0 0.00018395530059933662 3.201651998097077e-05 -0.0004962756065651774 0.0 -2.0601470168912783e-05 1 True False
11370.51 4.674540042877197 -1.5173829172602673 2.1036704222308558 -2.1570502720274867 -1.5708335081683558 3.103739023208618 0.0 0.00014511305198539048 2.3877159449427966e-27 -0.0001848659449024126 0.0 -5.482862989808587e-22 1 True False
11370.56 4.674499034881592 -1.5174606007388611 2.1036370436297815 -2.1570664844908656 -1.5707967917071741 3.103717565536499 0.0 0.00012854798114858568 6.997723289714486e-09 -0.0001218637335114181 0.0 -8.328477292868118e-41 1 True False
11370.609999999999 4.67453145980835 -1.517381427144148 2.1036537329303187 -2.1570664844908656 -1.5707686583148401 3.103743553161621 0.0 7.603852282045409e-05 1.6466376593289596e-38 -8.562924631405622e-05 0.0 -0.0 1 True False
11370.66 4.674499988555908 -1.517353468840458 2.103694264088766 -2.1569820843138636 -1.5707891623126429 3.103705644607544 0.0 6.326241418719292e-05 0.0 -6.132621935697704e-19 0.0 -0.0 1 True False
11370.71 4.674548625946045 -1.5173625324717541 2.1036580244647425 -2.1570264301695765 -1.570801083241598 3.103713035583496 0.0 1.1210387714598537e-44 0.0 -9.315465611153117e-38 0.0 -0.0 1 True False
11370.76 4.67452335357666 -1.517381464397051 2.1036489645587366 -2.157042165795797 -1.5707805792437952 3.1037418842315674 0.0 0.0 1.4483786123261304e-29 -0.0 0.0 -0.0 1 True False
11370.81 4.67453145980835 -1.5174112629941483 2.1036623159991663 -2.1570903263487757 -1.570756737385885 3.103701114654541 0.0 0.0 0.0 -0.0 0.0 -0.0 1 True False
11370.859999999999 4.67453145980835 -1.517490429138281 2.1035788694964808 -2.1572019062437953 -1.5707486311541956 3.103717565536499 0.0 6.727425671446536e-20 0.00047379059833474457 -0.00045510867494158447 4.8285692173521966e-05 2.3023376181073325e-15 1 True False
11370.91 4.674536228179932 -1.5174131368151684 2.103558365498678 -2.1572143040099085 -1.5707810560809534 3.103713035583496 -6.481191208219181e-29 0.000633971591014415 0.0006211164873093367 -2.2389727746485732e-05 2.0618826965801418e-05 3.4972568649920626e-34 1 True False
11370.96 4.674544334411621 -1.5174383458546181 2.1035383383380335 -2.1569744549193324 -1.5707486311541956 3.1037211418151855 0.0 -0.005269338376820087 -0.00963533204048872 0.03239576518535614 2.9423127408518386e-21 0.0 1 True True
11371.01 4.6745405197143555 -1.5181758043221016 2.1023901144610804 -2.154091020623678 -1.5708335081683558 3.103771924972534 0.0 -0.03423045575618744 -0.05169264227151871 0.08066647499799728 -0.0003023517201654613 0.0 1 True True
11371.06 4.674519062042236 -1.5207143251648922 2.0982206503497522 -2.1478334865965785 -1.5707967917071741 3.103713035583496 0.0 -0.06263227015733719 -0.0989302396774292 0.15249189734458923 -0.00013741875591222197 0.0 1 True True
11371.109999999999 4.674551963806152 -1.5245703545263787 2.0920842329608362 -2.138322492639059 -1.5708087126361292 3.103696584701538 0.0 -0.08962599188089371 -0.14278294146060944 0.22049705684185028 -8.892374899005517e-05 -2.861866195106789e-23 1 True True
11371.16 4.67452335357666 -1.5296964210322876 2.083998982106344 -2.125157495538229 -1.5708168188678187 3.103701114654541 0.0 -0.114066943526268 -0.1878637969493866 0.29467448592185974 -2.030808900599368e-05 -4.3468278363355826e-42 1 True True
11371.21 4.674552917480469 -1.5360823769918461 2.073733154927389 -2.108421941796774 -1.5708335081683558 3.103760004043579 0.0 -0.13805653154850006 -0.2190619558095932 0.362409383058548 -6.280887177086901e-23 -0.0 1 True True
11371.26 4.674548625946045 -1.5438920234194775 2.0612357298480433 -2.0882145367064417 -1.5707686583148401 3.1036922931671143 0.0 -0.16972975432872772 -0.26833057403564453 0.43203386664390564 -9.540039945123355e-42 -0.0 1 True True
11371.31 4.674532413482666 -1.5529002801379939 2.046746079121725 -2.0646211109557093 -1.570784870778219 3.103696584701538 0.0 -0.19916196167469025 -0.31255507469177246 0.521094799041748 -0.0 -0.0 1 True True
11371.359999999999 4.67452335357666 -1.56337320691485 2.0299208799945276 -2.0374800167479457 -1.5708487669574183 3.103743553161621 0.0 -0.2219107449054718 -0.35851332545280457 0.5811070203781128 -0.0 -2.527920295563347e-21 1 True True
11371.41 4.6744866371154785 -1.5745307407774867 2.0120728651629847 -2.0081826649107875 -1.5708087126361292 3.103743553161621 0.0 -0.21384917199611664 -0.34264177083969116 0.5630467534065247 -0.0 -3.839922129850723e-40 1 True True
11371.46 4.674535751342773 -1.5846969089903773 1.9958203474627894 -1.9819356403746546 -1.5707686583148401 3.103717565536499 0.0 -0.19173431396484375 -0.3012532889842987 0.5030959844589233 -0.0 -0.0 1 True True
11371.51 4.674535751342773 -1.5935389004149378 1.9818857351886194 -1.9590798817076625 -1.5707886854754847 3.1037464141845703 0.0 -0.16065959632396698 -0.2638528048992157 0.41868218779563904 -0.0 -0.0 1 True True
11371.56 4.6744866371154785 -1.6008631191649378 1.9698188940631312 -1.939763685266012 -1.570824925099508 3.103710174560547 0.0 -0.13339479267597198 -0.21321521699428558 0.3569738268852234 -0.0 -0.0 1 True True
11371.609999999999 4.674513339996338 -1.6068207226195277 1.9602540175067347 -1.9239355526366175 -1.570801083241598 3.1037509441375732 0.0 -0.10870464891195297 -0.17567084729671478 0.2808888256549835 -0.0 -0.0 1 True True
11371.66 4.674584865570068 -1.611666818658346 1.9526193777667444 -1.911602636376852 -1.5708044211017054 3.103726625442505 0.0 -0.08167167007923126 -0.1307176798582077 0.21483317017555237 -0.0 -0.0 1 True True
11371.71 4.674577713012695 -1.6151076755919398 1.9471657911883753 -1.9028064213194789 -1.5708211104022425 3.103705644607544 0.0 -0.05436865985393524 -0.09131219238042831 0.1363302320241928 -0.0 -0.0 1 True True
11371.76 4.674502849578857 -1.617136140862936 1.9438050428973597 -1.8974744282164515 -1.570801083241598 3.103713035583496 0.0 -0.028540384024381638 -0.043748319149017334 0.07369337230920792 -0.0 -0.0 1 True True
11371.81 4.674485206604004 -1.6178142033019007 1.9427836577044886 -1.8955947361388148 -1.5707805792437952 3.1037344932556152 0.0 0.00029097823426127434 -0.0008479736861772835 0.004514290485531092 -0.0 -0.0 1 True True
11371.859999999999 4.672928333282471 -1.6173898182311 1.9421513716327112 -1.8955346546568812 -1.5707929770099085 3.102092742919922 -0.0653548464179039 0.014553003944456577 -0.02601144276559353 0.004081816878169775 5.724629574216642e-19 -0.06612750142812729 1 True True
11371.91 4.6677751541137695 -1.6161381206908167 1.9405353705035608 -1.8951360187926234 -1.5707529226886194 3.096999168395996 -0.13730129599571228 0.035478703677654266 -0.046806056052446365 0.00785234197974205 8.695723989204509e-38 -0.13668690621852875 1 True True
11371.96 4.659158229827881 -1.6139942608275355 1.9377134482013147 -1.8946768246092738 -1.570784870778219 3.088329553604126 -0.20897597074508667 0.057473041117191315 -0.06240741163492203 0.010527877137064934 0.0 -0.2022751122713089 1 True True
11372.01 4.646953105926514 -1.6106497249998988 1.93388539949526 -1.8941098652281703 -1.5707686583148401 3.0762863159179688 -0.2776581346988678 0.07489179819822311 -0.09084909409284592 0.011310916393995285 0.0 -0.2823215126991272 1 True True
11372.06 4.631500720977783 -1.6065002880492152 1.9288619200335901 -1.8932720623412074 -1.570801083241598 3.06062650680542 -0.3447778522968292 0.09131888300180435 -0.10384534299373627 0.017100689932703972 -1.5740525327601063e-08 -0.3433398902416229 1 True True
11372.109999999999 4.612239837646484 -1.6013571224608363 1.9227388540851038 -1.8922983608641566 -1.570784870778219 3.0416295528411865 -0.41545581817626953 0.11076092720031738 -0.13264474272727966 0.022019609808921814 0.00010781353194033727 -0.422206848859787 1 True True
11372.16 4.5898213386535645 -1.5953875980772914 1.9156177679644983 -1.8910209141173304 -1.570784870778219 3.0190892219543457 -0.4877929389476776 0.1269032061100006 -0.15232756733894348 0.02330523356795311 1.2766001985946619e-21 -0.4864062964916229 1 True True
11372.21 4.563828945159912 -1.5885077915587367 1.9071796576129358 -1.889639516870016 -1.570824925099508 2.9928531646728516 -0.5578815937042236 0.1447911560535431 -0.17109070718288422 0.03083697333931923 1.9391588538866116e-40 -0.5523144006729126 1 True True
11372.26 4.534122943878174 -1.5806180439391078 1.8978913466082972 -1.8880263767638148 -1.5708449522601526 2.963235378265381 -0.6212150454521179 0.16432757675647736 -0.20187951624393463 0.04232925921678543 0.0 -0.6202362179756165 1 True True
11372.31 4.501077175140381 -1.5717960796751917 1.8874276320086878 -1.886282583276266 -1.5708168188678187 2.930224657058716 -0.6968206763267517 0.186992809176445 -0.21848779916763306 0.0338246151804924 -0.0008572041406296194 -0.6895321607589722 1 True True
11372.359999999999 4.464494705200195 -1.5621405321038146 1.8755314985858362 -1.8843947849669398 -1.5708406607257288 2.893871784210205 -0.7676860094070435 0.19842275977134705 -0.24796076118946075 0.049320075660943985 -0.0009442414157092571 -0.7604721188545227 1 True True
11372.41 4.424471378326416 -1.5515924648246546 1.8629244009601038 -1.8822351894774378 -1.570813004170553 2.8538477420806885 -0.8308924436569214 0.22077567875385284 -0.2717709243297577 0.049806784838438034 -0.0004267427430022508 -0.8360133171081543 1 True True
11372.46 4.380921840667725 -1.5401388716748734 1.8490341345416468 -1.8796879253783167 -1.5708335081683558 2.8101584911346436 -0.903112530708313 0.2426060140132904 -0.29119735956192017 0.04170743376016617 -2.421386225207045e-12 -0.9027170538902283 1 True True
11372.51 4.33403205871582 -1.527524833833315 1.8341720739947718 -1.8772851429381312 -1.570772949849264 2.7633328437805176 -0.9791861176490784 0.25471818447113037 -0.31542494893074036 0.054524268954992294 -0.0008945365552790463 -0.9710432291030884 1 True True
11372.56 4.283484935760498 -1.5142979633859177 1.8179104963885706 -1.8745619259276332 -1.570784870778219 2.7126400470733643 -1.045009970664978 0.2788659334182739 -0.3286413848400116 0.05829725041985512 0.0001732268719933927 -1.0361195802688599 1 True True
11372.609999999999 4.23115348815918 -1.5003441733172913 1.80131704012026 -1.871716161767477 -1.5707891623126429 2.6602885723114014 -1.0415749549865723 0.278868168592453 -0.3339675962924957 0.050515834242105484 0.002005218528211117 -1.0541303157806396 1 True True
11372.66 4.178918838500977 -1.4866026428392907 1.7845757643329065 -1.8689362011351527 -1.5708211104022425 2.608078718185425 -1.0503032207489014 0.27537432312965393 -0.33409714698791504 0.05857577174901962 -6.38632145755734e-14 -1.04160737991333 1 True True
11372.71 4.1265668869018555 -1.4726412829807778 1.768048111592428 -1.8660346470274867 -1.570829216633932 2.5555965900421143 -1.0446488857269287 0.2785295844078064 -0.3313842713832855 0.05149856582283974 0.0002377624186920002 -1.0460546016693115 1 True True
11372.76 4.074153900146484 -1.4588374581984063 1.751183811818258 -1.8633190594115199 -1.5708048979388636 2.5032689571380615 -1.0448319911956787 0.27243560552597046 -0.3423590362071991 0.05893576517701149 4.769154515749108e-11 -1.052587628364563 1 True True
11372.81 4.021678924560547 -1.4449078750661393 1.7347644011126917 -1.8604618511595667 -1.5707967917071741 2.451049327850342 -1.0489352941513062 0.27843621373176575 -0.3286203444004059 0.058140065521001816 1.656253267867669e-08 -1.0458159446716309 1 True True
11372.859999999999 3.969301700592041 -1.4310229879668732 1.7179282347308558 -1.857753416100973 -1.5707643667804163 2.398536205291748 -1.044893741607666 0.275576114654541 -0.33968040347099304 0.05017045512795448 2.5158521085957626e-27 -1.0402028560638428 1 True True
11372.91 3.9169862270355225 -1.4172942650369187 1.7014101187335413 -1.8548623524107875 -1.570784870778219 2.3461709022521973 -1.0472145080566406 0.27955853939056396 -0.3370417356491089 0.06180662289261818 1.1532662325119958e-10 -1.0538533926010132 1 True True
11372.96 3.8646233081817627 -1.4032976043275376 1.6844762007342737 -1.8519565067686976 -1.570829216633932 2.293964385986328 -1.0514698028564453 0.27756503224372864 -0.33500149846076965 0.048097290098667145 7.695332726598281e-08 -1.0462863445281982 1 True True
11373.01 3.812309503555298 -1.389430211191513 1.6679070631610315 -1.8492371044554652 -1.570801083241598 2.241466999053955 -1.0507726669311523 0.2768977880477905 -0.33302071690559387 0.057324692606925964 -5.916810703714107e-22 -1.0442243814468384 1 True True
11373.06 3.7599260807037354 -1.3755808037570496 1.6511128584491175 -1.8463908634581507 -1.5708211104022425 2.1891801357269287 -1.043015718460083 0.27675533294677734 -0.3266502618789673 0.06466611474752426 -1.0562295482685613e-09 -1.0519626140594482 1 True True
11373.109999999999 3.707613706588745 -1.3617952328971406 1.634517017995016 -1.8436633549132289 -1.5708048979388636 2.136864185333252 -1.0467770099639893 0.27416670322418213 -0.3404253125190735 0.05260225757956505 -1.6044154402124737e-28 -1.0484795570373535 1 True True
11373.16 3.6551826000213623 -1.3477633607438584 1.6177905241595667 -1.8407775364317835 -1.5708335081683558 2.084362506866455 -1.0465213060379028 0.28173837065696716 -0.32809048891067505 0.058826010674238205 -0.0 -1.0415805578231812 1 True True
11373.21 3.6028499603271484 -1.3339801740697403 1.6011808554278772 -1.8379150829710902 -1.5707967917071741 2.031934976577759 -1.045559287071228 0.27285775542259216 -0.3356683552265167 0.047692667692899704 -0.0 -1.0509302616119385 1 True True
11373.26 3.550471067428589 -1.3201699417880555 1.5844853560077112 -1.8351370296873988 -1.5708168188678187 1.97974693775177 -1.0495189428329468 0.28085213899612427 -0.33166760206222534 0.05857548862695694 -0.0 -1.0453721284866333 1 True True
11373.31 3.4980695247650146 -1.306092695598938 1.5677335898028772 -1.8322135410704554 -1.5708373228656214 1.9273301362991333 -1.050589680671692 0.2743929624557495 -0.3292361795902252 0.05837376415729523 -0.0 -1.0417052507400513 1 True True
11373.359999999999 3.4458093643188477 -1.2925206285766144 1.551056210194723 -1.8295299015440882 -1.570824925099508 1.8749008178710938 -1.0455180406570435 0.2823525667190552 -0.33414575457572937 0.0616539865732193 -0.0 -1.052208423614502 1 True True
11373.41 3.39353346824646 -1.2784173351577302 1.5344346205340784 -1.8267761669554652 -1.570829216633932 1.8228213787078857 -1.026455283164978 0.2708922028541565 -0.3234565258026123 0.05404263734817505 7.066028016227283e-21 -1.0281296968460083 1 True True
11373.46 3.343836545944214 -1.2653713685325165 1.5186856428729456 -1.8239594898619593 -1.570768181477682 1.7729297876358032 -0.9603475332260132 0.2561388611793518 -0.3064846098423004 0.044688574969768524 -1.5560720030213804e-12 -0.956926167011261 1 True True
11373.51 3.2975220680236816 -1.2530139845660706 1.5038207213031214 -1.8216029606261195 -1.5708211104022425 1.7266982793807983 -0.8846408128738403 0.2368651032447815 -0.2857646346092224 0.047735437750816345 0.00024992195540107787 -0.8931398987770081 1 True True
11373.56 3.254652738571167 -1.2417259973338624 1.4903839270221155 -1.8192173443236292 -1.5708335081683558 1.6838728189468384 -0.820212185382843 0.21321320533752441 -0.26564493775367737 0.046842556446790695 7.823619853297714e-06 -0.8231852054595947 1 True True
11373.609999999999 3.2155418395996094 -1.2314356428435822 1.4777510801898401 -1.8171316585936488 -1.570829216633932 1.6446183919906616 -0.7584912776947021 0.20384840667247772 -0.2371080219745636 0.03626786917448044 8.885693387128413e-05 -0.7493484616279602 1 True True
11373.66 3.179722547531128 -1.2218737763217469 1.466275993977682 -1.8151666126646937 -1.5707886854754847 1.6088999509811401 -0.6826982498168945 0.18143236637115479 -0.21855071187019348 0.038927752524614334 3.05875325527547e-23 -0.6836026906967163 1 True True
11373.71 3.147368907928467 -1.2132485669902344 1.4560640493976038 -1.8134662113585414 -1.5707925001727503 1.5766525268554688 -0.6105363965034485 0.15722620487213135 -0.20105037093162537 0.03538287803530693 4.6467057077010934e-42 -0.6135861873626709 1 True True
11373.76 3.118546724319458 -1.2057178181460877 1.4468725363360804 -1.8118649921812953 -1.5707767645465296 1.5477194786071777 -0.5446398258209229 0.14712360501289368 -0.1740376055240631 0.03269699960947037 6.253352835550174e-10 -0.5443323850631714 1 True True
11373.81 3.0931766033172607 -1.1990042489818116 1.4386523405658167 -1.8105932674803675 -1.5708044211017054 1.5223901271820068 -0.47429102659225464 0.12771055102348328 -0.15092237293720245 0.02294662594795227 2.9885233177040504e-10 -0.4705711901187897 1 True True
11373.859999999999 3.0712757110595703 -1.1931398075870057 1.4318073431598108 -1.809436937371725 -1.5708254019366663 1.5005236864089966 -0.4051642119884491 0.10842479765415192 -0.12364163994789124 0.019884992390871048 5.692054401151836e-05 -0.40537697076797485 1 True True
11373.91 3.0532021522521973 -1.1883285504630585 1.4260147253619593 -1.8084241352477015 -1.5707805792437952 1.482264518737793 -0.3382270038127899 0.08765610307455063 -0.10619527846574783 0.01781695894896984 -3.5927532650303906e-12 -0.3329433798789978 1 True True
11373.96 3.0382015705108643 -1.1843309265426178 1.4213221708880823 -1.8075906238951625 -1.5708254019366663 1.4673898220062256 -0.25826600193977356 0.06814583390951157 -0.0841437429189682 0.01420925185084343 3.246299885671256e-18 -0.2623199224472046 1 True True
11374.01 3.0268146991729736 -1.1814361077598114 1.4175999800311487 -1.8070126972594203 -1.5708168188678187 1.456075668334961 -0.1947685331106186 0.05020897835493088 -0.055624820291996 0.013984599150717258 1.6204725061808034e-10 -0.19605432450771332 1 True True
11374.06 3.018946886062622 -1.1793260735324402 1.415109936391012 -1.8066417179503382 -1.5708087126361292 1.4482204914093018 -0.12468840926885605 0.031112326309084892 -0.044974979013204575 0.005622765980660915 2.4615017215823296e-29 -0.12462589889764786 1 True True
11374.109999999999 3.0146026611328125 -1.178126500254013 1.4136980215655726 -1.8064114056029261 -1.570784870778219 1.4437730312347412 -0.05379040539264679 0.015995562076568604 -0.015548627823591232 0.004321551416069269 0.0 -0.054118406027555466 1 True True
11374.16 3.013648271560669 -1.1779326063445588 1.413508717213766 -1.8064023456969203 -1.5707929770099085 1.442776083946228 -0.000525299459695816 0.006077468860894442 0.013152377679944038 -0.014194413088262081 0.0 3.984906288678758e-05 1 True True
11374.21 3.0136559009552 -1.1769338113120575 1.4150860945331019 -1.8089152775206507 -1.570772949849264 1.4428623914718628 -0.0006068602669984102 0.028605526313185692 0.056377656757831573 -0.08733290433883667 0.0 -0.00044395183795131743 1 True True
11374.26 3.013599157333374 -1.1750378173640748 1.4191158453570765 -1.8151613674559535 -1.570845905934469 1.4428253173828125 -0.000800031702965498 0.05378519371151924 0.10569829493761063 -0.14681918919086456 0.0 -0.00032305746572092175 1 True True
11374.31 3.0136287212371826 -1.1719632607749482 1.4257682005511683 -1.8246432743468226 -1.5708006064044397 1.4427449703216553 -0.0013242921559140086 0.07275458425283432 0.1509987860918045 -0.21381239593029022 0.0 -0.00030572753166779876 1 True True
11374.359999999999 3.013575315475464 -1.167710081940033 1.4346511999713343 -1.8377038441100062 -1.5707529226886194 1.4428014755249023 -0.00033182994229719043 0.0997469499707222 0.1995348185300827 -0.29538312554359436 -8.255744614871219e-05 -0.00019806767522823066 1 True True
11374.41 3.013558864593506 -1.162337140446045 1.4460457007037562 -1.8542753658690394 -1.5707319418536585 1.4427701234817505 -0.00013533150195144117 0.11632689833641052 0.2443789839744568 -0.35965457558631897 -9.057532588485628e-05 -9.255876648239791e-05 1 True True
11374.46 3.0135796070098877 -1.1557953518680115 1.4594710508929651 -1.8743845425047816 -1.5707972685443323 1.4427570104599 -7.982848183019087e-05 0.13545307517051697 0.29487210512161255 -0.42798224091529846 -1.497676858764718e-15 -6.10782954026945e-05 1 True True
11374.51 3.0135719776153564 -1.148252860908844 1.4754722754107874 -1.8979469738402308 -1.5708492437945765 1.442765712738037 -4.021679706056602e-05 0.15962056815624237 0.34242838621139526 -0.5068218111991882 -5.685934593202546e-05 -3.067783527210821e-11 1 True True
11374.56 3.0135231018066406 -1.1397197407535096 1.4934056440936487 -1.9242688618102015 -1.5708377997027796 1.442810297012329 -3.8701764424331486e-05 0.17000551521778107 0.3560280501842499 -0.5168145298957825 -5.50163968000561e-05 -3.616340001236496e-17 1 True True
11374.609999999999 3.0135555267333984 -1.132064626818039 1.5097454229937952 -1.948677202264303 -1.5708168188678187 1.4427119493484497 -3.59434406066797e-13 0.14649838209152222 0.30716800689697266 -0.44725149869918823 -3.1200925150187686e-05 -5.493228092129927e-36 1 True True
11374.66 3.013556480407715 -1.12519063175235 1.5236333052264612 -1.9694200954832972 -1.570801083241598 1.442758321762085 -2.1067618945380673e-05 0.11844334751367569 0.2581244707107544 -0.3806135654449463 -3.3157146390294656e-05 -0.0 1 True True
11374.71 3.013608932495117 -1.119552956228592 1.5353639761554163 -1.9864188633360804 -1.570801083241598 1.4427776336669922 -4.203895392974451e-45 0.0983438789844513 0.21494849026203156 -0.32232359051704407 -2.270197364850901e-05 -0.0 1 True True
11374.76 3.0135719776153564 -1.11527173340831 1.5447376410113733 -2.0002757511534632 -1.5707648436175745 1.4427570104599 0.0 0.07836033403873444 0.16011007130146027 -0.24848753213882446 -5.771818027862363e-16 -0.0 1 True True
11374.81 3.013559103012085 -1.1119035643390198 1.5514944235431116 -2.010540624658102 -1.5707724730121058 1.4428341388702393 0.0 0.05603393167257309 0.11476343125104904 -0.17482642829418182 -8.767405100565098e-35 -0.0 1 True True
11374.859999999999 3.013584852218628 -1.1097999078086396 1.5562604109393519 -2.017228742639059 -1.5707967917071741 1.4428014755249023 2.4303129976033233e-05 0.03216063603758812 0.06782246381044388 -0.09859808534383774 -0.0 -0.0 1 True True
11374.91 3.0135881900787354 -1.1088909965804596 1.5580461660968226 -2.0207892856993617 -1.5708368460284632 1.442793607711792 2.41794374526242e-22 0.010395996272563934 0.019784480333328247 -0.03253645822405815 -0.0014879946829751134 -0.0 1 True True
11374.96 3.013575315475464 -1.1089815956405182 1.5582450071917933 -2.021057268182272 -1.5708282629596155 1.4428060054779053 0.0 0.001869889791123569 0.004190200008451939 0.0006100384052842855 8.688266825629398e-05 -0.0 1 True True
11375.01 3.013608932495117 -1.1088120502284546 1.5584185759173792 -2.0210520229735316 -1.5707886854754847 1.442765712738037 0.0 0.006544304545968771 0.005972834303975105 0.0011639992007985711 2.0664127077907324e-05 8.516981893080811e-07 1 True True
11375.06 3.0135796070098877 -1.1082442265800019 1.5591767469989222 -2.0204106769957484 -1.570784870778219 1.4428266286849976 4.457114971086311e-30 -0.001033164095133543 -0.0074955131858587265 -0.003305467078462243 -0.00031588473939336836 1.2937312682648772e-25 1 True True
11375.109999999999 3.013613224029541 -1.108289287691452 1.5590255896197718 -2.0206738911070765 -1.5707805792437952 1.4427701234817505 2.0440395795233435e-13 -0.0003208828275091946 -0.00019098124175798148 -1.0231063773957771e-09 -3.1477728494648744e-15 8.735885614896688e-08 1 True False
11375.16 3.013596773147583 -1.1084390145591279 1.5588257948504847 -2.020757337609762 -1.570801083241598 1.4427613019943237 0.0 -0.0007594533963128924 -0.0009692340972833335 -0.0008008623844943941 -4.781472504650911e-34 -1.0879014356035555e-09 1 True False
11375.21 3.013580560684204 -1.108556554918625 1.5587099234210413 -2.0208856068053187 -1.570784870778219 1.4427733421325684 0.0 -0.0023088061716407537 -0.0017678026342764497 -0.001053588930517435 -0.0 -1.6525250498526454e-28 1 True False
11375.26 3.013575315475464 -1.1086324018291016 1.5586455504046839 -2.02089323619985 -1.5707891623126429 1.442765712738037 0.0 -0.00014855724293738604 -0.0005599450669251382 -0.00023196190886665136 -0.0 -0.0 1 True False
11375.31 3.0135881900787354 -1.1092435282519837 1.5577572027789515 -2.019707819024557 -1.5707891623126429 1.442797064781189 0.0 -0.023057928308844566 -0.04161963239312172 0.05681319162249565 -5.130812496645376e-05 -0.0 1 True False
11375.359999999999 3.013575315475464 -1.1103841823390503 1.5548861662494105 -2.014848848382467 -1.570813004170553 1.4427820444107056 0.0 -0.0355638787150383 -0.08432205021381378 0.12344041466712952 -8.889129037584362e-22 -0.0 1 True False
11375.41 3.013592481613159 -1.113171086912491 1.5490711371051233 -2.006843229333395 -1.5707648436175745 1.4427893161773682 0.0 -0.06394148617982864 -0.13260947167873383 0.19928157329559326 -1.3502631742541072e-40 -0.0 1 True False
11375.46 3.0135512351989746 -1.1168785852244874 1.541274372731344 -1.9950419865050257 -1.5707686583148401 1.4427847862243652 0.0 -0.08722089976072311 -0.17741918563842773 0.2620624005794525 -5.737928950111382e-05 -0.0 1 True False
11375.51 3.0136046409606934 -1.1218770307353516 1.5308669249164026 -1.9798475704588832 -1.5707886854754847 1.4427980184555054 0.0 -0.10781469196081161 -0.22946690022945404 0.33488282561302185 -9.783880215057713e-15 -0.0 1 True False
11375.56 3.0135598182678223 -1.127859191303589 1.5183470884906214 -1.9612328014769496 -1.5708168188678187 1.442813515663147 0.0 -0.12854288518428802 -0.28305917978286743 0.40932798385620117 -1.4861736506537795e-33 -0.0 1 True False
11375.609999999999 3.0135838985443115 -1.1350611311248322 1.503211800252096 -1.939108511010641 -1.5707805792437952 1.4427493810653687 0.0 -0.15195587277412415 -0.32704660296440125 0.47688475251197815 -0.0 -0.0 1 True False
11375.66 3.013629674911499 -1.1432914596847077 1.4859426657306116 -1.9134470425047816 -1.5707805792437952 1.4427803754806519 0.0 -0.17548808455467224 -0.3673691749572754 0.5544949173927307 -0.0 -0.0 1 True False
11375.71 3.0135796070098877 -1.1516149801066895 1.4685385862933558 -1.8878427944579066 -1.5708006064044397 1.4428331851959229 0.0 -0.1511336714029312 -0.32555586099624634 0.4675862193107605 -0.0 -0.0 1 True False
11375.76 3.0135555267333984 -1.1586809319308777 1.4537723700152796 -1.8656851253905238 -1.570784870778219 1.4428354501724243 0.0 -0.13016869127750397 -0.28109613060951233 0.41059112548828125 -0.0 -0.0 1 True False
11375.81 3.0135676860809326 -1.1646740597537537 1.4409578482257288 -1.84718718151235 -1.5707967917071741 1.4428354501724243 0.0 -0.10779406875371933 -0.23010163009166718 0.34195709228515625 -0.0 -0.0 1 True False
11375.859999999999 3.0135555267333984 -1.1695268911174317 1.4308198134051722 -1.8320533237852992 -1.570784870778219 1.4428014755249023 0.0 -0.08635244518518448 -0.174391970038414 0.2738856077194214 -0.0 -0.0 1 True False
11375.91 3.013546943664551 -1.1733151835254212 1.4229844252215784 -1.820381303826803 -1.5707648436175745 1.4428014755249023 0.0 -0.06803308427333832 -0.13579751551151276 0.19730445742607117 -0.0 -0.0 1 True False
11375.96 3.0135960578918457 -1.175905005340912 1.4174860159503382 -1.8122021160521449 -1.5708654562579554 1.442810297012329 0.0 -0.043703291565179825 -0.08445701748132706 0.12810073792934418 -0.0 -0.0 1 True False
11376.01 3.0135838985443115 -1.177470163708069 1.4142325560199183 -1.8075982532896937 -1.5708168188678187 1.4427416324615479 0.0 -0.019160067662596703 -0.041980233043432236 0.0589296892285347 -0.0 -0.0 1 True False
11376.06 3.0135838985443115 -1.1778119069388886 1.4134557882892054 -1.8063632450499476 -1.5708168188678187 1.4427926540374756 0.0 7.3813030212477315e-06 3.4830551157938316e-05 -0.0014964622678235173 -0.0 -0.0 1 False False
11376.109999999999 3.0136003494262695 -1.1778474909118195 1.4133461157428187 -1.806359430352682 -1.5707724730121058 1.442793607711792 0.0 -0.00045429953024722636 -0.00041249211062677205 -0.00012774221249856055 -0.0 -0.0 1 False False
11376.16 3.0135676860809326 -1.1778806310943146 1.4133742491351526 -1.8063270054259242 -1.5707925001727503 1.442793607711792 0.0 -0.0005051385960541666 -0.00014010797895025462 7.511493458878249e-05 -0.0 -0.0 1 False False
11376.21 3.013607978820801 -1.1779013139060517 1.4133785406695765 -1.8063427410521449 -1.5708335081683558 1.442752480506897 0.0 -8.969099872047082e-05 -0.0006792846834287047 0.00038965503335930407 -0.0 -0.0 1 False False
11376.26 3.0135796070098877 -1.1778357189944764 1.4133876005755823 -1.8062945804991664 -1.5708048979388636 1.4427032470703125 0.0 -0.00013961124932393432 -0.00020337871683295816 0.0004528583958745003 -0.0 -0.0 1 False False
11376.31 3.0135881900787354 -1.1778443914702912 1.4133456389056605 -1.8062507114806117 -1.5708168188678187 1.4427776336669922 0.0 -0.0001261987054022029 -0.00019326378242112696 0.00016617740038782358 -0.0 -0.0 1 False False
11376.359999999999 3.0135719776153564 -1.1779013735106965 1.4133737722979944 -1.8062707386412562 -1.5708091894732874 1.4428014755249023 0.0 -7.13429547128818e-18 -0.00011935819929931313 0.00013019693142268807 -0.0 -0.0 1 False False
11376.41 3.0135793685913086 -1.177864359026291 1.4133742491351526 -1.8062626324095667 -1.570829216633932 1.4427759647369385 0.0 0.0 -9.256560588255525e-05 0.00010576351633062586 -0.0 -0.0 1 False False
11376.46 3.0136332511901855 -1.1778644186309357 1.4133995215045374 -1.8062874279417933 -1.5707967917071741 1.442793607711792 0.0 -0.0001131848111981526 -2.9785535149429165e-11 8.514014189131558e-05 -0.0 -0.0 1 False False
11376.51 3.0135915279388428 -1.1778688591769715 1.4133666197406214 -1.8062955341734828 -1.570784870778219 1.4428147077560425 0.0 -8.926280861487612e-05 -7.008874529013438e-41 5.686287840944715e-05 -0.0 -0.0 1 False False
11376.56 3.0135257244110107 -1.1778600376895447 1.4134038130389612 -1.8062473736205042 -1.5707724730121058 1.442810297012329 0.0 -7.235174416564405e-05 -2.6899562726612203e-05 2.2230629575408552e-15 -0.0 -0.0 1 False False
11376.609999999999 3.0135793685913086 -1.1778925520232697 1.4133904615985315 -1.8062917194762171 -1.5707362333880823 1.4428024291992188 0.0 -5.56844038785539e-23 -3.090484096901491e-05 3.3768361931224543e-34 -0.0 -0.0 1 False False
11376.66 3.0136005878448486 -1.177855746155121 1.4133709112750452 -1.8062387905516566 -1.5707605520831507 1.4428024291992188 0.0 0.0 -4.9828815267232294e-31 0.0 -0.0 -0.0 1 False False
11376.71 3.0135793685913086 -1.1778893929770966 1.4133876005755823 -1.8062998257079066 -1.5708168188678187 1.442793607711792 0.0 -4.664402003939766e-22 -0.0 0.0 -0.0 -0.0 1 False False
11376.76 3.0135464668273926 -1.1778806310943146 1.4133876005755823 -1.8063069782652796 -1.5708048979388636 1.4427847862243652 0.0 0.0 -0.0 0.0 -0.0 -0.0 1 False False
11376.81 3.0135183334350586 -1.1778557759574433 1.4133546988116663 -1.8062387905516566 -1.570813004170553 1.4428147077560425 0.0 0.0 -0.0 0.0 -0.0 -0.0 1 False False
11376.859999999999 3.0135302543640137 -1.1778357487967988 1.4133828322040003 -1.806263109246725 -1.5708048979388636 1.4428014755249023 0.0 0.0 -0.0 0.0 -0.0 -0.0 1 False False
11376.91 3.0135750770568848 -1.1778431695750733 1.4133785406695765 -1.8062955341734828 -1.5708168188678187 1.442765712738037 0.0 0.0 -0.0 0.0 -0.0 -0.0 1 False False
11376.96 3.0136094093322754 -1.1778389078429718 1.4133546988116663 -1.8062550030150355 -1.5707843939410608 1.4427701234817505 0.0 0.0 -0.0 0.0 -0.0 -0.0 1 False False
11377.01 3.0136005878448486 -1.1778968435576935 1.4134038130389612 -1.8062311611571253 -1.570857350026266 1.4428060054779053 0.0 0.0 -0.0 0.0 -0.0 -0.0 1 True False
11377.06 3.0135927200317383 -1.1779056054404755 1.4133589903460901 -1.8062588177123011 -1.5708091894732874 1.4427688121795654 0.0 0.0 -0.0 0.0 -0.0 -0.0 1 True False
11377.109999999999 3.0135750770568848 -1.1778012079051514 1.4133456389056605 -1.8062874279417933 -1.5707686583148401 1.4428060054779053 0.0 0.0 -7.987232023779628e-14 0.0 -0.0 -0.0 1 True False
11377.16 3.0135598182678223 -1.1778853994658967 1.4133623282061976 -1.8062998257079066 -1.5708006064044397 1.4427803754806519 0.0 0.0 -1.877739942195255e-43 0.0 -0.0 -5.3610663599101827e-05 1 True False
11377.21 3.0135345458984375 -1.1778673988631745 1.4133041540728968 -1.8062755070128382 -1.5707805792437952 1.442764401435852 0.0 0.0 -0.0 0.0 -0.0 -2.157050766982138e-05 1 True False
11377.26 3.0135838985443115 -1.1779090625098725 1.4133413473712366 -1.8063308201231898 -1.5707648436175745 1.442793607711792 0.0 0.0 -0.0 0.0 -0.0 -1.3487996511685196e-05 1 True False
11377.31 3.0135750770568848 -1.1778882306865235 1.4133876005755823 -1.8062831364073695 -1.5707481543170374 1.4427881240844727 0.0 0.0 -0.0 0.0 -0.0 -7.409708473460341e-07 1 True False
11377.359999999999 3.0135719776153564 -1.1778644186309357 1.4133456389056605 -1.806218763391012 -1.5707572142230433 1.4427076578140259 0.0 0.0 -0.0 0.0 -0.0 -1.1255363857699586e-25 1 True False
11377.41 3.0135390758514404 -1.1778510075858613 1.4133709112750452 -1.8062392673888148 -1.5708487669574183 1.442846417427063 0.0 0.0 -0.0 0.0 -0.0 -1.6815581571897805e-44 1 True False
11377.46 3.0135960578918457 -1.1778807503036042 1.4133756796466272 -1.8062879047789515 -1.570772949849264 1.4427980184555054 0.0 0.0 -0.0 0.0 -0.0 0.001180238788947463 1 True False
11377.51 3.0135796070098877 -1.1778882306865235 1.4133175055133265 -1.8063003025450648 -1.5707648436175745 1.4428014755249023 0.0 0.0 -0.0 0.0 -7.660070368169073e-23 0.0002102623984683305 1 True False
11377.56 3.0135586261749268 -1.1778265696815033 1.4133294264422815 -1.806263109246725 -1.5707686583148401 1.442752480506897 0.0 0.0 -0.0 0.0 -1.1634981149288956e-41 0.0007278429111465812 1 True False
11377.609999999999 3.0135674476623535 -1.177876279955246 1.4133666197406214 -1.8063003025450648 -1.5707648436175745 1.4428147077560425 0.0 0.0 -6.29818686093131e-08 0.0 -0.0 -7.429830293403938e-05 1 True False
11377.66 3.013537645339966 -1.177897111778595 1.4133666197406214 -1.806218763391012 -1.5708048979388636 1.4427980184555054 0.0 0.0 -1.4820295109321127e-37 0.0 -0.0 -2.4296919946209528e-05 1 True False
11377.71 3.0154030323028564 -1.177991048698761 1.4135330359088343 -1.8062149486937464 -1.5708087126361292 1.4445825815200806 0.07073751091957092 -0.007782729342579842 0.009335150942206383 6.746456904238585e-08 -0.0 0.06948911398649216 1 True False
11377.76 3.02083683013916 -1.1784027379802247 1.413973633443014 -1.806382795373434 -1.5707925001727503 1.4499772787094116 0.1435708850622177 -0.01128110010176897 0.013332194648683071 -0.005948192905634642 -0.0 0.13907493650913239 1 True False
11377.81 3.0295326709747314 -1.1790334445289155 1.4148591200457972 -1.806690355340475 -1.570829216633932 1.4588243961334229 0.2100345492362976 -0.013338657096028328 0.02138887718319893 -0.005912750028073788 -0.0 0.21107830107212067 1 True False
11377.859999999999 3.041895866394043 -1.1798305672458191 1.4160316626178187 -1.8070575199522914 -1.5707686583148401 1.4711878299713135 0.28194499015808105 -0.018845990300178528 0.028452927246689796 -0.007983095943927765 -0.0 0.2741466164588928 1 True False
11377.91 3.0578057765960693 -1.1809330147555848 1.4176057020770472 -1.8074385128416957 -1.570801083241598 1.4869890213012695 0.3483189642429352 -0.02438187412917614 0.03367511183023453 -0.0069243330508470535 8.2607519289013e-05 0.349308580160141 1 True False
11377.96 3.077040672302246 -1.1821831625751038 1.4193533102618616 -1.8079897365965785 -1.5707443396197718 1.5062322616577148 0.42365968227386475 -0.029441507533192635 0.04134443402290344 -0.010276777669787407 2.5056595404748805e-05 0.41492268443107605 1 True False
11378.01 3.099752902984619 -1.183783696298935 1.421598259602682 -1.80857576946401 -1.5708211104022425 1.5290489196777344 0.4856039881706238 -0.03537214919924736 0.045183319598436356 -0.013328151777386665 3.2054704206530005e-05 0.4910484552383423 1 True False
11378.06 3.1262383460998535 -1.1856224101832886 1.4241622130023401 -1.8092895946898402 -1.5707891623126429 1.5553375482559204 0.5605856776237488 -0.036460332572460175 0.055127229541540146 -0.012938687577843666 9.331637556897476e-05 0.5574880242347717 1 True False
11378.109999999999 3.156022071838379 -1.1876678329757233 1.426901642476217 -1.8100429973998011 -1.5707691351519983 1.5850834846496582 0.6336184740066528 -0.04337402805685997 0.06295879930257797 -0.013300670310854912 -6.557283995789476e-07 0.6353338360786438 1 True False
11378.16 3.1892051696777344 -1.1899542969516297 1.4302285353290003 -1.8109237156310023 -1.5707925001727503 1.6184254884719849 0.7030131816864014 -0.04737558588385582 0.06857523322105408 -0.015455512329936028 -3.330289473524317e-05 0.6990294456481934 1 True False
11378.21 3.225939989089966 -1.1924917262843628 1.4336803595172327 -1.812045236627096 -1.5707529226886194 1.6550863981246948 0.7710973024368286 -0.05459333211183548 0.07269901782274246 -0.01765802688896656 1.3447589938299365e-13 0.7704669237136841 1 True False
11378.26 3.2661824226379395 -1.1953150790980835 1.4375618139850062 -1.8130856953062953 -1.5707967917071741 1.6954190731048584 0.8390399217605591 -0.0585227869451046 0.08121674507856369 -0.019496016204357147 1.6659349294417442e-18 0.8322831988334656 1 True False
11378.31 3.3098998069763184 -1.1982505482486268 1.4417784849749964 -1.8142339191832484 -1.5707686583148401 1.7391273975372314 0.9037443995475769 -0.06346099823713303 0.08616801351308823 -0.025907929986715317 2.53055803730354e-37 0.9081094861030579 1 True False
11378.359999999999 3.357060194015503 -1.2015277308276673 1.4464309851275843 -1.815442224542135 -1.570784870778219 1.786395788192749 0.9827722907066345 -0.06581265479326248 0.09241020679473877 -0.02547735720872879 0.0 0.9797213673591614 1 True False
11378.41 3.4079346656799316 -1.2051052910140534 1.451127831135885 -1.8168064556517542 -1.5707324186908167 1.8369371891021729 1.0479774475097656 -0.07381922006607056 0.10030750930309296 -0.02476869709789753 0.0 1.0579445362091064 1 True False
11378.46 3.4601926803588867 -1.2086621087840577 1.4560187498675745 -1.8182007275023402 -1.570772949849264 1.8894243240356445 1.0434014797210693 -0.07392419874668121 0.09910080581903458 -0.032794851809740067 0.0 1.041415810585022 1 True False
11378.51 3.512549877166748 -1.2123268109611054 1.4611552397357386 -1.8196565113463343 -1.570824925099508 1.9419175386428833 1.0488555431365967 -0.06938159465789795 0.09780925512313843 -0.03031224012374878 0.0 1.0489574670791626 1 True False
11378.56 3.564964532852173 -1.215873436336853 1.4661582151996058 -1.8210674724974574 -1.570772949849264 1.9941787719726562 1.0467183589935303 -0.07417537271976471 0.09980643540620804 -0.02230709418654442 -0.00014272419502958655 1.049201488494873 1 True False
11378.609999999999 3.6172611713409424 -1.2194687587073822 1.4711669127093714 -1.8224388561644496 -1.5708254019366663 2.046441078186035 1.0431394577026367 -0.07107217609882355 0.10277928411960602 -0.027084387838840485 -7.430604455294088e-05 1.0415537357330322 1 True False
11378.66 3.6697051525115967 -1.2231027644923707 1.4762137571917933 -1.8238665066161097 -1.5707925001727503 2.0989675521850586 1.0495249032974243 -0.07205881923437119 0.09710321575403214 -0.027502989396452904 -6.126144580775872e-05 1.044910192489624 1 True False
11378.71 3.7219672203063965 -1.2266527873328705 1.4813593069659632 -1.8252221546568812 -1.570751969014303 2.151099920272827 1.0477726459503174 -0.0721825361251831 0.09550952166318893 -0.026404157280921936 1.3432173429084315e-10 1.056167721748352 1 True False
11378.76 3.7744364738464355 -1.2303905051997681 1.4861963430987757 -1.8267375431456507 -1.5707967917071741 2.2034974098205566 1.0418866872787476 -0.07446577399969101 0.1027296781539917 -0.025474678725004196 2.0403509470160506e-29 1.0430227518081665 1 True False
11378.81 3.826704502105713 -1.2339873772910614 1.4912317434894007 -1.8281003437437953 -1.5707891623126429 2.2559831142425537 1.0481139421463013 -0.07180043309926987 0.10150009393692017 -0.02816438116133213 0.0 1.0482242107391357 1 True False
11378.859999999999 3.8791086673736572 -1.2375104886344452 1.496237579976217 -1.8294440708556117 -1.570756737385885 2.308267831802368 1.0468593835830688 -0.07315966486930847 0.09944501519203186 -0.028543274849653244 0.0 1.050337791442871 1 True False
11378.91 3.9314703941345215 -1.2411431235126038 1.5012076536761683 -1.8308354816832484 -1.5707886854754847 2.3605616092681885 1.0433220863342285 -0.07062176614999771 0.10186348110437393 -0.02533412165939808 0.0 1.0442328453063965 1 True False
11378.96 3.9837911128997803 -1.2447692614844819 1.5062812010394495 -1.8323265514769496 -1.5708087126361292 2.413086175918579 1.0513650178909302 -0.07177401334047318 0.10040809959173203 -0.03212790563702583 0.0 1.04680597782135 1 True False
11379.01 4.036099433898926 -1.2484295827201386 1.5113309065448206 -1.8337818584837855 -1.5707724730121058 2.465359926223755 1.0463199615478516 -0.07348146289587021 0.09764652699232101 -0.02655647322535515 0.0 1.0592025518417358 1 True False
11379.06 4.088457107543945 -1.2519649428180237 1.5162976423846644 -1.8351179562010707 -1.570813004170553 2.5176191329956055 1.0425474643707275 -0.07176264375448227 0.09842077642679214 -0.028086116537451744 0.000162448690389283 1.0447931289672852 1 True False
11379.109999999999 4.140885353088379 -1.2556436520865937 1.5213807264911097 -1.8364488087096156 -1.570784870778219 2.5701780319213867 1.046952724456787 -0.06828181445598602 0.10367283970117569 -0.029892638325691223 1.2514192788725768e-22 1.046980857849121 1 True False
11379.16 4.193206787109375 -1.2592813533595582 1.526313606892721 -1.8378287754454554 -1.5707815329181116 2.6224517822265625 1.0467544794082642 -0.07359126210212708 0.10382071882486343 -0.025450704619288445 -3.28159803757444e-05 1.0511997938156128 1 True False
11379.21 4.245662689208984 -1.2628436249545594 1.5312183539019983 -1.8393718204894007 -1.5708487669574183 2.674767017364502 1.0434515476226807 -0.0731343924999237 0.10129731893539429 -0.029158176854252815 -4.984756050967303e-24 1.042290210723877 1 True False
11379.26 4.297928333282471 -1.2664978367141266 1.5364678541766565 -1.8407227001585902 -1.5708330313311976 2.7273378372192383 1.0305193662643433 -0.06960310786962509 0.09560662508010864 -0.027719341218471527 -7.567011707354012e-43 1.0372456312179565 1 True False
11379.31 4.347897529602051 -1.2699956458858033 1.541241470967428 -1.8420549831786097 -1.5707767645465296 2.7771503925323486 0.970467746257782 -0.0676124095916748 0.09146106988191605 -0.021677685901522636 -0.0005576430121436715 0.9818263053894043 1 True False
11379.359999999999 4.394537925720215 -1.2731920641711731 1.5456183592425745 -1.8434115848936976 -1.5707805792437952 2.8239121437072754 0.9010315537452698 -0.06325482577085495 0.08308159559965134 -0.02505665086209774 -0.00010675158409867436 0.892582356929779 1 True False
11379.41 4.437764644622803 -1.2760674816421052 1.5497406164752405 -1.8443767033019007 -1.5708125273333948 2.866889476776123 0.8220406770706177 -0.05550256744027138 0.0793696865439415 -0.02304024249315262 -7.458269096175148e-16 0.8341118693351746 1 True False
11379.46 4.477350234985352 -1.2788294118693848 1.5535033384906214 -1.8455096683897914 -1.5708048979388636 2.9065494537353516 0.7643344402313232 -0.05416937544941902 0.07677824050188065 -0.01877053640782833 -5.088113042006626e-09 0.7648745179176331 1 True False
11379.51 4.513474941253662 -1.281233237390854 1.5570176283465784 -1.8464709721007289 -1.5707610289203089 2.9427871704101562 0.6903483867645264 -0.046745479106903076 0.06381210684776306 -0.021311864256858826 -7.728857015183086e-28 0.6850235462188721 1 True False
11379.56 4.546202182769775 -1.2835525435260315 1.5601170698748987 -1.8473340473570765 -1.5707805792437952 2.9755210876464844 0.6191452145576477 -0.042791713029146194 0.06037279590964317 -0.016142763197422028 -0.0 0.615145742893219 1 True False
11379.609999999999 4.575314998626709 -1.2856208843043824 1.562969986592428 -1.8481251202025355 -1.5708168188678187 3.004556179046631 0.5500631928443909 -0.03674336150288582 0.05240264907479286 -0.015626732259988785 -1.2419368485006022e-11 0.547122597694397 1 True False
11379.66 4.6011481285095215 -1.2874111992171784 1.5654266516314905 -1.8487616978087367 -1.5707252661334437 3.0302441120147705 0.4775353670120239 -0.034369178116321564 0.04730266332626343 -0.015432428568601608 -1.8865051804143293e-30 0.48124203085899353 1 True False
11379.71 4.623374938964844 -1.2889433664134522 1.5676277319537562 -1.8493296108641566 -1.57074481645693 3.0523030757904053 0.41106098890304565 -0.029538752511143684 0.041517145931720734 -0.010072093456983566 -4.7267818104046455e-08 0.4147087335586548 1 True False
11379.76 4.641864776611328 -1.2901783150485535 1.56935960451235 -1.8499337635436 -1.5707805792437952 3.071197509765625 0.34751906991004944 -0.024200228974223137 0.031241798773407936 -0.007083626464009285 -0.00011611654190346599 0.33768996596336365 1 True False
11379.81 4.65706729888916 -1.291231558924057 1.5708287397967737 -1.8503037891783656 -1.5708449522601526 3.0862486362457275 0.26676392555236816 -0.019008353352546692 0.022686364129185677 -0.007940523326396942 4.2527611987530634e-10 0.2785705626010895 1 True False
11379.859999999999 4.668707847595215 -1.292093352680542 1.5718868414508265 -1.8506103954710902 -1.5708168188678187 3.0980141162872314 0.20085887610912323 -0.013480852358043194 0.017607683315873146 -0.006807733327150345 6.459956025022989e-29 0.2009967714548111 1 True False
11379.91 4.677041530609131 -1.2926228803447266 1.5727241675006312 -1.850828310052389 -1.5708006064044397 3.106257438659668 0.12853674590587616 -0.007467266172170639 0.012218966148793697 -0.005327077116817236 0.0 0.13024142384529114 1 True False
11379.96 4.6817755699157715 -1.2927851241878052 1.57310659090151 -1.850980897943014 -1.5708048979388636 3.110931158065796 0.06042271479964256 -0.0034636789932847023 0.0037627751007676125 -0.0027367689181119204 -1.56737720025113e-10 0.06355655938386917 1 True False
11380.01 4.683044910430908 -1.2929228109172364 1.5732219854937952 -1.850983282128805 -1.5707810560809534 3.112164258956909 0.001846851664595306 0.0004998715594410896 0.018586985766887665 -0.012189391069114208 -2.3808493426526377e-29 -0.0028122258372604847 1 True False
11380.06 4.682999134063721 -1.2924516063979645 1.5748594442950647 -1.853302618066305 -1.5707967917071741 3.1122162342071533 0.0007156375795602798 0.0247162114828825 0.05314510315656662 -0.07865671068429947 -1.0770778935409453e-08 0.00020492574549280107 1 True False
11380.109999999999 4.682954788208008 -1.2904556554606934 1.5784981886493128 -1.8589517078795375 -1.5707967917071741 3.1122162342071533 0.0009527117945253849 0.05546022206544876 0.09895719587802887 -0.1442924290895462 -1.63608326554679e-27 0.0006935629062354565 1 True False
11380.16 4.682999134063721 -1.2870198351195832 1.5845187346087855 -1.8682314358153285 -1.570824925099508 3.1122524738311768 0.0007983766845427454 0.07930950820446014 0.14166301488876343 -0.2236771583557129 -0.0 0.0003764471912290901 1 True False
11380.21 4.682978630065918 -1.2824326020530243 1.5926530996905726 -1.8809811077513636 -1.5707967917071741 3.112236261367798 0.0005439334781840444 0.1017005443572998 0.1837993711233139 -0.28333011269569397 -0.0 0.0002315828896826133 1 True False
11380.26 4.683046817779541 -1.276731626396515 1.6034143606769007 -1.8972755871214808 -1.5708335081683558 3.112227201461792 0.00019680526747833937 0.12650622427463531 0.23359745740890503 -0.36618170142173767 7.606305734952912e-05 2.6951940526487306e-05 1 True False
11380.31 4.683006763458252 -1.2699144047549744 1.6159504095660608 -1.9170142612852992 -1.5707886854754847 3.1122183799743652 7.888043182902038e-05 0.14828643202781677 0.2752194404602051 -0.42904654145240784 6.416163523681462e-05 1.4690380769470092e-23 1 True False
11380.359999999999 4.683014392852783 -1.261680321102478 1.6312039534198206 -1.940183778802389 -1.570813004170553 3.112260103225708 6.581518391612917e-05 0.17402978241443634 0.3244641125202179 -0.5055012106895447 3.9664434820562866e-19 2.2308671552051088e-42 1 True False
11380.41 4.683027267456055 -1.2522621017745514 1.6483500639544886 -1.9667612514891566 -1.5707767645465296 3.1121819019317627 0.0001224810112034902 0.18278495967388153 0.344648540019989 -0.5688847303390503 6.02503520863747e-38 0.0 1 True False
11380.46 4.6830153465271 -1.2432675820640107 1.665006462727682 -1.9925452671446742 -1.5707929770099085 3.112260103225708 0.0 0.16450898349285126 0.31490984559059143 -0.4748721718788147 0.0 0.0 1 True False
11380.51 4.683043479919434 -1.235482082968094 1.679316822682516 -2.014794488946432 -1.5708006064044397 3.1121983528137207 0.0 0.1416836529970169 0.2649014890193939 -0.4189416170120239 0.0 0.0 1 True False
11380.56 4.6830596923828125 -1.2288636726192017 1.6916425863849085 -2.0334683857359828 -1.5707805792437952 3.112240791320801 0.0 0.124477818608284 0.22171545028686523 -0.3368664085865021 0.0 0.0 1 True False
11380.609999999999 4.682990550994873 -1.2234707337668915 1.701568905507223 -2.0486279926695765 -1.5707610289203089 3.1123015880584717 0.0 0.09703747928142548 0.17457148432731628 -0.2798864543437958 0.0 0.0 1 True False
11380.66 4.682994842529297 -1.2194056671908875 1.7090323607074183 -2.0605298481383265 -1.570813004170553 3.112227201461792 0.0 0.07073758542537689 0.12978540360927582 -0.19756053388118744 0.0 -1.357678684144048e-05 1 True False
11380.71 4.68300199508667 -1.2164556843093415 1.7144325415240687 -2.0688263378539027 -1.570784870778219 3.112215280532837 0.0 0.04481473192572594 0.09079121053218842 -0.14478106796741486 0.0 -2.0623168951518018e-24 1 True False
11380.76 4.683027267456055 -1.2147926551154633 1.7174633185016077 -2.073526521722311 -1.570784870778219 3.112165689468384 0.0 0.022601183503866196 0.04353494569659233 -0.06303080171346664 0.0 -3.1389085600875902e-43 1 True False
11380.81 4.683011054992676 -1.2143631142428895 1.7184003035174769 -2.0748712025084437 -1.5708006064044397 3.112248182296753 0.0 -0.0022540732752531767 -0.0005242013721726835 0.0044370852410793304 0.0 2.3859679007596036e-17 1 True False
11380.859999999999 4.683051109313965 -1.214342252617218 1.718403164540426 -2.0749312839903773 -1.5708087126361292 3.1121909618377686 0.0 0.00025438080774620175 0.0007794689736329019 -9.16418677054942e-12 0.0 3.624291443199192e-36 1 True False
11380.91 4.683055877685547 -1.2143348020366211 1.7185257116900843 -2.074923177758688 -1.5707891623126429 3.112165689468384 0.0 0.0003471381205599755 0.0013661027187481523 -1.392042039339808e-30 0.0 0.0 1 True False
11380.96 4.683008193969727 -1.2143511933139344 1.7184808889972132 -2.0749107799925746 -1.5707843939410608 3.112231731414795 0.0 9.557653538649902e-05 0.0002594543620944023 -0.0 0.0 0.0 1 True False
11381.01 4.6830644607543945 -1.214355693464615 1.7185466925250452 -2.0749150715269984 -1.5707605520831507 3.112215280532837 0.0 0.000208666839171201 0.00021416919480543584 -0.0 0.0 0.0 1 True False
11381.06 4.6830525398254395 -1.2143467229655762 1.7184584776507776 -2.0748993359007777 -1.570829216633932 3.112236261367798 0.0 0.00018004243611358106 0.00012750562746077776 -0.0 0.0 0.0 1 True False
11381.109999999999 4.682990074157715 -1.2143139106086274 1.7184751669513147 -2.0748826466002406 -1.570784870778219 3.1121628284454346 0.0 0.00014236909919418395 9.267897985409945e-05 -6.895592377986759e-05 0.0 0.0 1 True False
11381.16 4.683027267456055 -1.214255229835846 1.7184956709491175 -2.074958940545553 -1.5708044211017054 3.112224578857422 -3.761526750167832e-05 0.00011557637481018901 7.341454329434782e-05 -4.9856960686156526e-05 0.0 0.0 1 True False
11381.21 4.682973861694336 -1.2143064898303528 1.7185285727130335 -2.074951311151022 -1.5708211104022425 3.112210988998413 -3.4224462153176205e-10 8.247798541560769e-05 2.2980235946036716e-14 -7.57328478231427e-24 0.0 0.0 1 True False
11381.26 4.683013916015625 -1.2143348020366211 1.7184632460223597 -2.0749551258482875 -1.5707767645465296 3.112236261367798 0.0 5.2201699872966856e-05 5.465064010866787e-44 -1.1504660392106748e-42 0.0 0.0 1 True False
11381.31 4.683013916015625 -1.2143258911422272 1.7185042540179651 -2.074923177758688 -1.5707967917071741 3.1122422218322754 0.0 0.0 0.0 -0.0 0.0 0.0 1 True False
11381.359999999999 4.6829915046691895 -1.2143064898303528 1.7185285727130335 -2.074958940545553 -1.5707967917071741 3.112161159515381 0.0 0.0 0.0 -2.7104088418106187e-10 3.5672280684906355e-09 0.0 1 True False
11381.41 4.682987213134766 -1.214424805050232 1.7183683554278772 -2.0750938854613246 -1.570801083241598 3.112231731414795 0.0 -4.4319360464548097e-13 -4.7138881200226024e-05 -0.00221242755651474 -0.0007094156462699175 1.7465791870563407e-06 1 True False
11381.46 4.682973861694336 -1.2143829327872773 1.7183597723590296 -2.0750819645323695 -1.5708091894732874 3.112236261367798 0.0 0.0003071508544962853 0.00024783521075733006 0.0001348085206700489 -0.00011421970702940598 2.653057553394046e-25 1 True False
11381.51 4.682961940765381 -1.2144204539111634 1.718372646962301 -2.0749627552428187 -1.570784870778219 3.112215280532837 0.0 -0.005814550444483757 -0.007814285345375538 0.026250462979078293 -6.369139009620994e-05 4.0637655465419695e-44 1 True True
11381.56 4.6830153465271 -1.214918391113617 1.7173212210284632 -2.0722562275328578 -1.5707967917071741 3.1122019290924072 0.0 -0.026279713958501816 -0.05569194629788399 0.07858360558748245 -3.311917680548504e-05 0.0 1 True True
11381.609999999999 4.682957172393799 -1.2172149580768128 1.7132123152362269 -2.0664597950377406 -1.5708335081683558 3.11224365234375 6.495449178522961e-10 -0.05371334031224251 -0.10234387218952179 0.1712547093629837 -1.753127582861622e-17 0.0 1 True True
11381.66 4.683032035827637 -1.2206160885146637 1.7068975607501429 -2.056995531121725 -1.5707767645465296 3.1121819019317627 0.0 -0.08441220968961716 -0.14818808436393738 0.2141527682542801 -2.6630057189260635e-36 0.0 1 True True
11381.71 4.682999134063721 -1.225131706600525 1.698545281087057 -2.0439444981017054 -1.5707605520831507 3.112248182296753 0.0 -0.10264232009649277 -0.18943572044372559 0.29763585329055786 -3.406703807939948e-09 0.0 1 True True
11381.76 4.682981491088867 -1.2309564513019104 1.6876052061664026 -2.027642389337057 -1.5707686583148401 3.1122288703918457 2.6099300157511607e-05 -0.12946316599845886 -0.2337716668844223 0.35788124799728394 -5.174791278706272e-28 0.0 1 True True
11381.81 4.682999134063721 -1.2378898125937958 1.6748068968402308 -2.007670064965719 -1.5708254019366663 3.1122496128082275 -2.281315937580075e-05 -0.153683602809906 -0.2854963541030884 0.4305439293384552 -0.0 0.0 1 True True
11381.859999999999 4.6830573081970215 -1.2461437743953248 1.6596258322345179 -1.9842530689635218 -1.5708168188678187 3.1121983528137207 0.0 -0.1758253276348114 -0.32334041595458984 0.49612683057785034 -0.0 0.0 1 True True
11381.91 4.682990074157715 -1.255621151333191 1.6422889868365687 -1.9575120411314906 -1.570829216633932 3.112236261367798 0.0 -0.18296274542808533 -0.35261914134025574 0.5374665856361389 -0.0 0.0 1 True True
11381.96 4.6830525398254395 -1.2645306450179596 1.6257160345660608 -1.9319588146605433 -1.5708335081683558 3.1122453212738037 0.0 -0.16803514957427979 -0.3067464232444763 0.4749448895454407 4.969015935785137e-05 0.0 1 True True
11382.01 4.683006286621094 -1.2723115247539063 1.6115930716144007 -1.9100524387755335 -1.5708087126361292 3.112248182296753 0.0 -0.14423666894435883 -0.2673181891441345 0.40772005915641785 1.5447575191960947e-18 0.0 1 True True
11382.06 4.682999134063721 -1.278768078689911 1.5995062033282679 -1.8913656673827113 -1.570801083241598 3.1122453212738037 0.0 -0.11534509807825089 -0.21921898424625397 0.3401945233345032 2.3464893004314437e-37 0.0 1 True True
11382.109999999999 4.682985782623291 -1.2841631931117554 1.5897076765643519 -1.876413484612936 -1.570801083241598 3.112240791320801 0.0 -0.09378958493471146 -0.16679659485816956 0.26539403200149536 0.0 0.0 1 True True
11382.16 4.683032035827637 -1.2881345015815278 1.582270924245016 -1.8647705517210902 -1.5707925001727503 3.1121983528137207 0.0 -0.07304485887289047 -0.13271407783031464 0.20095548033714294 0.0 0.0 1 True True
11382.21 4.683008193969727 -1.2910111111453553 1.5770748297320765 -1.8567573032774867 -1.5707686583148401 3.1121819019317627 0.0 -0.04609200358390808 -0.07995542883872986 0.1230623871088028 0.0 0.0 1 True True
11382.26 4.683043956756592 -1.2926482421210785 1.574134651814596 -1.8520719013609828 -1.570784870778219 3.112264394760132 0.0 -0.02180497907102108 -0.041580311954021454 0.05774812400341034 0.0 -3.3354760944348527e-06 1 True True
11382.31 4.682982921600342 -1.292994813328125 1.5733283201800745 -1.85107483486318 -1.570801083241598 3.1121344566345215 -0.014027795754373074 -0.0009009488276205957 5.8844193517870735e-06 -0.0005561548750847578 0.0 -0.01587234064936638 1 True True
11382.359999999999 4.681755065917969 -1.2930186551860352 1.5733402411090296 -1.8510786495604457 -1.570813004170553 3.109876871109009 -0.04001101106405258 -0.0008776364265941083 8.684640488354489e-05 -6.276322528719902e-05 0.0 -0.08139786124229431 1 True True
11382.41 4.678712844848633 -1.2931454938701172 1.5733068625079554 -1.851086755792135 -1.5707925001727503 3.1038317680358887 -0.08215848356485367 -0.004703547805547714 0.0015497466083616018 -1.007763833796157e-20 0.0 -0.1556118130683899 1 True True
11382.46 4.673877716064453 -1.293261931543686 1.5734871069537562 -1.8511115513243617 -1.5707925001727503 3.0944111347198486 -0.11532323807477951 -0.004451299551874399 0.004017865750938654 -1.5307966593084664e-39 0.0 -0.21818459033966064 1 True True
11382.51 4.667149543762207 -1.293508456354477 1.5738161245929163 -1.8510710201659144 -1.5707605520831507 3.0816659927368164 -0.14841680228710175 -0.004871292971074581 0.00582637544721365 -0.0 0.0 -0.2977353036403656 1 True True
11382.56 4.658779144287109 -1.293777124290802 1.5741689840899866 -1.8511635265746058 -1.570801083241598 3.0652055740356445 -0.19011977314949036 -0.005306089296936989 0.008833415806293488 -0.0031155901961028576 0.0 -0.35890498757362366 1 True True
11382.609999999999 4.648374080657959 -1.2940335136703034 1.574641529713766 -1.851269384423727 -1.5708254019366663 3.045475482940674 -0.22330182790756226 -0.007356814108788967 0.009128806181252003 -0.003006461774930358 0.0 -0.4350090026855469 1 True True
11382.66 4.636320114135742 -1.294444279079773 1.5750272909747522 -1.8514172039427699 -1.570756737385885 3.0220913887023926 -0.25608018040657043 -0.008108316920697689 0.010151893831789494 -0.0033348321449011564 0.0 -0.49446243047714233 1 True True
11382.71 4.6225433349609375 -1.2948740285686036 1.5755766073810022 -1.8515125713744105 -1.5707891623126429 2.9950945377349854 -0.2994070053100586 -0.009413233026862144 0.009902888908982277 -0.0029847475234419107 0.0 -0.5670005679130554 1 True True
11382.76 4.606673717498779 -1.2952913504889985 1.5761078039752405 -1.8516584835448207 -1.5708335081683558 2.9647316932678223 -0.33050447702407837 -0.011122551746666431 0.014360196888446808 -0.002608334179967642 0.0 -0.6342236399650574 1 True True
11382.81 4.589327812194824 -1.2957993906787415 1.576845947896139 -1.8518544636168421 -1.5707886854754847 2.930917978286743 -0.36819466948509216 -0.012203246355056763 0.013482766225934029 -0.005091901868581772 0.0 -0.7054058313369751 1 True True
11382.859999999999 4.569967269897461 -1.2963468891433259 1.5775530974017542 -1.8520051441588343 -1.5707724730121058 2.8937745094299316 -0.401909738779068 -0.010480711236596107 0.01559482328593731 -0.0033556311391294003 0.0 -0.7734194397926331 1 True True
11382.91 4.548745632171631 -1.2970060271075745 1.578369442616598 -1.8522120914854945 -1.5707281271563929 2.85308837890625 -0.437700092792511 -0.01256368774920702 0.01728430762887001 -0.003618908114731312 0.0 -0.8548209071159363 1 True True
11382.96 4.52608585357666 -1.2976917785457154 1.5792830626117151 -1.8524114094176234 -1.5707772413836878 2.808565139770508 -0.47736653685569763 -0.015651453286409378 0.019089920446276665 -0.004252815153449774 -1.4123776800878396e-11 -0.9178392887115479 1 True True
11383.01 4.501291751861572 -1.2984510225108643 1.580256764088766 -1.8526092968382777 -1.5708368460284632 2.7609097957611084 -0.5090691447257996 -0.015615715645253658 0.020159456878900528 -0.0024541502352803946 -8.222850738093257e-06 -0.9890245199203491 1 True True
11383.06 4.4744873046875 -1.2991695565036316 1.5812280813800257 -1.8528996906676234 -1.5708649794207972 2.709555149078369 -0.5343790054321289 -0.01609630323946476 0.02238559164106846 -0.005048488266766071 -0.00085304060485214 -1.0335304737091064 1 True True
11383.109999999999 4.44749641418457 -1.3000022929957886 1.5823562780963343 -1.8530789814391078 -1.5708406607257288 2.6572823524475098 -0.547733724117279 -0.015259110368788242 0.01907341741025448 -0.009090807288885117 -0.0029569927137345076 -1.0497366189956665 1 True True
11383.16 4.42058801651001 -1.3008667987636109 1.5834243933307093 -1.8533059559264125 -1.5707653204547327 2.6050779819488525 -0.5456415414810181 -0.014981313608586788 0.01957051083445549 -0.005568356718868017 0.00031483449856750667 -1.044944405555725 1 True True
11383.21 4.393618583679199 -1.3016920250705262 1.5843952337848108 -1.8535481892027796 -1.570700470601217 2.552489995956421 -0.5397233963012695 -0.017101086676120758 0.02147059328854084 -0.0024110611993819475 0.0008829988655634224 -1.0383591651916504 1 True True
11383.26 4.366550445556641 -1.3024155062488099 1.5855301062213343 -1.8537937603392542 -1.5707486311541956 2.5001907348632812 -0.5360710024833679 -0.018798952922225 0.021972615271806717 -0.0011572280200198293 0.0016481849597766995 -1.0511138439178467 1 True True
11383.31 4.339315414428711 -1.3032393616488953 1.5864875952350062 -1.8540526829161585 -1.5708006064044397 2.4480364322662354 -0.5344038605690002 -0.017113544046878815 0.02207963541150093 -0.0016010552644729614 0.0026765919756144285 -1.0503466129302979 1 True True
11383.359999999999 4.312060832977295 -1.3040096324733277 1.587494198475973 -1.8543702564635218 -1.570864502583639 2.3954713344573975 -0.5412133932113647 -0.016350157558918 0.019337229430675507 -0.005446135997772217 -0.0005429161246865988 -1.0400725603103638 1 True True
11383.41 4.284865856170654 -1.3047548693469544 1.5885985533343714 -1.854565759698385 -1.5708649794207972 2.3431038856506348 -0.5480570197105408 -0.014345011673867702 0.018855905160307884 -0.008547225035727024 -0.001289058243855834 -1.0532400608062744 1 True True
11383.46 4.257900714874268 -1.3056335610202332 1.589607063923971 -1.854776521722311 -1.5707767645465296 2.2909300327301025 -0.5474731922149658 -0.013476960361003876 0.019089525565505028 -0.00799962691962719 -0.001973383128643036 -1.0502781867980957 1 True True
11383.51 4.230841159820557 -1.3064735692790528 1.5906828085528772 -1.8549910984435023 -1.570784870778219 2.2384133338928223 -0.5435212254524231 -0.013907802291214466 0.019943345338106155 -0.007010672241449356 0.00022226911096367985 -1.0411837100982666 1 True True
11383.56 4.203920841217041 -1.307260976438858 1.5917261282550257 -1.8551975689330042 -1.5707810560809534 2.186065912246704 -0.53975510597229 -0.015653984621167183 0.02282630279660225 -0.004495925270020962 0.0008187228231690824 -1.0554273128509521 1 True True
11383.609999999999 4.176941394805908 -1.3080112499049683 1.5927613417254847 -1.8554045162596644 -1.5707371870623987 2.1338696479797363 -0.5384445786476135 -0.01888192817568779 0.022842179983854294 -0.002105649560689926 0.0014143387088552117 -1.04900062084198 1 True True
11383.66 4.149725437164307 -1.3088380259326478 1.5938132444964808 -1.855694433251852 -1.5707805792437952 2.0812394618988037 -0.5327932238578796 -0.017547737807035446 0.022258678451180458 -0.0009031359222717583 0.0033959096763283014 -1.0422300100326538 1 True True
11383.71 4.122495174407959 -1.3095949453166504 1.594802204762594 -1.8560692272581996 -1.57082444826235 2.0288479328155518 -0.5390127301216125 -0.016690274700522423 0.02175270766019821 -0.004202483221888542 -0.000415018672356382 -1.051758050918579 1 True True
11383.76 4.095240592956543 -1.310332791214325 1.5958855787860315 -1.8562590084471644 -1.5708444754229944 1.9767122268676758 -0.5439109206199646 -0.015202020294964314 0.0201585590839386 -0.006926993373781443 -0.001536124967969954 -1.0481441020965576 1 True True
11383.81 4.068193435668945 -1.3112171453288575 1.5969794432269495 -1.8564540348448695 -1.5708282629596155 1.9241971969604492 -0.5495527386665344 -0.013681158423423767 0.019120564684271812 -0.007038583979010582 -0.0017738743918016553 -1.039854884147644 1 True True
11383.859999999999 4.041165828704834 -1.312081293468811 1.5979650656329554 -1.8566886387267054 -1.5707529226886194 1.8718554973602295 -0.5481956601142883 -0.013778661377727985 0.018007978796958923 -0.01027441956102848 -0.003537209238857031 -1.0524876117706299 1 True True
