Andreas691667/Digital_Twin_UR/data_analysis/test_results/robot_data/robot_output_wgo.csv
timestamp actual_q_0 actual_q_1 actual_q_2 actual_q_3 actual_q_4 actual_q_5 actual_qd_0 actual_qd_1 actual_qd_2 actual_qd_3 actual_qd_4 actual_qd_5 safety_status output_bit_register_65 output_bit_register_66
17431.42 3.7120862007141113 -0.825495795612671 0.8429721037494105 -1.5882889233031214 -1.5707648436175745 2.141329526901245 0.0 0.0 0.0 0.0 -0.0 0.0 1 False False
17431.469999999998 3.7120578289031982 -0.8254290384105225 0.8429587523089808 -1.5883170566954554 -1.5708168188678187 2.141246795654297 0.0 0.0 0.0 0.0 -0.0 0.0 1 False False
17431.52 3.7120697498321533 -0.8255127233317872 0.8430383841144007 -1.5883246860899867 -1.570784870778219 2.14127516746521 0.0 0.0 0.0 0.0 -0.0 0.0 1 False False
17431.57 3.712066888809204 -0.8254706424525757 0.8429563681231897 -1.5883332691588343 -1.5707724730121058 2.141313076019287 0.0 0.0 0.0 0.0 -0.0 0.0 1 False False
17431.62 3.712106943130493 -0.8254587215236207 0.8429630438434046 -1.588320871392721 -1.5708006064044397 2.1413159370422363 0.0 0.0 0.0 0.0 -0.0 0.0 1 False False
17431.67 3.712066888809204 -0.8255529564670105 0.8429587523089808 -1.5883246860899867 -1.5708168188678187 2.141284227371216 0.0 0.0 0.0 0.0 -0.0 0.0 1 False False
17431.719999999998 3.712108612060547 -0.825463132267334 0.8429754416095179 -1.588273664514059 -1.570829216633932 2.141258955001831 0.0 0.0 0.0 0.0 -0.0 0.0 1 False False
17431.77 3.7120320796966553 -0.825442449455597 0.8429802099810999 -1.5883175335326136 -1.5708172957049769 2.141300678253174 0.0 0.0 0.0 0.0 -0.0 0.0 1 False False
17431.82 3.7120862007141113 -0.8254823845675965 0.842992130910055 -1.5882932148375453 -1.5708087126361292 2.141263246536255 0.0 0.0 0.0 0.0 -0.0 0.0 1 False False
17431.87 3.7120578289031982 -0.8254913848689576 0.8429845015155237 -1.5882774792113246 -1.5707886854754847 2.141242504119873 0.0 0.0 0.0 0.0 -0.0 0.0 1 False False
17431.92 3.712050199508667 -0.825445370083191 0.8429845015155237 -1.5883094273009242 -1.5708087126361292 2.141313076019287 0.0 0.0 0.0 0.0 -0.0 0.0 1 False False
17431.969999999998 3.7120490074157715 -0.825533465748169 0.8429935614215296 -1.588313718835348 -1.5707610289203089 2.14121413230896 0.0 0.0 0.0 0.0 -0.0 0.0 1 False False
17432.02 3.7120742797851562 -0.8254750531962891 0.8429802099810999 -1.5883056126036585 -1.570824925099508 2.141326427459717 0.0 0.0 0.0 0.0 -0.0 0.0 1 False False
17432.07 3.7120981216430664 -0.8254750531962891 0.8430145422564905 -1.5882932148375453 -1.5708048979388636 2.141334056854248 0.0 0.0 0.0 0.0 -0.0 0.0 1 False False
17432.12 3.7120862007141113 -0.8254750531962891 0.8429845015155237 -1.5882889233031214 -1.5707810560809534 2.141279697418213 0.0 0.0 0.0 0.0 -0.0 0.0 1 False False
17432.17 3.712066888809204 -0.8254261177829285 0.8429935614215296 -1.5883413753905238 -1.5707810560809534 2.141284227371216 0.0 0.0 0.0 0.0 -0.0 0.0 1 False False
17432.219999999998 3.7120907306671143 -0.8254097861102601 0.8429563681231897 -1.5882607899107875 -1.5708006064044397 2.141345977783203 0.0 0.0 0.0 0.0 -0.0 0.0 1 False False
17432.27 3.7120697498321533 -0.8254380387118836 0.8429587523089808 -1.5882846317686976 -1.570824925099508 2.1413049697875977 0.0 0.0 0.0 0.0 -0.0 0.0 1 False False
17432.32 3.7120742797851562 -0.825495795612671 0.8429630438434046 -1.5882817707457484 -1.570801083241598 2.1413004398345947 0.0 0.0 0.0 0.0 -0.0 0.0 1 False False
17432.37 3.712106943130493 -0.8254750531962891 0.8429587523089808 -1.5882731876769007 -1.5708168188678187 2.141291618347168 0.0 0.0 0.0 0.0 -0.0 0.0 1 False False
17432.42 3.7120578289031982 -0.825463132267334 0.8430169264422815 -1.588269372979635 -1.5707724730121058 2.141342878341675 0.0 0.0 0.0 0.0 -0.0 0.0 1 False False
17432.469999999998 3.7120981216430664 -0.8254869741252442 0.8429587523089808 -1.5882774792113246 -1.5708330313311976 2.141300678253174 0.0 0.0 0.0 0.0 -0.0 0.0 1 False False
17432.52 3.7120492458343506 -0.8254423898509522 0.8429887930499476 -1.5882889233031214 -1.5707691351519983 2.141267776489258 0.0 0.0 0.0 0.0 -0.0 0.0 1 False False
17432.57 3.712099552154541 -0.825451211338379 0.8430007139789026 -1.588297029534811 -1.5708006064044397 2.141329526901245 0.0 0.0 0.0 0.0 -0.0 0.0 1 False False
17432.62 3.7120697498321533 -0.8254543107799073 0.8430169264422815 -1.5882607899107875 -1.5707810560809534 2.141270637512207 0.0 0.0 0.0 0.0 -0.0 0.0 1 False False
17432.67 3.7120654582977295 -0.8254543107799073 0.8430216948138636 -1.588297029534811 -1.5708206335650843 2.1413040161132812 0.0 0.0 0.0 0.0 -0.0 0.0 1 False False
17432.719999999998 3.712111234664917 -0.8254380387118836 0.8429544607745569 -1.5883051357665003 -1.5707572142230433 2.141282558441162 0.0 0.0 0.0 0.0 -0.0 0.0 1 False False
17432.77 3.712106943130493 -0.8255002063563843 0.8429678122149866 -1.588268896142477 -1.5707767645465296 2.141242504119873 0.0 0.0 0.0 0.0 -0.0 0.0 1 False False
17432.82 3.7121188640594482 -0.825466052894928 0.8429721037494105 -1.5882932148375453 -1.5707767645465296 2.141296148300171 0.0 0.0 0.0 0.0 -0.0 0.0 1 False False
17432.87 3.7120447158813477 -0.8255245846560975 0.8429759184466761 -1.5882932148375453 -1.5707610289203089 2.1412885189056396 0.0 0.0 0.0 0.0 -0.0 0.0 1 False False
17432.92 3.712095022201538 -0.8254587215236207 0.8430245558368128 -1.588269372979635 -1.5708048979388636 2.14131760597229 0.0 0.0 0.0 0.0 -0.0 0.0 1 False False
17432.969999999998 3.7120862007141113 -0.8255290550044556 0.8429759184466761 -1.5882607899107875 -1.570784870778219 2.141284227371216 0.0 0.0 0.0 0.0 -0.0 0.0 1 False False
17433.02 3.712083101272583 -0.8255291146091004 0.842992130910055 -1.588297029534811 -1.570784870778219 2.141254186630249 0.0 0.0 0.0 0.0 -0.0 0.0 1 False False
17433.07 3.7120449542999268 -0.8254794639400025 0.8429477850543421 -1.5883013210692347 -1.5707929770099085 2.141313076019287 0.0 0.0 0.0 0.0 -0.0 0.0 1 False False
17433.12 3.7120492458343506 -0.8254543107799073 0.8429477850543421 -1.5882731876769007 -1.5707491079913538 2.141270637512207 0.0 0.0 0.0 0.0 -0.0 0.0 1 False False
17433.17 3.7120935916900635 -0.8255378764918824 0.8430092970477503 -1.588341852227682 -1.5707529226886194 2.141300678253174 0.0 0.0 0.0 0.0 -0.0 0.0 1 False False
17433.219999999998 3.712106943130493 -0.8254468005946656 0.8429930845843714 -1.5882932148375453 -1.570784870778219 2.141263246536255 0.0 0.0 0.0 0.0 -0.0 0.0 1 False False
17433.27 3.7120938301086426 -0.8254496616176148 0.842959229146139 -1.5882846317686976 -1.5707886854754847 2.141216993331909 0.0 0.0 0.0 0.0 -0.0 0.0 1 False False
17433.32 3.7121036052703857 -0.8255083721927186 0.8430288473712366 -1.5883094273009242 -1.570784870778219 2.141284227371216 0.0 0.0 0.0 0.0 -0.0 0.0 1 False False
17433.37 3.7121100425720215 -0.8254645031741639 0.8430331389056605 -1.5882932148375453 -1.5707810560809534 2.1412723064422607 0.0 0.0 0.0 0.0 -0.0 0.0 1 False False
17433.42 3.7120370864868164 -0.8255002063563843 0.8430126349078577 -1.5883175335326136 -1.5708335081683558 2.141296148300171 0.0 0.0 0.0 0.0 -0.0 0.0 1 False False
17433.469999999998 3.7120327949523926 -0.8254993122867127 0.842992130910055 -1.5883013210692347 -1.5707929770099085 2.141284227371216 0.0 0.0 0.0 0.0 -0.0 0.0 1 False False
17433.52 3.7120819091796875 -0.8255291742137452 0.8430169264422815 -1.5882932148375453 -1.5707886854754847 2.141284227371216 0.0 0.0 0.0 0.0 -0.0 0.0 1 False False
17433.57 3.712082862854004 -0.8255046767047425 0.8429635206805628 -1.5882488689818324 -1.5708168188678187 2.141258716583252 0.0 0.0 0.0 0.0 -0.0 0.0 1 False False
17433.62 3.712090492248535 -0.8254169982722779 0.8430083433734339 -1.5882569752135218 -1.5708048979388636 2.14127516746521 0.0 0.0 0.0 0.0 -0.0 0.0 1 False False
17433.67 3.712062358856201 -0.8254794639400025 0.8430169264422815 -1.5882774792113246 -1.5708087126361292 2.141258955001831 0.0 0.0 0.0 0.0 -0.0 0.0 1 False False
17433.719999999998 3.712099313735962 -0.8254496616176148 0.8430040518390101 -1.5882607899107875 -1.5707691351519983 2.141263246536255 0.0 0.0 0.0 0.0 -0.0 0.0 1 False False
17433.77 3.712090492248535 -0.8254794639400025 0.8429563681231897 -1.5882889233031214 -1.5707810560809534 2.14131760597229 0.0 0.0 0.0 0.0 -0.0 0.0 1 False False
17433.82 3.7120327949523926 -0.8254869741252442 0.8429802099810999 -1.5882817707457484 -1.5708206335650843 2.141322135925293 0.0 4.4100415834691375e-06 0.0 0.0 -0.0 0.0 1 False False
17433.87 3.7120819091796875 -0.8255172532847901 0.8429802099810999 -1.588252683679098 -1.5708048979388636 2.14127516746521 0.0 0.0 0.0 0.0 -0.0 0.0 1 False False
17433.92 3.712029457092285 -0.8254869741252442 0.8429678122149866 -1.5882412395873011 -1.5707967917071741 2.141209840774536 0.0 0.0 0.0 0.0 -0.0 0.0 1 False False
17433.969999999998 3.712106943130493 -0.8255039614490052 0.8429845015155237 -1.5883056126036585 -1.570772949849264 2.141287088394165 0.0 0.0 0.0 0.0 -0.0 0.0 1 False False
17434.02 3.712110996246338 -0.8254913848689576 0.8430007139789026 -1.588285585443014 -1.570772949849264 2.141226053237915 0.0 0.0 0.0 0.0 -0.0 0.0 1 False False
17434.07 3.712082862854004 -0.8254706424525757 0.8430007139789026 -1.5883013210692347 -1.5708044211017054 2.141279697418213 0.0 0.0 0.0 0.0 -0.0 0.0 1 False False
17434.12 3.7120862007141113 -0.8254838746837159 0.8429721037494105 -1.588269372979635 -1.5707967917071741 2.141296148300171 0.0 0.0 0.0 0.0 -0.0 0.0 1 False False
17434.17 3.7120494842529297 -0.8254675430110474 0.8429515997516077 -1.588268896142477 -1.5707648436175745 2.141242504119873 0.0 0.0 0.0 0.0 -0.0 0.0 1 False False
17434.219999999998 3.7120580673217773 -0.825437919502594 0.8429473082171839 -1.5883294544615687 -1.5707805792437952 2.14127516746521 0.0 0.0 0.0 0.0 -0.0 0.0 1 False False
17434.27 3.712062358856201 -0.8254794639400025 0.8430259863482874 -1.588252683679098 -1.5707486311541956 2.141237735748291 0.0 0.0 0.0 0.0 -0.0 0.0 1 False False
17434.32 3.712066650390625 -0.8255039614490052 0.8429754416095179 -1.588269372979635 -1.5707605520831507 2.141216993331909 0.0 0.0 0.0 0.0 -0.0 0.0 1 False False
17434.37 3.7120981216430664 -0.8254348796657105 0.8430054823504847 -1.5882817707457484 -1.570829216633932 2.141296148300171 0.0 0.0 0.0 0.0 -0.0 0.0 1 False False
17434.42 3.7120296955108643 -0.8254468005946656 0.8429845015155237 -1.5882331333556117 -1.570756737385885 2.1413049697875977 0.0 0.0 0.0 0.0 -0.0 0.0 1 False False
17434.469999999998 3.7120656967163086 -0.8255216640285035 0.8429845015155237 -1.5883127651610316 -1.570784870778219 2.141226053237915 0.0 0.0 0.0 0.0 -0.0 0.0 1 False False
17434.52 3.7120296955108643 -0.8254913848689576 0.8430174032794397 -1.5882889233031214 -1.5707772413836878 2.1412887573242188 0.0 0.0 0.0 0.0 -0.0 0.0 1 False False
17434.57 3.71207857131958 -0.8255157035640259 0.8429892698871058 -1.588313718835348 -1.570801083241598 2.141258716583252 0.0 0.0 0.0 0.0 -0.0 0.0 1 False False
17434.62 3.712024211883545 -0.8254869741252442 0.8430216948138636 -1.588269372979635 -1.570801083241598 2.1413049697875977 0.0 0.0 0.0 0.0 -0.0 0.0 1 False False
17434.67 3.7120494842529297 -0.8255039614490052 0.8429673353778284 -1.5883127651610316 -1.5707967917071741 2.141296148300171 0.0 0.0 0.0 0.0 -0.0 0.0 1 False False
17434.719999999998 3.7120819091796875 -0.825463132267334 0.8429935614215296 -1.5883094273009242 -1.5708168188678187 2.141296148300171 0.0 0.0 0.0 0.0 -0.0 0.0 1 False False
17434.77 3.7120449542999268 -0.8254556816867371 0.8429802099810999 -1.5882932148375453 -1.570829216633932 2.1413004398345947 0.0 0.0 0.0 0.0 -0.0 0.0 1 False False
17434.82 3.712050199508667 -0.825527624492981 0.8429515997516077 -1.5883056126036585 -1.5707967917071741 2.141326427459717 0.0 0.0 0.0 0.0 -0.0 0.0 1 False False
17434.87 3.7120609283447266 -0.8254631918719788 0.8429935614215296 -1.5882412395873011 -1.5707886854754847 2.141279697418213 0.0 0.0 0.0 0.0 -0.0 0.0 1 False False
17434.92 3.7120816707611084 -0.8254543107799073 0.8429630438434046 -1.588280817071432 -1.5707686583148401 2.1413114070892334 0.0 0.0 0.0 0.0 -0.0 0.0 1 True False
17434.969999999998 3.712045669555664 -0.8254543107799073 0.8429673353778284 -1.5883175335326136 -1.5707925001727503 2.1413159370422363 0.0 0.0 0.0 0.0 -0.0 0.0 1 True False
17435.02 3.7121026515960693 -0.8254616421512146 0.8429430166827601 -1.5882932148375453 -1.5708254019366663 2.141279697418213 0.0 0.0 0.0 0.0 -0.0 0.0 1 True False
17435.07 3.7120535373687744 -0.8255039614490052 0.8430007139789026 -1.588292738000387 -1.5707686583148401 2.141284227371216 0.0 0.0 0.0 0.0 -0.0 0.0 1 True False
17435.12 3.712106943130493 -0.8254823845675965 0.8429845015155237 -1.588268896142477 -1.5708335081683558 2.1412994861602783 0.0 0.0 0.0 0.0 -0.0 0.0 1 True False
17435.17 3.7120726108551025 -0.8254869741252442 0.8429892698871058 -1.5882774792113246 -1.5707925001727503 2.1413004398345947 0.0 0.0 0.0 0.0 -0.0 0.0 1 True False
17435.219999999998 3.7120490074157715 -0.8254543107799073 0.8429673353778284 -1.5882817707457484 -1.5708048979388636 2.1413204669952393 0.0 0.0 0.0 0.0 -0.0 0.0 1 True False
17435.27 3.712062358856201 -0.8254823845675965 0.8430174032794397 -1.5883094273009242 -1.570801083241598 2.141279697418213 0.0 0.0 0.0 0.0 -0.0 0.0 1 True False
17435.32 3.712078809738159 -0.8254587215236207 0.8430007139789026 -1.588269372979635 -1.5708335081683558 2.141263246536255 0.0 0.0 0.0 0.0 -0.0 -1.243743210381016e-16 1 True False
17435.37 3.712083101272583 -0.8254587215236207 0.8429515997516077 -1.588297029534811 -1.5707767645465296 2.141282558441162 0.0 0.0 0.0 0.0 -0.0 2.2247704980354888e-12 1 True False
17435.42 3.7120323181152344 -0.8254674834064026 0.8429811636554163 -1.588273664514059 -1.5707929770099085 2.141284227371216 0.0 0.0 0.0 0.0 7.156687686915575e-09 -1.5140437514826743e-11 1 True False
17435.469999999998 3.712062358856201 -0.8255157035640259 0.842992130910055 -1.5882731876769007 -1.5707925001727503 2.1413004398345947 0.0 0.0 0.0 0.0 3.8960452702560544e-13 -2.2998360775532885e-30 1 True False
17435.52 3.712522029876709 -0.8258403104594727 0.8435023466693323 -1.5884176693358363 -1.570813004170553 2.141767978668213 0.03606409952044487 -0.0254064854234457 0.03815198317170143 -0.012422000989317894 5.91810271634761e-32 0.0384095124900341 1 True False
17435.57 3.7157938480377197 -0.8283502024463196 0.8471525351153772 -1.5895587406554164 -1.570857350026266 2.145183563232422 0.09773309528827667 -0.07898315787315369 0.11304870247840881 -0.031243326142430305 0.0 0.09633567184209824 1 True False
17435.62 3.7224385738372803 -0.8336972755244751 0.854706112538473 -1.5916029415526332 -1.5707686583148401 2.151545286178589 0.1585635393857956 -0.13272474706172943 0.18007120490074158 -0.056567445397377014 0.0 0.15559594333171844 1 True False
17435.67 3.731818199157715 -0.8417816919139405 0.8655436674701136 -1.594614645043844 -1.5707724730121058 2.161036729812622 0.22047798335552216 -0.17840252816677094 0.24749627709388733 -0.06789560616016388 0.0 0.2171444296836853 1 True False
17435.719999999998 3.7444186210632324 -0.8520617646029969 0.879892651234762 -1.59863342861318 -1.5707967917071741 2.1734485626220703 0.2767343819141388 -0.23091810941696167 0.3132975995540619 -0.1007981225848198 9.381028939969838e-05 0.2789496183395386 1 True False
17435.77 3.759777545928955 -0.8648535174182435 0.8975546995746058 -1.6035376987852992 -1.5708168188678187 2.1890156269073486 0.3420453667640686 -0.2845606803894043 0.3904939889907837 -0.10594117641448975 8.380685903830454e-05 0.3351474404335022 1 True False
17435.82 3.7785398960113525 -0.8802060049823304 0.9189370314227503 -1.6093632183470667 -1.5707967917071741 2.207505464553833 0.40104007720947266 -0.3309312164783478 0.4619332253932953 -0.12282512336969376 6.737243529642001e-05 0.40715843439102173 1 True False
17435.87 3.8000359535217285 -0.8980392974666138 0.9436424414264124 -1.6164499721922816 -1.570824925099508 2.2292861938476562 0.4636740982532501 -0.381228506565094 0.525433361530304 -0.13960197567939758 6.274309998843819e-05 0.45655763149261475 1 True False
17435.92 3.82480525970459 -0.9183479708484192 0.9717400709735315 -1.6243397198119105 -1.570801083241598 2.254063129425049 0.5200769901275635 -0.43788665533065796 0.5953716039657593 -0.16481509804725647 4.0868377254810184e-05 0.5223677754402161 1 True False
17435.969999999998 3.852609872817993 -0.9411314290812989 1.0036447683917444 -1.633040567437643 -1.5707886854754847 2.281845808029175 0.5919591784477234 -0.4811924993991852 0.6674154996871948 -0.20031291246414185 -2.0942091116804562e-10 0.5808466076850891 1 True False
17436.02 3.883352041244507 -0.9666378659060975 1.0388510862933558 -1.6430665455260218 -1.5707972685443323 2.3126091957092285 0.651563286781311 -0.5257092118263245 0.7393411993980408 -0.2021721601486206 -1.7449498272981145e-06 0.6485140919685364 1 True False
17436.07 3.917297840118408 -0.9944411677173157 1.0775263945208948 -1.6537462673582972 -1.5708449522601526 2.346489191055298 0.710955023765564 -0.584587812423706 0.8097262382507324 -0.21071971952915192 -2.6505817627468163e-25 0.7060735821723938 1 True False
17436.12 3.9542131423950195 -1.024822787647583 1.1196449438678187 -1.6655661068358363 -1.5707967917071741 2.3836045265197754 0.7677780985832214 -0.6313306093215942 0.8765466809272766 -0.24879933893680573 -4.0637655465419695e-44 0.756843626499176 1 True False
17436.17 3.9942872524261475 -1.0576883119395752 1.1654227415667933 -1.6785108051695765 -1.5708449522601526 2.423426628112793 0.8228117227554321 -0.6868201494216919 0.9454431533813477 -0.2669622004032135 -4.2218835005769506e-05 0.8270778656005859 1 True False
17436.219999999998 4.0372090339660645 -1.0932236176780243 1.2146003882037562 -1.692005296746725 -1.5707362333880823 2.466423273086548 0.8939703106880188 -0.7275519967079163 1.0191069841384888 -0.27378809452056885 -2.02177616301924e-05 0.9006013870239258 1 True False
17436.27 4.082788944244385 -1.1307829481414338 1.2666876951800745 -1.7066174946227015 -1.5707772413836878 2.5120511054992676 0.9156359434127808 -0.7477385997772217 1.0506517887115479 -0.28046995401382446 0.00011432222527218983 0.9101828336715698 1 True False
17436.32 4.128627300262451 -1.168550656442978 1.3189752737628382 -1.721326013604635 -1.5707891623126429 2.5578060150146484 0.915833055973053 -0.7533273696899414 1.041883111000061 -0.2903894782066345 -1.415434241073176e-17 0.9205239415168762 1 True False
17436.37 4.174454689025879 -1.2062050265124817 1.371237579976217 -1.7358290157713832 -1.5708215872394007 2.603776454925537 0.9180940389633179 -0.7562702894210815 1.0471203327178955 -0.2906998097896576 -0.00013480363122653216 0.9143162965774536 1 True False
17436.42 4.220277309417725 -1.2438411873630066 1.4235451857196253 -1.750683446923727 -1.5708087126361292 2.6493546962738037 0.9144400358200073 -0.7575825452804565 1.0457713603973389 -0.29727092385292053 2.6432838123174873e-12 0.9265577793121338 1 True False
17436.469999999998 4.266077518463135 -1.281581090097763 1.4759252707110804 -1.7651969395079554 -1.5707805792437952 2.695380926132202 0.9147528409957886 -0.7496273517608643 1.0484797954559326 -0.3050534725189209 -1.7633113857939975e-09 0.9124053120613098 1 True False
17436.52 4.3119893074035645 -1.3194084030440827 1.5284183661090296 -1.7796813450255335 -1.5707925001727503 2.741116523742676 0.914450466632843 -0.7528603672981262 1.054183840751648 -0.2886234223842621 4.031875869259238e-05 0.9159225821495056 1 True False
17436.57 4.357231616973877 -1.3567109566977997 1.58018666902651 -1.7942611179747523 -1.5708048979388636 2.786447763442993 0.8837988972663879 -0.726725161075592 1.0022687911987305 -0.2989911437034607 0.00023409152345266193 0.884063720703125 1 True False
17436.62 4.399757385253906 -1.391571195130684 1.6284869352923792 -1.807840963403219 -1.570784870778219 2.8289711475372314 0.8198258876800537 -0.6778751611709595 0.935944676399231 -0.2759176194667816 7.58416547341767e-08 0.8135372996330261 1 True False
17436.67 4.43916654586792 -1.4240751576474686 1.6736624876605433 -1.8204618893065394 -1.570784870778219 2.8683650493621826 0.7585237622261047 -0.630871593952179 0.8666518330574036 -0.25022050738334656 2.5838438887149096e-05 0.7654187083244324 1 True False
17436.719999999998 4.475525856018066 -1.4540614497712632 1.7151983420001429 -1.8320023022093714 -1.5707486311541956 2.90470290184021 0.7038306593894958 -0.5748448371887207 0.7931069731712341 -0.22829562425613403 0.0024289418943226337 0.7085766792297363 1 True False
17436.77 4.508925437927246 -1.4814212557724495 1.7533305327044886 -1.8427487812437953 -1.5707891623126429 2.9382176399230957 0.6422919631004333 -0.5243656039237976 0.7248784899711609 -0.21249839663505554 0.00039242839557118714 0.6374480128288269 1 True False
17436.82 4.539188385009766 -1.5064787355116387 1.7879512945758265 -1.8522654972472132 -1.5707686583148401 2.9684152603149414 0.579063355922699 -0.47455865144729614 0.6562933325767517 -0.18120336532592773 0.0006000763969495893 0.5749112367630005 1 True False
17436.87 4.566437244415283 -1.5288909797421475 1.819106403981344 -1.8608728847899378 -1.5707724730121058 2.9956440925598145 0.5130521655082703 -0.42413049936294556 0.5966020226478577 -0.16957508027553558 -0.00016784535546321422 0.5195918083190918 1 True False
17436.92 4.5907511711120605 -1.5486992888948699 1.8465879599200647 -1.868772645989889 -1.570857350026266 3.0196611881256104 0.453553706407547 -0.37690454721450806 0.5258141160011292 -0.1450260579586029 -1.414473052574472e-11 0.46134835481643677 1 True False
17436.969999999998 4.611773490905762 -1.5660890287584444 1.8707526365863245 -1.8755933247008265 -1.570772949849264 3.040982484817505 0.39563247561454773 -0.3232060670852661 0.44203534722328186 -0.14431701600551605 7.083090167725459e-05 0.39015546441078186 1 True False
17437.02 4.62971305847168 -1.5809194050230921 1.8916338125811976 -1.8811027012267054 -1.5707805792437952 3.0590550899505615 0.3320959210395813 -0.2710403800010681 0.3829411566257477 -0.1054735854268074 0.00012507567589636892 0.33084604144096375 1 True False
17437.07 4.644771575927734 -1.593534608880514 1.9083197752581995 -1.886104246179098 -1.5707686583148401 3.073974847793579 0.2720775604248047 -0.21788300573825836 0.31595537066459656 -0.07822279632091522 1.8637769279294947e-12 0.26621213555336 1 True False
17437.12 4.656745433807373 -1.603206296960348 1.9223092238055628 -1.889939924279684 -1.5707686583148401 3.0859057903289795 0.2084840089082718 -0.1730361431837082 0.23360931873321533 -0.07021712511777878 7.608983287354931e-05 0.21531428396701813 1 True False
17437.17 4.665647029876709 -1.6104070148863734 1.932431999837057 -1.8926860294737757 -1.5707967917071741 3.0948402881622314 0.15056222677230835 -0.12402913719415665 0.1710042506456375 -0.04657759517431259 2.4399356334470212e-05 0.15059077739715576 1 True False
17437.219999999998 4.671446323394775 -1.6153713665404261 1.9389432112323206 -1.8946134052672328 -1.570829216633932 3.100726366043091 0.08777638524770737 -0.07211681455373764 0.10269617289304733 -0.029774660244584084 1.4542069038725458e-05 0.08499064296483994 1 True False
17437.27 4.674299240112305 -1.6176592312254847 1.9423673788653772 -1.895531793633932 -1.570801083241598 3.103470802307129 0.027061305940151215 -0.02273869514465332 0.03032364696264267 -0.007407925091683865 2.07051543839043e-05 0.025644754990935326 1 True False
17437.32 4.6744160652160645 -1.6175342998900355 1.9429181257831019 -1.8962942562498988 -1.570824925099508 3.1036579608917236 -0.0004164101555943489 0.014408530667424202 0.02600090578198433 -0.03403962403535843 1.3040352915088596e-21 -0.00020413295715115964 1 True False
17437.37 4.674477577209473 -1.6162587604918421 1.9452832380877894 -1.9000116787352503 -1.5708773771869105 3.1037027835845947 0.0003200694627594203 0.039471130818128586 0.06634274870157242 -0.10469673573970795 1.9808334702156317e-40 0.00042417217628099024 1 True False
17437.42 4.674471378326416 -1.613455434838766 1.9499238173114222 -1.9072839222350062 -1.5707767645465296 3.103743553161621 0.0007939456263557076 0.07086993008852005 0.10986939817667007 -0.17249765992164612 3.2894413859452243e-09 0.00039825571002438664 1 True False
17437.469999999998 4.6744914054870605 -1.6093126736082972 1.9564417044269007 -1.9180823765196742 -1.5707686583148401 3.1037189960479736 0.0004791708488482982 0.09945333749055862 0.1583683043718338 -0.2579740285873413 4.996667314457244e-28 0.00029251445084810257 1 True False
17437.52 4.67446231842041 -1.6038013897337855 1.96531850496401 -1.9323131046690882 -1.570801083241598 3.103771924972534 0.000263427005847916 0.12125589698553085 0.1948567032814026 -0.3216962218284607 0.0 0.00015610478294547647 1 True False
17437.57 4.674519062042236 -1.5969263515868128 1.9763229529010218 -1.9500919781126917 -1.5708368460284632 3.1037254333496094 0.0001586274738656357 0.14979848265647888 0.24616600573062897 -0.37664440274238586 0.0 -8.845886014254329e-18 1 True False
17437.62 4.67452335357666 -1.5887299976744593 1.9892810026751917 -1.9713942013182582 -1.5707843939410608 3.103701114654541 8.480417454848066e-05 0.17233960330486298 0.2787321209907532 -0.45585042238235474 2.6676091416659616e-15 -1.3436917795004621e-36 1 True False
17437.67 4.674565315246582 -1.5792118511595667 2.004519287739889 -1.995955606500143 -1.5708211104022425 3.10371732711792 6.0896076320204884e-05 0.2049456238746643 0.3309421241283417 -0.5270465612411499 4.052103973904606e-34 -0.0 1 True False
17437.719999999998 4.674487113952637 -1.5683083872175594 2.021972958241598 -2.0242983303465785 -1.5708087126361292 3.1037256717681885 0.0 0.2320045828819275 0.3687249422073364 -0.5951864123344421 0.0 -0.0 1 True False
17437.77 4.674511909484863 -1.5573866109228511 2.039555374776022 -2.053035875360006 -1.5708087126361292 3.1037344932556152 0.0 0.20500677824020386 0.33833441138267517 -0.5398294925689697 0.0 -1.2250269243452294e-08 1 True False
17437.82 4.674516201019287 -1.547724626292922 2.0549472014056605 -2.0782019100584925 -1.5707767645465296 3.103739023208618 0.0 0.18147356808185577 0.28233012557029724 -0.4766000509262085 0.0 -1.860818490013381e-27 1 True False
17438.07 4.6745476722717285 -1.519424882983305 2.100449864064352 -2.1519414387144984 -1.5707891623126429 3.1037509441375732 0.0 0.04853251576423645 0.07755733281373978 -0.13387537002563477 0.0 -0.0 1 True False
17438.12 4.674520492553711 -1.51781419039283 2.1031487623797815 -2.1560684643187464 -1.5708044211017054 3.103722095489502 0.0 0.02072163298726082 0.02905338630080223 -0.04899322986602783 0.0 -0.0 1 True False
17438.17 4.674510478973389 -1.517506693755724 2.1036623159991663 -2.156938215295309 -1.5707891623126429 3.103771924972534 0.0 -4.101231160236196e-11 -1.891511303142579e-08 0.0002101296850014478 0.0 -4.1854113078443334e-05 1 True False
17438.219999999998 4.674495697021484 -1.5174590174904843 2.1036298910724085 -2.156914373437399 -1.5707805792437952 3.1037344932556152 0.0 0.00012180406338302419 -3.872509045565221e-20 1.0978187609026064e-20 0.0 -5.759036139352247e-05 1 True False
17438.27 4.6745405197143555 -1.517434087847807 2.1036298910724085 -2.1569463215269984 -1.5708368460284632 3.103726625442505 0.0 4.128604996367358e-05 2.6746634830487892e-05 -0.00040693164919503033 0.0 -5.0340473535470665e-05 1 True False
17438.32 4.67452335357666 -1.5174470630339165 2.1036461035357874 -2.1570426426329554 -1.5707605520831507 3.1037299633026123 0.0 0.00025599985383450985 4.580189852276817e-05 -0.00149112893268466 0.0 -5.905191891031336e-10 1 True False
17438.37 4.6745076179504395 -1.5174189445427437 2.1036503950702112 -2.157057901422018 -1.5708015600787562 3.103726625442505 0.0 0.00018976764113176614 4.28827952418942e-05 -0.0009111707331612706 0.0 -8.969999456684107e-29 1 True False
17438.42 4.6745076179504395 -1.5173948568156739 2.10366660753359 -2.1570660076537074 -1.5708168188678187 3.103689432144165 0.0 0.00015748117584735155 5.204689659876749e-05 -0.00020246327039785683 0.0 -0.0 1 True False
17438.469999999998 4.674544334411621 -1.5174111065319558 2.103677574788229 -2.1570502720274867 -1.5708048979388636 3.103743553161621 0.0 9.511270036455244e-05 6.440691910754256e-30 -0.00012191022688057274 0.0 -0.0 1 True False
17438.52 4.674488067626953 -1.517451399271824 2.1036794821368616 -2.157081743279928 -1.570813004170553 3.103689432144165 0.0 7.467649265890941e-05 0.0 -2.6104573407792486e-05 0.0 7.47410740586929e-05 1 True False
17438.57 4.674527645111084 -1.5173713390580197 2.10366136232485 -2.1570784054198207 -1.5707648436175745 3.103701114654541 0.0 1.8627782726303756e-18 0.0 -3.001045101314048e-08 0.0 2.4285993276862428e-05 1 True False
17438.62 4.674557209014893 -1.5173546907356759 2.1037238279925745 -2.157045980493063 -1.5708168188678187 3.103710174560547 0.0 3.1323103030445054e-05 0.0 -4.558595289306923e-27 0.0 1.4501754776574671e-05 1 True False
17438.67 4.674495697021484 -1.5173786220005532 2.1036327520953577 -2.1570497951903285 -1.5708211104022425 3.1037509441375732 0.0 0.0 0.0 -0.0 0.0 1.0337429557694122e-05 1 True False
17438.719999999998 4.674499988555908 -1.517337431465723 2.103644673024313 -2.157069822350973 -1.5707767645465296 3.10371470451355 0.0 0.0 1.6080274048077547e-12 -0.0 0.0 4.2310096481115216e-22 1 True False
17438.77 4.674531936645508 -1.517446046029665 2.1035502592669886 -2.157114168206686 -1.570813004170553 3.103701114654541 0.0 0.00032719268347136676 -2.1228688638075255e-05 -0.00013274670345708728 1.284458721375471e-19 -0.0005213425029069185 1 True False
17438.82 4.674504280090332 -1.5174872402897854 2.1035173575030726 -2.1571299038329066 -1.570813004170553 3.103771924972534 0.0 0.0003803563304245472 0.00029898196225985885 -1.4702470334917574e-17 1.951095954984809e-38 -3.367598037584685e-05 1 True False
17438.87 4.674576759338379 -1.5174590361169358 2.103553597127096 -2.1571418247618617 -1.570813004170553 3.103722095489502 0.0 0.0004845695220865309 0.0004505280521698296 -2.2333077911352295e-36 0.0 -1.758373764459975e-05 1 True True
17438.92 4.674552917480469 -1.5175067645362397 2.1034706274615687 -2.1568027935423792 -1.5707967917071741 3.103717565536499 0.0 -0.009397783316671848 -0.011556372977793217 0.02903534099459648 0.0 -1.1813312994490843e-05 1 True True
17438.969999999998 4.674540042877197 -1.5184267696789284 2.1020358244525355 -2.1536275349059046 -1.5708044211017054 3.1036994457244873 0.0 -0.04128017649054527 -0.06244097650051117 0.09005143493413925 0.0 -1.230353980589266e-13 1 True True
17439.02 4.674504280090332 -1.521028072839119 2.097572628651754 -2.1469308338561 -1.5708168188678187 3.103717565536499 0.0 -0.06753812730312347 -0.10397522151470184 0.1542929708957672 0.0 -1.564064329440118e-11 1 True True
17439.07 4.674544334411621 -1.5250868921032925 2.0913108030902308 -2.136840959588522 -1.5707724730121058 3.103780746459961 0.0 -0.08954521268606186 -0.1454007774591446 0.2337942272424698 0.0 -2.3758172112039992e-30 1 True True
17439.12 4.6745147705078125 -1.5303278875401993 2.08289081255068 -2.1233254871764125 -1.570801083241598 3.1037039756774902 0.0 -0.11467365175485611 -0.18823234736919403 0.2965589463710785 0.0 -0.0 1 True True
17439.17 4.674524784088135 -1.5369365078261872 2.072362248097555 -2.106197496453756 -1.570756737385885 3.103788375854492 0.0 -0.14283159375190735 -0.23066024482250214 0.3816734552383423 0.0 -0.0 1 True True
17439.219999999998 4.674511909484863 -1.5448473685285826 2.059545342122213 -2.085600038568014 -1.5707843939410608 3.103726625442505 0.0 -0.17410941421985626 -0.26404619216918945 0.4503081738948822 0.0 -0.0 1 True True
17439.27 4.674471378326416 -1.5540402469090004 2.0447967688189905 -2.061495443383688 -1.5708087126361292 3.1037538051605225 0.0 -0.20022538304328918 -0.31490349769592285 0.5103243589401245 0.0 -0.0 1 True True
17439.32 4.674556255340576 -1.5647673711976786 2.027759377156393 -2.0340177021422328 -1.5707648436175745 3.1037538051605225 0.0 -0.22457657754421234 -0.3643774390220642 0.5795329809188843 0.0 -0.0 1 True True
17439.37 4.6745100021362305 -1.5757843456664027 2.010023895894186 -2.0048967800536097 -1.570784870778219 3.10378360748291 0.0 -0.21032021939754486 -0.33404698967933655 0.5472642779350281 0.0 -0.0 1 True True
17439.42 4.674514293670654 -1.5858551464476527 1.9940369764911097 -1.9789940319456996 -1.5707529226886194 3.103701114654541 0.0 -0.18601758778095245 -0.29635390639305115 0.48120877146720886 1.340522880416764e-13 -0.0 1 True True
17439.469999999998 4.674527645111084 -1.5944959125914515 1.9803651014911097 -1.9566556415953578 -1.570756737385885 3.103743553161621 0.0 -0.15949095785617828 -0.255033016204834 0.41404351592063904 2.0362569952412186e-32 -0.0 1 True True
17439.52 4.674453258514404 -1.6016770801939906 1.968536678944723 -1.9376985035338343 -1.5707686583148401 3.103717565536499 0.0 -0.1305270940065384 -0.20925189554691315 0.3325316905975342 0.0 -0.0 1 True True
17439.57 4.674490928649902 -1.607570310632223 1.9592302481280726 -1.9222804508604945 -1.5708006064044397 3.103710174560547 0.0 -0.10666830837726593 -0.17023800313472748 0.27609962224960327 -4.936703589919489e-06 -0.0 1 True True
17439.62 4.674544811248779 -1.6120592556395472 1.9518888632403772 -1.9103719196715296 -1.5708048979388636 3.1037464141845703 0.0 -0.07977903634309769 -0.12512393295764923 0.20540805160999298 -7.70276730689198e-23 -0.0 1 True True
17439.67 4.674556732177734 -1.6153704128661097 1.9466140905963343 -1.9020072422423304 -1.5707405249225062 3.1037192344665527 0.0 -0.05073201656341553 -0.08553941547870636 0.13789214193820953 -1.1700842177112223e-41 -0.0 1 True True
17439.719999999998 4.674527645111084 -1.6172672710814417 1.9435771147357386 -1.8970867596068324 -1.5707610289203089 3.10371470451355 0.0 -0.025310993194580078 -0.03888425976037979 0.06346547603607178 -0.0 -0.0 1 True True
17439.77 4.674535751342773 -1.6177693806090296 1.9427512327777308 -1.8956629238524378 -1.570801083241598 3.103755474090576 -8.745294508116785e-06 0.0018074196996167302 0.00032473812461830676 -0.004647792782634497 -0.0 -2.239546120108571e-06 1 True True
17439.82 4.672513008117676 -1.6173025570311488 1.9419768492328089 -1.895538946191305 -1.570801083241598 3.101731777191162 -0.07410471141338348 0.016550088301301003 -0.027384167537093163 0.005795546807348728 -0.0 -0.07479371130466461 1 True True
17439.87 4.666930198669434 -1.6159469089903773 1.9402125517474573 -1.8951169453062953 -1.5707967917071741 3.096081018447876 -0.14478589594364166 0.03873800113797188 -0.0495491586625576 0.007120225112885237 -0.0 -0.14297465980052948 1 True True
17439.92 4.657911777496338 -1.6135393581786097 1.9373138586627405 -1.894564767877096 -1.5708211104022425 3.087087631225586 -0.2148868888616562 0.05943220481276512 -0.06713460385799408 0.010089049115777016 -0.0 -0.20945267379283905 1 True True
17439.969999999998 4.645224094390869 -1.6101938686766566 1.933305565510885 -1.8939420185484828 -1.5707290808307093 3.074647903442383 -0.2829565703868866 0.07813318073749542 -0.09612824022769928 0.015332689508795738 -0.0 -0.2868729829788208 1 True True
17440.02 4.629444599151611 -1.6058675251402796 1.9282434622394007 -1.8931876621642054 -1.5707967917071741 3.058560609817505 -0.3537627160549164 0.09459096938371658 -0.10997409373521805 0.020142782479524612 -1.2995209942856523e-11 -0.3497158885002136 1 True True
17440.07 4.609780788421631 -1.6007434330382289 1.921955410634176 -1.8921743832030238 -1.5708087126361292 3.039060354232788 -0.42458412051200867 0.11300275474786758 -0.13033732771873474 0.020821155980229378 -1.9739749375731405e-30 -0.42408487200737 1 True True
17440.12 4.586825847625732 -1.594536920587057 1.9146750609027308 -1.8909174404540003 -1.5707486311541956 3.0161519050598145 -0.49742618203163147 0.125978022813797 -0.15403826534748077 0.021067991852760315 -2.338287225018577e-17 -0.4999997615814209 1 True True
17440.17 4.560497283935547 -1.5876361332335414 1.906170670186178 -1.889463563958639 -1.570784870778219 2.9895613193511963 -0.5646317601203918 0.1489163339138031 -0.17381834983825684 0.03114907070994377 -3.551864805182341e-36 -0.5545450448989868 1 True True
17440.219999999998 4.530399322509766 -1.5797091923155726 1.8966735045062464 -1.8877102337279261 -1.5707767645465296 2.9595468044281006 -0.6291292309761047 0.16840897500514984 -0.2018166333436966 0.042032208293676376 -0.0 -0.6239126920700073 1 True True
17440.27 4.496976375579834 -1.570786790256836 1.8860858122455042 -1.8860546551146449 -1.5707719961749476 2.926093816757202 -0.7021583318710327 0.18535993993282318 -0.2227872759103775 0.035133469849824905 -0.00016453959688078612 -0.6958770751953125 1 True True
17440.32 4.459944725036621 -1.561003254061081 1.8741205374347132 -1.8840466938414515 -1.5708168188678187 2.8892953395843506 -0.7711116671562195 0.2020745426416397 -0.2404334992170334 0.049879901111125946 -4.9201348701899406e-06 -0.7813785672187805 1 True True
17440.37 4.419397830963135 -1.5503304985216637 1.861288849507467 -1.881867071191305 -1.570801083241598 2.848731517791748 -0.8383851051330566 0.22077681124210358 -0.2732335925102234 0.0530424490571022 0.001548436121083796 -0.849604606628418 1 True True
17440.42 4.375541687011719 -1.5385968883386631 1.847271744404928 -1.8794647655882777 -1.5708325544940394 2.804659843444824 -0.9152297973632812 0.2448541224002838 -0.29126906394958496 0.04764668270945549 8.29985765449237e-06 -0.9076396226882935 1 True True
17440.469999999998 4.328091144561768 -1.5259488460472603 1.832358185444967 -1.876873632470602 -1.570784870778219 2.7574424743652344 -0.9800585508346558 0.2558058798313141 -0.31422245502471924 0.05876634642481804 4.5415105009993795e-10 -0.9871120452880859 1 True True
17440.52 4.277234077453613 -1.5126943115941067 1.8159149328814905 -1.874240060845846 -1.5708048979388636 2.706470489501953 -1.0485234260559082 0.28162768483161926 -0.33149394392967224 0.057013824582099915 5.645253864372535e-08 -1.0401759147644043 1 True True
17440.57 4.224844932556152 -1.4986999940923234 1.7993367354022425 -1.8714453182616175 -1.5707934538470667 2.6539952754974365 -1.0446665287017822 0.27673178911209106 -0.33774664998054504 0.051403552293777466 -0.0005816176999360323 -1.0474987030029297 1 True True
17440.62 4.17250394821167 -1.4848996859839936 1.7826059500323694 -1.8686472378172816 -1.5708091894732874 2.6018667221069336 -1.0464764833450317 0.27659872174263 -0.3267846405506134 0.05425568297505379 0.000138980001793243 -1.0504220724105835 1 True True
17440.67 4.120294094085693 -1.4709787604263802 1.7660201231585901 -1.86570467571401 -1.5707810560809534 2.5494067668914795 -1.0518182516098022 0.28114280104637146 -0.33666297793388367 0.04856891557574272 -2.353227855633744e-12 -1.0385181903839111 1 True True
17440.719999999998 4.067861080169678 -1.4572034639171143 1.7491777578936976 -1.8630334339537562 -1.570824925099508 2.49699330329895 -1.0431098937988281 0.27438825368881226 -0.33839377760887146 0.05758596211671829 -1.961446560727609e-09 -1.0527995824813843 1 True True
17440.77 4.015464782714844 -1.443301023249962 1.7326977888690394 -1.8600508175291957 -1.5707686583148401 2.4447860717773438 -1.0437121391296387 0.2771640121936798 -0.3393488824367523 0.05907231569290161 2.0545359543166662e-19 -1.0537514686584473 1 True True
17440.82 3.963132619857788 -1.4293357145837327 1.7159245649920862 -1.8573719463744105 -1.5708444754229944 2.392327070236206 -1.0486993789672852 0.274530291557312 -0.335283488035202 0.053877849131822586 1.9889033865183592e-05 -1.0442265272140503 1 True True
17440.87 3.9106297492980957 -1.4155524981072922 1.6993401686297815 -1.8544970951476039 -1.5708001295672815 2.339844226837158 -1.0449516773223877 0.28199175000190735 -0.32859715819358826 0.056028690189123154 -8.966129826148972e-05 -1.050838589668274 1 True True
17440.92 3.8582983016967773 -1.4016069036773224 1.6825521628009241 -1.851619382897848 -1.570784870778219 2.2876601219177246 -1.0454015731811523 0.2740340232849121 -0.33422383666038513 0.05530766397714615 -0.00017244575428776443 -1.0530552864074707 1 True True
17440.969999999998 3.805976629257202 -1.3878477376750489 1.6659043470965784 -1.8488999805846156 -1.5707882086383265 2.235217332839966 -1.0520126819610596 0.27984631061553955 -0.3278358280658722 0.05753306299448013 -9.069716179510579e-05 -1.0427693128585815 1 True True
17441.02 3.753671884536743 -1.3739157182029267 1.6491926352130335 -1.8459655247130335 -1.5707810560809534 2.1828384399414062 -1.0461938381195068 0.2785697281360626 -0.3345561921596527 0.0577969029545784 -1.1578810826806674e-10 -1.0540046691894531 1 True True
17441.07 3.7012810707092285 -1.3601190906814118 1.6323745886432093 -1.8432461223998011 -1.5707362333880823 2.1306216716766357 -1.0437374114990234 0.274385541677475 -0.3372687101364136 0.060436002910137177 -2.21504274122708e-06 -1.0527923107147217 1 True True
17441.12 3.648944616317749 -1.34612791359935 1.6157854239093226 -1.8404237232603968 -1.5708168188678187 2.078094959259033 -1.0486356019973755 0.27875038981437683 -0.3276495635509491 0.06058507785201073 -3.364654956367383e-25 -1.043646216392517 1 True True
17441.17 3.5966341495513916 -1.3322229397347947 1.5991233030902308 -1.8375936947264613 -1.5708006064044397 2.025756597518921 -1.043887734413147 0.27333423495292664 -0.33546820282936096 0.05122087150812149 -2.1999498130753636e-05 -1.0458341836929321 1 True True
17441.219999999998 3.5441091060638428 -1.31853403270755 1.5825207869159144 -1.834822794000143 -1.5708048979388636 1.9734314680099487 -1.0421667098999023 0.28057172894477844 -0.32659921050071716 0.05142316594719887 -1.9157271376156606e-18 -1.0471413135528564 1 True True
17441.27 3.4918384552001953 -1.3044788402369996 1.5657194296466272 -1.831884046594137 -1.5708006064044397 1.9210548400878906 -1.0502375364303589 0.2732296288013458 -0.3376199007034302 0.0555541031062603 -2.9099928913709967e-37 -1.0427039861679077 1 True True
17441.32 3.4394829273223877 -1.290807382469513 1.549173657094137 -1.829132696191305 -1.5708168188678187 1.868683934211731 -1.0475778579711914 0.2817843556404114 -0.3352939784526825 0.059982914477586746 -0.0 -1.0469194650650024 1 True True
17441.37 3.387385129928589 -1.2768265467933197 1.5324080626117151 -1.826381345788473 -1.5707929770099085 1.8167126178741455 -1.025086760520935 0.27048441767692566 -0.3246200978755951 0.05176747217774391 -0.0 -1.0267685651779175 1 True True
17441.42 3.3381450176239014 -1.2638544601253052 1.5168326536761683 -1.8237148723998011 -1.570813004170553 1.7672712802886963 -0.9594778418540955 0.2535842955112457 -0.3091772794723511 0.04956277087330818 -0.0 -0.9519449472427368 1 True True
17441.469999999998 3.2921791076660156 -1.2516218584826966 1.5021656195269983 -1.8212372265257777 -1.5707810560809534 1.7214351892471313 -0.8775152564048767 0.23180969059467316 -0.28153982758522034 0.051582831889390945 0.00013782340101897717 -0.8843249082565308 1 True True
17441.52 3.24979305267334 -1.2403875452331086 1.4887879530536097 -1.8188992939391078 -1.570801083241598 1.6789393424987793 -0.8120435476303101 0.21306957304477692 -0.2634904682636261 0.05256227031350136 7.862017082516104e-05 -0.8084562420845032 1 True True
17441.57 3.2109220027923584 -1.2302449506572266 1.47630483308901 -1.8169123135008753 -1.5707925001727503 1.6402301788330078 -0.7493650913238525 0.20222294330596924 -0.23991703987121582 0.038680803030729294 6.914643017807975e-05 -0.7438413500785828 1 True True
17441.62 3.1756880283355713 -1.2207899254611512 1.4650104681598108 -1.8150321445860804 -1.5707929770099085 1.6048104763031006 -0.674298107624054 0.1792909950017929 -0.20832732319831848 0.03619708493351936 1.9667741393836202e-11 -0.675632894039154 1 True True
17441.67 3.1437673568725586 -1.2123004657081147 1.4549019972430628 -1.81325163463735 -1.5708168188678187 1.5730071067810059 -0.6022555828094482 0.15391124784946442 -0.19715702533721924 0.03632247447967529 -8.66410555317998e-05 -0.6061801910400391 1 True True
17441.719999999998 3.115363597869873 -1.2048246425441285 1.4458006064044397 -1.811720987359518 -1.5708087126361292 1.5444830656051636 -0.5331974625587463 0.14124660193920135 -0.1676778942346573 0.02993682026863098 -1.615282949127579e-22 -0.5360075831413269 1 True True
17441.77 3.0903964042663574 -1.1982979041389008 1.437732998524801 -1.8104335270323695 -1.57082444826235 1.5196081399917603 -0.4646606147289276 0.12261814624071121 -0.14566670358181 0.02355794608592987 -2.4536736110327547e-41 -0.4638395309448242 1 True True
17441.82 3.0688133239746094 -1.1924953621676941 1.4310267607318323 -1.809305330316061 -1.5708211104022425 1.4981374740600586 -0.3956102728843689 0.103941909968853 -0.12049737572669983 0.01834222860634327 1.6840714067711815e-07 -0.39371782541275024 1 True True
17441.87 3.051187038421631 -1.1878172022155304 1.4252856413470667 -1.8083206615843714 -1.5708335081683558 1.480307698249817 -0.32974690198898315 0.08390010893344879 -0.10640578716993332 0.01506288256496191 0.0003282628022134304 -0.32650384306907654 1 True True
17441.92 3.0366880893707275 -1.183964417581894 1.4208014647113245 -1.8075114689269007 -1.5707290808307093 1.4658317565917969 -0.2534025311470032 0.06707244366407394 -0.08155454695224762 0.01582314446568489 -1.074930787581252e-05 -0.2575060725212097 1 True True
17442.17 3.0136895179748535 -1.176839367752411 1.4154046217547815 -1.8094097576537074 -1.5707648436175745 1.4427837133407593 -0.0004704949678853154 0.027680544182658195 0.06633215397596359 -0.09457464516162872 -0.0 -4.2223426135024056e-05 1 True True
17442.219999999998 3.013619899749756 -1.1747841996005555 1.4197962919818323 -1.8160597286620082 -1.5707972685443323 1.4428178071975708 -0.0007290708599612117 0.054469235241413116 0.11336638033390045 -0.15597757697105408 -0.0 -0.00018026142788585275 1 True True
17442.27 3.0135796070098877 -1.171561674480774 1.4266660849200647 -1.8259998760619105 -1.5708087126361292 1.4428014755249023 -0.0010889575351029634 0.07497456669807434 0.15948961675167084 -0.22512935101985931 -9.119356400333345e-05 -0.00015654892195016146 1 True True
17442.32 3.013563394546509 -1.1671393078616639 1.4358909765826624 -1.8394767246642054 -1.57074481645693 1.442810297012329 -0.0002530249475967139 0.1028609350323677 0.20414778590202332 -0.2989455759525299 -0.0001424969086656347 -0.0001654001825954765 1 True True
17442.37 3.013613224029541 -1.161623166208603 1.4475720564471644 -1.8564697704710902 -1.570784870778219 1.4428014755249023 -0.00011263545457040891 0.12181419134140015 0.2537524998188019 -0.3773369789123535 -7.952808664413169e-05 -9.136823064181954e-05 1 True True
17442.42 3.0135881900787354 -1.1550144416144867 1.4611952940570276 -1.8770705662169398 -1.5708168188678187 1.4427926540374756 -9.87083330983296e-05 0.138390451669693 0.2987166941165924 -0.4508959949016571 -6.595891318283975e-05 -5.160825458006002e-05 1 True True
17442.469999999998 3.013592481613159 -1.1472551685622712 1.4777033964740198 -1.900975843469137 -1.570784870778219 1.4428104162216187 -6.492791726486757e-05 0.16196906566619873 0.3462512195110321 -0.5053650140762329 -3.309060411993414e-05 -3.005934013344813e-05 1 True True
17442.52 3.0135555267333984 -1.1387424331954499 1.4954760710345667 -1.9273811779417933 -1.5707967917071741 1.4428608417510986 -1.193354757791809e-25 0.16156768798828125 0.3432091772556305 -0.5234604477882385 -1.753041390641794e-17 -3.299707532278262e-05 1 True True
17442.57 3.0135838985443115 -1.1312084657004853 1.5115812460528772 -1.9511925182738246 -1.5708168188678187 1.4428596496582031 0.0 0.14692111313343048 0.300597220659256 -0.42859116196632385 -2.6628737054003364e-36 -1.1360085769677618e-17 1 True True
17442.62 3.0135555267333984 -1.1245416563800354 1.5251677672015589 -1.971628805200094 -1.5708254019366663 1.4427568912506104 0.0 0.11424367874860764 0.2459418773651123 -0.36798354983329773 -0.0 -1.7255991966822506e-36 1 True True
17442.67 3.013596773147583 -1.119037703876831 1.5367139021502894 -1.9882880649962367 -1.570829216633932 1.4427568912506104 0.0 0.09520835429430008 0.20709073543548584 -0.30900442600250244 -0.0 -0.0 1 True True
17442.719999999998 3.0135796070098877 -1.114807443027832 1.545715634022848 -2.001706739465231 -1.5707767645465296 1.4427732229232788 0.0 0.07488784939050674 0.1572764366865158 -0.23797696828842163 -0.0 -0.0 1 True True
17442.77 3.013641357421875 -1.1116281312755127 1.552180592213766 -2.0114575825133265 -1.5707762877093714 1.4427570104599 0.0 0.052180565893650055 0.11180612444877625 -0.156200110912323 -0.0 -0.0 1 True True
17442.82 3.0135512351989746 -1.1095655125430604 1.5566404501544397 -2.0177628002562464 -1.5708168188678187 1.4427803754806519 0.0 0.030231967568397522 0.061484526842832565 -0.08946368843317032 -0.0 -0.0 1 True True
17442.87 3.013563394546509 -1.1089536410621186 1.5581501165973108 -2.0209294758238734 -1.5707805792437952 1.4428178071975708 5.216287900111638e-05 0.00442373426631093 0.015782861039042473 -0.019106516614556313 -0.00043627683771774173 -3.146875121595727e-11 1 True True
17442.92 3.013592481613159 -1.1089819532683869 1.5582974592791956 -2.0210281811156214 -1.5707967917071741 1.4427613019943237 -3.351900522829965e-05 0.001429994823411107 0.0037298090755939484 0.0012513145338743925 -1.8331678457625604e-22 -4.780111478353279e-30 1 True True
17442.969999999998 3.0135881900787354 -1.1088861686042328 1.558312718068258 -2.021048685113424 -1.5708254019366663 1.4427733421325684 -1.735698970151134e-05 0.0037444098852574825 0.0034672117326408625 0.002209679689258337 -2.784520178459844e-41 -0.0 1 True True
17443.02 3.013546943664551 -1.1080757540515442 1.5594423452960413 -2.020158906976217 -1.570772949849264 1.4428133964538574 -3.2426787493704344e-31 0.008399714715778828 0.008299077861011028 0.015088561922311783 0.00012895214604213834 -0.0 1 True True
17443.07 3.0136208534240723 -1.1083086293986817 1.5589740912066858 -2.020677705804342 -1.570784870778219 1.4427493810653687 0.0 -0.0007716061663813889 -0.0013773348182439804 -0.0014099576510488987 0.0006802813149988651 -3.131037118464519e-08 1 True False
17443.12 3.0136003494262695 -1.1084521573833008 1.5588300863849085 -2.020853658715719 -1.570784870778219 1.4427326917648315 5.26147814525757e-05 -0.003751716110855341 -0.004796930588781834 -0.0054946704767644405 -4.792710024048574e-05 3.0332304845615e-07 1 True False
17443.17 3.0135838985443115 -1.108553634291031 1.5587614218341272 -2.020825048486227 -1.570772949849264 1.442765712738037 3.537911834428087e-05 -0.004379144869744778 -0.0043263365514576435 -0.002616176148876548 -4.1118757508229464e-05 4.607483557238435e-26 1 True False
17443.219999999998 3.0135512351989746 -1.1085740488818665 1.5587065855609339 -2.0208689175047816 -1.570813004170553 1.442765712738037 7.233433107404846e-27 -0.00016339836292900145 -0.00036478019319474697 -0.000198800305952318 -2.617102836666163e-05 7.006492321624085e-45 1 True False
17443.27 3.0136003494262695 -1.108925537472107 1.5581820646869105 -2.0201946697630824 -1.5707686583148401 1.442758321762085 0.0 -0.018970029428601265 -0.03206683322787285 0.03564855456352234 -4.624908456207777e-08 0.0 1 True False
17443.32 3.013608932495117 -1.110089973812439 1.5556719938861292 -2.016125341454977 -1.5708091894732874 1.4428025484085083 0.0 -0.03182079270482063 -0.06766550987958908 0.11311540752649307 -7.025246243392408e-27 0.0 1 True False
17443.37 3.0135555267333984 -1.112578110103943 1.550363842641012 -2.0087138615050257 -1.5707648436175745 1.4428223371505737 0.0 -0.06418918073177338 -0.12539342045783997 0.17477628588676453 -1.401298464324817e-45 0.0 1 True False
17443.42 3.0135838985443115 -1.1160185796073456 1.5430792013751429 -1.9976936779417933 -1.5707767645465296 1.4427149295806885 0.0 -0.08097006380558014 -0.17365935444831848 0.25922587513923645 -0.0 0.0 1 True False
17443.469999999998 3.013596773147583 -1.1207983058742066 1.5330632368670862 -1.983241697350973 -1.5708087126361292 1.4427893161773682 0.0 -0.10061072558164597 -0.21551577746868134 0.33510997891426086 -9.903041862251187e-18 8.982347935670987e-05 1 True False
17443.52 3.0135350227355957 -1.1265103977969666 1.5210369269000452 -1.9651757679381312 -1.570723835621969 1.4426958560943604 0.0 -0.12562249600887299 -0.26277971267700195 0.38123631477355957 -1.5042743953780677e-36 2.5885057766572572e-05 1 True False
17443.57 3.013608932495117 -1.1334668558887024 1.506441895161764 -1.9438420734801234 -1.5708087126361292 1.4428400993347168 0.0 -0.14971981942653656 -0.30705705285072327 0.46002456545829773 -4.1202540160156786e-05 1.5057098607940134e-05 1 True False
17443.62 3.0135796070098877 -1.141578422193863 1.489612881337301 -1.918908258477682 -1.5707362333880823 1.4428192377090454 1.8735451047955538e-36 -0.1701175570487976 -0.36218610405921936 0.539440929889679 -1.939003232109826e-05 2.1139665477676317e-05 1 True False
17443.67 3.0135881900787354 -1.1499997240355988 1.4718225638019007 -1.8926645718016566 -1.5708168188678187 1.4427733421325684 0.0 -0.1572379171848297 -0.3244560956954956 0.49744588136672974 -2.9453502403010613e-24 4.1413198033076536e-20 1 True False
17443.719999999998 3.0135960578918457 -1.1573580664447327 1.4565265814410608 -1.8698193035521449 -1.5707967917071741 1.442765712738037 0.0 -0.13346686959266663 -0.2860461175441742 0.4219713807106018 -4.4701421011961665e-43 6.290676836182289e-39 1 True False
17443.77 3.0136208534240723 -1.1635780495456238 1.4433983008014124 -1.8506299457945765 -1.5707886854754847 1.4427523612976074 0.0 -0.1129167377948761 -0.23927609622478485 0.36238229274749756 -0.0 0.0 1 True False
17443.82 3.01357102394104 -1.1686870616725464 1.4326451460467737 -1.8346849880614222 -1.5707886854754847 1.4427688121795654 0.0 -0.09324126690626144 -0.19051535427570343 0.2768996059894562 -0.0 0.0 1 True False
17443.87 3.0135674476623535 -1.172623799448349 1.424316708241598 -1.822385927239889 -1.5707686583148401 1.4427688121795654 0.0 -0.0690271407365799 -0.1442379355430603 0.20837897062301636 -1.5978677936345775e-08 0.0 1 True False
17443.92 3.0135793685913086 -1.1755129259875794 1.4183762709247034 -1.813563962975973 -1.570784870778219 1.442797064781189 0.0 -0.04816039651632309 -0.0966654121875763 0.14045658707618713 -2.4271649605866747e-27 0.0 1 True False
17443.969999999998 3.013619899749756 -1.1772704285434266 1.4146302382098597 -1.808155199090475 -1.5707405249225062 1.4427613019943237 0.0 -0.022071391344070435 -0.052716925740242004 0.07266503572463989 -0.0 0.0 1 True False
17444.02 3.0135674476623535 -1.1778927010348816 1.4133709112750452 -1.806326528588766 -1.570801083241598 1.4427893161773682 0.0 -5.0294279390072916e-06 8.517710739397444e-06 0.0039034485816955566 -0.0 0.0 1 True False
17444.07 3.0136375427246094 -1.177835540180542 1.41335374513735 -1.8063909016051234 -1.5708254019366663 1.442808985710144 0.0 -0.00022762118896935135 -0.0001893717417260632 8.247960795415565e-05 -0.0 0.0 1 False False
17444.12 3.0135750770568848 -1.177825079565384 1.4134109655963343 -1.8063394031920375 -1.570829216633932 1.442786455154419 0.0 -0.00012298508954700083 -9.633661829866469e-05 0.00019153939501848072 -0.0 0.0 1 False False
17444.17 3.0135464668273926 -1.1778415602496644 1.4133990446673792 -1.8063308201231898 -1.5707925001727503 1.4428014755249023 0.0 -0.00010889283294091001 -7.645467849215493e-05 0.000514408340677619 -0.0 0.0 1 False False
17444.219999999998 3.0135838985443115 -1.1778191787055512 1.4134276548968714 -1.8063198528685511 -1.5707686583148401 1.442810297012329 0.0 -0.00018066393386106938 -5.783826782135293e-05 0.0009128863457590342 -0.0 0.0 1 False False
17444.27 3.0135838985443115 -1.1778608721545716 1.4133828322040003 -1.8062502346434535 -1.5708254019366663 1.4427847862243652 0.0 -0.0002812470484059304 -0.0001982312969630584 0.0002446842845529318 -0.0 0.0 1 False False
17444.32 3.0136048793792725 -1.1778718096068879 1.4133756796466272 -1.8062831364073695 -1.5707925001727503 1.4428060054779053 0.0 -9.918896830640733e-05 -0.00015023481682874262 0.00011058890959247947 -0.0 0.0 1 False False
17444.37 3.013554334640503 -1.1778428715518494 1.4133876005755823 -1.80627503017568 -1.5707562605487269 1.442765712738037 0.0 -8.343374793184921e-05 -0.00010756702249636874 9.752119512995705e-05 -0.0 0.0 1 False False
17444.42 3.0136122703552246 -1.1778690379909058 1.4133504072772425 -1.8062707386412562 -1.5707724730121058 1.4427820444107056 0.0 -2.817426502588205e-05 -6.654926983173937e-05 6.662990926997736e-05 -0.0 0.0 1 False False
17444.469999999998 3.0135750770568848 -1.1778383714011689 1.4133637587176722 -1.8062664471068324 -1.5708254019366663 1.4427776336669922 0.0 -3.0375420465134084e-05 -2.540414527629764e-07 1.0090733439938049e-06 -0.0 0.0 1 False False
17444.52 3.0135960578918457 -1.177864359026291 1.41339618364443 -1.8062511883177699 -1.5707686583148401 1.442752480506897 -2.000178907178394e-29 0.0 -5.97786301817321e-37 1.5327843489761087e-25 -0.0 0.0 1 False False
17444.57 3.0135631561279297 -1.1778927010348816 1.4133623282061976 -1.8062511883177699 -1.5707686583148401 1.442848801612854 0.0 0.0 -0.0 2.382207389352189e-44 -0.0 0.0 1 False False
17444.62 3.0136168003082275 -1.1778898996165772 1.4133828322040003 -1.806246896783346 -1.5708377997027796 1.4427449703216553 0.0 0.0 -0.0 0.0 -0.0 0.0 1 False False
17444.67 3.0135838985443115 -1.1778473419002076 1.4133246580706995 -1.8062311611571253 -1.5708087126361292 1.4428473711013794 0.0 0.0 -0.0 0.0 -0.0 0.0 1 False False
17444.719999999998 3.0135793685913086 -1.1778554183295746 1.4133828322040003 -1.806319376031393 -1.5707405249225062 1.4427803754806519 0.0 0.0 -0.0 0.0 -0.0 0.0 1 False False
17444.92 3.0136139392852783 -1.1778718394092103 1.4133504072772425 -1.806234975854391 -1.5708168188678187 1.4427688121795654 0.0 0.0 -0.0 0.0 -0.0 0.0 1 False False
17444.969999999998 3.0135552883148193 -1.1779018205455323 1.4133785406695765 -1.8062511883177699 -1.5707324186908167 1.4428178071975708 0.0 0.0 -0.0 0.0 -0.0 0.0 1 True False
17445.02 3.0135598182678223 -1.1778882306865235 1.4132965246783655 -1.8062387905516566 -1.5707648436175745 1.442752480506897 0.0 0.0 -0.0 0.0 -0.0 0.0 1 True False
17445.07 3.013564348220825 -1.1778472822955628 1.4133427778827112 -1.8062511883177699 -1.5707805792437952 1.442808985710144 0.0 0.0 -0.0 0.0 -0.0 0.0 1 True False
17445.12 3.0135927200317383 -1.1778643888286133 1.4133589903460901 -1.8062511883177699 -1.5707886854754847 1.4427406787872314 0.0 0.0 -0.0 0.0 -0.0 0.0 1 True False
17445.17 3.0135552883148193 -1.177913562660553 1.4133623282061976 -1.8062707386412562 -1.5708168188678187 1.442765712738037 0.0 0.0 -0.0 0.0 -0.0 0.0 1 True False
17445.219999999998 3.0136303901672363 -1.1778718394092103 1.4133623282061976 -1.8062831364073695 -1.5707724730121058 1.4428462982177734 2.55810211971356e-25 0.0 -0.0 0.0 -0.0 0.0 1 True False
17445.27 3.0136139392852783 -1.1778854590705414 1.4133337179767054 -1.8062550030150355 -1.570801083241598 1.4427613019943237 0.0 0.0 -0.0 0.0 -0.0 0.0 1 True False
17445.32 3.0135884284973145 -1.177842841749527 1.413347069417135 -1.8062669239439906 -1.570784870778219 1.4427733421325684 0.0 0.0 -0.0 0.0 -0.0 0.0 1 True False
17445.37 3.0135345458984375 -1.1778882604888459 1.4133756796466272 -1.8063122234740199 -1.570813004170553 1.4427493810653687 1.0619751265039667e-05 0.0 -2.2035878021097268e-23 0.0 1.2759462913048813e-15 4.273031039246644e-13 1 True False
17445.42 3.0136005878448486 -1.1778882306865235 1.4133203665362757 -1.8062473736205042 -1.5708168188678187 1.4427820444107056 6.165713243029195e-44 0.0 -0.0 0.0 -2.1484260287252255e-05 -0.0005131742800585926 1 True False
17445.469999999998 3.0135464668273926 -1.1779227417758484 1.4133623282061976 -1.8062998257079066 -1.5707405249225062 1.442765712738037 0.0 0.0 -0.0 0.0 -0.0002822942624334246 -0.0011601479491218925 1 True False
17445.52 3.0135838985443115 -1.177888200884201 1.4133546988116663 -1.8063036404051722 -1.5708211104022425 1.4427926540374756 0.0 0.0 -0.0 0.0 -7.186384225600726e-15 7.319324257792914e-09 1 True False
17445.57 3.0135884284973145 -1.177880809908249 1.4133146444903772 -1.8062588177123011 -1.570784870778219 1.442814826965332 0.0 0.0 -0.0 0.0 -2.1137478690086847e-19 1.1118072901611772e-27 1 True False
17445.62 3.0136559009552 -1.1778927010348816 1.413408104573385 -1.80627503017568 -1.5708377997027796 1.44288969039917 0.029043905436992645 -0.0021398451644927263 -0.0 0.0 -3.210787604295746e-38 0.01764957793056965 1 True False
17445.67 3.016183614730835 -1.178079442386963 1.4135955015765589 -1.8063069782652796 -1.5707767645465296 1.4453916549682617 0.08455471694469452 -0.008500305004417896 0.008357662707567215 -0.0012526591308414936 0.00012465566396713257 0.08274567127227783 1 True False
17445.719999999998 3.0223405361175537 -1.1785149735263367 1.414117161427633 -1.806495805779928 -1.5708091894732874 1.4514446258544922 0.15382646024227142 -0.012624910101294518 0.01467021182179451 -0.005002968013286591 7.714095409028232e-05 0.15504193305969238 1 True False
17445.77 3.0317649841308594 -1.1791491967490693 1.4150450865374964 -1.8067342243590296 -1.5708254019366663 1.461003065109253 0.22616694867610931 -0.014151869341731071 0.022333655506372452 -0.005488206632435322 6.278798537096009e-05 0.22247065603733063 1 True False
17445.82 3.044801950454712 -1.1800222557834168 1.4163244406329554 -1.8071404896178187 -1.5708254019366663 1.4740195274353027 0.29527950286865234 -0.019992411136627197 0.030616600066423416 -0.010110628791153431 6.49964131298475e-05 0.2937256097793579 1 True False
17445.87 3.061317205429077 -1.1812051695636292 1.417879883443014 -1.8075510464110316 -1.5707443396197718 1.4905672073364258 0.36293402314186096 -0.024676911532878876 0.03393051400780678 -0.008666245266795158 0.00012085584603482857 0.3615703880786896 1 True False
17445.92 3.081434965133667 -1.18255107224498 1.4198339621173304 -1.8080574474730433 -1.5708487669574183 1.5105602741241455 0.43297070264816284 -0.029040291905403137 0.04260677471756935 -0.010228087194263935 7.791069947415963e-05 0.43200236558914185 1 True False
17445.969999999998 3.1046669483184814 -1.1840936106494446 1.4220250288592737 -1.8087393246092738 -1.570813004170553 1.5340551137924194 0.5057334303855896 -0.03499956429004669 0.047924574464559555 -0.013990860432386398 2.982068690471351e-05 0.5014423131942749 1 True False
17446.02 3.1317362785339355 -1.1860358578017731 1.4246729055987757 -1.8094574413695277 -1.5707891623126429 1.5610864162445068 0.5717344880104065 -0.03705959394574165 0.052540261298418045 -0.017566625028848648 6.231083534657955e-05 0.5721333622932434 1 True False
17446.07 3.162431001663208 -1.1881133180907746 1.4276021162616175 -1.8102432690062464 -1.5707362333880823 1.5915089845657349 0.6430283188819885 -0.0446278378367424 0.06463789939880371 -0.018248017877340317 0.0008019239758141339 0.6440958976745605 1 True False
17446.12 3.196246862411499 -1.1904320877841492 1.430915657673971 -1.8110877476134242 -1.5707772413836878 1.6254401206970215 0.7213282585144043 -0.04845970496535301 0.07001472264528275 -0.017832836136221886 -2.7880673325597627e-09 0.7125328779220581 1 True False
17446.17 3.233703136444092 -1.1930597585490723 1.4344261328326624 -1.8121997318663539 -1.5707486311541956 1.6629163026809692 0.7868483662605286 -0.052774954587221146 0.07681527733802795 -0.01996811293065548 4.727101619702098e-17 0.7756094336509705 1 True False
17446.219999999998 3.2747087478637695 -1.1959187549403687 1.4384048620807093 -1.8133608303465785 -1.570784870778219 1.703789472579956 0.84800785779953 -0.057487912476062775 0.07924782484769821 -0.024504855275154114 1.30262078901211e-10 0.8511731624603271 1 True False
17446.27 3.319093942642212 -1.1989415448955079 1.442653004323141 -1.8144523106017054 -1.5707967917071741 1.7482824325561523 0.9266115427017212 -0.06562263518571854 0.08692385256290436 -0.025381488725543022 1.9786841748295403e-29 0.9198596477508545 1 True False
17446.32 3.3670148849487305 -1.2022519272616883 1.4472926298724573 -1.8157726726927699 -1.5708449522601526 1.796184778213501 0.988068699836731 -0.0662851557135582 0.09154301881790161 -0.032698433846235275 0.0 0.9874200820922852 1 True False
17446.37 3.4183568954467773 -1.2058000427535553 1.4522278944598597 -1.8170644245543421 -1.5707610289203089 1.8476098775863647 1.0427489280700684 -0.06887593865394592 0.10104124248027802 -0.027197061106562614 0.0 1.0442173480987549 1 True False
17446.42 3.470651865005493 -1.2094529134086152 1.457001034413473 -1.818503042260641 -1.570784870778219 1.8997688293457031 1.047105073928833 -0.07568995654582977 0.10242719948291779 -0.02982778660953045 -0.00038213463267311454 1.0554496049880981 1 True False
17446.469999999998 3.5230395793914795 -1.2129511696151276 1.462121311818258 -1.8200022182860316 -1.5708325544940394 1.9522050619125366 1.0429084300994873 -0.07101259380578995 0.09869840741157532 -0.03071177750825882 -0.00010955916513921693 1.0400657653808594 1 True False
17446.52 3.5754892826080322 -1.216643975382187 1.467137638722555 -1.8212863407530726 -1.5708168188678187 2.0047354698181152 1.050240397453308 -0.07035625725984573 0.09810798615217209 -0.024565376341342926 -3.549906614352949e-05 1.044684886932373 1 True False
17446.57 3.627798318862915 -1.2202673119357605 1.4722488562213343 -1.8226930103697718 -1.570756737385885 2.056915760040283 1.050584077835083 -0.0727449432015419 0.10223745554685593 -0.026305435225367546 -5.246433647698723e-05 1.0504472255706787 1 True False
17446.62 3.6801586151123047 -1.2238902014544983 1.4773042837726038 -1.8241173229613246 -1.5708044211017054 2.1092867851257324 1.0450811386108398 -0.07214242964982986 0.09791330993175507 -0.02775459736585617 -4.871505734627135e-05 1.0436444282531738 1 True False
17446.67 3.73249888420105 -1.2274145644954224 1.4822652975665491 -1.8255368671812953 -1.5708254019366663 2.1617140769958496 1.0499401092529297 -0.07222943007946014 0.09523017704486847 -0.03137814998626709 -1.981875633828184e-20 1.0461337566375732 1 True False
17446.719999999998 3.7848293781280518 -1.2311023336699982 1.4872196356402796 -1.8269387684264125 -1.5707648436175745 2.2139382362365723 1.0451472997665405 -0.0720307007431984 0.09909141063690186 -0.02336081489920616 -3.544452556525357e-05 1.0594075918197632 1 True False
17446.77 3.837153196334839 -1.2346942883780976 1.4922712484942835 -1.8283068142332972 -1.5707686583148401 2.266343355178833 1.0430872440338135 -0.07133576273918152 0.10067328065633774 -0.028918813914060593 -1.533095201011747e-05 1.0410839319229126 1 True False
17446.82 3.889538526535034 -1.2382200521281739 1.497159783040182 -1.8297902546324671 -1.5708044211017054 2.31884503364563 1.0468392372131348 -0.0755261778831482 0.09894891083240509 -0.03164783492684364 -4.751588011941976e-09 1.0493640899658203 1 True False
17446.87 3.941904067993164 -1.2419714790633698 1.5023344198810022 -1.8310781917967738 -1.5707686583148401 2.3711133003234863 1.047519564628601 -0.07296633720397949 0.10142777115106583 -0.024681637063622475 -7.217674763413881e-28 1.0511219501495361 1 True False
17446.92 3.9943957328796387 -1.245512918835022 1.5073559919940394 -1.8325325451292933 -1.5707843939410608 2.423464298248291 1.043599247932434 -0.07324030995368958 0.09984882920980453 -0.027587443590164185 -0.0 1.0418481826782227 1 True False
17446.969999999998 4.046633720397949 -1.2491858166507264 1.512362305318014 -1.8340794048705042 -1.5707805792437952 2.4759857654571533 1.0474674701690674 -0.07196371257305145 0.09954450279474258 -0.027174772694706917 -0.0 1.0488731861114502 1 True False
17447.02 4.0988264083862305 -1.252713994388916 1.5173075834857386 -1.8353759251036585 -1.570784870778219 2.5281670093536377 1.0485821962356567 -0.07299017161130905 0.10228433459997177 -0.0246753990650177 1.8675525836897577e-07 1.057418942451477 1 True False
17447.07 4.15137243270874 -1.2563457053950806 1.5223777929889124 -1.8367272816100062 -1.5708087126361292 2.580400228500366 1.0415445566177368 -0.07039030641317368 0.10037767142057419 -0.02641797624528408 9.160838089883327e-05 1.0402779579162598 1 True False
17447.12 4.203703880310059 -1.259939269428589 1.5273445288287562 -1.8381630382933558 -1.5707891623126429 2.6329751014709473 1.0500586032867432 -0.07283739745616913 0.10135086625814438 -0.030580585822463036 1.9864339586528318e-23 1.0430461168289185 1 True False
17447.17 4.256044387817383 -1.2636096340468903 1.5323260466205042 -1.8395539722838343 -1.5707362333880823 2.685249090194702 1.047257661819458 -0.07338664680719376 0.10178247094154358 -0.02786645106971264 -1.6906338228854447e-16 1.0498642921447754 1 True False
17447.219999999998 4.308287620544434 -1.267162100677826 1.5374529997455042 -1.841001649896139 -1.57074481645693 2.7373480796813965 1.0231575965881348 -0.07076387852430344 0.09333769232034683 -0.026368994265794754 -2.5680757611531955e-35 1.0187010765075684 1 True False
17447.27 4.357569694519043 -1.2706071895411988 1.542239014302389 -1.842325349847311 -1.570801083241598 2.7869138717651367 0.9583446383476257 -0.06659785658121109 0.08997274935245514 -0.02147011272609234 -0.00021885638125240803 0.9551290273666382 1 True False
17447.32 4.403573989868164 -1.27375681818042 1.546438995991842 -1.8435856304564417 -1.5707767645465296 2.8325183391571045 0.8814721703529358 -0.06213732436299324 0.08391476422548294 -0.020467707887291908 -9.638202755013481e-05 0.8873221278190613 1 True False
17447.37 4.445944786071777 -1.276700810795166 1.550500218068258 -1.844567438165182 -1.5707686583148401 2.8752310276031494 0.8164265751838684 -0.05554626137018204 0.07800004631280899 -0.024130262434482574 -4.3218486600437274e-21 0.8158741593360901 1 True False
17447.42 4.484941482543945 -1.2793830794147034 1.5542305151568812 -1.8456880054869593 -1.570772949849264 2.9142801761627197 0.7436479330062866 -0.049957290291786194 0.07725181430578232 -0.020639710128307343 3.815167656284757e-05 0.7439233660697937 1 True False
17447.469999999998 4.520323276519775 -1.281776414518692 1.5576160589801233 -1.84666170696401 -1.5708335081683558 2.949591636657715 0.6761208176612854 -0.04667217284440994 0.06289026141166687 -0.019782323390245438 1.517211706864437e-19 0.6684086322784424 1 True False
17447.52 4.552277088165283 -1.2839893263629456 1.5607269446002405 -1.8475009403624476 -1.5708087126361292 2.9815406799316406 0.601016640663147 -0.04007202386856079 0.060271941125392914 -0.016532201319932938 2.3046480416890462e-38 0.5984929203987122 1 True False
17447.57 4.580646514892578 -1.2859612864306946 1.56348163286318 -1.848260065118307 -1.5708449522601526 3.0099992752075195 0.5349515676498413 -0.03509579226374626 0.05026101693511009 -0.01613861508667469 1.570447466292535e-06 0.530661940574646 1 True False
17447.62 4.605607986450195 -1.2877172690681 1.565915886555807 -1.8489161930479945 -1.5708254019366663 3.0349955558776855 0.46428290009498596 -0.031312186270952225 0.044176045805215836 -0.016776693984866142 9.634332673158497e-05 0.4641713798046112 1 True False
17447.67 4.6273040771484375 -1.2892028254321595 1.5679615179644983 -1.84946932415151 -1.5707529226886194 3.0564048290252686 0.3945414423942566 -0.02767825312912464 0.038831595331430435 -0.010901606641709805 0.00017662330355960876 0.4030592441558838 1 True False
17447.719999999998 4.645321846008301 -1.2904275518706818 1.5697153250323694 -1.8499380550780238 -1.570801083241598 3.074394702911377 0.3296959698200226 -0.02343802899122238 0.030299212783575058 -0.005512857344001532 0.0001099095243262127 0.31943508982658386 1 True False
17447.77 4.659605026245117 -1.2914107602885743 1.5710566679583948 -1.8503672085204066 -1.570829216633932 3.0889077186584473 0.25529903173446655 -0.018778275698423386 0.02365805208683014 -0.007375425659120083 -0.00011502276174724102 0.25497788190841675 1 True False
17447.82 4.6706695556640625 -1.292142705326416 1.572075668965475 -1.8505813084044398 -1.5708368460284632 3.099947452545166 0.18818165361881256 -0.012852483429014683 0.017329830676317215 -0.006709972862154245 -5.569219501921907e-05 0.18819385766983032 1 True False
17447.87 4.678259372711182 -1.2927068036845704 1.5728123823748987 -1.8508802853026332 -1.5707967917071741 3.1074631214141846 0.11508853733539581 -0.0059684691950678825 0.011339761316776276 -0.003548690350726247 -2.4495637262589298e-05 0.12069719284772873 1 True False
17447.92 4.682286739349365 -1.2928417486003418 1.573094669972555 -1.8509956798949183 -1.5707572142230433 3.1114349365234375 0.04537054896354675 -0.0025961583014577627 0.0021746642887592316 -0.0028081252239644527 -1.229743130243266e-11 0.04933590441942215 1 True False
17447.969999999998 4.682943820953369 -1.2929033798030396 1.5734260717975062 -1.8514329395689906 -1.570801083241598 3.1121761798858643 -0.004916433710604906 0.0030216688755899668 0.02372601255774498 -0.04639814421534538 -1.867982398710908e-30 -7.319961241591955e-07 1 True False
17448.02 4.682918071746826 -1.292223648434021 1.575397793446676 -1.85424866298818 -1.5708368460284632 3.1122207641601562 0.0004766336642205715 0.03201642632484436 0.060283731669187546 -0.09946412593126297 -7.415079563821009e-14 0.0006409985944628716 1 True False
17448.07 4.6829915046691895 -1.2898802024177094 1.5794332663165491 -1.8605710468687953 -1.5708368460284632 3.1122074127197266 0.0006983857601881027 0.0612177699804306 0.10797856003046036 -0.1679125428199768 -1.1263520748021925e-32 0.0005182555178180337 1 True False
17448.12 4.682978630065918 -1.2862473291209717 1.5860284010516565 -1.8706170521178187 -1.5708254019366663 3.1122288703918457 0.0009199549676850438 0.08817701041698456 0.15074191987514496 -0.23075203597545624 -0.0 0.00021854444639757276 1 True False
17448.17 4.682985782623291 -1.2814887028983613 1.5946009794818323 -1.8840114078917445 -1.5708044211017054 3.112248182296753 0.0002334637101739645 0.10509254783391953 0.19639952480793 -0.31531190872192383 -0.0 0.00012728548608720303 1 True False
17448.219999999998 4.682999134063721 -1.2754405301860352 1.6058643499957483 -1.900923868218893 -1.5707967917071741 3.1121609210968018 0.00022071716375648975 0.12972140312194824 0.23734842240810394 -0.35942158102989197 -0.0 7.426069350913167e-05 1 True False
17448.27 4.683032035827637 -1.2684287291816254 1.6187971274005335 -1.9213372669615687 -1.570801083241598 3.112236261367798 9.219055209541693e-05 0.1579427570104599 0.29156139492988586 -0.43745407462120056 -0.0 5.257117300061509e-05 1 True False
17448.32 4.683060169219971 -1.259960339670517 1.6344407240497034 -1.945305963555807 -1.5707767645465296 3.1122689247131348 4.7598587116226554e-05 0.17789825797080994 0.32658201456069946 -0.5151511430740356 -0.0 2.846736908222416e-20 1 True False
17448.37 4.683032035827637 -1.2503745418838044 1.651914421712057 -1.9722258053221644 -1.5707724730121058 3.1121983528137207 4.184247154626064e-05 0.18712453544139862 0.3505362570285797 -0.5281875133514404 -0.0 9.408310935876685e-12 1 True False
17448.42 4.68300199508667 -1.2416413587382813 1.6682031790362757 -1.9972669086852015 -1.5708087126361292 3.112231731414795 4.021112181362696e-05 0.16229744255542755 0.302064448595047 -0.46417248249053955 5.714710127708483e-19 1.4291245602890401e-30 1 True False
17448.469999999998 4.683011054992676 -1.2341552537730713 1.681948486958639 -2.0188590488829554 -1.5707719961749476 3.112239122390747 5.96407480770722e-05 0.1390743851661682 0.25404176115989685 -0.3885282278060913 2.1217263565631583e-05 0.0 1 True False
17448.52 4.683076858520508 -1.2277070444873353 1.6938603560077112 -2.0369421444334925 -1.5707882086383265 3.1121983528137207 1.2337925566543433e-24 0.1162501871585846 0.213058739900589 -0.33783864974975586 1.3349032997211907e-05 0.0 1 True False
17448.57 4.683030605316162 -1.2225166124156495 1.703240219746725 -2.051398893395895 -1.5708211104022425 3.112255573272705 0.0 0.0941263735294342 0.16601090133190155 -0.25581246614456177 3.108112878180691e-07 0.0 1 True False
17448.62 4.682994842529297 -1.2186504763415833 1.7102926413165491 -2.062557359735006 -1.570756737385885 3.112231731414795 0.0 0.06606544554233551 0.12609168887138367 -0.1993011236190796 4.72123021234911e-26 0.0 1 True False
17448.67 4.683063507080078 -1.215992735033371 1.7152827421771448 -2.0700866184630335 -1.5707891623126429 3.1122028827667236 3.1963617971249077e-41 0.040016788989305496 0.07311081886291504 -0.12328450381755829 7.006492321624085e-45 0.0 1 True False
17448.719999999998 4.683018684387207 -1.2145567697337647 1.7178295294391077 -2.0740887127318324 -1.5707925001727503 3.112240791320801 0.0 0.017441364005208015 0.035110000520944595 -0.04932807758450508 0.0 -3.136655141133815e-05 1 True False
17448.77 4.68298864364624 -1.2143616837314148 1.7183879057513636 -2.0749837360777796 -1.5707891623126429 3.11220645904541 0.0 -0.00263894721865654 -0.00026237982092425227 0.0004391337570268661 0.0 -9.566603893704322e-21 1 True False
17448.82 4.683030605316162 -1.21442003667865 1.718396011983053 -2.074906965295309 -1.5708091894732874 3.1121835708618164 0.0 0.00012081536988262087 0.0003820911515504122 -4.584708128549039e-14 0.0 -3.739775638678111e-05 1 True False
17448.87 4.683072090148926 -1.2143586438945313 1.7184389273272913 -2.074935098687643 -1.5708172957049769 3.1122074127197266 0.0 0.00029661477310582995 0.000914621923584491 -7.710931822657585e-05 0.0 -6.38003766653128e-05 1 True False
17448.92 4.683022975921631 -1.2143497926047822 1.7184627691852015 -2.074935098687643 -1.5707724730121058 3.1122028827667236 -1.7381636061020167e-11 8.831204468151554e-05 0.0005335630266927183 -5.584209066000767e-05 0.0 -3.382312206667848e-05 1 True False
17448.969999999998 4.683067798614502 -1.214355395441391 1.7184627691852015 -2.074947019616598 -1.5708172957049769 3.112248182296753 0.0 0.00013681520067621022 0.0001548404252389446 -5.691079786629416e-05 0.0 -2.3012213205220178e-05 1 True False
17449.02 4.682985782623291 -1.2143478256515046 1.7184885183917444 -2.0748707256712855 -1.5707805792437952 3.1121864318847656 0.0 0.00013839536404702812 0.0001165260691777803 -0.0001226479362230748 0.0 -3.2687528712553116e-15 1 True False
17449.07 4.683018684387207 -1.2143185597709198 1.7184541861163538 -2.0749269924559535 -1.5708211104022425 3.1122074127197266 0.0 0.00010953585297102109 8.485014404868707e-05 -0.00010430168913444504 0.0 -4.96524038341534e-34 1 True False
17449.12 4.6830735206604 -1.2143304210952302 1.7184956709491175 -2.074907442132467 -1.5707719961749476 3.112231731414795 0.0 8.337217150256038e-05 6.919982843101025e-05 -6.987806409597397e-05 0.0 -0.0 1 True False
17449.17 4.682999134063721 -1.2142777305892487 1.7184999624835413 -2.07491459468984 -1.570801083241598 3.1121609210968018 -6.147887045004826e-38 7.977266795933247e-05 9.149539751972512e-20 -6.040359221515246e-05 0.0 -0.0 1 True False
17449.219999999998 4.682994842529297 -1.2143055659583588 1.718466583882467 -2.074918886224264 -1.5707724730121058 3.112215280532837 0.0 4.59151815448422e-05 0.0 -5.1348508799097133e-23 0.0 -0.0 1 True False
17449.27 4.683018684387207 -1.2142648261836548 1.7185090223895472 -2.0749627552428187 -1.5707648436175745 3.1122119426727295 0.0 4.2957566620316356e-05 0.0 -7.799627252431932e-42 0.0 -0.0 1 True False
17449.32 4.682987213134766 -1.2143152815154572 1.7185199896441858 -2.0749346218504847 -1.5707967917071741 3.11221981048584 0.0 2.4927536287577823e-05 0.0 -9.986155419028364e-06 0.0 -0.0 1 True False
17449.37 4.68300199508667 -1.2144187551787873 1.7183674017535608 -2.075078626672262 -1.5707815329181116 3.1122586727142334 0.0 -0.002574735088273883 -0.001146387541666627 -0.006946939043700695 0.0020377864129841328 2.991492729597614e-17 1 True False
17449.42 4.683006286621094 -1.2144079965404053 1.7183721701251429 -2.075153966943258 -1.5707886854754847 3.1122689247131348 0.0 0.0002767523692455143 0.000181540337507613 0.00015615815937053412 2.4712249001704364e-21 4.544085280463048e-36 1 True False
17449.469999999998 4.6830244064331055 -1.21444724619899 1.7183521429644983 -2.07497038463735 -1.5707691351519983 3.1122453212738037 0.0 -0.0038382408674806356 -0.009670752100646496 0.029538793489336967 3.75379832623332e-40 0.0 1 True True
17449.52 4.6830034255981445 -1.2149499517730256 1.7172296682940882 -2.0721336803831996 -1.5707610289203089 3.112222671508789 0.0 -0.027557604014873505 -0.0576343834400177 0.07530257850885391 -2.4951285013230518e-05 0.0 1 True True
17449.57 4.683006286621094 -1.2173289817622681 1.7130287329303187 -2.0660211048521937 -1.5707886854754847 3.1121864318847656 0.0 -0.0529068261384964 -0.10570685565471649 0.16873711347579956 -1.652598058399235e-10 0.0 1 True True
17449.62 4.682994842529297 -1.2208197277835389 1.7066009680377405 -2.056561132470602 -1.5707691351519983 3.112231731414795 0.0 -0.08782032877206802 -0.15020523965358734 0.21697592735290527 -2.5103014761810103e-29 -3.948153607780114e-05 1 True True
17449.67 4.683019638061523 -1.2253985565951844 1.6981528441058558 -2.043382307092184 -1.5707805792437952 3.112222909927368 0.0 -0.10476698726415634 -0.19548046588897705 0.29376325011253357 -0.0 -2.1977791675453773e-07 1 True True
17449.719999999998 4.682982921600342 -1.2311891478351136 1.6871536413775843 -2.02691187481069 -1.5707967917071741 3.1121983528137207 0.0 -0.12811875343322754 -0.23406147956848145 0.35802286863327026 -0.0 -2.573981328168884e-05 1 True True
17449.77 4.683027744293213 -1.238198683863022 1.67426044145693 -2.006813188592428 -1.5707886854754847 3.1122028827667236 0.0 -0.1566140502691269 -0.2858928143978119 0.4289648234844208 -0.0 -1.5196784275417485e-08 1 True True
17449.82 4.683027267456055 -1.2465495628169556 1.6589773336993616 -1.983227869073385 -1.5707691351519983 3.112260103225708 0.0 -0.17443309724330902 -0.32022911310195923 0.5082048177719116 -0.0 -2.308395172032247e-27 1 True True
17449.87 4.68303918838501 -1.2560485166362305 1.6416247526751917 -1.9563948116698207 -1.5708449522601526 3.112210988998413 0.0 -0.18339397013187408 -0.3564862310886383 0.5363933444023132 -0.0 -0.0 1 True True
17449.92 4.683022975921631 -1.2647948128036042 1.6251276175128382 -1.9309703312315882 -1.570824925099508 3.1121654510498047 0.0 -0.16672736406326294 -0.30670166015625 0.46941179037094116 -0.0 -2.1976739872364703e-11 1 True True
17449.969999999998 4.6829915046691895 -1.2725105446628113 1.6111114660846155 -1.9092098675169886 -1.5707929770099085 3.1122074127197266 0.0 -0.1430489867925644 -0.26123130321502686 0.40347394347190857 -0.0 -2.1780394562215388e-21 1 True True
17450.02 4.6830315589904785 -1.2790483099273224 1.5990799109088343 -1.8907095394530238 -1.5708006064044397 3.112236261367798 0.0 -0.11560618877410889 -0.21862532198429108 0.33077776432037354 -0.0 -3.30845166128625e-40 1 True True
17450.07 4.6830034255981445 -1.2843794387630005 1.589444939290182 -1.8759037456908167 -1.570784870778219 3.112215280532837 0.0 -0.09330429136753082 -0.16479696333408356 0.2579961121082306 -0.0 -0.0 1 True True
17450.12 4.682990550994873 -1.288331852560379 1.5820277372943323 -1.8643833599486292 -1.5707929770099085 3.1122617721557617 0.0 -0.07146726548671722 -0.12939727306365967 0.1965324729681015 -0.0 -0.0 1 True True
17450.37 4.678550720214844 -1.2931192976287385 1.5733602682696741 -1.851091047326559 -1.5708168188678187 3.103564739227295 -0.08077894151210785 -0.004511435981839895 0.0019452912965789437 0.00022594169422518462 -0.0 -0.1530168056488037 1 True True
17450.42 4.673585891723633 -1.293307141666748 1.5735076109515589 -1.8510710201659144 -1.570784870778219 3.094003200531006 -0.11723402887582779 -0.0047915163449943066 0.004663708619773388 8.016479114303365e-05 -0.0 -0.21837744116783142 1 True True
17450.469999999998 4.666871070861816 -1.2935537260821839 1.5738237539874476 -1.8510829410948695 -1.5707648436175745 3.0810506343841553 -0.1493522971868515 -0.004941571969538927 0.006166315171867609 -0.0007323837489821017 -0.0 -0.300216406583786 1 True True
17450.52 4.658344268798828 -1.2937723261168976 1.574167553578512 -1.8511821232237757 -1.5707767645465296 3.0644493103027344 -0.19064997136592865 -0.005865480750799179 0.008477565832436085 -0.0022314894013106823 -7.958159464749315e-09 -0.3624250292778015 1 True True
17450.57 4.647974491119385 -1.2940341097167511 1.5746248404132288 -1.8512855968871058 -1.5708006064044397 3.044584274291992 -0.223779559135437 -0.007379200775176287 0.00860605388879776 -0.0020647523924708366 -1.2088466185600892e-27 -0.4365498721599579 1 True True
17450.62 4.635857105255127 -1.294459657078125 1.575052563344137 -1.8514768085875453 -1.5707767645465296 3.0211892127990723 -0.25706255435943604 -0.0084636639803648 0.010100632905960083 -0.0024760751985013485 -8.48753479658626e-05 -0.49776729941368103 1 True True
17450.67 4.621872425079346 -1.2948472660830994 1.5755718390094202 -1.851584096948141 -1.5707805792437952 2.993945837020874 -0.29930514097213745 -0.00934305414557457 0.009924033656716347 -0.0030578449368476868 -5.7677327276906e-05 -0.569555401802063 1 True True
17450.719999999998 4.606051921844482 -1.2953093510917206 1.5761736075030726 -1.8517114124693812 -1.5707967917071741 2.963446855545044 -0.3311862647533417 -0.010273924097418785 0.013859730213880539 -0.002576288068667054 -1.259679785882515e-14 -0.6364099383354187 1 True True
17450.77 4.588512897491455 -1.295832024221756 1.5768292585956019 -1.851842542687887 -1.5707767645465296 2.9295334815979004 -0.37000781297683716 -0.011931984685361385 0.013522995635867119 -0.004450608976185322 -1.9134562962860805e-33 -0.7066856026649475 1 True True
17450.82 4.56911039352417 -1.2963922780803223 1.577573601399557 -1.8519813023009242 -1.570784870778219 2.8923258781433105 -0.4006333649158478 -0.011580957099795341 0.016291813924908638 -0.0024619169998914003 -0.0 -0.783355712890625 1 True True
17450.87 4.547918796539307 -1.2969763737967988 1.5784185568438929 -1.8521958790221156 -1.5708449522601526 2.8512492179870605 -0.4406462609767914 -0.012884286232292652 0.01738096959888935 -0.0036140219308435917 -0.0 -0.8581492304801941 1 True True
17450.92 4.525089740753174 -1.297758774166443 1.5793264547931116 -1.8524114094176234 -1.5707686583148401 2.806675434112549 -0.48252150416374207 -0.014555983245372772 0.018775176256895065 -0.006104853004217148 -0.0 -0.9197198748588562 1 True True
17450.969999999998 4.5003156661987305 -1.2984255713275452 1.5803049246417444 -1.8526298008360804 -1.5708044211017054 2.7589752674102783 -0.5103426575660706 -0.016988534480333328 0.020709145814180374 -0.0033685348462313414 -0.00018276559421792626 -0.9947364926338196 1 True True
17451.02 4.473443984985352 -1.2991855603507538 1.581254784260885 -1.8528715572752894 -1.570796314870016 2.7075698375701904 -0.536463737487793 -0.015192683786153793 0.022125786170363426 -0.0045362841337919235 -0.0007686546887271106 -1.034766435623169 1 True True
17451.07 4.446400165557861 -1.3000596922687073 1.5824177900897425 -1.8531543217101039 -1.5708168188678187 2.655125379562378 -0.5489720106124878 -0.015423368662595749 0.01878797449171543 -0.007228718139231205 -0.002166189718991518 -1.0466437339782715 1 True True
17451.12 4.419419288635254 -1.3008447152427216 1.5834649244891565 -1.8533336124815882 -1.570784870778219 2.6029040813446045 -0.5445961356163025 -0.014500299468636513 0.019657708704471588 -0.006658210419118404 6.265183765208349e-05 -1.0471175909042358 1 True True
17451.17 4.392518520355225 -1.3017760974219819 1.5845020453082483 -1.853528162042135 -1.5707934538470667 2.550469160079956 -0.5419833660125732 -0.015859568491578102 0.02073129266500473 -0.0034769324120134115 0.000771168852224946 -1.0390453338623047 1 True True
17451.219999999998 4.365513324737549 -1.3024785083583375 1.585510555897848 -1.8537703953185023 -1.5706761519061487 2.498163938522339 -0.5384971499443054 -0.018277427181601524 0.022082092240452766 -0.0015251163858920336 0.0013042115606367588 -1.053016185760498 1 True True
17451.27 4.338246822357178 -1.3032186490348359 1.5864766279803675 -1.85410799602651 -1.5707605520831507 2.4458580017089844 -0.5357434749603271 -0.01864803209900856 0.022431379184126854 -0.001831189263612032 0.0031219851225614548 -1.0517817735671997 1 True True
17451.32 4.3110127449035645 -1.3040479582599183 1.5874961058246058 -1.8543507061400355 -1.5708368460284632 2.39342999458313 -0.543228805065155 -0.0165838822722435 0.020443879067897797 -0.0035799278412014246 -0.0002489917678758502 -1.042394995689392 1 True True
17451.37 4.2838134765625 -1.304766760473587 1.588686768208639 -1.8545619450011195 -1.5708282629596155 2.341024875640869 -0.5443987846374512 -0.013948461040854454 0.01927873305976391 -0.008791027590632439 -0.0015371441841125488 -1.0503764152526855 1 True True
17451.42 4.25676965713501 -1.3056849402240296 1.5896433035479944 -1.8548203907408656 -1.5708368460284632 2.2888529300689697 -0.5471314787864685 -0.014755254611372948 0.019434213638305664 -0.007937226444482803 -0.0012772380141541362 -1.0513386726379395 1 True True
17451.469999999998 4.229725360870361 -1.3064521116069336 1.5906966368304651 -1.8550025425352992 -1.5707891623126429 2.2363452911376953 -0.5457611083984375 -0.014930909499526024 0.019327443093061447 -0.009167646057903767 -0.00032732501858845353 -1.0421816110610962 1 True True
17451.52 4.202817440032959 -1.3073264521411438 1.591703240071432 -1.855201860467428 -1.5707290808307093 2.183967113494873 -0.5424018502235413 -0.01559174433350563 0.02235320582985878 -0.004869540221989155 0.0006741347024217248 -1.0570605993270874 1 True True
17451.57 4.175870895385742 -1.308034972553589 1.5927794615374964 -1.855448385278219 -1.570772949849264 2.131709337234497 -0.5386828184127808 -0.018106458708643913 0.02243003062903881 -0.002915589604526758 0.0010871316771954298 -1.050817847251892 1 True True
17451.62 4.14864444732666 -1.3088539701751252 1.593893829976217 -1.8557507000365199 -1.5707443396197718 2.0791633129119873 -0.5355032086372375 -0.01850169524550438 0.022295210510492325 -0.001017254195176065 0.002598726423457265 -1.040522575378418 1 True True
17451.67 4.121453762054443 -1.3096949023059388 1.5948451201068323 -1.8560329876341761 -1.5708006064044397 2.026796817779541 -0.5386508703231812 -0.0170573852956295 0.02294762246310711 -0.0025078027974814177 -0.0002812105230987072 -1.0451512336730957 1 True True
17451.719999999998 4.094178676605225 -1.3104098302176972 1.5959213415728968 -1.8562671146788539 -1.5708325544940394 1.974550724029541 -0.539428174495697 -0.016362080350518227 0.019700244069099426 -0.005928127560764551 -0.0006396507960744202 -1.047756314277649 1 True True
17451.77 4.067094326019287 -1.3112629813006897 1.5969823042498987 -1.856485982934469 -1.5708649794207972 1.9221910238265991 -0.5479103922843933 -0.013113067485392094 0.01877467893064022 -0.006787173915654421 -0.0012268762802705169 -1.0395381450653076 1 True True
17451.82 4.040063381195068 -1.3121031683734437 1.5979860464679163 -1.8566810093321742 -1.5707805792437952 1.8697847127914429 -0.5507141351699829 -0.013613325543701649 0.01863180287182331 -0.010283314622938633 -0.0029494089540094137 -1.0491225719451904 1 True True
17451.87 4.013156890869141 -1.3129239541343232 1.5990412870990198 -1.8568836651244105 -1.5707610289203089 1.817570686340332 -0.5451322793960571 -0.01656181551516056 0.019847596064209938 -0.0056787291541695595 0.0004920272040180862 -1.0502328872680664 1 True True
17451.92 3.9861092567443848 -1.313694105749466 1.6001489798175257 -1.8571545086302699 -1.5707858244525355 1.7651581764221191 -0.536506712436676 -0.01637863554060459 0.02199535071849823 -0.0016373303951695561 0.0010097711347043514 -1.045310616493225 1 True True
17451.969999999998 3.959075927734375 -1.314532147055008 1.6011260191546839 -1.8573924503722132 -1.570772949849264 1.712656855583191 -0.5380753874778748 -0.01834201253950596 0.022047048434615135 -0.00210431101731956 0.001620567636564374 -1.0408591032028198 1 True True
17452.02 3.9318628311157227 -1.315279797916748 1.6021903196917933 -1.8576623402037562 -1.5707524458514612 1.6603350639343262 -0.5381022691726685 -0.018289582803845406 0.022508645430207253 -0.0027949863579124212 0.001515688723884523 -1.0477735996246338 1 True True
17452.07 3.904526948928833 -1.316085235481598 1.6032031218158167 -1.8578726253905238 -1.5708254019366663 1.6079989671707153 -0.5407105088233948 -0.0140501968562603 0.019357243552803993 -0.0036650365218520164 -0.00036045932210981846 -1.0465773344039917 1 True True
17452.12 3.8774075508117676 -1.3168560427478333 1.604274098073141 -1.858187814752096 -1.5708611647235315 1.5556200742721558 -0.5450213551521301 -0.014190453104674816 0.017119459807872772 -0.00790864322334528 -0.0005901815020479262 -1.0483440160751343 1 True True
17452.17 3.850381851196289 -1.3177060049823304 1.6052663961993616 -1.8584300480284632 -1.570813004170553 1.5033081769943237 -0.5473895072937012 -0.013414733111858368 0.018816780298948288 -0.007901718840003014 -0.002525145187973976 -1.0467618703842163 1 True True
17452.219999999998 3.823493480682373 -1.318550096159317 1.606386963521139 -1.8586012325682582 -1.5708091894732874 1.4509806632995605 -0.5490124821662903 -0.014680327847599983 0.01786693185567856 -0.006022024899721146 0.00036851593176834285 -1.0451396703720093 1 True True
17452.27 3.7964630126953125 -1.3193464142135163 1.6073854605304163 -1.8587757549681605 -1.5707204977618616 1.398557186126709 -0.5380293726921082 -0.01639067567884922 0.022766247391700745 -0.0033263976220041513 0.0007361843599937856 -1.0457130670547485 1 True True
17452.32 3.7694740295410156 -1.3201211255839844 1.6083977858172815 -1.8590661487975062 -1.5707686583148401 1.3462035655975342 -0.5374209880828857 -0.017160512506961823 0.022906756028532982 -0.0019137311028316617 0.0013569338480010629 -1.0451580286026 1 True True
17452.37 3.742213010787964 -1.32081692040477 1.6094616095172327 -1.8592845402159632 -1.5707653204547327 1.293860912322998 -0.5341600179672241 -0.01835513673722744 0.022769037634134293 -0.0033950305078178644 0.0023971213959157467 -1.0512269735336304 1 True True
17452.42 3.715027332305908 -1.3217188876918335 1.6104701201068323 -1.8596226177611292 -1.5708325544940394 1.2415393590927124 -0.5405074954032898 -0.01755375601351261 0.022884264588356018 -0.0031981677748262882 -0.0005358386551961303 -1.0462042093276978 1 True True
17452.469999999998 3.6878044605255127 -1.3225549024394532 1.611500088368551 -1.8598853550352992 -1.5708325544940394 1.1891553401947021 -0.5465533137321472 -0.015119794756174088 0.01845681481063366 -0.007165728136897087 -0.0008694556308910251 -1.0481014251708984 1 True True
17452.52 3.6606805324554443 -1.3233253818801423 1.6125386396991175 -1.860124250451559 -1.5707886854754847 1.136773705482483 -0.5451087355613708 -0.014930017292499542 0.01981719210743904 -0.009115302003920078 -0.0015824446454644203 -1.042792558670044 1 True True
17452.57 3.6337342262268066 -1.324182854299881 1.6136143843280237 -1.8602663479247035 -1.5707967917071741 1.084399938583374 -0.545590341091156 -0.01538029033690691 0.0208665169775486 -0.008017640560865402 9.053593203134369e-06 -1.0446473360061646 1 True True
17452.62 3.606788396835327 -1.325008825664856 1.6146720091449183 -1.8604332409300746 -1.5707772413836878 1.0321050882339478 -0.5415024161338806 -0.014933785423636436 0.020261414349079132 -0.004992303904145956 0.0007005828083492815 -1.0455323457717896 1 True True
17452.67 3.5797393321990967 -1.325736017232277 1.6157196203814905 -1.8607517681517542 -1.5707610289203089 0.9797195792198181 -0.5384416580200195 -0.01766754314303398 0.023010414093732834 -0.004498984664678574 0.0010879297042265534 -1.0525591373443604 1 True True
17452.719999999998 3.552638530731201 -1.326604725127556 1.616814438496725 -1.8609901867308558 -1.5707486311541956 0.9273790717124939 -0.5359093546867371 -0.017918946221470833 0.021850567311048508 -0.0018281242810189724 0.0027250146958976984 -1.046854853630066 1 True True
17452.77 3.5254647731781006 -1.327344537978508 1.6178048292743128 -1.8612843952574671 -1.5707886854754847 0.8750424385070801 -0.5389178991317749 -0.01597405970096588 0.021840129047632217 -0.0017822590889409184 0.00029904197435826063 -1.0523018836975098 1 True True
17452.82 3.4982030391693115 -1.3281688553145905 1.6187899748431605 -1.8615185223021449 -1.5708006064044397 0.8227235078811646 -0.5423641204833984 -0.015684455633163452 0.020473569631576538 -0.003981668036431074 -0.0005264502833597362 -1.047046422958374 1 True True
17452.87 3.471160650253296 -1.3288617444089432 1.6198776404010218 -1.8617574177184046 -1.570853058491842 0.7702873349189758 -0.5475084781646729 -0.015206700190901756 0.01923019252717495 -0.006774510256946087 -0.0013497304171323776 -1.0488122701644897 1 True True
17452.92 3.4439961910247803 -1.329708681707718 1.6208365599261683 -1.8619724712767542 -1.5708211104022425 0.717889130115509 -0.547089695930481 -0.015568065457046032 0.019077567383646965 -0.009327494539320469 -0.002748877974227071 -1.0418566465377808 1 True True
17452.969999999998 3.4170639514923096 -1.3305093359998246 1.621920410786764 -1.8621999226012171 -1.570801083241598 0.6655423641204834 -0.5444326400756836 -0.017742842435836792 0.020485809072852135 -0.008399825543165207 0.00016083160880953074 -1.0475389957427979 1 True True
17453.02 3.390108585357666 -1.3313808304122468 1.6230242888080042 -1.8623248539366664 -1.5707362333880823 0.6131700277328491 -0.5414168834686279 -0.014768985100090504 0.022989455610513687 -0.002732566324993968 0.0006975668948143721 -1.049322485923767 1 True True
17453.07 3.362966299057007 -1.3322319847396393 1.624145809804098 -1.862664361993307 -1.5707610289203089 0.5608238577842712 -0.5355868935585022 -0.019685711711645126 0.022994598373770714 -0.002184203127399087 0.0013292513322085142 -1.045583724975586 1 True True
17453.12 3.335843324661255 -1.3329485219768067 1.6250670591937464 -1.8628741703429164 -1.5707486311541956 0.5084593892097473 -0.537392795085907 -0.01714208349585533 0.0215725377202034 -0.0034261669497936964 -2.4715913241379894e-05 -1.0462031364440918 1 True True
17453.17 3.3086631298065186 -1.3337085557034989 1.6260812918292444 -1.8632050953307093 -1.5707886854754847 0.45612964034080505 -0.5402644872665405 -0.015731072053313255 0.021915273740887642 -0.0035277067217975855 -0.0005546366446651518 -1.046451210975647 1 True True
17453.219999999998 3.2815301418304443 -1.3345694106868287 1.6271255652057093 -1.8634516201415003 -1.570796314870016 0.40376731753349304 -0.5430741310119629 -0.015441938303411007 0.02055668830871582 -0.00682627409696579 -0.0009902396705001593 -1.0410687923431396 1 True True
17453.27 3.2543156147003174 -1.3353610199740906 1.6282084623919886 -1.8636981449522914 -1.5708282629596155 0.35130545496940613 -0.5453435778617859 -0.014774110168218613 0.019947901368141174 -0.009632180444896221 -0.002217985223978758 -1.049701452255249 1 True True
17453.32 3.227440595626831 -1.3362409633449097 1.629312817250387 -1.863885065118307 -1.5707686583148401 0.29900941252708435 -0.5494612455368042 -0.01550148893147707 0.019971370697021484 -0.008020223118364811 0.0003425569157116115 -1.0498147010803223 1 True True
17453.37 3.2002782821655273 -1.3369921755841752 1.6304200331317347 -1.864087244073385 -1.5707247892962855 0.2467605322599411 -0.5364495515823364 -0.016295911744236946 0.020184634253382683 -0.004486394580453634 0.0005761062493547797 -1.0448198318481445 1 True True
17453.42 3.174407482147217 -1.33779592931781 1.631371800099508 -1.8643700085081996 -1.5707810560809534 0.1962978094816208 -0.5015570521354675 -0.015301069244742393 0.020340416580438614 -0.003329439088702202 0.0007366298814304173 -0.9763636589050293 1 True True
17453.469999999998 3.1501176357269287 -1.338442162876465 1.6323302427874964 -1.8645125828185023 -1.570801083241598 0.14945730566978455 -0.4646924138069153 -0.014537275768816471 0.01895938441157341 -0.0014737723395228386 0.0021168545354157686 -0.9070755839347839 1 True True
