Andreas691667/Digital_Twin_UR/data_analysis/test_results/robot_data/robot_output.csv
timestamp actual_q_0 actual_q_1 actual_q_2 actual_q_3 actual_q_4 actual_q_5 actual_qd_0 actual_qd_1 actual_qd_2 actual_qd_3 actual_qd_4 actual_qd_5 safety_status output_bit_register_65 output_bit_register_66
15288.508 3.712066888809204 -0.8255127233317872 0.8429678122149866 -1.588273664514059 -1.5707805792437952 2.1412839889526367 0.0 0.0 0.0 -0.0 0.0 0.0 1 False False
15288.557999999999 3.7120444774627686 -0.825463132267334 0.8430007139789026 -1.5882297954955042 -1.5708168188678187 2.141336679458618 0.0 0.0 0.0 -0.0 0.0 0.0 1 False False
15288.608 3.7120907306671143 -0.8254290384105225 0.8430126349078577 -1.5882774792113246 -1.5707843939410608 2.141296148300171 0.0 0.0 0.0 -0.0 0.0 0.0 1 False False
15288.658 3.712066888809204 -0.8254380983165284 0.8430007139789026 -1.5883013210692347 -1.570801083241598 2.141258955001831 0.0 0.0 0.0 -0.0 0.0 0.0 1 False False
15288.707999999999 3.7121024131774902 -0.8254838746837159 0.8429721037494105 -1.5882812939085902 -1.570801083241598 2.141226291656494 0.0 0.0 0.0 -0.0 0.0 0.0 1 False False
15288.758 3.7120578289031982 -0.8254587215236207 0.8430050055133265 -1.5882774792113246 -1.5708254019366663 2.1413261890411377 0.0 0.0 0.0 -0.0 0.0 0.0 1 False False
15288.807999999999 3.7121145725250244 -0.8254127663424988 0.8429754416095179 -1.5883332691588343 -1.570772949849264 2.1413040161132812 0.0 0.0 0.0 -0.0 0.0 0.0 1 False False
15288.858 3.712066888809204 -0.8254380387118836 0.8429887930499476 -1.5883094273009242 -1.5708211104022425 2.141254425048828 0.0 0.0 0.0 -0.0 0.0 0.0 1 False False
15288.908 3.712062358856201 -0.8254913848689576 0.8429563681231897 -1.588285585443014 -1.5707967917071741 2.141308546066284 0.0 0.0 0.0 -0.0 0.0 0.0 1 False False
15288.957999999999 3.7120742797851562 -0.8254993718913575 0.8429935614215296 -1.5882932148375453 -1.570784870778219 2.141279697418213 0.0 0.0 0.0 -0.0 0.0 0.0 1 False False
15289.008 3.7120490074157715 -0.825508252983429 0.842987362538473 -1.5882817707457484 -1.5707605520831507 2.1412603855133057 0.0 0.0 0.0 -0.0 0.0 0.0 1 False False
15289.057999999999 3.7120773792266846 -0.8255409759334107 0.8429892698871058 -1.5883127651610316 -1.5707925001727503 2.1412720680236816 0.0 0.0 0.0 -0.0 0.0 0.0 1 False False
15289.108 3.712087631225586 -0.8254006665996094 0.8429845015155237 -1.5882932148375453 -1.5707805792437952 2.141313076019287 0.0 0.0 0.0 -0.0 0.0 0.0 1 False False
15289.158 3.7120325565338135 -0.8254706424525757 0.8429964224444788 -1.588313718835348 -1.5708373228656214 2.141295909881592 0.0 0.0 0.0 -0.0 0.0 0.0 1 False False
15289.207999999999 3.7120773792266846 -0.8255083721927186 0.8429802099810999 -1.5882536373534144 -1.5707686583148401 2.141275405883789 0.0 0.0 0.0 -0.0 0.0 0.0 1 False False
15289.258 3.712111234664917 -0.8254587215236207 0.8429935614215296 -1.5882731876769007 -1.5707648436175745 2.141295909881592 0.0 0.0 0.0 -0.0 0.0 0.0 1 False False
15289.307999999999 3.712127685546875 -0.8254675430110474 0.8430503050433558 -1.588268896142477 -1.5707648436175745 2.141313076019287 0.0 0.0 0.0 -0.0 0.0 0.0 1 False False
15289.358 3.7121145725250244 -0.8254423898509522 0.8430054823504847 -1.5882817707457484 -1.570813004170553 2.141287088394165 0.0 0.0 0.0 -0.0 0.0 0.0 1 False False
15289.408 3.7121024131774902 -0.8255003255656739 0.8429754416095179 -1.5882774792113246 -1.5707767645465296 2.141279697418213 0.0 0.0 0.0 -0.0 0.0 0.0 1 False False
15289.457999999999 3.7121188640594482 -0.825463132267334 0.8429587523089808 -1.5882731876769007 -1.5708416144000452 2.141275405883789 0.0 0.0 0.0 -0.0 0.0 0.0 1 False False
15289.508 3.712099313735962 -0.8254750531962891 0.8429854551898401 -1.588269372979635 -1.5708087126361292 2.141279697418213 0.0 0.0 0.0 -0.0 0.0 0.0 1 False False
15289.557999999999 3.7120654582977295 -0.8255455058864136 0.8429935614215296 -1.5882731876769007 -1.570801083241598 2.1412839889526367 0.0 0.0 0.0 -0.0 0.0 0.0 1 False False
15289.608 3.71207857131958 -0.825451211338379 0.8430426756488245 -1.5883013210692347 -1.570784870778219 2.1413004398345947 0.0 0.0 0.0 -0.0 0.0 0.0 1 False False
15289.658 3.7121188640594482 -0.8254615825465699 0.842992130910055 -1.5882889233031214 -1.5707929770099085 2.1412720680236816 0.0 0.0 0.0 -0.0 0.0 0.0 1 False False
15289.707999999999 3.7120819091796875 -0.8254587215236207 0.8430007139789026 -1.5883013210692347 -1.5707805792437952 2.1413047313690186 0.0 0.0 0.0 -0.0 0.0 0.0 1 False False
15289.758 3.7120535373687744 -0.825466052894928 0.8429935614215296 -1.5882889233031214 -1.570801083241598 2.141284227371216 0.0 0.0 0.0 -0.0 0.0 0.0 1 False False
15289.807999999999 3.712118625640869 -0.8254913848689576 0.8429802099810999 -1.5882536373534144 -1.5707891623126429 2.141279697418213 0.0 0.0 0.0 -0.0 0.0 0.0 1 False False
15289.858 3.71207857131958 -0.8254587215236207 0.8430126349078577 -1.5882331333556117 -1.570801083241598 2.141247034072876 0.0 0.0 0.0 -0.0 0.0 0.0 1 False False
15289.908 3.712066650390625 -0.825437919502594 0.8429854551898401 -1.5882889233031214 -1.5708087126361292 2.1413004398345947 0.0 0.0 0.0 -0.0 0.0 0.0 1 False False
15289.957999999999 3.712106704711914 -0.8255335849574585 0.8430216948138636 -1.5882331333556117 -1.5708044211017054 2.1413350105285645 0.0 0.0 0.0 -0.0 0.0 0.0 1 False False
15290.008 3.7120370864868164 -0.8254496616176148 0.8429673353778284 -1.588297029534811 -1.5708091894732874 2.141235113143921 0.0 0.0 0.0 -0.0 0.0 0.0 1 False False
15290.057999999999 3.7120742797851562 -0.8254543107799073 0.8429587523089808 -1.5882774792113246 -1.5707805792437952 2.141279697418213 0.0 0.0 0.0 -0.0 0.0 0.0 1 False False
15290.108 3.7120580673217773 -0.8254468601993104 0.8429673353778284 -1.5882374248900355 -1.5707767645465296 2.141275405883789 0.0 0.0 0.0 -0.0 0.0 0.0 1 False False
15290.158 3.712082862854004 -0.8255171936801453 0.8430126349078577 -1.5882607899107875 -1.570784870778219 2.1412885189056396 0.0 0.0 0.0 -0.0 0.0 0.0 1 False False
15290.207999999999 3.7120296955108643 -0.8254914444736023 0.842987362538473 -1.5882932148375453 -1.5707648436175745 2.14123797416687 0.0 0.0 0.0 -0.0 0.0 0.0 1 False False
15290.258 3.7120537757873535 -0.825463132267334 0.8429892698871058 -1.588297029534811 -1.570801083241598 2.1412720680236816 0.0 0.0 0.0 -0.0 0.0 0.0 1 False False
15290.307999999999 3.7120001316070557 -0.825463132267334 0.8430054823504847 -1.5882607899107875 -1.5707724730121058 2.1413381099700928 0.0 0.0 0.0 -0.0 0.0 0.0 1 False False
15290.358 3.712062358856201 -0.8254839342883606 0.8429673353778284 -1.588320871392721 -1.5707686583148401 2.1412839889526367 0.0 0.0 0.0 -0.0 0.0 0.0 1 False False
15290.408 3.7120699882507324 -0.8254543107799073 0.8429630438434046 -1.5882774792113246 -1.570784870778219 2.141247034072876 0.0 0.0 0.0 -0.0 0.0 0.0 1 False False
15290.457999999999 3.712090492248535 -0.8254913848689576 0.8429563681231897 -1.588285585443014 -1.5707767645465296 2.1412558555603027 0.0 0.0 0.0 -0.0 0.0 0.0 1 False False
15290.508 3.712115526199341 -0.8254913848689576 0.8430097738849085 -1.5882731876769007 -1.570796314870016 2.1413040161132812 0.0 0.0 0.0 -0.0 0.0 0.0 1 False False
15290.557999999999 3.7120416164398193 -0.8254587811282654 0.8430288473712366 -1.5882731876769007 -1.5708168188678187 2.1413004398345947 0.0 0.0 0.0 -0.0 0.0 0.0 1 False False
15290.608 3.712111234664917 -0.8254542511752625 0.8429673353778284 -1.588205476800436 -1.5707524458514612 2.141279697418213 -1.601684144723266e-41 0.0 0.0 -0.0 0.0 0.0 1 False False
15290.658 3.712070941925049 -0.8255046767047425 0.8430412451373499 -1.5882412395873011 -1.5707891623126429 2.1413135528564453 0.0 0.0 0.0 -0.0 0.0 0.0 1 False False
15290.707999999999 3.712045907974243 -0.8254869741252442 0.8429763952838343 -1.588285585443014 -1.5708087126361292 2.141267776489258 0.0 0.0 0.0 -0.0 0.0 0.0 1 False False
15290.758 3.71207857131958 -0.825463132267334 0.8429473082171839 -1.588325639764303 -1.5707805792437952 2.141291618347168 0.0 0.0 0.0 -0.0 0.0 0.0 1 False False
15290.807999999999 3.71207857131958 -0.8255173128894349 0.8429964224444788 -1.5882774792113246 -1.5707724730121058 2.141321897506714 0.0 0.0 0.0 -0.0 0.0 0.0 1 False False
15290.858 3.7120537757873535 -0.8254949611476441 0.8429802099810999 -1.5882412395873011 -1.570853058491842 2.1412839889526367 0.0 0.0 0.0 -0.0 0.0 0.0 1 False False
15290.908 3.712062358856201 -0.8255156439593812 0.8430331389056605 -1.588313718835348 -1.5707929770099085 2.1412930488586426 0.0 0.0 0.0 -0.0 0.0 0.0 1 False False
15290.957999999999 3.7120862007141113 -0.8254512709430237 0.842992130910055 -1.5883094273009242 -1.5707810560809534 2.141242504119873 0.0 0.0 0.0 -0.0 0.0 0.0 1 False False
15291.008 3.712111234664917 -0.8254543107799073 0.8429635206805628 -1.5882650814452113 -1.5708254019366663 2.141317367553711 0.0 0.0 0.0 -0.0 0.0 0.0 1 False False
15291.057999999999 3.7120611667633057 -0.825488345032074 0.8429845015155237 -1.5883094273009242 -1.5708487669574183 2.1412885189056396 0.0 0.0 0.0 -0.0 0.0 0.0 1 False False
15291.108 3.7120742797851562 -0.825495795612671 0.8430007139789026 -1.5882731876769007 -1.570801083241598 2.14132022857666 0.0 0.0 0.0 -0.0 0.0 0.0 1 False False
15291.158 3.712070941925049 -0.8254750531962891 0.8429477850543421 -1.5882846317686976 -1.570772949849264 2.1412513256073 0.0 0.0 0.0 -0.0 0.0 0.0 1 False False
15291.207999999999 3.712050199508667 -0.8255083721927186 0.8429606596576136 -1.5882731876769007 -1.5708211104022425 2.141317367553711 0.0 0.0 0.0 -0.0 0.0 0.0 1 False False
15291.258 3.7120609283447266 -0.825437919502594 0.842959229146139 -1.5883170566954554 -1.570813004170553 2.141313076019287 0.0 0.0 0.0 -0.0 0.0 0.0 1 False False
15291.307999999999 3.712062358856201 -0.8254913848689576 0.8430135885821741 -1.588252683679098 -1.570801083241598 2.141270637512207 0.0 0.0 0.0 -0.0 0.0 0.0 1 False False
15291.358 3.7120981216430664 -0.8254905504039307 0.8430007139789026 -1.5882731876769007 -1.570813004170553 2.141218900680542 0.0 0.0 0.0 -0.0 0.0 0.0 1 False False
15291.408 3.712127923965454 -0.8255410355380555 0.8430007139789026 -1.5882731876769007 -1.570801083241598 2.1412720680236816 0.0 0.0 0.0 -0.0 0.0 0.0 1 False False
15291.457999999999 3.7120609283447266 -0.8254423898509522 0.8430007139789026 -1.5882774792113246 -1.570784870778219 2.141263484954834 0.0 0.0 0.0 -0.0 0.0 0.0 1 False False
15291.508 3.7120323181152344 -0.8254913848689576 0.8430007139789026 -1.588269372979635 -1.5707648436175745 2.141324996948242 0.0 0.0 0.0 -0.0 0.0 0.0 1 False False
15291.557999999999 3.7120862007141113 -0.8254468005946656 0.8430169264422815 -1.5882607899107875 -1.5707529226886194 2.14123797416687 0.0 0.0 0.0 -0.0 0.0 0.0 1 False False
15291.608 3.712095022201538 -0.8254750531962891 0.8429845015155237 -1.5883170566954554 -1.570829216633932 2.141242504119873 0.0 0.0 0.0 -0.0 0.0 0.0 1 False False
15291.658 3.7120742797851562 -0.8254587215236207 0.8430169264422815 -1.5883013210692347 -1.5707891623126429 2.141235113143921 0.0 0.0 0.0 -0.0 0.0 0.0 1 False False
15291.707999999999 3.7120113372802734 -0.825463132267334 0.8429878393756312 -1.588280817071432 -1.570813004170553 2.141313076019287 0.0 0.0 0.0 -0.0 0.0 0.0 1 False False
15291.758 3.712123394012451 -0.8254779142192383 0.8429964224444788 -1.5882607899107875 -1.5708616415606897 2.141267776489258 0.0 0.0 0.0 -0.0 0.0 0.0 1 False False
15291.807999999999 3.7120654582977295 -0.8255084317973633 0.8430083433734339 -1.588297029534811 -1.5707648436175745 2.141324996948242 0.0 0.0 0.0 -0.0 0.0 0.0 1 False False
15291.858 3.712106943130493 -0.8255157035640259 0.8429434935199183 -1.5882932148375453 -1.5708087126361292 2.141279697418213 0.0 0.0 0.0 -0.0 0.0 0.0 1 False False
15291.908 3.7120728492736816 -0.8254735630801697 0.842959229146139 -1.5882932148375453 -1.570784870778219 2.141242504119873 0.0 0.0 0.0 -0.0 0.0 0.0 1 False False
15291.957999999999 3.712066888809204 -0.825463132267334 0.8429802099810999 -1.588269372979635 -1.570756737385885 2.141284227371216 0.0 0.0 0.0 -0.0 0.0 0.0 1 False False
15292.008 3.7121145725250244 -0.8254869741252442 0.8429678122149866 -1.588285585443014 -1.5707324186908167 2.141251564025879 0.0 0.0 0.0 -0.0 0.0 0.0 1 False False
15292.057999999999 3.712071180343628 -0.8254869741252442 0.8430169264422815 -1.5882607899107875 -1.5707805792437952 2.1412394046783447 0.0 0.0 0.0 -0.0 0.0 0.0 1 False False
15292.108 3.7120578289031982 -0.8254497212222596 0.8429964224444788 -1.5882774792113246 -1.570784870778219 2.141247034072876 0.0 0.0 0.0 -0.0 0.0 0.0 1 False False
15292.158 3.712120532989502 -0.8254587215236207 0.8430212179767054 -1.58825745205068 -1.5707486311541956 2.1412930488586426 0.0 0.0 0.0 -0.0 0.0 0.0 1 False False
15292.207999999999 3.712111473083496 -0.8254542511752625 0.8429845015155237 -1.5883170566954554 -1.570845905934469 2.141313076019287 0.0 0.0 0.0 -0.0 0.0 0.0 1 False False
15292.258 3.712095260620117 -0.8255171340755005 0.8430126349078577 -1.5882774792113246 -1.570813004170553 2.1412558555603027 0.0 0.0 0.0 -0.0 0.0 0.0 1 False False
15292.307999999999 3.712104082107544 -0.8255069416812439 0.8430212179767054 -1.588229318658346 -1.5707805792437952 2.1412839889526367 0.0 0.0 0.0 -0.0 0.0 0.0 1 False False
15292.358 3.712087869644165 -0.8254648011973877 0.8429759184466761 -1.5882374248900355 -1.5707805792437952 2.141287088394165 0.0 0.0 0.0 -0.0 0.0 0.0 1 False False
15292.408 3.71207594871521 -0.825463132267334 0.8430216948138636 -1.5883094273009242 -1.5708168188678187 2.1413040161132812 0.0 0.0 0.0 -0.0 0.0 0.0 1 False False
15292.457999999999 3.7120697498321533 -0.8254750531962891 0.8430498282061976 -1.5882655582823695 -1.5707686583148401 2.141295909881592 0.0 0.0 0.0 -0.0 0.0 0.0 1 False False
15292.508 3.712041139602661 -0.8255171340755005 0.8429473082171839 -1.5882498226561488 -1.5707925001727503 2.1413004398345947 0.0 0.0 0.0 -0.0 0.0 0.0 1 False False
15292.557999999999 3.7120578289031982 -0.8254379791072388 0.8429802099810999 -1.5883132419981898 -1.570784870778219 2.141279697418213 0.0 0.0 0.0 -0.0 0.0 0.0 1 False False
15292.608 3.712045669555664 -0.8254617017558594 0.8429845015155237 -1.5883013210692347 -1.5707767645465296 2.141295909881592 0.0 0.0 0.0 -0.0 0.0 0.0 1 False False
15292.658 3.7120697498321533 -0.8254906100085755 0.8429935614215296 -1.5883294544615687 -1.5707686583148401 2.141270637512207 0.0 0.0 0.0 -0.0 0.0 0.0 1 False False
15292.707999999999 3.71205472946167 -0.8254824441722413 0.8429630438434046 -1.5882650814452113 -1.5708048979388636 2.141235113143921 0.0 0.0 0.0 -0.0 0.0 0.0 1 False False
15292.758 3.7121071815490723 -0.8254823845675965 0.8429845015155237 -1.5882531605162562 -1.5707929770099085 2.141267776489258 0.0 0.0 0.0 -0.0 0.0 0.0 1 False False
15292.807999999999 3.712066888809204 -0.8254882258227845 0.8430054823504847 -1.588292738000387 -1.5707648436175745 2.141230821609497 0.0 0.0 0.0 -0.0 0.0 0.0 1 False False
15292.858 3.7120578289031982 -0.825554148559906 0.8429935614215296 -1.5882612667479457 -1.57074481645693 2.1412720680236816 0.0 0.0 0.0 -0.0 0.0 0.0 1 False False
15292.908 3.712083339691162 -0.8254956764033814 0.8430216948138636 -1.5882774792113246 -1.570813004170553 2.141279697418213 0.0 0.0 0.0 -0.0 0.0 0.0 1 False False
15292.957999999999 3.712038278579712 -0.8255691093257447 0.8430126349078577 -1.5882655582823695 -1.5708258787738245 2.141317367553711 0.0 0.0 0.0 -0.0 0.0 0.0 1 False False
15293.008 3.7120907306671143 -0.8254906100085755 0.8430007139789026 -1.588269372979635 -1.5707967917071741 2.141263484954834 0.0 0.0 0.0 -0.0 0.0 0.0 1 False False
15293.057999999999 3.7120249271392822 -0.825454370384552 0.8429845015155237 -1.588297029534811 -1.5708254019366663 2.141275405883789 0.0 0.0 0.0 -0.0 0.0 0.0 1 False False
15293.108 3.712066888809204 -0.825454370384552 0.8429802099810999 -1.588245531121725 -1.5707925001727503 2.141279697418213 0.0 0.0 0.0 -0.0 0.0 0.0 1 False False
15293.158 3.7120532989501953 -0.8254707020572205 0.8429754416095179 -1.588313718835348 -1.5707648436175745 2.141279697418213 0.0 0.0 0.0 -0.0 0.0 0.0 1 False False
15293.207999999999 3.7120249271392822 -0.82550002754245 0.8429673353778284 -1.5882731876769007 -1.570784870778219 2.141263484954834 0.0 0.0 0.0 -0.0 0.0 -1.295395226565024e-15 1 False False
15293.258 3.712012529373169 -0.8254544299891968 0.8429587523089808 -1.5883094273009242 -1.5707600752459925 2.141308546066284 0.0 0.0 0.0 -0.0 0.0 -1.967708666654391e-34 1 False False
15293.307999999999 3.712062358856201 -0.8254780930331727 0.8429425398456019 -1.5882932148375453 -1.5707610289203089 2.1412930488586426 0.0 0.0 0.0 -0.0 0.0 -0.0 1 False False
15293.358 3.712062358856201 -0.8254869741252442 0.8429630438434046 -1.588297029534811 -1.5707600752459925 2.1412839889526367 0.0 0.0 0.0 -0.0 0.0 -0.0 1 False False
15293.408 3.7120697498321533 -0.8254869145205994 0.8429587523089808 -1.588273664514059 -1.5707805792437952 2.141324996948242 0.0 0.0 0.0 -0.0 0.0 -0.0 1 False False
15293.457999999999 3.7121026515960693 -0.8254544895938416 0.842987362538473 -1.5883251629271449 -1.570813004170553 2.1412997245788574 0.0 0.0 0.0 -0.0 0.0 -0.0 1 False False
15293.508 3.7120862007141113 -0.8254956764033814 0.8429678122149866 -1.5883094273009242 -1.570841137562887 2.141263484954834 0.0 0.0 0.0 -0.0 0.0 -0.0 1 False False
15293.557999999999 3.7120609283447266 -0.8254956764033814 0.842992130910055 -1.588245531121725 -1.570824925099508 2.141287088394165 0.0 0.0 0.0 -0.0 0.0 -0.0 1 False False
15293.608 3.7120907306671143 -0.8254425090602417 0.8429892698871058 -1.5883456669249476 -1.5707319418536585 2.1412930488586426 0.0 0.0 0.0 -0.0 0.0 -0.0 1 False False
15293.658 3.7121026515960693 -0.8254824441722413 0.8429964224444788 -1.5882650814452113 -1.5708168188678187 2.1413040161132812 0.0 0.0 0.0 -0.0 0.0 -0.0 1 False False
15293.707999999999 3.712106943130493 -0.8254381579211731 0.8429845015155237 -1.5882889233031214 -1.5707762877093714 2.141242742538452 0.0 0.0 0.0 -0.0 0.0 -0.0 1 False False
15293.758 3.712078809738159 -0.8255126041224976 0.8430126349078577 -1.5882731876769007 -1.5708168188678187 2.141279697418213 0.0 0.0 0.0 -0.0 0.0 -0.0 1 False False
15293.807999999999 3.712045669555664 -0.8254305881312867 0.842992130910055 -1.5883056126036585 -1.5708087126361292 2.141333818435669 0.0 0.0 0.0 -0.0 0.0 -0.0 1 False False
15293.858 3.7120654582977295 -0.8254956764033814 0.8429763952838343 -1.5882650814452113 -1.570784870778219 2.141267776489258 0.0 0.0 0.0 -0.0 0.0 -0.0 1 False False
15293.908 3.7120535373687744 -0.8254869741252442 0.8429630438434046 -1.5882889233031214 -1.570801083241598 2.141308546066284 0.0 0.0 0.0 -0.0 0.0 -0.0 1 False False
15293.957999999999 3.712062358856201 -0.8255038422397156 0.8429425398456019 -1.5883094273009242 -1.570784870778219 2.1412720680236816 0.0 0.0 0.0 -0.0 0.0 -0.0 1 False False
15294.008 3.7120773792266846 -0.8254499596408387 0.8429473082171839 -1.5882932148375453 -1.5707767645465296 2.141266345977783 0.0 0.0 0.0 -0.0 0.0 -0.0 1 False False
15294.057999999999 3.7120907306671143 -0.8254794043353577 0.8429845015155237 -1.5883289776244105 -1.570813004170553 2.141221761703491 0.0 0.0 0.0 -0.0 0.0 -0.0 1 False False
15294.108 3.712120294570923 -0.8254880470088501 0.8429845015155237 -1.5882774792113246 -1.5707762877093714 2.141251564025879 0.0 0.0 0.0 -0.0 0.0 -0.0 1 True False
15294.158 3.712035894393921 -0.8254913252643128 0.8430126349078577 -1.5882483921446742 -1.5707967917071741 2.1413650512695312 0.0 0.0 0.0 -0.0 0.0 -1.5755466264977258e-08 1 True False
15294.207999999999 3.7120325565338135 -0.8254780930331727 0.8430216948138636 -1.588245531121725 -1.5707925001727503 2.141275405883789 0.0 0.0 0.0 -0.0 0.0 -2.3932585787297486e-27 1 True False
15294.258 3.712106943130493 -0.8254913252643128 0.8430126349078577 -1.5883051357665003 -1.5707967917071741 2.1412839889526367 0.0 0.0 0.0 -0.0 0.0 -0.0 1 True False
15294.307999999999 3.712106943130493 -0.8254956764033814 0.8429978529559534 -1.588252683679098 -1.5707810560809534 2.141308546066284 0.0 0.0 0.0 -0.0 0.0 -0.0 1 True False
15294.358 3.712111234664917 -0.8254869741252442 0.8430007139789026 -1.5882731876769007 -1.5707605520831507 2.141226291656494 9.100299723854843e-13 0.0 0.0 -0.0 0.0 -0.0 1 True False
15294.408 3.7120907306671143 -0.8255244654468079 0.8429678122149866 -1.5882932148375453 -1.5708087126361292 2.141258955001831 0.0 0.0 0.0 -0.0 0.0 -0.0 1 True False
15294.457999999999 3.7120819091796875 -0.8254588407329102 0.8429845015155237 -1.5883532963194789 -1.570784870778219 2.14123797416687 0.0 0.0 0.0 -0.0 0.0 -0.0 1 True False
15294.508 3.712127447128296 -0.8255125445178528 0.8429964224444788 -1.5882607899107875 -1.5707967917071741 2.1412839889526367 0.0 0.0 0.0 -0.0 0.0 -0.0 1 True False
15294.557999999999 3.7120862007141113 -0.8254499596408387 0.8430259863482874 -1.5882607899107875 -1.5707767645465296 2.1412482261657715 0.0 0.0 0.0 -0.0 0.0 -7.040574564598501e-05 1 True False
15294.608 3.712111234664917 -0.8254305881312867 0.8429887930499476 -1.588280817071432 -1.570784870778219 2.141237735748291 0.0 0.0 0.0 -0.0 0.0 -0.000764891505241394 1 True False
15294.658 3.712071180343628 -0.8254662317088624 0.8430007139789026 -1.5882846317686976 -1.5708254019366663 2.1413040161132812 0.0 0.0 0.0 -0.0 -3.7358887539085117e-07 -5.811207302031107e-05 1 True False
15294.707999999999 3.712106943130493 -0.8254869741252442 0.8430169264422815 -1.5882450542845667 -1.5707891623126429 2.141287088394165 0.0 0.0 0.0 -0.0 -5.473628772456607e-10 -6.837826131616557e-23 1 True False
15294.758 3.712430477142334 -0.8256986302188416 0.8433616797076624 -1.5883571110167445 -1.5707724730121058 2.1416637897491455 0.031493332237005234 -0.0206025168299675 0.03241320699453354 -0.009790225885808468 -0.00030104824691079557 0.03269632160663605 1 True False
15294.807999999999 3.7155263423919678 -0.8280636829188843 0.8467543760882776 -1.5893341503539027 -1.5707843939410608 2.1448121070861816 0.09144791215658188 -0.07310274243354797 0.1056678518652916 -0.0290034431964159 -1.1647594725446962e-17 0.09080567955970764 1 True False
15294.858 3.721839427947998 -0.8332078617862244 0.854034725819723 -1.591412206689352 -1.570784870778219 2.1509313583374023 0.15335515141487122 -0.13082657754421234 0.1755094677209854 -0.05204133316874504 -1.7692719973590715e-36 0.14954735338687897 1 True False
15294.908 3.730924129486084 -0.8410409849933167 0.8645651976214808 -1.5943509540953578 -1.5708406607257288 2.1601648330688477 0.21345435082912445 -0.17423345148563385 0.2498968094587326 -0.06248399615287781 -0.0 0.21023079752922058 1 True False
15294.957999999999 3.7432937622070312 -0.8510741156390687 0.8786008993731897 -1.5981909237303675 -1.5707486311541956 2.1723508834838867 0.2708546817302704 -0.22652140259742737 0.3160279095172882 -0.09417343139648438 -0.0 0.27429601550102234 1 True False
15295.008 3.758507013320923 -0.8636825245669861 0.8959930578814905 -1.6030870876707972 -1.5707724730121058 2.1876769065856934 0.3345881402492523 -0.2771356701850891 0.3841540217399597 -0.10041861981153488 5.361382136470638e-05 0.33428192138671875 1 True False
15295.057999999999 3.776923894882202 -0.8788281840137024 0.9170845190631312 -1.608896394769186 -1.5708048979388636 2.2058913707733154 0.3946606516838074 -0.32595711946487427 0.44671663641929626 -0.1185193583369255 5.90521240771886e-19 0.4033221900463104 1 True False
15295.108 3.7981386184692383 -0.8964477938464661 0.9414990584002894 -1.6158257923521937 -1.5707648436175745 2.227544069290161 0.45945656299591064 -0.3801650106906891 0.5226019620895386 -0.13742543756961823 3.855435716104694e-05 0.449057012796402 1 True False
15295.158 3.8227267265319824 -0.9167218965343018 0.9693849722491663 -1.6235891781248988 -1.5707691351519983 2.2519595623016357 0.5148098468780518 -0.4321080446243286 0.5898739099502563 -0.1575862467288971 -3.5095300333253454e-15 0.5154232382774353 1 True False
15295.207999999999 3.850369930267334 -0.939211444263794 1.0009811560260218 -1.6322304211058558 -1.570732895527975 2.279494285583496 0.5873323082923889 -0.47742146253585815 0.6607891917228699 -0.1825663149356842 -1.1950170852870201e-09 0.5808480978012085 1 True False
15295.258 3.8807926177978516 -0.9644450706294556 1.0358522574054163 -1.6421872578062953 -1.5707610289203089 2.310054302215576 0.6471970081329346 -0.5221878886222839 0.7339332699775696 -0.20436757802963257 -6.0760350606869906e-05 0.6429528594017029 1 True False
15295.307999999999 3.9144797325134277 -0.992133156662323 1.0743134657489222 -1.652924200097555 -1.5708377997027796 2.343604803085327 0.7086732983589172 -0.5847073793411255 0.7964487075805664 -0.21220582723617554 -2.5162362362607382e-05 0.7034128904342651 1 True False
15295.358 3.951157808303833 -1.0223446053317566 1.1161053816424769 -1.6645599804320277 -1.5708091894732874 2.3804516792297363 0.7651286125183105 -0.6270540356636047 0.8769081234931946 -0.24822014570236206 0.00015074868861120194 0.7583465576171875 1 True False
15295.408 3.9909441471099854 -1.054938868885376 1.1615069548236292 -1.677441259423727 -1.5707648436175745 2.420152187347412 0.8227295875549316 -0.6831175684928894 0.9412705898284912 -0.2663193941116333 1.2374431324511495e-20 0.8178579211235046 1 True False
15295.457999999999 4.033660411834717 -1.0902653497508545 1.2105925718890589 -1.6909519634642542 -1.5707805792437952 2.4627909660339355 0.8823928833007812 -0.7274452447891235 1.0179240703582764 -0.26503247022628784 1.8796793392698804e-39 0.8958219289779663 1 True False
15295.508 4.079195499420166 -1.1277798575213929 1.2625706831561487 -1.7055922947325648 -1.5707452932940882 2.5084598064422607 0.918156623840332 -0.7475266456604004 1.0449923276901245 -0.2998456060886383 0.0005353771848604083 0.9122535586357117 1 True False
15295.557999999999 4.125040531158447 -1.1654602152160187 1.3147576490985315 -1.72003235439443 -1.5707925001727503 2.5540590286254883 0.9165059924125671 -0.7531118988990784 1.052452564239502 -0.2960657477378845 -0.00021768301667179912 0.9210250377655029 1 True False
15295.608 4.170852184295654 -1.203189806347229 1.3670576254474085 -1.734591623345846 -1.5707805792437952 2.6000754833221436 0.9186280369758606 -0.7559740543365479 1.0433473587036133 -0.27661338448524475 -0.00036545059992931783 0.9156540036201477 1 True False
15295.658 4.216682434082031 -1.2408309441855927 1.419387165700094 -1.7496267757811488 -1.570829216633932 2.645657777786255 0.9126542210578918 -0.7556021809577942 1.0417650938034058 -0.30218505859375 -0.000195422355318442 0.9201481938362122 1 True False
15295.707999999999 4.262461185455322 -1.278574989443161 1.4716852347003382 -1.7640253506102503 -1.5708006064044397 2.6917080879211426 0.9162710309028625 -0.7503545880317688 1.0478906631469727 -0.29065877199172974 0.00014245697821024805 0.9176415205001831 1 True False
15295.758 4.308286190032959 -1.3162883979133149 1.5242093245135706 -1.778496881524557 -1.5707805792437952 2.737396001815796 0.9110332727432251 -0.7521070837974548 1.057062029838562 -0.2706203758716583 0.00011985232413280755 0.9131022691726685 1 True False
15295.807999999999 4.353760242462158 -1.3538712573102494 1.5761988798724573 -1.79311003307485 -1.570756737385885 2.782973527908325 0.8925552368164062 -0.7285934090614319 1.0077877044677734 -0.31134939193725586 5.709155208050848e-14 0.8850165605545044 1 True False
15295.858 4.396480560302734 -1.388900415306427 1.6248377005206507 -1.806648393670553 -1.5708087126361292 2.8256893157958984 0.8279896378517151 -0.6806487441062927 0.9425897598266602 -0.2838217616081238 -0.00017284652858506888 0.818131685256958 1 True False
15295.908 4.436128616333008 -1.4216115486672898 1.670192066823141 -1.8195392094054164 -1.5707843939410608 2.865262269973755 0.7629960775375366 -0.6306132078170776 0.86551433801651 -0.25890854001045227 -0.0005865527782589197 0.7675974369049072 1 True False
15295.957999999999 4.472707748413086 -1.451812208896019 1.7121017614947718 -1.8310400448241175 -1.5707767645465296 2.9018659591674805 0.7070608139038086 -0.5775675177574158 0.7994726300239563 -0.21423952281475067 -1.0186688996327575e-05 0.7199098467826843 1 True False
15296.008 4.5063347816467285 -1.4793811452439805 1.7504680792437952 -1.8418551884093226 -1.5707891623126429 2.9355735778808594 0.6486571431159973 -0.5244858860969543 0.7346101999282837 -0.22622661292552948 0.000332382507622242 0.6453866362571716 1 True False
15296.057999999999 4.536948204040527 -1.504513458614685 1.7854035536395472 -1.8515716991820277 -1.570756737385885 2.9660704135894775 0.5858283638954163 -0.4762934446334839 0.6678930521011353 -0.17791903018951416 0.001088040298782289 0.586114764213562 1 True False
15296.108 4.564457893371582 -1.5271651347032567 1.816763703023092 -1.8602148495116175 -1.5707648436175745 2.99349308013916 0.5209031701087952 -0.43171921372413635 0.603318989276886 -0.1525620073080063 0.0004010592238046229 0.5282296538352966 1 True False
15296.158 4.588850498199463 -1.5472536024502297 1.8444884459124964 -1.868117471734518 -1.5707281271563929 3.0177955627441406 0.4595757722854614 -0.37906548380851746 0.5287438035011292 -0.1540631502866745 -1.505205560192735e-08 0.4642767310142517 1 True False
15296.207999999999 4.610165596008301 -1.5648096695407112 1.8690226713763636 -1.8750225506224574 -1.5707967917071741 3.039442777633667 0.4022029936313629 -0.3273012936115265 0.44871702790260315 -0.15642933547496796 -6.88663130858913e-05 0.3941390812397003 1 True False
15296.258 4.628364086151123 -1.579817911187643 1.8900778929339808 -1.8807531795897425 -1.5708087126361292 3.057609796524048 0.3364883363246918 -0.27456894516944885 0.3854281008243561 -0.10284378379583359 4.46249105152674e-05 0.3372141420841217 1 True False
15296.307999999999 4.64376163482666 -1.59267057994985 1.9070475737201136 -1.8857857189574183 -1.5707767645465296 3.0729281902313232 0.2790209949016571 -0.22312022745609283 0.321268767118454 -0.08428481221199036 -6.1980857363893604e-21 0.2718280851840973 1 True False
15296.358 4.655945301055908 -1.6024781666197718 1.9214962164508265 -1.8896852932372035 -1.5708048979388636 3.0850675106048584 0.2121543288230896 -0.1753627359867096 0.23834443092346191 -0.07241643965244293 -7.243426778519302e-12 0.22250103950500488 1 True False
15296.408 4.665002822875977 -1.609964510003561 1.9317439238177698 -1.8924499950804652 -1.570801083241598 3.0943150520324707 0.1562310755252838 -0.12573984265327454 0.17708055675029755 -0.041039083153009415 -1.1002784169741881e-30 0.1525164246559143 1 True False
15296.457999999999 4.671111106872559 -1.6151191196837367 1.9385374228106897 -1.894567152062887 -1.5708335081683558 3.1004154682159424 0.09330201148986816 -0.07839982211589813 0.10413496196269989 -0.03159088268876076 -0.0 0.09041211754083633 1 True False
15296.508 4.674187183380127 -1.6175152264037074 1.9421780745135706 -1.8954674206175746 -1.570824925099508 3.1033520698547363 0.03158365190029144 -0.0277460515499115 0.03460245206952095 -0.011680595576763153 -0.0 0.030874403193593025 1 True False
15296.557999999999 4.674437046051025 -1.617622514764303 1.9429009596454065 -1.8961388073363246 -1.570801083241598 3.1036787033081055 -0.0006131606642156839 0.013706776313483715 0.023939160630106926 -0.03239822015166283 -0.0 -4.3144565697872395e-10 1 True False
15296.608 4.674411773681641 -1.616443773309225 1.9450977484332483 -1.899604936639303 -1.5708449522601526 3.103698253631592 0.0003579435287974775 0.03957792744040489 0.06283058226108551 -0.10577349364757538 -0.0 0.0008879030938260257 1 True False
15296.658 4.674492359161377 -1.6137973270811976 1.9494627157794397 -1.906626363793844 -1.5707805792437952 3.103696823120117 0.000887358735781163 0.06896130740642548 0.10651476681232452 -0.17099717259407043 -0.0 0.000405515922466293 1 True False
15296.707999999999 4.67446231842041 -1.6097332439818324 1.9557974974261683 -1.9169966183104457 -1.570801083241598 3.103739023208618 0.0006206049001775682 0.09511386603116989 0.15244564414024353 -0.2529602646827698 -0.0 0.00021476269466802478 1 True False
15296.758 4.674561023712158 -1.6042810879149378 1.9645198027240198 -1.9309684238829554 -1.570784870778219 3.1037421226501465 0.0002631481911521405 0.12275466322898865 0.19073717296123505 -0.31768321990966797 5.931110354140401e-05 0.00014356868632603437 1 True False
15296.807999999999 4.6745524406433105 -1.5974561176695765 1.9753506819354456 -1.9485980472960414 -1.5707772413836878 3.1037299633026123 0.00012872567458543926 0.14822985231876373 0.24107016623020172 -0.3820003867149353 7.457900399673867e-13 9.58064993028529e-05 1 True False
15296.858 4.6746015548706055 -1.5894257030882777 1.9882410208331507 -1.969586034814352 -1.5708168188678187 3.103771686553955 8.520298433722928e-05 0.168513685464859 0.2745593190193176 -0.45508599281311035 1.1328568197292615e-31 3.647223148495193e-12 1 True False
15296.908 4.674565315246582 -1.580015321771139 2.003205124531881 -1.993866582910055 -1.5707929770099085 3.1037464141845703 1.792560971919932e-21 0.20136861503124237 0.325749009847641 -0.5289642810821533 0.0 6.479879743892525e-08 1 True False
15296.957999999999 4.674540996551514 -1.5692568145789956 2.020533863698141 -2.021914621392721 -1.5707886854754847 3.103743553161621 0.0 0.23201675713062286 0.3638814091682434 -0.5965813994407654 0.0 9.842949544764977e-27 1 True False
15297.008 4.67452335357666 -1.5582199946841975 2.0381811300860804 -2.0507222614684046 -1.5708168188678187 3.103747844696045 8.284291920568397e-17 0.20728656649589539 0.33894944190979004 -0.5524517893791199 0.0 1.401298464324817e-45 1 True False
15297.057999999999 4.674540996551514 -1.5484718561968585 2.053796116505758 -2.0762459240355433 -1.5707767645465296 3.103696823120117 -1.401298464324817e-45 0.18422140181064606 0.2932659983634949 -0.48526301980018616 0.0 0.0 1 True False
15297.108 4.674570083618164 -1.539960454483964 2.067385975514547 -2.098408361474508 -1.570784870778219 3.1037302017211914 0.0 0.15765531361103058 0.2529146075248718 -0.41082510352134705 0.0 0.0 1 True False
15297.158 4.67452335357666 -1.5327143755606194 2.078944508229391 -2.1167484722533167 -1.5707648436175745 3.103689432144165 0.0 0.12725158035755157 0.20495745539665222 -0.32764095067977905 0.0 0.0 1 True False
15297.207999999999 4.674519062042236 -1.5271014359644433 2.0880678335772913 -2.1317836246886195 -1.570857350026266 3.103776216506958 0.0 0.10006836801767349 0.16879934072494507 -0.2794414162635803 0.0 0.0 1 True False
15297.258 4.674530982971191 -1.5226810623756428 2.0950573126422327 -2.1433850727477015 -1.5707925001727503 3.103759765625 0.0 0.0755297914147377 0.12231780588626862 -0.18935634195804596 0.0 0.0 1 True False
15297.307999999999 4.6745076179504395 -1.5195553053966542 2.100201431904928 -2.1513663731017054 -1.5707925001727503 3.1037256717681885 0.0 0.047148704528808594 0.08077925443649292 -0.13920468091964722 0.0 0.0 1 True False
15297.358 4.674596786499023 -1.51787722230468 2.1030052343951624 -2.155872961083883 -1.5708168188678187 3.103739023208618 0.0 0.022742172703146935 0.03222302347421646 -0.05684627965092659 0.0 0.0 1 True False
15297.408 4.67450475692749 -1.5174384650639077 2.1036418120013636 -2.1568943462767542 -1.5707648436175745 3.103722095489502 0.0 -3.0451076327153714e-06 -4.0339464248972945e-06 0.0012815610971301794 0.0 0.0 1 True False
15297.457999999999 4.674498558044434 -1.5174135950258751 2.1035969893084925 -2.156914373437399 -1.5707805792437952 3.103684902191162 0.0 0.0 -3.529575703296829e-17 -0.00025607325369492173 0.0 -7.826400150179325e-08 1 True False
15297.508 4.674514293670654 -1.5175000143102189 2.1035969893084925 -2.1569906673827113 -1.5707443396197718 3.103684902191162 0.0 0.0 -0.0 -0.0003535189025569707 0.0 -1.1888324123559153e-26 1 True False
15297.557999999999 4.674495697021484 -1.517405954455473 2.1036255995379847 -2.1570221386351527 -1.5707891623126429 3.103743553161621 0.0 0.0003640026261564344 -0.0 -0.0015178826870396733 0.0 -3.428393029025756e-05 1 True False
15297.608 4.674514293670654 -1.5173817884973069 2.1036418120013636 -2.157017847100729 -1.5707972685443323 3.103739023208618 0.0 0.00014083409041631967 9.100565512198955e-05 -0.00022196776990313083 0.0 -2.3224574761115946e-05 1 True False
15297.658 4.674577713012695 -1.5173712198487301 2.1036418120013636 -2.15708651165151 -1.5708449522601526 3.103771686553955 -5.603868699788301e-36 0.00012642124784179032 7.4700394179672e-05 -0.0001391175901517272 0.0 -1.1988560440060782e-14 1 True False
15297.707999999999 4.674511909484863 -1.51737745970998 2.1036790052997034 -2.157018323937887 -1.5707925001727503 3.103705883026123 7.1786966562154e-13 9.321658581029624e-05 4.178355088526662e-27 -8.963175787357613e-05 0.0 -1.821065562718318e-33 1 True False
15297.758 4.6745076179504395 -1.5173948568156739 2.1036418120013636 -2.157045980493063 -1.570801083241598 3.103759765625 0.0 7.596844807267189e-05 5.253680137684569e-05 -1.202322597038119e-08 0.0 -0.0 1 True False
15297.807999999999 4.674540042877197 -1.5173948493650933 2.1036461035357874 -2.1570502720274867 -1.5708168188678187 3.103755474090576 0.0 6.458031566580757e-05 4.989442910494604e-29 -1.8263312476852277e-27 0.0 -0.0 1 True False
15297.858 4.674469947814941 -1.5174067851952096 2.103644673024313 -2.157017847100729 -1.570813004170553 3.103710174560547 0.0 8.386575781160784e-18 0.0 -0.0 0.0 -0.0 1 True False
15297.908 4.674527645111084 -1.5174276542714615 2.103649441395895 -2.1570664844908656 -1.5708006064044397 3.1037354469299316 0.0 0.0 2.0182567823212594e-05 -0.0 0.0 -0.0 1 True False
15297.957999999999 4.674535751342773 -1.5173743043890973 2.103661839162008 -2.1570340595641078 -1.570801083241598 3.103713035583496 0.0 0.0 1.419024546053514e-33 -0.0 0.0 -0.0 1 True False
15298.008 4.674584865570068 -1.517469910239317 2.1035831610309046 -2.157102247277731 -1.5707929770099085 3.1037375926971436 0.0 -0.0013174685882404447 -0.0015156455338001251 -0.0006171946879476309 0.001626495853997767 1.079666708392324e-05 1 True False
15298.057999999999 4.674490928649902 -1.517475252305605 2.103529755269186 -2.1572019062437953 -1.570784870778219 3.1037344932556152 0.0 -9.87567459168487e-18 -4.361828359833453e-06 -0.0001031246138154529 -5.155172766535543e-05 -2.946108357271271e-10 1 True False
15298.108 4.674540042877197 -1.5174503710917016 2.1035755316363733 -2.1572019062437953 -1.570772949849264 3.103726625442505 0.0 0.0006162528297863901 0.0006194467423483729 0.00045752894948236644 -2.1191563064348884e-05 -4.475146490190636e-29 1 True True
15298.158 4.674519062042236 -1.5177816946855565 2.1029937903033655 -2.1552888355650843 -1.5708487669574183 3.103771924972534 0.0 -0.022416209802031517 -0.033014509826898575 0.06328938156366348 -6.871847290312871e-05 -0.0 1 True True
15298.207999999999 4.674532413482666 -1.5198178452304383 2.0997141043292444 -2.1504727802672328 -1.5708335081683558 3.103739023208618 0.0 -0.057470858097076416 -0.09282510727643967 0.1439867615699768 -6.33090385235846e-05 -0.0 1 True True
15298.258 4.674532413482666 -1.5232129518738766 2.0943215529071253 -2.141756673852438 -1.5707967917071741 3.1037464141845703 0.0 -0.0832631066441536 -0.12692643702030182 0.20815984904766083 -5.2719590552765754e-20 -0.0 1 True True
15298.307999999999 4.674511909484863 -1.5278822009316464 2.0868471304522913 -2.129796644250387 -1.570801083241598 3.1037042140960693 0.0 -0.10586949437856674 -0.16934755444526672 0.27251264452934265 -8.008115240551107e-39 -0.0 1 True True
15298.358 4.674519062042236 -1.533868522649147 2.0773027578936976 -2.1141182384886683 -1.5707886854754847 3.103743553161621 0.0 -0.1322401463985443 -0.21468037366867065 0.3532569706439972 -0.0 -0.0 1 True True
15298.408 4.674530982971191 -1.5412261200002213 2.0653231779681605 -2.095144887963766 -1.5707686583148401 3.103788137435913 0.0 -0.15927045047283173 -0.2555571496486664 0.406577467918396 -6.634298059170136e-20 -5.932000931352377e-05 1 True True
15298.457999999999 4.67452335357666 -1.5497881614467879 2.0516026655780237 -2.072670122186178 -1.5708211104022425 3.1037302017211914 0.0 -0.18948160111904144 -0.29472750425338745 0.48264598846435547 2.059199869108852e-05 -2.2395670384867117e-05 1 True True
15298.508 4.674499988555908 -1.5598231715014954 2.0355618635760706 -2.0464583835997523 -1.570801083241598 3.1037354469299316 0.0 -0.21031473577022552 -0.3485408127307892 0.544021487236023 1.3098826457280666e-05 -1.3806034075969364e-05 1 True True
15298.557999999999 4.674516201019287 -1.5710774860777796 2.017578903828756 -2.017301698724264 -1.5708211104022425 3.103708505630493 0.0 -0.22299429774284363 -0.3541019558906555 0.5826871991157532 6.3602878519475325e-09 -9.97897132037906e-06 1 True True
15298.608 4.674535751342773 -1.5816027126707972 2.0007222334491175 -1.9899474583067835 -1.570801083241598 3.103710174560547 0.0 -0.20141366124153137 -0.322632372379303 0.5167216658592224 9.661293713887434e-28 -1.5158082595109788e-24 1 True True
15298.658 4.674519062042236 -1.5907942257323207 1.9861787001239222 -1.9659096203246058 -1.5707605520831507 3.103696823120117 0.0 -0.1685570776462555 -0.2815806567668915 0.4430099427700043 0.0 -2.2981294814927e-43 1 True True
15298.707999999999 4.67452335357666 -1.5986219845213832 1.9734151999102991 -1.945597311059469 -1.5707686583148401 3.103701114654541 0.0 -0.14480553567409515 -0.23479552567005157 0.37889936566352844 0.0 -0.0 1 True True
15298.758 4.67452335357666 -1.6051637134947718 1.963109318410055 -1.9286018810667933 -1.5708168188678187 3.103717565536499 0.0 -0.11506366729736328 -0.17954684793949127 0.3062508702278137 0.0 -0.0 1 True True
15298.807999999999 4.674549102783203 -1.6102258167662562 1.9548137823687952 -1.9152866802611292 -1.5707967917071741 3.103726625442505 0.0 -0.09136708825826645 -0.14600874483585358 0.24187888205051422 0.0 -0.0 1 True True
15298.858 4.674502849578857 -1.6141592464842738 1.9487150351153772 -1.9052406750121058 -1.5708449522601526 3.1037509441375732 0.0 -0.06618613004684448 -0.10179289430379868 0.16098079085350037 0.0 -0.0 1 True True
15298.908 4.674498558044434 -1.6165596447386683 1.9446614424334925 -1.8987194500365199 -1.5708335081683558 3.103635787963867 0.0 -0.03922092914581299 -0.05646326020359993 0.08907919377088547 0.0 -0.0 1 True True
15298.957999999999 4.674530982971191 -1.6177927456297816 1.942810360585348 -1.8957864246764125 -1.5707886854754847 3.103684902191162 0.0 -0.01048627495765686 -0.014036258682608604 0.026872649788856506 0.0 -0.0 1 True True
15299.008 4.673844337463379 -1.6176430187621058 1.9425094763385218 -1.8955708942809046 -1.5708254019366663 3.1030495166778564 -0.04618070647120476 0.010883430019021034 -0.017583204433321953 0.0021134549751877785 0.0 -0.0409449003636837 1 True True
15299.057999999999 4.669896125793457 -1.6166535816588343 1.9411819616900843 -1.8952957592406214 -1.570801083241598 3.0989840030670166 -0.11605703830718994 0.028319668024778366 -0.03504781797528267 0.010317403823137283 0.0 -0.1124279648065567 1 True True
15299.108 4.662315845489502 -1.6147762737669886 1.9386680761920374 -1.894844194451803 -1.570829216633932 3.0914418697357178 -0.18689769506454468 0.05050157383084297 -0.060148686170578 0.011982855387032032 0.0 -0.1802229881286621 1 True True
15299.158 4.651254653930664 -1.6118337116637171 1.9353669325457972 -1.8942934475340785 -1.5708211104022425 3.080537796020508 -0.25533634424209595 0.07011008262634277 -0.08182454109191895 0.01298233401030302 0.0 -0.255209743976593 1 True True
15299.207999999999 4.636807441711426 -1.607976575891012 1.9305408636676233 -1.8935710392394007 -1.5708487669574183 3.0660393238067627 -0.319630891084671 0.08777453750371933 -0.10283368825912476 0.017321752384305 -0.0001517735654488206 -0.3204714059829712 1 True True
15299.258 4.618886947631836 -1.603081842462057 1.924866024647848 -1.8926292858519496 -1.5707281271563929 3.0481088161468506 -0.39654436707496643 0.10509902983903885 -0.12875163555145264 0.017773082479834557 4.0450814749401716e-19 -0.39293172955513 1 True True
15299.307999999999 4.597462177276611 -1.5973369083800257 1.918074909840719 -1.8914243183531703 -1.5707767645465296 3.026522636413574 -0.46146973967552185 0.12369483709335327 -0.14692102372646332 0.028630204498767853 6.14448805544976e-38 -0.45910024642944336 1 True True
15299.358 4.572289943695068 -1.5907460651793421 1.9099214712726038 -1.8900944195189417 -1.5708254019366663 3.0015757083892822 -0.5272165536880493 0.13853023946285248 -0.1684148758649826 0.028665022924542427 -0.0003293914196547121 -0.5315365791320801 1 True True
15299.408 4.5438103675842285 -1.5832120380797328 1.900916878377096 -1.8886214695372523 -1.5707925001727503 2.9730920791625977 -0.6030139923095703 0.16159531474113464 -0.18694405257701874 0.030298152938485146 -2.5316509916014735e-18 -0.6043680310249329 1 True True
15299.457999999999 4.5120015144348145 -1.5748444996275843 1.890902344380514 -1.8868214092650355 -1.5708211104022425 2.9412457942962646 -0.6752163171768188 0.17932099103927612 -0.22270731627941132 0.03306092694401741 -0.0022972256410866976 -0.6753241419792175 1 True True
15299.508 4.476562976837158 -1.5654358014329155 1.8795188109027308 -1.8850299320616664 -1.5707772413836878 2.90574049949646 -0.7474620342254639 0.20119555294513702 -0.23607952892780304 0.030730610713362694 0.0002493438951205462 -0.7344338297843933 1 True True
15299.557999999999 4.437732219696045 -1.5550640814802428 1.8672149817096155 -1.8828498325743617 -1.5708325544940394 2.8668406009674072 -0.8183152079582214 0.2164286971092224 -0.25789257884025574 0.038676753640174866 -0.003716477658599615 -0.8042277693748474 1 True True
15299.608 4.395427703857422 -1.5439990770867844 1.8536227385150355 -1.8804789982237757 -1.5707610289203089 2.82470440864563 -0.8833609223365784 0.23845438659191132 -0.2759174406528473 0.05503020063042641 1.0599252586729335e-09 -0.8861963748931885 1 True True
15299.658 4.349446773529053 -1.531643697326519 1.8390477339373987 -1.8781234226622523 -1.5707972685443323 2.7785353660583496 -0.951288104057312 0.24795649945735931 -0.3032761514186859 0.05172201618552208 0.0001958551147254184 -0.9509009718894958 1 True True
15299.707999999999 4.300069808959961 -1.5187267412296315 1.8233826796161097 -1.875448843041891 -1.570772949849264 2.729309320449829 -1.0212256908416748 0.2671753466129303 -0.32372957468032837 0.05115002393722534 2.4387442882474136e-20 -1.02102530002594 1 True True
15299.758 4.24797248840332 -1.5048634272864838 1.806558911000387 -1.8725863895811976 -1.5707843939410608 2.6770806312561035 -1.0488660335540771 0.27863839268684387 -0.3355598747730255 0.05395811051130295 3.7044600086029075e-39 -1.044649600982666 1 True True
15299.807999999999 4.195553302764893 -1.4910043191960831 1.7900579611407679 -1.8698388538756312 -1.5708006064044397 2.6247241497039795 -1.0418363809585571 0.2757168114185333 -0.32723939418792725 0.056004200130701065 0.00021781629766337574 -1.0514938831329346 1 True True
15299.858 4.143110752105713 -1.4771736872247239 1.7732833067523401 -1.866920610467428 -1.5708335081683558 2.5725326538085938 -1.047795057296753 0.27979323267936707 -0.33384084701538086 0.060539018362760544 -0.00010958771599689499 -1.0523899793624878 1 True True
15299.908 4.090853691101074 -1.463118591611721 1.7566402594195765 -1.8642336330809535 -1.5708211104022425 2.520033836364746 -1.0511739253997803 0.2746233344078064 -0.33631137013435364 0.05588279291987419 4.554995030048303e-06 -1.0386713743209839 1 True True
15299.957999999999 4.038435935974121 -1.449399584238865 1.7400501410113733 -1.8613549671568812 -1.5707925001727503 2.4675841331481934 -1.0470263957977295 0.2818922698497772 -0.33055251836776733 0.056640274822711945 0.0001394495920976624 -1.0489346981048584 1 True True
15300.008 3.986050844192505 -1.435421423321106 1.723187271748678 -1.858464857141012 -1.570813004170553 2.415422201156616 -1.04464590549469 0.2737677991390228 -0.3332832157611847 0.05663241818547249 -5.462641472993887e-16 -1.0477536916732788 1 True True
15300.057999999999 3.9338762760162354 -1.4216415149024506 1.7066033522235315 -1.8558017216124476 -1.570829216633932 2.362929105758667 -1.0515869855880737 0.28073108196258545 -0.3315972685813904 0.05578934773802757 0.0001252878428203985 -1.0386781692504883 1 True True
15300.108 3.8814542293548584 -1.407680259352066 1.6899340788470667 -1.852903505364889 -1.5707810560809534 2.310488224029541 -1.0442935228347778 0.27743810415267944 -0.33760735392570496 0.056452732533216476 1.9031251983516995e-23 -1.0523109436035156 1 True True
15300.158 3.8289921283721924 -1.3939066690257569 1.6731932798968714 -1.850088735620016 -1.5707891623126429 2.2583701610565186 -1.0447731018066406 0.27607688307762146 -0.33181998133659363 0.06179966405034065 -1.0990863942533346e-16 -1.0467528104782104 1 True True
15300.207999999999 3.7767510414123535 -1.379950152044632 1.656435791646139 -1.847361227075094 -1.5707925001727503 2.205878257751465 -1.0512385368347168 0.279246062040329 -0.3388597071170807 0.058407012373209 -1.6695153667982874e-35 -1.0398547649383545 1 True True
15300.258 3.72426700592041 -1.3660729390433808 1.6399505774127405 -1.8443991146483363 -1.570853058491842 2.1534342765808105 -1.044303059577942 0.2755032777786255 -0.3368128538131714 0.05174506455659866 -0.0 -1.0480529069900513 1 True True
15300.307999999999 3.671919822692871 -1.352428899412491 1.6229966322528284 -1.8416806660094203 -1.5708087126361292 2.10127329826355 -1.0464143753051758 0.27815696597099304 -0.32776957750320435 0.05382288992404938 -0.0 -1.0529416799545288 1 True True
15300.358 3.619628667831421 -1.3382833761027833 1.6065276304828089 -1.838830133477682 -1.5708373228656214 2.0488030910491943 -1.0533452033996582 0.27339282631874084 -0.3400498330593109 0.05790790542960167 -0.0 -1.0432121753692627 1 True True
15300.408 3.5671675205230713 -1.324609563951828 1.5897687117206019 -1.8361107311644496 -1.5707972685443323 1.9963632822036743 -1.0451953411102295 0.2815802991390228 -0.3324489891529083 0.059430401772260666 -0.0 -1.05355966091156 1 True True
15300.457999999999 3.5149192810058594 -1.3105461162379761 1.5732291380511683 -1.8332282505431117 -1.5707772413836878 1.9442360401153564 -1.0450489521026611 0.2740744352340698 -0.33349236845970154 0.05791178718209267 -0.0 -1.0525851249694824 1 True True
15300.508 3.4626450538635254 -1.2968730491450806 1.5562580267535608 -1.8304811916747035 -1.5707925001727503 1.8917129039764404 -1.0530309677124023 0.2754114270210266 -0.3350802958011627 0.055868495255708694 -0.0 -1.0432076454162598 1 True True
15300.557999999999 3.4101784229278564 -1.2828626495650788 1.5398042837726038 -1.827606817285055 -1.570801083241598 1.8392311334609985 -1.0441827774047852 0.27860191464424133 -0.3305966854095459 0.05476437136530876 -0.0 -1.0433557033538818 1 True True
15300.608 3.359286308288574 -1.2695036095431824 1.5235899130450647 -1.8248030147948207 -1.5708168188678187 1.7885017395019531 -0.9776627421379089 0.25870001316070557 -0.3148334324359894 0.0564148984849453 -0.0 -0.9876852631568909 1 True True
15300.658 3.3118960857391357 -1.2569730144790192 1.5084088484393519 -1.8223744831480921 -1.5708654562579554 1.7410564422607422 -0.9149175882339478 0.2458460032939911 -0.29496443271636963 0.04975811392068863 6.921338354004547e-05 -0.911990761756897 1 True True
15300.707999999999 3.267975330352783 -1.2451239091208954 1.4945562521563929 -1.8199459515013636 -1.570813004170553 1.6973743438720703 -0.8459290862083435 0.22065198421478271 -0.2712758481502533 0.05053511634469032 0.00020373148436192423 -0.844753623008728 1 True True
15300.758 3.2277309894561768 -1.2346454423717041 1.4815567175494593 -1.8176866970457972 -1.5707686583148401 1.6568048000335693 -0.7719208598136902 0.20132893323898315 -0.2501555383205414 0.04304615035653114 0.0005501740961335599 -0.776675820350647 1 True True
15300.807999999999 3.1906890869140625 -1.2248726350120087 1.469754997883932 -1.8158580265440882 -1.570853058491842 1.6198878288269043 -0.7043672800064087 0.18927589058876038 -0.23058955371379852 0.038465701043605804 4.5039028918836266e-05 -0.7020825147628784 1 True True
15300.858 3.1572442054748535 -1.2158358854106446 1.4592450300799769 -1.8139850101866664 -1.5708611647235315 1.586498737335205 -0.6353628039360046 0.16806632280349731 -0.2010364532470703 0.02774103730916977 4.475933934600107e-08 -0.6309510469436646 1 True True
15300.908 3.1273224353790283 -1.2080456775477906 1.449681584035055 -1.8123938045897425 -1.5708416144000452 1.556534767150879 -0.5656501650810242 0.14843732118606567 -0.1827121078968048 0.03261501342058182 -0.00020402620430104434 -0.5613287687301636 1 True True
15300.957999999999 3.1009294986724854 -1.2010487479022522 1.4412191549884241 -1.8108998737730921 -1.5707805792437952 1.5301034450531006 -0.49864792823791504 0.1310104876756668 -0.1626497060060501 0.02106897346675396 -2.9032686143182218e-05 -0.49285027384757996 1 True True
15301.008 3.0780677795410156 -1.1948991876891633 1.43384296098818 -1.8097559414305628 -1.5708048979388636 1.5072400569915771 -0.4248584806919098 0.11508528888225555 -0.13353028893470764 0.023146841675043106 -1.0099618918957276e-07 -0.4275563359260559 1 True True
15301.057999999999 3.058737277984619 -1.1896826785853882 1.4276912848102015 -1.8086430035033167 -1.5707891623126429 1.487738847732544 -0.35361045598983765 0.09112933278083801 -0.11459873616695404 0.02107437513768673 0.0007253814255818725 -0.3556879758834839 1 True True
15301.108 3.042492389678955 -1.1855143767646332 1.4226849714862269 -1.8078657589354457 -1.570768181477682 1.4718124866485596 -0.2843489944934845 0.07361990213394165 -0.09260925650596619 0.020046807825565338 5.161239274506513e-13 -0.2894635796546936 1 True True
15301.158 3.0300755500793457 -1.1822646719268342 1.4185860792743128 -1.8072768650450648 -1.570857350026266 1.459276795387268 -0.22037674486637115 0.05613764375448227 -0.07110760360956192 0.01132806483656168 1.560637508113416e-09 -0.2175581306219101 1 True True
15301.207999999999 3.0211777687072754 -1.179914490585663 1.4159348646747034 -1.8066770039000453 -1.570772949849264 1.450302243232727 -0.14656288921833038 0.03909045830368996 -0.048703402280807495 0.005398306995630264 2.3706115203654505e-28 -0.1472589075565338 1 True True
15301.258 3.015622854232788 -1.1784159702113648 1.4139564673053187 -1.8064710102477015 -1.5707767645465296 1.4447880983352661 -0.07391954958438873 0.02103862352669239 -0.022223694249987602 0.006324180401861668 0.0 -0.08043304085731506 1 True True
15301.307999999999 3.0135393142700195 -1.1779373747161408 1.413426701222555 -1.8063589535155238 -1.570813004170553 1.4427926540374756 -0.006171416491270065 0.0004279349814169109 -0.0006585579249076545 0.0004207133606541902 0.0 -0.007981542497873306 1 True True
15301.358 3.013692855834961 -1.177380697136261 1.4143636862384241 -1.807648321191305 -1.5707891623126429 1.4428462982177734 2.38340351899069e-08 0.02330269291996956 0.04129213094711304 -0.06581567227840424 0.0 -0.00019051029812544584 1 True True
15301.408 3.0136361122131348 -1.1758783620646973 1.4176161924945276 -1.812801023522848 -1.570772949849264 1.4427776336669922 -0.00011827363050542772 0.04145234823226929 0.08951373398303986 -0.14509570598602295 0.0 -0.00040682352846488357 1 True True
15301.457999999999 3.0136687755584717 -1.1729972523501893 1.423455063496725 -1.8212338886656703 -1.570857350026266 1.4427733421325684 -0.0002909814065787941 0.06655795127153397 0.14166583120822906 -0.21391643583774567 0.0 -0.00042244489304721355 1 True True
15301.508 3.0135788917541504 -1.1692135793021698 1.4315713087665003 -1.8331009350218714 -1.570756737385885 1.4427242279052734 -0.0003766901500057429 0.08822395652532578 0.18902604281902313 -0.27151918411254883 -0.0001233455550391227 -0.0001911765430122614 1 True True
15301.557999999999 3.0135762691497803 -1.164233760242798 1.4421127478228968 -1.8486582241454066 -1.5707967917071741 1.4427776336669922 -0.0003553406859282404 0.11154218018054962 0.23558597266674042 -0.3475819528102875 -9.464022878091782e-05 -0.00013520802895072848 1 True True
15301.608 3.0135762691497803 -1.1579917532256623 1.454968277608053 -1.8675867519774378 -1.5707767645465296 1.4428308010101318 -0.0001590706524439156 0.12960951030254364 0.2721984088420868 -0.4051342308521271 -7.366113277385011e-05 -6.616309110540897e-05 1 True True
15301.658 3.013546943664551 -1.1508146089366456 1.4700425306903284 -1.8898927174010218 -1.5707767645465296 1.4428023099899292 -6.813756772316992e-05 0.1549897938966751 0.3276359736919403 -0.4866114556789398 -6.632951132790055e-11 -2.3304086425923742e-05 1 True True
15301.707999999999 3.0135796070098877 -1.1424806875041504 1.4876764456378382 -1.915858884850973 -1.5707686583148401 1.4428058862686157 -5.891018190595787e-06 0.1719280481338501 0.36442282795906067 -0.5443865656852722 -1.0075469402140905e-29 -1.4145906789053697e-05 1 True True
15301.758 3.013603687286377 -1.1344379049590607 1.5045884291278284 -1.9413525066771449 -1.5707891623126429 1.4427372217178345 0.0 0.15208961069583893 0.3219349980354309 -0.46952012181282043 -0.0 -1.0155327800021041e-05 1 True True
15301.807999999999 3.0135350227355957 -1.1271909338286896 1.5195053259478968 -1.962975641290182 -1.5708087126361292 1.4427820444107056 0.0 0.12826593220233917 0.27465566992759705 -0.40266701579093933 -9.426970177237905e-15 -3.140869888976632e-23 1 True True
15301.858 3.0135598182678223 -1.121319667702057 1.531827751790182 -1.981365819970602 -1.5707767645465296 1.4428178071975708 -1.888754148124848e-40 0.10606309771537781 0.23002272844314575 -0.33682066202163696 -1.4319590246743901e-33 -4.771421271026002e-42 1 True True
15301.908 3.0135555267333984 -1.1166096788695832 1.5420740286456507 -1.9962960682311 -1.5707972685443323 1.4427673816680908 0.0 0.08087456226348877 0.1786157339811325 -0.26268571615219116 -0.0 -0.0 1 True True
15301.957999999999 3.0135881900787354 -1.112895743255951 1.5496304670916956 -2.0075370273985804 -1.5707891623126429 1.4427893161773682 0.0 0.061383992433547974 0.13296492397785187 -0.2028646022081375 -0.0 -0.0 1 True True
15302.008 3.0135838985443115 -1.110379235153534 1.5549681822406214 -2.0155097446837367 -1.5707929770099085 1.4428014755249023 0.0 0.04074215516448021 0.0824287161231041 -0.11958488821983337 -0.0 -0.0 1 True True
15302.057999999999 3.013624429702759 -1.1091816288283844 1.5577071348773401 -2.0201007328429164 -1.570801083241598 1.442793607711792 0.0 0.009923097677528858 0.03085590898990631 -0.07380294799804688 0.002540356246754527 -0.0 1 True True
15302.108 3.013564348220825 -1.108938531284668 1.5581696669207972 -2.0210963688292445 -1.5708168188678187 1.4428178071975708 0.0 0.003103705821558833 0.0043068439699709415 0.0018300447845831513 -7.896211900515482e-05 -0.0 1 True True
15302.158 3.01358962059021 -1.1088859003833313 1.5583222548114222 -2.0211125812926234 -1.5708487669574183 1.4427893161773682 0.0 0.004715184215456247 0.005914939567446709 0.0012604005169123411 -3.7654284824384376e-05 -0.0 1 True True
15302.207999999999 3.0135750770568848 -1.1079907280257721 1.559526268635885 -2.02012362102651 -1.5707324186908167 1.4427733421325684 0.0 0.01049268152564764 0.01100174244493246 0.01604304648935795 0.0004769623919855803 -2.3217460529503234e-18 1 True True
15302.258 3.0136094093322754 -1.1083188217929383 1.558981720601217 -2.0207578144469203 -1.570829216633932 1.4427502155303955 0.0 -0.0011220036540180445 -0.0019194239284843206 -0.002991932211443782 6.272224709391594e-05 -0.003882375778630376 1 True False
15302.307999999999 3.0136094093322754 -1.1084555846503754 1.5588825384723108 -2.0208174190916957 -1.570784870778219 1.4427908658981323 0.0 -0.005862712394446135 -0.005526348948478699 -0.004780289717018604 7.125470347091323e-08 -5.249581658262059e-09 1 True False
15302.358 3.0135884284973145 -1.1085608762553711 1.5587614218341272 -2.0208331547179164 -1.5707529226886194 1.4428058862686157 0.0 -0.003820124315097928 -0.0035540207754820585 -0.0009569503599777818 1.0823612272403558e-26 7.40270978979735e-18 1 True False
15302.408 3.0136256217956543 -1.1086249512485047 1.5587261358844202 -2.0208331547179164 -1.5708048979388636 1.4427164793014526 0.0 -5.566858089878224e-05 -0.000432416214607656 -0.00028677258524112403 -3.65492633136455e-05 -1.0579842528367177e-16 1 True False
15302.457999999999 3.0135884284973145 -1.1088397067836304 1.5583818594561976 -2.020414491693014 -1.5708211104022425 1.442765712738037 0.0 -0.017165808007121086 -0.025544412434101105 0.0240410678088665 -2.424226659059059e-05 -1.6070805742563888e-35 1 True False
15302.508 3.0135927200317383 -1.1099832516959687 1.5560067335711878 -2.016799589196676 -1.5707925001727503 1.4427893161773682 0.0 -0.02907046675682068 -0.06447523087263107 0.10213968902826309 -5.9938486465793694e-12 -0.0 1 True False
15302.557999999999 3.0135838985443115 -1.112103597526886 1.551164452229635 -2.0097667179503382 -1.5708168188678187 1.442826509475708 0.0 -0.060003865510225296 -0.12790051102638245 0.16886158287525177 -9.104669242881542e-31 -0.0 1 True False
15302.608 3.0136125087738037 -1.1155412954143067 1.5440953413592737 -1.9991451702513636 -1.570756737385885 1.4427893161773682 0.0 -0.07636041194200516 -0.167396679520607 0.23843596875667572 -3.245724447461493e-21 -0.0 1 True False
15302.658 3.0135838985443115 -1.1201144021800538 1.534398380910055 -1.9851752720274867 -1.5708254019366663 1.4427613019943237 0.0 -0.09936071932315826 -0.20631945133209229 0.3067396581172943 -4.93025845195722e-40 -0.0 1 True False
15302.707999999999 3.013580799102783 -1.1257280272296448 1.5226429144488733 -1.967480798760885 -1.5708325544940394 1.4427571296691895 0.0 -0.1216212809085846 -0.2610017955303192 0.3940297067165375 -0.0 -0.0 1 True False
15302.758 3.0136094093322754 -1.1325900715640564 1.508301083241598 -1.9465528927245082 -1.570813004170553 1.4427525997161865 0.0 -0.14684441685676575 -0.3075445592403412 0.45833253860473633 -0.0 -0.0 1 True False
15302.807999999999 3.0136005878448486 -1.1405231815627594 1.4917123953448694 -1.9220534763731898 -1.570784870778219 1.4428263902664185 0.0 -0.17187613248825073 -0.3496836721897125 0.5197270512580872 -0.0 -0.0 1 True False
15302.858 3.0136258602142334 -1.1490282875350495 1.4737747351275843 -1.8955894909300746 -1.5707925001727503 1.4428023099899292 0.0 -0.1619320660829544 -0.33852657675743103 0.492218017578125 -0.0 3.6743791196518563e-14 1 True False
15302.908 3.0136168003082275 -1.1565276843360444 1.4582985083209437 -1.8724190197386683 -1.5708487669574183 1.4427820444107056 0.0 -0.13683702051639557 -0.28593817353248596 0.4423682987689972 -0.0 5.5813904410782276e-33 1 True False
15302.957999999999 3.0136005878448486 -1.1629297894290467 1.4448750654803675 -1.8527246914305628 -1.570784870778219 1.4428222179412842 0.0 -0.11544393748044968 -0.24021360278129578 0.35989463329315186 -0.0 0.0 1 True False
15303.008 3.0135180950164795 -1.1680785578540345 1.4337838331805628 -1.8363262615599574 -1.5708096663104456 1.4428133964538574 0.0 -0.09235409647226334 -0.19671741127967834 0.29668766260147095 -0.0 0.0 1 True False
15303.057999999999 3.0135793685913086 -1.172146276836731 1.4251869360553187 -1.8237606487669886 -1.5708048979388636 1.4428058862686157 0.0 -0.07009594887495041 -0.15388759970664978 0.22375711798667908 -0.0 0.0 1 True False
15303.108 3.0135884284973145 -1.1752258700183411 1.4189184347735804 -1.814362188378805 -1.5708048979388636 1.442753791809082 0.0 -0.049694426357746124 -0.10365556180477142 0.151346817612648 -0.0 0.0 1 True False
15303.158 3.0136377811431885 -1.177114562397339 1.415074650441305 -1.8085781536498011 -1.5708053747760218 1.442752718925476 0.0 -0.02444082498550415 -0.0600905641913414 0.07768808305263519 -0.0 0.0 1 True False
15303.207999999999 3.0135960578918457 -1.1778854590705414 1.4133828322040003 -1.8063703976073207 -1.5707724730121058 1.4428133964538574 0.0 -0.001725827227346599 -0.008002456277608871 0.012708044610917568 -0.0 0.0 1 True False
15303.258 3.013580799102783 -1.1778072577765961 1.4133995215045374 -1.8063627682127894 -1.5708487669574183 1.4427762031555176 0.0 9.226893880019682e-14 1.9529765893366857e-07 -7.570641569155587e-15 -0.0 0.0 1 False False
15303.307999999999 3.0135927200317383 -1.1777715545943757 1.4134023825274866 -1.8063513241209925 -1.5707762877093714 1.4428014755249023 0.0 1.299490719475216e-07 -0.0001045512399286963 0.0004868498654104769 -0.0 0.0 1 False False
15303.358 3.013597249984741 -1.1779062908938904 1.4134066740619105 -1.8062988720335902 -1.5707967917071741 1.442765712738037 0.0 -7.575219933642074e-05 -4.786354475072585e-05 0.0012867727782577276 -0.0 0.0 1 False False
15303.408 3.0135793685913086 -1.1778028172305604 1.4133947531329554 -1.806263109246725 -1.570784870778219 1.4427776336669922 0.0 -9.852679067989811e-05 -8.216924470616505e-05 0.0010611624456942081 -0.0 0.0 1 False False
15303.457999999999 3.0135345458984375 -1.1778609615615387 1.4133532683001917 -1.8062592945494593 -1.570853058491842 1.4427762031555176 0.0 -0.0003179438936058432 -0.00010143517283722758 0.00017974332149606198 -0.0 0.0 1 False False
15303.508 3.0135838985443115 -1.1778972011855622 1.4133947531329554 -1.8062831364073695 -1.5708053747760218 1.4427614212036133 0.0 -0.00015176378656178713 -0.00010500798816792667 0.00012448421330191195 -0.0 0.0 1 False False
15303.557999999999 3.0135674476623535 -1.1777936977199097 1.4133456389056605 -1.8062473736205042 -1.5708172957049769 1.442732810974121 0.0 -0.00010825182107510045 -9.28456211113371e-05 8.372112642973661e-05 -0.0 0.0 1 False False
15303.608 3.0136420726776123 -1.1779108506492157 1.4133876005755823 -1.80627503017568 -1.5707882086383265 1.4428176879882812 0.0 -8.623574103694409e-05 -7.754419493721798e-05 2.0726009884036722e-12 -0.0 0.0 1 False False
15303.658 3.0135838985443115 -1.1778400403312226 1.4133742491351526 -1.8062387905516566 -1.5707281271563929 1.4428263902664185 0.0 -8.217433787649497e-05 -6.503542681457475e-05 3.1482860828016643e-31 -0.0 0.0 1 False False
15303.707999999999 3.0136094093322754 -1.1778898996165772 1.4133666197406214 -1.8062836132445277 -1.5707605520831507 1.4427701234817505 0.0 -6.48173299850896e-05 -1.0857807543752142e-25 0.0 -7.092911089523556e-24 0.0 1 False False
15303.758 3.0136332511901855 -1.177873508339264 1.4134200255023401 -1.8062592945494593 -1.5707648436175745 1.442842721939087 0.0 -2.0031036291473514e-12 -0.0 0.0 -1.0775985190657843e-42 0.0 1 False False
15303.807999999999 3.0135598182678223 -1.1778927010348816 1.4133413473712366 -1.806303163568014 -1.5708053747760218 1.4427409172058105 0.0 -7.198032835731283e-05 -0.0 0.0 -0.0 0.0 1 False False
15303.858 3.0136377811431885 -1.177826390867569 1.4133666197406214 -1.8062669239439906 -1.5707967917071741 1.442842721939087 0.0 -2.9007893317611888e-05 -0.0 0.0 -0.0 0.0 1 False False
15303.908 3.013580799102783 -1.177826390867569 1.4133589903460901 -1.8062268696227015 -1.5707967917071741 1.4427571296691895 0.0 -1.6063953808043152e-05 -1.8319289933534524e-21 0.0 -0.0 0.0 1 False False
15303.957999999999 3.0136005878448486 -1.177892730837204 1.4133504072772425 -1.806223054925436 -1.5708168188678187 1.4428263902664185 0.0 -1.1107595128123648e-05 -0.0 0.0 -0.0 0.0 1 False False
15304.008 3.0135390758514404 -1.1778882306865235 1.4133546988116663 -1.8062511883177699 -1.5707643667804163 1.442752718925476 0.0 -2.1530909201708516e-36 -0.0 0.0 -0.0 0.0 1 False False
15304.057999999999 3.0135509967803955 -1.177888200884201 1.4133246580706995 -1.8062955341734828 -1.5708172957049769 1.4427978992462158 0.0 0.0 -0.0 0.0 -0.0 0.0 1 False False
15304.108 3.0135838985443115 -1.1778690379909058 1.4133084456073206 -1.8063236675658167 -1.5707891623126429 1.4428058862686157 0.0 0.0 -0.0 0.0 -0.0 0.0 1 True False
15304.158 3.0135631561279297 -1.177892730837204 1.4133995215045374 -1.8062712154784144 -1.5707643667804163 1.4428222179412842 0.0 0.0 -0.0 0.0 -0.0 3.2234478197779026e-08 1 True False
15304.207999999999 3.0135838985443115 -1.1778718394092103 1.4133456389056605 -1.8062917194762171 -1.5707767645465296 1.4427516460418701 0.0 0.0 -0.0 0.0 -0.0 4.896424971967821e-27 1 True False
15304.258 3.0136256217956543 -1.1778763097575684 1.4133504072772425 -1.8062273464598597 -1.5708048979388636 1.4427978992462158 0.0 0.0 -0.0 1.2951894036924683e-24 -0.0 1.401298464324817e-45 1 True False
15304.307999999999 3.0135838985443115 -1.1778473419002076 1.4133709112750452 -1.8063351116576136 -1.5708006064044397 1.442797064781189 0.0 0.0 -0.0 1.961817850054744e-43 -0.0 0.0 1 True False
15304.358 3.013613700866699 -1.1778971415809174 1.4133575598346155 -1.806234975854391 -1.5707643667804163 1.4427614212036133 0.0 0.0 -0.0 0.0 -0.0 0.0 1 True False
15304.408 3.0135750770568848 -1.1779045921615143 1.4133427778827112 -1.8062554798521937 -1.5707891623126429 1.4427320957183838 0.0 0.0 -0.0 0.0 -0.0 0.0 1 True False
15304.457999999999 3.0135631561279297 -1.177876279955246 1.4133947531329554 -1.806234975854391 -1.5707967917071741 1.4428058862686157 0.0 0.0 -0.0 0.0 -0.0 0.0 1 True False
15304.508 3.0135509967803955 -1.1778944593719025 1.4133756796466272 -1.8062387905516566 -1.5707691351519983 1.4427733421325684 0.0 0.0 -2.580041605029391e-15 0.0 -0.0 0.0 1 True False
15304.557999999999 3.0135796070098877 -1.1778943699649354 1.4133623282061976 -1.8062793217101039 -1.5708168188678187 1.4428023099899292 0.0 0.0 -5.605193857299268e-45 0.0 9.042279998539016e-06 -0.00013515868340618908 1 True False
15304.608 3.0135304927825928 -1.1779018503478547 1.4133589903460901 -1.8062831364073695 -1.57074481645693 1.4428091049194336 0.0 0.0 -0.0 0.0 1.3735244748722726e-24 0.002783883363008499 1 True False
15304.658 3.0135719776153564 -1.1778643888286133 1.4133947531329554 -1.8062626324095667 -1.5708087126361292 1.4428058862686157 0.0 0.0 -0.0 0.0 2.0879347118439774e-43 0.0001696973922662437 1 True False
15304.707999999999 3.013607978820801 -1.1778763395598908 1.4133918921100062 -1.8062149486937464 -1.5707686583148401 1.442768931388855 0.0 0.0 -0.0 0.0 0.0 6.152170320903799e-23 1 True False
15304.758 3.013570785522461 -1.1779108208468934 1.4133589903460901 -1.80627503017568 -1.570836369191305 1.4428101778030396 0.014648383483290672 0.0 -0.0 0.0 0.0 3.0281549697974697e-05 1 True False
15304.807999999999 3.0156664848327637 -1.1780492228320618 1.4134905974017542 -1.8062917194762171 -1.5707886854754847 1.4449000358581543 0.07795388996601105 -0.007667780388146639 0.009305877611041069 -0.0009853419614955783 0.0 0.07667969912290573 1 True False
15304.858 3.0214357376098633 -1.178465114240982 1.4140046278582972 -1.8064686260619105 -1.5707967917071741 1.4505406618118286 0.14753687381744385 -0.01116576325148344 0.013486751355230808 -0.004641839303076267 0.0 0.14554588496685028 1 True False
15304.908 3.0304603576660156 -1.1790771645358582 1.414872948323385 -1.8066817722716273 -1.5707843939410608 1.4596693515777588 0.21599180996418 -0.013252540491521358 0.02183528058230877 -0.006300854030996561 0.0 0.21348783373832703 1 True False
15304.957999999999 3.0431196689605713 -1.1798951488784333 1.416196648274557 -1.8070241413512171 -1.5708091894732874 1.47225821018219 0.2853638529777527 -0.018258949741721153 0.02736806310713291 -0.007437596097588539 4.346128480392508e-05 0.2826128602027893 1 True False
15305.008 3.059107542037964 -1.1809792679599305 1.4177048842059534 -1.807507177392477 -1.5707648436175745 1.488405466079712 0.35608676075935364 -0.02462589554488659 0.033389266580343246 -0.008723033592104912 7.192472548922524e-05 0.3526288866996765 1 True False
15305.057999999999 3.078869342803955 -1.1823932391456147 1.419558350239889 -1.8080269298949183 -1.570801083241598 1.5079405307769775 0.4250946342945099 -0.028610536828637123 0.04221291095018387 -0.011973143555223942 3.599191768444143e-05 0.4218355715274811 1 True False
15305.108 3.1017162799835205 -1.1839078527740021 1.4218180815326136 -1.8086806736388148 -1.5708044211017054 1.5310672521591187 0.4956168830394745 -0.03353901579976082 0.04683598503470421 -0.017882509157061577 3.599424962885678e-05 0.4961416721343994 1 True False
15305.158 3.1284494400024414 -1.1857800048640748 1.424295727406637 -1.809378286401266 -1.5707648436175745 1.557552456855774 0.5668224096298218 -0.03777482360601425 0.05651227384805679 -0.015584724955260754 0.00011343809455865994 0.563412606716156 1 True False
15305.207999999999 3.1585824489593506 -1.1878805321506043 1.4273079077350062 -1.8100344143309535 -1.5707405249225062 1.5876305103302002 0.6388118267059326 -0.04384159669280052 0.0633501261472702 -0.013630024157464504 4.691736381152037e-19 0.6385756134986877 1 True False
15305.258 3.1920018196105957 -1.1901934903911133 1.4304607550250452 -1.811023851434225 -1.5707691351519983 1.62119460105896 0.7118228077888489 -0.048622190952301025 0.06953130662441254 -0.01495418418198824 -4.197522230242612e-06 0.7035101652145386 1 True False
15305.307999999999 3.228959083557129 -1.1927467745593567 1.4339426199542444 -1.812056680718893 -1.5707891623126429 1.658281683921814 0.7772270441055298 -0.054358258843421936 0.07502714544534683 -0.019436366856098175 1.0086071924484893e-14 0.7736973762512207 1 True False
15305.358 3.2695696353912354 -1.1955208343318482 1.4379246870623987 -1.8131286106505335 -1.5707843939410608 1.6987289190292358 0.841009259223938 -0.05839787796139717 0.08291417360305786 -0.020093129947781563 2.0868092178716324e-05 0.8381295800209045 1 True False
15305.408 3.313527822494507 -1.1985915464213868 1.4421384970294397 -1.8143211803831996 -1.5708330313311976 1.7427711486816406 0.9128245115280151 -0.06414426863193512 0.08510727435350418 -0.02372654899954796 3.1698673508903345e-24 0.9142427444458008 1 True False
15305.457999999999 3.360989809036255 -1.2017797094634552 1.4467671553241175 -1.81553377727651 -1.570801083241598 1.7903306484222412 0.9843289256095886 -0.06809235364198685 0.09181662648916245 -0.02857097238302231 4.820466717277371e-43 0.9823460578918457 1 True False
15305.508 3.4120798110961914 -1.2053944033435364 1.451555077229635 -1.8169580898680628 -1.5707886854754847 1.8412166833877563 1.040504813194275 -0.0708841010928154 0.10017072409391403 -0.02557702548801899 0.0 1.0550585985183716 1 True False
15305.557999999999 3.464337110519409 -1.208951936369278 1.4564393202411097 -1.8183728657164515 -1.570784870778219 1.8934890031814575 1.041245460510254 -0.07366073876619339 0.10059427469968796 -0.03123789280653 0.0 1.0444823503494263 1 True False
15305.608 3.516714334487915 -1.2125742000392457 1.461517635975973 -1.8197962246336878 -1.570829216633932 1.9460704326629639 1.0481550693511963 -0.06998255848884583 0.09693245589733124 -0.03099849820137024 -0.0001168905509985052 1.043844223022461 1 True False
15305.658 3.5691184997558594 -1.2162019175342103 1.4665473143206995 -1.821122785607809 -1.5707810560809534 1.9983891248703003 1.049611210823059 -0.0718192309141159 0.09997653216123581 -0.025798935443162918 -7.369116065092385e-05 1.0439479351043701 1 True False
15305.707999999999 3.6214823722839355 -1.2197648745826264 1.4715374151812952 -1.822554727593893 -1.570768181477682 2.050631523132324 1.0448455810546875 -0.07155958563089371 0.10543444752693176 -0.02797640487551689 -0.0001474113087169826 1.0483368635177612 1 True False
15305.758 3.6738481521606445 -1.223413036470749 1.4766328970538538 -1.8239618740477503 -1.5708087126361292 2.103090524673462 1.050544261932373 -0.07323271036148071 0.09721507877111435 -0.028651103377342224 -8.364025416085497e-05 1.0451656579971313 1 True False
15305.807999999999 3.7261734008789062 -1.226965681915619 1.4816253821002405 -1.8253098926939906 -1.570813004170553 2.155385732650757 1.0509334802627563 -0.07220388948917389 0.09716730564832687 -0.029415341094136238 -0.00021472829394042492 1.0557094812393188 1 True False
15305.858 3.7785658836364746 -1.230667309170105 1.48659593263735 -1.8267957172789515 -1.570813004170553 2.207583427429199 1.0398446321487427 -0.07126899063587189 0.10505463182926178 -0.027349311858415604 -6.324869173113257e-05 1.0473448038101196 1 True False
15305.908 3.830895185470581 -1.2342668336680909 1.491655174885885 -1.8281837902464808 -1.5707805792437952 2.2601637840270996 1.0494306087493896 -0.07165445387363434 0.1047813668847084 -0.02834886871278286 4.078355762913294e-13 1.0411312580108643 1 True False
15305.957999999999 3.883207321166992 -1.2378289860538025 1.4966047445880335 -1.8295675716795863 -1.5707686583148401 2.3124289512634277 1.0511677265167236 -0.07485957443714142 0.09798843413591385 -0.027667731046676636 6.195032140733254e-32 1.0498082637786865 1 True False
15306.008 3.9356675148010254 -1.2414781016162415 1.501667324696676 -1.8309194050230921 -1.5708211104022425 2.364790201187134 1.0435841083526611 -0.07050921022891998 0.10157112777233124 -0.02593434415757656 -3.237446799175814e-05 1.0482667684555054 1 True False
15306.057999999999 3.988027572631836 -1.2451462906650086 1.506728474293844 -1.8323856792845667 -1.5707691351519983 2.4172422885894775 1.0490269660949707 -0.07350222766399384 0.09940111637115479 -0.03070623055100441 -1.4122503469628642e-22 1.0426383018493652 1 True False
15306.108 4.040347099304199 -1.2487236124328156 1.5117476622210901 -1.8338777027525843 -1.5707929770099085 2.4695444107055664 1.0512892007827759 -0.07233095169067383 0.0983186885714531 -0.024965494871139526 -0.0002613308606669307 1.0547384023666382 1 True False
15306.158 4.092608451843262 -1.2522962254336854 1.5167182127581995 -1.8352166614928187 -1.5708172957049769 2.5217177867889404 1.0449166297912598 -0.07098322361707687 0.09607665985822678 -0.02906239777803421 -3.45897491422012e-14 1.0515000820159912 1 True False
15306.207999999999 4.1450276374816895 -1.2559467119029541 1.5217507521258753 -1.8366204700865687 -1.5707724730121058 2.5743868350982666 1.0478076934814453 -0.07043033838272095 0.09968841075897217 -0.031763628125190735 -5.254189751816921e-33 1.0400441884994507 1 True False
15306.258 4.19732666015625 -1.259552763109543 1.5266969839679163 -1.8379913769164027 -1.570784870778219 2.626641273498535 1.050428032875061 -0.07401140034198761 0.10101040452718735 -0.026200762018561363 -4.189354876871221e-05 1.0504218339920044 1 True False
15306.307999999999 4.249871253967285 -1.2631284457496186 1.5317195097552698 -1.8394504986205042 -1.5707648436175745 2.6789584159851074 1.0459364652633667 -0.07651884853839874 0.10086476802825928 -0.031906671822071075 2.2088954210630618e-05 1.0462065935134888 1 True False
15306.358 4.302128314971924 -1.266673044567444 1.5368812719928187 -1.8408385715880335 -1.5707610289203089 2.7313523292541504 1.02839195728302 -0.06825894862413406 0.1009635180234909 -0.02911265753209591 2.7659003271730083e-15 1.0267996788024902 1 True False
15306.408 4.351789474487305 -1.2701678437045594 1.5416625181781214 -1.8420902691283167 -1.5708091894732874 2.781074047088623 0.9672010540962219 -0.06865004450082779 0.09285647422075272 -0.01636628434062004 1.6117494708658975e-13 0.9694496393203735 1 True False
15306.457999999999 4.398146152496338 -1.2734027069858094 1.5459063688861292 -1.8434421024718226 -1.5708087126361292 2.8274765014648438 0.8889817595481873 -0.0633329227566719 0.08504369854927063 -0.024646513164043427 -6.682145613012835e-05 0.8818945288658142 1 True False
15306.508 4.441047191619873 -1.2762721341899415 1.550122086201803 -1.844532152215475 -1.570829216633932 2.870321035385132 0.8204541206359863 -0.05419565364718437 0.07902843505144119 -0.02052639052271843 -1.9922332379068127e-17 0.8298395872116089 1 True False
15306.557999999999 4.48045015335083 -1.2790468794158478 1.5537946859942835 -1.845553537408346 -1.5707610289203089 2.9096124172210693 0.7579584121704102 -0.0514352023601532 0.0786692202091217 -0.019688501954078674 -8.230832126976395e-10 0.7592347264289856 1 True False
15306.608 4.516175270080566 -1.2815536719611664 1.5572236219989222 -1.8466226063170375 -1.5707724730121058 2.945559501647949 0.686005175113678 -0.047286514192819595 0.0646849051117897 -0.02029353752732277 -1.2502650901650977e-28 0.6799489259719849 1 True False
15306.658 4.548623085021973 -1.2837044459632416 1.5603531042682093 -1.847433706323141 -1.5708335081683558 2.977900743484497 0.608724057674408 -0.04055741801857948 0.061022303998470306 -0.01780823804438114 -0.0 0.611474871635437 1 True False
15306.707999999999 4.577460765838623 -1.2857408982566376 1.563153092061178 -1.8482490978636683 -1.5708254019366663 3.0067851543426514 0.5425350069999695 -0.03570575639605522 0.050782639533281326 -0.015623104758560658 -0.0 0.5401697158813477 1 True False
15306.758 4.6030073165893555 -1.2874642771533509 1.5656021277057093 -1.8488646946349085 -1.570772949849264 3.032167673110962 0.4705313742160797 -0.03333386778831482 0.04459331929683685 -0.015599265694618225 -0.0 0.476791113615036 1 True False
15306.807999999999 4.624990463256836 -1.28909586489711 1.567775074635641 -1.849349161187643 -1.5707929770099085 3.0539638996124268 0.4054948389530182 -0.026844052597880363 0.041278962045907974 -0.011435034684836864 -3.477995891287833e-09 0.41332292556762695 1 True False
15306.858 4.643264293670654 -1.2902954083732148 1.5695245901690882 -1.8499256573119105 -1.570813004170553 3.0725033283233643 0.34093743562698364 -0.024172507226467133 0.031125713139772415 -0.004934965167194605 0.00022568083659280092 0.3316669166088104 1 True False
15306.908 4.658036708831787 -1.2912767988494416 1.5708769003497522 -1.8503638706602992 -1.570857350026266 3.087352752685547 0.26195934414863586 -0.018675312399864197 0.023826703429222107 -0.007758982479572296 3.043847118799903e-11 0.26759573817253113 1 True False
15306.957999999999 4.669500827789307 -1.2920870047858735 1.571975056325094 -1.8506213627257289 -1.5708168188678187 3.09881591796875 0.19323115050792694 -0.01301210094243288 0.017035525292158127 -0.007908869534730911 4.6236104863040104e-30 0.1937875598669052 1 True False
15307.008 4.677558898925781 -1.2926435631564637 1.5727222601519983 -1.8508569202818812 -1.5707324186908167 3.1066908836364746 0.1230761855840683 -0.007533530704677105 0.012096067890524864 -0.004006813745945692 0.0 0.12806405127048492 1 True False
15307.057999999999 4.681982040405273 -1.292888419037201 1.5731037298785608 -1.8509155712523402 -1.570784870778219 3.1111092567443848 0.05482196435332298 -0.0033547261264175177 0.0029387897811830044 -0.002669738372787833 0.0 0.056105051189661026 1 True False
15307.108 4.683006286621094 -1.2929301124862214 1.5732610861407679 -1.8511706791319789 -1.5708087126361292 3.1121716499328613 0.001954046543687582 0.0008947799215093255 0.02267991378903389 -0.03382357954978943 0.0 0.0006456947303377092 1 True False
15307.158 4.682982921600342 -1.2922847729972382 1.575045410786764 -1.8537003002562464 -1.570801083241598 3.1121878623962402 0.00017402689263690263 0.026853099465370178 0.05380191281437874 -0.08878768980503082 -2.2161661412807328e-20 0.00023732474073767662 1 True False
15307.207999999999 4.6830034255981445 -1.2902407509139557 1.5788796583758753 -1.859640737573141 -1.5708168188678187 3.1122074127197266 0.000660726276692003 0.058329641819000244 0.09767128527164459 -0.1501985788345337 -3.366361721622937e-39 0.0007389402599073946 1 True False
15307.258 4.682958602905273 -1.2867788833430787 1.5850661436664026 -1.8691779575743617 -1.5708211104022425 3.1122074127197266 0.0005804929533042014 0.08400825411081314 0.14589877426624298 -0.235248401761055 -0.0 0.00020736551959998906 1 True False
15307.307999999999 4.6830153465271 -1.281983570461609 1.593487564717428 -1.8821188412108363 -1.570784870778219 3.112182140350342 0.0006179020856507123 0.10380228608846664 0.18878400325775146 -0.3028503954410553 8.914395584724844e-05 0.00017421877419110388 1 True False
15307.358 4.683051109313965 -1.2762451034835358 1.604394261037008 -1.8987351856627406 -1.570813004170553 3.1122360229492188 0.00022299920965451747 0.13116613030433655 0.23936159908771515 -0.3598746359348297 7.37514128559269e-05 9.672679152572528e-05 1 True False
15307.408 4.682976722717285 -1.26930387437854 1.617028538380758 -1.9187146625914515 -1.5707529226886194 3.1122820377349854 8.324954251293093e-05 0.15311206877231598 0.2851850390434265 -0.44460269808769226 8.319685002788901e-05 7.794279372319579e-05 1 True False
15307.457999999999 4.683043956756592 -1.2610167425921937 1.6324265638934534 -1.9422489605345667 -1.5708168188678187 3.1122806072235107 6.830770871601999e-05 0.1769968718290329 0.32686591148376465 -0.4997766613960266 5.689723548130132e-05 2.078894067381043e-05 1 True False
15307.508 4.682999134063721 -1.2514454883388062 1.6498635450946253 -1.9690596065916957 -1.5708168188678187 3.1122493743896484 4.988465947735681e-32 0.18294163048267365 0.34541165828704834 -0.5524792075157166 2.224237792238697e-15 -1.156814156592174e-14 1 True False
15307.557999999999 4.682994842529297 -1.2426099342158814 1.6662986914264124 -1.9943586788573207 -1.5708087126361292 3.112240791320801 5.043120472691953e-05 0.16571328043937683 0.3105058968067169 -0.47829172015190125 3.3786242302326504e-34 -1.757203709703028e-33 1 True False
15307.608 4.682981491088867 -1.234949306850769 1.680354420338766 -2.0164300403990687 -1.5708044211017054 3.1122524738311768 0.0 0.14286433160305023 0.26679015159606934 -0.4099929630756378 0.0 -0.0 1 True False
15307.658 4.682973861694336 -1.2284515065005799 1.692469898854391 -2.0348650417723597 -1.5707805792437952 3.112227439880371 0.0 0.11935983598232269 0.2152702808380127 -0.3421539068222046 0.0 -0.0 1 True False
15307.707999999999 4.683027744293213 -1.2231289011291047 1.7022793928729456 -2.049772401849264 -1.5707886854754847 3.1121985912323 0.0 0.09484485536813736 0.16791307926177979 -0.2760164737701416 0.0 -0.0 1 True False
15307.758 4.683022975921631 -1.2190891665271302 1.7095664183246058 -2.061315198937887 -1.5708335081683558 3.1122732162475586 0.0 0.06959334760904312 0.12787385284900665 -0.19560359418392181 0.0 -0.0 1 True False
15307.807999999999 4.683030605316162 -1.2162402433208008 1.7147915999041956 -2.0693870983519496 -1.5708335081683558 3.1122777462005615 0.0 0.04511289298534393 0.0823579654097557 -0.1419210135936737 0.0 -0.00023969952599145472 1 True False
15307.858 4.683018684387207 -1.2147133511355896 1.71765643755068 -2.073817869225973 -1.5708168188678187 3.1122524738311768 0.0 0.021078815683722496 0.040190115571022034 -0.05740579217672348 0.0 -6.308478623395786e-05 1 True False
15307.908 4.683018684387207 -1.2143948835185547 1.718403164540426 -2.0749150715269984 -1.570784870778219 3.112222909927368 0.0 -6.228653433026921e-07 0.0001121108143706806 0.0003219272184651345 0.0 -3.362222560099326e-05 1 True False
15307.957999999999 4.683006286621094 -1.214370535021164 1.718407932912008 -2.074907442132467 -1.5708335081683558 3.1122450828552246 0.0 0.0002742372453212738 0.0007092056912370026 4.8900834337821e-23 0.0 -4.520782385952771e-05 1 True False
15308.008 4.683034896850586 -1.2143542629531403 1.7184436956988733 -2.074951311151022 -1.5707648436175745 3.1121997833251953 0.0 -0.00019131129374727607 0.0015748393489047885 -0.00016337439592462033 0.0 -4.235452727473568e-15 1 True False
15308.057999999999 4.683046817779541 -1.2143391233733674 1.7184842268573206 -2.074907442132467 -1.5708373228656214 3.1122405529022217 6.32216313523387e-19 0.0 0.0006095648859627545 -6.472698441939428e-05 0.0 -6.433663793865215e-34 1 True False
15308.108 4.68300199508667 -1.214310960178711 1.7184751669513147 -2.0748588047423304 -1.5707648436175745 3.112182140350342 0.0 0.00021287979325279593 0.0001955651823664084 -0.0002408765722066164 0.0 -0.0 1 True False
15308.158 4.683018684387207 -1.2142860454371949 1.7185047308551233 -2.0749031505980433 -1.5707724730121058 3.112215518951416 0.0 0.00014416046906262636 9.295849304180592e-05 -0.00024057312111835927 0.0 -0.0 1 True False
15308.207999999999 4.683043956756592 -1.2143315833858033 1.7184627691852015 -2.074923177758688 -1.570801083241598 3.11221981048584 0.0 0.00018244431703351438 3.518666562740691e-05 -0.0001406430237693712 0.0 -0.0 1 True False
15308.258 4.683022975921631 -1.2143152815154572 1.7185290495501917 -2.07494654277944 -1.5707724730121058 3.1122117042541504 0.0 0.00013022961502429098 3.558713069651276e-05 -7.16304566594772e-05 0.0 -0.0 1 True False
15308.307999999999 4.682987213134766 -1.214322881107666 1.718503777180807 -2.0749389133849085 -1.5707767645465296 3.1122243404388428 0.0 9.045504702953622e-05 2.3815666281734593e-05 -5.123912706039846e-05 0.0 -0.0 1 True False
15308.358 4.683043956756592 -1.2143142384341736 1.7184541861163538 -2.0749150715269984 -1.570853058491842 3.11221981048584 0.0 4.406530933920294e-06 2.7983027123023845e-17 -5.765191890166118e-22 0.0 -0.0 1 True False
15308.408 4.682973861694336 -1.2143272024444123 1.7184913794146937 -2.074975153008932 -1.5707967917071741 3.1122286319732666 0.0 0.0 0.0 -8.757274622951512e-41 0.0 -0.0 1 True False
15308.457999999999 4.683032035827637 -1.2143553060344239 1.7184751669513147 -2.07491459468984 -1.5707767645465296 3.1121985912323 0.0 0.0 0.0 -0.0 0.0 -0.0 1 True False
15308.508 4.683051109313965 -1.2144421201995392 1.7183597723590296 -2.0751496754088343 -1.5708168188678187 3.112165927886963 -3.653447547112884e-21 0.00028888441738672554 0.0003030422667507082 -0.0006202537333592772 0.00015862002328503877 -3.648070980406275e-17 1 True False
15308.557999999999 4.683055877685547 -1.214349852209427 1.7183311621295374 -2.075141569177145 -1.5708134810077112 3.1121866703033447 0.0 0.0006431834772229195 0.00028090583509765565 0.00014144457236398011 6.423384184017777e-05 -5.541429171978632e-36 1 True False
15308.608 4.68300199508667 -1.214403675203659 1.7183387915240687 -2.0750938854613246 -1.5708091894732874 3.112154006958008 0.0 0.0012261365773156285 0.0007076988695189357 0.0007976030465215445 4.0276638173963875e-05 -0.0 1 True True
15308.658 4.683006286621094 -1.214670018558838 1.7178376356707972 -2.073167940179342 -1.570801083241598 3.1122732162475586 0.0 -0.016693444922566414 -0.03613229840993881 0.06437443941831589 1.3197029602451948e-07 -0.0 1 True True
15308.707999999999 4.683022975921631 -1.216571883564331 1.7144148985492151 -2.0683652363219203 -1.570784870778219 3.1122360229492188 0.0 -0.055424243211746216 -0.09364921599626541 0.13735277950763702 2.0046322241554447e-26 -0.0 1 True True
15308.758 4.682994842529297 -1.2195748549750824 1.7086599508868616 -2.059536119500631 -1.5707843939410608 3.112182140350342 0.0 -0.07562164217233658 -0.142947256565094 0.21211421489715576 2.802596928649634e-45 -0.0 1 True True
15308.807999999999 4.683008193969727 -1.2239443820765992 1.7007325331317347 -2.047429700891012 -1.5707967917071741 3.1122360229492188 0.0 -0.09473778307437897 -0.17021021246910095 0.2695103883743286 0.0 -0.0 1 True True
15308.858 4.683020114898682 -1.229457752113678 1.6904256979571741 -2.03192200283193 -1.5707605520831507 3.112194061279297 0.0 -0.12548784911632538 -0.2304883897304535 0.354870080947876 0.0 -1.088797657096604e-17 1 True True
15308.908 4.683011054992676 -1.2360379856875916 1.6781509558307093 -2.0127726993956507 -1.5707805792437952 3.1121747493743896 0.0 -0.1460837721824646 -0.2677285969257355 0.39928361773490906 0.0 -1.6538860774226586e-36 1 True True
15308.957999999999 4.682994842529297 -1.2441711288741608 1.6635225454913538 -1.9901982746519984 -1.5708697477923792 3.1121997833251953 0.0 -0.17138367891311646 -0.3116203248500824 0.4830954670906067 0.0 -4.11781802540645e-05 1 True True
15309.008 4.6830153465271 -1.2533397537520905 1.6465991179095667 -1.9641138515868128 -1.5708325544940394 3.112149715423584 0.0 -0.19324322044849396 -0.36255574226379395 0.551047682762146 0.0 -1.9382041500648484e-05 1 True True
15309.057999999999 4.6830034255981445 -1.2624837917140503 1.6294692198382776 -1.9377757511534632 -1.5707724730121058 3.112194061279297 0.0 -0.1702689528465271 -0.316171258687973 0.4887506365776062 0.0 -2.9441365777983787e-24 1 True True
15309.108 4.683032035827637 -1.2704780858806153 1.6148512999164026 -1.9150063000121058 -1.570784870778219 3.1122405529022217 0.0 -0.15054567158222198 -0.27574437856674194 0.41893890500068665 0.0 -4.4701421011961665e-43 1 True True
15309.158 4.683013916015625 -1.2773141127875824 1.6022346655475062 -1.8955995045103968 -1.5707486311541956 3.1121702194213867 0.0 -0.1244208961725235 -0.22698256373405457 0.339328795671463 0.0 -0.0 1 True True
15309.207999999999 4.683022975921631 -1.2829534274390717 1.5918524901019495 -1.8797384701170863 -1.5708406607257288 3.1122567653656006 0.0 -0.09957731515169144 -0.18595527112483978 0.2992146611213684 0.0 -0.0 1 True True
15309.258 4.682982921600342 -1.2872795027545472 1.5839193503009241 -1.867286821404928 -1.5707767645465296 3.1122243404388428 0.0 -0.07477932423353195 -0.14094971120357513 0.21338072419166565 0.0 -5.8373352374019305e-08 1 True True
15309.307999999999 4.683076858520508 -1.2904160481742402 1.5780757109271448 -1.8582383594908656 -1.5707972685443323 3.1122286319732666 0.0 -0.04922984540462494 -0.09370806813240051 0.1519213169813156 0.0 -8.866923686060502e-27 1 True True
15309.358 4.682985782623291 -1.2923155289939423 1.574672047291891 -1.8529015980162562 -1.5707886854754847 3.1122360229492188 0.0 -0.027616044506430626 -0.05006803199648857 0.08589990437030792 0.0 -1.401298464324817e-45 1 True True
15309.408 4.68303918838501 -1.2930392187884827 1.573219124470846 -1.851058145562643 -1.5707805792437952 3.1122074127197266 0.0 -0.001068904297426343 -0.00145987537689507 0.004366371780633926 0.0 -0.0 1 True True
15309.457999999999 4.682235240936279 -1.2930153769305726 1.5732672850238245 -1.8511511288084925 -1.5707724730121058 3.1106550693511963 -0.03378135710954666 -0.0002150888612959534 6.437765114242211e-05 0.00046755888615734875 0.0 -0.06872451305389404 1 True True
15309.508 4.679704666137695 -1.2931074363044281 1.573315445576803 -1.851062913934225 -1.5707925001727503 3.105611562728882 -0.07256092131137848 -0.005026331637054682 0.0009600315243005753 0.0005221256869845092 0.0 -0.1365807056427002 1 True True
15309.557999999999 4.675138473510742 -1.2932589513114472 1.5734875837909144 -1.8511067829527796 -1.5707724730121058 3.0969719886779785 -0.1031980812549591 -0.004106684122234583 0.004456405062228441 0.00012723609688691795 0.0 -0.2029547393321991 1 True True
15309.608 4.668938159942627 -1.2934717398932953 1.573723618184225 -1.851062913934225 -1.5707925001727503 3.0850985050201416 -0.14233896136283875 -0.004079099744558334 0.00698302173987031 -0.00045499674160964787 0.0 -0.27184227108955383 1 True True
15309.658 4.660956859588623 -1.2937239569476624 1.574031178151266 -1.8511306248106898 -1.5708406607257288 3.0694961547851562 -0.1801224648952484 -0.0054994928650557995 0.007323266938328743 -0.0019274078076705337 0.0 -0.3435671925544739 1 True True
15309.707999999999 4.6510491371154785 -1.2940282386592408 1.5744841734515589 -1.8512736759581507 -1.5707929770099085 3.0505008697509766 -0.21462155878543854 -0.0072822533547878265 0.008881821297109127 -0.0022205498535186052 0.0 -0.4123803377151489 1 True True
15309.758 4.639335632324219 -1.2943113309196015 1.5749238173114222 -1.8513575992979945 -1.5707648436175745 3.027893304824829 -0.24724788963794708 -0.009204080328345299 0.00998200848698616 -0.0016532072331756353 -5.728039104724303e-05 -0.47902244329452515 1 True True
15309.807999999999 4.626038551330566 -1.2947563391974946 1.57544452348818 -1.8514639339842738 -1.5708368460284632 3.0019419193267822 -0.28917810320854187 -0.008467374369502068 0.010579065419733524 -0.003045902354642749 -3.1651889003114775e-05 -0.5530906319618225 1 True True
15309.858 4.610547065734863 -1.2952002745917817 1.575956169758932 -1.851635595361227 -1.5707724730121058 2.972404718399048 -0.323455274105072 -0.009427003562450409 0.012868855148553848 -0.005238979589194059 -1.1239668878344535e-23 -0.6262975335121155 1 True True
15309.908 4.593644142150879 -1.295692817573883 1.5766528288470667 -1.8517710171141566 -1.5707805792437952 2.939429521560669 -0.363089382648468 -0.01106394361704588 0.012798677198588848 -0.004052245989441872 -1.7067815295476272e-42 -0.6953039169311523 1 True True
15309.957999999999 4.574718952178955 -1.2962201100638886 1.5773256460772913 -1.8519178829588832 -1.5707967917071741 2.9028565883636475 -0.3941151797771454 -0.01150535698980093 0.016048941761255264 -0.0024632608983665705 -0.0 -0.7558282613754272 1 True True
15310.008 4.554115295410156 -1.296828643684723 1.5782187620746058 -1.8521563015379847 -1.5707767645465296 2.863020658493042 -0.43612951040267944 -0.012633292004466057 0.01793763041496277 -0.003998563624918461 -0.0 -0.8223571181297302 1 True True
15310.057999999999 4.531711101531982 -1.2975460451892395 1.579012695943014 -1.8523551426329554 -1.5707686583148401 2.8196640014648438 -0.46622535586357117 -0.015516628511250019 0.019886910915374756 -0.0037269731983542442 -0.0 -0.9103606343269348 1 True True
15310.108 4.507218360900879 -1.2981720727733155 1.580019776021139 -1.8526059589781703 -1.570813004170553 2.772486686706543 -0.5010023713111877 -0.0149453179910779 0.01957738772034645 -0.003669359255582094 -0.000644451763946563 -0.9627676606178284 1 True True
15310.158 4.481041431427002 -1.2990629237941285 1.5810239950763147 -1.8527523479857386 -1.5708254019366663 2.7221620082855225 -0.5418921709060669 -0.014596599154174328 0.020721472799777985 -0.009250455535948277 -0.00021155978902243078 -1.0505084991455078 1 True True
15310.207999999999 4.454248905181885 -1.2998103362372895 1.5821593443499964 -1.8530031643309535 -1.5707810560809534 2.6699371337890625 -0.5428919792175293 -0.01650639995932579 0.02093229629099369 -0.005290658678859472 0.0005355339962989092 -1.041991114616394 1 True True
15310.258 4.427255630493164 -1.300630436544754 1.5831168333636683 -1.8533174000182093 -1.5707443396197718 2.6174545288085938 -0.5369635224342346 -0.017381753772497177 0.023072417825460434 -0.0017815710743889213 0.0009844478918239474 -1.0479477643966675 1 True True
15310.307999999999 4.400193691253662 -1.3014219564250489 1.584121052418844 -1.8535877666869105 -1.5707443396197718 2.565142869949341 -0.5375484228134155 -0.018248938024044037 0.021341785788536072 -0.0019214058993384242 0.003426443552598357 -1.053064227104187 1 True True
15310.358 4.372817516326904 -1.3022086483291169 1.5851653257953089 -1.8537622890868128 -1.5708282629596155 2.512864351272583 -0.538486897945404 -0.015835393220186234 0.021766221150755882 -0.003180142492055893 -0.0002002480032388121 -1.04561448097229 1 True True
15310.408 4.345571517944336 -1.3029543620399018 1.5862095991717737 -1.8541046581664027 -1.570820156727926 2.460374593734741 -0.5440925359725952 -0.016431158408522606 0.019998472183942795 -0.007220967207103968 -0.0016943116206675768 -1.039136528968811 1 True True
15310.457999999999 4.318528652191162 -1.303782419567444 1.5872529188739222 -1.8542996845641078 -1.5708649794207972 2.4080286026000977 -0.5489048361778259 -0.014517628587782383 0.018293362110853195 -0.00915370974689722 -0.0017683308105915785 -1.0513654947280884 1 True True
15310.508 4.291545391082764 -1.3045987349799653 1.5883258024798792 -1.8544627628722132 -1.5708087126361292 2.355741500854492 -0.5484607219696045 -0.014246061444282532 0.020364170894026756 -0.008288053795695305 -0.0031796901021152735 -1.0428582429885864 1 True True
15310.557999999999 4.2646636962890625 -1.3054473859122773 1.5893743673907679 -1.8546449146666468 -1.5707529226886194 2.303314685821533 -0.5410342216491699 -0.015794113278388977 0.020900283008813858 -0.004793202038854361 0.0005523297586478293 -1.0434786081314087 1 True True
15310.608 4.237453937530518 -1.3062766057303925 1.590426270161764 -1.8549515209593714 -1.5707443396197718 2.251002788543701 -0.5353261828422546 -0.01713169738650322 0.021270431578159332 -0.0026513151824474335 0.0010409068781882524 -1.0504578351974487 1 True True
