Andreas691667/Digital_Twin_UR/src/dt/dt_trajectories/04_09_2024_14_49_44.csv
actual_q_0 actual_q_1 actual_q_2 actual_q_3 actual_q_4 actual_q_5 timestamp
3.3477777180732176 -1.3056645702871865 1.5899193464519294 -1.8550511782146855 -1.5707962785952745 1.776981393646821 0.05
3.3482939625130475 -1.3057860468897373 1.5900565880688478 -1.855066943202271 -1.5707962786134564 1.7774976380857537 0.1
3.351691887167689 -1.3065856067705286 1.5909599133887742 -1.855170708465128 -1.5707962787331304 1.78089556273449 0.15
3.3602807172597857 -1.3086066297956254 1.5932432211366787 -1.8554329927423627 -1.5707962790356267 1.789484392811661 0.2
3.3757875203928283 -1.3122555093102357 1.5973656456530843 -1.855906536939693 -1.570796279581772 1.8049911959177551 0.25
3.399403779160685 -1.3178126110603796 1.6036439380448244 -1.8566277263561202 -1.5707962804135303 1.82860745464457 0.3
3.431831963757134 -1.3254432321145573 1.612264847335797 -1.8576180129105992 -1.5707962815556422 1.8610356391846639 0.35
3.4733321045853978 -1.3352085597854184 1.6232975016177216 -1.8588853373687102 -1.570796283017266 1.902535779940807 0.39999999999999997
3.5237683648676743 -1.3470766305514295 1.636705789200894 -1.860425551569329 -1.5707962847936172 1.952972040135433 0.44999999999999996
3.582655613254668 -1.3609332889785435 1.6523607397649427 -1.8622238406512994 -1.5707962868676102 2.01185928842009 0.49999999999999994
3.649205996435124 -1.3765931466418675 1.6700529055095836 -1.8642561452801023 -1.5707962892114966 2.0784096714848914 0.5499999999999999
3.7223755117453603 -1.3938105410473318 1.6895047423053768 -1.8664905838745283 -1.570796291788507 2.15157918666797 0.6
3.800910579778798 -1.4122904945533588 1.7103829908444816 -1.8688888748333483 -1.5707962945544909 2.230114254564926 0.65
3.8833946169954965 -1.43169967329253 1.7323110577914127 -1.8714077587619846 -1.5707962974595562 2.31259829163828 0.7
3.968294608331683 -1.4516773460932564 1.754881396933795 -1.8740004206991816 -1.570796300449711 2.3974982828269233 0.75
4.054007679809289 -1.4718463434014462 1.7776678903331204 -1.8766179123436777 -1.570796303468502 2.4832113541555727 0.7999999999999999
4.138907671145476 -1.4918240162021728 1.8002382294755028 -1.8792105742808747 -1.5707963064586568 2.5681113453442164 0.85
4.221391708362174 -1.511233194941344 1.8221662964224339 -1.881729458209511 -1.570796309363722 2.65059538241757 0.9
4.299926776395612 -1.529713148447371 1.8430445449615387 -1.884127749168331 -1.570796312129706 2.7291304503145257 0.95
4.373096291705847 -1.5469305428528353 1.862496381757332 -1.886362187762757 -1.5707963147067163 2.8022999654976046 1.0
4.439646674886304 -1.5625904005161593 1.8801885475019728 -1.8883944923915599 -1.5707963170506027 2.8688503485624066 1.0499999999999998
4.498533923273298 -1.5764470589432733 1.8958434980660215 -1.8901927814735302 -1.5707963191245957 2.927737596847064 1.0999999999999999
4.548970183555573 -1.5883151297092841 1.9092517856491937 -1.891732995674149 -1.570796320900947 2.9781738570416882 1.15
4.590470324383839 -1.5980804573801455 1.9202844399311185 -1.89300032013226 -1.5707963223625707 3.019673997797832 1.2
4.6228985089802865 -1.6057110784343231 1.9289053492220911 -1.8939906066867391 -1.5707963235046827 3.0521021823379266 1.25
4.646514767748144 -1.611268180184467 1.9351836416138315 -1.8947117961031663 -1.570796324336441 3.075718441064742 1.3
4.662021570881187 -1.6149170596990774 1.9393060661302373 -1.8951853403004968 -1.5707963248825862 3.091225244170835 1.3499999999999999
4.670610400973282 -1.6169380827241737 1.9415893738781411 -1.8954476245777312 -1.5707963251850825 3.0998140742480045 1.4
4.674008325627921 -1.617737642604965 1.942492699198067 -1.895551389840588 -1.5707963253047565 3.1032119988967404 1.45
4.674524570067753 -1.617859119207516 1.942629940814986 -1.8955671548281738 -1.5707963253229384 3.1037282433356737 1.5
4.674524570067755 -1.6178591192075162 1.942629940814986 -1.8955671548281738 -1.5707963253229384 3.1037282433356754 1.55
4.674524569902719 -1.617820031249801 1.9426926000435134 -1.8956689020548654 -1.5707963253208754 3.1037282431707482 1.6
4.674524568816453 -1.617562754028057 1.9431050235410405 -1.896338603040373 -1.570796325307297 3.103728242085198 1.6500000000000001
4.674524566070733 -1.6169124422734669 1.9441474937857561 -1.898031385712637 -1.5707963252729753 3.1037282393412853 1.7
4.67452456111344 -1.6157383293564103 1.9460296338075662 -1.9010876398665033 -1.5707963252110086 3.103728234387256 1.75
4.674524553563676 -1.6139502009953295 1.9488960599439558 -1.905742196214371 -1.570796325116636 3.103728226842462 1.8
4.6745245431968705 -1.6114948689655924 1.952832034595853 -1.9121335054368407 -1.57079632498705 3.103728216482482 1.85
4.674524529929897 -1.6083526448083576 1.9578691189834907 -1.920312817233361 -1.5707963248212116 3.1037282032242426 1.9
4.67452451380618 -1.6045338135394376 1.9639908259022698 -1.9302533593728766 -1.5707963246196637 3.10372818711114 1.95
4.674524494980808 -1.6000751073581643 1.9711382724786213 -1.9418595167444757 -1.5707963243843448 3.103728168298162 2.0
4.674524473705647 -1.5950361793562515 1.979215832925869 -1.9549760104080376 -1.5707963241184033 3.1037281470370073 2.05
4.674524450314448 -1.5894960772266606 1.9880967913000922 -1.96939707664488 -1.5707963238260112 3.103728123661208 2.1
4.674524425207963 -1.583549716972464 1.9976289942559888 -1.9848756460084072 -1.5707963235121778 3.1037280985712514 2.15
4.6745243988390515 -1.5773043566157094 2.0076405038027376 -2.001132522374756 -1.570796323182564 3.1037280722196994 2.2
4.674524371697795 -1.5708760699062845 2.0179452500598596 -2.0178655619934456 -1.5707963228432957 3.103728045096312 2.25
4.674524344296609 -1.56438622003078 2.0283486840130833 -2.034758852538024 -1.5707963225007786 3.1037280177131654 2.3
4.6745243171553525 -1.5579579333213551 2.0386534302702053 -2.0514918921567133 -1.5707963221615104 3.103727990589778 2.35
4.674524290786441 -1.5517125729646006 2.048664939816954 -2.0677487685230624 -1.5707963218318965 3.103727964238226 2.4
4.674524265679956 -1.5457662127104042 2.0581971427728507 -2.0832273378865893 -1.5707963215180631 3.103727939148269 2.45
4.674524242288757 -1.540226110580813 2.067078101147074 -2.097648404123432 -1.570796321225671 3.10372791577247 2.5
4.674524221013596 -1.5351871825789003 2.0751556615943216 -2.1107648977869937 -1.5707963209597295 3.1037278945113154 2.55
4.674524202188224 -1.5307284763976268 2.082303108170673 -2.122371055158593 -1.5707963207244107 3.103727875698337 2.5999999999999996
4.674524186064507 -1.526909645128707 2.088424815089452 -2.1323115972981084 -1.5707963205228628 3.1037278595852347 2.65
4.6745241727975335 -1.5237674209714722 2.09346189947709 -2.140490909094629 -1.5707963203570243 3.1037278463269953 2.7
4.674524162430728 -1.521312088941735 2.0973978741289874 -2.146882218317099 -1.5707963202274384 3.1037278359670153 2.75
4.674524154880964 -1.5195239605806543 2.100264300265377 -2.1515367746649665 -1.5707963201330657 3.103727828422221 2.8
4.674524149923671 -1.5183498476635977 2.102146440287187 -2.154593028818833 -1.570796320071099 3.103727823468192 2.8499999999999996
4.674524147177951 -1.5176995359090075 2.1031889105319026 -2.1562858114910965 -1.5707963200367774 3.1037278207242793 2.9
4.674524146091685 -1.5174422586872638 2.1036013340294293 -2.1569555124766038 -1.570796320023199 3.103727819638729 2.95
4.674524145926649 -1.5174031707295483 2.103663993257957 -2.157057259703296 -1.570796320021136 3.103727819473802 3.0
4.674524145926649 -1.5174031707295483 2.103663993257957 -2.157057259703296 -1.570796320021136 3.103727819473802 3.05
4.674524145926649 -1.5174031707295483 2.103663993257957 -2.157057259703296 -1.570796320021136 3.103727819473802 3.1041666666666665
4.674524145926649 -1.5174031707295483 2.103663993257957 -2.157057259703296 -1.570796320021136 3.103727819473802 3.158333333333333
4.674524145926649 -1.5174031707295483 2.103663993257957 -2.157057259703296 -1.570796320021136 3.103727819473802 3.2125
4.674524145926649 -1.5174031707295483 2.103663993257957 -2.157057259703296 -1.570796320021136 3.103727819473802 3.2666666666666666
4.674524145926649 -1.5174031707295483 2.103663993257957 -2.157057259703296 -1.570796320021136 3.103727819473802 3.3208333333333333
4.674524145926649 -1.5174031707295483 2.103663993257957 -2.157057259703296 -1.570796320021136 3.103727819473802 3.375
4.674524145926649 -1.5174031707295483 2.103663993257957 -2.157057259703296 -1.570796320021136 3.103727819473802 3.4291666666666667
4.674524145926649 -1.5174031707295483 2.103663993257957 -2.157057259703296 -1.570796320021136 3.103727819473802 3.4833333333333334
4.674524145926649 -1.5174031707295483 2.103663993257957 -2.157057259703296 -1.570796320021136 3.103727819473802 3.5375
4.674524145926649 -1.5174031707295483 2.103663993257957 -2.157057259703296 -1.570796320021136 3.103727819473802 3.591666666666667
4.674524145926649 -1.5174031707295483 2.103663993257957 -2.157057259703296 -1.570796320021136 3.103727819473802 3.6458333333333335
4.674524145926649 -1.5174031707295483 2.103663993257957 -2.157057259703296 -1.570796320021136 3.103727819473802 3.7
4.674524145926649 -1.5174031707295483 2.103663993257957 -2.1570572597032958 -1.570796320021136 3.103727819473802 3.75
4.674524146091685 -1.5174422586872636 2.1036013340294297 -2.156955512476604 -1.570796320023199 3.103727819638729 3.8
4.674524147177951 -1.5176995359090075 2.1031889105319026 -2.1562858114910965 -1.5707963200367774 3.1037278207242793 3.85
4.674524149923671 -1.5183498476635977 2.1021464402871866 -2.1545930288188324 -1.570796320071099 3.103727823468192 3.9
4.674524154880964 -1.5195239605806543 2.1002643002653767 -2.1515367746649665 -1.5707963201330657 3.103727828422221 3.95
4.674524162430728 -1.521312088941735 2.0973978741289874 -2.146882218317099 -1.5707963202274384 3.1037278359670153 4.0
4.6745241727975335 -1.5237674209714722 2.09346189947709 -2.1404909090946287 -1.5707963203570243 3.1037278463269953 4.05
4.674524186064507 -1.526909645128707 2.088424815089452 -2.132311597298109 -1.5707963205228628 3.1037278595852347 4.1
4.674524202188224 -1.530728476397627 2.082303108170673 -2.122371055158593 -1.5707963207244107 3.103727875698337 4.15
4.674524221013596 -1.5351871825789003 2.0751556615943216 -2.1107648977869937 -1.5707963209597295 3.1037278945113154 4.2
4.674524242288757 -1.540226110580813 2.067078101147074 -2.097648404123432 -1.570796321225671 3.10372791577247 4.25
4.674524265679956 -1.545766212710404 2.0581971427728507 -2.0832273378865893 -1.5707963215180631 3.103727939148269 4.3
4.674524290786441 -1.5517125729646006 2.048664939816954 -2.0677487685230624 -1.5707963218318965 3.103727964238226 4.35
4.6745243171553525 -1.5579579333213551 2.0386534302702053 -2.0514918921567133 -1.5707963221615104 3.103727990589778 4.4
4.674524344296609 -1.56438622003078 2.0283486840130833 -2.034758852538024 -1.5707963225007786 3.1037280177131654 4.45
4.674524371697795 -1.5708760699062845 2.0179452500598596 -2.017865561993446 -1.5707963228432957 3.103728045096312 4.5
4.6745243988390515 -1.5773043566157094 2.0076405038027376 -2.001132522374756 -1.570796323182564 3.1037280722196994 4.55
4.674524425207963 -1.583549716972464 1.9976289942559888 -1.9848756460084072 -1.5707963235121778 3.1037280985712514 4.6
4.674524450314448 -1.5894960772266604 1.9880967913000922 -1.96939707664488 -1.5707963238260112 3.103728123661208 4.65
4.674524473705647 -1.5950361793562515 1.9792158329258691 -1.9549760104080376 -1.5707963241184033 3.1037281470370073 4.7
4.674524494980808 -1.6000751073581643 1.9711382724786213 -1.9418595167444757 -1.5707963243843448 3.103728168298162 4.75
4.67452451380618 -1.6045338135394378 1.9639908259022698 -1.9302533593728763 -1.5707963246196637 3.10372818711114 4.8
4.674524529929897 -1.6083526448083576 1.9578691189834907 -1.920312817233361 -1.5707963248212116 3.1037282032242426 4.85
4.6745245431968705 -1.6114948689655924 1.952832034595853 -1.9121335054368405 -1.57079632498705 3.103728216482482 4.9
4.674524553563676 -1.6139502009953295 1.9488960599439558 -1.9057421962143708 -1.570796325116636 3.103728226842462 4.95
4.67452456111344 -1.6157383293564103 1.946029633807566 -1.901087639866503 -1.5707963252110086 3.103728234387256 5.0
4.674524566070733 -1.6169124422734669 1.944147493785756 -1.8980313857126365 -1.5707963252729753 3.1037282393412853 5.05
4.674524568816453 -1.617562754028057 1.9431050235410405 -1.896338603040373 -1.570796325307297 3.103728242085198 5.1
4.674524569902719 -1.6178200312498008 1.9426926000435136 -1.8956689020548658 -1.5707963253208754 3.1037282431707482 5.15
4.674524570067755 -1.6178591192075162 1.942629940814986 -1.8955671548281736 -1.5707963253229384 3.1037282433356754 5.2
4.674524570067755 -1.6178591192075162 1.942629940814986 -1.8955671548281738 -1.5707963253229384 3.1037282433356754 5.25
4.673878287282927 -1.6176879216488294 1.942423998091734 -1.895532409661098 -1.5707963253235362 3.1030819605508237 5.3
4.669624449296489 -1.6165610980734144 1.9410684815906487 -1.8953037167189015 -1.5707963253274713 3.098828122564226 5.35
4.658872153286945 -1.6137128606294828 1.9376421840419522 -1.894725656572364 -1.5707963253374178 3.0880758265542805 5.4
4.639459295463431 -1.6085704772262008 1.9314561353027004 -1.8936819911609755 -1.5707963253553758 3.0686629687300417 5.45
4.609894267143261 -1.600738827072814 1.9220350233866381 -1.8920925292834405 -1.570796325382725 3.0390979404087672 5.5
4.569297650829476 -1.5899849562177695 1.909098615494051 -1.8899099920881806 -1.570796325420279 2.998501324093466 5.55
4.517343916288396 -1.5762226330878408 1.8925431790416194 -1.8871168785638384 -1.5707963254683392 2.946547589550445 5.6
4.454203116627167 -1.5594969040272506 1.8724229026922716 -1.8837223310297797 -1.5707963255267479 2.8834067898868576 5.65
4.380482584371313 -1.5399686488367952 1.8489313173850368 -1.8797590006265974 -1.5707963255949433 2.8096862576282495 5.7
4.297168627542284 -1.5178991363129668 1.822382717364898 -1.8752799128066135 -1.5707963256720132 2.7263723007961085 5.75
4.205568225735009 -1.4936345797870787 1.7931935812126463 -1.8703553328243838 -1.5707963257567488 2.634771898985411 5.8
4.107250726195439 -1.4675906926643871 1.7618639928747322 -1.8650696312271995 -1.5707963258476978 2.5364543994421695 5.85
4.0039895398981065 -1.4402372439632167 1.7289590626931215 -1.8595181493455912 -1.57079632594322 2.433193213140979 5.9
3.8977038376236646 -1.4120826138540825 1.6950903484351456 -1.8538040647838314 -1.57079632604154 2.326907510862567 5.95
3.7904002460364445 -1.383658349198814 1.660897276323357 -1.8480352569104384 -1.5707963261408018 2.219603919271339 6.0
3.6841145437620035 -1.35550371908968 1.627028562065381 -1.8423211723486785 -1.5707963262391218 2.113318216992927 6.05
3.5808533574646697 -1.3281502703885093 1.5941236318837704 -1.8367696904670703 -1.570796326334644 2.010057030691737 6.1
3.482535857925101 -1.302106383265818 1.5627940435458563 -1.831483988869886 -1.570796326425593 1.911739531148495 6.15
3.3909354561178255 -1.2778418267399296 1.5336049073936044 -1.8265594088876562 -1.5707963265103286 1.8201391293377975 6.2
3.3076214992887962 -1.2557723142161012 1.5070563073734657 -1.8220803210676724 -1.5707963265873985 1.7368251725056572 6.25
3.233900967032942 -1.2362440590256458 1.4835647220662307 -1.8181169906644898 -1.570796326655594 1.6631046402470484 6.3
3.1707601673717143 -1.2195183299650558 1.4634444457168834 -1.8147224431304314 -1.5707963267140026 1.599963840583462 6.35
3.118806432830633 -1.2057560068351267 1.4468890092644515 -1.8119293296060892 -1.5707963267620628 1.5480101060404399 6.4
3.0782098165168486 -1.1950021359800824 1.4339526013718644 -1.8097467924108295 -1.5707963267996168 1.5074134897251397 6.45
3.048644788196678 -1.1871704858266956 1.4245314894558019 -1.808157330533294 -1.570796326826966 1.4778484614038636 6.5
3.029231930373165 -1.1820281024234138 1.4183454407165499 -1.8071136651219057 -1.570796326844924 1.4584356035796247 6.55
3.0184796343636235 -1.1791798649794827 1.4149191431678538 -1.8065356049753682 -1.5707963268548706 1.447683307569682 6.6
3.014225796377186 -1.1780530414040682 1.4135636266667695 -1.806306912033172 -1.5707963268588057 1.4434294695830867 6.65
3.013579513592356 -1.1778818438453806 1.4133576839435165 -1.806272166866096 -1.5707963268594034 1.4427831867982324 6.7
3.0135795135923544 -1.1778818438453802 1.4133576839435165 -1.806272166866096 -1.5707963268594034 1.4427831867982306 6.75
3.0135795135948045 -1.1778548934204418 1.4134142324816943 -1.806355665829125 -1.570796326859534 1.4427831868006975 6.8
3.0135795136109294 -1.1776775055276416 1.413786435370934 -1.8069052566105912 -1.5707963268603928 1.442783186816934 6.85
3.013579513651688 -1.177229127583306 1.4147272412157899 -1.808294440398333 -1.570796326862564 1.4427831868579746 6.9
3.013579513725276 -1.17641959841141 1.4164258300650467 -1.8108025584168683 -1.5707963268664842 1.4427831869320722 6.95
3.0135795138373482 -1.1751867169309655 1.4190127148961804 -1.81462232472446 -1.570796326872454 1.4427831870449195 7.0
3.013579513991237 -1.17349381084341 1.42256484309982 -1.8198673590101813 -1.5707963268806517 1.4427831871998738 7.05
3.013579514188178 -1.1713273053199933 1.4271106979642096 -1.8265797193909825 -1.570796326891143 1.4427831873981773 7.1
3.0135795144275255 -1.1686942916891667 1.4326354001596697 -1.8347374352087553 -1.570796326903893 1.442783187639181 7.1499999999999995
3.013579514706977 -1.1656200961239713 1.4390858092230583 -1.8442620398273992 -1.5707963269187792 1.4427831879205666 7.2
3.0135795150227946 -1.162145848329425 1.4463756250422335 -1.8550261034298872 -1.5707963269356027 1.4427831882385698 7.25
3.0135795153700236 -1.1583260502299113 1.4543904893405142 -1.8668607658153304 -1.5707963269540997 1.4427831885882016 7.3
3.013579515742715 -1.1542261446565676 1.462993087161142 -1.8795632691960455 -1.5707963269739527 1.4427831889634721 7.35
3.0135795161341465 -1.1499200840346724 1.4720282483517437 -1.8929044909946189 -1.5707963269948042 1.4427831893576122 7.3999999999999995
3.013579516537043 -1.1454878990710347 1.4813280490487908 -1.9066364766409727 -1.5707963270162666 1.4427831897632968 7.449999999999999
3.0135795169437976 -1.1410132674413804 1.4907169131620637 -1.9204999723694312 -1.5707963270379341 1.4427831901728665 7.5
3.013579517346694 -1.1365810824777427 1.5000167138591107 -1.934231958015785 -1.5707963270593965 1.442783190578551 7.55
3.0135795177381253 -1.1322750218558475 1.5090518750497124 -1.9475731798143583 -1.570796327080248 1.4427831909726911 7.6
3.013579518110817 -1.1281751162825038 1.5176544728703403 -1.9602756831950734 -1.570796327100101 1.4427831913479616 7.6499999999999995
3.013579518458046 -1.1243553181829902 1.525669337168621 -1.972110345580517 -1.570796327118598 1.4427831916975935 7.699999999999999
3.0135795187738634 -1.1208810703884438 1.5329591529877962 -1.9828744091830046 -1.5707963271354215 1.4427831920155967 7.75
3.013579519053315 -1.1178068748232484 1.5394095620511847 -1.9923990138016485 -1.5707963271503078 1.4427831922969823 7.799999999999999
3.0135795192926627 -1.1151738611924218 1.5449342642466446 -2.0005567296194213 -1.5707963271630578 1.442783192537986 7.85
3.0135795194896033 -1.113007355669005 1.5494801191110346 -2.007269090000223 -1.570796327173549 1.4427831927362895 7.8999999999999995
3.0135795196434922 -1.1113144495814495 1.553032247314674 -2.012514124285944 -1.5707963271817467 1.4427831928912438 7.949999999999999
3.0135795197555644 -1.110081568101005 1.555619132145808 -2.0163338905935357 -1.5707963271877166 1.442783193004091 7.999999999999999
3.0135795198291526 -1.109272038929109 1.5573177209950646 -2.018842008612071 -1.5707963271916368 1.4427831930781887 8.049999999999999
3.013579519869911 -1.1088236609847735 1.5582585268399205 -2.0202311923998124 -1.570796327193808 1.4427831931192292 8.1
3.013579519886036 -1.1086462730919735 1.55863072972916 -2.0207807831812783 -1.5707963271946668 1.4427831931354658 8.149999999999999
3.013579519888486 -1.108619322667035 1.558687278267338 -2.020864282144308 -1.5707963271947973 1.4427831931379327 8.2
3.013579519888486 -1.108619322667035 1.558687278267338 -2.020864282144308 -1.5707963271947973 1.4427831931379327 8.25
3.013579519888486 -1.108619322667035 1.558687278267338 -2.020864282144308 -1.5707963271947973 1.4427831931379327 8.3125
3.013579519888486 -1.108619322667035 1.558687278267338 -2.020864282144308 -1.5707963271947973 1.4427831931379327 8.375
3.013579519888486 -1.108619322667035 1.558687278267338 -2.020864282144308 -1.5707963271947973 1.4427831931379327 8.4375
3.013579519888486 -1.108619322667035 1.558687278267338 -2.020864282144308 -1.5707963271947973 1.4427831931379327 8.5
3.013579519888486 -1.108619322667035 1.558687278267338 -2.020864282144308 -1.5707963271947973 1.4427831931379327 8.55
3.013579519886036 -1.1086462730919733 1.5586307297291602 -2.0207807831812787 -1.5707963271946668 1.4427831931354658 8.600000000000001
3.013579519869911 -1.1088236609847735 1.5582585268399205 -2.0202311923998124 -1.570796327193808 1.4427831931192292 8.65
3.0135795198291526 -1.109272038929109 1.5573177209950646 -2.018842008612071 -1.5707963271916368 1.4427831930781887 8.700000000000001
3.0135795197555644 -1.110081568101005 1.5556191321458077 -2.0163338905935357 -1.5707963271877166 1.442783193004091 8.75
3.0135795196434922 -1.1113144495814495 1.553032247314674 -2.012514124285944 -1.5707963271817467 1.4427831928912438 8.8
3.0135795194896033 -1.113007355669005 1.5494801191110346 -2.0072690900002224 -1.570796327173549 1.4427831927362895 8.850000000000001
3.0135795192926627 -1.1151738611924218 1.5449342642466448 -2.0005567296194213 -1.5707963271630578 1.442783192537986 8.9
3.013579519053315 -1.1178068748232484 1.5394095620511847 -1.9923990138016485 -1.5707963271503078 1.4427831922969823 8.950000000000001
3.0135795187738634 -1.1208810703884438 1.5329591529877962 -1.9828744091830046 -1.5707963271354215 1.4427831920155967 9.0
3.013579518458046 -1.1243553181829902 1.525669337168621 -1.9721103455805167 -1.570796327118598 1.4427831916975935 9.05
3.013579518110817 -1.1281751162825038 1.5176544728703403 -1.9602756831950734 -1.570796327100101 1.4427831913479616 9.1
3.0135795177381253 -1.1322750218558475 1.5090518750497124 -1.9475731798143583 -1.570796327080248 1.4427831909726911 9.15
3.013579517346694 -1.1365810824777427 1.5000167138591107 -1.934231958015785 -1.5707963270593965 1.442783190578551 9.200000000000001
3.0135795169437976 -1.1410132674413804 1.4907169131620637 -1.9204999723694312 -1.5707963270379341 1.4427831901728665 9.25
3.013579516537043 -1.1454878990710347 1.4813280490487908 -1.9066364766409727 -1.5707963270162666 1.4427831897632968 9.3
3.0135795161341465 -1.1499200840346724 1.4720282483517437 -1.8929044909946189 -1.5707963269948042 1.4427831893576122 9.35
3.013579515742715 -1.1542261446565676 1.462993087161142 -1.8795632691960455 -1.5707963269739527 1.4427831889634721 9.4
3.0135795153700236 -1.1583260502299113 1.4543904893405142 -1.8668607658153304 -1.5707963269540997 1.4427831885882016 9.450000000000001
3.0135795150227946 -1.162145848329425 1.4463756250422335 -1.855026103429887 -1.5707963269356027 1.4427831882385698 9.5
3.013579514706977 -1.1656200961239713 1.4390858092230583 -1.8442620398273992 -1.5707963269187792 1.4427831879205666 9.55
3.0135795144275255 -1.1686942916891667 1.4326354001596697 -1.8347374352087553 -1.570796326903893 1.442783187639181 9.6
3.013579514188178 -1.1713273053199933 1.4271106979642099 -1.8265797193909825 -1.570796326891143 1.4427831873981773 9.65
3.013579513991237 -1.17349381084341 1.42256484309982 -1.8198673590101813 -1.5707963268806517 1.4427831871998738 9.7
3.0135795138373482 -1.1751867169309658 1.4190127148961804 -1.81462232472446 -1.570796326872454 1.4427831870449195 9.75
3.013579513725276 -1.17641959841141 1.4164258300650465 -1.810802558416868 -1.5707963268664842 1.4427831869320722 9.8
3.013579513651688 -1.177229127583306 1.4147272412157899 -1.8082944403983328 -1.570796326862564 1.4427831868579746 9.85
3.0135795136109294 -1.1776775055276416 1.413786435370934 -1.8069052566105912 -1.5707963268603928 1.442783186816934 9.9
3.0135795135948045 -1.1778548934204416 1.4134142324816945 -1.8063556658291253 -1.570796326859534 1.4427831868006975 9.95
3.0135795135923544 -1.1778818438453802 1.4133576839435165 -1.806272166866096 -1.5707963268594034 1.4427831867982306 10.0
3.0135795135923544 -1.1778818438453802 1.4133576839435165 -1.806272166866096 -1.5707963268594034 1.4427831867982306 10.05
3.0135795135923544 -1.1778818438453802 1.4133576839435165 -1.806272166866096 -1.5707963268594034 1.4427831867982306 10.100000000000001
3.0135795135923544 -1.1778818438453802 1.4133576839435165 -1.806272166866096 -1.5707963268594034 1.4427831867982306 10.15
3.0135795135923544 -1.1778818438453802 1.4133576839435165 -1.806272166866096 -1.5707963268594034 1.4427831867982306 10.200000000000001
3.0135795135923544 -1.1778818438453802 1.4133576839435165 -1.806272166866096 -1.5707963268594034 1.4427831867982306 10.25
3.0135795135923544 -1.1778818438453802 1.4133576839435165 -1.806272166866096 -1.5707963268594034 1.4427831867982306 10.3
3.0135795135923544 -1.1778818438453802 1.4133576839435165 -1.806272166866096 -1.5707963268594034 1.4427831867982306 10.35
3.0135795135923544 -1.1778818438453802 1.4133576839435165 -1.806272166866096 -1.5707963268594034 1.4427831867982306 10.4
3.0135795135923544 -1.1778818438453802 1.4133576839435165 -1.806272166866096 -1.5707963268594034 1.4427831867982306 10.450000000000001
3.0135795135923544 -1.1778818438453802 1.4133576839435165 -1.806272166866096 -1.5707963268594034 1.4427831867982306 10.5
3.0135795135923544 -1.1778818438453802 1.4133576839435165 -1.806272166866096 -1.5707963268594034 1.4427831867982306 10.55
3.0135795135923544 -1.1778818438453802 1.4133576839435165 -1.806272166866096 -1.5707963268594034 1.4427831867982306 10.6
3.0135795135923544 -1.1778818438453802 1.4133576839435165 -1.806272166866096 -1.5707963268594034 1.4427831867982306 10.65
3.0135795135923544 -1.1778818438453802 1.4133576839435165 -1.806272166866096 -1.5707963268594034 1.4427831867982306 10.7
3.0135795135923544 -1.1778818438453802 1.4133576839435165 -1.806272166866096 -1.5707963268594034 1.4427831867982306 10.75
3.0135795135923544 -1.1778818438453802 1.4133576839435165 -1.806272166866096 -1.5707963268594034 1.4427831867982306 10.8
3.0135795135923544 -1.1778818438453802 1.4133576839435165 -1.806272166866096 -1.5707963268594034 1.4427831867982306 10.85
3.0135795135923544 -1.1778818438453802 1.4133576839435165 -1.806272166866096 -1.5707963268594034 1.4427831867982306 10.9
3.0135795135923544 -1.1778818438453802 1.4133576839435165 -1.806272166866096 -1.5707963268594034 1.4427831867982306 10.95
3.0135795135923544 -1.1778818438453802 1.4133576839435165 -1.806272166866096 -1.5707963268594034 1.4427831867982306 11.0
3.0135795135923544 -1.1778818438453802 1.4133576839435165 -1.806272166866096 -1.5707963268594034 1.4427831867982306 11.049999999999999
3.0135795135923544 -1.1778818438453802 1.4133576839435165 -1.806272166866096 -1.5707963268594034 1.4427831867982306 11.1
3.0135795135923544 -1.1778818438453802 1.4133576839435165 -1.806272166866096 -1.5707963268594034 1.4427831867982306 11.15
3.0142291021248835 -1.1779266512669277 1.4134199037578983 -1.8062895792618658 -1.570796326862101 1.443432775330672 11.200000000000001
3.0185046985667188 -1.1782215740411814 1.413829435028327 -1.8064041877773636 -1.5707963268798575 1.4477083717719286 11.25
3.0293119927576413 -1.178967041306 1.414864594679177 -1.8066938802122368 -1.5707963269247394 1.4585156659613887 11.3
3.0488241476870663 -1.18031295384516 1.4167335357043076 -1.8072169087863892 -1.5707963270057723 1.4780278208881736 11.35
3.0785404016420745 -1.1823627263566825 1.4195798602815057 -1.8080134609863618 -1.5707963271291823 1.507744074839161 11.4
3.119344670355439 -1.1851773297211603 1.4234882328869254 -1.8091072304117113 -1.5707963272986398 1.5485483435470047 11.45
3.1715641491536566 -1.188779333270083 1.4284899934095296 -1.8105069876213895 -1.5707963275155044 1.6007678223381565 11.5
3.235027915104975 -1.1931569470541648 1.4345687702655319 -1.812208150980123 -1.5707963277790657 1.664231588280888 11.55
3.3091255291674244 -1.1982680641116707 1.4416660935128367 -1.8141943575047923 -1.5707963280867887 1.7383292023333112 11.6
3.392865638336843 -1.2040443027367431 1.449687007965481 -1.8164390337108123 -1.5707963284345565 1.8220693114913997 11.65
3.4849345777949106 -1.2103950487477284 1.4585056863080752 -1.8189069664585105 -1.5707963288169133 1.91413825093701 11.7
3.583754973057175 -1.2172114977555029 1.4679710422102452 -1.8215558737995068 -1.5707963292273088 2.0129586461859033 11.75
3.687544342121081 -1.2243706974318005 1.477912343441072 -1.824337975823093 -1.5707963296583398 2.116748015235766 11.8
3.794373697614001 -1.2317395897775387 1.4881448249835338 -1.8272015655026128 -1.570796330101996 2.223577370714231 11.85
3.9022261489412644 -1.2391790533911446 1.4984753021489479 -1.8300925795418406 -1.5707963305499009 2.3314298220269016 11.9
4.009055504434184 -1.2465479457368829 1.5087077836914098 -1.8329561692213603 -1.570796330993557 2.4382591775053672 11.95
4.112844873498091 -1.2537071454131805 1.5186490849222365 -1.8357382712449466 -1.570796331424588 2.54204854655523 12.0
4.211665268760354 -1.260523594420955 1.5281144408244065 -1.838387178585943 -1.5707963318349836 2.640868941804123 12.05
4.3037342082184225 -1.2668743404319402 1.5369331191670008 -1.840855111333641 -1.5707963322173404 2.7329378812497334 12.1
4.387474317387841 -1.2726505790570126 1.544954033619645 -1.843099787539661 -1.5707963325651082 2.8166779904078223 12.15
4.461571931450291 -1.2777616961145186 1.5520513568669498 -1.8450859940643305 -1.5707963328728312 2.890775604460246 12.2
4.525035697401609 -1.2821393098986005 1.5581301337229518 -1.8467871574230639 -1.5707963331363926 2.954239370402976 12.25
4.577255176199828 -1.285741313447523 1.5631318942455563 -1.848186914632742 -1.570796333353257 3.006458849194129 12.3
4.618059444913192 -1.2885559168120009 1.567040266850976 -1.8492806840580915 -1.5707963335227146 3.047263117901972 12.35
4.647775698868201 -1.2906056893235236 1.569886591428174 -1.8500772362580642 -1.5707963336461246 3.0769793718529606 12.4
4.667287853797628 -1.2919516018626833 1.571755532453305 -1.8506002648322168 -1.5707963337271575 3.096491526779746 12.45
4.678095147988547 -1.2926970691275017 1.5727906921041546 -1.8508899572670898 -1.5707963337720394 3.107298820969204 12.5
4.682370744430382 -1.2929919919017554 1.5732002233745832 -1.8510045657825875 -1.5707963337897959 3.1115744174104574 12.549999999999999
4.683020332962913 -1.2930367993233032 1.5732624431889652 -1.8510219781783575 -1.5707963337924935 3.1122240059429025 12.6
4.6830203329629105 -1.2930367993233032 1.5732624431889652 -1.8510219781783575 -1.5707963337924935 3.1122240059429025 12.65
4.683020332168937 -1.293006173805489 1.5733189494087363 -1.8511091099548689 -1.5707963338536426 3.1122240051473367 12.700000000000001
4.683020326942997 -1.2928045964246722 1.5736908737579152 -1.8516826119410759 -1.5707963342561266 3.1122239999109182 12.75
4.683020313733548 -1.2922950754522513 1.5746309755455892 -1.8531322353487885 -1.5707963352734728 3.1122239866749832 12.8
4.683020289884396 -1.2913751548895245 1.5763282932466223 -1.8557494747817975 -1.5707963371102525 3.1122239627780104 12.85
4.683020253563063 -1.2899741516092975 1.5789132421683927 -1.8597354287645158 -1.5707963399075966 3.112223926383849 12.9
4.683020203689165 -1.2880503924974918 1.58246271211753 -1.8652086602706202 -1.570796343748713 3.112223876409948 12.95
4.68302013986278 -1.2855884515947515 1.5870051650666548 -1.8722130572516922 -1.5707963486644014 3.1122238124555834 13.0
4.683020062292822 -1.2825963872380541 1.5925257328211142 -1.880725693165861 -1.5707963546385728 3.1122237347300885 13.05
4.683019971725415 -1.2791029792023152 1.5989713146857218 -1.8906646875064435 -1.5707963616137632 3.1122236439810824 13.1
4.6830198693722584 -1.275154965841999 1.6062556751314954 -1.9018970663305872 -1.5707963694966514 3.112223541422696 13.15
4.68301975683901 -1.2708142812327254 1.614264541462393 -1.9142466227879107 -1.570796378163575 3.1122234286638055 13.2
4.68301963605365 -1.2661552923128778 1.622860701482053 -1.9275017776491457 -1.5707963874660482 3.1122233076362558 13.25
4.683019509194853 -1.261262036025212 1.6318891011605312 -1.9414234398347785 -1.5707963972362764 3.112223180523092 13.3
4.683019378620368 -1.2562254564584632 1.6411819423010376 -1.9557528669436914 -1.5707964072926743 3.1122230496867895 13.35
4.683019246795381 -1.2511406419889546 1.650563780206677 -1.9702195257818047 -1.5707964174453812 3.1122229175974785 13.4
4.683019116220896 -1.2461040624222057 1.6598566213471835 -1.9845489528907176 -1.5707964275017792 3.112222786761176 13.45
4.6830189893620995 -1.24121080613454 1.6688850210256616 -1.9984706150763503 -1.5707964372720074 3.1122226596480123 13.5
4.683018868576739 -1.2365518172146923 1.6774811810453216 -2.0117257699375855 -1.5707964465744806 3.1122225386204625 13.55
4.683018756043491 -1.2322111326054188 1.6854900473762193 -2.0240753263949087 -1.5707964552414042 3.112222425861572 13.6
4.683018653690334 -1.2282631192451026 1.6927744078219928 -2.0353077052190525 -1.5707964631242923 3.1122223233031856 13.65
4.683018563122927 -1.2247697112093636 1.6992199896866007 -2.0452466995596352 -1.5707964700994828 3.1122222325541795 13.7
4.683018485552969 -1.2217776468526662 1.70474055744106 -2.0537593354738037 -1.5707964760736541 3.1122221548286846 13.75
4.683018421726584 -1.219315705949926 1.7092830103901846 -2.060763732454876 -1.5707964809893427 3.11222209087432 13.8
4.683018371852686 -1.2173919468381202 1.712832480339322 -2.0662369639609803 -1.570796484830459 3.112222040900419 13.85
4.6830183355313535 -1.215990943557893 1.7154174292610924 -2.0702229179436986 -1.570796487627803 3.1122220045062576 13.9
4.683018311682201 -1.2150710229951664 1.7171147469621257 -2.0728401573767075 -1.5707964894645827 3.112221980609285 13.95
4.683018298472752 -1.2145615020227456 1.7180548487497995 -2.07428978078442 -1.570796490481929 3.1122219673733498 14.0
4.683018293246812 -1.214359924641929 1.7184267730989782 -2.0748632827706266 -1.570796490884413 3.1122219621369314 14.049999999999999
4.6830182924528385 -1.2143292991241146 1.7184832793187494 -2.0749504145471382 -1.570796490945562 3.1122219613413655 14.1
4.6830182924528385 -1.2143292991241146 1.7184832793187494 -2.0749504145471382 -1.570796490945562 3.1122219613413655 14.15
4.6830182924528385 -1.2143292991241146 1.7184832793187494 -2.0749504145471382 -1.570796490945562 3.1122219613413655 14.200000000000001
4.6830182924528385 -1.2143292991241146 1.7184832793187494 -2.0749504145471382 -1.570796490945562 3.1122219613413655 14.25
4.6830182924528385 -1.2143292991241146 1.7184832793187494 -2.0749504145471382 -1.570796490945562 3.1122219613413655 14.3
4.6830182924528385 -1.2143292991241146 1.7184832793187494 -2.0749504145471382 -1.570796490945562 3.1122219613413655 14.35
4.6830182924528385 -1.2143292991241146 1.7184832793187494 -2.0749504145471382 -1.570796490945562 3.1122219613413655 14.4
4.6830182924528385 -1.2143292991241146 1.7184832793187494 -2.0749504145471382 -1.570796490945562 3.1122219613413655 14.45
4.6830182924528385 -1.2143292991241146 1.7184832793187494 -2.0749504145471382 -1.570796490945562 3.1122219613413655 14.5
4.6830182924528385 -1.2143292991241146 1.7184832793187494 -2.0749504145471382 -1.570796490945562 3.1122219613413655 14.55
4.6830182924528385 -1.2143292991241146 1.7184832793187494 -2.0749504145471382 -1.570796490945562 3.1122219613413655 14.6
4.6830182924528385 -1.2143292991241146 1.7184832793187494 -2.0749504145471382 -1.570796490945562 3.1122219613413655 14.65
4.6830182924528385 -1.2143292991241146 1.7184832793187494 -2.0749504145471382 -1.570796490945562 3.1122219613413655 14.7
4.6830182924528385 -1.2143292991241146 1.7184832793187494 -2.0749504145471382 -1.570796490945562 3.1122219613413655 14.75
4.6830182924528385 -1.2143292991241146 1.7184832793187494 -2.0749504145471382 -1.570796490945562 3.1122219613413655 14.799999999999999
4.6830182924528385 -1.2143292991241146 1.7184832793187494 -2.0749504145471382 -1.570796490945562 3.1122219613413655 14.85
4.6830182924528385 -1.2143292991241146 1.7184832793187494 -2.0749504145471382 -1.570796490945562 3.1122219613413655 14.9
4.6830182924528385 -1.2143292991241146 1.7184832793187494 -2.0749504145471382 -1.570796490945562 3.1122219613413655 14.95
4.6830182924528385 -1.2143292991241146 1.7184832793187494 -2.0749504145471382 -1.570796490945562 3.1122219613413655 15.0
4.6830182924528385 -1.2143292991241146 1.7184832793187494 -2.0749504145471382 -1.570796490945562 3.1122219613413655 15.049999999999999
4.6830182924528385 -1.2143292991241146 1.7184832793187494 -2.0749504145471382 -1.570796490945562 3.1122219613413655 15.1
4.6830182924528385 -1.2143292991241146 1.7184832793187494 -2.0749504145471382 -1.570796490945562 3.1122219613413655 15.149999999999999
4.6830182924528385 -1.2143292991241146 1.7184832793187494 -2.0749504145471382 -1.570796490945562 3.1122219613413655 15.2
4.6830182924528385 -1.2143292991241146 1.7184832793187494 -2.0749504145471387 -1.570796490945562 3.1122219613413655 15.25
4.683018293246812 -1.2143599246419288 1.7184267730989784 -2.0748632827706275 -1.570796490884413 3.1122219621369314 15.3
4.683018298472752 -1.2145615020227456 1.7180548487497995 -2.0742897807844205 -1.570796490481929 3.1122219673733498 15.35
4.683018311682201 -1.2150710229951664 1.7171147469621255 -2.0728401573767075 -1.5707964894645827 3.112221980609285 15.4
4.6830183355313535 -1.2159909435578933 1.7154174292610924 -2.0702229179436986 -1.570796487627803 3.1122220045062576 15.45
4.683018371852686 -1.2173919468381202 1.712832480339322 -2.0662369639609803 -1.570796484830459 3.112222040900419 15.5
4.683018421726584 -1.219315705949926 1.7092830103901846 -2.060763732454876 -1.5707964809893427 3.11222209087432 15.55
4.683018485552969 -1.2217776468526662 1.70474055744106 -2.053759335473804 -1.5707964760736541 3.1122221548286846 15.6
4.683018563122927 -1.2247697112093636 1.6992199896866005 -2.0452466995596352 -1.5707964700994828 3.1122222325541795 15.65
4.683018653690334 -1.2282631192451026 1.6927744078219928 -2.0353077052190525 -1.5707964631242923 3.1122223233031856 15.7
4.683018756043491 -1.2322111326054188 1.6854900473762193 -2.0240753263949087 -1.5707964552414042 3.112222425861572 15.75
4.683018868576739 -1.2365518172146923 1.6774811810453216 -2.0117257699375855 -1.5707964465744806 3.1122225386204625 15.799999999999999
4.6830189893620995 -1.24121080613454 1.6688850210256616 -1.9984706150763505 -1.5707964372720074 3.1122226596480123 15.85
4.683019116220896 -1.2461040624222057 1.6598566213471835 -1.9845489528907176 -1.5707964275017792 3.112222786761176 15.9
4.683019246795381 -1.2511406419889546 1.650563780206677 -1.9702195257818047 -1.5707964174453812 3.1122229175974785 15.95
4.683019378620368 -1.2562254564584632 1.6411819423010376 -1.9557528669436914 -1.5707964072926743 3.1122230496867895 16.0
4.683019509194853 -1.261262036025212 1.6318891011605312 -1.9414234398347785 -1.5707963972362764 3.112223180523092 16.05
4.68301963605365 -1.2661552923128778 1.622860701482053 -1.9275017776491459 -1.5707963874660482 3.1122233076362558 16.099999999999998
4.68301975683901 -1.2708142812327254 1.614264541462393 -1.914246622787911 -1.570796378163575 3.1122234286638055 16.15
4.6830198693722584 -1.275154965841999 1.6062556751314954 -1.9018970663305872 -1.5707963694966514 3.112223541422696 16.2
4.683019971725415 -1.2791029792023152 1.5989713146857218 -1.8906646875064435 -1.5707963616137632 3.1122236439810824 16.25
4.683020062292822 -1.2825963872380541 1.592525732821114 -1.880725693165861 -1.5707963546385728 3.1122237347300885 16.3
4.68302013986278 -1.2855884515947515 1.5870051650666548 -1.8722130572516924 -1.5707963486644014 3.1122238124555834 16.349999999999998
4.683020203689165 -1.2880503924974918 1.58246271211753 -1.8652086602706202 -1.570796343748713 3.112223876409948 16.4
4.683020253563063 -1.2899741516092975 1.5789132421683927 -1.859735428764516 -1.5707963399075966 3.112223926383849 16.45
4.683020289884396 -1.2913751548895247 1.5763282932466223 -1.8557494747817975 -1.5707963371102525 3.1122239627780104 16.5
4.683020313733548 -1.2922950754522513 1.574630975545589 -1.8531322353487885 -1.5707963352734728 3.1122239866749832 16.55
4.683020326942997 -1.2928045964246722 1.5736908737579152 -1.851682611941076 -1.5707963342561266 3.1122239999109182 16.599999999999998
4.683020332168937 -1.2930061738054888 1.5733189494087365 -1.8511091099548693 -1.5707963338536426 3.1122240051473367 16.65
4.6830203329629105 -1.2930367993233032 1.5732624431889652 -1.8510219781783577 -1.5707963337924935 3.1122240059429025 16.7
4.6830203329629105 -1.2930367993233032 1.5732624431889652 -1.8510219781783575 -1.5707963337924935 3.1122240059429025 16.75
4.6823649900768 -1.2930562252599163 1.573287656907591 -1.8510277659570769 -1.5707963337903819 3.1115686630569686 16.8
4.678051518437871 -1.293184086915877 1.5734536137868218 -1.85106586115867 -1.5707963337764836 3.107255191419205 16.85
4.667148488271141 -1.2935072789080366 1.5738730979082192 -1.8511621532331157 -1.570796333741353 3.0963521612554175 16.9
4.647463485711283 -1.2940907896473168 1.574630460391607 -1.8513360048782979 -1.5707963336779265 3.076667158700874 16.95
4.617483991529859 -1.2949794538351858 1.5757838940320095 -1.8516007741801725 -1.5707963335813302 3.0466876645275436 17.0
4.576318259862547 -1.2961997049601308 1.577367707936591 -1.851964336752935 -1.570796333448691 3.0055219328713454 17.05
4.523636196936366 -1.2977613277941331 1.579394602161595 -1.852429607879188 -1.5707963332789454 2.9528398699593867 17.1
4.459610239796902 -1.2996592108891432 1.581857942349282 -1.852995064650109 -1.5707963330726487 2.8888139128372075 17.15
4.38485623503554 -1.301875099073553 1.5847340343648704 -1.8536552681056184 -1.5707963328317853 2.814059908096026 17.2
4.300374317516684 -1.304379345948673 1.5879843989334743 -1.854401385374547 -1.570796332559578 2.729577990599978 17.25
4.207489789104994 -1.3071326663852034 1.591558046277043 -1.8552217118148029 -1.5707963322602967 2.6366934622133633 17.3
4.107793997392602 -1.3100878890197114 1.5953937507512996 -1.8561021931535404 -1.5707963319390692 2.536997670527887 17.35
4.00308521442635 -1.3131917087511031 1.5994223254826812 -1.8570269476273267 -1.5707963316016893 2.4322888875899027 17.4
3.895309515435009 -1.3163864392370994 1.603568897005277 -1.85797878812231 -1.5707963312544275 2.3245131886276575 17.45
3.7865016575565082 -1.3196117653907098 1.6077551798977672 -1.8589397443143867 -1.57079633090384 2.2157053307785315 17.5
3.6787259585651677 -1.322806495876706 1.611901751420363 -1.85989158480937 -1.5707963305565782 2.1079296318162863 17.55
3.5740171755989154 -1.3259103156080978 1.6159303261517446 -1.8608163392831563 -1.5707963302191983 2.0032208488783025 17.599999999999998
3.474321383886524 -1.3288655382426058 1.6197660306260013 -1.8616968206218938 -1.5707963298979708 1.9035250571928257 17.65
3.3814368554748335 -1.3316188586791364 1.62333967796957 -1.8625171470621498 -1.5707963295986895 1.8106405288062106 17.7
3.296954937955978 -1.3341231055542562 1.6265900425381739 -1.8632632643310783 -1.5707963293264822 1.7261586113101626 17.75
3.222200933194615 -1.336338993738666 1.6294661345537622 -1.8639234677865877 -1.5707963290856188 1.65140460656898 17.8
3.158174976055152 -1.338236876833676 1.6319294747414492 -1.8644889245575087 -1.570796328879322 1.5873786494468027 17.849999999999998
3.1054929131289697 -1.3397984996676784 1.6339563689664531 -1.8649541956837616 -1.5707963287095765 1.5346965865348423 17.9
3.0643271814616586 -1.3410187507926234 1.6355401828710348 -1.8653177582565241 -1.5707963285769373 1.4935308548786441 17.95
3.034347687280234 -1.3419074149804924 1.6366936165114374 -1.8655825275583988 -1.570796328480341 1.4635513607053132 18.0
3.0146626847203764 -1.3424909257197726 1.637450978994825 -1.8657563792035812 -1.5707963284169144 1.4438663581507685 18.05
3.0037596545536482 -1.3428141177119322 1.6378704631162224 -1.8658526712780268 -1.5707963283817838 1.4329633279869842 18.099999999999998
2.9994461829147214 -1.342941979367893 1.638036419995453 -1.8658907664796198 -1.5707963283678856 1.4286498563492203 18.15
2.998790840028609 -1.342961405304506 1.638061633714079 -1.8658965542583392 -1.570796328365774 1.4279945134632843 18.2
2.9987908400286063 -1.342961405304506 1.638061633714079 -1.8658965542583392 -1.570796328365774 1.427994513463287 18.25
2.998790839672575 -1.3429292741937027 1.6381185408294965 -1.865985592501829 -1.5707963283480892 1.427994513108348 18.3
2.9987908373291763 -1.3427177869888893 1.6384931038767325 -1.8665716428675418 -1.5707963282316875 1.427994510772137 18.35
2.998790831405838 -1.3421832172578292 1.6394398754206796 -1.8680529844298523 -1.5707963279374624 1.4279945048669682 18.4
2.9987908207114784 -1.3412180721226306 1.64114923511071 -1.8707274897737964 -1.5707963274062502 1.4279944942054126 18.45
2.998790804424384 -1.3397481935754003 1.6437525235139192 -1.8748006575142195 -1.5707963265972347 1.4279944779682774 18.5
2.9987907820600923 -1.3377298597938945 1.6473271759483672 -1.8803936448149228 -1.5707963254863515 1.427994455672586 18.55
2.9987907534392715 -1.3351468864571723 1.6519018563163188 -1.8875512999078103 -1.570796324064693 1.427994427139557 18.6
2.9987907186556026 -1.3320077280612477 1.6574615909374864 -1.896250194612037 -1.5707963223369124 1.4279943924625838 18.65
2.998790678043659 -1.3283425792347419 1.6639529023822706 -1.9064066568531541 -1.5707963203196285 1.4279943519752136 18.7
2.9987906321467883 -1.3242004760545356 1.6712889433050027 -1.9178848031822577 -1.570796318039831 1.4279943062191278 18.75
2.998790581684994 -1.3196463973614216 1.6793546302771851 -1.9305045712951348 -1.5707963155332836 1.4279942559121201 18.8
2.998790527522814 -1.3147583660757571 1.688011777620734 -1.9440497525514107 -1.57079631284293 1.4279942019160776 18.85
2.9987904706372035 -1.3096245505131163 1.69710423124122 -1.9582760244936963 -1.5707963100172977 1.4279941452049587 18.9
2.998790412085416 -1.304340365699942 1.7064630024611092 -1.9729189833667349 -1.5707963071089028 1.4279940868327734 18.95
2.9987903529728825 -1.2990055746891982 1.7159114018530068 -1.987702176636549 -1.5707963041726545 1.4279940279015624 19.0
2.998790294421095 -1.2937213898760238 1.725270173072896 -2.0023451355095876 -1.5707963012642596 1.427993969529377 19.05
2.9987902375354847 -1.288587574313383 1.7343626266933818 -2.016571407451873 -1.5707962984386272 1.4279939128182582 19.099999999999998
2.9987901833733046 -1.2836995430277185 1.7430197740369309 -2.0301165887081494 -1.5707962957482737 1.4279938588222156 19.15
2.9987901329115103 -1.2791454643346045 1.7510854610091133 -2.042736356821026 -1.5707962932417263 1.427993808515208 19.2
2.9987900870146396 -1.2750033611543983 1.7584215019318454 -2.0542145031501295 -1.5707962909619289 1.4279937627591222 19.25
2.998790046402696 -1.2713382123278925 1.7649128133766296 -2.0643709653912468 -1.570796288944645 1.427993722271752 19.3
2.998790011619027 -1.2681990539319679 1.7704725479977972 -2.0730698600954733 -1.5707962872168644 1.4279936875947787 19.349999999999998
2.9987899829982063 -1.2656160805952457 1.7750472283657488 -2.080227515188361 -1.5707962857952058 1.4279936590617497 19.4
2.9987899606339146 -1.2635977468137398 1.7786218808001966 -2.085820502489064 -1.5707962846843226 1.4279936367660584 19.45
2.9987899443468202 -1.2621278682665094 1.7812251692034062 -2.0898936702294875 -1.5707962838753071 1.4279936205289232 19.5
2.9987899336524606 -1.261162723131311 1.7829345288934366 -2.0925681755734313 -1.570796283344095 1.4279936098673676 19.55
2.9987899277291223 -1.2606281534002508 1.7838813004373832 -2.094049517135742 -1.5707962830498698 1.4279936039621988 19.599999999999998
2.9987899253857235 -1.2604166661954377 1.7842558634846195 -2.0946355675014545 -1.570796282933468 1.4279936016259878 19.65
2.9987899250296923 -1.260384535084634 1.784312770600037 -2.0947246057449442 -1.5707962829157833 1.4279936012710488 19.7
2.9987899250296923 -1.260384535084634 1.784312770600037 -2.0947246057449442 -1.5707962829157833 1.4279936012710488 19.75
2.9987899250296923 -1.260384535084634 1.784312770600037 -2.0947246057449442 -1.5707962829157833 1.4279936012710488 19.8125
2.9987899250296923 -1.260384535084634 1.784312770600037 -2.0947246057449442 -1.5707962829157833 1.4279936012710488 19.875
2.9987899250296923 -1.260384535084634 1.784312770600037 -2.0947246057449442 -1.5707962829157833 1.4279936012710488 19.9375
2.9987899250296923 -1.260384535084634 1.784312770600037 -2.0947246057449442 -1.5707962829157833 1.4279936012710488 20.0
2.9987899250296923 -1.260384535084634 1.784312770600037 -2.0947246057449447 -1.5707962829157833 1.4279936012710488 20.05
2.9987899253857235 -1.2604166661954375 1.7842558634846195 -2.094635567501455 -1.570796282933468 1.4279936016259878 20.1
2.9987899277291223 -1.2606281534002508 1.7838813004373835 -2.0940495171357423 -1.5707962830498698 1.4279936039621988 20.150000000000002
2.9987899336524606 -1.261162723131311 1.7829345288934364 -2.0925681755734318 -1.570796283344095 1.4279936098673676 20.2
2.9987899443468202 -1.2621278682665096 1.781225169203406 -2.0898936702294875 -1.5707962838753071 1.4279936205289232 20.25
2.9987899606339146 -1.2635977468137398 1.7786218808001968 -2.085820502489064 -1.5707962846843226 1.4279936367660584 20.3
2.9987899829982063 -1.2656160805952457 1.7750472283657488 -2.080227515188361 -1.5707962857952058 1.4279936590617497 20.35
2.998790011619027 -1.2681990539319679 1.7704725479977972 -2.0730698600954733 -1.5707962872168644 1.4279936875947787 20.400000000000002
2.998790046402696 -1.2713382123278925 1.7649128133766296 -2.0643709653912468 -1.570796288944645 1.427993722271752 20.45
2.9987900870146396 -1.2750033611543983 1.7584215019318454 -2.0542145031501295 -1.5707962909619289 1.4279937627591222 20.5
2.9987901329115103 -1.2791454643346045 1.7510854610091133 -2.042736356821026 -1.5707962932417263 1.427993808515208 20.55
2.9987901833733046 -1.2836995430277185 1.7430197740369309 -2.0301165887081494 -1.5707962957482737 1.4279938588222156 20.6
2.9987902375354847 -1.288587574313383 1.734362626693382 -2.016571407451873 -1.5707962984386272 1.4279939128182582 20.65
2.998790294421095 -1.2937213898760238 1.725270173072896 -2.0023451355095876 -1.5707963012642596 1.427993969529377 20.7
2.9987903529728825 -1.2990055746891982 1.7159114018530068 -1.987702176636549 -1.5707963041726545 1.4279940279015624 20.75
2.998790412085416 -1.304340365699942 1.7064630024611092 -1.9729189833667349 -1.5707963071089028 1.4279940868327734 20.8
2.9987904706372035 -1.3096245505131163 1.69710423124122 -1.9582760244936965 -1.5707963100172977 1.4279941452049587 20.85
2.998790527522814 -1.3147583660757571 1.6880117776207342 -1.9440497525514107 -1.57079631284293 1.4279942019160776 20.9
2.998790581684994 -1.3196463973614216 1.6793546302771851 -1.9305045712951348 -1.5707963155332836 1.4279942559121201 20.95
2.9987906321467883 -1.3242004760545356 1.6712889433050027 -1.9178848031822577 -1.570796318039831 1.4279943062191278 21.0
2.998790678043659 -1.3283425792347419 1.6639529023822706 -1.9064066568531541 -1.5707963203196285 1.4279943519752136 21.05
2.9987907186556026 -1.3320077280612477 1.6574615909374864 -1.896250194612037 -1.5707963223369124 1.4279943924625838 21.1
2.9987907534392715 -1.3351468864571723 1.6519018563163188 -1.8875512999078106 -1.570796324064693 1.427994427139557 21.15
2.9987907820600923 -1.3377298597938945 1.6473271759483672 -1.8803936448149228 -1.5707963254863515 1.427994455672586 21.2
2.998790804424384 -1.3397481935754003 1.6437525235139194 -1.8748006575142198 -1.5707963265972347 1.4279944779682774 21.25
2.9987908207114784 -1.3412180721226308 1.6411492351107098 -1.8707274897737964 -1.5707963274062502 1.4279944942054126 21.3
2.998790831405838 -1.3421832172578292 1.6394398754206794 -1.8680529844298523 -1.5707963279374624 1.4279945048669682 21.35
2.9987908373291763 -1.3427177869888893 1.6384931038767327 -1.866571642867542 -1.5707963282316875 1.427994510772137 21.4
2.998790839672575 -1.3429292741937024 1.6381185408294965 -1.8659855925018292 -1.5707963283480892 1.427994513108348 21.45
2.9987908400286063 -1.342961405304506 1.638061633714079 -1.8658965542583394 -1.570796328365774 1.427994513463287 21.5
2.9987908400286063 -1.342961405304506 1.638061633714079 -1.8658965542583394 -1.570796328365774 1.427994513463287 21.55
2.9987908400286063 -1.342961405304506 1.638061633714079 -1.8658965542583394 -1.570796328365774 1.427994513463287 21.6
2.9987908400286063 -1.342961405304506 1.638061633714079 -1.8658965542583394 -1.570796328365774 1.427994513463287 21.650000000000002
2.9987908400286063 -1.342961405304506 1.638061633714079 -1.8658965542583394 -1.570796328365774 1.427994513463287 21.7
2.9987908400286063 -1.342961405304506 1.638061633714079 -1.8658965542583394 -1.570796328365774 1.427994513463287 21.75
2.9987908400286063 -1.342961405304506 1.638061633714079 -1.8658965542583394 -1.570796328365774 1.427994513463287 21.8
2.9987908400286063 -1.342961405304506 1.638061633714079 -1.8658965542583394 -1.570796328365774 1.427994513463287 21.85
2.9987908400286063 -1.342961405304506 1.638061633714079 -1.8658965542583394 -1.570796328365774 1.427994513463287 21.900000000000002
2.9987908400286063 -1.342961405304506 1.638061633714079 -1.8658965542583394 -1.570796328365774 1.427994513463287 21.95
2.9987908400286063 -1.342961405304506 1.638061633714079 -1.8658965542583394 -1.570796328365774 1.427994513463287 22.0
2.9987908400286063 -1.342961405304506 1.638061633714079 -1.8658965542583394 -1.570796328365774 1.427994513463287 22.05
2.9987908400286063 -1.342961405304506 1.638061633714079 -1.8658965542583394 -1.570796328365774 1.427994513463287 22.1
2.9987908400286063 -1.342961405304506 1.638061633714079 -1.8658965542583394 -1.570796328365774 1.427994513463287 22.150000000000002
2.9987908400286063 -1.342961405304506 1.638061633714079 -1.8658965542583394 -1.570796328365774 1.427994513463287 22.200000000000003
2.9987908400286063 -1.342961405304506 1.638061633714079 -1.8658965542583394 -1.570796328365774 1.427994513463287 22.25
2.9987908400286063 -1.342961405304506 1.638061633714079 -1.8658965542583394 -1.570796328365774 1.427994513463287 22.3
2.9987908400286063 -1.342961405304506 1.638061633714079 -1.8658965542583394 -1.570796328365774 1.427994513463287 22.35
2.9987908400286063 -1.342961405304506 1.638061633714079 -1.8658965542583394 -1.570796328365774 1.427994513463287 22.400000000000002
2.9987908400286063 -1.342961405304506 1.638061633714079 -1.8658965542583394 -1.570796328365774 1.427994513463287 22.450000000000003
2.9987908400286063 -1.342961405304506 1.638061633714079 -1.8658965542583394 -1.570796328365774 1.427994513463287 22.5
2.9987908400286063 -1.342961405304506 1.638061633714079 -1.8658965542583394 -1.570796328365774 1.427994513463287 22.55
2.9987908400286063 -1.342961405304506 1.638061633714079 -1.8658965542583394 -1.570796328365774 1.427994513463287 22.6
2.9987899250296923 -1.260384535084634 1.784312770600037 -2.0947246057449447 -1.5707962829157833 1.4279936012710488 22.650000000000002
2.998925718084303 -1.260402153793413 1.7842371310579457 -2.094631347506456 -1.5707962829141022 1.4281293943253994 22.700000000000003
2.9998195089565924 -1.2605181202626354 1.7837392710422086 -2.0940175211029914 -1.5707962829030369 1.4290231851959787 22.750000000000004
3.0020787167731857 -1.2608112451555524 1.7824808455268069 -2.0924659709006654 -1.5707962828750677 1.4312823930082494 22.8
3.00615762978845 -1.2613404709009821 1.780208806551104 -2.0896647065514444 -1.5707962828245703 1.4353613060157087 22.85
3.0123696558542727 -1.2621464611520639 1.776748579454616 -2.0853984897702817 -1.5707962827476647 1.4415733320696458 22.900000000000002
3.020899572889847 -1.263253190245014 1.7719972391117813 -2.0795404211122475 -1.5707962826420634 1.450103249088899 22.950000000000003
3.031815779351448 -1.2646695326578785 1.7659166861667286 -2.07204352674966 -1.5707962825069195 1.4610194555296128 23.000000000000004
3.045082544702215 -1.2663908524692906 1.758526823268047 -2.0629323452492185 -1.5707962823426753 1.4742862208549954 23.05
3.060572259881933 -1.268400592817222 1.749898731303556 -2.0522945143491347 -1.570796282150911 1.4897759360050753 23.1
3.0780776877768123 -1.2706718653577405 1.7401478456350739 -2.0402723577362636 -1.5707962819341919 1.5072813638664597 23.150000000000002
3.0973242136892694 -1.2731690397237625 1.7294271323331871 -2.027054471823236 -1.5707962816959176 1.5265278897420904 23.200000000000003
3.117982095807708 -1.275849332983809 1.7179202644120206 -2.0128673125255907 -1.5707962814401706 1.5471857718210023 23.25
3.139678715676299 -1.2786643991007596 1.7058347980640063 -1.9979667820389047 -1.570796281171564 1.5688823916480792 23.3
3.1620108286647626 -1.2815619183906073 1.6933953488946525 -1.9826298156159257 -1.57079628089509 1.5912145045938124 23.35
3.1845568144381473 -1.2844871869812133 1.680836768157314 -1.9671459683437045 -1.5707962806159679 1.6137604903240574 23.400000000000002
3.206888927426611 -1.287384706271061 1.6683973189879602 -1.9518090019207255 -1.570796280339494 1.6360926032697907 23.450000000000003
3.228585547295202 -1.2901997723880116 1.6563118526399458 -1.9369084714340392 -1.5707962800708872 1.6577892230968676 23.5
3.2492434294136405 -1.2928800656480581 1.6448049847187793 -1.9227213121363937 -1.5707962798151403 1.6784471051757794 23.55
3.2684899553260975 -1.2953772400140802 1.6340842714168928 -1.9095034262233666 -1.570796279576866 1.6976936310514101 23.6
3.285995383220977 -1.2976485125545987 1.6243333857484104 -1.8974812696104952 -1.5707962793601469 1.7151990589127946 23.650000000000002
3.3014850984006947 -1.2996582529025302 1.6157052937839194 -1.8868434387104114 -1.5707962791683825 1.7306887740628747 23.700000000000003
3.3147518637514617 -1.301379572713942 1.6083154308852379 -1.8777322572099702 -1.5707962790041383 1.7439555393882569 23.75
3.3256680702130628 -1.3027959151268067 1.6022348779401852 -1.8702353628473827 -1.5707962788689944 1.7548717458289709 23.8
3.334197987248637 -1.3039026442197568 1.5974835375973504 -1.8643772941893482 -1.5707962787633931 1.7634016628482239 23.85
3.3404100133144605 -1.3047086344708385 1.5940233105008625 -1.8601110774081857 -1.5707962786864875 1.7696136889021612 23.900000000000002
3.3444889263297246 -1.3052378602162682 1.5917512715251594 -1.8573098130589647 -1.5707962786359901 1.7736926019096206 23.950000000000003
3.3467481341463174 -1.3055309851091852 1.5904928460097578 -1.8557582628566387 -1.570796278608021 1.775951809721891 24.0
3.347641925018607 -1.3056469515784075 1.589994985994021 -1.8551444364531746 -1.5707962785969556 1.7768456005924698 24.05
3.3477777180732176 -1.3056645702871865 1.5899193464519294 -1.8550511782146857 -1.5707962785952745 1.776981393646821 24.1
