Andreas691667/Digital_Twin_UR/src/dt/dt_trajectories/04_10_2024_16_12_18.csv
actual_q_0 actual_q_1 actual_q_2 actual_q_3 actual_q_4 actual_q_5 actual_qd_0 actual_qd_1 actual_qd_2 actual_qd_3 actual_qd_4 actual_qd_5 actual_qdd_0 actual_qdd_1 actual_qdd_2 actual_qdd_3 actual_qdd_4 actual_qdd_5 timestamp
3.3477777180732176 -1.3056645702871865 1.5899193464519294 -1.8550511782146855 -1.5707962785952745 1.776981393646821 0.0 0.0 0.0 0.0 0.0 0.0 0.0 0.0 0.0 0.0 0.0 0.0 3404.825
3.3477777180732176 -1.3056645702871865 1.5899193464519294 -1.8550511782146855 -1.5707962785952745 1.776981393646821 0.0 0.0 0.0 0.0 0.0 0.0 0.0 0.0 0.0 0.0 0.0 0.0 3404.875
3.3477777180732176 -1.3056645702871865 1.5899193464519294 -1.8550511782146855 -1.5707962785952745 1.776981393646821 0.0 0.0 0.0 0.0 0.0 0.0 0.0 0.0 0.0 0.0 0.0 0.0 3404.925
3.3477777180732176 -1.3056645702871865 1.5899193464519294 -1.8550511782146855 -1.5707962785952745 1.776981393646821 0.0 0.0 0.0 0.0 0.0 0.0 0.0 0.0 0.0 0.0 0.0 0.0 3404.975
3.3477777180732176 -1.3056645702871865 1.5899193464519294 -1.8550511782146855 -1.5707962785952745 1.776981393646821 0.0 0.0 0.0 0.0 0.0 0.0 0.0 0.0 0.0 0.0 0.0 0.0 3405.025
3.3477777180732176 -1.3056645702871865 1.5899193464519294 -1.8550511782146855 -1.5707962785952745 1.776981393646821 0.0 0.0 0.0 0.0 0.0 0.0 0.0 0.0 0.0 0.0 0.0 0.0 3405.075
3.3477777180732176 -1.3056645702871865 1.5899193464519294 -1.8550511782146855 -1.5707962785952745 1.776981393646821 0.0 0.0 0.0 0.0 0.0 0.0 0.0 0.0 0.0 0.0 0.0 0.0 3405.125
3.3477777180732176 -1.3056645702871865 1.5899193464519294 -1.8550511782146855 -1.5707962785952745 1.776981393646821 0.0 0.0 0.0 0.0 0.0 0.0 0.0 0.0 0.0 0.0 0.0 0.0 3405.175
3.3477777180732176 -1.3056645702871865 1.5899193464519294 -1.8550511782146855 -1.5707962785952745 1.776981393646821 0.0 0.0 0.0 0.0 0.0 0.0 0.0 0.0 0.0 0.0 0.0 0.0 3405.225
3.3477777180732176 -1.3056645702871865 1.5899193464519294 -1.8550511782146855 -1.5707962785952745 1.776981393646821 0.0 0.0 0.0 0.0 0.0 0.0 0.0 0.0 0.0 0.0 0.0 0.0 3405.275
3.3477777180732176 -1.3056645702871865 1.5899193464519294 -1.8550511782146855 -1.5707962785952745 1.776981393646821 0.0 0.0 0.0 0.0 0.0 0.0 0.0 0.0 0.0 0.0 0.0 0.0 3405.325
3.3477777180732176 -1.3056645702871865 1.5899193464519294 -1.8550511782146855 -1.5707962785952745 1.776981393646821 0.04411978543027667 -0.010381751793991574 0.011729076815889429 -0.0013473227330428029 -1.5538868658268252e-09 0.044119785353603246 2.467556570850474 -0.5806365467639574 0.6559905104886731 -0.07535383571232247 -8.690667256731458e-08 2.4675565665622385 3405.375
3.3477777180732176 -1.3056645702871865 1.5899193464519294 -1.8550511782146855 -1.5707962785952745 1.776981393646821 0.16409858968710048 -0.038613760499080906 0.04362498468767038 -0.0050112156754500165 -5.779507781570182e-09 0.16409858940192226 4.406351019375847 -1.0368509763642095 1.1714116258726306 -0.13456042091486156 -1.5519048672734747e-07 4.406351011718283 3405.425
3.3477777180732176 -1.3056645702871865 1.5899193464519294 -1.8550511782146855 -1.5707962785952745 1.776981393646821 0.3423785389767899 -0.08056451264623053 0.09102002978044807 -0.01045549937223522 -1.20584791985847e-08 0.34237853838178844 5.855550910192791 -1.3778597419239942 1.5566758939374068 -0.1788158482379716 -2.0623091347323065e-07 5.855550900016741 3405.475
3.3477777180732176 -1.3056645702871865 1.5899193464519294 -1.8550511782146855 -1.5707962785952745 1.776981393646821 0.5627523651821004 -0.13242030349479048 0.14960557163124272 -0.017185238941872485 -1.9819985533505422e-08 0.562752364204123 6.854323807917984 -1.6128792965665484 1.8221958624685366 -0.2093162103120069 -2.414074237980961e-07 6.854323796006219 3405.525
3.3477777180732176 -1.3056645702871865 1.5899193464519294 -1.8550511782146855 -1.5707962785952745 1.776981393646821 0.8103634058622247 -0.19068523703249834 0.21543202314898954 -0.024746744076296383 -2.8540779168247815e-08 0.8103634044539372 7.441837277168096 -1.7511260934151098 1.978384079251554 -0.22725759976732177 -2.6209948869507576e-07 7.441837264235324 3405.575
3.3477777180732176 -1.3056645702871865 1.5899193464519294 -1.8550511782146855 -1.5707962785952745 1.776981393646821 1.0717056042527922 -0.25218122597547904 0.28490885061453863 -0.03272756904090196 -3.774518045000773e-08 1.071705602390332 7.657258882559804 -1.8018165855929156 2.0356530920719935 -0.23383610923427056 -2.6968657915730165e-07 7.6572588692526615 3405.625
3.3477777180732176 -1.3056645702871865 1.5899193464519294 -1.8550511782146855 -1.5707962785952745 1.776981393646821 1.3346235092658694 -0.31404799176824516 0.35480457368065527 -0.04075651267454479 -4.700507769126147e-08 1.3346235069464982 7.539756188709781 -1.774167226223203 2.00441544871539 -0.23024783134320756 -2.655481661779057e-07 7.539756175606841 3405.6749999999997
3.3477777180732176 -1.3056645702871865 1.5899193464519294 -1.8550511782146855 -1.5707962785952745 1.776981393646821 1.5883122754899601 -0.37374306458369666 0.42224676537201944 -0.048503618389540905 -5.593992716976571e-08 1.5883122727297168 7.128496760234704 -1.6773944684292106 1.8950836969672782 -0.21768885872448718 -2.5106372075001996e-07 7.1284967478464685 3405.725
3.3477777180732176 -1.3056645702871865 1.5899193464519294 -1.8550511782146855 -1.5707962785952745 1.776981393646821 1.8233176631900052 -0.4290417833231212 0.4847220520852264 -0.05568017417166685 -6.421675312855757e-08 1.8233176600213585 6.462648161751241 -1.5207147653341744 1.7180703846131913 -0.19735528400846364 -2.2761271386677634e-07 6.462648150520147 3405.775
3.3477777180732176 -1.3056645702871865 1.5899193464519294 -1.8550511782146855 -1.5707962785952745 1.776981393646821 2.0315360383073826 -0.47803729561619374 0.5400761135887863 -0.06203871258015967 -7.15501477759546e-08 2.031536034776884 5.58137795787607 -1.313344570061332 1.4837880594386657 -0.1704431998254913 -1.965746165213068e-07 5.581377948176491 3405.825
3.3477777180732176 -1.3056645702871865 1.5899193464519294 -1.8550511782146855 -1.5707962785952745 1.776981393646821 2.206214372459906 -0.5191405578209766 0.5865136830231239 -0.0673730107477169 -7.770227128555465e-08 2.2062143686258437 4.52385371322587 -1.0645003357339229 1.202649269229234 -0.13814869880592462 -1.5932889970674355e-07 4.523853705364107 3405.875
3.3477777180732176 -1.3056645702871865 1.5899193464519294 -1.8550511782146855 -1.5707962785952745 1.776981393646821 2.341950242941829 -0.5510803350239202 0.6225985469005796 -0.07151809038049653 -8.248285179623618e-08 2.341950238871878 3.329242992417306 -0.7833985154751806 0.885066561770432 -0.10166787358011763 -1.1725503441621818e-07 3.3292429866315914 3405.9249999999997
3.3477777180732176 -1.3056645702871865 1.5899193464519294 -1.8550511782146855 -1.5707962785952745 1.776981393646821 2.4346918327238387 -0.5729032010398616 0.6472535451054084 -0.07435021775811712 -8.574918541215786e-08 2.4346918284927184 2.0367133600670546 -0.47925556240834494 0.5414524848477936 -0.0621968167784249 -7.173249164286271e-08 2.036713356527561 3405.975
3.3477777180732176 -1.3056645702871865 1.5899193464519294 -1.8550511782146855 -1.5707962785952745 1.776981393646821 2.481737930453064 -0.5839735384120264 0.6597605708937807 -0.07578690373365768 -8.740613620275896e-08 2.4817379261401835 0.6854323807917994 -0.1612879296566544 0.18221958624685292 -0.020931621031200658 -2.4140742379809555e-08 0.6854323796006208 3406.025
3.3477777180732176 -1.3056645702871865 1.5899193464519294 -1.8550511782146855 -1.5707962785952745 1.776981393646821 2.481737930453063 -0.583973538412026 0.6597605708937805 -0.07578690373365765 -8.740613620275892e-08 2.4817379261401835 -0.6854323807917994 0.16128792965665617 -0.1822195862468547 0.02093162103120088 2.4140742379809767e-08 -0.6854323796006279 3406.075
3.3477777180732176 -1.3056645702871865 1.5899193464519294 -1.8550511782146855 -1.5707962785952745 1.776981393646821 2.4346918327238396 -0.5729032010398616 0.6472535451054087 -0.07435021775811712 -8.574918541215789e-08 2.434691828492717 -2.0367133600670546 0.47925556240834494 -0.5414524848477918 0.06219681677842468 7.173249164286271e-08 -2.036713356527554 3406.125
3.3477777180732176 -1.3056645702871865 1.5899193464519294 -1.8550511782146855 -1.5707962785952745 1.776981393646821 2.341950242941829 -0.55108033502392 0.6225985469005795 -0.07151809038049652 -8.248285179623613e-08 2.341950238871877 -3.3292429924173033 0.7833985154751799 -0.8850665617704304 0.10166787358011732 1.1725503441621769e-07 -3.329242986631585 3406.1749999999997
3.3477777180732176 -1.3056645702871865 1.5899193464519294 -1.8550511782146855 -1.5707962785952745 1.776981393646821 2.206214372459905 -0.5191405578209767 0.5865136830231236 -0.06737301074771687 -7.770227128555468e-08 2.206214368625843 -4.523853713225867 1.064500335733922 -1.2026492692292332 0.1381486988059245 1.5932889970674334e-07 -4.523853705364107 3406.225
3.3477777180732176 -1.3056645702871865 1.5899193464519294 -1.8550511782146855 -1.5707962785952745 1.776981393646821 2.0315360383073826 -0.47803729561619385 0.5400761135887857 -0.06203871258015968 -7.155014777595461e-08 2.0315360347768845 -5.581377957876066 1.3133445700613329 -1.4837880594386648 0.1704431998254912 1.965746165213067e-07 -5.581377948176487 3406.275
3.3477777180732176 -1.3056645702871865 1.5899193464519294 -1.8550511782146855 -1.5707962785952745 1.776981393646821 1.823317663190005 -0.4290417833231211 0.48472205208522656 -0.055680174171666916 -6.421675312855753e-08 1.823317660021357 -6.462648161751243 1.520714765334175 -1.718070384613191 0.19735528400846372 2.2761271386677629e-07 -6.462648150520153 3406.325
3.3477777180732176 -1.3056645702871865 1.5899193464519294 -1.8550511782146855 -1.5707962785952745 1.776981393646821 1.5883122754899577 -0.37374306458369666 0.4222467653720196 -0.04850361838954091 -5.593992716976574e-08 1.5883122727297163 -7.128496760234711 1.6773944684292137 -1.89508369696728 0.21768885872448746 2.5106372075002017e-07 -7.128496747846481 3406.375
3.3477777180732176 -1.3056645702871865 1.5899193464519294 -1.8550511782146855 -1.5707962785952745 1.776981393646821 1.334623509265868 -0.3140479917682453 0.3548045736806553 -0.040756512674544755 -4.70050776912615e-08 1.3346235069465 -7.539756188709776 1.7741672262232009 -2.004415448715389 0.23024783134320725 2.6554816617790515e-07 -7.5397561756068345 3406.4249999999997
3.3477777180732176 -1.3056645702871865 1.5899193464519294 -1.8550511782146855 -1.5707962785952745 1.776981393646821 1.0717056042527928 -0.2521812259754787 0.2849088506145386 -0.03272756904090196 -3.7745180450007643e-08 1.0717056023903335 -7.657258882559813 1.8018165855929136 -2.0356530920719957 0.23383610923427076 2.6968657915730207e-07 -7.657258869252669 3406.475
3.3477777180732176 -1.3056645702871865 1.5899193464519294 -1.8550511782146855 -1.5707962785952745 1.776981393646821 0.810363405862223 -0.1906852370324977 0.21543202314898888 -0.02474674407629628 -2.854077916824781e-08 0.8103634044539352 -7.441837277168092 1.7511260934151065 -1.9783840792515515 0.22725759976732166 2.6209948869507534e-07 -7.441837264235325 3406.525
3.3477777180732176 -1.3056645702871865 1.5899193464519294 -1.8550511782146855 -1.5707962785952745 1.776981393646821 0.5627523651820956 -0.13242030349478984 0.14960557163124114 -0.017185238941872395 -1.981998553350534e-08 0.5627523642041176 -6.854323807917983 1.6128792965665437 -1.822195862468534 0.2093162103120067 2.414074237980958e-07 -6.854323796006216 3406.575
3.3477777180732176 -1.3056645702871865 1.5899193464519294 -1.8550511782146855 -1.5707962785952745 1.776981393646821 0.3423785389767871 -0.08056451264622912 0.09102002978044779 -0.010455499372235024 -1.2058479198584555e-08 0.34237853838178456 -5.855550910192789 1.377859741923997 -1.5566758939374095 0.17881584823797142 2.0623091347323108e-07 -5.855550900016743 3406.625
3.3477777180732176 -1.3056645702871865 1.5899193464519294 -1.8550511782146855 -1.5707962785952745 1.776981393646821 0.16409858968710297 -0.038613760499081884 0.043624984687669795 -0.0050112156754501215 -5.779507781570208e-09 0.16409858940192393 -4.4063510193758635 1.0368509763642122 -1.1714116258726335 0.13456042091486206 1.5519048672734758e-07 -4.406351011718302 3406.6749999999997
3.3477777180732176 -1.3056645702871865 1.5899193464519294 -1.8550511782146855 -1.5707962785952745 1.776981393646821 0.0441197854302797 -0.010381751793993912 0.011729076815891684 -0.0013473227330429245 -1.5538868658270705e-09 0.04411978535360981 -2.467556570850496 0.5806365467639572 -0.6559905104886795 0.0753538357123228 8.69066725673154e-08 -2.4675565665622496 3406.725
3.3477777180732176 -1.3056645702871865 1.5899193464519294 -1.8550511782146855 -1.5707962785952745 1.776981393646821 0.0 0.0 0.0 0.0 0.0 0.0 0.0 0.0 0.0 0.0 0.0 0.0 3406.775
3.3477777180732176 -1.3056645702871865 1.5899193464519294 -1.8550511782146855 -1.5707962785952745 1.776981393646821 0.0 0.0 0.0 0.0 0.0 0.0 0.0 0.0 0.0 0.0 0.0 0.0 3406.825
3.3477777180732176 -1.3056645702871865 1.5899193464519294 -1.8550511782146855 -1.5707962785952745 1.776981393646821 -2.617064527733794e-08 0.006198401806529248 0.00993623351029483 -0.016134641731076364 3.2713545606229113e-10 -2.6153415928527455e-08 -1.0442087465657838e-06 0.247316232080517 0.39645571706076377 -0.643772205069947 1.3052704696885418e-08 -1.0435212955482456e-06 3406.875
3.3477777180732176 -1.3056645702871865 1.5899193464519294 -1.8550511782146855 -1.5707962785952745 1.776981393646821 -9.447602945118996e-08 0.022376230521570586 0.035869802972164334 -0.058246056649185675 1.1809589963848712e-09 -9.441383150198412e-08 -1.7751548691618327e-06 0.4204375945368789 0.6739747190032984 -1.09441274861891 2.2189597984705212e-08 -1.7739862024320177e-06 3406.9249999999997
3.3477777180732176 -1.3056645702871865 1.5899193464519294 -1.8550511782146855 -1.5707962785952745 1.776981393646821 -1.907840040717936e-07 0.045186349169598225 0.07243514229004931 -0.11762153821954671 2.384817474694103e-09 -1.9065840211896518e-07 -2.2258133808375917e-06 0.5271740736453125 0.8450766600505752 -1.3722512792280448 2.7822870538097865e-08 -2.2243480247212606e-06 3406.975
3.3477777180732176 -1.3056645702871865 1.5899193464519294 -1.8550511782146855 -1.5707962785952745 1.776981393646821 -3.025326594060266e-07 0.0716535248834781 0.11486285937900824 -0.18651645841124276 3.7816858720800854e-09 -3.023334881337774e-07 -2.429159294642508e-06 0.5753356556820448 0.9222811944255663 -1.4976174454785083 3.036471303170187e-08 -2.427560066485919e-06 3407.025
3.3477777180732176 -1.3056645702871865 1.5899193464519294 -1.8550511782146855 -1.5707962785952745 1.776981393646821 -4.187303244374071e-07 0.09917442890446798 0.1589797361647173 -0.2581542676972219 5.234167296996659e-09 -4.184546548564394e-07 -2.4181676236260255e-06 0.5727323269233024 0.9181079763512422 -1.490840895951456 3.02273161401557e-08 -2.416575631795937e-06 3407.075
3.3477777180732176 -1.3056645702871865 1.5899193464519294 -1.8550511782146855 -1.5707962785952745 1.776981393646821 -5.299555668660933e-07 0.1255176365822173 0.20120872858347033 -0.3267264950542964 6.624492985261396e-09 -5.296066725526811e-07 -2.2258133808375917e-06 0.5271740736453124 0.8450766600505754 -1.372251279228045 2.7822870538097858e-08 -2.22434802472126e-06 3407.125
3.3477777180732176 -1.3056645702871865 1.5899193464519294 -1.8550511782146855 -1.5707962785952745 1.776981393646821 -6.283571931088842e-07 0.14882362737476731 0.2385689665821789 -0.38739274796314366 7.854522300055613e-09 -6.279435164439444e-07 -1.8850715793266514e-06 0.4464708821243014 0.7157068997465366 -1.1621782438894306 2.3563566900166827e-08 -1.8838305493318326e-06 3407.1749999999997
3.3477777180732176 -1.3056645702871865 1.5899193464519294 -1.8550511782146855 -1.5707962785952745 1.776981393646821 -7.07654248299218e-07 0.16760478484855088 0.26867575411837225 -0.43628071240830496 8.845742731924353e-09 -7.071883667073824e-07 -1.428917232142652e-06 0.33843273863649703 0.5425183496620982 -0.8809514385167703 1.7861595901001107e-08 -1.4279765096976008e-06 3407.225
3.3477777180732176 -1.3056645702871865 1.5899193464519294 -1.8550511782146855 -1.5707962785952745 1.776981393646821 -7.631360162871744e-07 0.18074539667839287 0.2897405691601972 -0.4704861528781868 9.539269898776408e-09 -7.626336084758606e-07 -8.90325352335038e-07 0.2108696294581248 0.33803066402023035 -0.5489005116912181 1.1129148215239164e-08 -8.897392098885042e-07 3407.2749999999996
3.3477777180732176 -1.3056645702871865 1.5899193464519294 -1.8550511782146855 -1.5707962785952745 1.776981393646821 -7.916620196394729e-07 0.18750165464750984 0.3005710636864188 -0.4880729123650603 9.895847545884313e-09 -7.911408318379561e-07 -3.022709529532522e-07 0.07159154086541249 0.11476349704390541 -0.18635511199393134 3.778414517519456e-09 -3.020719539744926e-07 3407.325
3.3477777180732176 -1.3056645702871865 1.5899193464519294 -1.8550511782146855 -1.5707962785952745 1.776981393646821 -7.916620196394724e-07 0.18750165464750965 0.30057106368641845 -0.4880729123650598 9.895847545884305e-09 -7.911408318379551e-07 3.022709529532499e-07 -0.07159154086541271 -0.1147634970439047 0.18635511199393043 -3.778414517519439e-09 3.0207195397449033e-07 3407.375
3.3477777180732176 -1.3056645702871865 1.5899193464519294 -1.8550511782146855 -1.5707962785952745 1.776981393646821 -7.631360162871746e-07 0.1807453966783929 0.2897405691601973 -0.4704861528781868 9.53926989877641e-09 -7.62633608475861e-07 8.90325352335036e-07 -0.210869629458126 -0.3380306640202304 0.5489005116912181 -1.1129148215239156e-08 8.897392098885055e-07 3407.4249999999997
3.3477777180732176 -1.3056645702871865 1.5899193464519294 -1.8550511782146855 -1.5707962785952745 1.776981393646821 -7.076542482992172e-07 0.16760478484855085 0.2686757541183722 -0.43628071240830496 8.845742731924345e-09 -7.071883667073822e-07 1.4289172321426503e-06 -0.3384327386364977 -0.5425183496620973 0.8809514385167685 -1.786159590100108e-08 1.4279765096975974e-06 3407.475
3.3477777180732176 -1.3056645702871865 1.5899193464519294 -1.8550511782146855 -1.5707962785952745 1.776981393646821 -6.283571931088853e-07 0.14882362737476748 0.23856896658217933 -0.3873927479631444 7.854522300055624e-09 -6.279435164439452e-07 1.8850715793266543e-06 -0.4464708821243033 -0.7157068997465371 1.1621782438894332 -2.356356690016686e-08 1.8838305493318339e-06 3407.5249999999996
3.3477777180732176 -1.3056645702871865 1.5899193464519294 -1.8550511782146855 -1.5707962785952745 1.776981393646821 -5.299555668660938e-07 0.12551763658221723 0.20120872858347047 -0.32672649505429674 6.624492985261404e-09 -5.296066725526811e-07 2.225813380837595e-06 -0.5271740736453131 -0.845076660050576 1.3722512792280468 -2.7822870538097908e-08 2.2243480247212623e-06 3407.575
3.3477777180732176 -1.3056645702871865 1.5899193464519294 -1.8550511782146855 -1.5707962785952745 1.776981393646821 -4.1873032443740665e-07 0.09917442890446793 0.1589797361647175 -0.2581542676972216 5.234167296996661e-09 -4.184546548564393e-07 2.4181676236260234e-06 -0.5727323269233031 -0.9181079763512416 1.4908408959514552 -3.022731614015573e-08 2.416575631795936e-06 3407.625
3.3477777180732176 -1.3056645702871865 1.5899193464519294 -1.8550511782146855 -1.5707962785952745 1.776981393646821 -3.0253265940602626e-07 0.07165352488347822 0.114862859379008 -0.1865164584112425 3.781685872080086e-09 -3.02333488133777e-07 2.4291592946425083e-06 -0.5753356556820454 -0.922281194425566 1.4976174454785052 -3.0364713031701855e-08 2.4275600664859187e-06 3407.6749999999997
3.3477777180732176 -1.3056645702871865 1.5899193464519294 -1.8550511782146855 -1.5707962785952745 1.776981393646821 -1.9078400407179275e-07 0.045186349169598204 0.07243514229004908 -0.11762153821954575 2.384817474694095e-09 -1.9065840211896426e-07 2.225813380837586e-06 -0.5271740736453138 -0.8450766600505745 1.3722512792280452 -2.7822870538097842e-08 2.2243480247212623e-06 3407.725
3.3477777180732176 -1.3056645702871865 1.5899193464519294 -1.8550511782146855 -1.5707962785952745 1.776981393646821 -9.4476029451192e-08 0.022376230521571023 0.035869802972164945 -0.058246056649186605 1.180958996384892e-09 -9.441383150198592e-08 1.7751548691618346e-06 -0.4204375945368823 -0.6739747190032995 1.0944127486189144 -2.218959798470525e-08 1.7739862024320215e-06 3407.7749999999996
3.3477777180732176 -1.3056645702871865 1.5899193464519294 -1.8550511782146855 -1.5707962785952745 1.776981393646821 -2.6170645277338415e-08 0.006198401806529764 0.00993623351029545 -0.016134641731077395 3.2713545606230204e-10 -2.6153415928528435e-08 1.0442087465657872e-06 -0.2473162320805201 -0.39645571706076616 0.6437722050699505 -1.305270469688551e-08 1.0435212955482498e-06 3407.825
3.3482939625130475 -1.3057860468897373 1.5900565880688478 -1.855066943202271 -1.5707962786134564 1.7774976380857537 0.0 0.0 0.0 0.0 0.0 0.0 0.0 -1.7763568394002505e-15 0.0 0.0 0.0 0.0 3407.875
3.351691887167689 -1.3065856067705286 1.5909599133887742 -1.855170708465128 -1.5707962787331304 1.78089556273449 0.0 0.0 0.0 0.0 0.0 0.0 0.0 -1.7763568394002505e-15 0.0 0.0 0.0 0.0 3407.925
3.3602807172597857 -1.3086066297956254 1.5932432211366787 -1.8554329927423627 -1.5707962790356267 1.789484392811661 0.0 0.0 0.0 0.0 0.0 0.0 0.0 -1.7763568394002505e-15 0.0 0.0 0.0 0.0 3407.975
3.3757875203928283 -1.3122555093102357 1.5973656456530843 -1.855906536939693 -1.570796279581772 1.8049911959177551 0.0 0.0 0.0 0.0 0.0 0.0 0.0 -1.7763568394002505e-15 0.0 0.0 0.0 0.0 3408.025
3.399403779160685 -1.3178126110603796 1.6036439380448244 -1.8566277263561202 -1.5707962804135303 1.82860745464457 0.0 0.0 0.0 0.0 0.0 0.0 0.0 -1.7763568394002505e-15 0.0 0.0 0.0 0.0 3408.075
3.431831963757134 -1.3254432321145573 1.612264847335797 -1.8576180129105992 -1.5707962815556422 1.8610356391846639 0.0 0.0 0.0 0.0 0.0 0.0 0.0 -1.7763568394002505e-15 0.0 0.0 0.0 0.0 3408.125
3.4733321045853978 -1.3352085597854184 1.6232975016177216 -1.8588853373687102 -1.570796283017266 1.902535779940807 0.0 0.0 0.0 0.0 0.0 0.0 0.0 -1.7763568394002505e-15 0.0 0.0 0.0 0.0 3408.175
3.5237683648676743 -1.3470766305514295 1.636705789200894 -1.860425551569329 -1.5707962847936172 1.952972040135433 0.0 0.0 0.0 0.0 0.0 0.0 0.0 -1.7763568394002505e-15 0.0 0.0 0.0 0.0 3408.225
3.582655613254668 -1.3609332889785435 1.6523607397649427 -1.8622238406512994 -1.5707962868676102 2.01185928842009 0.0 0.0 0.0 0.0 0.0 0.0 0.0 -1.7763568394002505e-15 0.0 0.0 0.0 0.0 3408.275
3.649205996435124 -1.3765931466418675 1.6700529055095836 -1.8642561452801023 -1.5707962892114966 2.0784096714848914 0.0 0.0 0.0 0.0 0.0 0.0 0.0 -1.7763568394002505e-15 0.0 0.0 0.0 0.0 3408.325
3.7223755117453603 -1.3938105410473318 1.6895047423053768 -1.8664905838745283 -1.570796291788507 2.15157918666797 0.0 0.0 0.0 0.0 0.0 0.0 0.0 -1.7763568394002505e-15 0.0 0.0 0.0 0.0 3408.375
3.800910579778798 -1.4122904945533588 1.7103829908444816 -1.8688888748333483 -1.5707962945544909 2.230114254564926 0.0 0.0 0.0 0.0 0.0 0.0 0.0 -1.7763568394002505e-15 0.0 0.0 0.0 0.0 3408.4249999999997
3.8833946169954965 -1.43169967329253 1.7323110577914127 -1.8714077587619846 -1.5707962974595562 2.31259829163828 0.0 0.0 0.0 0.0 0.0 0.0 0.0 -1.7763568394002505e-15 0.0 0.0 0.0 0.0 3408.475
3.968294608331683 -1.4516773460932564 1.754881396933795 -1.8740004206991816 -1.570796300449711 2.3974982828269233 0.0 0.0 0.0 0.0 0.0 0.0 0.0 -1.7763568394002505e-15 0.0 0.0 0.0 0.0 3408.525
4.054007679809289 -1.4718463434014462 1.7776678903331204 -1.8766179123436777 -1.570796303468502 2.4832113541555727 0.0 0.0 0.0 0.0 0.0 0.0 0.0 0.0 0.0 0.0 0.0 0.0 3408.575
4.138907671145476 -1.4918240162021728 1.8002382294755028 -1.8792105742808747 -1.5707963064586568 2.5681113453442164 2.617064527733794e-08 -0.006198401806529248 -0.00993623351029483 0.016134641731076364 -3.2713545606229113e-10 2.6153415928527455e-08 1.0442087465657838e-06 -0.247316232080517 -0.39645571706076377 0.643772205069947 -1.3052704696885418e-08 1.0435212955482456e-06 3408.625
4.221391708362174 -1.511233194941344 1.8221662964224339 -1.881729458209511 -1.570796309363722 2.65059538241757 9.447602945118996e-08 -0.022376230521570586 -0.035869802972164334 0.058246056649185675 -1.1809589963848712e-09 9.441383150198412e-08 1.7751548691618327e-06 -0.4204375945368789 -0.6739747190032984 1.09441274861891 -2.2189597984705212e-08 1.7739862024320177e-06 3408.6749999999997
4.299926776395612 -1.529713148447371 1.8430445449615387 -1.884127749168331 -1.570796312129706 2.7291304503145257 1.907840040717936e-07 -0.045186349169598225 -0.07243514229004931 0.11762153821954671 -2.384817474694103e-09 1.9065840211896518e-07 2.2258133808375917e-06 -0.5271740736453125 -0.8450766600505752 1.3722512792280448 -2.7822870538097865e-08 2.2243480247212606e-06 3408.725
4.373096291705847 -1.5469305428528353 1.862496381757332 -1.886362187762757 -1.5707963147067163 2.8022999654976046 3.025326594060266e-07 -0.0716535248834781 -0.11486285937900824 0.18651645841124276 -3.7816858720800854e-09 3.023334881337774e-07 2.429159294642508e-06 -0.5753356556820448 -0.9222811944255663 1.4976174454785083 -3.036471303170187e-08 2.427560066485919e-06 3408.775
4.439646674886304 -1.5625904005161593 1.8801885475019728 -1.8883944923915599 -1.5707963170506027 2.8688503485624066 4.187303244374071e-07 -0.09917442890446798 -0.1589797361647173 0.2581542676972219 -5.234167296996659e-09 4.184546548564394e-07 2.4181676236260255e-06 -0.5727323269233024 -0.9181079763512422 1.490840895951456 -3.02273161401557e-08 2.416575631795937e-06 3408.825
4.498533923273298 -1.5764470589432733 1.8958434980660215 -1.8901927814735302 -1.5707963191245957 2.927737596847064 5.299555668660933e-07 -0.1255176365822173 -0.20120872858347033 0.3267264950542964 -6.624492985261396e-09 5.296066725526811e-07 2.2258133808375917e-06 -0.5271740736453124 -0.8450766600505754 1.372251279228045 -2.7822870538097858e-08 2.22434802472126e-06 3408.875
4.548970183555573 -1.5883151297092841 1.9092517856491937 -1.891732995674149 -1.570796320900947 2.9781738570416882 6.283571931088842e-07 -0.14882362737476731 -0.2385689665821789 0.38739274796314366 -7.854522300055613e-09 6.279435164439444e-07 1.8850715793266514e-06 -0.4464708821243014 -0.7157068997465366 1.1621782438894306 -2.3563566900166827e-08 1.8838305493318326e-06 3408.9249999999997
4.590470324383839 -1.5980804573801455 1.9202844399311185 -1.89300032013226 -1.5707963223625707 3.019673997797832 7.07654248299218e-07 -0.16760478484855088 -0.26867575411837225 0.43628071240830496 -8.845742731924353e-09 7.071883667073824e-07 1.428917232142652e-06 -0.33843273863649703 -0.5425183496620982 0.8809514385167703 -1.7861595901001107e-08 1.4279765096976008e-06 3408.975
4.6228985089802865 -1.6057110784343231 1.9289053492220911 -1.8939906066867391 -1.5707963235046827 3.0521021823379266 7.631360162871744e-07 -0.18074539667839287 -0.2897405691601972 0.4704861528781868 -9.539269898776408e-09 7.626336084758606e-07 8.90325352335038e-07 -0.2108696294581248 -0.33803066402023035 0.5489005116912181 -1.1129148215239164e-08 8.897392098885042e-07 3409.0249999999996
4.646514767748144 -1.611268180184467 1.9351836416138315 -1.8947117961031663 -1.570796324336441 3.075718441064742 7.916620196394729e-07 -0.18750165464750984 -0.3005710636864188 0.4880729123650603 -9.895847545884313e-09 7.911408318379561e-07 3.022709529532522e-07 -0.07159154086541249 -0.11476349704390541 0.18635511199393134 -3.778414517519456e-09 3.020719539744926e-07 3409.075
4.662021570881187 -1.6149170596990774 1.9393060661302373 -1.8951853403004968 -1.5707963248825862 3.091225244170835 7.916620196394724e-07 -0.18750165464750965 -0.30057106368641845 0.4880729123650598 -9.895847545884305e-09 7.911408318379551e-07 -3.022709529532499e-07 0.07159154086541271 0.1147634970439047 -0.18635511199393043 3.778414517519439e-09 -3.0207195397449033e-07 3409.125
4.670610400973282 -1.6169380827241737 1.9415893738781411 -1.8954476245777312 -1.5707963251850825 3.0998140742480045 7.631360162871746e-07 -0.1807453966783929 -0.2897405691601973 0.4704861528781868 -9.53926989877641e-09 7.62633608475861e-07 -8.90325352335036e-07 0.210869629458126 0.3380306640202304 -0.5489005116912181 1.1129148215239156e-08 -8.897392098885055e-07 3409.1749999999997
4.674008325627921 -1.617737642604965 1.942492699198067 -1.895551389840588 -1.5707963253047565 3.1032119988967404 7.076542482992172e-07 -0.16760478484855085 -0.2686757541183722 0.43628071240830496 -8.845742731924345e-09 7.071883667073822e-07 -1.4289172321426503e-06 0.3384327386364977 0.5425183496620973 -0.8809514385167685 1.786159590100108e-08 -1.4279765096975974e-06 3409.225
4.674524570067753 -1.617859119207516 1.942629940814986 -1.8955671548281738 -1.5707963253229384 3.1037282433356737 6.283571931088853e-07 -0.14882362737476748 -0.23856896658217933 0.3873927479631444 -7.854522300055624e-09 6.279435164439452e-07 -1.8850715793266543e-06 0.4464708821243033 0.7157068997465371 -1.1621782438894332 2.356356690016686e-08 -1.8838305493318339e-06 3409.2749999999996
4.674524570067755 -1.6178591192075162 1.942629940814986 -1.8955671548281738 -1.5707963253229384 3.1037282433356754 5.299555668660938e-07 -0.12551763658221723 -0.20120872858347047 0.32672649505429674 -6.624492985261404e-09 5.296066725526811e-07 -2.225813380837595e-06 0.5271740736453131 0.845076660050576 -1.3722512792280468 2.7822870538097908e-08 -2.2243480247212623e-06 3409.325
4.674524569641859 -1.6177582475971648 1.9427916411865167 -1.8958297269144402 -1.5707963253176147 3.10372824291006 4.1873032443740665e-07 -0.09917442890446793 -0.1589797361647175 0.2581542676972216 -5.234167296996661e-09 4.184546548564393e-07 -2.4181676236260234e-06 0.5727323269233031 0.9181079763512416 -1.4908408959514552 3.022731614015573e-08 -2.416575631795936e-06 3409.375
4.674524566907338 -1.6171105883988801 1.9438298592998484 -1.8975156048962696 -1.570796325283433 3.103728240177339 3.0253265940602626e-07 -0.07165352488347822 -0.114862859379008 0.1865164584112425 -3.781685872080086e-09 3.02333488133777e-07 -2.4291592946425083e-06 0.5753356556820454 0.922281194425566 -1.4976174454785052 3.0364713031701855e-08 -2.4275600664859187e-06 3409.427380952381
4.674524560200487 -1.6155221003549616 1.9463762557138498 -1.9016504909979943 -1.5707963251995967 3.1037282334749037 1.9078400407179275e-07 -0.045186349169598204 -0.07243514229004908 0.11762153821954575 -2.384817474694095e-09 1.9065840211896426e-07 -2.225813380837586e-06 0.5271740736453138 0.8450766600505745 -1.3722512792280452 2.7822870538097842e-08 -2.2243480247212623e-06 3409.4797619047617
4.6745245484931734 -1.61274927482301 1.9508211824592825 -1.9088682461447641 -1.5707963250532542 3.1037282217752975 9.4476029451192e-08 -0.022376230521571023 -0.035869802972164945 0.058246056649186605 -1.180958996384892e-09 9.441383150198592e-08 -1.7751548691618346e-06 0.4204375945368823 0.6739747190032995 -1.0944127486189144 2.218959798470525e-08 -1.7739862024320215e-06 3409.532142857143
4.674524531318064 -1.6086814260564797 1.9573420722774018 -1.9194569889389193 -1.5707963248385637 3.1037282046114956 2.6170645277338415e-08 -0.006198401806529764 -0.00993623351029545 0.016134641731077395 -3.2713545606230204e-10 2.6153415928528435e-08 -1.0442087465657872e-06 0.2473162320805201 0.39645571706076616 -0.6437722050699505 1.305270469688551e-08 -1.0435212955482498e-06 3409.584523809524
4.674524508693853 -1.6033229814852328 1.9659318278585576 -1.9334051946363666 -1.570796324555759 3.103728182002179 0.0 0.0 0.0 0.0 0.0 0.0 0.0 1.7763568394002505e-15 0.0 0.0 0.0 0.0 3409.6369047619046
4.674524481050486 -1.5967757719960909 1.9764272110807948 -1.9504477941229525 -1.5707963242102145 3.1037281543770106 0.0 0.0 0.0 0.0 0.0 0.0 0.0 0.0 0.0 0.0 0.0 0.0 3409.6892857142857
4.674524449154388 -1.589221322213388 1.988537232248455 -1.9701122728908382 -1.5707963238115104 3.1037281225019124 -0.025709952813479982 0.006810457061456411 -0.008192663987648936 0.001382207026075271 -2.3783111515596333e-11 -0.025709952814440377 -2.15841175286501 0.5717540856832216 -0.687793648105956 0.11603957080812871 -1.9966488381903016e-09 -2.1584117529456375 3409.741666666667
4.674524414033694 -1.5809031407795233 2.0018715393307764 -1.9917647700148746 -1.5707963233724984 3.1037280874043396 -0.09800097659741462 0.02596004154264904 -0.031228725993736644 0.005268684831819797 -9.065625954130938e-11 -0.09800097660107546 -4.008478969606448 1.0618290162688402 -1.277331060768204 0.21550206007223904 -3.708062128067703e-09 -4.008478969756184 3409.7940476190474
4.674524376903468 -1.5721090106355147 2.0159688072004953 -2.0146561771289755 -1.5707963229083672 3.103728050298558 -0.20987716582432642 0.05559556784862377 -0.06687888969509337 0.011283322661838948 -1.9414784910690887e-10 -0.2098771658321664 -5.565242847108388 1.474209140786007 -1.7734052250815588 0.2991961059164294 -5.1481537988182e-09 -5.565242847316278 3409.8464285714285
4.674524339090936 -1.56315327930155 2.030325126872447 -2.037968237402494 -1.570796322435707 3.1037280125109192 -0.3546924102431116 0.09395650966417415 -0.11302532358470777 0.01906881529850782 -3.281098649906759e-10 -0.3546924102563611 -6.84374458225491 1.8128788082638734 -2.180809128140836 0.3679303464647984 -6.330837779627786e-09 -6.843744582510558 3409.8988095238096
4.67452430196071 -1.5543591491575413 2.0444223947421665 -2.060859644516595 -1.570796321971576 3.1037279754051377 -0.5261503948790405 0.1393749999538415 -0.16766166097172708 0.02828666306197125 -4.867178717194034e-10 -0.5261503948986948 -7.859025371930089 2.081822367731591 -2.50433575704085 0.42251341984144425 -7.2700279996824575e-09 -7.859025372223663 3409.9511904761903
4.674524266840016 -1.5460409677236766 2.0577567018244878 -2.082512141640631 -1.570796321532564 3.103727940307565 -0.7183046000337572 0.19027583096191486 -0.22889299998145704 0.038617171810143805 -6.644710135683956e-10 -0.7183046000605895 -8.626126413018001 2.285024168218311 -2.748778098876416 0.4637539641704656 -7.979638388168209e-09 -8.62612641334023 3410.0035714285714
4.674524234943918 -1.5384865179409737 2.069866722992148 -2.102176620408517 -1.5707963211338598 3.1037279084324667 -0.9255583012852796 0.24517645421243087 -0.29493590355536176 0.049759452938709765 -8.561920145614681e-10 -0.9255583013198538 -9.160088902402727 2.426468558753184 -2.9189291407423497 0.4924606175759608 -8.473582874271036e-09 -9.160088902744901 3410.0559523809525
4.674524207300551 -1.5319393084518318 2.0803621062143853 -2.119219219895103 -1.5707963207883153 3.1037278808072983 -1.142664569487999 0.3026869805091738 -0.3641183994510638 0.06143142338112315 -1.057027178470948e-09 -1.1426645695306834 -9.47595403696834 2.5101398883653636 -3.0195818697334658 0.5094420181820285 -8.765775387176935e-09 -9.475954037322312 3410.108333333333
4.67452418467634 -1.526580863880585 2.088951861795541 -2.1331674255925503 -1.5707963205055107 3.1037278581979817 -1.3647262707726826 0.3615101799356761 -0.43487998024234453 0.07336980560860776 -1.262446388817675e-09 -1.3647262708236618 -9.588763013598912 2.540022506083998 -3.0555292729445775 0.5155068041127668 -8.870129856071898e-09 -9.5887630139571 3410.160714285714
4.674524167501231 -1.5225130151140547 2.09547275161366 -2.1437561683867057 -1.5707963202908202 3.1037278410341798 -1.5871960665464682 0.4204414818552172 -0.5057716033191435 0.08533012763015704 -1.468243108870998e-09 -1.5871960666057578 -9.51355702917853 2.5201007609382415 -3.031564337470503 0.5114636134922745 -8.800560210141922e-09 -9.513557029533908 3410.2130952380953
4.674524155793917 -1.519740189582103 2.0999176783590934 -2.1509739235334755 -1.5707963201444777 3.1037278293345736 -1.8058764134928709 0.478368974910825 -0.5754556908875589 0.09708672299253424 -1.6705343816487801e-09 -1.8058764135603294 -9.265377280591263 2.454359001957244 -2.952480050406055 0.49812108444465003 -8.570980378573003e-09 -9.265377280937372 3410.265476190476
4.674524149087066 -1.5181517015381845 2.1024640747730943 -2.1551088096352 -1.5707963200606414 3.103727822632138 -2.016919563571777 0.5342734070252745 -0.6427061299698472 0.1084327307802723 -1.865760829917394e-09 -2.016919563647119 -8.859264964721191 2.3467815781701566 -2.823069398846049 0.47628785509399146 -8.195304290551132e-09 -8.859264965052128 3410.317857142857
4.674524146352545 -1.5175040423399 2.103502292886426 -2.156794687617029 -1.5707963200264596 3.1037278198994174 -2.216827564019448 0.5872281854010885 -0.7064082724044236 0.1191800956156739 -2.0506866561917247e-09 -2.2168275641022572 -8.31026127845239 2.2013528386061316 -2.648125369885301 0.44677256356439793 -7.68744587526231e-09 -8.310261278762821 3410.370238095238
4.674524145926649 -1.5174031707295483 2.103663993257957 -2.157057259703296 -1.570796320021136 3.103727819473802 -2.402452257348519 0.6363993765205381 -0.7655589348458619 0.12915956765881148 -2.222399642735169e-09 -2.4024522574382625 -7.633407418668939 2.0220571322943197 -2.432440950618625 0.4103838479799671 -7.061319061892528e-09 -7.633407418954084 3410.422619047619
4.674524145926649 -1.5174031707295483 2.103663993257957 -2.157057259703296 -1.570796320021136 3.103727819473802 -2.5709952813479986 0.6810457061456411 -0.8192663987648937 0.1382207026075271 -2.3783111515596335e-09 -2.5709952814440378 -6.84374458225491 1.8128788082638738 -2.1808091281408357 0.3679303464647983 -6.330837779627786e-09 -6.843744582510559 3410.475
4.674524145926649 -1.5174031707295483 2.103663993257957 -2.157057259703296 -1.570796320021136 3.103727819473802 -2.7200080690832693 0.7205185593181639 -0.8667504104484098 0.14623186169743277 -2.5161561244255385e-09 -2.720008069184876 -5.956313966094388 1.5778022155439444 -1.898022889546752 0.3202206971429893 -5.509915957654076e-09 -5.956313966316884 3410.525
4.674524145926649 -1.5174031707295483 2.103663993257957 -2.157057259703296 -1.570796320021136 3.103727819473802 -2.8473918488960903 0.7542619803596203 -0.9073421809994595 0.15308021170190997 -2.633993082841815e-09 -2.847391849002454 -4.986156767071438 1.3208117031636806 -1.5888752219311815 0.2680635381386387 -4.612467525157392e-09 -4.986156767257694 3410.579166666667
4.674524145926649 -1.5174031707295483 2.103663993257957 -2.157057259703296 -1.570796320021136 3.103727819473802 -2.951397644404591 0.781812672871272 -0.9404843863372506 0.15867172493211026 -2.730204128065906e-09 -2.9513976445148407 -3.9483141820701406 1.045891620152235 -1.258159112388943 0.2122675075758449 -3.6524064113237232e-09 -3.9483141822176306 3410.633333333333
4.674524145926649 -1.5174031707295483 2.103663993257957 -2.157057259703296 -1.570796320021136 3.103727819473802 -3.0306262745032737 0.8027999997341273 -0.9657311671971485 0.16293117923695447 -2.8034949411037645e-09 -3.0306262746164827 -2.857827407974576 0.7570263155387602 -0.910667548014855 0.15364124357870698 -2.6436465453390707e-09 -2.8578274080813313 3410.6875
4.674524145926649 -1.5174031707295483 2.103663993257957 -2.157057259703296 -1.570796320021136 3.103727819473802 -3.0840283533630175 0.8169459831089435 -0.982748129130677 0.1658021580031334 -2.8528947827098547e-09 -3.0840283534782214 -1.72973764166883 0.45820013835240825 -0.5511935159037308 0.09299338427132273 -1.6001018563894467e-09 -1.7297376417334376 3410.741666666667
4.674524145926649 -1.5174031707295483 2.103663993257957 -2.157057259703296 -1.570796320021136 3.103727819473802 -3.1109042904310784 0.8240653044362258 -0.9913123425055214 0.16724705015510782 -2.8777564933871566e-09 -3.110904290547287 -0.5790860800369578 0.15339743762232838 -0.1845300031503797 0.031132567777790575 -5.35686273660812e-10 -0.5790860800585861 3410.795833333333
4.674524145926649 -1.5174031707295483 2.103663993257957 -2.157057259703296 -1.570796320021136 3.103727819473802 -3.1109042904310775 0.8240653044362256 -0.9913123425055212 0.1672470501551078 -2.8777564933871554e-09 -3.1109042905472846 0.5790860800369507 -0.15339743762232838 0.18453000315037793 -0.03113256777779102 5.35686273660812e-10 0.5790860800585861 3410.85
4.674524145926649 -1.5174031707295483 2.103663993257957 -2.157057259703296 -1.570796320021136 3.103727819473802 -3.0840283533630184 0.8169459831089438 -0.9827481291306776 0.1658021580031334 -2.852894782709856e-09 -3.0840283534782236 1.7297376416688213 -0.45820013835240614 0.5511935159037255 -0.09299338427132257 1.6001018563894384e-09 1.729737641733436 3410.9041666666667
4.674524145926649 -1.5174031707295483 2.103663993257957 -2.157057259703296 -1.570796320021136 3.103727819473802 -3.030626274503274 0.8027999997341273 -0.9657311671971478 0.16293117923695438 -2.8034949411037645e-09 -3.0306262746164827 2.857827407974583 -0.757026315538762 0.910667548014855 -0.15364124357870787 2.643646545339084e-09 2.8578274080813313 3410.958333333333
4.674524145926649 -1.5174031707295483 2.103663993257957 -2.157057259703296 -1.570796320021136 3.103727819473802 -2.951397644404591 0.7818126728712715 -0.9404843863372498 0.15867172493211013 -2.7302041280659044e-09 -2.9513976445148398 3.9483141820701406 -1.045891620152235 1.258159112388943 -0.21226750757584534 3.6524064113237232e-09 3.9483141822176235 3411.0125
4.674524145926649 -1.5174031707295483 2.103663993257957 -2.157057259703296 -1.570796320021136 3.103727819473802 -2.8473918488960925 0.7542619803596209 -0.9073421809994601 0.15308021170191013 -2.6339930828418162e-09 -2.8473918490024563 4.986156767071436 -1.3208117031636804 1.5888752219311797 -0.26806353813863926 4.6124675251573835e-09 4.986156767257692 3411.0666666666666
4.674524145926649 -1.5174031707295483 2.103663993257957 -2.157057259703296 -1.570796320021136 3.103727819473802 -2.720008069083269 0.7205185593181633 -0.8667504104484097 0.1462318616974327 -2.516156124425536e-09 -2.7200080691848743 5.956313966094385 -1.5778022155439408 1.8980228895467448 -0.3202206971429893 5.509915957654069e-09 5.956313966316877 3411.120833333333
4.674524145926649 -1.5174031707295483 2.103663993257957 -2.1570572597032958 -1.570796320021136 3.103727819473802 -2.570995281348 0.6810457061456417 -0.8192663987648943 0.13822070260752714 -2.378311151559635e-09 -2.57099528144404 6.843744582254912 -1.812878808263877 2.1808091281408357 -0.36793034646479933 6.330837779627793e-09 6.8437445825105705 3411.1749999999997
4.674524146352545 -1.5175040423398998 2.103502292886426 -2.156794687617029 -1.5707963200264596 3.1037278198994174 -2.4024522573485205 0.6363993765205392 -0.7655589348458627 0.12915956765881167 -2.2223996427351713e-09 -2.4024522574382656 7.633407418668946 -2.022057132294324 2.4324409506186258 -0.41038384797996774 7.061319061892525e-09 7.633407418954091 3411.225
4.674524149087066 -1.5181517015381845 2.1024640747730947 -2.1551088096352 -1.5707963200606414 3.103727822632138 -2.2168275640194497 0.5872281854010885 -0.7064082724044237 0.11918009561567389 -2.0506866561917267e-09 -2.216827564102256 8.310261278452394 -2.2013528386061307 2.648125369885301 -0.4467725635643984 7.687445875262306e-09 8.310261278762818 3411.277380952381
4.674524155793917 -1.519740189582103 2.0999176783590934 -2.1509739235334755 -1.5707963201444777 3.1037278293345736 -2.0169195635717743 0.5342734070252745 -0.6427061299698468 0.10843273078027217 -1.8657608299173917e-09 -2.016919563647118 8.859264964721179 -2.346781578170156 2.823069398846042 -0.47628785509399246 8.19530429055113e-09 8.859264965052123 3411.3297619047617
4.674524167501231 -1.5225130151140547 2.0954727516136606 -2.1437561683867057 -1.5707963202908202 3.1037278410341798 -1.8058764134928704 0.47836897491082514 -0.5754556908875584 0.09708672299253424 -1.6705343816487826e-09 -1.8058764135603316 9.265377280591252 -2.4543590019572386 2.9524800504060487 -0.49812108444465014 8.570980378572986e-09 9.265377280937358 3411.3821428571428
4.67452418467634 -1.526580863880585 2.088951861795541 -2.1331674255925503 -1.5707963205055107 3.1037278581979817 -1.5871960665464664 0.4204414818552166 -0.5057716033191421 0.08533012763015677 -1.468243108870996e-09 -1.587196066605756 9.513557029178513 -2.5201007609382344 3.031564337470495 -0.5114636134922735 8.800560210141909e-09 9.513557029533898 3411.434523809524
4.674524207300551 -1.5319393084518318 2.0803621062143853 -2.1192192198951028 -1.5707963207883153 3.1037278808072983 -1.3647262707726808 0.3615101799356756 -0.43487998024234303 0.07336980560860754 -1.2624463888176714e-09 -1.3647262708236596 9.588763013598902 -2.5400225060839974 3.055529272944574 -0.5155068041127673 8.870129856071891e-09 9.588763013957083 3411.4869047619045
4.674524234943918 -1.5384865179409737 2.069866722992148 -2.102176620408517 -1.5707963211338598 3.1037279084324667 -1.1426645694880049 0.30268698050917636 -0.3641183994510659 0.06143142338112359 -1.057027178470955e-09 -1.1426645695306894 9.475954036968368 -2.510139888365368 3.0195818697334698 -0.5094420181820297 8.765775387176964e-09 9.475954037322328 3411.5392857142856
4.674524266840016 -1.5460409677236766 2.0577567018244878 -2.082512141640631 -1.570796321532564 3.103727940307565 -0.9255583012852892 0.24517645421243303 -0.294935903555364 0.04975945293871008 -8.56192014561474e-10 -0.925558301319863 9.16008890240275 -2.4264685587531885 2.918929140742354 -0.4924606175759627 8.473582874271053e-09 9.160088902744915 3411.5916666666667
4.67452430196071 -1.5543591491575413 2.0444223947421665 -2.060859644516595 -1.570796321971576 3.1037279754051377 -0.7183046000337595 0.19027583096191605 -0.22889299998145707 0.03861717181014384 -6.644710135684007e-10 -0.7183046000605914 8.626126413018001 -2.2850241682183143 2.7487780988764183 -0.4637539641704663 7.979638388168215e-09 8.62612641334024 3411.6440476190473
4.674524339090936 -1.56315327930155 2.0303251268724476 -2.037968237402494 -1.570796322435707 3.1037280125109192 -0.5261503948790451 0.13937499995384253 -0.16766166097172944 0.02828666306197144 -4.867178717194095e-10 -0.5261503948986986 7.859025371930101 -2.0818223677315917 2.5043357570408484 -0.42251341984144536 7.270027999682471e-09 7.859025372223647 3411.6964285714284
4.674524376903468 -1.5721090106355147 2.0159688072004958 -2.0146561771289755 -1.5707963229083672 3.103728050298558 -0.3546924102431121 0.09395650966417388 -0.11302532358470885 0.019068815298507704 -3.281098649906746e-10 -0.35469241025636433 6.843744582254908 -1.8128788082638774 2.180809128140832 -0.36793034646479905 6.330837779627801e-09 6.843744582510567 3411.7488095238095
4.674524414033694 -1.5809031407795233 2.0018715393307764 -1.9917647700148746 -1.5707963233724984 3.1037280874043396 -0.20987716582431812 0.05559556784862306 -0.06687888969509288 0.011283322661838863 -1.9414784910690745e-10 -0.20987716583215918 5.565242847108373 -1.4742091407860054 1.7734052250815486 -0.29919610591643037 5.148153798818182e-09 5.565242847316267 3411.80119047619
4.674524449154388 -1.589221322213388 1.988537232248455 -1.9701122728908382 -1.5707963238115104 3.1037281225019124 -0.09800097659741218 0.025960041542648325 -0.031228725993734968 0.005268684831820055 -9.065625954130391e-11 -0.09800097660107386 4.008478969606435 -1.0618290162688397 1.2773310607681956 -0.2155020600722386 3.708062128067702e-09 4.008478969756178 3411.8535714285713
4.674524481050486 -1.5967757719960909 1.9764272110807948 -1.9504477941229525 -1.5707963242102145 3.1037281543770106 -0.025709952813480322 0.00681045706145593 -0.008192663987649635 0.0013822070260753549 -2.3783111515599328e-11 -0.02570995281444304 2.158411752865008 -0.5717540856832195 0.6877936481059563 -0.11603957080813017 1.9966488381902892e-09 2.158411752945642 3411.9059523809524
4.674524508693853 -1.6033229814852328 1.9659318278585574 -1.9334051946363666 -1.570796324555759 3.103728182002179 0.0 0.0 0.0 0.0 0.0 0.0 0.0 0.0 -3.552713678800501e-15 -8.881784197001252e-16 0.0 0.0 3411.958333333333
4.674524531318064 -1.6086814260564797 1.9573420722774018 -1.9194569889389195 -1.5707963248385637 3.1037282046114956 0.0 0.0 0.0 0.0 0.0 0.0 0.0 0.0 0.0 0.0 0.0 0.0 3412.010714285714
4.6745245484931734 -1.61274927482301 1.9508211824592827 -1.9088682461447641 -1.5707963250532542 3.1037282217752975 7.312840277033198e-10 0.0080447135709367 0.016879763251833494 -0.02492447679675825 -3.895538443261844e-11 7.363446583339181e-10 2.0371483628878195e-08 0.2241027351903795 0.4702219763010759 -0.694324710766837 -1.0851857091943707e-09 2.0512458339302005e-08 3412.0630952380952
4.674524560200487 -1.6155221003549616 1.9463762557138498 -1.9016504909979943 -1.5707963251995967 3.1037282334749037 2.5221836873849195e-09 0.027746052928332696 0.0582179589706094 -0.08596401180922744 -1.3435632590025543e-10 2.539637699151677e-09 3.2012331416808593e-08 0.3521614410134535 0.7389202484731192 -1.0910816883478867 -1.7052918287340111e-09 3.223386310461743e-08 3412.115476190476
4.674524566907338 -1.6171105883988801 1.9438298592998486 -1.8975156048962698 -1.570796325283433 3.103728240177339 4.8354290811403195e-09 0.053193616264969205 0.11161312844069496 -0.16480674453366684 -2.575825419626199e-10 4.8688912102079494e-09 3.626571810855239e-08 0.398952121987269 0.837098463305212 -1.2360505840025011 -1.931869064719649e-09 3.6516684076559616e-08 3412.167857142857
4.674524569641859 -1.6177582475971646 1.9427916411865167 -1.8958297269144406 -1.5707963253176147 3.10372824291006 7.223295294049119e-09 0.0794620687414972 0.16673072273239614 -0.24619279121695906 -3.847837972528025e-10 7.273281931298293e-09 3.447481844887079e-08 0.379250782629873 0.7957602675864361 -1.175011048990032 -1.836468123252012e-09 3.4713391035741856e-08 3412.220238095238
4.674524570067755 -1.6178591192075162 1.942629940814986 -1.8955671548281736 -1.5707963253229384 3.1037282433356754 9.327602394174999e-09 0.10261114248643752 0.21530310270195788 -0.3179142448566104 -4.968799034772761e-10 9.392151254259161e-09 2.7982807182524987e-08 0.3078334274593126 0.6459093081058732 -0.953742734569831 -1.4906397104318275e-09 2.8176453762777477e-08 3412.2726190476187
4.674524570067755 -1.6178591192075162 1.942629940814986 -1.8955671548281738 -1.5707963253229384 3.1037282433356754 1.0879715432565718e-08 0.1196856365961807 0.25112953899156365 -0.37081517520075036 -5.795607194158947e-10 1.0955005222967887e-08 1.8132859054276173e-08 0.19947606099363444 0.4185492316526053 -0.6180252920012504 -9.659345323598238e-10 1.8258342038279785e-08 3412.325
4.674322884167284 -1.6178056934709923 1.9425656721317417 -1.8955563118806698 -1.570796325323125 3.103526557435198 1.1700544443253117e-08 0.1287154171349872 0.27007621202933596 -0.398791628748132 -6.232861509218949e-10 1.178151453334269e-08 6.268148808885598e-09 0.06895468775088623 0.14468368501571544 -0.21363837254364268 -3.3390329513672954e-10 6.311525642862151e-09 3412.375
4.67296775512195 -1.6174467255552232 1.9421338503773855 -1.8954834580368183 -1.5707963253243786 3.1021714283898127 1.1700544443253119e-08 0.12871541713498721 0.27007621202933585 -0.3987916287481319 -6.23286150921895e-10 1.178151453334269e-08 -6.268148808885598e-09 -0.06895468775088578 -0.14468368501571588 0.2136383725436418 3.3390329513672954e-10 -6.311525642862151e-09 3412.425
4.669457927848022 -1.6165169872505427 1.9410154183165182 -1.8952947642669957 -1.5707963253276254 3.098661601115753 1.0879715432565726e-08 0.11968563659618081 0.2511295389915638 -0.3708151752007505 -5.795607194158949e-10 1.0955005222967893e-08 -1.81328590542762e-08 -0.19947606099363444 -0.4185492316526062 0.6180252920012513 9.659345323598263e-10 -1.8258342038279838e-08 3412.475
4.662950775352219 -1.614793270253218 1.938941866711766 -1.894944929634288 -1.5707963253336448 3.0921544486197075 9.32760239417501e-09 0.10261114248643764 0.21530310270195818 -0.317914244856611 -4.968799034772771e-10 9.39215125425917e-09 -2.7982807182525007e-08 -0.30783342745931214 -0.6459093081058741 0.9537427345698313 1.4906397104318295e-09 -2.817645376277751e-08 3412.525
4.652754163957842 -1.6120922312984767 1.9356926421187526 -1.8943967439564022 -1.5707963253430772 3.081957837224949 7.223295294049131e-09 0.0794620687414974 0.16673072273239656 -0.2461927912169596 -3.8478379725280307e-10 7.2732819312983105e-09 -3.4474818448870755e-08 -0.37925078262987255 -0.7957602675864366 1.1750110489900318 1.836468123252011e-09 -3.4713391035741836e-08 3412.575
4.638318318530898 -1.6082682372935373 1.9310925546810744 -1.8936206504675803 -1.5707963253564312 3.067521991797466 4.835429081140301e-09 0.053193616264969226 0.11161312844069472 -0.16480674453366673 -2.5758254196261876e-10 4.868891210207943e-09 -3.626571810855241e-08 -0.398952121987269 -0.8370984633052135 1.2360505840025013 1.931869064719651e-09 -3.6516684076559636e-08 3412.625
4.619227687706238 -1.6032112104506375 1.9250091859252716 -1.8925943084805108 -1.570796325374091 3.0484313609720934 2.5221836873848964e-09 0.027746052928332578 0.05821795897060885 -0.08596401180922683 -1.3435632590025425e-10 2.539637699151649e-09 -3.201233141680851e-08 -0.3521614410134525 -0.7389202484731177 1.0910816883478822 1.7052918287340087e-09 -3.22338631046174e-08 3412.6749999999997
4.595192809113686 -1.5968444734200633 1.9173502965558022 -1.8913021560482404 -1.5707963253963246 3.024396482378643 7.312840277032992e-10 0.008044713570936682 0.0168797632518335 -0.024924476796757567 -3.8955384432618296e-11 7.363446583339143e-10 -2.0371483628878172e-08 -0.2241027351903781 -0.4702219763010759 0.6943247107668353 1.0851857091943678e-09 -2.0512458339302002e-08 3412.725
4.566042174604165 -1.589122594423179 1.9080612342500152 -1.889734972626088 -1.5707963254232906 2.9952458478680337 0.0 0.0 0.0 0.0 0.0 0.0 0.0 8.881784197001252e-16 0.0 -1.7763568394002505e-15 0.0 0.0 3412.775
4.531714095475836 -1.5800292323854552 1.8971223414531224 -1.8878894417335548 -1.5707963254550459 2.960917768738422 0.0 0.0 0.0 0.0 0.0 0.0 0.0 8.881784197001252e-16 0.0 -1.7763568394002505e-15 0.0 0.0 3412.825
4.49224856770022 -1.569574982069499 1.8845463631731731 -1.885767713616239 -1.5707963254915538 2.921452240961332 0.0 0.0 0.0 0.0 0.0 0.0 0.0 8.881784197001252e-16 0.0 -1.7763568394002505e-15 0.0 0.0 3412.875
4.447779137148339 -1.5577952192080822 1.8703758547760265 -1.8833769679077461 -1.5707963255326904 2.876982810407789 0.0 0.0 0.0 0.0 0.0 0.0 0.0 8.881784197001252e-16 0.0 -1.7763568394002505e-15 0.0 0.0 3412.9249999999997
4.398524764816834 -1.5447479456371707 1.8546805897803245 -1.8807289762916028 -1.5707963255782533 2.8277284380744447 0.0 0.0 0.0 0.0 0.0 0.0 0.0 8.881784197001252e-16 0.0 -1.7763568394002505e-15 0.0 0.0 3412.975
4.344781692054109 -1.5305116344289542 1.8375549676524643 -1.8778396651631686 -1.5707963256279687 2.7739853653097124 0.0 0.0 0.0 0.0 0.0 0.0 0.0 8.881784197001252e-16 0.0 -1.7763568394002505e-15 0.0 0.0 3413.025
4.286915305786454 -1.5151830750248745 1.8191154216015732 -1.8747286782915473 -1.5707963256814983 2.7161189790398956 0.0 0.0 0.0 0.0 0.0 0.0 0.0 0.0 0.0 0.0 0.0 0.0 3413.075
4.225352003744177 -1.498875218368655 1.79949782637448 -1.871418939481501 -1.5707963257384476 2.654555676995319 -7.312840277033198e-10 -0.0080447135709367 -0.016879763251833494 0.02492447679675825 3.895538443261844e-11 -7.363446583339181e-10 -2.0371483628878195e-08 -0.2241027351903795 -0.4702219763010759 0.694324710766837 1.0851857091943707e-09 -2.0512458339302005e-08 3413.125
4.1605710596877366 -1.4817150220393298 1.7788549060506886 -1.8679362152353618 -1.5707963257983735 2.5897747329364584 -2.5221836873849195e-09 -0.027746052928332696 -0.0582179589706094 0.08596401180922744 1.3435632590025543e-10 -2.539637699151677e-09 -3.2012331416808593e-08 -0.3521614410134535 -0.7389202484731192 1.0910816883478867 1.7052918287340111e-09 -3.223386310461743e-08 3413.1749999999997
4.09309648863387 -1.4638412953842732 1.7573536418373512 -1.8643086774149435 -1.570796325860791 2.5223001618800716 -4.8354290811403195e-09 -0.053193616264969205 -0.11161312844069496 0.16480674453366684 2.575825419626199e-10 -4.8688912102079494e-09 -3.626571810855239e-08 -0.398952121987269 -0.837098463305212 1.2360505840025011 1.931869064719649e-09 -3.6516684076559616e-08 3413.225
4.023488912081727 -1.4454025446522276 1.735172679864241 -1.8605664659034546 -1.570796325925182 2.4526925853253285 -7.223295294049119e-09 -0.0794620687414972 -0.16673072273239614 0.24619279121695906 3.847837972528025e-10 -7.273281931298293e-09 -3.447481844887079e-08 -0.379250782629873 -0.7957602675864361 1.175011048990032 1.836468123252012e-09 -3.4713391035741856e-08 3413.2749999999996
3.9523374232390003 -1.4265548181263346 1.712499738978726 -1.8567412512674102 -1.570796325991001 2.3815410964799435 -9.327602394174999e-09 -0.10261114248643752 -0.21530310270195788 0.3179142448566104 4.968799034772761e-10 -9.392151254259161e-09 -2.7982807182524987e-08 -0.3078334274593126 -0.6459093081058732 0.953742734569831 1.4906397104318275e-09 -2.8176453762777477e-08 3413.325
3.8802514522480536 -1.407459551257162 1.689529018540741 -1.852865797418545 -1.5707963260576845 2.3094551254863043 -1.0879715432565718e-08 -0.1196856365961807 -0.25112953899156365 0.37081517520075036 5.795607194158947e-10 -1.0955005222967887e-08 -1.8132859054276173e-08 -0.19947606099363444 -0.4185492316526053 0.6180252920012504 9.659345323598238e-10 -1.8258342038279785e-08 3413.375
3.8078526314120555 -1.3882814117957345 1.6664586062177615 -1.8489735242757248 -1.5707963261246574 2.2370563046476017 -1.1700544443253117e-08 -0.1287154171349872 -0.27007621202933596 0.398791628748132 6.232861509218949e-10 -1.178151453334269e-08 -6.268148808885598e-09 -0.06895468775088623 -0.14468368501571544 0.21363837254364268 3.3390329513672954e-10 -6.311525642862151e-09 3413.4249999999997
3.7357666604211093 -1.3691861449265619 1.6434878857797766 -1.8450980704268596 -1.570796326191341 2.1649703336539625 -1.1700544443253119e-08 -0.12871541713498721 -0.27007621202933585 0.3987916287481319 6.23286150921895e-10 -1.178151453334269e-08 6.268148808885598e-09 0.06895468775088578 0.14468368501571588 -0.2136383725436418 -3.3390329513672954e-10 6.311525642862151e-09 3413.475
3.664615171578382 -1.3503384184006688 1.6208149448942613 -1.8412728557908151 -1.5707963262571598 2.0938188448085775 -1.0879715432565726e-08 -0.11968563659618081 -0.2511295389915638 0.3708151752007505 5.795607194158949e-10 -1.0955005222967893e-08 1.81328590542762e-08 0.19947606099363444 0.4185492316526062 -0.6180252920012513 -9.659345323598263e-10 1.8258342038279838e-08 3413.5249999999996
3.5950075950262397 -1.3318996676686234 1.5986339829211516 -1.8375306442793262 -1.5707963263215508 2.0242112682538353 -9.32760239417501e-09 -0.10261114248643764 -0.21530310270195818 0.317914244856611 4.968799034772771e-10 -9.39215125425917e-09 2.7982807182525007e-08 0.30783342745931214 0.6459093081058741 -0.9537427345698313 -1.4906397104318295e-09 2.817645376277751e-08 3413.575
3.5275330239723734 -1.3140259410135668 1.5771327187078141 -1.833903106458908 -1.5707963263839684 1.9567366971974485 -7.223295294049131e-09 -0.0794620687414974 -0.16673072273239656 0.2461927912169596 3.8478379725280307e-10 -7.2732819312983105e-09 3.4474818448870755e-08 0.37925078262987255 0.7957602675864366 -1.1750110489900318 -1.836468123252011e-09 3.4713391035741836e-08 3413.625
3.462752079915932 -1.2968657446842415 1.5564897983840225 -1.8304203822127687 -1.5707963264438942 1.891955753138587 -4.835429081140301e-09 -0.053193616264969226 -0.11161312844069472 0.16480674453366673 2.5758254196261876e-10 -4.868891210207943e-09 3.626571810855241e-08 0.398952121987269 0.8370984633052135 -1.2360505840025013 -1.931869064719651e-09 3.6516684076559636e-08 3413.6749999999997
3.4011887778736556 -1.2805578880280222 1.5368722031569293 -1.8271106434027227 -1.5707963265008436 1.8303924510940106 -2.5221836873848964e-09 -0.027746052928332578 -0.05821795897060885 0.08596401180922683 1.3435632590025425e-10 -2.539637699151649e-09 3.201233141680851e-08 0.3521614410134525 0.7389202484731177 -1.0910816883478822 -1.7052918287340087e-09 3.22338631046174e-08 3413.725
3.3433223916060006 -1.2652293286239424 1.5184326571060385 -1.8239996565311014 -1.5707963265543732 1.7725260648241947 -7.312840277032992e-10 -0.008044713570936682 -0.0168797632518335 0.024924476796757567 3.8955384432618296e-11 -7.363446583339143e-10 2.0371483628878172e-08 0.2241027351903781 0.4702219763010759 -0.6943247107668353 -1.0851857091943678e-09 2.0512458339302002e-08 3413.7749999999996
3.289579318843276 -1.2509930174157258 1.5013070349781783 -1.821110345402667 -1.5707963266040885 1.7187829920594622 0.0 0.0 0.0 0.0 0.0 0.0 0.0 -8.881784197001252e-16 0.0 1.7763568394002505e-15 0.0 0.0 3413.825
3.240324946511771 -1.2379457438448143 1.4856117699824758 -1.8184623537865237 -1.5707963266496514 1.6695286197261168 0.0 0.0 0.0 0.0 0.0 0.0 0.0 -8.881784197001252e-16 0.0 1.7763568394002505e-15 0.0 0.0 3413.8749999999995
3.1958555159598907 -1.2261659809833976 1.4714412615853296 -1.8160716080780308 -1.570796326690788 1.625059189172575 0.0 0.0 0.0 0.0 0.0 0.0 0.0 -8.881784197001252e-16 0.0 1.7763568394002505e-15 0.0 0.0 3413.9249999999997
3.1563899881842743 -1.2157117306674414 1.4588652833053801 -1.813949879960715 -1.570796326727296 1.5855936613954853 0.0 0.0 0.0 0.0 0.0 0.0 0.0 -8.881784197001252e-16 0.0 1.7763568394002505e-15 0.0 0.0 3413.975
3.1220619090559447 -1.2066183686297176 1.4479263905084876 -1.8121043490681819 -1.5707963267590512 1.551265582265873 0.0 0.0 0.0 0.0 0.0 0.0 0.0 -8.881784197001252e-16 0.0 1.7763568394002505e-15 0.0 0.0 3414.0249999999996
3.0929112745464242 -1.1988964896328334 1.4386373282027003 -1.8105371656460294 -1.5707963267860172 1.5221149477552645 0.0 0.0 0.0 0.0 0.0 0.0 0.0 -8.881784197001252e-16 0.0 1.7763568394002505e-15 0.0 0.0 3414.075
3.068876395953872 -1.1925297526022596 1.430978438833231 -1.8092450132137592 -1.5707963268082508 1.4980800691618137 0.0 0.0 0.0 0.0 0.0 0.0 0.0 -8.881784197001252e-16 0.0 1.7763568394002505e-15 0.0 0.0 3414.1249999999995
3.0497857651292115 -1.1874727257593591 1.424895070077428 -1.8082186712266894 -1.5707963268259106 1.4789894383364406 0.0 0.0 0.0 0.0 0.0 0.0 0.0 -8.881784197001252e-16 0.0 1.7763568394002505e-15 0.0 0.0 3414.1749999999997
3.035349919702271 -1.1836487317544209 1.4202949826397506 -1.8074425777378678 -1.5707963268392646 1.464553592908961 0.0 0.0 0.0 0.0 0.0 0.0 0.0 -8.881784197001252e-16 0.0 1.7763568394002505e-15 0.0 0.0 3414.225
3.025153308307892 -1.1809476927996787 1.4170457580467364 -1.806894392059982 -1.570796326848697 1.4543569815142006 0.0 0.0 0.0 0.0 0.0 0.0 0.0 -8.881784197001252e-16 0.0 1.7763568394002505e-15 0.0 0.0 3414.2749999999996
3.018646155812089 -1.1792239758023542 1.4149722064419843 -1.806544557427274 -1.5707963268547165 1.4478498290181543 0.0 0.0 0.0 0.0 0.0 0.0 0.0 -8.881784197001252e-16 0.0 1.7763568394002505e-15 0.0 0.0 3414.325
3.015136328538161 -1.1782942374976737 1.4138537743811166 -1.8063558636574515 -1.5707963268579632 1.4443400017440946 0.0 0.0 0.0 0.0 0.0 0.0 0.0 -8.881784197001252e-16 0.0 1.7763568394002505e-15 0.0 0.0 3414.3749999999995
3.0137811994928265 -1.1779352695819048 1.413421952626762 -1.8062830098136 -1.5707963268592169 1.4429848726987102 0.0 0.0 0.0 0.0 0.0 0.0 0.0 -8.881784197001252e-16 0.0 1.7763568394002505e-15 0.0 0.0 3414.4249999999997
3.013579513592356 -1.1778818438453806 1.4133576839435165 -1.806272166866096 -1.5707963268594034 1.4427831867982324 0.0 0.0 0.0 0.0 0.0 0.0 0.0 -8.881784197001252e-16 0.0 1.7763568394002505e-15 0.0 0.0 3414.4749999999995
3.0135795135923544 -1.1778818438453802 1.4133576839435165 -1.806272166866096 -1.5707963268594034 1.4427831867982306 0.0 0.0 0.0 0.0 0.0 0.0 0.0 -8.881784197001252e-16 0.0 1.7763568394002505e-15 0.0 0.0 3414.5249999999996
3.013579513609194 -1.1776965965294781 1.4137463778115944 -1.806846108049477 -1.5707963268603005 1.4427831868151866 0.0 0.0 0.0 0.0 0.0 0.0 0.0 -8.881784197001252e-16 0.0 1.7763568394002505e-15 0.0 0.0 3414.575
3.0135795137133394 -1.1765509089199029 1.4161503087209626 -1.8103957265647161 -1.5707963268658482 1.4427831869200531 0.0 0.0 0.0 0.0 0.0 0.0 0.0 -8.881784197001252e-16 0.0 1.7763568394002505e-15 0.0 0.0 3414.625
3.0135795139570263 -1.1738701586187303 1.4217751740467521 -1.81870134218301 -1.5707963268788294 1.4427831871654262 0.0 0.0 0.0 0.0 0.0 0.0 0.0 -8.881784197001252e-16 0.0 1.7763568394002505e-15 0.0 0.0 3414.6749999999997
3.0135795143596553 -1.1694409144495892 1.4310688042425832 -1.8324242165336606 -1.5707963269002774 1.4427831875708415 0.0 0.0 0.0 0.0 0.0 0.0 0.0 -8.881784197001252e-16 0.0 1.7763568394002505e-15 0.0 0.0 3414.725
3.013579514913765 -1.1633452653264682 1.4438589568262938 -1.8513100182207824 -1.5707963269297947 1.4427831881287854 0.0 0.0 0.0 0.0 0.0 0.0 0.0 -8.881784197001252e-16 0.0 1.7763568394002505e-15 0.0 0.0 3414.7749999999996
3.0135795155909983 -1.1558951491225262 1.4594911103656705 -1.8743922879400117 -1.570796326965871 1.4427831888107057 0.0 0.0 0.0 0.0 0.0 0.0 0.0 -8.881784197001252e-16 0.0 1.7763568394002505e-15 0.0 0.0 3414.825
3.0135795163480763 -1.1475666815389003 1.4769662584641756 -1.9001959035952134 -1.5707963270062002 1.4427831895730228 0.0 0.0 0.0 0.0 0.0 0.0 0.0 -8.881784197001252e-16 0.0 1.7763568394002505e-15 0.0 0.0 3414.875
3.013579517132764 -1.1389344849735148 1.4950787037466788 -1.9269405454151904 -1.5707963270480005 1.4427831903631405 0.0 0.0 0.0 0.0 0.0 0.0 0.0 -8.881784197001252e-16 0.0 1.7763568394002505e-15 0.0 0.0 3414.9249999999997
3.013579517889842 -1.1306060173898889 1.512553851845184 -1.9527441610703922 -1.5707963270883298 1.4427831911254576 0.0 0.0 0.0 0.0 0.0 0.0 0.0 0.0 0.0 0.0 0.0 0.0 3414.975
3.0135795185670755 -1.1231559011859469 1.5281860053845606 -1.9758264307896214 -1.570796327124406 1.442783191807378 0.02584145966995149 -0.0017824963324544725 0.002475183510028559 -0.000692687294359888 -1.0731807092577018e-10 0.025841459666455003 2.1694520665773562 -0.1496448111484398 0.20779754896096908 -0.058152747616975364 -9.009607573434898e-09 2.1694520662838177 3415.0249999999996
3.013579519121185 -1.1170602520628259 1.5409761579682713 -1.9947122324767432 -1.5707963271539234 1.4427831923653218 0.09850225329974707 -0.006794504160671131 0.009434883175414984 -0.0026403794599069654 -4.0907409801863875e-10 0.09850225328641918 4.028982409357948 -0.27791179213281675 0.38590973378465687 -0.10799795986009711 -1.6732128350664813e-08 4.028982408812804 3415.075
3.013579519523814 -1.1126310078936845 1.5502697881641023 -2.008435106827394 -1.5707963271753713 1.442783192770737 0.21095069118327753 -0.014550990469016105 0.02020557967370253 -0.005654590158039903 -8.760658851083282e-10 0.21095069115473475 5.593709161209908 -0.3858437639367437 0.5357846210143453 -0.14994088235735809 -2.3230347053455834e-08 5.5937091604530496 3415.125
3.013579519767501 -1.1099502575925122 1.5558946534898919 -2.016740722445688 -1.5707963271883525 1.4427831930161101 0.35650666809973897 -0.024591173892637215 0.03414742964855726 -0.009556257367087434 -1.4805513458330744e-09 0.35650666805150166 6.8787504550013745 -0.4744835475438335 0.6588702771933166 -0.18438676073675117 -2.8567048403574068e-08 6.878750454070642 3415.1749999999997
3.0135795198716466 -1.108804569982937 1.55829858439926 -2.0202903409609267 -1.5707963271939003 1.4427831931209767 0.5288416633136331 -0.03647852471746398 0.05065426570976814 -0.014175743382308367 -2.1962485036396283e-09 0.528841663242078 7.899224423600479 -0.5448739639376989 0.7566147688648526 -0.21174084062626922 -3.280501712278561e-08 7.899224422531671 3415.225
3.013579519888486 -1.108619322667035 1.558687278267338 -2.020864282144308 -1.5707963271947973 1.4427831931379327 0.7219787405747673 -0.049800764880207626 0.06915359643324691 -0.01935283481589157 -2.9983354917832535e-09 0.7219787404770797 8.670249199875359 -0.5980578341019528 0.8304661625722353 -0.23240836765390505 -3.6007037932856544e-08 8.670249198702226 3415.2749999999996
3.013579519888486 -1.108619322667035 1.558687278267338 -2.020864282144308 -1.5707963271947973 1.4427831931379327 0.930292548118254 -0.06416986796836104 0.08910660636102816 -0.024936742596955976 -3.863450553327728e-09 0.9302925479923804 9.206942916694146 -0.6350779790202079 0.8818725248587468 -0.2467945874476516 -3.8235895555552984e-08 9.206942915448398 3415.325
3.013579519888486 -1.108619322667035 1.558687278267338 -2.020864282144308 -1.5707963271947973 1.4427831931379327 1.1485093186645108 -0.07922205922019879 0.1100081560012693 -0.030786101971550576 -4.769692041145342e-09 1.1485093185091113 9.524423706924981 -0.6569772196760773 0.9122819222676691 -0.25530474563550165 -3.955437471264102e-08 9.524423705636273 3415.375
3.013579519888486 -1.108619322667035 1.558687278267338 -2.020864282144308 -1.5707963271947973 1.4427831931379327 1.371706869419262 -0.09461781552477723 0.1313867818282507 -0.03676897250265447 -5.696618417916904e-09 1.3717068692336627 9.63780970343599 -0.6647983770531732 0.9231424213422841 -0.2583440878454481 -4.002526012588674e-08 9.637809702131943 3415.4375
3.013579519888486 -1.108619322667035 1.558687278267338 -2.020864282144308 -1.5707963271947973 1.4427831931379327 1.595314602073536 -0.11004186542193428 0.15280469628237534 -0.04276283807017676 -6.625248256131731e-09 1.5953146018576814 9.562219039095318 -0.6595842721351093 0.9159020886258742 -0.2563178597054838 -3.971133651705626e-08 9.562219037801498 3415.5
3.013579519888486 -1.108619322667035 1.558687278267338 -2.020864282144308 -1.5707963271947973 1.4427831931379327 1.815113502803668 -0.1252031891022897 0.1738577877701693 -0.04865460687095667 -7.538060238087659e-09 1.815113502558073 9.312769846771092 -0.6423777259054976 0.8920089906617208 -0.24963130684360163 -3.867538860791566e-08 9.312769845511022 3415.5625
3.013579519888486 -1.108619322667035 1.558687278267338 -2.020864282144308 -1.5707963271947973 1.4427831931379327 2.0272361422712972 -0.13983501840724477 0.19417562066428132 -0.05434061141876347 -8.418993155891034e-09 2.027236141997001 8.904580259331448 -0.6142215593479514 0.8529111939931063 -0.23868967488779438 -3.6980201120231045e-08 8.904580258126611 3415.625
3.0135795198716466 -1.108804569982937 1.55829858439926 -2.0202903409609267 -1.5707963271939003 1.4427831931209767 2.228166675623369 -0.1536948368289826 0.21342143530348293 -0.05972660854429647 -9.253445911456716e-09 2.2281666753218854 8.352768409644527 -0.5761585934460836 0.8000567651633131 -0.22389820946605507 -3.468855877576852e-08 8.352768408514352 3415.675
3.013579519767501 -1.1099502575925122 1.5558946534898919 -2.0167407224456877 -1.5707963271883525 1.4427831930161101 2.414740842492135 -0.16656437951046799 0.23129214799266878 -0.0647277793951851 -1.0028277516508084e-08 2.414740842165407 7.672452430578456 -0.5292316491835064 0.7348937707156223 -0.20566215620637632 -3.186324629629414e-08 7.672452429540329 3415.7250000000004
3.013579519523814 -1.1126310078936847 1.5502697881641023 -2.008435106827394 -1.5707963271753713 1.442783192770737 2.58414596699515 -0.1782496332454473 0.247518351002856 -0.06926872943598882 -1.0731807092577021e-08 2.5841459666455004 6.878750455001373 -0.4744835475438334 0.6588702771933165 -0.18438676073675128 -2.8567048403574058e-08 6.8787504540706434 3415.775
3.013579519121185 -1.1170602520628259 1.5409761579682713 -1.9947122324767432 -1.5707963271539234 1.4427831923653218 2.7339209577352768 -0.18858083647844867 0.26186431257118475 -0.07328348844819713 -1.1353813871003934e-08 2.733920957365362 5.986780615781419 -0.41295710951067716 0.5734343511396782 -0.16047726868517265 -2.4862749819374365e-08 5.986780614971377 3415.8250000000003
3.0135795185670755 -1.1231559011859469 1.5281860053845606 -1.9758264307896214 -1.570796327124406 1.442783191807378 2.861956307800683 -0.1974124793047821 0.27412797690091806 -0.07671551053022968 -1.1885537192937736e-08 2.8619563074134433 5.011661045786722 -0.34569515606765056 0.4800340590979883 -0.1343389256796333 -2.0813135265461117e-08 5.0116610451086165 3415.875
3.013579517889842 -1.1306060173898889 1.512553851845184 -1.9527441610703922 -1.5707963270883298 1.4427831911254576 2.9664940947648417 -0.20462330347053906 0.28414096416144186 -0.07951767409743615 -1.2319676509335868e-08 2.9664940943634583 3.9685098778854044 -0.2737405081983653 0.38011746761152854 -0.10637697734812576 -1.6480989463600416e-08 3.9685098773484433 3415.925
3.013579517132764 -1.1389344849735148 1.4950787037466788 -1.9269405454151904 -1.5707963270480005 1.4427831903631405 3.0461279806865287 -0.21011630237259257 0.2917685704882645 -0.08165228188209621 -1.265039138096426e-08 3.0461279802743704 2.8724452449456273 -0.1981359868864358 0.27513264322358266 -0.07699666931864341 -1.1929097135558407e-08 2.872445244556973 3415.9750000000004
3.0135795163480763 -1.1475666815389003 1.4769662584641756 -1.9001959035952134 -1.5707963270062002 1.4427831895730228 3.099803212109828 -0.21381872105859764 0.2969097679830176 -0.08309106093341964 -1.2873301478397372e-08 3.099803211690407 1.7385852798355184 -0.11992441311547475 0.166527652477432 -0.04660324721917906 -7.220243003101138e-09 1.7385852796002792 3416.025
3.0135795155909983 -1.1558951491225262 1.4594911103656705 -1.8743922879400117 -1.570796326965871 1.4427831888107057 3.1268166200641327 -0.21568205622699116 0.29949720471345564 -0.08381516261754646 -1.2985486582018193e-08 3.126816619641056 0.5820481154231941 -0.040148607869093855 0.05575056191635762 -0.015601956677725255 -2.41721178799473e-09 0.5820481153444471 3416.0750000000003
3.013579514913765 -1.1633452653264682 1.4438589568262938 -1.8513100182207824 -1.5707963269297947 1.4427831881287854 3.126816620064132 -0.2156820562269911 0.29949720471345564 -0.08381516261754644 -1.2985486582018193e-08 3.1268166196410543 -0.5820481154231941 0.040148607869093855 -0.05575056191635762 0.01560195667772481 2.41721178799473e-09 -0.58204811534444 3416.125
3.0135795143596553 -1.1694409144495892 1.4310688042425832 -1.8324242165336606 -1.5707963269002774 1.4427831875708415 3.0998032121098293 -0.21381872105859778 0.29690976798301766 -0.08309106093341967 -1.2873301478397378e-08 3.099803211690408 -1.7385852798355097 0.11992441311547425 -0.16652765247743165 0.04660324721917854 7.220243003101135e-09 -1.7385852796002634 3416.175
3.0135795139570263 -1.1738701586187306 1.4217751740467521 -1.8187013421830098 -1.5707963268788294 1.4427831871654262 3.04612798068653 -0.2101163023725926 0.2917685704882644 -0.08165228188209622 -1.2650391380964256e-08 3.04612798027437 -2.8724452449456344 0.19813598688643624 -0.2751326432235831 0.07699666931864318 1.1929097135558433e-08 -2.872445244556973 3416.2250000000004
3.0135795137133394 -1.1765509089199029 1.4161503087209626 -1.810395726564716 -1.5707963268658482 1.4427831869200531 2.9664940947648413 -0.20462330347053895 0.28414096416144163 -0.0795176740974361 -1.2319676509335868e-08 2.966494094363457 -3.9685098778854044 0.2737405081983649 -0.38011746761152854 0.1063769773481251 1.6480989463600416e-08 -3.968509877348436 3416.275
3.013579513609194 -1.1776965965294781 1.4137463778115944 -1.806846108049477 -1.5707963268603005 1.4427831868151866 2.861956307800686 -0.1974124793047822 0.2741279769009183 -0.07671551053022974 -1.188553719293774e-08 2.8619563074134455 -5.011661045786721 0.3456951560676505 -0.4800340590979879 0.13433892567963265 2.0813135265461114e-08 -5.0116610451086085 3416.3250000000003
3.0135795135923544 -1.1778818438453802 1.4133576839435165 -1.806272166866096 -1.5707963268594034 1.4427831867982306 2.7339209577352777 -0.18858083647844867 0.2618643125711846 -0.0732834884481971 -1.1353813871003932e-08 2.73392095736536 -5.986780615781416 0.41295710951067716 -0.5734343511396773 0.16047726868517198 2.486274981937434e-08 -5.98678061497136 3416.375
3.0135795135923544 -1.1778818438453802 1.4133576839435165 -1.806272166866096 -1.5707963268594034 1.4427831867982306 2.5841459669951523 -0.17824963324544732 0.247518351002856 -0.06926872943598882 -1.0731807092577031e-08 2.584145966645503 -6.8787504550013745 0.4744835475438339 -0.6588702771933168 0.184386760736751 2.85670484035741e-08 -6.878750454070645 3416.425
3.0135795135923544 -1.1778818438453802 1.4133576839435165 -1.806272166866096 -1.5707963268594034 1.4427831867982306 2.4147408424921415 -0.16656437951046815 0.23129214799266898 -0.0647277793951852 -1.0028277516508096e-08 2.4147408421654104 -7.6724524305784705 0.5292316491835071 -0.7348937707156219 0.20566215620637587 3.1863246296294194e-08 -7.672452429540326 3416.4750000000004
3.0135795135923544 -1.1778818438453802 1.4133576839435165 -1.806272166866096 -1.5707963268594034 1.4427831867982306 2.2281666756233744 -0.15369483682898263 0.2134214353034828 -0.0597266085442965 -9.253445911456713e-09 2.2281666753218845 -8.352768409644527 0.5761585934460833 -0.8000567651633131 0.22389820946605474 3.468855877576853e-08 -8.352768408514345 3416.5250000000005
3.0135795135923544 -1.1778818438453802 1.4133576839435165 -1.806272166866096 -1.5707963268594034 1.4427831867982306 2.0272361422712977 -0.13983501840724463 0.19417562066428107 -0.05434061141876344 -8.418993155891026e-09 2.0272361419969984 -8.904580259331443 0.6142215593479508 -0.8529111939931062 0.23868967488779375 3.6980201120231005e-08 -8.904580258126602 3416.5750000000003
3.0135795135923544 -1.1778818438453802 1.4133576839435165 -1.806272166866096 -1.5707963268594034 1.4427831867982306 1.815113502803671 -0.12520318910228967 0.1738577877701694 -0.0486546068709567 -7.538060238087674e-09 1.815113502558072 -9.312769846771085 0.6423777259054969 -0.8920089906617199 0.2496313068436009 3.867538860791559e-08 -9.312769845511012 3416.6250000000005
3.0135795135923544 -1.1778818438453802 1.4133576839435165 -1.806272166866096 -1.5707963268594034 1.4427831867982306 1.5953146020735371 -0.11004186542193416 0.15280469628237522 -0.04276283807017664 -6.6252482561317115e-09 1.5953146018576785 -9.562219039095297 0.6595842721351073 -0.9159020886258733 0.2563178597054827 3.971133651705618e-08 -9.562219037801476 3416.675
3.0135795135923544 -1.1778818438453802 1.4133576839435165 -1.806272166866096 -1.5707963268594034 1.4427831867982306 1.3717068694192631 -0.09461781552477727 0.1313867818282506 -0.036768972502654436 -5.696618417916888e-09 1.3717068692336627 -9.63780970343598 0.6647983770531727 -0.9231424213422829 0.25834408784544716 4.0025260125886685e-08 -9.63780970213192 3416.7250000000004
3.0135795135923544 -1.1778818438453802 1.4133576839435165 -1.806272166866096 -1.5707963268594034 1.4427831867982306 1.1485093186645212 -0.07922205922019918 0.11000815600126988 -0.030786101971550784 -4.76969204114536e-09 1.1485093185091217 -9.524423706925015 0.6569772196760789 -0.9122819222676709 0.2553047456355017 3.955437471264112e-08 -9.524423705636291 3416.775
3.0135795135923544 -1.1778818438453802 1.4133576839435165 -1.806272166866096 -1.5707963268594034 1.4427831867982306 0.9302925481182681 -0.06416986796836169 0.08910660636102914 -0.024936742596956232 -3.863450553327754e-09 0.9302925479923866 -9.206942916694171 0.6350779790202096 -0.8818725248587478 0.24679458744765143 3.823589555555307e-08 -9.206942915448412 3416.8250000000003
3.0135795135923544 -1.1778818438453802 1.4133576839435165 -1.806272166866096 -1.5707963268594034 1.4427831867982306 0.7219787405747717 -0.04980076488020788 0.06915359643324709 -0.019352834815891513 -2.9983354917832527e-09 0.7219787404770822 -8.670249199875373 0.598057834101954 -0.8304661625722358 0.23240836765390424 3.60070379328566e-08 -8.670249198702209 3416.8750000000005
3.0135795135923544 -1.1778818438453802 1.4133576839435165 -1.806272166866096 -1.5707963268594034 1.4427831867982306 0.5288416633136449 -0.036478524717464274 0.05065426570976833 -0.014175743382308467 -2.1962485036396415e-09 0.5288416632420828 -7.899224423600479 0.5448739639376986 -0.7566147688648532 0.21174084062626852 3.280501712278557e-08 -7.89922442253167 3416.925
3.0135795135923544 -1.1778818438453802 1.4133576839435165 -1.806272166866096 -1.5707963268594034 1.4427831867982306 0.35650666809974657 -0.024591173892637434 0.03414742964855757 -0.009556257367087415 -1.4805513458331095e-09 0.3565066680515079 -6.8787504550013905 0.47448354754383504 -0.6588702771933183 0.18438676073675087 2.8567048403574078e-08 -6.878750454070645 3416.9750000000004
3.0135795135923544 -1.1778818438453802 1.4133576839435165 -1.806272166866096 -1.5707963268594034 1.4427831867982306 0.21095069118327858 -0.014550990469015437 0.02020557967370183 -0.005654590158039608 -8.760658851083088e-10 0.2109506911547283 -5.593709161209888 0.385843763936742 -0.5357846210143425 0.14994088235735697 2.3230347053455784e-08 -5.593709160453017 3417.025
3.0135795135923544 -1.1778818438453802 1.4133576839435165 -1.806272166866096 -1.5707963268594034 1.4427831867982306 0.09850225329975054 -0.0067945041606710535 0.009434883175415056 -0.0026403794599068834 -4.0907409801862313e-10 0.09850225328641508 -4.028982409357957 0.2779117921328157 -0.385909733784655 0.10799795986009561 1.67321283506648e-08 -4.028982408812762 3417.0750000000003
3.0135795135923544 -1.1778818438453802 1.4133576839435165 -1.806272166866096 -1.5707963268594034 1.4427831867982306 0.025841459669960473 -0.0017824963324544623 0.002475183510028555 -0.000692687294360005 -1.0731807092578758e-10 0.025841459666449674 -2.1694520665773727 0.14964481114843975 -0.2077975489609685 0.058152747616974275 9.009607573434916e-09 -2.1694520662838 3417.125
3.0135795135923544 -1.1778818438453802 1.4133576839435165 -1.806272166866096 -1.5707963268594034 1.4427831867982306 7.105427357601002e-15 0.0 0.0 0.0 0.0 0.0 -1.4210854715202004e-14 0.0 0.0 -8.881784197001252e-16 0.0 1.4210854715202004e-14 3417.175
3.0135795135923544 -1.1778818438453802 1.4133576839435165 -1.806272166866096 -1.5707963268594034 1.4427831867982306 0.0 0.0 0.0 0.0 0.0 0.0 0.0 0.0 0.0 0.0 0.0 0.0 3417.2250000000004
3.0135795135923544 -1.1778818438453802 1.4133576839435165 -1.806272166866096 -1.5707963268594034 1.4427831867982306 -1.2590495145671442e-07 0.004856464139891624 0.008960515595648984 -0.013816985908265458 -9.696766381813606e-09 -1.2615740583187428e-07 -5.023607563122905e-06 0.19377291918167583 0.3575245722663945 -0.5512977377397918 -3.869009786343629e-07 -5.033680492691784e-06 3417.275
3.0135795135923544 -1.1778818438453802 1.4133576839435165 -1.806272166866096 -1.5707963268594034 1.4427831867982306 -4.5451687475873904e-07 0.017531835545008763 0.03234746130029283 -0.049879319128838306 -3.500532663834712e-08 -4.5542823505306614e-07 -8.54013285730894e-06 0.3294139626088489 0.6077917728528707 -0.9372061541576462 -6.577316636784169e-07 -8.557256837576034e-06 3417.3250000000003
3.0135795135923544 -1.1778818438453802 1.4133576839435165 -1.806272166866096 -1.5707963268594034 1.4427831867982306 -9.178470961194482e-07 0.035403623579809945 0.0653221586922811 -0.1007258272712552 -7.068942692342119e-08 -9.196874885143636e-07 -1.0708216121393563e-05 0.4130422750977827 0.7620918514099462 -1.1751346514979775 -8.247099807732473e-07 -1.072968736600091e-05 3417.375
3.0135795135923544 -1.1778818438453802 1.4133576839435165 -1.806272166866096 -1.5707963268594034 1.4427831867982306 -1.4554612388396187e-06 0.05614072545714718 0.10358356028570226 -0.1597243570995487 -1.1209461937376529e-07 -1.4583796114164668e-06 -1.1686497594212234e-05 0.4507770014647407 0.8317150575881389 -1.2824926320052001 -9.00053855559939e-07 -1.1709930409314574e-05 3417.425
3.0135795135923544 -1.1778818438453802 1.4133576839435165 -1.806272166866096 -1.5707963268594034 1.4427831867982306 -2.014479223307431e-06 0.07770342623826601 0.1433682495303838 -0.22107177453224738 -1.5514826210901772e-07 -2.018518493309989e-06 -1.1633617514600413e-05 0.4487372865259862 0.8279516410379661 -1.2766894979237287 -8.959812136795773e-07 -1.1656944298865185e-05 3417.475
3.0135795135923544 -1.1778818438453802 1.4133576839435165 -1.806272166866096 -1.5707963268594034 1.4427831867982306 -2.549575266998467e-06 0.0983433988328054 0.18145044081189196 -0.2797939646423756 -1.9635951923172555e-07 -2.5546874680954544e-06 -1.0708216121393563e-05 0.4130422750977828 0.7620918514099462 -1.1751346514979777 -8.247099807732473e-07 -1.0729687366000908e-05 3417.525
3.0137822311197184 -1.1778958269273603 1.4133771009225622 -1.8062776007640777 -1.5707963268602452 1.442985904325567 -3.022977884475714e-06 0.11660370399879794 0.2151419794515322 -0.33174583165745375 -2.3281936082734475e-07 -3.0290393140233025e-06 -9.06893365342714e-06 0.3498111119963937 0.6454259383545965 -0.9952374949723612 -6.984580824820339e-07 -9.087117942069903e-06 3417.5750000000003
3.015144291673724 -1.1779897793577998 1.4135075637472632 -1.8063141111644947 -1.5707963268659018 1.4443479648793887 -3.404469887389558e-06 0.13131879034266952 0.24229234170634856 -0.37361129895949796 -2.6220056296423995e-07 -3.41129625369388e-06 -6.874410349536615e-06 0.265162942038083 0.4892441515224349 -0.7544074305912949 -5.294434444470232e-07 -6.88819435842034e-06 3417.6250000000005
3.018672071775295 -1.1782331191370952 1.4138454666074707 -1.80640867426135 -1.5707963268805525 1.447875744980482 -3.671388384477793e-06 0.14161449431923978 0.2612886347691244 -0.40290330908502076 -2.8275770769368475e-07 -3.6787499540574536e-06 -4.283286448557431e-06 0.16521691003911335 0.30483674056397875 -0.4700538605991914 -3.298839923092991e-07 -4.291874946400368e-06 3417.675
3.0252125084694588 -1.1786842664240091 1.414471932033981 -1.8065839924305045 -1.5707963269077145 1.4544161816737609 -3.8086247815656133e-06 0.14690804023172171 0.2710555967683819 -0.4179638237250302 -2.9332718304986165e-07 -3.816261526414199e-06 -1.4542021893250478e-06 0.05609216081574856 0.10349395512974588 -0.15958618724046625 -1.1199765170994756e-07 -1.457118037358143e-06 3417.7250000000004
3.0354612757087294 -1.17939120752755 1.4154535940605366 -1.806858713399837 -1.5707963269502772 1.4646649489116446 -3.80862478156561e-06 0.14690804023172158 0.2710555967683817 -0.41796382372502994 -2.9332718304986143e-07 -3.8162615264141955e-06 1.454202189325041e-06 -0.056092160815747305 -0.10349395512974507 0.1595861872404633 1.1199765170994606e-07 1.4571180373581296e-06 3417.775
3.0499709607364838 -1.180392058898849 1.416843381385831 -1.807247649419406 -1.570796327010535 1.4791746339374359 -3.671388384477793e-06 0.14161449431923978 0.2612886347691245 -0.4029033090850208 -2.827577076936848e-07 -3.678749954057455e-06 4.283286448557431e-06 -0.16521691003911296 -0.3048367405639788 0.47005386059919035 3.2988399230929923e-07 4.291874946400361e-06 3417.8250000000003
3.0691592404703423 -1.1817156311230406 1.4186813005355101 -1.8077619964316116 -1.5707963270902228 1.4983629136686984 -3.4044698873895584e-06 0.13131879034266944 0.2422923417063484 -0.3736112989594979 -2.622005629642398e-07 -3.41129625369388e-06 6.874410349536608e-06 -0.2651629420380823 -0.4892441515224349 0.7544074305912922 5.294434444470224e-07 6.888194358420333e-06 3417.875
3.093317057885549 -1.1833819929111398 1.4209952190241755 -1.8084095532413547 -1.5707963271905487 1.5225207310806363 -3.0229778844757195e-06 0.11660370399879806 0.21514197945153246 -0.3317458316574541 -2.328193608273451e-07 -3.0290393140233068e-06 9.068933653427147e-06 -0.34981111199639353 -0.6454259383545974 0.9952374949723611 6.984580824820353e-07 9.08711794206991e-06 3417.925
3.122616798398348 -1.1854030350919211 1.4238016485173872 -1.8091949406862 -1.570796327312229 1.5518204715894708 -2.5495752669984697e-06 0.09834339883280545 0.181450440811892 -0.2797939646423756 -1.9635951923172568e-07 -2.5546874680954544e-06 1.070821612139357e-05 -0.4130422750977826 -0.7620918514099474 1.175134651497976 8.247099807732479e-07 1.0729687366000911e-05 3417.9750000000004
3.157120466249365 -1.1877830346037976 1.4271065279936672 -1.8101198208065366 -1.5707963274555206 1.5863241394358192 -2.014479223307435e-06 0.0777034262382661 0.14336824953038388 -0.2210717745322475 -1.5514826210901788e-07 -2.0185184933099856e-06 1.1633617514600406e-05 -0.4487372865259846 -0.8279516410379663 1.2766894979237242 8.959812136795762e-07 1.1656944298865178e-05 3418.025
3.1967878608869853 -1.1905192184866997 1.4309060069065014 -1.8111831160157383 -1.570796327620257 1.6259915340680726 -1.455461238839619e-06 0.05614072545714708 0.10358356028570226 -0.15972435709954932 -1.1209461937376559e-07 -1.4583796114164697e-06 1.1686497594212236e-05 -0.4507770014647394 -0.8317150575881387 1.2824926320051966 9.000538555599384e-07 1.1709930409314557e-05 3418.0750000000003
3.2414847533507345 -1.1936023278739525 1.4351872283463427 -1.8123812282703262 -1.5707963278058805 1.6706884265257738 -9.1784709611945e-07 0.035403623579809876 0.065322158692281 -0.10072582727125536 -7.068942692342066e-08 -9.19687488514361e-07 1.070821612139355e-05 -0.4130422750977824 -0.7620918514099463 1.1751346514979748 8.247099807732463e-07 1.072968736600091e-05 3418.125
3.2909910626546552 -1.1970171819841562 1.4399291122026143 -1.813708258240129 -1.5707963280114774 1.7201947358229959 -4.5451687475874804e-07 0.017531835545009297 0.0323474613002938 -0.04987931912883913 -3.5005326638347587e-08 -4.554282350530723e-07 8.540132857308952e-06 -0.32941396260884914 -0.6077917728528736 0.9372061541576446 6.577316636784186e-07 8.557256837576063e-06 3418.175
3.3450090321706885 -1.2007432421130633 1.4451031383257122 -1.8151562244784443 -1.5707963282358108 1.7742127053317205 -1.259049514567239e-07 0.004856464139891851 0.008960515595649612 -0.013816985908266266 -9.696766381814362e-09 -1.2615740583188712e-07 5.023607563122919e-06 -0.1937729191816761 -0.3575245722663965 0.5512977377397936 3.869009786343635e-07 5.03368049269181e-06 3418.2250000000004
3.403171406012052 -1.2047551756254582 1.4506741296890082 -1.8167152825921997 -1.5707963284773558 1.8323750791652142 0.0 0.0 0.0 0.0 0.0 0.0 0.0 8.881784197001252e-16 0.0 -3.552713678800501e-15 0.0 0.0 3418.275
3.46504960541662 -1.2090234199470349 1.4566010355508523 -1.8183739444121143 -1.5707963287343323 1.8942532785614097 0.0 0.0 0.0 0.0 0.0 0.0 0.0 8.881784197001252e-16 0.0 -3.552713678800501e-15 0.0 0.0 3418.3250000000003
3.530161905130301 -1.2135147465562772 1.4628377146165765 -1.8201192971628595 -1.57079632900474 1.9593655782662807 0.0 0.0 0.0 0.0 0.0 0.0 0.0 8.881784197001252e-16 0.0 -3.552713678800501e-15 0.0 0.0 3418.375
3.597981609790418 -1.2181928249763354 1.4693337182004964 -1.8219372226332202 -1.5707963292863911 2.0271852829172214 0.0 0.0 0.0 0.0 0.0 0.0 0.0 8.881784197001252e-16 0.0 -3.552713678800501e-15 0.0 0.0 3418.425
3.6679452303090896 -1.2230187867669065 1.4760350733879155 -1.8238126163462562 -1.570796329576946 2.0971489034264263 0.0 0.0 0.0 0.0 0.0 0.0 0.0 8.881784197001252e-16 0.0 -3.552713678800501e-15 0.0 0.0 3418.475
3.7394606602566043 -1.2279517895161118 1.482885066197127 -1.8257296067294633 -1.5707963298739454 2.1686643333642643 0.0 0.0 0.0 0.0 0.0 0.0 0.0 8.881784197001252e-16 0.0 -3.552713678800501e-15 0.0 0.0 3418.525
3.811915352244804 -1.2329495808323763 1.4898250247414162 -1.827671774284934 -1.5707963301748455 2.2411190253426607 0.0 0.0 0.0 0.0 0.0 0.0 0.0 8.881784197001252e-16 0.0 -3.552713678800501e-15 0.0 0.0 3418.5750000000003
3.884684494310462 -1.237969062336307 1.4967951023910655 -1.8296223707595194 -1.5707963304770514 2.313888167398473 0.0 0.0 0.0 0.0 0.0 0.0 0.0 8.881784197001252e-16 0.0 -3.552713678800501e-15 0.0 0.0 3418.625
3.9571391862986616 -1.2429668536525715 1.5037350609353548 -1.83156453831499 -1.5707963307779516 2.3863428593768683 0.0 0.0 0.0 0.0 0.0 0.0 0.0 8.881784197001252e-16 0.0 -3.552713678800501e-15 0.0 0.0 3418.675
4.028654616246176 -1.247899856401777 1.5105850537445662 -1.8334815286981971 -1.5707963310749509 2.4578582893147067 0.0 0.0 0.0 0.0 0.0 0.0 0.0 8.881784197001252e-16 0.0 -3.552713678800501e-15 0.0 0.0 3418.725
4.098618236764848 -1.252725818192348 1.5172864089319853 -1.8353569224112332 -1.5707963313655058 2.527821909823911 0.0 0.0 0.0 0.0 0.0 0.0 0.0 8.881784197001252e-16 0.0 -3.552713678800501e-15 0.0 0.0 3418.775
4.166437941424964 -1.2574038966124061 1.5237824125159052 -1.837174847881594 -1.570796331647157 2.595641614474852 0.0 0.0 0.0 0.0 0.0 0.0 0.0 8.881784197001252e-16 0.0 -3.552713678800501e-15 0.0 0.0 3418.8250000000003
4.231550241138645 -1.2618952232216485 1.5300190915816294 -1.838920200632339 -1.5707963319175646 2.6607539141797236 0.0 0.0 0.0 0.0 0.0 0.0 0.0 8.881784197001252e-16 0.0 -3.552713678800501e-15 0.0 0.0 3418.875
4.293428440543213 -1.2661634675432252 1.5359459974434735 -1.8405788624522537 -1.570796332174541 2.7226321135759184 0.0 0.0 0.0 0.0 0.0 0.0 0.0 8.881784197001252e-16 0.0 -3.552713678800501e-15 0.0 0.0 3418.925
4.3515908143845765 -1.27017540105562 1.5415169888067695 -1.8421379205660091 -1.570796332416086 2.7807944874094117 0.0 0.0 0.0 0.0 0.0 0.0 0.0 0.0 0.0 0.0 0.0 0.0 3418.975
4.40560878390061 -1.2739014611845272 1.5466910149298674 -1.8435858868043244 -1.5707963326404195 2.8348124569181374 1.2590495145671442e-07 -0.004856464139891624 -0.008960515595648984 0.013816985908265458 9.696766381813606e-09 1.2615740583187428e-07 5.023607563122905e-06 -0.19377291918167583 -0.3575245722663945 0.5512977377397918 3.869009786343629e-07 5.033680492691784e-06 3419.025
4.455115093204532 -1.2773163152947309 1.5514328987861392 -1.8449129167741272 -1.5707963328460164 2.88431876621536 4.5451687475873904e-07 -0.017531835545008763 -0.03234746130029283 0.049879319128838306 3.500532663834712e-08 4.5542823505306614e-07 8.54013285730894e-06 -0.3294139626088489 -0.6077917728528707 0.9372061541576462 6.577316636784169e-07 8.557256837576034e-06 3419.075
4.49981198566828 -1.2803994246819836 1.5557141202259803 -1.846111029028715 -1.57079633303164 2.92901565867306 9.178470961194482e-07 -0.035403623579809945 -0.0653221586922811 0.1007258272712552 7.068942692342119e-08 9.196874885143636e-07 1.0708216121393563e-05 -0.4130422750977827 -0.7620918514099462 1.1751346514979775 8.247099807732473e-07 1.072968736600091e-05 3419.125
4.539479380305901 -1.2831356085648857 1.5595135991388145 -1.8471743242379168 -1.5707963331963763 2.9686830533053135 1.4554612388396187e-06 -0.05614072545714718 -0.10358356028570226 0.1597243570995487 1.1209461937376529e-07 1.4583796114164668e-06 1.1686497594212234e-05 -0.4507770014647407 -0.8317150575881389 1.2824926320052001 9.00053855559939e-07 1.1709930409314574e-05 3419.175
4.573983048156918 -1.2855156080767625 1.5628184786150945 -1.8480992043582534 -1.570796333339668 3.0031867211516627 2.014479223307431e-06 -0.07770342623826601 -0.1433682495303838 0.22107177453224738 1.5514826210901772e-07 2.018518493309989e-06 1.1633617514600413e-05 -0.4487372865259862 -0.8279516410379661 1.2766894979237287 8.959812136795773e-07 1.1656944298865185e-05 3419.225
4.603282788669717 -1.2875366502575436 1.5656249081083062 -1.8488845918030987 -1.5707963334613482 3.032486461660496 2.549575266998467e-06 -0.0983433988328054 -0.18145044081189196 0.2797939646423756 1.9635951923172555e-07 2.5546874680954544e-06 1.0708216121393563e-05 -0.4130422750977828 -0.7620918514099462 1.1751346514979777 8.247099807732473e-07 1.0729687366000908e-05 3419.275
4.627440606084922 -1.2892030120456428 1.5679388265969716 -1.8495321486128418 -1.5707963335616741 3.056644279072434 3.022977884475714e-06 -0.11660370399879794 -0.2151419794515322 0.33174583165745375 2.3281936082734475e-07 3.0290393140233025e-06 9.06893365342714e-06 -0.3498111119963937 -0.6454259383545965 0.9952374949723612 6.984580824820339e-07 9.087117942069903e-06 3419.325
4.646628885818784 -1.2905265842698344 1.5697767457466507 -1.8500464956250473 -1.570796333641362 3.0758325588036977 3.404469887389558e-06 -0.13131879034266952 -0.24229234170634856 0.37361129895949796 2.6220056296423995e-07 3.41129625369388e-06 6.874410349536615e-06 -0.265162942038083 -0.4892441515224349 0.7544074305912949 5.294434444470232e-07 6.88819435842034e-06 3419.375
4.661138570846536 -1.2915274356411333 1.5711665330719449 -1.8504354316446163 -1.5707963337016198 3.090342243829487 3.671388384477793e-06 -0.14161449431923978 -0.2612886347691244 0.40290330908502076 2.8275770769368475e-07 3.6787499540574536e-06 4.283286448557431e-06 -0.16521691003911335 -0.30483674056397875 0.4700538605991914 3.298839923092991e-07 4.291874946400368e-06 3419.425
4.671387338085808 -1.2922343767446742 1.572148195098501 -1.8507101526139489 -1.5707963337441824 3.1005910110673716 3.8086247815656133e-06 -0.14690804023172171 -0.2710555967683819 0.4179638237250302 2.9332718304986165e-07 3.816261526414199e-06 1.4542021893250478e-06 -0.05609216081574856 -0.10349395512974588 0.15958618724046625 1.1199765170994756e-07 1.457118037358143e-06 3419.475
4.677927774779971 -1.2926855240315882 1.572774660525011 -1.8508854707831033 -1.5707963337713444 3.10713144776065 3.80862478156561e-06 -0.14690804023172158 -0.2710555967683817 0.41796382372502994 2.9332718304986143e-07 3.8162615264141955e-06 -1.454202189325041e-06 0.056092160815747305 0.10349395512974507 -0.1595861872404633 -1.1199765170994606e-07 -1.4571180373581296e-06 3419.525
4.681455554881543 -1.2929288638108836 1.5731125633852185 -1.8509800338799587 -1.5707963337859951 3.110659227861744 3.671388384477793e-06 -0.14161449431923978 -0.2612886347691245 0.4029033090850208 2.827577076936848e-07 3.678749954057455e-06 -4.283286448557431e-06 0.16521691003911296 0.3048367405639788 -0.47005386059919035 -3.2988399230929923e-07 -4.291874946400361e-06 3419.575
4.682817615435548 -1.293022816241323 1.5732430262099193 -1.8510165442803754 -1.5707963337916517 3.112021288415564 3.4044698873895584e-06 -0.13131879034266944 -0.2422923417063484 0.3736112989594979 2.622005629642398e-07 3.41129625369388e-06 -6.874410349536608e-06 0.2651629420380823 0.4892441515224349 -0.7544074305912922 -5.294434444470224e-07 -6.888194358420333e-06 3419.625
4.683020332962913 -1.2930367993233032 1.5732624431889652 -1.8510219781783575 -1.5707963337924935 3.1122240059429025 3.0229778844757195e-06 -0.11660370399879806 -0.21514197945153246 0.3317458316574541 2.328193608273451e-07 3.0290393140233068e-06 -9.068933653427147e-06 0.34981111199639353 0.6454259383545974 -0.9952374949723611 -6.984580824820353e-07 -9.08711794206991e-06 3419.6749999999997
4.6830203329629105 -1.2930367993233032 1.5732624431889652 -1.8510219781783575 -1.5707963337924935 3.1122240059429025 2.5495752669984697e-06 -0.09834339883280545 -0.181450440811892 0.2797939646423756 1.9635951923172568e-07 2.5546874680954544e-06 -1.070821612139357e-05 0.4130422750977826 0.7620918514099474 -1.175134651497976 -8.247099807732479e-07 -1.0729687366000911e-05 3419.725
4.6830203309139575 -1.2929577661509313 1.573408264913004 -1.8512468331752217 -1.5707963339502968 3.1122240038898408 2.014479223307435e-06 -0.0777034262382661 -0.14336824953038388 0.2210717745322475 1.5514826210901788e-07 2.0185184933099856e-06 -1.1633617514600406e-05 0.4487372865259846 0.8279516410379663 -1.2766894979237242 -8.959812136795762e-07 -1.1656944298865178e-05 3419.775
4.6830203177583885 -1.292450323463362 1.5743445321199445 -1.852690543714708 -1.5707963349634935 3.1122239907078937 1.455461238839619e-06 -0.05614072545714708 -0.10358356028570226 0.15972435709954932 1.1209461937376559e-07 1.4583796114164697e-06 -1.1686497594212236e-05 0.4507770014647394 0.8317150575881387 -1.2824926320051966 -9.000538555599384e-07 -1.1709930409314557e-05 3419.827380952381
4.683020285492248 -1.291205738897416 1.576640877586939 -1.856231475329556 -1.5707963374485208 3.112223958377055 9.1784709611945e-07 -0.035403623579809876 -0.065322158692281 0.10072582727125536 7.068942692342066e-08 9.19687488514361e-07 -1.070821612139355e-05 0.4130422750977824 0.7620918514099463 -1.1751346514979748 -8.247099807732463e-07 -1.072968736600091e-05 3419.879761904762
4.683020229169267 -1.2890332227904553 1.5806493215695308 -1.8624124381804474 -1.570796341786323 3.11222390194114 4.5451687475874804e-07 -0.017531835545009297 -0.0323474613002938 0.04987931912883913 3.5005326638347587e-08 4.554282350530723e-07 -8.540132857308952e-06 0.32941396260884914 0.6077917728528736 -0.9372061541576446 -6.577316636784186e-07 -8.557256837576063e-06 3419.932142857143
4.6830201465411445 -1.2858460525685529 1.5865298732747848 -1.8714801641586016 -1.5707963481500569 3.1122238191473386 1.259049514567239e-07 -0.004856464139891851 -0.008960515595649612 0.013816985908266266 9.696766381814362e-09 1.2615740583188712e-07 -5.023607563122919e-06 0.1937729191816761 0.3575245722663965 -0.5512977377397936 -3.869009786343635e-07 -5.03368049269181e-06 3419.984523809524
4.683020037697813 -1.281647697134666 1.5942761323344186 -1.8834247839883698 -1.5707963565327958 3.1122237100857633 0.0 0.0 0.0 0.0 0.0 0.0 0.0 -8.881784197001252e-16 0.0 3.552713678800501e-15 0.0 0.0 3420.0369047619047
