Andreas691667/Digital_Twin_UR/src/dt/dt_trajectories/_dt_trajectory.csv
actual_q_0 actual_q_1 actual_q_2 actual_q_3 actual_q_4 actual_q_5 timestamp
3.71207804710797 -0.8254843255005873 0.8429764792549035 -1.5882884806323445 -1.570796326807946 2.141281720311417 0.0
3.71207804710797 -0.8254843255005873 0.8429764792549035 -1.5882884806323445 -1.570796326807946 2.141281720311417 0.05
3.71207804710797 -0.8254843255005873 0.8429764792549035 -1.5882884806323445 -1.570796326807946 2.141281720311417 0.1
3.71207804710797 -0.8254843255005873 0.8429764792549035 -1.5882884806323445 -1.570796326807946 2.141281720311417 0.15000000000000002
3.71207804710797 -0.8254843255005873 0.8429764792549035 -1.5882884806323445 -1.570796326807946 2.141281720311417 0.2
3.71207804710797 -0.8254843255005873 0.8429764792549035 -1.5882884806323445 -1.570796326807946 2.141281720311417 0.25
3.71207804710797 -0.8254843255005873 0.8429764792549035 -1.5882884806323445 -1.570796326807946 2.141281720311417 0.3
3.71207804710797 -0.8254843255005873 0.8429764792549035 -1.5882884806323445 -1.570796326807946 2.141281720311417 0.35000000000000003
3.71207804710797 -0.8254843255005873 0.8429764792549035 -1.5882884806323445 -1.570796326807946 2.141281720311417 0.4
3.71207804710797 -0.8254843255005873 0.8429764792549035 -1.5882884806323445 -1.570796326807946 2.141281720311417 0.45
3.71207804710797 -0.8254843255005873 0.8429764792549035 -1.5882884806323445 -1.570796326807946 2.141281720311417 0.5
3.71207804710797 -0.8254843255005873 0.8429764792549035 -1.5882884806323445 -1.570796326807946 2.141281720311417 0.55
3.71207804710797 -0.8254843255005873 0.8429764792549035 -1.5882884806323445 -1.570796326807946 2.141281720311417 0.6000000000000001
3.7122689791773014 -0.8255822011483995 0.8431247541871719 -1.5883388799190803 -1.5707963268548544 2.1411975678393773 0.6500000000000001
3.713544740040671 -0.8262361820191524 0.8441154906112279 -1.5886756354876148 -1.5707963271682845 2.1406352818349363 0.7003424979897758
3.7168275167322813 -0.8279189998738993 0.8466648449093596 -1.589542171970193 -1.5707963279748003 2.1391884124079175 0.7506849959795514
3.7228710753776704 -0.8310170505030092 0.8513581803555411 -1.591137456859419 -1.5707963294595875 2.1365247404448637 0.801027493969327
3.732270668305987 -0.835835472312677 0.8586577608276864 -1.593618615634119 -1.5707963317688887 2.1323819110927604 0.8513699919591027
3.7454729411622654 -0.8426032249114345 0.8689104445199027 -1.5971035468852008 -1.5707963350124359 2.126563067242757 0.9017124899488783
3.762785840019699 -0.8514781676966612 0.8823553776547448 -1.601673537441516 -1.5707963392658857 2.118932483013891 0.952054987938654
3.784388518491916 -0.8625521384410955 0.8991316881954681 -1.6073758774957212 -1.5707963445732527 2.109411197236808 1.0023974859284297
3.810341244845251 -0.8758560318793451 0.9192861795582831 -1.6142264757301383 -1.5707963509493437 2.0979726469374858 1.0527399839182052
3.840595309111022 -0.8913648782943985 0.9427810243246088 -1.6222124744426163 -1.5707963583821913 2.0846383008209557 1.1030824819079807
3.8750029301978044 -0.9090029221041348 0.9695014579533265 -1.631294864672393 -1.5707963668354892 2.069473292755027 1.1534249798977565
3.913327163003703 -0.9286487004478358 0.9992634724930336 -1.6414111013259551 -1.5707963762510238 2.0525820552540046 1.2037674778875322
3.955251805528629 -0.9501401217726961 1.0318215102942974 -1.6524777183029 -1.5707963865511108 2.0341039529624183 1.2541099758773078
4.000391305986574 -0.9732795444203346 1.0668761577219086 -1.664392943621797 -1.5707963976410269 2.014208916138738 1.3044524738670833
4.048300669917882 -0.9978388552133042 1.1040818388671358 -1.6770393145460483 -1.570796409411446 1.9930930741391024 1.354794971856859
4.098485367301527 -1.023564548041604 1.143054509259978 -1.6902862927097497 -1.570796421740871 1.970974388901036 1.4051374698466348
4.150411239667386 -1.0501828024491897 1.18337934958142 -1.7039928792435532 -1.5707964344980696 1.9480882884271746 1.4554799678364103
4.203514407208509 -1.077404562220484 1.2246184593756846 -1.7180102299005264 -1.5707964475445073 1.9246833002689874 1.5058224658261858
4.257211175893402 -1.104930613966888 1.2663185507624877 -1.7321842701820154 -1.5707964607367817 1.9010166850104984 1.5561649638159616
4.310907944578295 -1.132456665713292 1.3080186421492905 -1.7463583104635043 -1.5707964739290559 1.8773500697520094 1.6065074618057373
4.364011112119418 -1.1596784254845862 1.3492577519435551 -1.7603756611204775 -1.5707964869754936 1.8539450815938223 1.6568499597955129
4.415936984485277 -1.186296679892172 1.3895825922649974 -1.774082247654281 -1.5707964997326922 1.8310589811199607 1.7071924577852886
4.4661216818689216 -1.2120223727204718 1.4285552626578395 -1.7873292258179825 -1.5707965120621172 1.808940295881894 1.7575349557750641
4.5140310458002295 -1.2365816835134416 1.4657609438030668 -1.7999755967422335 -1.5707965238325363 1.7878244538822583 1.8078774537648397
4.559170546258174 -1.2597211061610796 1.5008155912306775 -1.8118908220611303 -1.5707965349224524 1.7679294170585786 1.8582199517546154
4.6010951887831 -1.2812125274859398 1.533373629031941 -1.8229574390380754 -1.5707965452225394 1.7494513147669921 1.9085624497443912
4.6394194215889994 -1.300858305829641 1.5631356435716484 -1.8330736756916375 -1.570796554638074 1.7325600772659702 1.9589049477341667
4.673827042675781 -1.3184963496393776 1.5898560772003665 -1.8421560659214142 -1.5707965630913718 1.7173950692000408 2.0092474457239424
4.704081106941552 -1.3340051960544304 1.6133509219666915 -1.850142064633892 -1.5707965705242195 1.7040607230835114 2.0595899437137177
4.730033833294889 -1.3473090894926805 1.6335054133295075 -1.8569926628683096 -1.5707965769003105 1.6926221727841884 2.109932441703494
4.751636511767105 -1.3583830602371147 1.6502817238702299 -1.8626950029225142 -1.5707965822076775 1.683100887007106 2.1602749396932692
4.768949410624538 -1.367258003022341 1.6637266570050717 -1.8672649934788295 -1.5707965864611273 1.6754703027782398 2.2106174376830445
4.782151683480817 -1.3740257556210984 1.6739793406972883 -1.8707499247299113 -1.5707965897046745 1.6696514589282365 2.2609599356728207
4.791551276409134 -1.3788441774307665 1.681278921169434 -1.8732310835046113 -1.5707965920139757 1.665508629576133 2.311302433662596
4.7975948350545226 -1.381942228059876 1.6859722566156154 -1.8748263683938375 -1.5707965934987629 1.662844957613079 2.3616449316523718
4.800877611746131 -1.383625045914623 1.6885216109137464 -1.8756929048764155 -1.5707965943052786 1.6613980881860604 2.4119874296421475
4.802153372609503 -1.384279026785376 1.689512347337803 -1.8760296604449502 -1.5707965946187088 1.6608358021816192 2.462329927631923
4.802344304678834 -1.3843769024331887 1.689660622270071 -1.8760800597316858 -1.5707965946656173 1.6607516497095798 2.512672425621699
4.802344304678834 -1.384376902433189 1.6896606222700719 -1.8760800597316862 -1.5707965946656173 1.6607516497095798 2.5630149236114743
4.802344307386492 -1.384147745783343 1.6900552203559738 -1.8767038144324433 -1.5707965939491735 1.6607516524209287 2.613014923611474
4.802344324132375 -1.3827304948337065 1.6924956667159023 -1.8805615115256038 -1.5707965895182276 1.66075166918964 2.664173893056331
4.802344363315421 -1.3794143239348313 1.6982059731377366 -1.8895879883399567 -1.5707965791504284 1.6607517084261019 2.715332862501188
4.802344428055237 -1.3739352121312087 1.7076407725712601 -1.9045018987404798 -1.5707965620203306 1.6607517732541726 2.7664918319460448
4.802344517151974 -1.366394705944188 1.720625206189633 -1.9250268373944897 -1.5707965384454132 1.6607518624723678 2.8176508013909016
4.802344626046208 -1.3571786821548983 1.736494810450864 -1.9501124640377867 -1.5707965096320957 1.660751971515049 2.8688097708357585
4.80234474777882 -1.3468761105871672 1.7542354041592816 -1.978155627740803 -1.5707964774217549 1.6607520934136086 2.9199687402806154
4.8023448739508705 -1.3361978168904423 1.7726229755270069 -2.0072214911747506 -1.5707964440367426 1.660752219757659 2.9711277097254722
4.802344995683482 -1.325895245322711 1.7903635692354243 -2.035264654877767 -1.5707964118264017 1.6607523416562187 3.022286679170329
4.802345104577716 -1.3166792215334213 1.8062331734966552 -2.060350281521064 -1.5707963830130842 1.6607524506988998 3.073445648615186
4.802345193674453 -1.3091387153464007 1.8192176071150283 -2.0808752201750735 -1.5707963594381669 1.660752539917095 3.124604618060043
4.802345258414269 -1.3036596035427779 1.8286524065485519 -2.0957891305755973 -1.570796342308069 1.6607526047451657 3.1757635875049
4.8023452975973155 -1.3003434326439027 1.8343627129703863 -2.1048156073899498 -1.5707963319402698 1.6607526439816276 3.226922556949757
4.8023453143431984 -1.2989261816942663 1.8368031593303147 -2.1086733044831103 -1.570796327509324 1.660752660750339 3.278081526394614
4.8023453170508565 -1.2986970250444205 1.8371977574162166 -2.1092970591838673 -1.5707963267928802 1.6607526634616878 3.329240495839471
4.8023453170508565 -1.2986970250444205 1.8371977574162166 -2.1092970591838673 -1.5707963267928802 1.6607526634616878 3.3803994652843277
4.8023453170508565 -1.2986970250444205 1.8371977574162166 -2.1092970591838673 -1.5707963267928802 1.6607526634616878 3.4303994652843275
4.8023453170508565 -1.2986970250444205 1.8371977574162166 -2.1092970591838673 -1.5707963267928802 1.6607526634616878 3.484566131950994
4.8023453170508565 -1.2986970250444205 1.8371977574162166 -2.1092970591838673 -1.5707963267928802 1.6607526634616878 3.538732798617661
4.8023453170508565 -1.2986970250444205 1.8371977574162166 -2.1092970591838673 -1.5707963267928802 1.6607526634616878 3.5928994652843276
4.8023453170508565 -1.2986970250444205 1.8371977574162166 -2.1092970591838673 -1.5707963267928802 1.6607526634616878 3.6470661319509943
4.8023453170508565 -1.2986970250444205 1.8371977574162166 -2.1092970591838673 -1.5707963267928802 1.6607526634616878 3.701232798617661
4.8023453170508565 -1.2986970250444205 1.8371977574162166 -2.1092970591838673 -1.5707963267928802 1.6607526634616878 3.755399465284327
4.8023453170508565 -1.2986970250444205 1.8371977574162166 -2.1092970591838673 -1.5707963267928802 1.6607526634616878 3.8095661319509944
4.8023453170508565 -1.2986970250444205 1.8371977574162166 -2.1092970591838673 -1.5707963267928802 1.6607526634616878 3.8637327986176606
4.8023453170508565 -1.2986970250444205 1.8371977574162166 -2.1092970591838673 -1.5707963267928802 1.6607526634616878 3.9178994652843273
4.8023453170508565 -1.2986970250444205 1.8371977574162166 -2.1092970591838673 -1.5707963267928802 1.6607526634616878 3.972066131950994
4.8023453170508565 -1.2986970250444205 1.8371977574162166 -2.1092970591838673 -1.5707963267928802 1.6607526634616878 4.026232798617661
4.8023453170508565 -1.2986970250444205 1.8371977574162166 -2.1092970591838673 -1.5707963267928802 1.6607526634616878 4.080399465284327
4.8023453143431984 -1.2989261816942663 1.8368031593303147 -2.1086733044831103 -1.570796327509324 1.660752660750339 4.130399465284327
4.8023452975973155 -1.300343432643903 1.8343627129703861 -2.1048156073899498 -1.5707963319402698 1.6607526439816276 4.181558434729184
4.802345258414269 -1.303659603542778 1.8286524065485519 -2.095789130575597 -1.570796342308069 1.6607526047451657 4.232717404174041
4.802345193674453 -1.3091387153464007 1.8192176071150283 -2.0808752201750735 -1.5707963594381669 1.660752539917095 4.283876373618898
4.802345104577716 -1.3166792215334213 1.8062331734966555 -2.060350281521064 -1.5707963830130842 1.6607524506988998 4.335035343063755
4.802344995683482 -1.325895245322711 1.7903635692354245 -2.035264654877767 -1.5707964118264017 1.6607523416562187 4.386194312508612
4.8023448739508705 -1.3361978168904423 1.7726229755270069 -2.0072214911747506 -1.5707964440367426 1.660752219757659 4.4373532819534685
4.80234474777882 -1.3468761105871672 1.7542354041592816 -1.978155627740803 -1.5707964774217549 1.6607520934136086 4.488512251398326
4.802344626046208 -1.3571786821548981 1.7364948104508642 -1.9501124640377867 -1.5707965096320957 1.660751971515049 4.539671220843183
4.802344517151974 -1.366394705944188 1.7206252061896332 -1.9250268373944899 -1.5707965384454132 1.6607518624723678 4.59083019028804
4.802344428055237 -1.3739352121312087 1.7076407725712601 -1.90450189874048 -1.5707965620203306 1.6607517732541726 4.641989159732897
4.802344363315421 -1.3794143239348315 1.6982059731377366 -1.8895879883399564 -1.5707965791504284 1.6607517084261019 4.693148129177754
4.802344324132375 -1.3827304948337067 1.6924956667159021 -1.8805615115256038 -1.5707965895182276 1.66075166918964 4.744307098622611
4.802344307386492 -1.384147745783343 1.6900552203559738 -1.876703814432443 -1.5707965939491735 1.6607516524209287 4.7954660680674674
4.802344304678834 -1.384376902433189 1.6896606222700719 -1.8760800597316862 -1.5707965946656173 1.6607516497095798 4.846625037512324
4.802344304678834 -1.384376902433189 1.6896606222700719 -1.8760800597316862 -1.5707965946656173 1.6607516497095798 4.897784006957181
4.802212309909164 -1.384373871400779 1.6896568459491903 -1.8760793144421866 -1.570796594646128 1.6607346151579627 4.947784006957181
4.801319584917722 -1.3843533715098446 1.689631305421826 -1.876074273798804 -1.5707965945143145 1.6606194047599698 4.99864977230457
4.798989611424414 -1.3842998676839735 1.6895646457535802 -1.8760611179382838 -1.5707965941702873 1.6603187106200612 5.049515537651959
4.7946343172108 -1.384199855858134 1.6894400424187244 -1.8760365263953482 -1.5707965935272155 1.6597566392268146 5.100381302999348
4.787750312457899 -1.3840417765526598 1.6892430936232345 -1.8759976568517203 -1.5707965925107725 1.6588682257344527 5.151247068346737
4.77791512608398 -1.383815928447232 1.688961712627827 -1.8759421238851444 -1.570796591058579 1.6575989482443698 5.202112833694126
4.764783442082378 -1.383514381954864 1.688586020070994 -1.8758679777184097 -1.5707965891196483 1.6559042420866585 5.252978599041514
4.748083335859287 -1.3831308927958859 1.6881082362920383 -1.8757736829683724 -1.5707965866538296 1.6537490141016378 5.303844364388903
4.727612510571563 -1.3826608155719262 1.6875225736541093 -1.8756580973949766 -1.5707965836312534 1.6511071569213778 5.354710129736292
4.703234533464529 -1.382101017339898 1.686825128867238 -1.8755204506502783 -1.5707965800317751 1.647961063251229 5.405575895083681
4.674875072209772 -1.3814497911859813 1.686013775311372 -1.8753603230274662 -1.5707965758444193 1.6443011401513474 5.45644166043107
4.642518131242952 -1.3807067697996072 1.6850880553594116 -1.8751776242098848 -1.5707965710668241 1.6401253233182225 5.507307425778459
4.606202288101599 -1.3798728390474417 1.6840490727002448 -1.8749725720200563 -1.5707965657046858 1.6354385913662033 5.558173191125848
4.566016929762916 -1.3789500515473696 1.6828993846617821 -1.874745671168703 -1.5707965597712024 1.6302524801090263 5.609038956473237
4.522098488981579 -1.3779415402424784 1.6816428945339927 -1.874497692003769 -1.5707965532865187 1.6245845968413415 5.6599047218206255
4.474626680627545 -1.3768514319750413 1.6802847438919395 -1.8742296492594435 -1.5707965462771698 1.6184581346202391 5.7107704871680145
4.4238207380238475 -1.3756847610605023 1.678831204918814 -1.8739427808051814 -1.5707965387755267 1.6119013865467775 5.7616362525154035
4.369935649284402 -1.374447382861459 1.6772895727289723 -1.873638526394727 -1.5707965308192389 1.6049472600475096 5.812502017862792
4.3132583936518065 -1.3731458873616467 1.6756680576909702 -1.8733185064151359 -1.5707965224506795 1.597632791156009 5.863367783210181
4.254104177835144 -1.371787512739922 1.673975677750598 -1.8729845006357966 -1.5707965137163897 1.5899986587943984 5.91423354855757
4.192812672347786 -1.3703800589442472 1.672222150753917 -1.8726384269574534 -1.570796504666523 1.5820886990548748 5.965099313904959
4.129744247845192 -1.3689318012656735 1.6704177867702936 -1.8722823201612282 -1.5707964953542892 1.5739494194812382 6.015965079252347
4.065276211462712 -1.3674514039123251 1.668573380415436 -1.871918310657643 -1.5707964858353987 1.5656295133504166 6.066830844599736
3.9997990431533905 -1.365947833583383 1.6667001031744273 -1.8715486032356417 -1.570796476167507 1.5571793739539947 6.117696609947125
3.933712632025766 -1.3644302730430682 1.6648093957247636 -1.8711754558116132 -1.5707964664096588 1.5486506088797394 6.168562375294514
3.867422512681674 -1.3629080346946267 1.6629128602593872 -1.8708011581784123 -1.5707964566217325 1.5400955542931274 6.219428140641903
3.8013361015540488 -1.361390474154312 1.6610221528097235 -1.8704280107543838 -1.5707964468638842 1.531566789218872 6.270293905989292
3.735858933244727 -1.3598869038253698 1.659148875568715 -1.8700583033323825 -1.5707964371959926 1.52311664982245 6.321159671336681
3.6713908968622473 -1.3584065064720214 1.657304469213857 -1.8696942938287973 -1.570796427677102 1.5147967436916285 6.37202543668407
3.608322472359654 -1.3569582487934477 1.6555001052302338 -1.869338187032572 -1.5707964183648682 1.506657464117992 6.422891202031459
3.5470309668722955 -1.355550794997773 1.6537465782335528 -1.8689921133542289 -1.5707964093150015 1.4987475043784684 6.473756967378848
3.4878767510556337 -1.3541924203760485 1.6520541982931807 -1.8686581075748896 -1.5707964005807118 1.4911133720168577 6.524622732726236
3.431199495423038 -1.352890924876236 1.6504326832551786 -1.8683380875952984 -1.5707963922121524 1.4837989031253573 6.575488498073625
3.3773144066835927 -1.3516535466771926 1.6488910510653367 -1.868033833184844 -1.5707963842558645 1.4768447766260893 6.626354263421014
3.3265084640798936 -1.3504868757626536 1.6474375120922113 -1.867746964730582 -1.5707963767542215 1.4702880285526276 6.677220028768403
3.27903665572586 -1.3493967674952165 1.646079361450158 -1.8674789219862564 -1.5707963697448726 1.4641615663315255 6.728085794115792
3.235118214944524 -1.3483882561903253 1.6448228713223687 -1.8672309428213225 -1.570796363260189 1.4584936830638404 6.778951559463181
3.1949328566058393 -1.3474654686902532 1.643673183283906 -1.8670040419699692 -1.5707963573267054 1.4533075718066635 6.82981732481057
3.1586170134644878 -1.3466315379380878 1.6426342006247392 -1.8667989897801407 -1.5707963519645671 1.4486208398546445 6.880683090157959
3.126260072497666 -1.3458885165517136 1.6417084806727789 -1.8666162909625592 -1.570796347186972 1.4444450230215193 6.931548855505348
3.0979006112429097 -1.345237290397797 1.6408971271169128 -1.8664561633397472 -1.5707963429996161 1.4407850999216378 6.982414620852737
3.073522634135875 -1.3446774921657687 1.6401996823300415 -1.8663185165950489 -1.5707963394001379 1.437639006251489 7.033280386200126
3.05305180884815 -1.344207414941809 1.6396140196921125 -1.866202931021653 -1.5707963363775617 1.434997149071229 7.084146151547515
3.03635170262506 -1.3438239257828308 1.639136235913157 -1.8661086362716157 -1.570796333911743 1.432841921086208 7.1350119168949035
3.023220018623457 -1.343522379290463 1.6387605433563237 -1.866034490104881 -1.5707963319728122 1.431147214928497 7.1858776822422925
3.01338483224954 -1.3432965311850351 1.6384791623609163 -1.8659789571383052 -1.5707963305206187 1.4298779374384143 7.2367434475896815
3.0065008274966356 -1.3431384518795608 1.6382822135654265 -1.8659400875946772 -1.5707963295041758 1.428989523946052 7.28760921293707
3.0021455332830254 -1.3430384400537216 1.6381576102305706 -1.8659154960517417 -1.570796328861104 1.4284274525528056 7.338474978284459
2.9998155597897167 -1.3429849362278503 1.638090950562325 -1.8659023401912214 -1.5707963285170767 1.428126758412897 7.3893407436318475
2.9989228347982744 -1.342964436336916 1.6380654100349605 -1.865897299547839 -1.5707963283852633 1.4280115480149043 7.440206508979236
2.9987908400286054 -1.342961405304506 1.638061633714079 -1.8658965542583392 -1.570796328365774 1.427994513463287 7.491072274326625
2.9987908400286063 -1.342961405304506 1.638061633714079 -1.8658965542583392 -1.570796328365774 1.427994513463287 7.541938039674014
2.9987908375813794 -1.3427405478580317 1.6384527923103132 -1.8665085704197473 -1.570796328244215 1.427994511023567 7.591938039674014
2.998790822446168 -1.3413746244778415 1.640871966671366 -1.870293668895103 -1.570796327492416 1.4279944959347812 7.642581824094173
2.998790787031869 -1.338178552981371 1.6465324995625137 -1.8791502750004434 -1.5707963257333106 1.4279944606291126 7.693225608514332
2.998790728518931 -1.3328978742722388 1.6558850611537157 -1.8937835181388678 -1.5707963228268453 1.4279944022956577 7.743869392934492
2.998790647991797 -1.3256304572336688 1.6687563167642183 -1.9139221946937996 -1.570796318826887 1.4279943220155333 7.794513177354651
2.998790549571351 -1.3167482036219098 1.6844875946071576 -1.9385357309222473 -1.570796313938129 1.427994223896983 7.84515696177481
2.998790439547363 -1.306818752959659 1.7020735535341616 -1.9660511458480658 -1.5707963084729977 1.4279941142104835 7.895800746194969
2.9987903255109356 -1.296527187429481 1.7203008507799544 -1.994570014155218 -1.5707963028085596 1.4279940005238523 7.946444530615128
2.9987902154869475 -1.2865977367672303 1.7378868097069584 -2.0220854290810366 -1.5707962973434284 1.4279938908373528 7.997088315035288
2.9987901170665014 -1.2777154831554713 1.7536180875498977 -2.046698965309484 -1.5707962924546703 1.4279937927188024 8.047732099455446
2.9987900365393676 -1.2704480661169013 1.7664893431604003 -2.066837641864416 -1.570796288454712 1.4279937124386781 8.098375883875606
2.9987899780264295 -1.2651673874077691 1.7758419047516023 -2.0814708850028403 -1.5707962855482467 1.4279936541052232 8.149019668295766
2.9987899426121305 -1.2619713159112986 1.78150243764275 -2.090327491108181 -1.5707962837891414 1.4279936187995546 8.199663452715924
2.998789927476919 -1.2606053925311085 1.7839216120038028 -2.094112589583536 -1.5707962830373423 1.4279936037107688 8.250307237136084
2.9987899250296923 -1.260384535084634 1.784312770600037 -2.0947246057449442 -1.5707962829157833 1.4279936012710488 8.300951021556243
2.9987899250296923 -1.260384535084634 1.784312770600037 -2.0947246057449442 -1.5707962829157833 1.4279936012710488 8.351594805976402
2.9987899250296923 -1.260384535084634 1.784312770600037 -2.0947246057449442 -1.5707962829157833 1.4279936012710488 8.401594805976403
2.9987899250296923 -1.260384535084634 1.784312770600037 -2.0947246057449442 -1.5707962829157833 1.4279936012710488 8.464094805976403
2.9987899250296923 -1.260384535084634 1.784312770600037 -2.0947246057449442 -1.5707962829157833 1.4279936012710488 8.526594805976403
2.9987899250296923 -1.260384535084634 1.784312770600037 -2.0947246057449442 -1.5707962829157833 1.4279936012710488 8.589094805976403
2.9987899250296923 -1.260384535084634 1.784312770600037 -2.0947246057449447 -1.5707962829157833 1.4279936012710488 8.651594805976403
2.998789927476919 -1.2606053925311085 1.7839216120038028 -2.0941125895835366 -1.5707962830373423 1.4279936037107688 8.701594805976404
2.9987899426121305 -1.2619713159112986 1.78150243764275 -2.0903274911081806 -1.5707962837891414 1.4279936187995546 8.752238590396564
2.9987899780264295 -1.2651673874077691 1.7758419047516023 -2.0814708850028403 -1.5707962855482467 1.4279936541052232 8.802882374816722
2.9987900365393676 -1.2704480661169013 1.7664893431604003 -2.066837641864416 -1.570796288454712 1.4279937124386781 8.853526159236882
2.9987901170665014 -1.2777154831554713 1.7536180875498977 -2.0466989653094845 -1.5707962924546703 1.4279937927188024 8.90416994365704
2.9987902154869475 -1.2865977367672303 1.7378868097069584 -2.0220854290810366 -1.5707962973434284 1.4279938908373528 8.9548137280772
2.9987903255109356 -1.296527187429481 1.7203008507799544 -1.994570014155218 -1.5707963028085596 1.4279940005238523 9.005457512497358
2.998790439547363 -1.306818752959659 1.7020735535341616 -1.9660511458480658 -1.5707963084729977 1.4279941142104835 9.056101296917518
2.998790549571351 -1.3167482036219098 1.6844875946071576 -1.9385357309222473 -1.570796313938129 1.427994223896983 9.106745081337676
2.998790647991797 -1.3256304572336686 1.6687563167642183 -1.9139221946937996 -1.570796318826887 1.4279943220155333 9.157388865757836
2.998790728518931 -1.3328978742722388 1.6558850611537157 -1.893783518138868 -1.5707963228268453 1.4279944022956577 9.208032650177994
2.998790787031869 -1.338178552981371 1.6465324995625137 -1.8791502750004434 -1.5707963257333106 1.4279944606291126 9.258676434598154
2.998790822446168 -1.3413746244778415 1.640871966671366 -1.8702936688951028 -1.570796327492416 1.4279944959347812 9.309320219018312
2.9987908375813794 -1.3427405478580317 1.6384527923103132 -1.8665085704197475 -1.570796328244215 1.427994511023567 9.359964003438472
2.9987908400286063 -1.342961405304506 1.638061633714079 -1.8658965542583394 -1.570796328365774 1.427994513463287 9.41060778785863
2.9987908400286063 -1.342961405304506 1.638061633714079 -1.8658965542583394 -1.570796328365774 1.427994513463287 9.46125157227879
2.9987908400286063 -1.342961405304506 1.638061633714079 -1.8658965542583394 -1.570796328365774 1.427994513463287 9.511251572278791
2.9987908400286063 -1.342961405304506 1.638061633714079 -1.8658965542583394 -1.570796328365774 1.427994513463287 9.561251572278792
2.9987908400286063 -1.342961405304506 1.638061633714079 -1.8658965542583394 -1.570796328365774 1.427994513463287 9.61125157227879
2.9987908400286063 -1.342961405304506 1.638061633714079 -1.8658965542583394 -1.570796328365774 1.427994513463287 9.661251572278791
2.9987908400286063 -1.342961405304506 1.638061633714079 -1.8658965542583394 -1.570796328365774 1.427994513463287 9.71125157227879
2.9987908400286063 -1.342961405304506 1.638061633714079 -1.8658965542583394 -1.570796328365774 1.427994513463287 9.761251572278791
2.9987908400286063 -1.342961405304506 1.638061633714079 -1.8658965542583394 -1.570796328365774 1.427994513463287 9.81125157227879
2.9987908400286063 -1.342961405304506 1.638061633714079 -1.8658965542583394 -1.570796328365774 1.427994513463287 9.86125157227879
2.9987908400286063 -1.342961405304506 1.638061633714079 -1.8658965542583394 -1.570796328365774 1.427994513463287 9.911251572278791
2.9987908400286063 -1.342961405304506 1.638061633714079 -1.8658965542583394 -1.570796328365774 1.427994513463287 9.96125157227879
2.9987908400286063 -1.342961405304506 1.638061633714079 -1.8658965542583394 -1.570796328365774 1.427994513463287 10.011251572278791
2.9987908400286063 -1.342961405304506 1.638061633714079 -1.8658965542583394 -1.570796328365774 1.427994513463287 10.06125157227879
2.9987908400286063 -1.342961405304506 1.638061633714079 -1.8658965542583394 -1.570796328365774 1.427994513463287 10.11125157227879
2.9987908400286063 -1.342961405304506 1.638061633714079 -1.8658965542583394 -1.570796328365774 1.427994513463287 10.16125157227879
2.9987908400286063 -1.342961405304506 1.638061633714079 -1.8658965542583394 -1.570796328365774 1.427994513463287 10.21125157227879
2.9987908400286063 -1.342961405304506 1.638061633714079 -1.8658965542583394 -1.570796328365774 1.427994513463287 10.261251572278791
2.9987908400286063 -1.342961405304506 1.638061633714079 -1.8658965542583394 -1.570796328365774 1.427994513463287 10.31125157227879
2.9987908400286063 -1.342961405304506 1.638061633714079 -1.8658965542583394 -1.570796328365774 1.427994513463287 10.36125157227879
2.9987908400286063 -1.342961405304506 1.638061633714079 -1.8658965542583394 -1.570796328365774 1.427994513463287 10.41125157227879
2.9987908400286063 -1.342961405304506 1.638061633714079 -1.8658965542583394 -1.570796328365774 1.427994513463287 10.46125157227879
2.9987908400286063 -1.342961405304506 1.638061633714079 -1.8658965542583394 -1.570796328365774 1.427994513463287 10.51125157227879
2.9987908400286063 -1.342961405304506 1.638061633714079 -1.8658965542583394 -1.570796328365774 1.427994513463287 10.56125157227879
2.9987908400286063 -1.342961405304506 1.638061633714079 -1.8658965542583394 -1.570796328365774 1.427994513463287 10.61125157227879
2.9987908400286063 -1.342961405304506 1.638061633714079 -1.8658965542583394 -1.570796328365774 1.427994513463287 10.661251572278791
2.9987908400286063 -1.342961405304506 1.638061633714079 -1.8658965542583394 -1.570796328365774 1.427994513463287 10.71125157227879
2.9987908400286063 -1.342961405304506 1.638061633714079 -1.8658965542583394 -1.570796328365774 1.427994513463287 10.761251572278791
2.9987908400286063 -1.342961405304506 1.638061633714079 -1.8658965542583394 -1.570796328365774 1.427994513463287 10.81125157227879
2.9987908400286063 -1.342961405304506 1.638061633714079 -1.8658965542583394 -1.570796328365774 1.427994513463287 10.86125157227879
2.9987908400286063 -1.342961405304506 1.638061633714079 -1.8658965542583394 -1.570796328365774 1.427994513463287 10.91125157227879
2.9987908400286063 -1.342961405304506 1.638061633714079 -1.8658965542583394 -1.570796328365774 1.427994513463287 10.96125157227879
2.9987908400286063 -1.342961405304506 1.638061633714079 -1.8658965542583394 -1.570796328365774 1.427994513463287 11.01125157227879
2.9987908400286063 -1.342961405304506 1.638061633714079 -1.8658965542583392 -1.570796328365774 1.427994513463287 11.06125157227879
2.9989293451024603 -1.3429704590962062 1.6380725530469444 -1.8658984198377797 -1.5707963284533968 1.428003556894504 11.11125157227879
2.999864755577403 -1.3430316049543225 1.6381462980590036 -1.8659110192502193 -1.570796329045168 1.4280646327818654 11.161795828663132
3.0023020605540616 -1.3431909265658304 1.6383384480185248 -1.8659438482717714 -1.570796330587087 1.4282237720776159 11.212340085047474
3.0068498708762683 -1.3434882075693588 1.638696984015329 -1.866005104521815 -1.5707963334641803 1.4285207128949589 11.262884341431816
3.0140247026091416 -1.3439572115573397 1.63926262665761 -1.866101745158849 -1.5707963380032135 1.4289891801897918 11.313428597816158
3.024255260517163 -1.3446259620781567 1.6400691737687558 -1.8662395445763484 -1.570796344475399 1.4296571654424415 11.3639728542005
3.037886721542261 -1.345517022638293 1.6411438380841659 -1.8664231520986179 -1.5707963530991067 1.4305472063393991 11.41451711058484
3.0551850182818865 -1.346647776704481 1.642507584948073 -1.8666561496766467 -1.5707963640425748 1.431676666455056 11.465061366969183
3.0763411224670962 -1.3480307077058513 1.6441754700103626 -1.8669411095839645 -1.570796377426618 1.4330580149334375 11.515605623353526
3.101475328440629 -1.3496736790360795 1.646156976923392 -1.8672796521124955 -1.5707963933273383 1.4346991061699395 11.566149879737868
3.13064153663499 -1.351580214055537 1.6484563550388112 -1.8676725032684134 -1.5707964117788353 1.4366034594930623 11.61669413612221
3.163831537050525 -1.353749776093439 1.651072957104382 -1.8681195524679963 -1.5707964327759145 1.4387705388461471 11.667238392506551
3.200979292733505 -1.3561780484499926 1.6540015769607987 -1.8686199102334817 -1.5707964562767993 1.4411960324691104 11.717782648890893
3.241965223254203 -1.3588572143985467 1.6572327872385066 -1.8691719658889212 -1.570796482205839 1.443872132580179 11.768326905275234
3.286620488184975 -1.3617762371877393 1.6607532770545232 -1.8697734452560357 -1.5707965104562194 1.4467878150576254 11.818871161659576
3.334731270578341 -1.3649211400436474 1.6645461897092573 -1.8704214683500695 -1.5707965408926732 1.4499291191215034 11.869415418043918
3.3860430604450604 -1.3682752861719352 1.6685914603833294 -1.8711126070756463 -1.570796573354189 1.453279427015382 11.91995967442826
3.440264938232217 -1.3718196587600027 1.6728661538343905 -1.8718429429226227 -1.5707966076567215 1.4568197436880819 11.970503930812601
3.497073858301295 -1.3755331409791347 1.6773448020939439 -1.8726081246619446 -1.5707966435959015 1.4605289764754106 12.021048187196943
3.5561189324062608 -1.3793927959866497 1.6819997421641624 -1.8734034260415005 -1.5707966809497458 1.4643842147818962 12.071592443581284
3.6170257131716426 -1.3833741469280476 1.6868014537147105 -1.8742238034819776 -1.5707967194813666 1.4683610097625237 12.122136699965626
3.6794004775706086 -1.3874514569391596 1.6917188967795633 -1.8750639537727163 -1.5707967589416818 1.4724336540044705 12.172680956349968
3.742834510403049 -1.3915980091482965 1.6967198494538265 -1.8759183717675647 -1.5707967990721248 1.47657546120884 12.22322521273431
3.806908387773653 -1.3957863866783968 1.7017712455905551 -1.8767814080807337 -1.5707968396073544 1.4807590458723985 12.273769469118651
3.871196260569992 -1.3999887526491763 1.7068395124975762 -1.8776473267826521 -1.5707968802779644 1.4849566029693093 12.324313725502993
3.935270137940596 -1.4041771301792767 1.7118909086343048 -1.878510363095821 -1.570796920813194 1.4891401876328678 12.374857981887335
3.998704170773036 -1.4083236823884135 1.7168918613085677 -1.8793647810906695 -1.570796960943637 1.4932819948372373 12.425402238271678
4.061078935172002 -1.4124009923995255 1.7218093043734206 -1.8802049313814082 -1.5707970004039522 1.497354639079184 12.47594649465602
4.1219857159373845 -1.4163823433409235 1.726611015923969 -1.8810253088218853 -1.570797038935573 1.5013314340598116 12.526490751040361
4.18103079004235 -1.4202419983484385 1.7312659559941874 -1.8818206102014412 -1.5707970762894172 1.5051866723662972 12.577035007424703
4.2378397101114285 -1.4239554805675705 1.7357446042537408 -1.8825857919407631 -1.5707971122285973 1.508895905153626 12.627579263809045
4.292061587898584 -1.427499853155638 1.740019297704802 -1.8833161277877395 -1.5707971465311297 1.5124362218263259 12.678123520193386
4.343373377765305 -1.4308539992839258 1.744064568378874 -1.8840072665133163 -1.5707971789926456 1.5157865297202044 12.728667776577728
4.39148416015867 -1.433998902139834 1.747857481033608 -1.88465528960735 -1.5707972094290994 1.5189278337840824 12.77921203296207
4.436139425089443 -1.4369179249290265 1.7513779708496247 -1.8852567689744646 -1.5707972376794799 1.5218435162615287 12.829756289346411
4.47712535561014 -1.4395970908775806 1.7546091811273326 -1.885808824629904 -1.5707972636085195 1.5245196163725974 12.880300545730753
4.514273111293119 -1.4420253632341342 1.7575378009837492 -1.8863091823953895 -1.5707972871094042 1.5269451099955604 12.930844802115095
4.547463111708654 -1.444194925272036 1.7601544030493201 -1.8867562315949724 -1.5707973081064834 1.5291121893486457 12.981389058499436
4.576629319903015 -1.4461014602914937 1.7624537811647394 -1.8871490827508903 -1.5707973265579804 1.5310165426717686 13.031933314883778
4.601763525876549 -1.447744431621722 1.7644352880777687 -1.8874876252794213 -1.5707973424587007 1.5326576339082703 13.082477571268122
4.62291963006176 -1.449127362623092 1.7661031731400583 -1.887772585186739 -1.570797355842744 1.5340389823866518 13.133021827652463
4.640217926801383 -1.45025811668928 1.7674669200039654 -1.888005582764768 -1.570797366786212 1.5351684425023087 13.183566084036805
4.65384938782648 -1.4511491772494165 1.7685415843193755 -1.8881891902870374 -1.5707973754099198 1.5360584833992663 13.234110340421147
4.6640799457345015 -1.4518179277702332 1.769348131430521 -1.8883269897045367 -1.5707973818821053 1.5367264686519162 13.284654596805488
4.671254777467373 -1.4522869317582143 1.7699137740728024 -1.888423630341571 -1.5707973864211384 1.537194935946749 13.33519885318983
4.675802587789582 -1.4525842127617428 1.7702723100696065 -1.8884848865916144 -1.5707973892982319 1.537491876764092 13.385743109574172
4.678239892766241 -1.4527435343732507 1.7704644600291277 -1.8885177156131665 -1.5707973908401507 1.5376510160598424 13.436287365958513
4.679175303241183 -1.452804680231367 1.7705382050411869 -1.888530315025606 -1.570797391431922 1.537712091947204 13.486831622342855
4.679313808315037 -1.4528137340230671 1.7705491243740523 -1.8885321806050466 -1.5707973915195448 1.5377211353784208 13.537375878727197
4.679313808315039 -1.4528137340230671 1.7705491243740523 -1.8885321806050466 -1.5707973915195448 1.5377211353784208 13.587920135111538
4.679313805721838 -1.4525715252642073 1.7709515278660957 -1.8891767916170832 -1.5707973886716573 1.537721132836989 13.637920135111539
4.679313789683828 -1.4510735517437556 1.7734402478383051 -1.893163477447803 -1.5707973710585041 1.5377211171191536 13.689982635812232
4.679313752157106 -1.4475685012111865 1.7792635078258228 -1.9024917700400081 -1.5707973298461655 1.5377210803415962 13.742045136512925
4.679313690153936 -1.441777314830591 1.7888849337131296 -1.9179043526867392 -1.5707972617534711 1.5377210195762268 13.794107637213616
4.679313604823449 -1.4338073229234727 1.8021262078523486 -1.939115577967596 -1.57079716804241 1.5377209359492339 13.846170137914308
4.6793135005323325 -1.424066380711545 1.8183097231815455 -1.9650399856850573 -1.5707970535085378 1.5377208337401334 13.898232638615001
4.679313383945535 -1.4131770040595288 1.8364012373430307 -1.9940208208008015 -1.5707969254713885 1.5377207194808173 13.950295139315694
4.6793132631069625 -1.4018905052179493 1.8551525268016624 -2.024058551372027 -1.5707967927648818 1.5377206010546045 14.002357640016386
4.679313146520165 -1.3910011285659332 1.8732440409631477 -2.053039386487771 -1.5707966647277325 1.5377204867952885 14.054420140717077
4.679313042229049 -1.3812601863540055 1.8894275562923444 -2.078963794205232 -1.5707965501938603 1.537720384586188 14.10648264141777
4.679312956898562 -1.3732901944468872 1.9026688304315633 -2.100175019486089 -1.5707964564827992 1.537720300959195 14.158545142118463
4.679312894895392 -1.3674990080662917 1.9122902563188706 -2.11558760213282 -1.5707963883901048 1.5377202401938257 14.210607642819156
4.67931285736867 -1.3639939575337225 1.918113516306388 -2.1249158947250253 -1.5707963471777662 1.5377202034162682 14.262670143519848
4.67931284133066 -1.3624959840132709 1.9206022362785975 -2.1289025805557453 -1.570796329564613 1.5377201876984328 14.31473264422054
4.6793128387374585 -1.362253775254411 1.9210046397706408 -2.1295471915677817 -1.5707963267167255 1.537720185157001 14.366795144921232
4.6793128387374585 -1.362253775254411 1.9210046397706408 -2.1295471915677817 -1.5707963267167255 1.537720185157001 14.418857645621925
4.6793128387374585 -1.362253775254411 1.9210046397706408 -2.1295471915677817 -1.5707963267167255 1.537720185157001 14.468857645621926
4.6793128387374585 -1.362253775254411 1.9210046397706408 -2.1295471915677817 -1.5707963267167255 1.537720185157001 14.523024312288593
4.6793128387374585 -1.362253775254411 1.9210046397706408 -2.1295471915677817 -1.5707963267167255 1.537720185157001 14.577190978955258
4.6793128387374585 -1.362253775254411 1.9210046397706408 -2.1295471915677817 -1.5707963267167255 1.537720185157001 14.631357645621925
4.6793128387374585 -1.362253775254411 1.9210046397706408 -2.1295471915677817 -1.5707963267167255 1.537720185157001 14.685524312288592
4.6793128387374585 -1.362253775254411 1.9210046397706408 -2.1295471915677817 -1.5707963267167255 1.537720185157001 14.739690978955258
4.6793128387374585 -1.362253775254411 1.9210046397706408 -2.1295471915677817 -1.5707963267167255 1.537720185157001 14.793857645621925
4.6793128387374585 -1.362253775254411 1.9210046397706408 -2.1295471915677817 -1.5707963267167255 1.537720185157001 14.848024312288592
4.6793128387374585 -1.362253775254411 1.9210046397706408 -2.1295471915677817 -1.5707963267167255 1.537720185157001 14.902190978955257
4.6793128387374585 -1.362253775254411 1.9210046397706408 -2.1295471915677817 -1.5707963267167255 1.537720185157001 14.956357645621924
4.6793128387374585 -1.362253775254411 1.9210046397706408 -2.1295471915677817 -1.5707963267167255 1.537720185157001 15.010524312288592
4.6793128387374585 -1.362253775254411 1.9210046397706408 -2.1295471915677817 -1.5707963267167255 1.537720185157001 15.064690978955257
4.6793128387374585 -1.362253775254411 1.9210046397706408 -2.1295471915677817 -1.5707963267167255 1.537720185157001 15.118857645621924
4.67931284133066 -1.3624959840132709 1.9206022362785975 -2.128902580555745 -1.570796329564613 1.5377201876984328 15.168857645621925
4.67931285736867 -1.3639939575337225 1.918113516306388 -2.1249158947250253 -1.5707963471777662 1.5377202034162682 15.220920146322618
4.679312894895392 -1.3674990080662917 1.9122902563188704 -2.11558760213282 -1.5707963883901048 1.5377202401938257 15.27298264702331
4.679312956898562 -1.3732901944468872 1.9026688304315635 -2.100175019486089 -1.5707964564827992 1.537720300959195 15.325045147724001
4.679313042229049 -1.3812601863540055 1.8894275562923446 -2.0789637942052326 -1.5707965501938603 1.537720384586188 15.377107648424694
4.679313146520165 -1.3910011285659332 1.8732440409631477 -2.053039386487771 -1.5707966647277325 1.5377204867952885 15.429170149125387
4.6793132631069625 -1.4018905052179493 1.8551525268016624 -2.024058551372027 -1.5707967927648818 1.5377206010546045 15.48123264982608
4.679313383945535 -1.4131770040595288 1.8364012373430307 -1.9940208208008015 -1.5707969254713885 1.5377207194808173 15.533295150526772
4.6793135005323325 -1.424066380711545 1.8183097231815455 -1.9650399856850573 -1.5707970535085378 1.5377208337401334 15.585357651227463
4.679313604823449 -1.4338073229234727 1.8021262078523488 -1.9391155779675961 -1.57079716804241 1.5377209359492339 15.637420151928156
4.679313690153936 -1.441777314830591 1.7888849337131298 -1.9179043526867394 -1.5707972617534711 1.5377210195762268 15.689482652628849
4.679313752157106 -1.4475685012111865 1.7792635078258225 -1.902491770040008 -1.5707973298461655 1.5377210803415962 15.741545153329541
4.679313789683828 -1.4510735517437556 1.7734402478383051 -1.8931634774478028 -1.5707973710585041 1.5377211171191536 15.793607654030234
4.679313805721838 -1.4525715252642073 1.7709515278660957 -1.889176791617083 -1.5707973886716573 1.537721132836989 15.845670154730925
4.679313808315039 -1.4528137340230671 1.7705491243740523 -1.8885321806050466 -1.5707973915195448 1.5377211353784208 15.897732655431618
4.679313808315039 -1.4528137340230671 1.7705491243740523 -1.8885321806050466 -1.5707973915195448 1.5377211353784208 15.94979515613231
4.679173757451438 -1.4528184193051188 1.7705543144394804 -1.8885326853580306 -1.570797391421642 1.5375810845170481 15.999795156132311
4.6782279073017525 -1.4528500619142104 1.7705893661630885 -1.8885360942672886 -1.570797390760444 1.5366352343824106 16.0507049269186
4.675763400714797 -1.452932509877623 1.7706806969132551 -1.8885449765192217 -1.5707973890376266 1.5341707278346657 16.101614697704886
4.671164834428413 -1.453086350985996 1.7708511125700241 -1.8885615500696855 -1.5707973858229916 1.5295721616214435 16.152524468491173
4.663909927785502 -1.4533290576927345 1.771119968035696 -1.8885876972542357 -1.5707973807514373 1.522317255093958 16.20343423927746
4.653565191450081 -1.4536751320134154 1.7715033277454215 -1.888624980398375 -1.5707973735199328 1.5119725189231206 16.254344010063747
4.639781596123315 -1.4541362504251936 1.7720141261777944 -1.8886746574277997 -1.5707973638844883 1.4981889238156512 16.30525378085003
4.62229024125957 -1.4547214087662073 1.7726623283654435 -1.888737697478646 -1.5707973516571285 1.4806975692301916 16.356163551636318
4.600898023782447 -1.455437067134986 1.7734550904056257 -1.8888147965077366 -1.5707973367028645 1.4593053520934174 16.407073322422605
4.575483306800835 -1.456287294789856 1.774396919970819 -1.8889063929028271 -1.5707973189366657 1.4338906355161505 16.45798309320889
4.545991588324944 -1.4572739150483454 1.7754898368193144 -1.8890126830928522 -1.5707972983204326 1.4043989175094713 16.50889286399518
4.512431169982361 -1.4583966501865924 1.7767335333058094 -1.889133637158173 -1.5707972748599681 1.3708384997008312 16.559802634781466
4.47486882573408 -1.4596532663387507 1.7781255348920002 -1.889269014440823 -1.5707972486019508 1.3332761560501647 16.610712405567753
4.433425470590557 -1.4610397183963952 1.7796613606571745 -1.889418379154754 -1.5707972196309068 1.2918328015660019 16.66162217635404
4.388271829327746 -1.4625502949079292 1.781334683808804 -1.889581115996084 -1.5707971880661813 1.2466791610215813 16.712531947140327
4.339624105203145 -1.4641777629779902 1.7831374921931376 -1.889756445753342 -1.5707971540589114 1.198031437670961 16.76344171792661
4.287739648671838 -1.4659135131668557 1.7850602488057932 -1.8899434409177158 -1.5707971177889988 1.1461469819651326 16.814351488712898
4.232912626102545 -1.467747704389851 1.7870920523023515 -1.8901410412932982 -1.5707970794620805 1.0913199602681323 16.865261259499185
4.175469688493653 -1.4696694088167532 1.7892207975089474 -1.8903480696073331 -1.5707970393065025 1.0338770235731536 16.916171030285472
4.115765640189273 -1.4716667567711998 1.7914333359328642 -1.8905632471204623 -1.5707969975702916 0.9741729762186595 16.96708080107176
4.054179107595272 -1.4737270816300931 1.793715636273125 -1.8907852092369717 -1.5707969545181268 0.9125864446044956 17.017990571858046
3.9911082078953255 -1.4758370647230077 1.7960529449310858 -1.8910125211150384 -1.5707969104283128 0.849515545908002 17.068900342644334
3.9269662177669544 -1.4779828802315957 1.7984299465210283 -1.8912436932769765 -1.5707968655897515 0.7853735568001247 17.11981011343062
3.862177242097572 -1.4801503400889944 1.8008309243807525 -1.8914771972194837 -1.570796820298914 0.7205845821615299 17.170719884216908
3.797171882700527 -1.4823250388792306 1.8032399210821695 -1.8917114810238886 -1.5707967748568128 0.6555792237987141 17.221629655003195
3.732382907031145 -1.4844924987366293 1.8056408989418937 -1.8919449849663958 -1.5707967295659753 0.5907902491601198 17.27253942578948
3.668240916902774 -1.4866383142452173 1.8080179005318362 -1.892176157128334 -1.570796684727414 0.5266482600522426 17.323449196575766
3.6051700172028274 -1.4887482973381319 1.810355209189797 -1.8924034690064007 -1.5707966406376 0.46357736135574856 17.374358967362053
3.5435834846088268 -1.4908086221970251 1.8126375095300578 -1.89262543112291 -1.5707965975854352 0.4019908297415846 17.42526873814834
3.4838794363044463 -1.4928059701514718 1.8148500479539746 -1.8928406086360392 -1.5707965558492243 0.34228678238709054 17.476178508934627
3.4264364986955544 -1.494727674578374 1.8169787931605708 -1.8930476369500742 -1.5707965156936463 0.2848438456921112 17.527088279720914
3.3716094761262614 -1.4965618658013693 1.8190105966571288 -1.8932452373256565 -1.570796477366728 0.23001682399511147 17.5779980505072
3.319725019594955 -1.4982976159902348 1.8209333532697844 -1.8934322324900303 -1.5707964410968154 0.1781323682892828 17.628907821293488
3.2710772954703535 -1.4999250840602958 1.822736161654118 -1.8936075622472883 -1.5707964070895455 0.12948464493866285 17.679817592079775
3.2259236542075427 -1.5014356605718298 1.8244094848057475 -1.8937702990886183 -1.57079637552482 0.08433100439424202 17.730727362866062
3.1844802990640195 -1.5028221126294743 1.8259453105709218 -1.8939196638025493 -1.570796346553776 0.042887649910079206 17.781637133652346
3.1469179548157395 -1.5040787287816326 1.8273373121571126 -1.8940550410851993 -1.5707963202957587 0.005325306259412521 17.832546904438633
3.1133575364731554 -1.5052014639198796 1.8285810086436076 -1.8941759951505202 -1.5707962968352942 -0.02823511154922742 17.88345667522492
3.0838658179972653 -1.506188084178369 1.829673925492103 -1.8942822853405452 -1.570796276219061 -0.05772682955590702 17.934366446011207
3.058451101015652 -1.5070383118332389 1.8306157550572963 -1.8943738817356357 -1.5707962584528623 -0.08314154613317504 17.985276216797494
3.0370588835385295 -1.5077539702020177 1.8314085170974785 -1.8944509807647263 -1.5707962434985983 -0.10453376326994923 18.03618598758378
3.019567528674785 -1.5083391285430316 1.8320567192851276 -1.8945140208155726 -1.5707962312712385 -0.12202511785540815 18.08709575837007
3.0057839333480203 -1.5088002469548094 1.8325675177175005 -1.8945636978449973 -1.570796221635794 -0.13580871296287733 18.138005529156356
2.995439197012599 -1.5091463212754905 1.832950877427226 -1.8946009809891367 -1.5707962144042895 -0.1461534491337142 18.188915299942643
2.988184290369689 -1.509389027982229 1.8332197328928979 -1.8946271281736868 -1.5707962093327352 -0.15340835566119893 18.239825070728926
2.9835857240833024 -1.509542869090602 1.8333901485496669 -1.8946437017241506 -1.5707962061181002 -0.15800692187442356 18.290734841515214
2.981121217496347 -1.5096253170540146 1.8334814792998337 -1.8946525839760837 -1.5707962043952828 -0.16047142842216933 18.3416446123015
2.9801753673466624 -1.5096569596631062 1.8335165310234416 -1.8946559928853417 -1.5707962037340848 -0.1614172785568051 18.392554383087788
2.980035316483062 -1.5096616449451579 1.8335217210888697 -1.8946564976383258 -1.570796203636182 -0.16155732941817824 18.443464153874075
2.9800353164830593 -1.5096616449451579 1.8335217210888697 -1.8946564976383258 -1.570796203636182 -0.16155732941817647 18.494373924660362
2.9800353227011427 -1.5094094136401337 1.8339324893587425 -1.8953194969600284 -1.5707962039657037 -0.16155732322065963 18.544373924660363
2.980035361157738 -1.5078494542987209 1.8364729424546922 -1.8994199078314742 -1.5707962060036773 -0.16155728489126092 18.597220986188795
2.9800354511408442 -1.5041993655316275 1.8424172507854824 -1.9090143012653298 -1.5707962107722526 -0.16155719520577747 18.650068047717227
2.9800355998145744 -1.4981685411085448 1.8522386776457964 -1.9248665464948718 -1.5707962186510858 -0.16155704702379106 18.70291510924566
2.980035804423501 -1.4898687526565146 1.865755198691526 -1.9466828476611477 -1.5707962294941555 -0.16155684309161641 18.755762170774087
2.9800360544969955 -1.4797247323582954 1.8822751214150557 -1.9733467805001381 -1.5707962427465798 -0.16155659384524934 18.80860923230252
2.980036334053574 -1.4683847556507295 1.900742704620553 -2.0031543290299196 -1.5707962575614343 -0.16155631521331507 18.86145629383095
2.9800366238052374 -1.4566312239231092 1.9198837778992541 -2.0340489222378246 -1.5707962729165683 -0.1615560264200164 18.914303355359383
2.9800369033618157 -1.4452912472155433 1.9383513611047514 -2.0638564707676057 -1.5707962877314228 -0.16155574778808213 18.967150416887815
2.98003715343531 -1.4351472269173242 1.9548712838282811 -2.0905204036065963 -1.570796300983847 -0.16155549854171505 19.019997478416247
2.9800373580442368 -1.4268474384652938 1.9683878048740104 -2.112336704772872 -1.5707963118269168 -0.1615552946095404 19.07284453994468
2.980037506717967 -1.4208166140422112 1.978209231734325 -2.1281889500024143 -1.57079631970575 -0.161555146427554 19.12569160147311
2.9800375967010733 -1.4171665252751176 1.984153540065115 -2.13778334343627 -1.5707963244743253 -0.16155505674207055 19.17853866300154
2.9800376351576685 -1.415606565933705 1.9866939931610645 -2.141883754307716 -1.5707963265122988 -0.16155501841267184 19.23138572452997
2.980037641375752 -1.4153543346286808 1.9871047614309374 -2.142546753629418 -1.5707963268418206 -0.161555012215155 19.284232786058404
2.980037641375752 -1.4153543346286808 1.9871047614309374 -2.142546753629418 -1.5707963268418206 -0.161555012215155 19.337079847586836
2.980037641375752 -1.4153543346286808 1.9871047614309374 -2.142546753629418 -1.5707963268418206 -0.161555012215155 19.387079847586836
2.980037641375752 -1.4153543346286808 1.9871047614309374 -2.142546753629418 -1.5707963268418206 -0.161555012215155 19.449579847586836
2.980037641375752 -1.4153543346286808 1.9871047614309374 -2.142546753629418 -1.5707963268418206 -0.161555012215155 19.512079847586836
2.980037641375752 -1.4153543346286808 1.9871047614309374 -2.142546753629418 -1.5707963268418206 -0.161555012215155 19.574579847586836
2.980037641375752 -1.4153543346286808 1.9871047614309374 -2.1425467536294183 -1.5707963268418206 -0.161555012215155 19.637079847586836
2.9800376351576685 -1.415606565933705 1.9866939931610645 -2.141883754307716 -1.5707963265122988 -0.16155501841267184 19.687079847586837
2.9800375967010733 -1.4171665252751178 1.984153540065115 -2.13778334343627 -1.5707963244743253 -0.16155505674207055 19.73992690911527
2.980037506717967 -1.4208166140422112 1.9782092317343247 -2.1281889500024143 -1.57079631970575 -0.161555146427554 19.7927739706437
2.9800373580442368 -1.4268474384652938 1.9683878048740107 -2.112336704772872 -1.5707963118269168 -0.1615552946095404 19.845621032172133
2.98003715343531 -1.435147226917324 1.9548712838282811 -2.0905204036065963 -1.570796300983847 -0.16155549854171505 19.89846809370056
2.9800369033618157 -1.4452912472155433 1.9383513611047514 -2.0638564707676057 -1.5707962877314228 -0.16155574778808213 19.951315155228993
2.9800366238052374 -1.4566312239231092 1.9198837778992541 -2.0340489222378246 -1.5707962729165683 -0.1615560264200164 20.004162216757425
2.980036334053574 -1.4683847556507295 1.900742704620553 -2.0031543290299196 -1.5707962575614343 -0.16155631521331507 20.057009278285857
2.9800360544969955 -1.4797247323582954 1.8822751214150557 -1.9733467805001383 -1.5707962427465798 -0.16155659384524934 20.10985633981429
2.980035804423501 -1.4898687526565144 1.865755198691526 -1.9466828476611477 -1.5707962294941555 -0.16155684309161641 20.16270340134272
2.9800355998145744 -1.4981685411085448 1.8522386776457966 -1.924866546494872 -1.5707962186510858 -0.16155704702379106 20.215550462871153
2.9800354511408442 -1.5041993655316275 1.8424172507854821 -1.9090143012653298 -1.5707962107722526 -0.16155719520577747 20.268397524399585
2.980035361157738 -1.507849454298721 1.8364729424546922 -1.899419907831474 -1.5707962060036773 -0.16155728489126092 20.321244585928014
2.9800353227011427 -1.5094094136401337 1.8339324893587425 -1.8953194969600284 -1.5707962039657037 -0.16155732322065963 20.374091647456446
2.9800353164830593 -1.5096616449451579 1.8335217210888697 -1.894656497638326 -1.570796203636182 -0.16155732941817647 20.426938708984878
2.9800353164830593 -1.5096616449451579 1.8335217210888697 -1.894656497638326 -1.570796203636182 -0.16155732941817647 20.47978577051331
2.9800353164830593 -1.5096616449451579 1.8335217210888697 -1.894656497638326 -1.570796203636182 -0.16155732941817647 20.52978577051331
2.9800353164830593 -1.5096616449451579 1.8335217210888697 -1.894656497638326 -1.570796203636182 -0.16155732941817647 20.57978577051331
2.9800353164830593 -1.5096616449451579 1.8335217210888697 -1.894656497638326 -1.570796203636182 -0.16155732941817647 20.629785770513312
2.9800353164830593 -1.5096616449451579 1.8335217210888697 -1.894656497638326 -1.570796203636182 -0.16155732941817647 20.67978577051331
2.9800353164830593 -1.5096616449451579 1.8335217210888697 -1.894656497638326 -1.570796203636182 -0.16155732941817647 20.72978577051331
2.9800353164830593 -1.5096616449451579 1.8335217210888697 -1.894656497638326 -1.570796203636182 -0.16155732941817647 20.77978577051331
2.9800353164830593 -1.5096616449451579 1.8335217210888697 -1.894656497638326 -1.570796203636182 -0.16155732941817647 20.82978577051331
2.9800353164830593 -1.5096616449451579 1.8335217210888697 -1.894656497638326 -1.570796203636182 -0.16155732941817647 20.879785770513312
2.9800353164830593 -1.5096616449451579 1.8335217210888697 -1.894656497638326 -1.570796203636182 -0.16155732941817647 20.92978577051331
2.9800353164830593 -1.5096616449451579 1.8335217210888697 -1.894656497638326 -1.570796203636182 -0.16155732941817647 20.97978577051331
2.9800353164830593 -1.5096616449451579 1.8335217210888697 -1.894656497638326 -1.570796203636182 -0.16155732941817647 21.02978577051331
2.9800353164830593 -1.5096616449451579 1.8335217210888697 -1.894656497638326 -1.570796203636182 -0.16155732941817647 21.07978577051331
2.9800353164830593 -1.5096616449451579 1.8335217210888697 -1.894656497638326 -1.570796203636182 -0.16155732941817647 21.129785770513312
2.9800353164830593 -1.5096616449451579 1.8335217210888697 -1.894656497638326 -1.570796203636182 -0.16155732941817647 21.179785770513313
2.9800353164830593 -1.5096616449451579 1.8335217210888697 -1.894656497638326 -1.570796203636182 -0.16155732941817647 21.22978577051331
2.9800353164830593 -1.5096616449451579 1.8335217210888697 -1.894656497638326 -1.570796203636182 -0.16155732941817647 21.27978577051331
2.9800353164830593 -1.5096616449451579 1.8335217210888697 -1.894656497638326 -1.570796203636182 -0.16155732941817647 21.32978577051331
2.9800353164830593 -1.5096616449451579 1.8335217210888697 -1.894656497638326 -1.570796203636182 -0.16155732941817647 21.379785770513312
2.9800353164830593 -1.5096616449451579 1.8335217210888697 -1.894656497638326 -1.570796203636182 -0.16155732941817647 21.429785770513313
2.9800353164830593 -1.5096616449451579 1.8335217210888697 -1.894656497638326 -1.570796203636182 -0.16155732941817647 21.47978577051331
2.9800353164830593 -1.5096616449451579 1.8335217210888697 -1.894656497638326 -1.570796203636182 -0.16155732941817647 21.52978577051331
2.9800353164830593 -1.5096616449451579 1.8335217210888697 -1.894656497638326 -1.570796203636182 -0.16155732941817647 21.57978577051331
2.9800353164830593 -1.5096616449451579 1.8335217210888697 -1.894656497638326 -1.570796203636182 -0.16155732941817647 21.629785770513312
2.9800353164830593 -1.5096616449451579 1.8335217210888697 -1.894656497638326 -1.570796203636182 -0.16155732941817647 21.679785770513313
2.9800353164830593 -1.5096616449451579 1.8335217210888697 -1.894656497638326 -1.570796203636182 -0.16155732941817647 21.729785770513313
2.9800353164830593 -1.5096616449451579 1.8335217210888697 -1.894656497638326 -1.570796203636182 -0.16155732941817647 21.77978577051331
2.9800353164830593 -1.5096616449451579 1.8335217210888697 -1.894656497638326 -1.570796203636182 -0.16155732941817647 21.82978577051331
2.9800353164830593 -1.5096616449451579 1.8335217210888697 -1.894656497638326 -1.570796203636182 -0.16155732941817647 21.879785770513312
2.9800353164830593 -1.5096616449451579 1.8335217210888697 -1.894656497638326 -1.570796203636182 -0.16155732941817647 21.929785770513313
2.9800353164830593 -1.5096616449451579 1.8335217210888697 -1.894656497638326 -1.570796203636182 -0.16155732941817647 21.97978577051331
2.9800353164830593 -1.5096616449451579 1.8335217210888697 -1.894656497638326 -1.570796203636182 -0.16155732941817647 22.02978577051331
2.9800353164830593 -1.5096616449451579 1.8335217210888697 -1.8946564976383258 -1.570796203636182 -0.16155732941817647 22.07978577051331
2.980181824458131 -1.5096611805972633 1.8335212205832292 -1.8946564614717492 -1.5707962036476673 -0.16141082144382163 22.129785770513312
2.9811697379185738 -1.509658049467131 1.8335178456389034 -1.8946562175980097 -1.5707962037251133 -0.16042290798821335 22.180251428497783
2.983739164937233 -1.5096499058283581 1.8335090678729502 -1.894655583315959 -1.5707962039265397 -0.15785348098212704 22.230717086482255
2.988524190331657 -1.5096347399886403 1.8334927211027612 -1.8946544020970733 -1.5707962043016546 -0.15306845561111868 22.281182744466726
2.9960578069782917 -1.5096108626602793 1.8334669844995326 -1.8946525423681218 -1.5707962048922413 -0.14553483900134911 22.331648402451197
3.0067768471266856 -1.5095768893306898 1.8334303657417395 -1.8946498962938347 -1.5707962057325446 -0.13481579890540812 22.382114060435672
3.021026913713687 -1.509531724632906 1.8333816841686075 -1.8946463785595726 -1.5707962068496575 -0.12056573238813867 22.432579718420143
3.0390673116776443 -1.50947454671609 1.8333200539335872 -1.8946419251539952 -1.5707962082639078 -0.10252533451246089 22.483045376404615
3.0610759792726068 -1.5094047916160362 1.833244867157826 -1.8946364921517291 -1.5707962099892445 -0.08051666702519641 22.533511034389086
3.0871544193825238 -1.5093221376256816 1.833155777083641 -1.8946300544960373 -1.5707962120336252 -0.05443822704289247 22.583976692373557
3.1173326308354454 -1.5092264896656107 1.8330526812279926 -1.8946226047814871 -1.5707962143994012 -0.024260015737645996 22.63444235035803
3.151574039717722 -1.5091179636545629 1.8329357045359567 -1.8946141520366198 -1.5707962170837055 0.009981392977072151 22.6849080083425
3.1897804306882036 -1.5089968708799395 1.8328051825341976 -1.894604720506618 -1.570796220078839 0.04818778376059313 22.73537366632697
3.231796878292441 -1.5088637023683118 1.832661644484442 -1.8945943484359753 -1.570796223372656 0.09020423115922577 22.785839324311443
3.2774166782768854 -1.5087191132559263 1.8325057965369502 -1.8945830868511646 -1.5707962269489526 0.13582403092043271 22.836304982295914
3.3263862789030885 -1.5085639071592134 1.8323385048839906 -1.8945709983433063 -1.5707962307878516 0.1847936313070057 22.88677064028039
3.3784102122619006 -1.508399020545293 1.8321607789133116 -1.894558155850838 -1.5707962348661908 0.23681756441124224 22.93723629826486
3.4331560255876745 -1.5082255071024835 1.831973754361615 -1.8945446414421816 -1.5707962391579076 0.29156337746912103 22.98770195624933
3.490259212572462 -1.508044522110806 1.8317786764680282 -1.894530545098414 -1.5707962436344272 0.34866656417447717 23.038167614233803
3.549328144680214 -1.507857306812494 1.8315768831275783 -1.8945159634959334 -1.5707962482650484 0.4077354959931795 23.088633272218274
3.6099490024609837 -1.5076651727824995 1.8313697880446638 -1.89450099878913 -1.5707962530173305 0.46835635347730453 23.139098930202746
3.6716907068651223 -1.5074694862989988 1.8311588638865284 -1.894485757393053 -1.57079625785748 0.5300980575793142 23.189564588187217
3.734109850557483 -1.5072716527139016 1.8309456254367333 -1.8944703487660808 -1.570796262750736 0.5925172009662307 23.24003024617169
3.796755629231617 -1.5070731008233567 1.8307316127486306 -1.8944548841925881 -1.5707962676617588 0.6551629793338116 23.29049590415616
3.8591747729239776 -1.5068752672382595 1.8305183742988356 -1.894439475565616 -1.5707962725550149 0.7175821227207281 23.340961562140635
3.9209164773281167 -1.5066795807547588 1.8303074501407002 -1.894424234169539 -1.5707962773951643 0.7793238268227379 23.391427220125106
3.981537335108886 -1.5064874467247642 1.8301003550577857 -1.8944092694627355 -1.5707962821474464 0.8399446843068628 23.441892878109577
4.0406062672166385 -1.5063002314264522 1.8298985617173358 -1.8943946878602549 -1.5707962867780676 0.8990136161255655 23.49235853609405
4.097709454201425 -1.5061192464347748 1.829703483823749 -1.8943805915164873 -1.5707962912545872 0.9561168028309213 23.54282419407852
4.1524552675272 -1.5059457329919652 1.8295164592720523 -1.894367077107831 -1.570796295546304 1.0108626158888006 23.59328985206299
4.204479200886012 -1.5057808463780449 1.8293387333013733 -1.8943542346153626 -1.5707962996246432 1.0628865489930373 23.643755510047463
4.2534488015122145 -1.505625640281332 1.8291714416484137 -1.8943421461075043 -1.5707963034635422 1.1118561493796102 23.694221168031934
4.29906860149666 -1.5054810511689465 1.829015593700922 -1.8943308845226936 -1.5707963070398387 1.157475949140817 23.744686826016405
4.341085049100897 -1.5053478826573188 1.8288720556511664 -1.8943205124520508 -1.5707963103336557 1.19949239653945 23.79515248400088
4.379291440071379 -1.5052267898826954 1.8287415336494073 -1.8943110809220491 -1.5707963133287892 1.2376987873229703 23.84561814198535
4.413532848953654 -1.5051182638716476 1.8286245569573714 -1.8943026281771818 -1.5707963160130936 1.271940196037689 23.896083799969823
4.443711060406574 -1.5050226159115767 1.8285214611017229 -1.8942951784626316 -1.5707963183788696 1.3021184073429353 23.946549457954294
4.469789500516494 -1.504939961921222 1.8284323710275379 -1.8942887408069398 -1.5707963204232502 1.3281968473252397 23.997015115938765
4.491798168111456 -1.5048702068211683 1.8283571842517767 -1.8942833078046737 -1.570796322148587 1.350205514812504 24.047480773923237
4.5098385660754134 -1.5048130289043522 1.8282955540167565 -1.8942788543990963 -1.5707963235628373 1.3682459126881825 24.097946431907708
4.524088632662414 -1.5047678642065685 1.8282468724436245 -1.8942753366648342 -1.5707963246799501 1.3824959792054523 24.14841208989218
4.534807672810808 -1.504733890876979 1.8282102536858313 -1.8942726905905471 -1.5707963255202535 1.3932150193013932 24.19887774787665
4.542341289457442 -1.504710013548618 1.8281845170826028 -1.8942708308615956 -1.5707963261108402 1.4007486359111618 24.249343405861122
4.547126314851865 -1.5046948477089002 1.8281681703124137 -1.8942696496427098 -1.570796326485955 1.405533661282169 24.299809063845593
4.549695741870526 -1.5046867040701273 1.8281593925464605 -1.8942690153606592 -1.5707963266873815 1.408103088288256 24.35027472183007
4.5506836553309675 -1.504683572939995 1.8281560176021348 -1.8942687714869197 -1.5707963267648275 1.4090910017438674 24.40074037981454
4.55083016330604 -1.5046831085921004 1.8281555170964943 -1.8942687353203431 -1.5707963267763128 1.4092375097182206 24.45120603779901
4.550830163306041 -1.5046831085921004 1.8281555170964943 -1.8942687353203431 -1.5707963267763128 1.4092375097182188 24.501671695783482
4.550830163288899 -1.5044317259580535 1.8285655109525163 -1.8949301118132962 -1.570796326774864 1.4092375097011915 24.551671695783483
4.55083016318288 -1.5028770153395092 1.8311011745790515 -1.8990204860762125 -1.570796326765904 1.409237509595885 24.604449958585104
4.550830162934811 -1.4992392078568542 1.8370342762148681 -1.9085913952364206 -1.5707963267449385 1.4092375093494816 24.65722822138672
4.550830162524941 -1.4932286750690886 1.8468371869200806 -1.9244048387983568 -1.5707963267102987 1.4092375089423639 24.71000648418834
4.550830161960867 -1.484956812530443 1.8603282255177218 -1.9461677400295456 -1.5707963266626261 1.4092375083820772 24.762784746989958
4.550830161271455 -1.4748469233469939 1.8768170035353173 -1.97276640734658 -1.570796326604361 1.4092375076972936 24.81556300979158
4.550830160500762 -1.4635451017332777 1.8952497701464592 -2.0025009957011024 -1.5707963265392262 1.4092375069317757 24.8683412725932
4.550830159701963 -1.4518311165689088 1.9143547571123785 -2.033319967965784 -1.5707963264717162 1.4092375061383402 24.921119535394816
4.55083015893127 -1.4405292949551927 1.9327875237235201 -2.0630545563203064 -1.5707963264065814 1.4092375053728223 24.973897798196436
4.550830158241858 -1.4304194057717434 1.9492763017411159 -2.089653223637341 -1.5707963263483162 1.4092375046880388 25.026676060998053
4.550830157677784 -1.4221475432330979 1.9627673403387569 -2.1114161248685295 -1.5707963263006437 1.409237504127752 25.079454323799673
4.550830157267915 -1.4161370104453324 1.9725702510439695 -2.127229568430466 -1.5707963262660039 1.4092375037206344 25.132232586601294
4.5508301570198455 -1.412499202962677 1.9785033526797864 -2.136800477590674 -1.5707963262450384 1.409237503474231 25.18501084940291
4.550830156913826 -1.410944492344133 1.9810390163063216 -2.1408908518535905 -1.5707963262360785 1.4092375033689244 25.23778911220453
4.5508301568966845 -1.410693109710086 1.9814490101623434 -2.1415522283465434 -1.5707963262346296 1.4092375033518971 25.290567375006148
4.5508301568966845 -1.410693109710086 1.9814490101623434 -2.1415522283465434 -1.5707963262346296 1.4092375033518971 25.34334563780777
4.5508301568966845 -1.410693109710086 1.9814490101623434 -2.1415522283465434 -1.5707963262346296 1.4092375033518971 25.39334563780777
4.5508301568966845 -1.410693109710086 1.9814490101623434 -2.1415522283465434 -1.5707963262346296 1.4092375033518971 25.447512304474436
4.5508301568966845 -1.410693109710086 1.9814490101623434 -2.1415522283465434 -1.5707963262346296 1.4092375033518971 25.501678971141104
4.5508301568966845 -1.410693109710086 1.9814490101623434 -2.1415522283465434 -1.5707963262346296 1.4092375033518971 25.55584563780777
4.5508301568966845 -1.410693109710086 1.9814490101623434 -2.1415522283465434 -1.5707963262346296 1.4092375033518971 25.610012304474434
4.5508301568966845 -1.410693109710086 1.9814490101623434 -2.1415522283465434 -1.5707963262346296 1.4092375033518971 25.6641789711411
4.5508301568966845 -1.410693109710086 1.9814490101623434 -2.1415522283465434 -1.5707963262346296 1.4092375033518971 25.71834563780777
4.5508301568966845 -1.410693109710086 1.9814490101623434 -2.1415522283465434 -1.5707963262346296 1.4092375033518971 25.772512304474436
4.5508301568966845 -1.410693109710086 1.9814490101623434 -2.1415522283465434 -1.5707963262346296 1.4092375033518971 25.826678971141103
4.5508301568966845 -1.410693109710086 1.9814490101623434 -2.1415522283465434 -1.5707963262346296 1.4092375033518971 25.880845637807766
4.5508301568966845 -1.410693109710086 1.9814490101623434 -2.1415522283465434 -1.5707963262346296 1.4092375033518971 25.935012304474434
4.5508301568966845 -1.410693109710086 1.9814490101623434 -2.1415522283465434 -1.5707963262346296 1.4092375033518971 25.9891789711411
4.5508301568966845 -1.410693109710086 1.9814490101623434 -2.1415522283465434 -1.5707963262346296 1.4092375033518971 26.043345637807768
4.550830156913826 -1.410944492344133 1.9810390163063214 -2.1408908518535905 -1.5707963262360785 1.4092375033689244 26.09334563780777
4.5508301570198455 -1.4124992029626773 1.9785033526797862 -2.136800477590674 -1.5707963262450384 1.409237503474231 26.14612390060939
4.550830157267915 -1.4161370104453324 1.9725702510439695 -2.1272295684304656 -1.5707963262660039 1.4092375037206344 26.198902163411006
4.550830157677784 -1.4221475432330979 1.962767340338757 -2.1114161248685295 -1.5707963263006437 1.409237504127752 26.251680426212626
4.550830158241858 -1.4304194057717434 1.9492763017411159 -2.089653223637341 -1.5707963263483162 1.4092375046880388 26.304458689014243
4.55083015893127 -1.4405292949551927 1.9327875237235204 -2.0630545563203064 -1.5707963264065814 1.4092375053728223 26.357236951815864
4.550830159701963 -1.4518311165689088 1.9143547571123785 -2.033319967965784 -1.5707963264717162 1.4092375061383402 26.410015214617484
4.550830160500762 -1.4635451017332777 1.8952497701464592 -2.0025009957011024 -1.5707963265392262 1.4092375069317757 26.4627934774191
4.550830161271455 -1.4748469233469939 1.8768170035353176 -1.9727664073465803 -1.570796326604361 1.4092375076972936 26.51557174022072
4.550830161960867 -1.484956812530443 1.8603282255177218 -1.9461677400295458 -1.5707963266626261 1.4092375083820772 26.56835000302234
4.550830162524941 -1.4932286750690884 1.8468371869200808 -1.924404838798357 -1.5707963267102987 1.4092375089423639 26.62112826582396
4.550830162934811 -1.4992392078568542 1.8370342762148681 -1.9085913952364204 -1.5707963267449385 1.4092375093494816 26.67390652862558
4.55083016318288 -1.5028770153395095 1.8311011745790513 -1.8990204860762123 -1.570796326765904 1.409237509595885 26.726684791427196
4.550830163288899 -1.5044317259580535 1.828565510952516 -1.894930111813296 -1.570796326774864 1.4092375097011915 26.779463054228817
4.550830163306041 -1.5046831085921004 1.8281555170964943 -1.8942687353203431 -1.5707963267763128 1.4092375097182188 26.832241317030434
4.550830163306041 -1.5046831085921004 1.8281555170964943 -1.8942687353203431 -1.5707963267763128 1.4092375097182188 26.885019579832054
4.550666622970055 -1.50467774756373 1.8281495777331143 -1.8942681569852395 -1.570796326776618 1.4092521405492575 26.935019579832055
4.549566742957805 -1.5046416923121972 1.8281096329266682 -1.8942642674296934 -1.5707963267786709 1.4093505392624865 26.98612667677198
4.546714832402856 -1.5045482036122824 1.8280060588878184 -1.8942541820891174 -1.5707963267839935 1.4096056801194214 27.037233773711904
4.541421094849024 -1.5043746691931401 1.8278138039876393 -1.8942354616050348 -1.5707963267938736 1.4100792744730484 27.08834087065183
4.53311533352987 -1.5041023973905818 1.8275121601495972 -1.894206089564772 -1.5707963268093752 1.4108223339132502 27.139447967591757
4.52134065664818 -1.5037164107993555 1.8270845342415292 -1.8941644502411557 -1.5707963268313512 1.4118757334122327 27.190555064531683
4.505747182655456 -1.5032052399254279 1.8265182194676228 -1.8941093063322052 -1.5707963268604546 1.4132707744699515 27.24166216147161
4.486085745531404 -1.5025607168382655 1.825804166760396 -1.8940397767008277 -1.57079632689715 1.4150297482595389 27.292769258411532
4.4622016000634215 -1.5017777688231164 1.8249367561726746 -1.8939553141145136 -1.5707963269417269 1.4171664987727288 27.34387635535146
4.434028127126082 -1.5008542120332904 1.8239135682695744 -1.8938556829850293 -1.5707963269943093 1.4196869859652852 27.394983452291385
4.401580538960624 -1.4997905451424411 1.8227351555204785 -1.8937409371081133 -1.5707963270548686 1.4225898489024276 27.446090549231307
4.364949584454439 -1.498589742996847 1.821404813691017 -1.8936113974031699 -1.570796327123236 1.425866968904257 27.497197646171234
4.324295254420559 -1.4972570502676927 1.8199283532350474 -1.8934676296529636 -1.570796327199112 1.4295040326911836 27.54830474311116
4.27984048687714 -1.4957997751033503 1.8183138706866333 -1.893310422243314 -1.5707963272820813 1.4334810955293529 27.599411840051086
4.2318648723269545 -1.49422708278166 1.816571520052023 -1.8931407639027904 -1.570796327371622 1.4377731443760713 27.650518936991013
4.180698359036878 -1.4925497893622128 1.8147132842016307 -1.892959821442406 -1.570796327467118 1.4423506610252341 27.701626033930935
4.126714958317371 -1.4907801553386302 1.8127527462620143 -1.892768917495312 -1.5707963275678711 1.4471801852527504 27.752733130870862
4.070326449801972 -1.4889316792908465 1.8107048610078555 -1.8925695082564928 -1.5707963276731134 1.452224877961971 27.803840227810788
4.0119760867267855 -1.4870188915373892 1.8085857262539393 -1.8923631612224612 -1.5707963277820172 1.4574450843291138 27.85494732475071
3.9521323012099616 -1.4850571477876613 1.8064123542471329 -1.8921515329309504 -1.570796327893708 1.4627988969486911 27.906054421690637
3.891282409531193 -1.4830624227942217 1.804202443058365 -1.8919363467006112 -1.5707963280072768 1.4682427189789355 27.957161518630564
3.829926317411195 -1.481051104005067 1.8019741479746063 -1.891719370370705 -1.5707963281217903 1.4737318272872266 28.00826861557049
3.7685702252911972 -1.479039785215912 1.7997458528908477 -1.891502394040799 -1.570796328236304 1.4792209355955177 28.059375712510416
3.707720333612429 -1.4770450602224725 1.7975359417020798 -1.8912872078104597 -1.5707963283498727 1.484664757625762 28.11048280945034
3.6478765480956046 -1.4750833164727446 1.7953625696952733 -1.891075579518949 -1.5707963284615636 1.4900185702453395 28.161589906390265
3.5895261850204174 -1.4731705287192873 1.793243434941357 -1.8908692324849172 -1.5707963285704674 1.4952387766124822 28.21269700333019
3.533137676505019 -1.4713220526715036 1.7911955496871983 -1.8906698232460981 -1.5707963286757096 1.5002834693217029 28.263804100270114
3.479154275785513 -1.469552418647921 1.789235011747582 -1.8904789192990041 -1.5707963287764628 1.5051129935492191 28.31491119721004
3.4279877624954356 -1.4678751252284739 1.7873767758971897 -1.8902979768386197 -1.5707963288719589 1.509690510198382 28.366018294149967
3.380012147945251 -1.4663024329067835 1.7856344252625793 -1.8901283184980961 -1.5707963289614995 1.5139825590451004 28.417125391089893
3.335557380401832 -1.464845157742441 1.7840199427141652 -1.8899711110884465 -1.5707963290444686 1.5179596218832696 28.46823248802982
3.2949030503679513 -1.4635124650132867 1.7825434822581956 -1.8898273433382402 -1.5707963291203448 1.5215966856701963 28.519339584969742
3.2582720958617664 -1.4623116628676927 1.7812131404287341 -1.8896978036332968 -1.5707963291887121 1.524873805672026 28.57044668190967
3.2258245076963084 -1.4612479959768434 1.7800347276796382 -1.8895830577563808 -1.5707963292492715 1.527776668609168 28.621553778849595
3.1976510347589695 -1.4603244391870174 1.779011539776538 -1.8894834266268965 -1.5707963293018539 1.5302971558017244 28.672660875789518
3.1737668892909854 -1.4595414911718683 1.7781441291888167 -1.8893989640405824 -1.5707963293464307 1.5324339063149146 28.723767972729444
3.1541054521669354 -1.458896968084706 1.7774300764815898 -1.8893294344092049 -1.5707963293831262 1.5341928801045017 28.77487506966937
3.1385119781742103 -1.4583857972107783 1.7768637617076835 -1.8892742905002544 -1.5707963294122296 1.5355879211622208 28.825982166609297
3.1267373012925193 -1.457999810619552 1.7764361357996155 -1.889232651176638 -1.5707963294342056 1.5366413206612033 28.877089263549223
3.118431539973366 -1.4577275388169937 1.7761344919615734 -1.8892032791363753 -1.5707963294497072 1.5373843801014049 28.928196360489146
3.113137802419535 -1.4575540043978514 1.7759422370613942 -1.8891845586522926 -1.5707963294595872 1.537857974455032 28.979303457429072
3.110285891864585 -1.4574605156979366 1.7758386630225445 -1.8891744733117166 -1.5707963294649099 1.5381131153119667 29.030410554369
3.109186011852337 -1.4574244604464037 1.7757987182160984 -1.8891705837561705 -1.5707963294669627 1.5382115140251957 29.08151765130892
3.10902247151635 -1.4574190994180334 1.7757927788527184 -1.889170005421067 -1.570796329467268 1.5382261448562344 29.132624748248848
3.109022471516349 -1.4574190994180334 1.7757927788527184 -1.889170005421067 -1.570796329467268 1.5382261448562344 29.183731845188774
3.1090224698636724 -1.4571760754861518 1.7761958426485922 -1.8898160932181485 -1.5707963293619338 1.5382261432102242 29.233731845188775
3.109022459642465 -1.455673060415563 1.778688646361035 -1.8938119124299357 -1.57079632871048 1.538226133030246 29.285857764708357
3.109022435726255 -1.4521562133540495 1.7845214617350027 -1.9031615758686462 -1.5707963271861685 1.5382261092105072 29.337983684227943
3.1090223962109254 -1.4463455362707873 1.7941586754186216 -1.9186094682931032 -1.5707963246676393 1.5382260698545704 29.390109603747526
3.1090223418288283 -1.4383487207160932 1.8074216771626124 -1.9398692878729902 -1.5707963212015694 1.5382260156918348 29.442235523267108
3.1090222753629058 -1.4285749945811712 1.823631748019713 -1.9658530876531033 -1.5707963169653307 1.5382259494940163 29.49436144278669
3.1090222010608057 -1.4176489688578593 1.8417529485441035 -1.9949003170176056 -1.5707963122296493 1.5382258754916287 29.546487362306276
3.109022124048999 -1.4063244843983749 1.8605350069908277 -2.02500686315428 -1.5707963073212636 1.538225798790465 29.59861328182586
3.109022049746899 -1.395398458675063 1.8786562075152182 -2.0540540925187822 -1.5707963025855822 1.5382257247880775 29.65073920134544
3.1090219832809765 -1.385624732540141 1.894866278372319 -2.080037892298895 -1.5707962983493435 1.538225658590259 29.702865120865024
3.1090219288988794 -1.377627916985447 1.9081292801163097 -2.1012977118787823 -1.5707962948832737 1.5382256044275233 29.75499104038461
3.1090218893835497 -1.3718172399021846 1.9177664937999288 -2.1167456043032398 -1.5707962923647445 1.5382255650715866 29.807116959904192
3.10902186546734 -1.368300392840671 1.9235993091738963 -2.1260952677419502 -1.570796290840433 1.5382255412518477 29.859242879423775
3.1090218552461324 -1.3667973777700824 1.926092112886339 -2.1300910869537373 -1.5707962901889791 1.5382255310718695 29.911368798943357
3.1090218535934557 -1.3665543538382008 1.926495176682213 -2.130737174750819 -1.570796290083645 1.5382255294258593 29.963494718462943
3.1090218535934557 -1.3665543538382008 1.926495176682213 -2.130737174750819 -1.570796290083645 1.5382255294258593 30.015620637982526
3.1090218535934557 -1.3665543538382008 1.926495176682213 -2.130737174750819 -1.570796290083645 1.5382255294258593 30.065620637982526
3.1090218535934557 -1.3665543538382008 1.926495176682213 -2.130737174750819 -1.570796290083645 1.5382255294258593 30.128120637982526
3.1090218535934557 -1.3665543538382008 1.926495176682213 -2.130737174750819 -1.570796290083645 1.5382255294258593 30.190620637982526
3.1090218535934557 -1.3665543538382008 1.926495176682213 -2.130737174750819 -1.570796290083645 1.5382255294258593 30.253120637982526
3.1090218535934557 -1.3665543538382008 1.926495176682213 -2.1307371747508186 -1.570796290083645 1.5382255294258593 30.315620637982526
3.1090218552461324 -1.3667973777700824 1.926092112886339 -2.1300910869537373 -1.5707962901889791 1.5382255310718695 30.365620637982527
3.10902186546734 -1.3683003928406712 1.9235993091738963 -2.12609526774195 -1.570796290840433 1.5382255412518477 30.41774655750211
3.1090218893835497 -1.3718172399021846 1.9177664937999286 -2.1167456043032393 -1.5707962923647445 1.5382255650715866 30.469872477021696
3.1090219288988794 -1.3776279169854468 1.9081292801163097 -2.1012977118787823 -1.5707962948832737 1.5382256044275233 30.521998396541278
3.1090219832809765 -1.385624732540141 1.894866278372319 -2.0800378922988956 -1.5707962983493435 1.538225658590259 30.57412431606086
3.109022049746899 -1.395398458675063 1.8786562075152182 -2.0540540925187822 -1.5707963025855822 1.5382257247880775 30.626250235580443
3.109022124048999 -1.4063244843983749 1.8605350069908277 -2.02500686315428 -1.5707963073212636 1.538225798790465 30.67837615510003
3.1090222010608057 -1.4176489688578593 1.8417529485441035 -1.9949003170176056 -1.5707963122296493 1.5382258754916287 30.73050207461961
3.1090222753629058 -1.4285749945811712 1.823631748019713 -1.9658530876531033 -1.5707963169653307 1.5382259494940163 30.782627994139194
3.1090223418288283 -1.4383487207160932 1.8074216771626124 -1.9398692878729902 -1.5707963212015694 1.5382260156918348 30.834753913658776
3.1090223962109254 -1.446345536270787 1.7941586754186216 -1.9186094682931032 -1.5707963246676393 1.5382260698545704 30.886879833178362
3.109022435726255 -1.4521562133540495 1.7845214617350025 -1.903161575868646 -1.5707963271861685 1.5382261092105072 30.939005752697945
3.109022459642465 -1.4556730604155632 1.778688646361035 -1.8938119124299353 -1.57079632871048 1.538226133030246 30.991131672217527
3.1090224698636724 -1.4571760754861516 1.7761958426485922 -1.8898160932181483 -1.5707963293619338 1.5382261432102242 31.04325759173711
3.109022471516349 -1.4574190994180334 1.7757927788527184 -1.8891700054210667 -1.570796329467268 1.5382261448562344 31.095383511256696
3.109022471516349 -1.4574190994180334 1.7757927788527184 -1.8891700054210667 -1.570796329467268 1.5382261448562344 31.147509430776278
3.109022471516349 -1.4574190994180334 1.7757927788527184 -1.8891700054210667 -1.570796329467268 1.5382261448562344 31.19750943077628
3.109022471516349 -1.4574190994180334 1.7757927788527184 -1.8891700054210667 -1.570796329467268 1.5382261448562344 31.24750943077628
3.109022471516349 -1.4574190994180334 1.7757927788527184 -1.8891700054210667 -1.570796329467268 1.5382261448562344 31.29750943077628
3.109022471516349 -1.4574190994180334 1.7757927788527184 -1.8891700054210667 -1.570796329467268 1.5382261448562344 31.347509430776277
3.109022471516349 -1.4574190994180334 1.7757927788527184 -1.8891700054210667 -1.570796329467268 1.5382261448562344 31.397509430776278
3.109022471516349 -1.4574190994180334 1.7757927788527184 -1.8891700054210667 -1.570796329467268 1.5382261448562344 31.44750943077628
3.109022471516349 -1.4574190994180334 1.7757927788527184 -1.8891700054210667 -1.570796329467268 1.5382261448562344 31.49750943077628
3.109022471516349 -1.4574190994180334 1.7757927788527184 -1.8891700054210667 -1.570796329467268 1.5382261448562344 31.547509430776277
3.109022471516349 -1.4574190994180334 1.7757927788527184 -1.8891700054210667 -1.570796329467268 1.5382261448562344 31.597509430776277
3.109022471516349 -1.4574190994180334 1.7757927788527184 -1.8891700054210667 -1.570796329467268 1.5382261448562344 31.647509430776278
3.109022471516349 -1.4574190994180334 1.7757927788527184 -1.8891700054210667 -1.570796329467268 1.5382261448562344 31.69750943077628
3.109022471516349 -1.4574190994180334 1.7757927788527184 -1.8891700054210667 -1.570796329467268 1.5382261448562344 31.747509430776276
3.109022471516349 -1.4574190994180334 1.7757927788527184 -1.8891700054210667 -1.570796329467268 1.5382261448562344 31.797509430776277
3.109022471516349 -1.4574190994180334 1.7757927788527184 -1.8891700054210667 -1.570796329467268 1.5382261448562344 31.847509430776277
3.109022471516349 -1.4574190994180334 1.7757927788527184 -1.8891700054210667 -1.570796329467268 1.5382261448562344 31.897509430776278
3.109022471516349 -1.4574190994180334 1.7757927788527184 -1.8891700054210667 -1.570796329467268 1.5382261448562344 31.947509430776275
3.109022471516349 -1.4574190994180334 1.7757927788527184 -1.8891700054210667 -1.570796329467268 1.5382261448562344 31.997509430776276
3.109022471516349 -1.4574190994180334 1.7757927788527184 -1.8891700054210667 -1.570796329467268 1.5382261448562344 32.04750943077627
3.109022471516349 -1.4574190994180334 1.7757927788527184 -1.8891700054210667 -1.570796329467268 1.5382261448562344 32.09750943077628
3.109022471516349 -1.4574190994180334 1.7757927788527184 -1.8891700054210667 -1.570796329467268 1.5382261448562344 32.147509430776275
3.109022471516349 -1.4574190994180334 1.7757927788527184 -1.8891700054210667 -1.570796329467268 1.5382261448562344 32.19750943077628
3.109022471516349 -1.4574190994180334 1.7757927788527184 -1.8891700054210667 -1.570796329467268 1.5382261448562344 32.247509430776276
3.109022471516349 -1.4574190994180334 1.7757927788527184 -1.8891700054210667 -1.570796329467268 1.5382261448562344 32.29750943077627
3.109022471516349 -1.4574190994180334 1.7757927788527184 -1.8891700054210667 -1.570796329467268 1.5382261448562344 32.34750943077627
3.109022471516349 -1.4574190994180334 1.7757927788527184 -1.8891700054210667 -1.570796329467268 1.5382261448562344 32.397509430776275
3.109022471516349 -1.4574190994180334 1.7757927788527184 -1.8891700054210667 -1.570796329467268 1.5382261448562344 32.44750943077627
3.109022471516349 -1.4574190994180334 1.7757927788527184 -1.8891700054210667 -1.570796329467268 1.5382261448562344 32.497509430776276
3.109022471516349 -1.4574190994180334 1.7757927788527184 -1.8891700054210667 -1.570796329467268 1.5382261448562344 32.54750943077627
3.109022471516349 -1.4574190994180334 1.7757927788527184 -1.8891700054210667 -1.570796329467268 1.5382261448562344 32.59750943077628
3.109022471516349 -1.4574190994180334 1.7757927788527184 -1.8891700054210667 -1.570796329467268 1.5382261448562344 32.647509430776275
3.109022471516349 -1.4574190994180334 1.7757927788527184 -1.8891700054210667 -1.570796329467268 1.5382261448562344 32.69750943077628
3.109022471516349 -1.4574190994180334 1.7757927788527184 -1.889170005421067 -1.570796329467268 1.5382261448562344 32.747509430776276
3.1091932411521315 -1.4574295071387442 1.7758041055189544 -1.8891709243667056 -1.570796329466908 1.5381923967910978 32.79750943077627
3.1103394931925945 -1.457499366578607 1.7758801331700362 -1.889177092578687 -1.570796329464492 1.5379658706387904 32.84808961989816
3.1133048392728977 -1.4576800924651103 1.776076816176192 -1.8891930497003109 -1.5707963294582414 1.5373798490535557 32.898669809020056
3.1187956009119855 -1.4580147322467516 1.7764410028431152 -1.889222596589244 -1.5707963294466678 1.536294746420424 32.949249998141944
3.1273880353081784 -1.4585384064761406 1.777010914678521 -1.8892688342009736 -1.570796329428556 1.5345966808693816 32.99983018726384
3.139535561134764 -1.4592787491931056 1.7778166256586982 -1.889334202472263 -1.570796329402951 1.5321960462895399 33.05041037638573
3.1555759843355844 -1.4602563483077975 1.7788805414950661 -1.8894205192046047 -1.5707963293691403 1.5290260843433043 33.100990565507615
3.17573872392063 -1.4614851859837943 1.7802178789007272 -1.8895290189476757 -1.5707963293266403 1.5250414564805446 33.15157075462951
3.2001520377616273 -1.4629730790212065 1.7818371448570225 -1.8896603918827912 -1.5707963292751808 1.520216815952762 33.2021509437514
3.2288502483876296 -1.4647221192397828 1.7837406158800855 -1.8898148227063596 -1.5707963292146891 1.5145453798272601 33.25273113287329
3.2617809687806085 -1.4667291138620124 1.7859248172873963 -1.8899920295133368 -1.5707963291452762 1.5080375010013125 33.30331132199518
3.2988123281710413 -1.4689860258962328 1.7883810024643372 -1.89019130268068 -1.5707963290672198 1.5007192402163332 33.35389151111707
3.3397401978335046 -1.4714804145197322 1.7910956321307459 -1.890411543750803 -1.5707963289809501 1.4926309380720448 33.404471700238965
3.3842954168822623 -1.4741958754618558 1.7940508536074704 -1.8906513043150293 -1.5707963288870346 1.4838257870406482 33.45505188936085
3.4321510180668566 -1.4771124813871102 1.7972249800829236 -1.8909088248970478 -1.5707963287861622 1.4743684034809912 33.50563207848275
3.4829294535676985 -1.4802072222782676 1.8005929698796375 -1.8911820738363672 -1.5707963286791289 1.4643333996527381 33.556212267604636
3.5362098207916564 -1.4834544458194725 1.804126905720817 -1.891468786171769 -1.570796328566822 1.4538039557305382 33.606792456726524
3.591535088167649 -1.4868262977793438 1.8077964739968957 -1.8917665025247627 -1.5707963284502047 1.4428703918181958 33.65737264584842
3.6484193209422333 -1.490293162394082 1.8115694440320893 -1.8920726079830412 -1.5707963283303015 1.4316287399628382 33.70795283497031
3.706354906975196 -1.493824102750573 1.8154121473509501 -1.8923843709839332 -1.570796328208182 1.4201793161690857 33.7585330240922
3.7648197825351426 -1.4973873011694927 1.819289956944922 -1.8926989821978593 -1.5707963280849468 1.40862529241322 33.80911321321409
3.823284658095089 -1.5009504995884122 1.8231677665388937 -1.8930135934117855 -1.5707963279617119 1.3970712686573545 33.85969340233598
3.881220244128052 -1.5044814399449031 1.8270104698577545 -1.8933253564126775 -1.5707963278395924 1.3856218448636022 33.91027359145787
3.938104476902636 -1.5079483045596414 1.8307834398929481 -1.893631461870956 -1.5707963277196892 1.3743801930082444 33.96085378057976
3.9934297442786284 -1.5113201565195127 1.834453008169027 -1.8939291782239498 -1.5707963276030719 1.363446629095902 34.011433969701656
4.046710111502587 -1.5145673800607176 1.8379869440102063 -1.8942158905593516 -1.570796327490765 1.352917185173702 34.062014158823544
4.097488547003429 -1.517662120951875 1.8413549338069202 -1.894489139498671 -1.5707963273837318 1.342882181345449 34.11259434794543
4.145344148188022 -1.5205787268771294 1.8445290602823734 -1.8947466600806895 -1.5707963272828593 1.3334247977857923 34.16317453706733
4.18989936723678 -1.523294187819253 1.847484281759098 -1.8949864206449158 -1.5707963271889438 1.3246196467543956 34.213754726189215
4.230827236899245 -1.5257885764427523 1.8501989114255066 -1.8952066617150387 -1.5707963271026741 1.316531344610107 34.26433491531111
4.267858596289678 -1.5280454884769727 1.8526550966024475 -1.895405934882382 -1.5707963270246177 1.3092130838251277 34.314915104433
4.300789316682655 -1.5300524830992024 1.8548392980097583 -1.8955831416893592 -1.5707963269552048 1.3027052049991803 34.36549529355489
4.329487527308659 -1.5318015233177786 1.8567427690328213 -1.8957375725129275 -1.5707963268947132 1.2970337688736782 34.41607548267678
4.353900841149655 -1.533289416355191 1.8583620349891166 -1.895868945448043 -1.5707963268432537 1.2922091283458956 34.46665567179867
4.374063580734702 -1.5345182540311877 1.8596993723947777 -1.895977445191114 -1.5707963268007537 1.2882245004831359 34.517235860920565
4.390104003935522 -1.5354958531458796 1.8607632882311456 -1.8960637619234557 -1.570796326766943 1.2850545385369005 34.56781605004245
4.402251529762108 -1.5362361958628445 1.861568999211323 -1.8961291301947452 -1.5707963267413378 1.2826539039570586 34.61839623916435
4.410843964158299 -1.5367598700922336 1.8621389110467284 -1.8961753678064748 -1.570796326723226 1.2809558384060165 34.668976428286236
4.416334725797389 -1.5370945098738749 1.8625030977136519 -1.8962049146954079 -1.5707963267116525 1.2798707357728845 34.719556617408124
4.419300071877691 -1.537275235760378 1.8626997807198076 -1.8962208718170317 -1.570796326705402 1.2792847141876502 34.77013680653002
4.420446323918155 -1.537345095200241 1.8627758083708894 -1.896227040029013 -1.5707963267029859 1.2790581880353424 34.82071699565191
4.420617093553938 -1.5373555029209518 1.8627871350371255 -1.8962279589746518 -1.570796326702626 1.2790244399702058 34.8712971847738
4.420617093553936 -1.5373555029209518 1.8627871350371255 -1.8962279589746518 -1.570796326702626 1.2790244399702058 34.92187737389569
4.420617093508544 -1.5370986896781664 1.8632025402836998 -1.8969001774701757 -1.5707963266981555 1.2790244399251052 34.97187737389569
4.420617093227808 -1.5355103927098617 1.8657716714024684 -1.9010576055953725 -1.5707963266705074 1.2790244396461745 35.02511368825475
4.420617092570923 -1.5317939978212822 1.8717830823340607 -1.910785411504748 -1.5707963266058145 1.2790244389935155 35.07835000261382
4.4206170914855925 -1.5256536197400903 1.881715378827853 -1.926858086227118 -1.5707963264989264 1.2790244379151656 35.13158631697288
4.42061708999193 -1.5172030604941085 1.8953844817494696 -1.9489777485975532 -1.5707963263518239 1.2790244364311107 35.18482263133195
4.420617088166373 -1.5068747677890606 1.9120908903882836 -1.9760124501893226 -1.570796326172035 1.2790244346172954 35.23805894569101
4.420617086125587 -1.4953287933863155 1.9307669457649166 -2.0062344802458356 -1.5707963259710493 1.2790244325896354 35.29129526005008
4.420617084010376 -1.4833617514806283 1.950124093938739 -2.037558670612587 -1.570796325762734 1.2790244304880294 35.34453157440914
4.420617081969589 -1.4718157770778832 1.968800149315372 -2.0677807006691 -1.5707963255617483 1.2790244284603693 35.39776788876821
4.420617080144032 -1.4614874843728354 1.985506557954186 -2.094815402260869 -1.5707963253819595 1.279024426646554 35.45100420312727
4.42061707865037 -1.4530369251268536 1.9991756608758027 -2.1169350646313045 -1.570796325234857 1.2790244251624991 35.50424051748634
4.420617077565039 -1.4468965470456616 2.0091079573695954 -2.133007739353675 -1.5707963251279689 1.2790244240841493 35.5574768318454
4.4206170769081545 -1.4431801521570822 2.015119368301187 -2.1427355452630503 -1.570796325063276 1.2790244234314903 35.61071314620447
4.420617076627418 -1.4415918551887774 2.0176884994199558 -2.146892973388247 -1.5707963250356278 1.2790244231525596 35.66394946056353
4.420617076582026 -1.441335041945992 2.01810390466653 -2.147565191883771 -1.5707963250311574 1.279024423107459 35.7171857749226
4.420617076582026 -1.441335041945992 2.01810390466653 -2.147565191883771 -1.5707963250311574 1.279024423107459 35.77042208928166
4.420617076582026 -1.441335041945992 2.01810390466653 -2.147565191883771 -1.5707963250311574 1.279024423107459 35.82042208928166
4.420617076582026 -1.441335041945992 2.01810390466653 -2.147565191883771 -1.5707963250311574 1.279024423107459 35.874588755948324
4.420617076582026 -1.441335041945992 2.01810390466653 -2.147565191883771 -1.5707963250311574 1.279024423107459 35.92875542261499
4.420617076582026 -1.441335041945992 2.01810390466653 -2.147565191883771 -1.5707963250311574 1.279024423107459 35.98292208928166
4.420617076582026 -1.441335041945992 2.01810390466653 -2.147565191883771 -1.5707963250311574 1.279024423107459 36.037088755948325
4.420617076582026 -1.441335041945992 2.01810390466653 -2.147565191883771 -1.5707963250311574 1.279024423107459 36.09125542261499
4.420617076582026 -1.441335041945992 2.01810390466653 -2.147565191883771 -1.5707963250311574 1.279024423107459 36.14542208928166
4.420617076582026 -1.441335041945992 2.01810390466653 -2.147565191883771 -1.5707963250311574 1.279024423107459 36.19958875594833
4.420617076582026 -1.441335041945992 2.01810390466653 -2.147565191883771 -1.5707963250311574 1.279024423107459 36.253755422614994
4.420617076582026 -1.441335041945992 2.01810390466653 -2.147565191883771 -1.5707963250311574 1.279024423107459 36.30792208928166
4.420617076582026 -1.441335041945992 2.01810390466653 -2.147565191883771 -1.5707963250311574 1.279024423107459 36.36208875594833
4.420617076582026 -1.441335041945992 2.01810390466653 -2.147565191883771 -1.5707963250311574 1.279024423107459 36.416255422614995
4.420617076582026 -1.441335041945992 2.01810390466653 -2.147565191883771 -1.5707963250311574 1.279024423107459 36.47042208928166
4.420617076627418 -1.4415918551887774 2.0176884994199558 -2.146892973388247 -1.5707963250356278 1.2790244231525596 36.52042208928166
4.4206170769081545 -1.4431801521570822 2.015119368301187 -2.14273554526305 -1.570796325063276 1.2790244234314903 36.57365840364072
4.420617077565039 -1.4468965470456616 2.009107957369595 -2.133007739353675 -1.5707963251279689 1.2790244240841493 36.62689471799979
4.42061707865037 -1.4530369251268536 1.9991756608758027 -2.1169350646313045 -1.570796325234857 1.2790244251624991 36.68013103235885
4.420617080144032 -1.4614874843728354 1.985506557954186 -2.094815402260869 -1.5707963253819595 1.279024426646554 36.73336734671792
4.420617081969589 -1.4718157770778832 1.968800149315372 -2.0677807006691 -1.5707963255617483 1.2790244284603693 36.78660366107698
4.420617084010376 -1.4833617514806283 1.950124093938739 -2.037558670612587 -1.570796325762734 1.2790244304880294 36.83983997543605
4.420617086125587 -1.4953287933863155 1.9307669457649166 -2.0062344802458356 -1.5707963259710493 1.2790244325896354 36.89307628979511
4.420617088166373 -1.5068747677890606 1.9120908903882836 -1.9760124501893226 -1.570796326172035 1.2790244346172954 36.94631260415418
4.42061708999193 -1.5172030604941085 1.8953844817494696 -1.9489777485975535 -1.5707963263518239 1.2790244364311107 36.99954891851324
4.4206170914855925 -1.5256536197400903 1.881715378827853 -1.926858086227118 -1.5707963264989264 1.2790244379151656 37.05278523287231
4.420617092570923 -1.5317939978212822 1.8717830823340604 -1.9107854115047478 -1.5707963266058145 1.2790244389935155 37.10602154723137
4.420617093227808 -1.5355103927098617 1.8657716714024681 -1.9010576055953723 -1.5707963266705074 1.2790244396461745 37.15925786159044
4.420617093508544 -1.5370986896781664 1.8632025402836996 -1.8969001774701757 -1.5707963266981555 1.2790244399251052 37.2124941759495
4.420617093553936 -1.5373555029209518 1.8627871350371255 -1.8962279589746518 -1.570796326702626 1.2790244399702058 37.26573049030857
4.420617093553936 -1.5373555029209518 1.8627871350371255 -1.8962279589746518 -1.570796326702626 1.2790244399702058 37.31896680466763
4.420445707307929 -1.5373666122535525 1.8627981212590492 -1.8962278358674531 -1.570796326693843 1.2788530537246643 37.36896680466763
4.419295316412656 -1.537441181102419 1.8628718637557145 -1.8962270095385976 -1.5707963266348894 1.2777026628325172 37.41965467050234
4.416319263143659 -1.537634090197359 1.8630626350832398 -1.8962248718315782 -1.5707963264823772 1.2747266095716074 37.47034253633704
4.410808675616008 -1.5379912889288545 1.863415875433151 -1.896220913561825 -1.570796326199979 1.2692160220589301 37.521030402171746
4.402185215898006 -1.5385502654185508 1.8639686574936747 -1.8962147193076557 -1.5707963257580573 1.2605925623643608 37.57171826800646
4.389993828124902 -1.5393405165897494 1.8647501513110334 -1.896205962201226 -1.5707963251332917 1.2484011746243848 37.62240613384117
4.373895486612598 -1.5403840182378983 1.8657820891507395 -1.8961943987194803 -1.5707963243083085 1.2323028331558255 37.67309399967587
4.35365994397136 -1.5416956951010818 1.8670792303588892 -1.8961798634751035 -1.5707963232713085 1.2120672905695737 37.723781865510574
4.329158479219525 -1.543283890930513 1.868649826223458 -1.89616226400747 -1.5707963220156949 1.187565825884317 37.774469731345285
4.300356645897211 -1.5451508385610233 1.8704960848355945 -1.8961415755735958 -1.5707963205397026 1.1587639926402669 37.825157597179995
4.267307020180027 -1.547293129981554 1.8726146359509137 -1.8961178359390884 -1.570796318846026 1.1257143670128895 37.8758454630147
4.230141948992782 -1.549702186405647 1.8749969958507937 -1.8960911401690974 -1.5707963169414474 1.0885492959266334 37.9265333288494
4.189066298123191 -1.5523647283419355 1.8776300322036683 -1.8960616354192663 -1.5707963148364654 1.0474736451686584 37.97722119468411
4.14435020033559 -1.555263245664635 1.8804964289263215 -1.8960295157266815 -1.5707963125449234 1.0027575475025654 38.02790906051882
4.096321803484639 -1.5583764676840342 1.8835751510451828 -1.8959950168008244 -1.5707963100836377 0.9547291507821233 38.078596926353526
4.045360018629037 -1.5616798332169854 1.8868419095576208 -1.8959584108145213 -1.5707963074720261 0.9037673660650003 38.12928479218823
