Andreas691667/Digital_Twin_UR/src/dt/dt_trajectories/busterTest1_dt_trajectory.csv
actual_q_0 actual_q_1 actual_q_2 actual_q_3 actual_q_4 actual_q_5 timestamp
3.71207804710797 -0.8254843255005873 0.8429764792549035 -1.5882884806323445 -1.570796326807946 2.141281720311417 6469.951999999999
3.71207804710797 -0.8254843255005873 0.8429764792549035 -1.5882884806323445 -1.570796326807946 2.141281720311417 6470.0019999999995
3.71207804710797 -0.8254843255005873 0.8429764792549035 -1.5882884806323445 -1.570796326807946 2.141281720311417 6470.052
3.71207804710797 -0.8254843255005873 0.8429764792549035 -1.5882884806323445 -1.570796326807946 2.141281720311417 6470.102
3.71207804710797 -0.8254843255005873 0.8429764792549035 -1.5882884806323445 -1.570796326807946 2.141281720311417 6470.152
3.71207804710797 -0.8254843255005873 0.8429764792549035 -1.5882884806323445 -1.570796326807946 2.141281720311417 6470.202
3.71207804710797 -0.8254843255005873 0.8429764792549035 -1.5882884806323445 -1.570796326807946 2.141281720311417 6470.252
3.71207804710797 -0.8254843255005873 0.8429764792549035 -1.5882884806323445 -1.570796326807946 2.141281720311417 6470.302000000001
3.71207804710797 -0.8254843255005873 0.8429764792549035 -1.5882884806323445 -1.570796326807946 2.141281720311417 6470.352000000001
3.71207804710797 -0.8254843255005873 0.8429764792549035 -1.5882884806323445 -1.570796326807946 2.141281720311417 6470.402000000001
3.71207804710797 -0.8254843255005873 0.8429764792549035 -1.5882884806323445 -1.570796326807946 2.141281720311417 6470.452000000001
3.71207804710797 -0.8254843255005873 0.8429764792549035 -1.5882884806323445 -1.570796326807946 2.141281720311417 6470.502000000001
3.71207804710797 -0.8254843255005873 0.8429764792549035 -1.5882884806323445 -1.570796326807946 2.141281720311417 6470.5520000000015
3.7122689791773014 -0.8255822011483995 0.8431247541871719 -1.5883388799190803 -1.5707963268548544 2.1411975678393773 6470.602000000002
3.713544740040671 -0.8262361820191524 0.8441154906112279 -1.5886756354876148 -1.5707963271682845 2.1406352818349363 6470.652000000002
3.7168275167322813 -0.8279189998738993 0.8466648449093596 -1.589542171970193 -1.5707963279748003 2.1391884124079175 6470.702000000002
3.7228710753776704 -0.8310170505030092 0.8513581803555411 -1.591137456859419 -1.5707963294595875 2.1365247404448637 6470.752000000002
3.732270668305987 -0.835835472312677 0.8586577608276864 -1.593618615634119 -1.5707963317688887 2.1323819110927604 6470.802000000002
3.7454729411622654 -0.8426032249114345 0.8689104445199027 -1.5971035468852008 -1.5707963350124359 2.126563067242757 6470.852000000003
3.762785840019699 -0.8514781676966612 0.8823553776547448 -1.601673537441516 -1.5707963392658857 2.118932483013891 6470.902000000003
3.784388518491916 -0.8625521384410955 0.8991316881954681 -1.6073758774957212 -1.5707963445732527 2.109411197236808 6470.952000000003
3.810341244845251 -0.8758560318793451 0.9192861795582831 -1.6142264757301383 -1.5707963509493437 2.0979726469374858 6471.002000000003
3.840595309111022 -0.8913648782943985 0.9427810243246088 -1.6222124744426163 -1.5707963583821913 2.0846383008209557 6471.052000000003
3.8750029301978044 -0.9090029221041348 0.9695014579533265 -1.631294864672393 -1.5707963668354892 2.069473292755027 6471.1020000000035
3.913327163003703 -0.9286487004478358 0.9992634724930336 -1.6414111013259551 -1.5707963762510238 2.0525820552540046 6471.152000000004
3.955251805528629 -0.9501401217726961 1.0318215102942974 -1.6524777183029 -1.5707963865511108 2.0341039529624183 6471.202000000004
4.000391305986574 -0.9732795444203346 1.0668761577219086 -1.664392943621797 -1.5707963976410269 2.014208916138738 6471.252000000004
4.048300669917882 -0.9978388552133042 1.1040818388671358 -1.6770393145460483 -1.570796409411446 1.9930930741391024 6471.302000000004
4.098485367301527 -1.023564548041604 1.143054509259978 -1.6902862927097497 -1.570796421740871 1.970974388901036 6471.352000000004
4.150411239667386 -1.0501828024491897 1.18337934958142 -1.7039928792435532 -1.5707964344980696 1.9480882884271746 6471.402000000005
4.203514407208509 -1.077404562220484 1.2246184593756846 -1.7180102299005264 -1.5707964475445073 1.9246833002689874 6471.452000000005
4.257211175893402 -1.104930613966888 1.2663185507624877 -1.7321842701820154 -1.5707964607367817 1.9010166850104984 6471.502000000005
4.310907944578295 -1.132456665713292 1.3080186421492905 -1.7463583104635043 -1.5707964739290559 1.8773500697520094 6471.552000000005
4.364011112119418 -1.1596784254845862 1.3492577519435551 -1.7603756611204775 -1.5707964869754936 1.8539450815938223 6471.602000000005
4.415936984485277 -1.186296679892172 1.3895825922649974 -1.774082247654281 -1.5707964997326922 1.8310589811199607 6471.6520000000055
4.4661216818689216 -1.2120223727204718 1.4285552626578395 -1.7873292258179825 -1.5707965120621172 1.808940295881894 6471.702000000006
4.5140310458002295 -1.2365816835134416 1.4657609438030668 -1.7999755967422335 -1.5707965238325363 1.7878244538822583 6471.752000000006
4.559170546258174 -1.2597211061610796 1.5008155912306775 -1.8118908220611303 -1.5707965349224524 1.7679294170585786 6471.802000000006
4.6010951887831 -1.2812125274859398 1.533373629031941 -1.8229574390380754 -1.5707965452225394 1.7494513147669921 6471.852000000006
4.6394194215889994 -1.300858305829641 1.5631356435716484 -1.8330736756916375 -1.570796554638074 1.7325600772659702 6471.902000000006
4.673827042675781 -1.3184963496393776 1.5898560772003665 -1.8421560659214142 -1.5707965630913718 1.7173950692000408 6471.952000000007
4.704081106941552 -1.3340051960544304 1.6133509219666915 -1.850142064633892 -1.5707965705242195 1.7040607230835114 6472.002000000007
4.730033833294889 -1.3473090894926805 1.6335054133295075 -1.8569926628683096 -1.5707965769003105 1.6926221727841884 6472.052000000007
4.751636511767105 -1.3583830602371147 1.6502817238702299 -1.8626950029225142 -1.5707965822076775 1.683100887007106 6472.102000000007
4.768949410624538 -1.367258003022341 1.6637266570050717 -1.8672649934788295 -1.5707965864611273 1.6754703027782398 6472.152000000007
4.782151683480817 -1.3740257556210984 1.6739793406972883 -1.8707499247299113 -1.5707965897046745 1.6696514589282365 6472.2020000000075
4.791551276409134 -1.3788441774307665 1.681278921169434 -1.8732310835046113 -1.5707965920139757 1.665508629576133 6472.252000000008
4.7975948350545226 -1.381942228059876 1.6859722566156154 -1.8748263683938375 -1.5707965934987629 1.662844957613079 6472.302000000008
4.800877611746131 -1.383625045914623 1.6885216109137464 -1.8756929048764155 -1.5707965943052786 1.6613980881860604 6472.352000000008
4.802153372609503 -1.384279026785376 1.689512347337803 -1.8760296604449502 -1.5707965946187088 1.6608358021816192 6472.402000000008
4.802344304678834 -1.3843769024331887 1.689660622270071 -1.8760800597316858 -1.5707965946656173 1.6607516497095798 6472.452000000008
4.802344304678834 -1.384376902433189 1.6896606222700719 -1.8760800597316862 -1.5707965946656173 1.6607516497095798 6472.502000000009
4.802344307386492 -1.384147745783343 1.6900552203559738 -1.8767038144324433 -1.5707965939491735 1.6607516524209287 6472.552000000009
4.802344324132375 -1.3827304948337065 1.6924956667159023 -1.8805615115256038 -1.5707965895182276 1.66075166918964 6472.602000000009
4.802344363315421 -1.3794143239348313 1.6982059731377366 -1.8895879883399567 -1.5707965791504284 1.6607517084261019 6472.652000000009
4.802344428055237 -1.3739352121312087 1.7076407725712601 -1.9045018987404798 -1.5707965620203306 1.6607517732541726 6472.702000000009
4.802344517151974 -1.366394705944188 1.720625206189633 -1.9250268373944897 -1.5707965384454132 1.6607518624723678 6472.7520000000095
4.802344626046208 -1.3571786821548983 1.736494810450864 -1.9501124640377867 -1.5707965096320957 1.660751971515049 6472.80200000001
4.80234474777882 -1.3468761105871672 1.7542354041592816 -1.978155627740803 -1.5707964774217549 1.6607520934136086 6472.85200000001
4.8023448739508705 -1.3361978168904423 1.7726229755270069 -2.0072214911747506 -1.5707964440367426 1.660752219757659 6472.90200000001
4.802344995683482 -1.325895245322711 1.7903635692354243 -2.035264654877767 -1.5707964118264017 1.6607523416562187 6472.95200000001
4.802345104577716 -1.3166792215334213 1.8062331734966552 -2.060350281521064 -1.5707963830130842 1.6607524506988998 6473.00200000001
4.802345193674453 -1.3091387153464007 1.8192176071150283 -2.0808752201750735 -1.5707963594381669 1.660752539917095 6473.052000000011
4.802345258414269 -1.3036596035427779 1.8286524065485519 -2.0957891305755973 -1.570796342308069 1.6607526047451657 6473.102000000011
4.8023452975973155 -1.3003434326439027 1.8343627129703863 -2.1048156073899498 -1.5707963319402698 1.6607526439816276 6473.152000000011
4.8023453143431984 -1.2989261816942663 1.8368031593303147 -2.1086733044831103 -1.570796327509324 1.660752660750339 6473.202000000011
4.8023453170508565 -1.2986970250444205 1.8371977574162166 -2.1092970591838673 -1.5707963267928802 1.6607526634616878 6473.252000000011
4.8023453170508565 -1.2986970250444205 1.8371977574162166 -2.1092970591838673 -1.5707963267928802 1.6607526634616878 6473.3020000000115
4.8023453170508565 -1.2986970250444205 1.8371977574162166 -2.1092970591838673 -1.5707963267928802 1.6607526634616878 6473.352000000012
4.8023453170508565 -1.2986970250444205 1.8371977574162166 -2.1092970591838673 -1.5707963267928802 1.6607526634616878 6473.402000000012
4.8023453170508565 -1.2986970250444205 1.8371977574162166 -2.1092970591838673 -1.5707963267928802 1.6607526634616878 6473.452000000012
4.8023453170508565 -1.2986970250444205 1.8371977574162166 -2.1092970591838673 -1.5707963267928802 1.6607526634616878 6473.502000000012
4.8023453170508565 -1.2986970250444205 1.8371977574162166 -2.1092970591838673 -1.5707963267928802 1.6607526634616878 6473.552000000012
4.8023453170508565 -1.2986970250444205 1.8371977574162166 -2.1092970591838673 -1.5707963267928802 1.6607526634616878 6473.602000000013
4.8023453170508565 -1.2986970250444205 1.8371977574162166 -2.1092970591838673 -1.5707963267928802 1.6607526634616878 6473.652000000013
4.8023453170508565 -1.2986970250444205 1.8371977574162166 -2.1092970591838673 -1.5707963267928802 1.6607526634616878 6473.702000000013
4.8023453170508565 -1.2986970250444205 1.8371977574162166 -2.1092970591838673 -1.5707963267928802 1.6607526634616878 6473.752000000013
4.8023453170508565 -1.2986970250444205 1.8371977574162166 -2.1092970591838673 -1.5707963267928802 1.6607526634616878 6473.802000000013
4.8023453170508565 -1.2986970250444205 1.8371977574162166 -2.1092970591838673 -1.5707963267928802 1.6607526634616878 6473.8520000000135
4.8023453170508565 -1.2986970250444205 1.8371977574162166 -2.1092970591838673 -1.5707963267928802 1.6607526634616878 6473.902000000014
4.8023453170508565 -1.2986970250444205 1.8371977574162166 -2.1092970591838673 -1.5707963267928802 1.6607526634616878 6473.952000000014
4.8023453143431984 -1.2989261816942663 1.8368031593303147 -2.1086733044831103 -1.570796327509324 1.660752660750339 6474.002000000014
4.8023452975973155 -1.300343432643903 1.8343627129703861 -2.1048156073899498 -1.5707963319402698 1.6607526439816276 6474.052000000014
4.802345258414269 -1.303659603542778 1.8286524065485519 -2.095789130575597 -1.570796342308069 1.6607526047451657 6474.102000000014
4.802345193674453 -1.3091387153464007 1.8192176071150283 -2.0808752201750735 -1.5707963594381669 1.660752539917095 6474.152000000015
4.802345104577716 -1.3166792215334213 1.8062331734966555 -2.060350281521064 -1.5707963830130842 1.6607524506988998 6474.202000000015
4.802344995683482 -1.325895245322711 1.7903635692354245 -2.035264654877767 -1.5707964118264017 1.6607523416562187 6474.252000000015
4.8023448739508705 -1.3361978168904423 1.7726229755270069 -2.0072214911747506 -1.5707964440367426 1.660752219757659 6474.302000000015
4.80234474777882 -1.3468761105871672 1.7542354041592816 -1.978155627740803 -1.5707964774217549 1.6607520934136086 6474.352000000015
4.802344626046208 -1.3571786821548981 1.7364948104508642 -1.9501124640377867 -1.5707965096320957 1.660751971515049 6474.4020000000155
4.802344517151974 -1.366394705944188 1.7206252061896332 -1.9250268373944899 -1.5707965384454132 1.6607518624723678 6474.452000000016
4.802344428055237 -1.3739352121312087 1.7076407725712601 -1.90450189874048 -1.5707965620203306 1.6607517732541726 6474.502000000016
4.802344363315421 -1.3794143239348315 1.6982059731377366 -1.8895879883399564 -1.5707965791504284 1.6607517084261019 6474.552000000016
4.802344324132375 -1.3827304948337067 1.6924956667159021 -1.8805615115256038 -1.5707965895182276 1.66075166918964 6474.602000000016
4.802344307386492 -1.384147745783343 1.6900552203559738 -1.876703814432443 -1.5707965939491735 1.6607516524209287 6474.652000000016
4.802344304678834 -1.384376902433189 1.6896606222700719 -1.8760800597316862 -1.5707965946656173 1.6607516497095798 6474.702000000017
4.802344304678834 -1.384376902433189 1.6896606222700719 -1.8760800597316862 -1.5707965946656173 1.6607516497095798 6474.752000000017
4.802212309909164 -1.384373871400779 1.6896568459491903 -1.8760793144421866 -1.570796594646128 1.6607346151579627 6474.802000000017
4.801319584917722 -1.3843533715098446 1.689631305421826 -1.876074273798804 -1.5707965945143145 1.6606194047599698 6474.852000000017
4.798989611424414 -1.3842998676839735 1.6895646457535802 -1.8760611179382838 -1.5707965941702873 1.6603187106200612 6474.902000000017
4.7946343172108 -1.384199855858134 1.6894400424187244 -1.8760365263953482 -1.5707965935272155 1.6597566392268146 6474.9520000000175
4.787750312457899 -1.3840417765526598 1.6892430936232345 -1.8759976568517203 -1.5707965925107725 1.6588682257344527 6475.002000000018
4.77791512608398 -1.383815928447232 1.688961712627827 -1.8759421238851444 -1.570796591058579 1.6575989482443698 6475.052000000018
4.764783442082378 -1.383514381954864 1.688586020070994 -1.8758679777184097 -1.5707965891196483 1.6559042420866585 6475.102000000018
4.748083335859287 -1.3831308927958859 1.6881082362920383 -1.8757736829683724 -1.5707965866538296 1.6537490141016378 6475.152000000018
4.727612510571563 -1.3826608155719262 1.6875225736541093 -1.8756580973949766 -1.5707965836312534 1.6511071569213778 6475.202000000018
4.703234533464529 -1.382101017339898 1.686825128867238 -1.8755204506502783 -1.5707965800317751 1.647961063251229 6475.252000000019
4.674875072209772 -1.3814497911859813 1.686013775311372 -1.8753603230274662 -1.5707965758444193 1.6443011401513474 6475.302000000019
4.642518131242952 -1.3807067697996072 1.6850880553594116 -1.8751776242098848 -1.5707965710668241 1.6401253233182225 6475.352000000019
4.606202288101599 -1.3798728390474417 1.6840490727002448 -1.8749725720200563 -1.5707965657046858 1.6354385913662033 6475.402000000019
4.566016929762916 -1.3789500515473696 1.6828993846617821 -1.874745671168703 -1.5707965597712024 1.6302524801090263 6475.452000000019
4.522098488981579 -1.3779415402424784 1.6816428945339927 -1.874497692003769 -1.5707965532865187 1.6245845968413415 6475.5020000000195
4.474626680627545 -1.3768514319750413 1.6802847438919395 -1.8742296492594435 -1.5707965462771698 1.6184581346202391 6475.55200000002
4.4238207380238475 -1.3756847610605023 1.678831204918814 -1.8739427808051814 -1.5707965387755267 1.6119013865467775 6475.60200000002
4.369935649284402 -1.374447382861459 1.6772895727289723 -1.873638526394727 -1.5707965308192389 1.6049472600475096 6475.65200000002
4.3132583936518065 -1.3731458873616467 1.6756680576909702 -1.8733185064151359 -1.5707965224506795 1.597632791156009 6475.70200000002
4.254104177835144 -1.371787512739922 1.673975677750598 -1.8729845006357966 -1.5707965137163897 1.5899986587943984 6475.75200000002
4.192812672347786 -1.3703800589442472 1.672222150753917 -1.8726384269574534 -1.570796504666523 1.5820886990548748 6475.802000000021
4.129744247845192 -1.3689318012656735 1.6704177867702936 -1.8722823201612282 -1.5707964953542892 1.5739494194812382 6475.852000000021
4.065276211462712 -1.3674514039123251 1.668573380415436 -1.871918310657643 -1.5707964858353987 1.5656295133504166 6475.902000000021
3.9997990431533905 -1.365947833583383 1.6667001031744273 -1.8715486032356417 -1.570796476167507 1.5571793739539947 6475.952000000021
3.933712632025766 -1.3644302730430682 1.6648093957247636 -1.8711754558116132 -1.5707964664096588 1.5486506088797394 6476.002000000021
3.867422512681674 -1.3629080346946267 1.6629128602593872 -1.8708011581784123 -1.5707964566217325 1.5400955542931274 6476.0520000000215
3.8013361015540488 -1.361390474154312 1.6610221528097235 -1.8704280107543838 -1.5707964468638842 1.531566789218872 6476.102000000022
3.735858933244727 -1.3598869038253698 1.659148875568715 -1.8700583033323825 -1.5707964371959926 1.52311664982245 6476.152000000022
3.6713908968622473 -1.3584065064720214 1.657304469213857 -1.8696942938287973 -1.570796427677102 1.5147967436916285 6476.202000000022
3.608322472359654 -1.3569582487934477 1.6555001052302338 -1.869338187032572 -1.5707964183648682 1.506657464117992 6476.252000000022
3.5470309668722955 -1.355550794997773 1.6537465782335528 -1.8689921133542289 -1.5707964093150015 1.4987475043784684 6476.302000000022
3.4878767510556337 -1.3541924203760485 1.6520541982931807 -1.8686581075748896 -1.5707964005807118 1.4911133720168577 6476.352000000023
3.431199495423038 -1.352890924876236 1.6504326832551786 -1.8683380875952984 -1.5707963922121524 1.4837989031253573 6476.402000000023
3.3773144066835927 -1.3516535466771926 1.6488910510653367 -1.868033833184844 -1.5707963842558645 1.4768447766260893 6476.452000000023
3.3265084640798936 -1.3504868757626536 1.6474375120922113 -1.867746964730582 -1.5707963767542215 1.4702880285526276 6476.502000000023
3.27903665572586 -1.3493967674952165 1.646079361450158 -1.8674789219862564 -1.5707963697448726 1.4641615663315255 6476.552000000023
3.235118214944524 -1.3483882561903253 1.6448228713223687 -1.8672309428213225 -1.570796363260189 1.4584936830638404 6476.6020000000235
3.1949328566058393 -1.3474654686902532 1.643673183283906 -1.8670040419699692 -1.5707963573267054 1.4533075718066635 6476.652000000024
3.1586170134644878 -1.3466315379380878 1.6426342006247392 -1.8667989897801407 -1.5707963519645671 1.4486208398546445 6476.702000000024
3.126260072497666 -1.3458885165517136 1.6417084806727789 -1.8666162909625592 -1.570796347186972 1.4444450230215193 6476.752000000024
3.0979006112429097 -1.345237290397797 1.6408971271169128 -1.8664561633397472 -1.5707963429996161 1.4407850999216378 6476.802000000024
3.073522634135875 -1.3446774921657687 1.6401996823300415 -1.8663185165950489 -1.5707963394001379 1.437639006251489 6476.852000000024
3.05305180884815 -1.344207414941809 1.6396140196921125 -1.866202931021653 -1.5707963363775617 1.434997149071229 6476.902000000025
3.03635170262506 -1.3438239257828308 1.639136235913157 -1.8661086362716157 -1.570796333911743 1.432841921086208 6476.952000000025
3.023220018623457 -1.343522379290463 1.6387605433563237 -1.866034490104881 -1.5707963319728122 1.431147214928497 6477.002000000025
3.01338483224954 -1.3432965311850351 1.6384791623609163 -1.8659789571383052 -1.5707963305206187 1.4298779374384143 6477.052000000025
3.0065008274966356 -1.3431384518795608 1.6382822135654265 -1.8659400875946772 -1.5707963295041758 1.428989523946052 6477.102000000025
3.0021455332830254 -1.3430384400537216 1.6381576102305706 -1.8659154960517417 -1.570796328861104 1.4284274525528056 6477.1520000000255
4.375395774841309 -1.722058435479635 2.0344517866717737 -1.8831616840758265 -1.570829216633932 1.233794927597046 6477.552
4.37596107650648 -1.7215576278232678 2.0339609154564835 -1.883171673448935 -1.5708291574377402 1.2343602444668085 6477.602
4.379512352510586 -1.7184115089944942 2.030877218246003 -1.8832344275910184 -1.5708287855619296 1.2379116159875327 6477.652
4.387988880811388 -1.7109020489415583 2.0235167521359285 -1.8833842152337554 -1.5708278979328552 1.246388372276617 6477.702
4.402328193136812 -1.6981986768447366 2.0110654255234692 -1.883637603379878 -1.5708263963758407 1.260728070278234 6477.752
4.422620189789534 -1.6802217489267954 1.993445174830275 -1.883996180646086 -1.5708242714768763 1.2810206127130581 6477.802000000001
4.448261254451575 -1.6575060162634472 1.9711801412252667 -1.8844492806059636 -1.570821586444315 1.3066623670279918 6477.852000000001
4.478108368988891 -1.6310640925938062 1.9452628473474631 -1.884976705132892 -1.5708184609705698 1.3365102843458927 6477.902000000001
4.510633228255963 -1.6022499221308462 1.9170203740288112 -1.8855514477429658 -1.5708150550938116 1.3690360184153008 6477.952000000001
4.544076354900385 -1.5726222473718559 1.8879805370170148 -1.8861424169379073 -1.5708115530596651 1.402480044560166 6478.002000000001
4.576601214167457 -1.543808076908896 1.859738063698363 -1.886717159547981 -1.570808147182907 1.435005778629574 6478.0520000000015
4.606448328704773 -1.5173661532392553 1.8338207698205593 -1.8872445840749095 -1.5708050217091618 1.464853695947475 6478.102000000002
4.632089393366814 -1.494650420575907 1.811555736215551 -1.887697684034787 -1.5708023366766004 1.4904954502624086 6478.152000000002
4.652381390019536 -1.4766734926579659 1.7939354855223575 -1.888056261300995 -1.570800211777636 1.5107879926972323 6478.202000000002
4.666720702344959 -1.463970120561144 1.7814841589098975 -1.8883096494471177 -1.5707987102206216 1.52512769069885 6478.252000000002
4.675197230645763 -1.4564606605082078 1.774123692799823 -1.8884594370898546 -1.570797822591547 1.5336044469879342 6478.302000000002
4.678748506649868 -1.4533145416794344 1.7710399955893426 -1.888522191231938 -1.5707974507157365 1.537155818508658 6478.352000000003
4.679313808315039 -1.4528137340230671 1.7705491243740523 -1.8885321806050466 -1.5707973915195448 1.5377211353784208 6478.402000000003
4.679313808315039 -1.4528137340230671 1.7705491243740523 -1.8885321806050466 -1.5707973915195448 1.5377211353784208 6478.452000000003
4.679313805721838 -1.4525715252642073 1.7709515278660957 -1.8891767916170832 -1.5707973886716573 1.537721132836989 6478.502000000003
4.679313789683828 -1.4510735517437556 1.7734402478383051 -1.893163477447803 -1.5707973710585041 1.5377211171191536 6478.552000000003
4.679313752157106 -1.4475685012111865 1.7792635078258228 -1.9024917700400081 -1.5707973298461655 1.5377210803415962 6478.6020000000035
4.679313690153936 -1.441777314830591 1.7888849337131296 -1.9179043526867392 -1.5707972617534711 1.5377210195762268 6478.652000000004
4.679313604823449 -1.4338073229234727 1.8021262078523486 -1.939115577967596 -1.57079716804241 1.5377209359492339 6478.702000000004
4.6793135005323325 -1.424066380711545 1.8183097231815455 -1.9650399856850573 -1.5707970535085378 1.5377208337401334 6478.752000000004
4.679313383945535 -1.4131770040595288 1.8364012373430307 -1.9940208208008015 -1.5707969254713885 1.5377207194808173 6478.802000000004
4.6793132631069625 -1.4018905052179493 1.8551525268016624 -2.024058551372027 -1.5707967927648818 1.5377206010546045 6478.852000000004
4.679313146520165 -1.3910011285659332 1.8732440409631477 -2.053039386487771 -1.5707966647277325 1.5377204867952885 6478.902000000005
4.679313042229049 -1.3812601863540055 1.8894275562923444 -2.078963794205232 -1.5707965501938603 1.537720384586188 6478.952000000005
4.679312956898562 -1.3732901944468872 1.9026688304315633 -2.1001750194860893 -1.5707964564827992 1.537720300959195 6479.002000000005
4.679312894895392 -1.3674990080662917 1.9122902563188706 -2.11558760213282 -1.5707963883901048 1.5377202401938257 6479.052000000005
4.67931285736867 -1.3639939575337225 1.918113516306388 -2.1249158947250253 -1.5707963471777662 1.5377202034162682 6479.102000000005
4.67931284133066 -1.3624959840132709 1.9206022362785973 -2.1289025805557453 -1.570796329564613 1.5377201876984328 6479.1520000000055
4.6793128387374585 -1.362253775254411 1.9210046397706408 -2.1295471915677817 -1.5707963267167255 1.537720185157001 6479.202000000006
4.6793128387374585 -1.362253775254411 1.9210046397706408 -2.1295471915677817 -1.5707963267167255 1.537720185157001 6479.252000000006
4.6793128387374585 -1.362253775254411 1.9210046397706408 -2.1295471915677817 -1.5707963267167255 1.537720185157001 6479.302000000006
4.6793128387374585 -1.362253775254411 1.9210046397706408 -2.1295471915677817 -1.5707963267167255 1.537720185157001 6479.352000000006
4.6793128387374585 -1.362253775254411 1.9210046397706408 -2.1295471915677817 -1.5707963267167255 1.537720185157001 6479.402000000006
4.6793128387374585 -1.362253775254411 1.9210046397706408 -2.1295471915677817 -1.5707963267167255 1.537720185157001 6479.452000000007
4.6793128387374585 -1.362253775254411 1.9210046397706408 -2.1295471915677817 -1.5707963267167255 1.537720185157001 6479.502000000007
4.6793128387374585 -1.362253775254411 1.9210046397706408 -2.1295471915677817 -1.5707963267167255 1.537720185157001 6479.552000000007
4.6793128387374585 -1.362253775254411 1.9210046397706408 -2.1295471915677817 -1.5707963267167255 1.537720185157001 6479.602000000007
4.6793128387374585 -1.362253775254411 1.9210046397706408 -2.1295471915677817 -1.5707963267167255 1.537720185157001 6479.652000000007
4.6793128387374585 -1.362253775254411 1.9210046397706408 -2.1295471915677817 -1.5707963267167255 1.537720185157001 6479.7020000000075
4.6793128387374585 -1.362253775254411 1.9210046397706408 -2.1295471915677817 -1.5707963267167255 1.537720185157001 6479.752000000008
4.6793128387374585 -1.362253775254411 1.9210046397706408 -2.1295471915677817 -1.5707963267167255 1.537720185157001 6479.802000000008
4.6793128387374585 -1.362253775254411 1.9210046397706408 -2.1295471915677817 -1.5707963267167255 1.537720185157001 6479.852000000008
4.6793128387374585 -1.362253775254411 1.9210046397706408 -2.1295471915677817 -1.5707963267167255 1.537720185157001 6479.902000000008
4.67931284133066 -1.3624959840132709 1.9206022362785975 -2.128902580555745 -1.570796329564613 1.5377201876984328 6479.952000000008
4.67931285736867 -1.3639939575337225 1.918113516306388 -2.1249158947250253 -1.5707963471777662 1.5377202034162682 6480.002000000009
4.679312894895392 -1.3674990080662917 1.9122902563188704 -2.11558760213282 -1.5707963883901048 1.5377202401938257 6480.052000000009
4.679312956898562 -1.3732901944468872 1.9026688304315635 -2.100175019486089 -1.5707964564827992 1.537720300959195 6480.102000000009
4.679313042229049 -1.3812601863540055 1.8894275562923446 -2.0789637942052326 -1.5707965501938603 1.537720384586188 6480.152000000009
4.679313146520165 -1.3910011285659332 1.8732440409631477 -2.053039386487771 -1.5707966647277325 1.5377204867952885 6480.202000000009
4.6793132631069625 -1.4018905052179493 1.8551525268016624 -2.024058551372027 -1.5707967927648818 1.5377206010546045 6480.2520000000095
4.679313383945535 -1.4131770040595288 1.8364012373430307 -1.9940208208008015 -1.5707969254713885 1.5377207194808173 6480.30200000001
4.6793135005323325 -1.4240663807115448 1.8183097231815455 -1.9650399856850571 -1.5707970535085378 1.5377208337401334 6480.35200000001
4.679313604823449 -1.4338073229234727 1.8021262078523488 -1.9391155779675961 -1.57079716804241 1.5377209359492339 6480.40200000001
4.679313690153936 -1.441777314830591 1.7888849337131298 -1.9179043526867392 -1.5707972617534711 1.5377210195762268 6480.45200000001
4.679313752157106 -1.4475685012111865 1.7792635078258225 -1.9024917700400081 -1.5707973298461655 1.5377210803415962 6480.50200000001
4.679313789683828 -1.4510735517437556 1.7734402478383051 -1.8931634774478028 -1.5707973710585041 1.5377211171191536 6480.552000000011
4.679313805721838 -1.4525715252642075 1.7709515278660959 -1.889176791617083 -1.5707973886716573 1.537721132836989 6480.602000000011
4.679313808315039 -1.4528137340230671 1.7705491243740523 -1.8885321806050466 -1.5707973915195448 1.5377211353784208 6480.652000000011
4.679313808315039 -1.4528137340230671 1.7705491243740523 -1.8885321806050466 -1.5707973915195448 1.5377211353784208 6480.702000000011
4.679175303241186 -1.452804680231367 1.7705382050411869 -1.888530315025606 -1.570797391431922 1.5377120919472038 6480.752000000011
4.678239892766243 -1.4527435343732507 1.7704644600291277 -1.8885177156131665 -1.5707973908401507 1.5376510160598424 6480.8020000000115
4.675802587789584 -1.4525842127617428 1.7702723100696065 -1.8884848865916144 -1.5707973892982319 1.537491876764092 6480.852000000012
4.671254777467377 -1.4522869317582143 1.7699137740728024 -1.888423630341571 -1.5707973864211384 1.537194935946749 6480.902000000012
4.664079945734504 -1.4518179277702334 1.7693481314305213 -1.8883269897045367 -1.5707973818821053 1.536726468651916 6480.952000000012
4.653849387826482 -1.4511491772494165 1.7685415843193755 -1.8881891902870374 -1.5707973754099198 1.5360584833992663 6481.002000000012
4.640217926801385 -1.45025811668928 1.7674669200039654 -1.888005582764768 -1.570797366786212 1.5351684425023087 6481.052000000012
4.622919630061759 -1.449127362623092 1.7661031731400583 -1.887772585186739 -1.570797355842744 1.5340389823866518 6481.102000000013
4.6017635258765495 -1.4477444316217218 1.7644352880777687 -1.8874876252794213 -1.5707973424587007 1.5326576339082703 6481.152000000013
4.576629319903017 -1.4461014602914937 1.7624537811647394 -1.8871490827508903 -1.5707973265579804 1.5310165426717683 6481.202000000013
4.547463111708656 -1.444194925272036 1.7601544030493201 -1.8867562315949724 -1.5707973081064834 1.5291121893486455 6481.252000000013
4.514273111293121 -1.4420253632341342 1.7575378009837492 -1.8863091823953895 -1.5707972871094042 1.5269451099955607 6481.302000000013
4.4771253556101405 -1.4395970908775806 1.7546091811273326 -1.885808824629904 -1.5707972636085195 1.5245196163725974 6481.3520000000135
4.436139425089443 -1.4369179249290265 1.7513779708496247 -1.8852567689744646 -1.5707972376794799 1.5218435162615287 6481.402000000014
4.3914841601586705 -1.4339989021398338 1.747857481033608 -1.88465528960735 -1.5707972094290994 1.5189278337840824 6481.452000000014
4.343373377765305 -1.4308539992839258 1.744064568378874 -1.8840072665133163 -1.5707971789926456 1.5157865297202044 6481.502000000014
4.292061587898585 -1.427499853155638 1.740019297704802 -1.8833161277877395 -1.5707971465311297 1.5124362218263259 6481.552000000014
4.2378397101114285 -1.4239554805675705 1.7357446042537408 -1.8825857919407631 -1.5707971122285973 1.508895905153626 6481.602000000014
4.1810307900423505 -1.4202419983484385 1.7312659559941874 -1.8818206102014412 -1.5707970762894172 1.5051866723662972 6481.652000000015
4.1219857159373845 -1.4163823433409235 1.726611015923969 -1.8810253088218853 -1.570797038935573 1.5013314340598116 6481.702000000015
4.061078935172003 -1.4124009923995255 1.7218093043734208 -1.8802049313814082 -1.5707970004039522 1.497354639079184 6481.752000000015
3.998704170773037 -1.4083236823884135 1.716891861308568 -1.8793647810906695 -1.570796960943637 1.4932819948372373 6481.802000000015
3.9352701379405968 -1.4041771301792767 1.7118909086343048 -1.878510363095821 -1.570796920813194 1.4891401876328678 6481.852000000015
3.8711962605699926 -1.3999887526491763 1.7068395124975762 -1.8776473267826521 -1.5707968802779644 1.4849566029693093 6481.9020000000155
3.8069083877736536 -1.3957863866783968 1.7017712455905551 -1.8767814080807337 -1.5707968396073544 1.4807590458723985 6481.952000000016
3.74283451040305 -1.3915980091482965 1.6967198494538265 -1.8759183717675647 -1.5707967990721248 1.47657546120884 6482.002000000016
3.6794004775706095 -1.3874514569391596 1.6917188967795633 -1.8750639537727163 -1.5707967589416818 1.4724336540044705 6482.052000000016
3.6170257131716435 -1.3833741469280476 1.6868014537147107 -1.8742238034819776 -1.5707967194813666 1.4683610097625237 6482.102000000016
3.556118932406261 -1.3793927959866497 1.6819997421641624 -1.8734034260415005 -1.5707966809497458 1.4643842147818962 6482.152000000016
3.4970738583012957 -1.3755331409791347 1.6773448020939439 -1.8726081246619446 -1.5707966435959015 1.4605289764754106 6482.202000000017
3.4402649382322172 -1.3718196587600024 1.6728661538343905 -1.8718429429226227 -1.5707966076567215 1.4568197436880819 6482.252000000017
3.3860430604450613 -1.3682752861719352 1.6685914603833294 -1.8711126070756463 -1.570796573354189 1.453279427015382 6482.302000000017
3.334731270578342 -1.3649211400436472 1.6645461897092573 -1.8704214683500695 -1.5707965408926732 1.4499291191215034 6482.352000000017
3.286620488184976 -1.3617762371877393 1.6607532770545232 -1.8697734452560357 -1.5707965104562194 1.4467878150576254 6482.402000000017
3.241965223254203 -1.3588572143985467 1.6572327872385064 -1.8691719658889212 -1.570796482205839 1.443872132580179 6482.4520000000175
3.2009792927335043 -1.3561780484499928 1.6540015769607987 -1.8686199102334817 -1.5707964562767993 1.4411960324691104 6482.502000000018
3.163831537050526 -1.353749776093439 1.651072957104382 -1.8681195524679963 -1.5707964327759145 1.4387705388461471 6482.552000000018
3.1306415366349905 -1.351580214055537 1.6484563550388112 -1.8676725032684134 -1.5707964117788353 1.4366034594930621 6482.602000000018
3.101475328440629 -1.3496736790360795 1.646156976923392 -1.8672796521124955 -1.5707963933273383 1.4346991061699392 6482.652000000018
3.076341122467098 -1.3480307077058513 1.6441754700103623 -1.8669411095839645 -1.570796377426618 1.4330580149334375 6482.702000000018
3.055185018281887 -1.346647776704481 1.6425075849480728 -1.8666561496766467 -1.5707963640425748 1.431676666455056 6482.752000000019
3.0378867215422636 -1.345517022638293 1.6411438380841659 -1.8664231520986179 -1.5707963530991067 1.4305472063393991 6482.802000000019
3.024255260517166 -1.3446259620781567 1.6400691737687558 -1.8662395445763484 -1.570796344475399 1.4296571654424413 6482.852000000019
3.0140247026091425 -1.3439572115573397 1.63926262665761 -1.866101745158849 -1.5707963380032135 1.4289891801897916 6482.902000000019
3.006849870876274 -1.3434882075693588 1.638696984015329 -1.866005104521815 -1.5707963334641803 1.4285207128949589 6482.952000000019
3.0023020605540642 -1.3431909265658302 1.6383384480185246 -1.8659438482717714 -1.570796330587087 1.428223772077616 6483.0020000000195
4.37539005279541 -1.7220384083189906 2.0345047155963343 -1.8831449947752894 -1.5707648436175745 1.2338056564331055 6483.352
4.375962866269812 -1.7213287413901803 2.033830983682984 -1.8831813138841376 -1.5707649464103595 1.2343784429475948 6483.402
4.3794715119023095 -1.716981829382047 2.0297041838766083 -1.883403778767264 -1.570765576045436 1.2378869234429513 6483.452
4.387579627915824 -1.70693656674964 2.0201675777044925 -1.883917872030093 -1.5707670310667692 1.2459946578416667 6483.502
4.400776519670037 -1.6905867459797392 2.0046456538511324 -1.884754617968338 -1.570769399281408 1.2591909284738858 6483.552000000001
4.418612026234042 -1.6684900779845075 1.9836678827267917 -1.885885474229943 -1.5707725999068678 1.2770255955958754 6483.602000000001
4.439931386958986 -1.6420772124951457 1.9585924710360612 -1.8872372234770247 -1.5707764257185133 1.2983439529084941 6483.652000000001
4.463110108050726 -1.6133607584555456 1.9313301163464143 -1.8887068650478163 -1.5707805851969436 1.3215215830756621 6483.702000000001
4.486288829142465 -1.5846443044159453 1.9040677616567674 -1.8901765066186078 -1.570784744675374 1.3446992132428301 6483.752000000001
4.507608189867409 -1.5582314389265834 1.8789923499660368 -1.8915282558656896 -1.5707885704870195 1.366017570555449 6483.8020000000015
4.525443696431414 -1.5361347709313518 1.8580145788416962 -1.8926591121272944 -1.5707917711124793 1.3838522376774385 6483.852000000002
4.538640588185627 -1.5197849501614509 1.8424926549883363 -1.8934958580655394 -1.570794139327118 1.3970485083096575 6483.902000000002
4.546748704199142 -1.5097396875290443 1.8329560488162204 -1.8940099513283686 -1.5707955943484513 1.4051562427083728 6483.952000000002
4.550257349831639 -1.5053927755209109 1.8288292490098446 -1.894232416211495 -1.5707962239835278 1.4086647232037295 6484.002000000002
4.550830163306041 -1.5046831085921006 1.8281555170964943 -1.8942687353203431 -1.5707963267763128 1.4092375097182188 6484.052000000002
4.550830163306041 -1.5046831085921004 1.8281555170964943 -1.8942687353203431 -1.5707963267763128 1.4092375097182188 6484.102000000003
4.550830163288899 -1.5044317259580535 1.8285655109525163 -1.8949301118132962 -1.570796326774864 1.4092375097011915 6484.152000000003
4.55083016318288 -1.5028770153395092 1.8311011745790515 -1.8990204860762125 -1.570796326765904 1.409237509595885 6484.202000000003
4.550830162934811 -1.4992392078568542 1.8370342762148681 -1.9085913952364206 -1.5707963267449385 1.4092375093494816 6484.252000000003
4.550830162524941 -1.4932286750690886 1.8468371869200806 -1.9244048387983568 -1.5707963267102987 1.4092375089423639 6484.302000000003
4.550830161960867 -1.484956812530443 1.8603282255177218 -1.9461677400295456 -1.5707963266626261 1.4092375083820772 6484.3520000000035
4.550830161271455 -1.4748469233469939 1.8768170035353173 -1.97276640734658 -1.570796326604361 1.4092375076972936 6484.402000000004
4.550830160500762 -1.4635451017332777 1.8952497701464592 -2.0025009957011024 -1.5707963265392262 1.4092375069317757 6484.452000000004
4.550830159701963 -1.4518311165689088 1.9143547571123785 -2.033319967965784 -1.5707963264717162 1.4092375061383402 6484.502000000004
4.55083015893127 -1.4405292949551927 1.9327875237235201 -2.0630545563203064 -1.5707963264065814 1.4092375053728223 6484.552000000004
4.550830158241858 -1.4304194057717434 1.9492763017411157 -2.089653223637341 -1.5707963263483162 1.4092375046880388 6484.602000000004
4.550830157677784 -1.4221475432330979 1.9627673403387569 -2.1114161248685295 -1.5707963263006437 1.409237504127752 6484.652000000005
4.550830157267915 -1.4161370104453324 1.9725702510439698 -2.127229568430466 -1.5707963262660039 1.4092375037206344 6484.702000000005
4.5508301570198455 -1.4124992029626768 1.9785033526797864 -2.136800477590674 -1.5707963262450384 1.409237503474231 6484.752000000005
4.550830156913826 -1.410944492344133 1.9810390163063214 -2.1408908518535905 -1.5707963262360785 1.4092375033689244 6484.802000000005
4.5508301568966845 -1.410693109710086 1.9814490101623434 -2.1415522283465434 -1.5707963262346296 1.4092375033518971 6484.852000000005
4.5508301568966845 -1.410693109710086 1.9814490101623434 -2.1415522283465434 -1.5707963262346296 1.4092375033518971 6484.9020000000055
4.5508301568966845 -1.410693109710086 1.9814490101623434 -2.1415522283465434 -1.5707963262346296 1.4092375033518971 6484.952000000006
4.5508301568966845 -1.410693109710086 1.9814490101623434 -2.1415522283465434 -1.5707963262346296 1.4092375033518971 6485.002000000006
4.5508301568966845 -1.410693109710086 1.9814490101623434 -2.1415522283465434 -1.5707963262346296 1.4092375033518971 6485.052000000006
4.5508301568966845 -1.410693109710086 1.9814490101623434 -2.1415522283465434 -1.5707963262346296 1.4092375033518971 6485.102000000006
4.5508301568966845 -1.410693109710086 1.9814490101623434 -2.1415522283465434 -1.5707963262346296 1.4092375033518971 6485.152000000006
4.5508301568966845 -1.410693109710086 1.9814490101623434 -2.1415522283465434 -1.5707963262346296 1.4092375033518971 6485.202000000007
4.5508301568966845 -1.410693109710086 1.9814490101623434 -2.1415522283465434 -1.5707963262346296 1.4092375033518971 6485.252000000007
4.5508301568966845 -1.410693109710086 1.9814490101623434 -2.1415522283465434 -1.5707963262346296 1.4092375033518971 6485.302000000007
4.5508301568966845 -1.410693109710086 1.9814490101623434 -2.1415522283465434 -1.5707963262346296 1.4092375033518971 6485.352000000007
4.5508301568966845 -1.410693109710086 1.9814490101623434 -2.1415522283465434 -1.5707963262346296 1.4092375033518971 6485.402000000007
4.5508301568966845 -1.410693109710086 1.9814490101623434 -2.1415522283465434 -1.5707963262346296 1.4092375033518971 6485.4520000000075
4.5508301568966845 -1.410693109710086 1.9814490101623434 -2.1415522283465434 -1.5707963262346296 1.4092375033518971 6485.502000000008
4.5508301568966845 -1.410693109710086 1.9814490101623434 -2.1415522283465434 -1.5707963262346296 1.4092375033518971 6485.552000000008
4.550830156913826 -1.410944492344133 1.9810390163063214 -2.1408908518535905 -1.5707963262360785 1.4092375033689244 6485.602000000008
4.5508301570198455 -1.4124992029626773 1.9785033526797862 -2.136800477590674 -1.5707963262450384 1.409237503474231 6485.652000000008
4.550830157267915 -1.4161370104453324 1.9725702510439695 -2.1272295684304656 -1.5707963262660039 1.4092375037206344 6485.702000000008
4.550830157677784 -1.4221475432330979 1.962767340338757 -2.1114161248685295 -1.5707963263006437 1.409237504127752 6485.752000000009
4.550830158241858 -1.4304194057717434 1.9492763017411159 -2.089653223637341 -1.5707963263483162 1.4092375046880388 6485.802000000009
4.55083015893127 -1.4405292949551927 1.9327875237235204 -2.0630545563203064 -1.5707963264065814 1.4092375053728223 6485.852000000009
4.550830159701963 -1.4518311165689088 1.9143547571123785 -2.033319967965784 -1.5707963264717162 1.4092375061383402 6485.902000000009
4.550830160500762 -1.4635451017332777 1.8952497701464592 -2.0025009957011024 -1.5707963265392262 1.4092375069317757 6485.952000000009
4.550830161271455 -1.4748469233469939 1.8768170035353176 -1.97276640734658 -1.570796326604361 1.4092375076972936 6486.0020000000095
4.550830161960867 -1.484956812530443 1.860328225517722 -1.9461677400295456 -1.5707963266626261 1.4092375083820772 6486.05200000001
4.550830162524941 -1.4932286750690884 1.8468371869200808 -1.924404838798357 -1.5707963267102987 1.4092375089423639 6486.10200000001
4.550830162934811 -1.4992392078568542 1.837034276214868 -1.9085913952364204 -1.5707963267449385 1.4092375093494816 6486.15200000001
4.55083016318288 -1.5028770153395095 1.8311011745790513 -1.8990204860762123 -1.570796326765904 1.409237509595885 6486.20200000001
4.550830163288899 -1.5044317259580535 1.8285655109525163 -1.894930111813296 -1.570796326774864 1.4092375097011915 6486.25200000001
4.550830163306041 -1.5046831085921004 1.8281555170964943 -1.8942687353203431 -1.5707963267763128 1.4092375097182188 6486.302000000011
4.550830163306041 -1.5046831085921004 1.8281555170964943 -1.8942687353203431 -1.5707963267763128 1.4092375097182188 6486.352000000011
4.550685404657931 -1.5046680248150421 1.8281377870472875 -1.8942660890481045 -1.570796326776461 1.4092392591832381 6486.402000000011
4.549709287030792 -1.5045663138577858 1.828018232092978 -1.894248245050443 -1.5707963267774607 1.4092510559474782 6486.452000000011
4.547170539351987 -1.5043017776487633 1.8277072861021426 -1.894201835267048 -1.5707963267800606 1.4092817377085682 6486.502000000011
4.542442647870774 -1.503809133775742 1.8271282136273703 -1.8941154066623507 -1.5707963267849026 1.4093388761308294 6486.5520000000115
4.534998983724738 -1.503033507780741 1.8262165131292627 -1.8939793321546055 -1.5707963267925256 1.4094288357305444 6486.602000000012
4.524407930506207 -1.5019299254549443 1.8249193202004335 -1.893785721544973 -1.570796326803372 1.4095568327612285 6486.652000000012
4.510328011828679 -1.5004628051336162 1.823194810789507 -1.8935283324466003 -1.5707963268177916 1.409726994098898 6486.702000000012
4.492503018893244 -1.4986054499910155 1.8210116044251183 -1.8932024812137043 -1.5707963268360463 1.4099424161273424 6486.752000000012
4.470757138055012 -1.4963395403353106 1.8183481674399125 -1.892804953870652 -1.5707963268583165 1.4102052236233928 6486.802000000012
4.444990078389525 -1.4936546259034933 1.8151922161945435 -1.8923339170410434 -1.5707963268847047 1.4105166286421937 6486.852000000013
4.415172199259192 -1.490547618156294 1.811540120301675 -1.8917888288767923 -1.5707963269152416 1.4108769894024717 6486.902000000013
4.38133963787971 -1.4870222825730963 1.8073963058499773 -1.891170349987209 -1.57079632694989 1.4112858691718067 6486.952000000013
4.343589436886479 -1.4830887309468512 1.8027726586281299 -1.8904802543680819 -1.5707963269885503 1.4117420951519009 6487.002000000013
4.3020746719010345 -1.478762913678992 1.7976879273488175 -1.8897213403307582 -1.570796327031066 1.4122438173638505 6487.052000000013
4.256999579097468 -1.4740661120743486 1.7921671268727326 -1.8888973414312271 -1.570796327077228 1.4127885675334149 6487.1020000000135
4.20861468276885 -1.4690244306360625 1.7862409414325724 -1.8880128373992011 -1.5707963271267795 1.4133733179762864 6487.152000000014
4.1572119228936515 -1.4636682893605013 1.77994512785704 -1.8870731650671972 -1.5707963271794216 1.4139945404833618 6487.202000000014
4.103119782702168 -1.4580319160321729 1.7733199187948423 -1.8860843292996194 -1.570796327234818 1.414648265206011 6487.252000000014
4.046698416242949 -1.4521528385186402 1.7664094259386904 -1.8850529139218402 -1.5707963272925998 1.4153301395413485 6487.302000000014
3.988334775949209 -1.4460713770654365 1.7592610432492988 -1.8839859926492817 -1.5707963273523706 1.4160354870175025 6487.352000000014
3.9284377402052626 -1.439830136590979 1.7519248501793847 -1.8828910400164993 -1.570796327413712 1.4167593661788858 6487.402000000015
3.867433240912941 -1.4334734989814835 1.7444530148976671 -1.8817758423062612 -1.5707963274761874 1.417496629471465 6487.452000000015
3.805759391058017 -1.4270471153858801 1.7368991975128671 -1.8806484084786312 -1.5707963275393482 1.418241982128032 6487.502000000015
3.7438616122766306 -1.4205973985107263 1.729317953297706 -1.879516881100051 -1.5707963276027386 1.4189900410534737 6487.552000000015
3.682187762421707 -1.414171014915123 1.7217641359129061 -1.8783894472724212 -1.5707963276658994 1.4197353937100408 6487.602000000015
3.621183263129385 -1.4078143773056275 1.7142923006311885 -1.877274249562183 -1.5707963277283747 1.42047265700262 6487.6520000000155
3.5612862273854393 -1.40157313683117 1.7069561075612745 -1.8761792969294007 -1.5707963277897161 1.4211965361640033 6487.702000000016
3.5029225870916987 -1.3954916753779663 1.6998077248718828 -1.8751123756568422 -1.570796327849487 1.4219018836401573 6487.752000000016
3.446501220632479 -1.3896125978644336 1.692897232015731 -1.874080960279063 -1.5707963279072688 1.4225837579754947 6487.802000000016
3.3924090804409968 -1.3839762245361051 1.6862720229535333 -1.873092124511485 -1.570796327962665 1.423237482698144 6487.852000000016
3.341006320565797 -1.378620083260544 1.6799762093780006 -1.8721524521794812 -1.5707963280153072 1.4238587052052194 6487.902000000016
3.2926214242371783 -1.3735784018222579 1.6740500239378406 -1.8712679481474552 -1.5707963280648587 1.424443455648091 6487.952000000017
3.247546331433613 -1.3688816002176145 1.6685292234617557 -1.8704439492479241 -1.5707963281110207 1.4249882058176553 6488.002000000017
3.2060315664481696 -1.3645557829497552 1.6634444921824436 -1.8696850352106005 -1.5707963281535364 1.425489928029605 6488.052000000017
3.1682813654549378 -1.3606222313235101 1.6588208449605957 -1.8689949395914733 -1.5707963281921968 1.4259461540096992 6488.102000000017
3.134448804075454 -1.3570968957403124 1.6546770305088983 -1.86837646070189 -1.5707963282268451 1.426355033779034 6488.152000000017
3.1046309249451243 -1.3539898879931132 1.6510249346160297 -1.867831372537639 -1.570796328257382 1.426715394539312 6488.2020000000175
3.0788638652796365 -1.3513049735612959 1.6478689833706608 -1.8673603357080304 -1.5707963282837702 1.427026799558113 6488.252000000018
3.057117984441402 -1.349039063905591 1.645205546385455 -1.866962808364978 -1.5707963283060404 1.4272896070541634 6488.302000000018
3.0392929915059694 -1.3471817087629903 1.6430223400210662 -1.866636957132082 -1.5707963283242952 1.427505029082608 6488.352000000018
3.025213072828442 -1.3457145884416621 1.6412978306101398 -1.8663795680337094 -1.5707963283387147 1.4276751904202774 6488.402000000018
3.014622019609912 -1.3446110061158654 1.6400006376813105 -1.866185957424077 -1.5707963283495612 1.4278031874509614 6488.452000000018
3.007178355463874 -1.3438353801208642 1.639088937183203 -1.8660498829163317 -1.5707963283571842 1.4278931470506764 6488.502000000019
3.0024504639826644 -1.3433427362478434 1.638509864708431 -1.8659634543116344 -1.570796328362026 1.4279502854729376 6488.552000000019
4.3753437995910645 -1.7221037350096644 2.034496609364645 -1.8831860027708949 -1.5707882086383265 1.233778715133667 6488.852
4.37552682274054 -1.721356866373937 2.033802451594459 -1.8832387265665544 -1.5707882414566519 1.2339616268313818 6488.902
4.3766353260395965 -1.7168333601997874 2.029598195572634 -1.8835580550318052 -1.5707884402250707 1.235069455108481 6488.952
4.3791594847453235 -1.7065329420597513 2.020024737877353 -1.8842851938019247 -1.5707888928380989 1.2375920767303301 6489.002
4.383194407489693 -1.690067499005216 2.004721356949159 -1.8854475409852502 -1.5707896163498962 1.241624542412597 6489.052000000001
4.3885279288629215 -1.6683028214600095 1.9844927393437637 -1.8869839777247217 -1.5707905727165676 1.246954815943407 6489.102000000001
4.394728401996823 -1.6430003451139885 1.9609760059848567 -1.8887701587594228 -1.5707916845384648 1.2531515133054978 6489.152000000001
4.4012324911481775 -1.6164588928166277 1.9363077384169136 -1.890643802986124 -1.5707928508024875 1.259651641798375 6489.202000000001
4.407432964282079 -1.5911564164706067 1.9127910050580066 -1.892429984020825 -1.5707939626243848 1.2658483391604658 6489.252000000001
4.4127664856553075 -1.5693917389254002 1.8925623874526112 -1.8939664207602964 -1.5707949189910562 1.2711786126912759 6489.3020000000015
4.416801408399677 -1.552926295870865 1.8772590065244175 -1.895128767943622 -1.5707956425028535 1.2752110783735426 6489.352000000002
4.419325567105404 -1.5426258777308288 1.8676855488291364 -1.8958559067137415 -1.5707960951158817 1.2777336999953917 6489.402000000002
4.42043407040446 -1.5381023715566795 1.8634812928073115 -1.8961752351789922 -1.5707962938843005 1.278841528272491 6489.452000000002
4.420617093553936 -1.5373555029209518 1.8627871350371255 -1.8962279589746518 -1.570796326702626 1.2790244399702058 6489.502000000002
4.420617093553936 -1.5373555029209518 1.8627871350371255 -1.8962279589746518 -1.570796326702626 1.2790244399702058 6489.552000000002
4.420617093508544 -1.5370986896781664 1.8632025402836998 -1.8969001774701757 -1.5707963266981555 1.2790244399251052 6489.602000000003
4.420617093227808 -1.5355103927098617 1.8657716714024684 -1.9010576055953725 -1.5707963266705074 1.2790244396461745 6489.652000000003
4.420617092570923 -1.5317939978212822 1.8717830823340607 -1.910785411504748 -1.5707963266058145 1.2790244389935155 6489.702000000003
4.4206170914855925 -1.5256536197400903 1.881715378827853 -1.926858086227118 -1.5707963264989264 1.2790244379151656 6489.752000000003
4.42061708999193 -1.5172030604941085 1.8953844817494696 -1.9489777485975532 -1.5707963263518239 1.2790244364311107 6489.802000000003
4.420617088166373 -1.5068747677890606 1.9120908903882836 -1.9760124501893226 -1.570796326172035 1.2790244346172954 6489.8520000000035
4.420617086125587 -1.4953287933863155 1.9307669457649166 -2.0062344802458356 -1.5707963259710493 1.2790244325896354 6489.902000000004
4.420617084010376 -1.4833617514806283 1.950124093938739 -2.037558670612587 -1.570796325762734 1.2790244304880294 6489.952000000004
4.420617081969589 -1.4718157770778832 1.968800149315372 -2.0677807006691 -1.5707963255617483 1.2790244284603693 6490.002000000004
4.420617080144032 -1.4614874843728356 1.985506557954186 -2.094815402260869 -1.5707963253819595 1.279024426646554 6490.052000000004
4.42061707865037 -1.4530369251268536 1.9991756608758027 -2.1169350646313045 -1.570796325234857 1.2790244251624991 6490.102000000004
4.420617077565039 -1.4468965470456616 2.0091079573695954 -2.133007739353675 -1.5707963251279689 1.2790244240841493 6490.152000000005
4.4206170769081545 -1.4431801521570822 2.015119368301187 -2.1427355452630503 -1.570796325063276 1.2790244234314903 6490.202000000005
4.420617076627418 -1.4415918551887774 2.0176884994199558 -2.1468929733882476 -1.5707963250356278 1.2790244231525596 6490.252000000005
4.420617076582026 -1.441335041945992 2.01810390466653 -2.147565191883771 -1.5707963250311574 1.279024423107459 6490.302000000005
4.420617076582026 -1.441335041945992 2.01810390466653 -2.147565191883771 -1.5707963250311574 1.279024423107459 6490.352000000005
4.420617076582026 -1.441335041945992 2.01810390466653 -2.147565191883771 -1.5707963250311574 1.279024423107459 6490.4020000000055
4.420617076582026 -1.441335041945992 2.01810390466653 -2.147565191883771 -1.5707963250311574 1.279024423107459 6490.452000000006
4.420617076582026 -1.441335041945992 2.01810390466653 -2.147565191883771 -1.5707963250311574 1.279024423107459 6490.502000000006
4.420617076582026 -1.441335041945992 2.01810390466653 -2.147565191883771 -1.5707963250311574 1.279024423107459 6490.552000000006
4.420617076582026 -1.441335041945992 2.01810390466653 -2.147565191883771 -1.5707963250311574 1.279024423107459 6490.602000000006
4.420617076582026 -1.441335041945992 2.01810390466653 -2.147565191883771 -1.5707963250311574 1.279024423107459 6490.652000000006
4.420617076582026 -1.441335041945992 2.01810390466653 -2.147565191883771 -1.5707963250311574 1.279024423107459 6490.702000000007
4.420617076582026 -1.441335041945992 2.01810390466653 -2.147565191883771 -1.5707963250311574 1.279024423107459 6490.752000000007
4.420617076582026 -1.441335041945992 2.01810390466653 -2.147565191883771 -1.5707963250311574 1.279024423107459 6490.802000000007
4.420617076582026 -1.441335041945992 2.01810390466653 -2.147565191883771 -1.5707963250311574 1.279024423107459 6490.852000000007
4.420617076582026 -1.441335041945992 2.01810390466653 -2.147565191883771 -1.5707963250311574 1.279024423107459 6490.902000000007
4.420617076582026 -1.441335041945992 2.01810390466653 -2.147565191883771 -1.5707963250311574 1.279024423107459 6490.9520000000075
4.420617076582026 -1.441335041945992 2.01810390466653 -2.147565191883771 -1.5707963250311574 1.279024423107459 6491.002000000008
4.420617076627418 -1.4415918551887774 2.0176884994199558 -2.146892973388247 -1.5707963250356278 1.2790244231525596 6491.052000000008
4.4206170769081545 -1.4431801521570822 2.015119368301187 -2.14273554526305 -1.570796325063276 1.2790244234314903 6491.102000000008
4.420617077565039 -1.4468965470456616 2.009107957369595 -2.133007739353675 -1.5707963251279689 1.2790244240841493 6491.152000000008
4.42061707865037 -1.4530369251268536 1.9991756608758027 -2.1169350646313045 -1.570796325234857 1.2790244251624991 6491.202000000008
4.420617080144032 -1.4614874843728354 1.985506557954186 -2.094815402260869 -1.5707963253819595 1.279024426646554 6491.252000000009
4.420617081969589 -1.4718157770778832 1.968800149315372 -2.0677807006691 -1.5707963255617483 1.2790244284603693 6491.302000000009
4.420617084010376 -1.4833617514806283 1.950124093938739 -2.037558670612587 -1.570796325762734 1.2790244304880294 6491.352000000009
4.420617086125587 -1.4953287933863155 1.9307669457649166 -2.0062344802458356 -1.5707963259710493 1.2790244325896354 6491.402000000009
4.420617088166373 -1.5068747677890606 1.9120908903882836 -1.9760124501893226 -1.570796326172035 1.2790244346172954 6491.452000000009
4.42061708999193 -1.5172030604941082 1.8953844817494696 -1.9489777485975535 -1.5707963263518239 1.2790244364311107 6491.5020000000095
4.4206170914855925 -1.5256536197400903 1.881715378827853 -1.926858086227118 -1.5707963264989264 1.2790244379151656 6491.55200000001
4.420617092570923 -1.5317939978212822 1.8717830823340604 -1.9107854115047478 -1.5707963266058145 1.2790244389935155 6491.60200000001
4.420617093227808 -1.5355103927098617 1.8657716714024681 -1.9010576055953723 -1.5707963266705074 1.2790244396461745 6491.65200000001
4.420617093508544 -1.5370986896781664 1.8632025402836996 -1.8969001774701753 -1.5707963266981555 1.2790244399251052 6491.70200000001
4.420617093553936 -1.5373555029209518 1.8627871350371255 -1.8962279589746518 -1.570796326702626 1.2790244399702058 6491.75200000001
4.420617093553936 -1.5373555029209518 1.8627871350371255 -1.8962279589746518 -1.570796326702626 1.2790244399702058 6491.802000000011
4.420455819658298 -1.537333453325698 1.8627616450330144 -1.89622451856568 -1.5707963267028147 1.2790413372416032 6491.852000000011
4.419371182444854 -1.5371851601908468 1.8625902136496506 -1.896201380316397 -1.5707963267040832 1.2791549787537073 6491.902000000011
4.416558795381848 -1.536800646651372 1.862145704279338 -1.896141384483562 -1.570796326707373 1.2794496431027642 6491.952000000011
4.41133842162731 -1.5360869097635366 1.8613206026846998 -1.896030019773052 -1.5707963267134795 1.2799966012560173 6492.002000000011
4.4031477665445715 -1.5349670718088295 1.860026035880163 -1.8958552909174058 -1.5707963267230602 1.2808547669331574 6492.0520000000115
4.391536270217773 -1.5333795315979015 1.8581907910134428 -1.8956075862533677 -1.5707963267366425 1.282071346987773 6492.102000000012
4.376158899967376 -1.5312771157744998 1.8557603342470255 -1.895279545299432 -1.5707963267546299 1.2836824917888006 6492.152000000012
4.356769942865675 -1.5286262301194036 1.8526958296396534 -1.8948659263333867 -1.5707963267773097 1.2857139456019744 6492.202000000012
4.333216798252302 -1.5254060108543606 1.8489731580278086 -1.8943634739698587 -1.5707963268048604 1.2881816969712767 6492.252000000012
4.305433770249745 -1.5216074759460212 1.8445819359071969 -1.8937707867378564 -1.570796326837359 1.2910926291003884 6492.302000000012
4.273435860278854 -1.5172326764098745 1.839524534314232 -1.8930881846583147 -1.5707963268747878 1.294445170234138 6492.352000000013
4.23731255957435 -1.512293847614184 1.8338150977075192 -1.8923175768216394 -1.5707963269170422 1.298229944039953 6492.402000000013
4.197221641700341 -1.5068125605839229 1.82747856284934 -1.8914623289652506 -1.5707963269639376 1.3024304199893089 6492.452000000013
4.153382955065828 -1.5008188733047096 1.8205496776871353 -1.890527131051127 -1.5707963270152168 1.3070235637391807 6492.502000000013
4.106072215440217 -1.494350482026743 1.81307202023499 -1.8895178648433506 -1.5707963270705574 1.3119804875134917 6492.552000000013
4.055614798468831 -1.4874518725687382 1.805097017455117 -1.8884414714856501 -1.5707963271295788 1.3172671004845642 6492.6020000000135
4.002379532188417 -1.4801734716218622 1.7966829641393414 -1.8873058190789453 -1.5707963271918495 1.3228447591545698 6492.652000000014
3.9467724895426604 -1.4725707980536682 1.787894041790583 -1.8861195702588918 -1.5707963272568946 1.3286709177369789 6492.702000000014
3.8892307808976923 -1.464703614212033 1.7787993375043434 -1.8848920497734236 -1.5707963273242027 1.334699778538012 6492.752000000014
3.830216346557603 -1.4566350772290915 1.7694718628501862 -1.8836331120602992 -1.5707963273932335 1.3408829423380881 6492.802000000014
3.7702097492799505 -1.448430890325171 1.7599875727532244 -1.882353008824644 -1.5707963274634247 1.3471700587732767 6492.852000000014
3.7097039667912712 -1.440158454112729 1.7504243843756022 -1.8810622566164956 -1.5707963275341998 1.3535094767167464 6492.902000000015
3.649198184302592 -1.431886017900287 1.74086119599798 -1.879771504408347 -1.5707963276049752 1.359848894660216 6492.952000000015
3.5891915870249393 -1.4236818309963666 1.7313769059010182 -1.8784914011726919 -1.5707963276751664 1.3661360110954046 6493.002000000015
3.5301771526848498 -1.4156132940134247 1.722049431246861 -1.8772324634595674 -1.5707963277441972 1.3723191748954808 6493.052000000015
3.4726354440398817 -1.4077461101717896 1.7129547269606213 -1.8760049429740993 -1.5707963278115054 1.3783480356965139 6493.102000000015
3.417028401394125 -1.4001434366035959 1.704165804611863 -1.8748186941540457 -1.5707963278765504 1.384174194278923 6493.1520000000155
3.3637931351137116 -1.3928650356567196 1.6957517512960876 -1.8736830417473411 -1.570796327938821 1.3897518529489283 6493.202000000016
3.313335718142324 -1.3859664261987148 1.6877767485162143 -1.8726066483896404 -1.5707963279978425 1.395038465920001 6493.252000000016
3.266024978516714 -1.3794980349207482 1.6802990910640694 -1.871597382181864 -1.5707963280531831 1.399995389694312 6493.302000000016
3.2221862918822017 -1.3735043476415347 1.6733702059018645 -1.8706621842677404 -1.5707963281044623 1.4045885334441839 6493.352000000016
3.1820953740081928 -1.368023060611274 1.6670336710436855 -1.8698069364113516 -1.5707963281513577 1.4087890093935398 6493.402000000016
3.145972073303689 -1.3630842318155836 1.6613242344369725 -1.8690363285746763 -1.5707963281936121 1.4125737831993548 6493.452000000017
3.113974163332797 -1.3587094322794369 1.6562668328440073 -1.8683537264951346 -1.5707963282310409 1.4159263243331044 6493.502000000017
3.08619113533024 -1.3549108973710973 1.6518756107233958 -1.8677610392631323 -1.5707963282635395 1.4188372564622158 6493.552000000017
3.0626379907168646 -1.351690678106054 1.648152939111551 -1.8672585868996041 -1.5707963282910902 1.4213050078315186 6493.602000000017
3.043249033615165 -1.349039792450958 1.645088434504179 -1.866844967933559 -1.57079632831377 1.4233364616446922 6493.652000000017
3.027871663364767 -1.3469373766275563 1.6426579777377617 -1.8665169269796233 -1.5707963283317574 1.4249476064457198 6493.7020000000175
3.01626016703797 -1.3453498364166283 1.6408227328710414 -1.8662692223155852 -1.5707963283453397 1.4261641865003356 6493.752000000018
3.008069511955231 -1.3442299984619215 1.6395281660665046 -1.866094493459939 -1.5707963283549204 1.4270223521774756 6493.802000000018
3.002849138200691 -1.3435162615740859 1.6387030644718663 -1.865983128749429 -1.570796328361027 1.4275693103307285 6493.852000000018
4.375348091125488 -1.7220798931517542 2.0344260374652308 -1.8831335506834925 -1.5708048979388636 1.2338241338729858 6494.052
4.375339356365556 -1.7220614958599931 2.0344090690444507 -1.8831349805010633 -1.570804897029327 1.2339820751562436 6494.102
4.375280557660619 -1.72193765308259 2.0342948448214067 -1.8831446054274623 -1.5708048909067114 1.235045268991465 6494.152
4.375127934224745 -1.7216161951488556 2.033998353709917 -1.8831695887895725 -1.5708048750142762 1.2378049946742729 6494.202
4.374844309463648 -1.7210188201183694 2.033447375282639 -1.8832160161293146 -1.5708048454808816 1.2429334766337914 6494.252
4.374398769794606 -1.7200804173063322 2.0325818558364905 -1.8832889477785226 -1.5708047990875458 1.2509896919871117 6494.302000000001
4.373766343466381 -1.7187483908089196 2.0313532844580724 -1.8833924714338222 -1.5708047332339996 1.2624251780937539 6494.352000000001
4.372927679379139 -1.716981983028634 2.029724069089092 -1.8835297547315042 -1.5708046459052443 1.2775898401101304 6494.402000000001
4.371868725904372 -1.7147515981996577 2.0276669125917848 -1.8837030978224027 -1.570804535638106 1.29673775854401 6494.452000000001
4.370580409704812 -1.7120381259132058 2.025164188814337 -1.8839139859467704 -1.5708044014877924 1.3200329968089808 6494.502000000001
4.369058314554355 -1.7088322646428782 2.022207318656308 -1.8841631420091551 -1.570804242994449 1.3475554087789121 6494.5520000000015
4.367302360157982 -1.705133845270013 2.0187961461340533 -1.884450579153276 -1.570804060149715 1.3793064463424203 6494.602000000002
4.365316480971677 -1.7009511546090395 2.0149383144461477 -1.8847756533368993 -1.570803853363279 1.41521496695733 6494.652000000002
4.363108305022343 -1.6963002589328298 2.010648642038806 -1.8851371159067154 -1.5708036234294351 1.4551430412051383 6494.702000000002
4.360688832727729 -1.6912043274980526 2.005948498671306 -1.8855331661732142 -1.5708033714936396 1.4988917603454777 6494.752000000002
4.358072115716345 -1.685692956070526 2.0008651814814136 -1.885961503985562 -1.5708030990190656 1.54620704387058 6494.802000000002
4.355274935647382 -1.6798014904505691 1.9954312910508014 -1.8864193823064768 -1.570802807753161 1.5967854470597382 6494.852000000003
4.352316483030636 -1.673570349998356 1.9896841074704734 -1.8869036597871054 -1.5708024996942032 1.6502799685337717 6494.902000000003
4.34921803604642 -1.6670443511592676 1.9836649664061876 -1.8874108533418996 -1.5708021770578546 1.7063058578094878 6494.952000000003
4.346002639365491 -1.6602720309892451 1.977418635163878 -1.8879371907234916 -1.5708018422437204 1.7644464228541463 6495.002000000003
4.342694782968966 -1.653304970680142 1.9709926887550775 -1.888478663097571 -1.5708014978019036 1.8242588376399222 6495.052000000003
4.339320080968244 -1.6461971190850777 1.9644368859623393 -1.8890310776177601 -1.5708011463995601 1.885279949698368 6495.1020000000035
4.335904950424923 -1.6390041162437892 1.9578025454046615 -1.8895901100004915 -1.5708007907874573 1.9470320876748797 6495.152000000004
4.332476290170723 -1.6317826169079848 1.9511419216029071 -1.890151357099883 -1.570800433766527 2.0090288688831572 6495.202000000004
4.329061159627401 -1.6245896140666964 1.9445075810452292 -1.8907103894826143 -1.570800078154424 2.0707810068596686 6495.252000000004
4.32568645762668 -1.6174817624716318 1.937951778252491 -1.8912628040028034 -1.5707997267520806 2.1318021189181158 6495.302000000004
4.322378601230155 -1.6105147021625288 1.9315258318436905 -1.8918042763768828 -1.5707993823102637 2.1916145337038913 6495.352000000004
4.319163204549226 -1.6037423819925063 1.925279500601381 -1.8923306137584748 -1.5707990474961295 2.249755098748549 6495.402000000005
4.31606475756501 -1.5972163831534179 1.9192603595370952 -1.892837807313269 -1.570798724859781 2.3057809880242655 6495.452000000005
4.313106304948263 -1.5909852427012048 1.9135131759567672 -1.8933220847938976 -1.570798416800823 2.359275509498299 6495.502000000005
4.310309124879301 -1.5850937770812479 1.908079285526155 -1.8937799631148124 -1.5707981255349186 2.409853912687457 6495.552000000005
4.307692407867917 -1.5795824056537213 1.9029959683362623 -1.8942083009271602 -1.5707978530603446 2.457169196212559 6495.602000000005
4.305272935573303 -1.5744864742189444 1.8982958249687627 -1.894604351193659 -1.570797601124549 2.5009179153528995 6495.6520000000055
4.303064759623969 -1.5698355785427345 1.894006152561421 -1.894965813763475 -1.570797371190705 2.540845989600708 6495.702000000006
4.301078880437664 -1.565652887881761 1.8901483208735153 -1.8952908879470984 -1.570797164404269 2.5767545102156166 6495.752000000006
4.299322926041291 -1.5619544685088957 1.8867371483512607 -1.8955783250912193 -1.570796981559535 2.6085055477791244 6495.802000000006
4.297800830890834 -1.558748607238568 1.8837802781932318 -1.895827481153604 -1.5707968230661917 2.6360279597490566 6495.852000000006
4.2965125146912735 -1.5560351349521162 1.8812775544157838 -1.8960383692779716 -1.5707966889158782 2.659323198014027 6495.902000000006
4.295453561216506 -1.5538047501231402 1.8792203979184765 -1.8962117123688702 -1.57079657864874 2.6784711164479056 6495.952000000007
4.294614897129264 -1.5520383423428543 1.877591182549496 -1.8963489956665522 -1.5707964913199846 2.6936357784642837 6496.002000000007
4.29398247080104 -1.5507063158454417 1.876362611171078 -1.8964525193218518 -1.5707964254664384 2.7050712645709254 6496.052000000007
4.293536931131998 -1.5497679130334048 1.8754970917249296 -1.89652545097106 -1.5707963790731025 2.7131274799242444 6496.102000000007
4.375348091125488 -1.7220798931517542 2.0344260374652308 -1.8831335506834925 -1.5708048979388636 1.2338241338729858 6496.201999999999
4.375339356365556 -1.7220614958599931 2.0344090690444507 -1.8831349805010633 -1.570804897029327 1.2339820751562436 6496.2519999999995
4.375280557660619 -1.72193765308259 2.0342948448214067 -1.8831446054274623 -1.5708048909067114 1.235045268991465 6496.302
4.375127934224745 -1.7216161951488556 2.033998353709917 -1.8831695887895725 -1.5708048750142762 1.2378049946742729 6496.352
4.374844309463648 -1.7210188201183694 2.033447375282639 -1.8832160161293146 -1.5708048454808816 1.2429334766337914 6496.402
4.374398769794606 -1.7200804173063322 2.0325818558364905 -1.8832889477785226 -1.5708047990875458 1.2509896919871117 6496.452
4.373766343466381 -1.7187483908089196 2.0313532844580724 -1.8833924714338222 -1.5708047332339996 1.2624251780937539 6496.502
4.372927679379139 -1.716981983028634 2.029724069089092 -1.8835297547315042 -1.5708046459052443 1.2775898401101304 6496.552000000001
4.371868725904372 -1.7147515981996577 2.0276669125917848 -1.8837030978224027 -1.570804535638106 1.29673775854401 6496.602000000001
4.370580409704812 -1.7120381259132058 2.025164188814337 -1.8839139859467704 -1.5708044014877924 1.3200329968089808 6496.652000000001
4.369058314554355 -1.7088322646428782 2.022207318656308 -1.8841631420091551 -1.570804242994449 1.3475554087789121 6496.702000000001
4.367302360157982 -1.705133845270013 2.0187961461340533 -1.884450579153276 -1.570804060149715 1.3793064463424203 6496.752000000001
4.365316480971677 -1.7009511546090395 2.0149383144461477 -1.8847756533368993 -1.570803853363279 1.41521496695733 6496.8020000000015
4.363108305022343 -1.6963002589328298 2.010648642038806 -1.8851371159067154 -1.5708036234294351 1.4551430412051383 6496.852000000002
4.360688832727729 -1.6912043274980526 2.005948498671306 -1.8855331661732142 -1.5708033714936396 1.4988917603454777 6496.902000000002
4.358072115716345 -1.685692956070526 2.0008651814814136 -1.885961503985562 -1.5708030990190656 1.54620704387058 6496.952000000002
4.355274935647382 -1.6798014904505691 1.9954312910508014 -1.8864193823064768 -1.570802807753161 1.5967854470597382 6497.002000000002
4.352316483030636 -1.673570349998356 1.9896841074704734 -1.8869036597871054 -1.5708024996942032 1.6502799685337717 6497.052000000002
4.34921803604642 -1.6670443511592676 1.9836649664061876 -1.8874108533418996 -1.5708021770578546 1.7063058578094878 6497.102000000003
4.346002639365491 -1.6602720309892451 1.977418635163878 -1.8879371907234916 -1.5708018422437204 1.7644464228541463 6497.152000000003
4.342694782968966 -1.653304970680142 1.9709926887550775 -1.888478663097571 -1.5708014978019036 1.8242588376399222 6497.202000000003
4.339320080968244 -1.6461971190850777 1.9644368859623393 -1.8890310776177601 -1.5708011463995601 1.885279949698368 6497.252000000003
4.335904950424923 -1.6390041162437892 1.9578025454046615 -1.8895901100004915 -1.5708007907874573 1.9470320876748797 6497.302000000003
4.332476290170723 -1.6317826169079848 1.9511419216029071 -1.890151357099883 -1.570800433766527 2.0090288688831572 6497.3520000000035
4.329061159627401 -1.6245896140666964 1.9445075810452292 -1.8907103894826143 -1.570800078154424 2.0707810068596686 6497.402000000004
4.32568645762668 -1.6174817624716318 1.937951778252491 -1.8912628040028034 -1.5707997267520806 2.1318021189181158 6497.452000000004
4.322378601230155 -1.6105147021625288 1.9315258318436905 -1.8918042763768828 -1.5707993823102637 2.1916145337038913 6497.502000000004
4.319163204549226 -1.6037423819925063 1.925279500601381 -1.8923306137584748 -1.5707990474961295 2.249755098748549 6497.552000000004
4.31606475756501 -1.5972163831534179 1.9192603595370952 -1.892837807313269 -1.570798724859781 2.3057809880242655 6497.602000000004
4.313106304948263 -1.5909852427012048 1.9135131759567672 -1.8933220847938976 -1.570798416800823 2.359275509498299 6497.652000000005
4.310309124879301 -1.5850937770812479 1.908079285526155 -1.8937799631148124 -1.5707981255349186 2.409853912687457 6497.702000000005
4.307692407867917 -1.5795824056537213 1.9029959683362623 -1.8942083009271602 -1.5707978530603446 2.457169196212559 6497.752000000005
4.305272935573303 -1.5744864742189444 1.8982958249687627 -1.894604351193659 -1.570797601124549 2.5009179153528995 6497.802000000005
4.303064759623969 -1.5698355785427345 1.894006152561421 -1.894965813763475 -1.570797371190705 2.540845989600708 6497.852000000005
4.301078880437664 -1.565652887881761 1.8901483208735153 -1.8952908879470984 -1.570797164404269 2.5767545102156166 6497.9020000000055
4.299322926041291 -1.5619544685088957 1.8867371483512607 -1.8955783250912193 -1.570796981559535 2.6085055477791244 6497.952000000006
4.297800830890834 -1.558748607238568 1.8837802781932318 -1.895827481153604 -1.5707968230661917 2.6360279597490566 6498.002000000006
4.2965125146912735 -1.5560351349521162 1.8812775544157838 -1.8960383692779716 -1.5707966889158782 2.659323198014027 6498.052000000006
4.295453561216506 -1.5538047501231402 1.8792203979184765 -1.8962117123688702 -1.57079657864874 2.6784711164479056 6498.102000000006
4.294614897129264 -1.5520383423428543 1.877591182549496 -1.8963489956665522 -1.5707964913199846 2.6936357784642837 6498.152000000006
4.29398247080104 -1.5507063158454417 1.876362611171078 -1.8964525193218518 -1.5707964254664384 2.7050712645709254 6498.202000000007
4.293536931131998 -1.5497679130334048 1.8754970917249296 -1.89652545097106 -1.5707963790731025 2.7131274799242444 6498.252000000007
4.293253306370901 -1.5491705380029184 1.8749461132976515 -1.8965718783108019 -1.570796349539708 2.718255961883763 6498.302000000007
4.293100682935027 -1.548849080069184 1.874649622186162 -1.896596861672912 -1.5707963336472728 2.721015687566574 6498.352000000007
4.29304188423009 -1.5487252372917815 1.8745353979631176 -1.896606486599311 -1.5707963275246573 2.7220788814017904 6498.402000000007
4.2930331494701575 -1.54870684000002 1.8745184295423378 -1.8966079164168819 -1.5707963266151206 2.7222368226850513 6498.4520000000075
4.2930331494701575 -1.5487068400000197 1.8745184295423378 -1.8966079164168819 -1.5707963266151206 2.7222368226850513 6498.502000000008
4.293033149408071 -1.5484923406050548 1.8748646125879476 -1.8971685988639604 -1.570796326608723 2.7222368226233526 6498.552000000008
4.2930331490208715 -1.5471546242579515 1.8770235684175323 -1.9006652710812093 -1.5707963265688247 2.722236822238571 6498.602000000008
4.293033148105164 -1.5439909887275693 1.8821293962604755 -1.9089347345504593 -1.5707963264744673 2.722236821328582 6498.652000000008
4.293033146572863 -1.5386971141500287 1.8906732414523368 -1.9227724544803775 -1.5707963263165738 2.7222368198058495 6498.702000000008
4.293033144431975 -1.5313006659675001 1.9026104544171567 -1.9421061158519937 -1.57079632609597 2.7222368176783323 6498.752000000009
4.293033141767385 -1.5220948978669953 1.9174677496497587 -1.9661691794642293 -1.570796325821402 2.7222368150303815 6498.802000000009
4.2930331387216265 -1.5115722547191561 1.934450364698056 -1.9936744379794233 -1.5707963255075572 2.722236812003644 6498.852000000009
4.293033135475676 -1.5003579755170444 1.9525492191453524 -2.0229875719688604 -1.570796325173084 2.7222368087779643 6498.902000000009
4.293033132229726 -1.489143696314933 1.970648073592649 -2.0523007059582974 -1.5707963248386108 2.7222368055522845 6498.952000000009
4.293033129183968 -1.4786210531670936 1.9876306886409458 -2.079805964473491 -1.570796324524766 2.722236802525547 6499.0020000000095
4.2930331265193775 -1.4694152850665887 2.0024879838735483 -2.103869028085727 -1.5707963242501979 2.7222367998775963 6499.05200000001
4.29303312437849 -1.46201883688406 2.014425196838368 -2.1232026894573433 -1.5707963240295941 2.722236797750079 6499.10200000001
4.293033122846189 -1.4567249623065195 2.0229690420302293 -2.1370404093872613 -1.5707963238717007 2.7222367962273464 6499.15200000001
4.293033121930481 -1.4535613267761374 2.0280748698731728 -2.145309872856511 -1.5707963237773432 2.7222367953173574 6499.20200000001
4.2930331215432815 -1.452223610429034 2.0302338257027572 -2.14880654507376 -1.570796323737445 2.722236794932576 6499.25200000001
4.293033121481195 -1.4520091110340692 2.030580008748367 -2.149367227520839 -1.5707963237310474 2.722236794870877 6499.302000000011
4.293033121481195 -1.4520091110340692 2.030580008748367 -2.149367227520839 -1.5707963237310474 2.722236794870877 6499.352000000011
4.293033121481195 -1.4520091110340692 2.030580008748367 -2.149367227520839 -1.5707963237310474 2.722236794870877 6499.402000000011
4.293033121481195 -1.4520091110340692 2.030580008748367 -2.149367227520839 -1.5707963237310474 2.722236794870877 6499.452000000011
4.293033121481195 -1.4520091110340692 2.030580008748367 -2.149367227520839 -1.5707963237310474 2.722236794870877 6499.502000000011
4.293033121481195 -1.4520091110340692 2.030580008748367 -2.149367227520839 -1.5707963237310474 2.722236794870877 6499.5520000000115
4.293033121481195 -1.4520091110340692 2.030580008748367 -2.149367227520839 -1.5707963237310474 2.722236794870877 6499.602000000012
4.293033121481195 -1.4520091110340692 2.030580008748367 -2.149367227520839 -1.5707963237310474 2.722236794870877 6499.652000000012
4.293033121481195 -1.4520091110340692 2.030580008748367 -2.149367227520839 -1.5707963237310474 2.722236794870877 6499.702000000012
4.293033121481195 -1.4520091110340692 2.030580008748367 -2.149367227520839 -1.5707963237310474 2.722236794870877 6499.752000000012
4.293033121481195 -1.4520091110340692 2.030580008748367 -2.149367227520839 -1.5707963237310474 2.722236794870877 6499.802000000012
4.293033121481195 -1.4520091110340692 2.030580008748367 -2.149367227520839 -1.5707963237310474 2.722236794870877 6499.852000000013
4.293033121481195 -1.4520091110340692 2.030580008748367 -2.149367227520839 -1.5707963237310474 2.722236794870877 6499.902000000013
4.293033121481195 -1.4520091110340692 2.030580008748367 -2.149367227520839 -1.5707963237310474 2.722236794870877 6499.952000000013
4.293033121481195 -1.4520091110340692 2.030580008748367 -2.149367227520839 -1.5707963237310474 2.722236794870877 6500.002000000013
4.2930331215432815 -1.452223610429034 2.0302338257027572 -2.1488065450737603 -1.570796323737445 2.722236794932576 6500.052000000013
4.293033121930481 -1.4535613267761374 2.0280748698731723 -2.1453098728565116 -1.5707963237773432 2.7222367953173574 6500.1020000000135
4.293033122846189 -1.4567249623065195 2.0229690420302293 -2.1370404093872613 -1.5707963238717007 2.7222367962273464 6500.152000000014
4.29303312437849 -1.46201883688406 2.014425196838368 -2.1232026894573433 -1.5707963240295941 2.722236797750079 6500.202000000014
4.2930331265193775 -1.4694152850665887 2.0024879838735483 -2.103869028085727 -1.5707963242501979 2.7222367998775963 6500.252000000014
4.293033129183968 -1.4786210531670936 1.987630688640946 -2.079805964473491 -1.570796324524766 2.722236802525547 6500.302000000014
4.293033132229726 -1.4891436963149327 1.9706480735926488 -2.0523007059582974 -1.5707963248386108 2.7222368055522845 6500.352000000014
4.293033135475676 -1.5003579755170444 1.9525492191453524 -2.0229875719688604 -1.570796325173084 2.7222368087779643 6500.402000000015
4.2930331387216265 -1.511572254719156 1.9344503646980558 -1.9936744379794233 -1.5707963255075572 2.722236812003644 6500.452000000015
4.293033141767385 -1.5220948978669953 1.917467749649759 -1.9661691794642295 -1.570796325821402 2.7222368150303815 6500.502000000015
4.293033144431975 -1.5313006659675001 1.9026104544171565 -1.9421061158519937 -1.57079632609597 2.7222368176783323 6500.552000000015
4.293033146572863 -1.5386971141500287 1.8906732414523368 -1.9227724544803775 -1.5707963263165738 2.7222368198058495 6500.602000000015
4.293033148105164 -1.5439909887275693 1.8821293962604755 -1.9089347345504595 -1.5707963264744673 2.722236821328582 6500.6520000000155
4.2930331490208715 -1.5471546242579515 1.8770235684175323 -1.9006652710812095 -1.5707963265688247 2.722236822238571 6500.702000000016
4.293033149408071 -1.5484923406050548 1.8748646125879476 -1.8971685988639606 -1.570796326608723 2.7222368226233526 6500.752000000016
4.2930331494701575 -1.5487068400000197 1.8745184295423378 -1.8966079164168819 -1.5707963266151206 2.7222368226850513 6500.802000000016
4.2930331494701575 -1.5487068400000197 1.8745184295423378 -1.8966079164168819 -1.5707963266151206 2.7222368226850513 6500.852000000016
4.292864639105686 -1.5486800519419135 1.8744876428646378 -1.8966039177971543 -1.5707963266153486 2.722068312320609 6500.902000000016
4.291733551906087 -1.5485002432415933 1.8742809943467607 -1.8965770779787012 -1.5707963266168785 2.720937225121201 6500.952000000017
4.288807437163939 -1.5480350793806994 1.8737463960639613 -1.8965076435544763 -1.5707963266208365 2.718011110379551 6501.002000000017
4.283389317948624 -1.5471737620794066 1.8727565110171482 -1.8963790758046617 -1.5707963266281653 2.7125929911651556 6501.052000000017
4.274910560907537 -1.5458258958101845 1.8712074504525875 -1.896177881502603 -1.570796326639634 2.704114234125508 6501.102000000017
4.262923746067311 -1.5439203543115598 1.8690174711816043 -1.895893443720744 -1.570796326655848 2.6921274192873175 6501.152000000017
4.24709553663504 -1.5414041471018765 1.8661256729002855 -1.8955178526365632 -1.570796326677258 2.6762992098577354 6501.2020000000175
4.2271995487995015 -1.5382412859930583 1.862490695509182 -1.8950457363385087 -1.5707963267041702 2.6564032220255753 6501.252000000018
4.2031092215323715 -1.53441165160437 1.8580894164330115 -1.894474091631933 -1.570796326736756 2.632312894762536 6501.302000000018
4.174790686389451 -1.5299098598761776 1.8529156479403601 -1.8938021148450288 -1.5707963267750609 2.603994359624424 6501.352000000018
4.142295637311885 -1.5247441285837116 1.8469788344633855 -1.8930310326347655 -1.5707963268190153 2.571499310552377 6501.402000000018
4.105754200427387 -1.5189351438508265 1.8403027499175193 -1.892163932792822 -1.570796326868443 2.5349578736740837 6501.452000000018
4.065367803851455 -1.5125149266637636 1.8329241950211685 -1.8912055950515243 -1.5707963269230716 2.4945714771050103 6501.502000000019
4.021402047488597 -1.505525699384912 1.8248916946154192 -1.8901623218897803 -1.5707963269825416 2.4506057207496195 6501.552000000019
3.9741795728335525 -1.4980187522665687 1.8162641949837381 -1.8890417693390145 -1.570796327046417 2.4033832461025937 6501.602000000019
3.924072932772509 -1.4900533099647022 1.807109761171675 -1.8878527777891043 -1.5707963271141936 2.3532766060500587 6501.652000000019
3.8714974613843274 -1.4816953980527123 1.797504274306566 -1.8866052027943143 -1.5707963271853098 2.300701134670806 6501.702000000019
3.816904143741764 -1.4730167095351918 1.7875301289172338 -1.8853097458792327 -1.5707963272591552 2.2461078170375135 6501.7520000000195
3.7607724857126885 -1.4640934713616884 1.777274930253693 -1.8839777853447064 -1.5707963273350816 2.18997615901797 6501.80200000002
3.7036033837613065 -1.4550053109404653 1.7668301916068505 -1.8826212070737758 -1.5707963274124113 2.1328070570762963 6501.85200000002
3.645911994749382 -1.4458341226522629 1.7562900316282084 -1.8812522353376107 -1.5707963274904473 2.075115668074169 6501.90200000002
3.5882206057374573 -1.4366629343640605 1.7457498716495663 -1.8798832636014453 -1.5707963275684833 2.017424279072042 6501.95200000002
3.5310515037860757 -1.4275747739428373 1.7353051330027238 -1.8785266853305147 -1.570796327645813 1.9602551771303682 6502.00200000002
3.4749198457569994 -1.418651535769334 1.7250499343391832 -1.8771947247959884 -1.5707963277217394 1.9041235191108248 6502.052000000021
3.420326528114437 -1.4099728472518134 1.7150757889498511 -1.8758992678809068 -1.5707963277955848 1.8495302014775326 6502.102000000021
3.3677510567262554 -1.4016149353398235 1.7054703020847417 -1.8746516928861168 -1.570796327866701 1.796954730098279 6502.152000000021
3.3176444166652117 -1.393649493037957 1.6963158682726787 -1.8734627013362064 -1.5707963279344777 1.7468480900457446 6502.202000000021
3.2704219420101666 -1.386142545919614 1.6876883686409976 -1.8723421487854408 -1.570796327998353 1.6996256153987193 6502.252000000021
3.22645618564731 -1.3791533186407618 1.6796558682352483 -1.8712988756236968 -1.570796328057823 1.655659859043328 6502.3020000000215
3.186069789071378 -1.3727331014536992 1.6722773133388977 -1.8703405378823992 -1.5707963281124515 1.6152734624742537 6502.352000000022
3.149528352186879 -1.3669241167208142 1.665601228793031 -1.8694734380404556 -1.5707963281618793 1.5787320255959614 6502.402000000022
3.117033303109314 -1.3617583854283482 1.659664415316057 -1.8687023558301923 -1.5707963282058337 1.5462369765239137 6502.452000000022
3.088714767966393 -1.357256593700156 1.6544906468234053 -1.8680303790432882 -1.5707963282441386 1.5179184413858025 6502.502000000022
3.064624440699262 -1.3534269593114674 1.650089367747235 -1.8674587343367124 -1.5707963282767243 1.4938281141227634 6502.552000000022
3.0447284528637235 -1.3502640982026493 1.6464543903561315 -1.8669866180386578 -1.5707963283036366 1.4739321262906033 6502.602000000023
3.028900243431454 -1.3477478909929659 1.6435625920748125 -1.8666110269544771 -1.5707963283250466 1.4581039168610204 6502.652000000023
3.016913428591228 -1.345842349494341 1.6413726128038295 -1.8663265891726182 -1.5707963283412605 1.4461171020228303 6502.702000000023
3.008434671550142 -1.3444944832251193 1.6398235522392688 -1.8661253948705594 -1.5707963283527293 1.4376383449831849 6502.752000000023
3.0030165523348247 -1.3436331659238263 1.6388336671924557 -1.8659968271207448 -1.5707963283600581 1.4322202257687842 6502.802000000023
3.000090437592678 -1.3431680020629326 1.6382990689096562 -1.8659273926965199 -1.570796328364016 1.4292941110271364 6502.8520000000235
2.9989593503930765 -1.3429881933626122 1.6380924203917788 -1.8659005528780668 -1.570796328365546 1.428163023827727 6502.902000000024
2.998790840028607 -1.342961405304506 1.638061633714079 -1.8658965542583392 -1.570796328365774 1.427994513463286 6502.952000000024
2.9987908400286063 -1.342961405304506 1.638061633714079 -1.8658965542583392 -1.570796328365774 1.427994513463287 6503.002000000024
2.9987908375813794 -1.3427405478580317 1.6384527923103132 -1.8665085704197473 -1.570796328244215 1.427994511023567 6503.052000000024
2.998790822446168 -1.3413746244778415 1.640871966671366 -1.870293668895103 -1.570796327492416 1.4279944959347812 6503.102000000024
2.998790787031869 -1.338178552981371 1.6465324995625137 -1.8791502750004434 -1.5707963257333106 1.4279944606291126 6503.152000000025
2.998790728518931 -1.3328978742722388 1.6558850611537157 -1.8937835181388678 -1.5707963228268453 1.4279944022956577 6503.202000000025
2.998790647991797 -1.3256304572336688 1.6687563167642183 -1.9139221946937996 -1.570796318826887 1.4279943220155333 6503.252000000025
2.998790549571351 -1.3167482036219098 1.6844875946071576 -1.9385357309222473 -1.570796313938129 1.427994223896983 6503.302000000025
2.998790439547363 -1.306818752959659 1.7020735535341616 -1.9660511458480658 -1.5707963084729977 1.4279941142104835 6503.352000000025
2.9987903255109356 -1.296527187429481 1.7203008507799544 -1.994570014155218 -1.5707963028085596 1.4279940005238523 6503.4020000000255
2.9987902154869475 -1.2865977367672303 1.7378868097069584 -2.0220854290810366 -1.5707962973434284 1.4279938908373528 6503.452000000026
2.9987901170665014 -1.2777154831554716 1.7536180875498977 -2.046698965309484 -1.5707962924546703 1.4279937927188024 6503.502000000026
2.9987900365393676 -1.2704480661169013 1.7664893431604003 -2.066837641864416 -1.570796288454712 1.4279937124386781 6503.552000000026
2.9987899780264295 -1.265167387407769 1.7758419047516023 -2.0814708850028403 -1.5707962855482467 1.4279936541052232 6503.602000000026
2.9987899426121305 -1.2619713159112986 1.7815024376427502 -2.090327491108181 -1.5707962837891414 1.4279936187995546 6503.652000000026
2.998789927476919 -1.2606053925311085 1.7839216120038028 -2.0941125895835366 -1.5707962830373423 1.4279936037107688 6503.702000000027
2.9987899250296923 -1.260384535084634 1.784312770600037 -2.0947246057449442 -1.5707962829157833 1.4279936012710488 6503.752000000027
2.9987899250296923 -1.260384535084634 1.784312770600037 -2.0947246057449442 -1.5707962829157833 1.4279936012710488 6503.802000000027
2.9987899250296923 -1.260384535084634 1.784312770600037 -2.0947246057449442 -1.5707962829157833 1.4279936012710488 6503.852000000027
2.9987899250296923 -1.260384535084634 1.784312770600037 -2.0947246057449442 -1.5707962829157833 1.4279936012710488 6503.902000000027
2.9987899250296923 -1.260384535084634 1.784312770600037 -2.0947246057449442 -1.5707962829157833 1.4279936012710488 6503.9520000000275
2.9987899250296923 -1.260384535084634 1.784312770600037 -2.0947246057449442 -1.5707962829157833 1.4279936012710488 6504.002000000028
2.9987899250296923 -1.260384535084634 1.784312770600037 -2.0947246057449447 -1.5707962829157833 1.4279936012710488 6504.052000000028
2.998789927476919 -1.2606053925311085 1.7839216120038028 -2.0941125895835366 -1.5707962830373423 1.4279936037107688 6504.102000000028
2.9987899426121305 -1.2619713159112986 1.78150243764275 -2.0903274911081806 -1.5707962837891414 1.4279936187995546 6504.152000000028
2.9987899780264295 -1.2651673874077691 1.7758419047516023 -2.0814708850028403 -1.5707962855482467 1.4279936541052232 6504.202000000028
2.9987900365393676 -1.2704480661169013 1.7664893431604003 -2.066837641864416 -1.570796288454712 1.4279937124386781 6504.252000000029
2.9987901170665014 -1.2777154831554713 1.7536180875498977 -2.0466989653094845 -1.5707962924546703 1.4279937927188024 6504.302000000029
2.9987902154869475 -1.2865977367672303 1.7378868097069584 -2.0220854290810366 -1.5707962973434284 1.4279938908373528 6504.352000000029
2.9987903255109356 -1.296527187429481 1.7203008507799544 -1.994570014155218 -1.5707963028085596 1.4279940005238523 6504.402000000029
2.998790439547363 -1.306818752959659 1.7020735535341616 -1.9660511458480658 -1.5707963084729977 1.4279941142104835 6504.452000000029
2.998790549571351 -1.3167482036219098 1.6844875946071576 -1.9385357309222475 -1.570796313938129 1.427994223896983 6504.5020000000295
2.998790647991797 -1.3256304572336686 1.6687563167642183 -1.9139221946937996 -1.570796318826887 1.4279943220155333 6504.55200000003
2.998790728518931 -1.3328978742722388 1.6558850611537157 -1.893783518138868 -1.5707963228268453 1.4279944022956577 6504.60200000003
2.998790787031869 -1.338178552981371 1.6465324995625137 -1.8791502750004436 -1.5707963257333106 1.4279944606291126 6504.65200000003
2.998790822446168 -1.3413746244778415 1.6408719666713658 -1.8702936688951028 -1.570796327492416 1.4279944959347812 6504.70200000003
2.9987908375813794 -1.3427405478580314 1.6384527923103132 -1.8665085704197473 -1.570796328244215 1.427994511023567 6504.75200000003
2.9987908400286063 -1.342961405304506 1.638061633714079 -1.8658965542583394 -1.570796328365774 1.427994513463287 6504.802000000031
2.9987908400286063 -1.342961405304506 1.638061633714079 -1.8658965542583394 -1.570796328365774 1.427994513463287 6504.852000000031
2.9987908400286063 -1.342961405304506 1.638061633714079 -1.8658965542583394 -1.570796328365774 1.427994513463287 6504.902000000031
2.9987908400286063 -1.342961405304506 1.638061633714079 -1.8658965542583394 -1.570796328365774 1.427994513463287 6504.952000000031
2.9987908400286063 -1.342961405304506 1.638061633714079 -1.8658965542583394 -1.570796328365774 1.427994513463287 6505.002000000031
2.9987908400286063 -1.342961405304506 1.638061633714079 -1.8658965542583394 -1.570796328365774 1.427994513463287 6505.0520000000315
2.9987908400286063 -1.342961405304506 1.638061633714079 -1.8658965542583394 -1.570796328365774 1.427994513463287 6505.102000000032
2.9987908400286063 -1.342961405304506 1.638061633714079 -1.8658965542583394 -1.570796328365774 1.427994513463287 6505.152000000032
2.9987908400286063 -1.342961405304506 1.638061633714079 -1.8658965542583394 -1.570796328365774 1.427994513463287 6505.202000000032
2.9987908400286063 -1.342961405304506 1.638061633714079 -1.8658965542583394 -1.570796328365774 1.427994513463287 6505.252000000032
2.9987908400286063 -1.342961405304506 1.638061633714079 -1.8658965542583394 -1.570796328365774 1.427994513463287 6505.302000000032
2.9987908400286063 -1.342961405304506 1.638061633714079 -1.8658965542583394 -1.570796328365774 1.427994513463287 6505.352000000033
2.9987908400286063 -1.342961405304506 1.638061633714079 -1.8658965542583394 -1.570796328365774 1.427994513463287 6505.402000000033
2.9987908400286063 -1.342961405304506 1.638061633714079 -1.8658965542583394 -1.570796328365774 1.427994513463287 6505.452000000033
2.9987908400286063 -1.342961405304506 1.638061633714079 -1.8658965542583394 -1.570796328365774 1.427994513463287 6505.502000000033
2.9987908400286063 -1.342961405304506 1.638061633714079 -1.8658965542583394 -1.570796328365774 1.427994513463287 6505.552000000033
2.9987908400286063 -1.342961405304506 1.638061633714079 -1.8658965542583394 -1.570796328365774 1.427994513463287 6505.6020000000335
2.9987908400286063 -1.342961405304506 1.638061633714079 -1.8658965542583394 -1.570796328365774 1.427994513463287 6505.652000000034
2.9987908400286063 -1.342961405304506 1.638061633714079 -1.8658965542583394 -1.570796328365774 1.427994513463287 6505.702000000034
2.9987908400286063 -1.342961405304506 1.638061633714079 -1.8658965542583394 -1.570796328365774 1.427994513463287 6505.752000000034
2.9987908400286063 -1.342961405304506 1.638061633714079 -1.8658965542583394 -1.570796328365774 1.427994513463287 6505.802000000034
2.9987908400286063 -1.342961405304506 1.638061633714079 -1.8658965542583394 -1.570796328365774 1.427994513463287 6505.852000000034
2.9987908400286063 -1.342961405304506 1.638061633714079 -1.8658965542583394 -1.570796328365774 1.427994513463287 6505.902000000035
2.9987908400286063 -1.342961405304506 1.638061633714079 -1.8658965542583392 -1.570796328365774 1.427994513463287 6505.952000000035
2.99899844189963 -1.3428107938692904 1.6378302245929695 -1.865815756572745 -1.5707963283653206 1.4282021153342435 6506.002000000035
3.0003730868506455 -1.34181351360412 1.6362979388848324 -1.8652807511317617 -1.5707963283623183 1.4295767602848133 6506.052000000035
3.003872643027089 -1.3392746483436442 1.632397062582173 -1.863918740094628 -1.5707963283546753 1.4330763164601221 6506.102000000035
3.010240701812168 -1.3346547358716183 1.625298731149213 -1.861440321142883 -1.5707963283407673 1.4394443752431367 6506.1520000000355
3.020021883309879 -1.3275586640673973 1.6143958688453397 -1.8576335306573448 -1.570796328319405 1.4492255567376768 6506.202000000036
3.0335771418280224 -1.3177245670524262 1.5992861280485542 -1.8523578868950903 -1.5707963282898003 1.4627808152514261 6506.252000000036
3.0510990713612203 -1.3050127213367348 1.579754828578921 -1.8455384331664322 -1.5707963282515323 1.4803027447789436 6506.302000000036
3.072627211073931 -1.2893944419654284 1.5557578970220158 -1.8371597810118985 -1.5707963282045145 1.5018308844846755 6506.352000000036
3.098063350783467 -1.2709409786651809 1.527404806052376 -1.82726015337921 -1.5707963281489616 1.5272670241859656 6506.402000000036
3.12718683644301 -1.2498124119907266 1.4949415137569473 -1.8159254278002603 -1.5707963280853556 1.5563905098360673 6506.452000000037
3.159669875624628 -1.2262465494713535 1.4587334029585342 -1.803283179568093 -1.5707963280144122 1.5888735490071548 6506.502000000037
3.195092843002291 -1.2005478217573948 1.4192482205392485 -1.7894967249138807 -1.570796327937048 1.6242965163733345 6506.552000000037
3.232959585834888 -1.1730761787667223 1.3770390167639575 -1.7747591641839031 -1.5707963278543466 1.6621632591936555 6506.602000000037
3.2727127294492417 -1.1442359858312379 1.3327270846037333 -1.7592874250165267 -1.5707963277675252 1.7019164027951224 6506.652000000037
3.313748982723128 -1.114464919843366 1.286984899059302 -1.7433163055191818 -1.5707963276779016 1.7429526560557054 6506.7020000000375
3.355434443568288 -1.0842228654025468 1.2405190564844912 -1.727092517445342 -1.57079632758686 1.784638116887352 6506.752000000038
3.397119904413448 -1.0539808109617272 1.1940532139096804 -1.710868729371502 -1.5707963274958183 1.8263235777189983 6506.802000000038
3.4381561576873345 -1.0242097449738554 1.148311028365249 -1.694897609874157 -1.5707963274061947 1.8673598309795816 6506.852000000038
3.477909301301689 -0.9953695520383711 1.103999096205025 -1.6794258707067806 -1.5707963273193732 1.9071129745810482 6506.902000000038
3.5157760441342853 -0.9678979090476987 1.0617898924297338 -1.664688309976803 -1.5707963272366718 1.9449797174013692 6506.952000000038
3.5511990115119483 -0.9421991813337403 1.022304710010448 -1.6509018553225907 -1.5707963271593077 1.980402684767549 6507.002000000039
3.5836820506935663 -0.9186333188143669 0.9860965992120347 -1.6382596070904234 -1.5707963270883643 2.0128857239386364 6507.052000000039
3.6128055363531097 -0.8975047521399127 0.9536333069166063 -1.6269248815114739 -1.5707963270247582 2.042009209588738 6507.102000000039
3.6382416760626453 -0.8790512888396649 0.9252802159469664 -1.6170252538787853 -1.5707963269692053 2.067445349290028 6507.152000000039
3.659769815775357 -0.8634330094683584 0.9012832843900611 -1.6086466017242513 -1.5707963269221876 2.0889734889957605 6507.202000000039
3.6772917453085543 -0.8507211637526677 0.8817519849204274 -1.6018271479955934 -1.5707963268839196 2.1064954185232776 6507.2520000000395
3.6908470038266974 -0.8408870667376964 0.8666422441236419 -1.596551504233339 -1.5707963268543148 2.1200506770370273 6507.30200000004
3.70062818532441 -0.833790994933475 0.8557393818197694 -1.5927447137478008 -1.5707963268329526 2.129831858531567 6507.35200000004
3.7069962441094875 -0.8291710824614491 0.8486410503868091 -1.5902662947960555 -1.5707963268190446 2.136199917314582 6507.40200000004
3.7104958002859325 -0.8266322172009739 0.8447401740841487 -1.5889042837589218 -1.5707963268114016 2.13969947348989 6507.45200000004
3.711870445236946 -0.8256349369358034 0.8432078883760132 -1.5883692783179384 -1.5707963268083993 2.1410741184404607 6507.50200000004
3.712078047107971 -0.8254843255005884 0.8429764792549026 -1.5882884806323443 -1.570796326807946 2.141281720311416 6507.552000000041
      6507.602000000041
