Andreas691667/Digital_Twin_UR/src/dt/dt_trajectories/busterTest2_dt_trajectory.csv
actual_q_0 actual_q_1 actual_q_2 actual_q_3 actual_q_4 actual_q_5 timestamp
3.71207804710797 -0.8254843255005873 0.8429764792549035 -1.5882884806323445 -1.570796326807946 2.141281720311417 6706.544
3.71207804710797 -0.8254843255005873 0.8429764792549035 -1.5882884806323445 -1.570796326807946 2.141281720311417 6706.594
3.71207804710797 -0.8254843255005873 0.8429764792549035 -1.5882884806323445 -1.570796326807946 2.141281720311417 6706.644
3.71207804710797 -0.8254843255005873 0.8429764792549035 -1.5882884806323445 -1.570796326807946 2.141281720311417 6706.694
3.71207804710797 -0.8254843255005873 0.8429764792549035 -1.5882884806323445 -1.570796326807946 2.141281720311417 6706.744000000001
3.71207804710797 -0.8254843255005873 0.8429764792549035 -1.5882884806323445 -1.570796326807946 2.141281720311417 6706.794000000001
3.71207804710797 -0.8254843255005873 0.8429764792549035 -1.5882884806323445 -1.570796326807946 2.141281720311417 6706.844000000001
3.71207804710797 -0.8254843255005873 0.8429764792549035 -1.5882884806323445 -1.570796326807946 2.141281720311417 6706.894000000001
3.71207804710797 -0.8254843255005873 0.8429764792549035 -1.5882884806323445 -1.570796326807946 2.141281720311417 6706.944000000001
3.71207804710797 -0.8254843255005873 0.8429764792549035 -1.5882884806323445 -1.570796326807946 2.141281720311417 6706.9940000000015
3.71207804710797 -0.8254843255005873 0.8429764792549035 -1.5882884806323445 -1.570796326807946 2.141281720311417 6707.044000000002
3.71207804710797 -0.8254843255005873 0.8429764792549035 -1.5882884806323445 -1.570796326807946 2.141281720311417 6707.094000000002
3.71207804710797 -0.8254843255005873 0.8429764792549035 -1.5882884806323445 -1.570796326807946 2.141281720311417 6707.144000000002
3.7122689791773014 -0.8255822011483995 0.8431247541871719 -1.5883388799190803 -1.5707963268548544 2.1411975678393773 6707.194000000002
3.713544740040671 -0.8262361820191524 0.8441154906112279 -1.5886756354876148 -1.5707963271682845 2.1406352818349363 6707.244000000002
3.7168275167322813 -0.8279189998738993 0.8466648449093596 -1.589542171970193 -1.5707963279748003 2.1391884124079175 6707.294000000003
3.7228710753776704 -0.8310170505030092 0.8513581803555411 -1.591137456859419 -1.5707963294595875 2.1365247404448637 6707.344000000003
3.732270668305987 -0.835835472312677 0.8586577608276864 -1.593618615634119 -1.5707963317688887 2.1323819110927604 6707.394000000003
3.7454729411622654 -0.8426032249114345 0.8689104445199027 -1.5971035468852008 -1.5707963350124359 2.126563067242757 6707.444000000003
3.762785840019699 -0.8514781676966612 0.8823553776547448 -1.601673537441516 -1.5707963392658857 2.118932483013891 6707.494000000003
3.784388518491916 -0.8625521384410955 0.8991316881954681 -1.6073758774957212 -1.5707963445732527 2.109411197236808 6707.5440000000035
3.810341244845251 -0.8758560318793451 0.9192861795582831 -1.6142264757301383 -1.5707963509493437 2.0979726469374858 6707.594000000004
3.840595309111022 -0.8913648782943985 0.9427810243246088 -1.6222124744426163 -1.5707963583821913 2.0846383008209557 6707.644000000004
3.8750029301978044 -0.9090029221041348 0.9695014579533265 -1.631294864672393 -1.5707963668354892 2.069473292755027 6707.694000000004
3.913327163003703 -0.9286487004478358 0.9992634724930336 -1.6414111013259551 -1.5707963762510238 2.0525820552540046 6707.744000000004
3.955251805528629 -0.9501401217726961 1.0318215102942974 -1.6524777183029 -1.5707963865511108 2.0341039529624183 6707.794000000004
4.000391305986574 -0.9732795444203346 1.0668761577219086 -1.664392943621797 -1.5707963976410269 2.014208916138738 6707.844000000005
4.048300669917882 -0.9978388552133042 1.1040818388671358 -1.6770393145460483 -1.570796409411446 1.9930930741391024 6707.894000000005
4.098485367301527 -1.023564548041604 1.143054509259978 -1.6902862927097497 -1.570796421740871 1.970974388901036 6707.944000000005
4.150411239667386 -1.0501828024491897 1.18337934958142 -1.7039928792435532 -1.5707964344980696 1.9480882884271746 6707.994000000005
4.203514407208509 -1.077404562220484 1.2246184593756846 -1.7180102299005264 -1.5707964475445073 1.9246833002689874 6708.044000000005
4.257211175893402 -1.104930613966888 1.2663185507624877 -1.7321842701820154 -1.5707964607367817 1.9010166850104984 6708.0940000000055
4.310907944578295 -1.132456665713292 1.3080186421492905 -1.7463583104635043 -1.5707964739290559 1.8773500697520094 6708.144000000006
4.364011112119418 -1.1596784254845862 1.3492577519435551 -1.7603756611204775 -1.5707964869754936 1.8539450815938223 6708.194000000006
4.415936984485277 -1.186296679892172 1.3895825922649974 -1.774082247654281 -1.5707964997326922 1.8310589811199607 6708.244000000006
4.4661216818689216 -1.2120223727204718 1.4285552626578395 -1.7873292258179825 -1.5707965120621172 1.808940295881894 6708.294000000006
4.5140310458002295 -1.2365816835134416 1.4657609438030668 -1.7999755967422335 -1.5707965238325363 1.7878244538822583 6708.344000000006
4.559170546258174 -1.2597211061610796 1.5008155912306775 -1.8118908220611303 -1.5707965349224524 1.7679294170585786 6708.394000000007
4.6010951887831 -1.2812125274859398 1.533373629031941 -1.8229574390380754 -1.5707965452225394 1.7494513147669921 6708.444000000007
4.6394194215889994 -1.300858305829641 1.5631356435716484 -1.8330736756916375 -1.570796554638074 1.7325600772659702 6708.494000000007
4.673827042675781 -1.3184963496393776 1.5898560772003665 -1.8421560659214142 -1.5707965630913718 1.7173950692000408 6708.544000000007
4.704081106941552 -1.3340051960544304 1.6133509219666915 -1.850142064633892 -1.5707965705242195 1.7040607230835114 6708.594000000007
4.730033833294889 -1.3473090894926805 1.6335054133295075 -1.8569926628683096 -1.5707965769003105 1.6926221727841884 6708.6440000000075
4.751636511767105 -1.3583830602371147 1.6502817238702299 -1.8626950029225142 -1.5707965822076775 1.683100887007106 6708.694000000008
4.768949410624538 -1.367258003022341 1.6637266570050717 -1.8672649934788295 -1.5707965864611273 1.6754703027782398 6708.744000000008
4.782151683480817 -1.3740257556210984 1.6739793406972883 -1.8707499247299113 -1.5707965897046745 1.6696514589282365 6708.794000000008
4.791551276409134 -1.3788441774307665 1.681278921169434 -1.8732310835046113 -1.5707965920139757 1.665508629576133 6708.844000000008
4.7975948350545226 -1.381942228059876 1.6859722566156154 -1.8748263683938375 -1.5707965934987629 1.662844957613079 6708.894000000008
4.800877611746131 -1.383625045914623 1.6885216109137464 -1.8756929048764155 -1.5707965943052786 1.6613980881860604 6708.944000000009
4.802153372609503 -1.384279026785376 1.689512347337803 -1.8760296604449502 -1.5707965946187088 1.6608358021816192 6708.994000000009
4.802344304678834 -1.3843769024331887 1.689660622270071 -1.8760800597316858 -1.5707965946656173 1.6607516497095798 6709.044000000009
4.802344304678834 -1.384376902433189 1.6896606222700719 -1.8760800597316862 -1.5707965946656173 1.6607516497095798 6709.094000000009
4.802344307386492 -1.384147745783343 1.6900552203559738 -1.8767038144324433 -1.5707965939491735 1.6607516524209287 6709.144000000009
4.802344324132375 -1.3827304948337065 1.6924956667159023 -1.8805615115256038 -1.5707965895182276 1.66075166918964 6709.1940000000095
4.802344363315421 -1.3794143239348313 1.6982059731377366 -1.8895879883399567 -1.5707965791504284 1.6607517084261019 6709.24400000001
4.802344428055237 -1.3739352121312087 1.7076407725712601 -1.9045018987404798 -1.5707965620203306 1.6607517732541726 6709.29400000001
4.802344517151974 -1.366394705944188 1.720625206189633 -1.9250268373944897 -1.5707965384454132 1.6607518624723678 6709.34400000001
4.802344626046208 -1.3571786821548983 1.736494810450864 -1.9501124640377867 -1.5707965096320957 1.660751971515049 6709.39400000001
4.80234474777882 -1.3468761105871672 1.7542354041592816 -1.978155627740803 -1.5707964774217549 1.6607520934136086 6709.44400000001
4.8023448739508705 -1.3361978168904423 1.7726229755270069 -2.0072214911747506 -1.5707964440367426 1.660752219757659 6709.494000000011
4.802344995683482 -1.325895245322711 1.7903635692354243 -2.035264654877767 -1.5707964118264017 1.6607523416562187 6709.544000000011
4.802345104577716 -1.3166792215334213 1.8062331734966552 -2.060350281521064 -1.5707963830130842 1.6607524506988998 6709.594000000011
4.802345193674453 -1.3091387153464007 1.8192176071150283 -2.0808752201750735 -1.5707963594381669 1.660752539917095 6709.644000000011
4.802345258414269 -1.3036596035427779 1.8286524065485519 -2.0957891305755973 -1.570796342308069 1.6607526047451657 6709.694000000011
4.8023452975973155 -1.3003434326439027 1.8343627129703863 -2.1048156073899498 -1.5707963319402698 1.6607526439816276 6709.7440000000115
4.8023453143431984 -1.2989261816942663 1.8368031593303147 -2.1086733044831103 -1.570796327509324 1.660752660750339 6709.794000000012
4.8023453170508565 -1.2986970250444205 1.8371977574162166 -2.1092970591838673 -1.5707963267928802 1.6607526634616878 6709.844000000012
4.8023453170508565 -1.2986970250444205 1.8371977574162166 -2.1092970591838673 -1.5707963267928802 1.6607526634616878 6709.894000000012
4.8023453170508565 -1.2986970250444205 1.8371977574162166 -2.1092970591838673 -1.5707963267928802 1.6607526634616878 6709.944000000012
4.8023453170508565 -1.2986970250444205 1.8371977574162166 -2.1092970591838673 -1.5707963267928802 1.6607526634616878 6709.994000000012
4.8023453170508565 -1.2986970250444205 1.8371977574162166 -2.1092970591838673 -1.5707963267928802 1.6607526634616878 6710.044000000013
4.8023453170508565 -1.2986970250444205 1.8371977574162166 -2.1092970591838673 -1.5707963267928802 1.6607526634616878 6710.094000000013
4.8023453170508565 -1.2986970250444205 1.8371977574162166 -2.1092970591838673 -1.5707963267928802 1.6607526634616878 6710.144000000013
4.8023453170508565 -1.2986970250444205 1.8371977574162166 -2.1092970591838673 -1.5707963267928802 1.6607526634616878 6710.194000000013
4.8023453170508565 -1.2986970250444205 1.8371977574162166 -2.1092970591838673 -1.5707963267928802 1.6607526634616878 6710.244000000013
4.8023453170508565 -1.2986970250444205 1.8371977574162166 -2.1092970591838673 -1.5707963267928802 1.6607526634616878 6710.2940000000135
4.8023453170508565 -1.2986970250444205 1.8371977574162166 -2.1092970591838673 -1.5707963267928802 1.6607526634616878 6710.344000000014
4.8023453170508565 -1.2986970250444205 1.8371977574162166 -2.1092970591838673 -1.5707963267928802 1.6607526634616878 6710.394000000014
4.8023453170508565 -1.2986970250444205 1.8371977574162166 -2.1092970591838673 -1.5707963267928802 1.6607526634616878 6710.444000000014
4.8023453170508565 -1.2986970250444205 1.8371977574162166 -2.1092970591838673 -1.5707963267928802 1.6607526634616878 6710.494000000014
4.8023453170508565 -1.2986970250444205 1.8371977574162166 -2.1092970591838673 -1.5707963267928802 1.6607526634616878 6710.544000000014
4.8023453143431984 -1.2989261816942663 1.8368031593303147 -2.1086733044831103 -1.570796327509324 1.660752660750339 6710.594000000015
4.8023452975973155 -1.300343432643903 1.8343627129703861 -2.1048156073899498 -1.5707963319402698 1.6607526439816276 6710.644000000015
4.802345258414269 -1.303659603542778 1.8286524065485519 -2.095789130575597 -1.570796342308069 1.6607526047451657 6710.694000000015
4.802345193674453 -1.3091387153464007 1.8192176071150283 -2.0808752201750735 -1.5707963594381669 1.660752539917095 6710.744000000015
4.802345104577716 -1.3166792215334213 1.8062331734966555 -2.060350281521064 -1.5707963830130842 1.6607524506988998 6710.794000000015
4.802344995683482 -1.325895245322711 1.7903635692354245 -2.035264654877767 -1.5707964118264017 1.6607523416562187 6710.8440000000155
4.8023448739508705 -1.3361978168904423 1.7726229755270069 -2.0072214911747506 -1.5707964440367426 1.660752219757659 6710.894000000016
4.80234474777882 -1.3468761105871672 1.7542354041592816 -1.978155627740803 -1.5707964774217549 1.6607520934136086 6710.944000000016
4.802344626046208 -1.3571786821548981 1.7364948104508642 -1.9501124640377867 -1.5707965096320957 1.660751971515049 6710.994000000016
4.802344517151974 -1.366394705944188 1.7206252061896332 -1.9250268373944899 -1.5707965384454132 1.6607518624723678 6711.044000000016
4.802344428055237 -1.3739352121312087 1.7076407725712601 -1.90450189874048 -1.5707965620203306 1.6607517732541726 6711.094000000016
4.802344363315421 -1.3794143239348315 1.6982059731377366 -1.8895879883399564 -1.5707965791504284 1.6607517084261019 6711.144000000017
4.802344324132375 -1.3827304948337067 1.6924956667159021 -1.8805615115256038 -1.5707965895182276 1.66075166918964 6711.194000000017
4.802344307386492 -1.384147745783343 1.6900552203559738 -1.876703814432443 -1.5707965939491735 1.6607516524209287 6711.244000000017
4.802344304678834 -1.384376902433189 1.6896606222700719 -1.8760800597316862 -1.5707965946656173 1.6607516497095798 6711.294000000017
4.802344304678834 -1.384376902433189 1.6896606222700719 -1.8760800597316862 -1.5707965946656173 1.6607516497095798 6711.344000000017
4.802212309909164 -1.384373871400779 1.6896568459491903 -1.8760793144421866 -1.570796594646128 1.6607346151579627 6711.3940000000175
4.801319584917722 -1.3843533715098446 1.689631305421826 -1.876074273798804 -1.5707965945143145 1.6606194047599698 6711.444000000018
4.798989611424414 -1.3842998676839735 1.6895646457535802 -1.8760611179382838 -1.5707965941702873 1.6603187106200612 6711.494000000018
4.7946343172108 -1.384199855858134 1.6894400424187244 -1.8760365263953482 -1.5707965935272155 1.6597566392268146 6711.544000000018
4.787750312457899 -1.3840417765526598 1.6892430936232345 -1.8759976568517203 -1.5707965925107725 1.6588682257344527 6711.594000000018
4.77791512608398 -1.383815928447232 1.688961712627827 -1.8759421238851444 -1.570796591058579 1.6575989482443698 6711.644000000018
4.764783442082378 -1.383514381954864 1.688586020070994 -1.8758679777184097 -1.5707965891196483 1.6559042420866585 6711.694000000019
4.748083335859287 -1.3831308927958859 1.6881082362920383 -1.8757736829683724 -1.5707965866538296 1.6537490141016378 6711.744000000019
4.727612510571563 -1.3826608155719262 1.6875225736541093 -1.8756580973949766 -1.5707965836312534 1.6511071569213778 6711.794000000019
4.703234533464529 -1.382101017339898 1.686825128867238 -1.8755204506502783 -1.5707965800317751 1.647961063251229 6711.844000000019
4.674875072209772 -1.3814497911859813 1.686013775311372 -1.8753603230274662 -1.5707965758444193 1.6443011401513474 6711.894000000019
4.642518131242952 -1.3807067697996072 1.6850880553594116 -1.8751776242098848 -1.5707965710668241 1.6401253233182225 6711.9440000000195
4.606202288101599 -1.3798728390474417 1.6840490727002448 -1.8749725720200563 -1.5707965657046858 1.6354385913662033 6711.99400000002
4.566016929762916 -1.3789500515473696 1.6828993846617821 -1.874745671168703 -1.5707965597712024 1.6302524801090263 6712.04400000002
4.522098488981579 -1.3779415402424784 1.6816428945339927 -1.874497692003769 -1.5707965532865187 1.6245845968413415 6712.09400000002
4.474626680627545 -1.3768514319750413 1.6802847438919395 -1.8742296492594435 -1.5707965462771698 1.6184581346202391 6712.14400000002
4.4238207380238475 -1.3756847610605023 1.678831204918814 -1.8739427808051814 -1.5707965387755267 1.6119013865467775 6712.19400000002
4.369935649284402 -1.374447382861459 1.6772895727289723 -1.873638526394727 -1.5707965308192389 1.6049472600475096 6712.244000000021
4.3132583936518065 -1.3731458873616467 1.6756680576909702 -1.8733185064151359 -1.5707965224506795 1.597632791156009 6712.294000000021
4.254104177835144 -1.371787512739922 1.673975677750598 -1.8729845006357966 -1.5707965137163897 1.5899986587943984 6712.344000000021
4.192812672347786 -1.3703800589442472 1.672222150753917 -1.8726384269574534 -1.570796504666523 1.5820886990548748 6712.394000000021
4.129744247845192 -1.3689318012656735 1.6704177867702936 -1.8722823201612282 -1.5707964953542892 1.5739494194812382 6712.444000000021
4.065276211462712 -1.3674514039123251 1.668573380415436 -1.871918310657643 -1.5707964858353987 1.5656295133504166 6712.4940000000215
3.9997990431533905 -1.365947833583383 1.6667001031744273 -1.8715486032356417 -1.570796476167507 1.5571793739539947 6712.544000000022
3.933712632025766 -1.3644302730430682 1.6648093957247636 -1.8711754558116132 -1.5707964664096588 1.5486506088797394 6712.594000000022
3.867422512681674 -1.3629080346946267 1.6629128602593872 -1.8708011581784123 -1.5707964566217325 1.5400955542931274 6712.644000000022
3.8013361015540488 -1.361390474154312 1.6610221528097235 -1.8704280107543838 -1.5707964468638842 1.531566789218872 6712.694000000022
4.375356197357178 -1.7220546207823695 2.0344470183001917 -1.8831454716124476 -1.570813004170553 1.2338110208511353 6713.094
4.375921572638308 -1.7215538202215164 2.0339561559542942 -1.8831554911414914 -1.5708129751302966 1.2343763077866974 6713.144
4.3794733111045065 -1.7184077459674023 2.030872514462138 -1.8832184347258778 -1.570812792696789 1.2379274912580767 6713.194
4.387950943254465 -1.7108983923095655 2.0235121813459376 -1.8833686745477867 -1.5708123572468862 1.246403798692836 6713.244000000001
4.402292122905428 -1.6981952001959284 2.011061079712459 -1.8836228276224436 -1.5708116206184062 1.2607427373903932 6713.294000000001
4.4225867620672705 -1.6802185269776617 1.9934411473938578 -1.8839824873622675 -1.5708105781930577 1.2810342053109662 6713.344000000001
4.4482311658165585 -1.657503116154048 1.9711765160885177 -1.8844369551410174 -1.5708092609793685 1.3066746018645192 6713.394000000001
4.478082167170621 -1.6310615671173465 1.9452596905018884 -1.8849659718579381 -1.5708077276956158 1.336520938699707 6713.444000000001
4.510611261961617 -1.6022478048976563 1.9170177274873237 -1.8855424495019082 -1.570806056852754 1.369044950492821 6713.4940000000015
4.5440587437106 -1.5726205499077803 1.8879784151869203 -1.886135202715586 -1.5708043388373438 1.402487205736735 6713.544000000002
4.576587838501596 -1.54380678768809 1.8597364521723556 -1.886711680359556 -1.570802667994482 1.4350112175298488 6713.594000000002
4.606438839855658 -1.5173652386513887 1.8338196265857263 -1.8872406970764768 -1.5708011347107294 1.4648575543650366 6713.644000000002
4.632083243604947 -1.4946498278277751 1.8115549952803862 -1.8876951648552267 -1.5707998174970401 1.4904979509185898 6713.694000000002
4.652377882766789 -1.4766731546095084 1.7939350629617852 -1.8880548245950506 -1.5707987750716916 1.5107894188391626 6713.744000000002
4.666719062417752 -1.4639699624958713 1.7814839613283067 -1.8883089776697075 -1.5707980384432116 1.52512835753672 6713.794000000003
4.67519669456771 -1.456460608838034 1.774123628212106 -1.8884592174916164 -1.5707976029933088 1.5336046649714796 6713.844000000003
4.678748433033909 -1.4533145345839205 1.7710399867199498 -1.8885221610760028 -1.5707974205598012 1.5371558484428585 6713.894000000003
4.679313808315039 -1.4528137340230671 1.7705491243740523 -1.8885321806050466 -1.5707973915195448 1.5377211353784208 6713.944000000003
4.679313808315039 -1.4528137340230671 1.7705491243740523 -1.8885321806050466 -1.5707973915195448 1.5377211353784208 6713.994000000003
4.679313805721838 -1.4525715252642073 1.7709515278660957 -1.8891767916170832 -1.5707973886716573 1.537721132836989 6714.0440000000035
4.679313789683828 -1.4510735517437556 1.7734402478383051 -1.893163477447803 -1.5707973710585041 1.5377211171191536 6714.094000000004
4.679313752157106 -1.4475685012111865 1.7792635078258228 -1.9024917700400081 -1.5707973298461655 1.5377210803415962 6714.144000000004
4.679313690153936 -1.441777314830591 1.7888849337131296 -1.9179043526867392 -1.5707972617534711 1.5377210195762268 6714.194000000004
4.679313604823449 -1.4338073229234727 1.8021262078523486 -1.939115577967596 -1.57079716804241 1.5377209359492339 6714.244000000004
4.6793135005323325 -1.424066380711545 1.8183097231815455 -1.9650399856850573 -1.5707970535085378 1.5377208337401334 6714.294000000004
4.679313383945535 -1.4131770040595288 1.8364012373430307 -1.9940208208008015 -1.5707969254713885 1.5377207194808173 6714.344000000005
4.6793132631069625 -1.4018905052179493 1.8551525268016624 -2.024058551372027 -1.5707967927648818 1.5377206010546045 6714.394000000005
4.679313146520165 -1.3910011285659332 1.8732440409631477 -2.053039386487771 -1.5707966647277325 1.5377204867952885 6714.444000000005
4.679313042229049 -1.3812601863540055 1.8894275562923444 -2.078963794205232 -1.5707965501938603 1.537720384586188 6714.494000000005
4.679312956898562 -1.3732901944468872 1.9026688304315633 -2.1001750194860893 -1.5707964564827992 1.537720300959195 6714.544000000005
4.679312894895392 -1.3674990080662917 1.9122902563188706 -2.11558760213282 -1.5707963883901048 1.5377202401938257 6714.5940000000055
4.67931285736867 -1.3639939575337225 1.918113516306388 -2.1249158947250253 -1.5707963471777662 1.5377202034162682 6714.644000000006
4.67931284133066 -1.3624959840132709 1.9206022362785973 -2.1289025805557453 -1.570796329564613 1.5377201876984328 6714.694000000006
4.6793128387374585 -1.362253775254411 1.9210046397706408 -2.1295471915677817 -1.5707963267167255 1.537720185157001 6714.744000000006
4.6793128387374585 -1.362253775254411 1.9210046397706408 -2.1295471915677817 -1.5707963267167255 1.537720185157001 6714.794000000006
4.6793128387374585 -1.362253775254411 1.9210046397706408 -2.1295471915677817 -1.5707963267167255 1.537720185157001 6714.844000000006
4.6793128387374585 -1.362253775254411 1.9210046397706408 -2.1295471915677817 -1.5707963267167255 1.537720185157001 6714.894000000007
4.6793128387374585 -1.362253775254411 1.9210046397706408 -2.1295471915677817 -1.5707963267167255 1.537720185157001 6714.944000000007
4.6793128387374585 -1.362253775254411 1.9210046397706408 -2.1295471915677817 -1.5707963267167255 1.537720185157001 6714.994000000007
4.6793128387374585 -1.362253775254411 1.9210046397706408 -2.1295471915677817 -1.5707963267167255 1.537720185157001 6715.044000000007
4.6793128387374585 -1.362253775254411 1.9210046397706408 -2.1295471915677817 -1.5707963267167255 1.537720185157001 6715.094000000007
4.6793128387374585 -1.362253775254411 1.9210046397706408 -2.1295471915677817 -1.5707963267167255 1.537720185157001 6715.1440000000075
4.6793128387374585 -1.362253775254411 1.9210046397706408 -2.1295471915677817 -1.5707963267167255 1.537720185157001 6715.194000000008
4.6793128387374585 -1.362253775254411 1.9210046397706408 -2.1295471915677817 -1.5707963267167255 1.537720185157001 6715.244000000008
4.6793128387374585 -1.362253775254411 1.9210046397706408 -2.1295471915677817 -1.5707963267167255 1.537720185157001 6715.294000000008
4.6793128387374585 -1.362253775254411 1.9210046397706408 -2.1295471915677817 -1.5707963267167255 1.537720185157001 6715.344000000008
4.6793128387374585 -1.362253775254411 1.9210046397706408 -2.1295471915677817 -1.5707963267167255 1.537720185157001 6715.394000000008
4.6793128387374585 -1.362253775254411 1.9210046397706408 -2.1295471915677817 -1.5707963267167255 1.537720185157001 6715.444000000009
4.67931284133066 -1.3624959840132709 1.9206022362785975 -2.128902580555745 -1.570796329564613 1.5377201876984328 6715.494000000009
4.67931285736867 -1.3639939575337225 1.918113516306388 -2.1249158947250253 -1.5707963471777662 1.5377202034162682 6715.544000000009
4.679312894895392 -1.3674990080662917 1.9122902563188704 -2.11558760213282 -1.5707963883901048 1.5377202401938257 6715.594000000009
4.679312956898562 -1.3732901944468872 1.9026688304315635 -2.100175019486089 -1.5707964564827992 1.537720300959195 6715.644000000009
4.679313042229049 -1.3812601863540055 1.8894275562923446 -2.0789637942052326 -1.5707965501938603 1.537720384586188 6715.6940000000095
4.679313146520165 -1.3910011285659332 1.8732440409631477 -2.053039386487771 -1.5707966647277325 1.5377204867952885 6715.74400000001
4.6793132631069625 -1.4018905052179493 1.8551525268016624 -2.024058551372027 -1.5707967927648818 1.5377206010546045 6715.79400000001
4.679313383945535 -1.4131770040595288 1.8364012373430307 -1.9940208208008015 -1.5707969254713885 1.5377207194808173 6715.84400000001
4.6793135005323325 -1.4240663807115448 1.8183097231815455 -1.9650399856850571 -1.5707970535085378 1.5377208337401334 6715.89400000001
4.679313604823449 -1.4338073229234727 1.8021262078523488 -1.9391155779675961 -1.57079716804241 1.5377209359492339 6715.94400000001
4.679313690153936 -1.441777314830591 1.7888849337131298 -1.9179043526867392 -1.5707972617534711 1.5377210195762268 6715.994000000011
4.679313752157106 -1.4475685012111865 1.7792635078258225 -1.9024917700400081 -1.5707973298461655 1.5377210803415962 6716.044000000011
4.679313789683828 -1.4510735517437556 1.7734402478383051 -1.8931634774478028 -1.5707973710585041 1.5377211171191536 6716.094000000011
4.679313805721838 -1.4525715252642075 1.7709515278660959 -1.889176791617083 -1.5707973886716573 1.537721132836989 6716.144000000011
4.679313808315039 -1.4528137340230671 1.7705491243740523 -1.8885321806050466 -1.5707973915195448 1.5377211353784208 6716.194000000011
4.679313808315039 -1.4528137340230671 1.7705491243740523 -1.8885321806050466 -1.5707973915195448 1.5377211353784208 6716.2440000000115
4.679175303241186 -1.452804680231367 1.7705382050411869 -1.888530315025606 -1.570797391431922 1.5377120919472038 6716.294000000012
4.678239892766243 -1.4527435343732507 1.7704644600291277 -1.8885177156131665 -1.5707973908401507 1.5376510160598424 6716.344000000012
4.675802587789584 -1.4525842127617428 1.7702723100696065 -1.8884848865916144 -1.5707973892982319 1.537491876764092 6716.394000000012
4.671254777467377 -1.4522869317582143 1.7699137740728024 -1.888423630341571 -1.5707973864211384 1.537194935946749 6716.444000000012
4.664079945734504 -1.4518179277702334 1.7693481314305213 -1.8883269897045367 -1.5707973818821053 1.536726468651916 6716.494000000012
4.653849387826482 -1.4511491772494165 1.7685415843193755 -1.8881891902870374 -1.5707973754099198 1.5360584833992663 6716.544000000013
4.640217926801385 -1.45025811668928 1.7674669200039654 -1.888005582764768 -1.570797366786212 1.5351684425023087 6716.594000000013
4.622919630061759 -1.449127362623092 1.7661031731400583 -1.887772585186739 -1.570797355842744 1.5340389823866518 6716.644000000013
4.6017635258765495 -1.4477444316217218 1.7644352880777687 -1.8874876252794213 -1.5707973424587007 1.5326576339082703 6716.694000000013
4.576629319903017 -1.4461014602914937 1.7624537811647394 -1.8871490827508903 -1.5707973265579804 1.5310165426717683 6716.744000000013
4.547463111708656 -1.444194925272036 1.7601544030493201 -1.8867562315949724 -1.5707973081064834 1.5291121893486455 6716.7940000000135
4.514273111293121 -1.4420253632341342 1.7575378009837492 -1.8863091823953895 -1.5707972871094042 1.5269451099955607 6716.844000000014
4.4771253556101405 -1.4395970908775806 1.7546091811273326 -1.885808824629904 -1.5707972636085195 1.5245196163725974 6716.894000000014
4.436139425089443 -1.4369179249290265 1.7513779708496247 -1.8852567689744646 -1.5707972376794799 1.5218435162615287 6716.944000000014
4.3914841601586705 -1.4339989021398338 1.747857481033608 -1.88465528960735 -1.5707972094290994 1.5189278337840824 6716.994000000014
4.343373377765305 -1.4308539992839258 1.744064568378874 -1.8840072665133163 -1.5707971789926456 1.5157865297202044 6717.044000000014
4.292061587898585 -1.427499853155638 1.740019297704802 -1.8833161277877395 -1.5707971465311297 1.5124362218263259 6717.094000000015
4.2378397101114285 -1.4239554805675705 1.7357446042537408 -1.8825857919407631 -1.5707971122285973 1.508895905153626 6717.144000000015
4.1810307900423505 -1.4202419983484385 1.7312659559941874 -1.8818206102014412 -1.5707970762894172 1.5051866723662972 6717.194000000015
4.1219857159373845 -1.4163823433409235 1.726611015923969 -1.8810253088218853 -1.570797038935573 1.5013314340598116 6717.244000000015
4.061078935172003 -1.4124009923995255 1.7218093043734208 -1.8802049313814082 -1.5707970004039522 1.497354639079184 6717.294000000015
3.998704170773037 -1.4083236823884135 1.716891861308568 -1.8793647810906695 -1.570796960943637 1.4932819948372373 6717.3440000000155
3.9352701379405968 -1.4041771301792767 1.7118909086343048 -1.878510363095821 -1.570796920813194 1.4891401876328678 6717.394000000016
3.8711962605699926 -1.3999887526491763 1.7068395124975762 -1.8776473267826521 -1.5707968802779644 1.4849566029693093 6717.444000000016
3.8069083877736536 -1.3957863866783968 1.7017712455905551 -1.8767814080807337 -1.5707968396073544 1.4807590458723985 6717.494000000016
3.74283451040305 -1.3915980091482965 1.6967198494538265 -1.8759183717675647 -1.5707967990721248 1.47657546120884 6717.544000000016
3.6794004775706095 -1.3874514569391596 1.6917188967795633 -1.8750639537727163 -1.5707967589416818 1.4724336540044705 6717.594000000016
3.6170257131716435 -1.3833741469280476 1.6868014537147107 -1.8742238034819776 -1.5707967194813666 1.4683610097625237 6717.644000000017
3.556118932406261 -1.3793927959866497 1.6819997421641624 -1.8734034260415005 -1.5707966809497458 1.4643842147818962 6717.694000000017
3.4970738583012957 -1.3755331409791347 1.6773448020939439 -1.8726081246619446 -1.5707966435959015 1.4605289764754106 6717.744000000017
3.4402649382322172 -1.3718196587600024 1.6728661538343905 -1.8718429429226227 -1.5707966076567215 1.4568197436880819 6717.794000000017
3.3860430604450613 -1.3682752861719352 1.6685914603833294 -1.8711126070756463 -1.570796573354189 1.453279427015382 6717.844000000017
3.334731270578342 -1.3649211400436472 1.6645461897092573 -1.8704214683500695 -1.5707965408926732 1.4499291191215034 6717.8940000000175
3.286620488184976 -1.3617762371877393 1.6607532770545232 -1.8697734452560357 -1.5707965104562194 1.4467878150576254 6717.944000000018
3.241965223254203 -1.3588572143985467 1.6572327872385064 -1.8691719658889212 -1.570796482205839 1.443872132580179 6717.994000000018
3.2009792927335043 -1.3561780484499928 1.6540015769607987 -1.8686199102334817 -1.5707964562767993 1.4411960324691104 6718.044000000018
3.163831537050526 -1.353749776093439 1.651072957104382 -1.8681195524679963 -1.5707964327759145 1.4387705388461471 6718.094000000018
3.1306415366349905 -1.351580214055537 1.6484563550388112 -1.8676725032684134 -1.5707964117788353 1.4366034594930621 6718.144000000018
3.101475328440629 -1.3496736790360795 1.646156976923392 -1.8672796521124955 -1.5707963933273383 1.4346991061699392 6718.194000000019
3.076341122467098 -1.3480307077058513 1.6441754700103623 -1.8669411095839645 -1.570796377426618 1.4330580149334375 6718.244000000019
3.055185018281887 -1.346647776704481 1.6425075849480728 -1.8666561496766467 -1.5707963640425748 1.431676666455056 6718.294000000019
3.0378867215422636 -1.345517022638293 1.6411438380841659 -1.8664231520986179 -1.5707963530991067 1.4305472063393991 6718.344000000019
3.024255260517166 -1.3446259620781567 1.6400691737687558 -1.8662395445763484 -1.570796344475399 1.4296571654424413 6718.394000000019
3.0140247026091425 -1.3439572115573397 1.63926262665761 -1.866101745158849 -1.5707963380032135 1.4289891801897916 6718.4440000000195
3.006849870876274 -1.3434882075693588 1.638696984015329 -1.866005104521815 -1.5707963334641803 1.4285207128949589 6718.49400000002
3.0023020605540642 -1.3431909265658302 1.6383384480185246 -1.8659438482717714 -1.570796330587087 1.428223772077616 6718.54400000002
4.375401973724365 -1.72214998821401 2.0344346205340784 -1.8831292591490687 -1.5707967917071741 1.2338066101074219 6718.844
4.375974748276831 -1.72143995697588 2.033761117481711 -1.8831656296348722 -1.5707967901891708 1.2343793935081562 6718.894
4.379483155501389 -1.7170908134694294 2.0296357195140216 -1.8833884092164792 -1.5707967808909686 1.2378878549308776 6718.944
4.38759072057889 -1.7070403940759435 2.0201023528456608 -1.8839032297148453 -1.570796759403788 1.2459955452547122 6718.994000000001
4.400786715621351 -1.6906821800840355 2.004585701657408 -1.884741159312604 -1.5707967244309289 1.259191744149991 6719.044000000001
4.418621010285716 -1.668574168708181 1.9836150565029458 -1.8858736152817326 -1.5707966771653554 1.2770263143200093 6719.094000000001
4.439938922387631 -1.642147744107253 1.9585481627156347 -1.8872272767112148 -1.570796620667279 1.2983445557427855 6719.144000000001
4.463116068515204 -1.6134165484030554 1.9312950688152863 -1.888698997234706 -1.5707965592417434 1.3215220599128203 6719.194000000001
4.486293214642775 -1.5846853526988576 1.904041974914938 -1.890170717758197 -1.570796497816208 1.3446995640828552 6719.2440000000015
4.50761112674469 -1.5582589280979295 1.878975081127627 -1.8915243791876792 -1.5707964413181315 1.3660178055056313 6719.294000000002
4.525445421409056 -1.536150916722075 1.858004435973165 -1.8926568351568078 -1.570796394052558 1.3838523756756498 6719.344000000002
4.538641416451516 -1.5197927027301668 1.8424877847849124 -1.8934947647545666 -1.570796359079699 1.3970485745709285 6719.394000000002
4.546748981529017 -1.509742283336681 1.8329544181165511 -1.8940095852529326 -1.5707963375925182 1.4051562648947629 6719.444000000002
4.550257388753575 -1.5053931398302307 1.8288290201488615 -1.8942323648345396 -1.570796328294316 1.4086647263174845 6719.494000000002
4.550830163306041 -1.5046831085921006 1.8281555170964943 -1.8942687353203431 -1.5707963267763128 1.4092375097182188 6719.544000000003
4.550830163306041 -1.5046831085921004 1.8281555170964943 -1.8942687353203431 -1.5707963267763128 1.4092375097182188 6719.594000000003
4.550830163288899 -1.5044317259580535 1.8285655109525163 -1.8949301118132962 -1.570796326774864 1.4092375097011915 6719.644000000003
4.55083016318288 -1.5028770153395092 1.8311011745790515 -1.8990204860762125 -1.570796326765904 1.409237509595885 6719.694000000003
4.550830162934811 -1.4992392078568542 1.8370342762148681 -1.9085913952364206 -1.5707963267449385 1.4092375093494816 6719.744000000003
4.550830162524941 -1.4932286750690886 1.8468371869200806 -1.9244048387983568 -1.5707963267102987 1.4092375089423639 6719.7940000000035
4.550830161960867 -1.484956812530443 1.8603282255177218 -1.9461677400295456 -1.5707963266626261 1.4092375083820772 6719.844000000004
4.550830161271455 -1.4748469233469939 1.8768170035353173 -1.97276640734658 -1.570796326604361 1.4092375076972936 6719.894000000004
4.550830160500762 -1.4635451017332777 1.8952497701464592 -2.0025009957011024 -1.5707963265392262 1.4092375069317757 6719.944000000004
4.550830159701963 -1.4518311165689088 1.9143547571123785 -2.033319967965784 -1.5707963264717162 1.4092375061383402 6719.994000000004
4.55083015893127 -1.4405292949551927 1.9327875237235201 -2.0630545563203064 -1.5707963264065814 1.4092375053728223 6720.044000000004
4.550830158241858 -1.4304194057717434 1.9492763017411157 -2.089653223637341 -1.5707963263483162 1.4092375046880388 6720.094000000005
4.550830157677784 -1.4221475432330979 1.9627673403387569 -2.1114161248685295 -1.5707963263006437 1.409237504127752 6720.144000000005
4.550830157267915 -1.4161370104453324 1.9725702510439698 -2.127229568430466 -1.5707963262660039 1.4092375037206344 6720.194000000005
4.5508301570198455 -1.4124992029626768 1.9785033526797864 -2.136800477590674 -1.5707963262450384 1.409237503474231 6720.244000000005
4.550830156913826 -1.410944492344133 1.9810390163063214 -2.1408908518535905 -1.5707963262360785 1.4092375033689244 6720.294000000005
4.5508301568966845 -1.410693109710086 1.9814490101623434 -2.1415522283465434 -1.5707963262346296 1.4092375033518971 6720.3440000000055
4.5508301568966845 -1.410693109710086 1.9814490101623434 -2.1415522283465434 -1.5707963262346296 1.4092375033518971 6720.394000000006
4.5508301568966845 -1.410693109710086 1.9814490101623434 -2.1415522283465434 -1.5707963262346296 1.4092375033518971 6720.444000000006
4.5508301568966845 -1.410693109710086 1.9814490101623434 -2.1415522283465434 -1.5707963262346296 1.4092375033518971 6720.494000000006
4.5508301568966845 -1.410693109710086 1.9814490101623434 -2.1415522283465434 -1.5707963262346296 1.4092375033518971 6720.544000000006
4.5508301568966845 -1.410693109710086 1.9814490101623434 -2.1415522283465434 -1.5707963262346296 1.4092375033518971 6720.594000000006
4.5508301568966845 -1.410693109710086 1.9814490101623434 -2.1415522283465434 -1.5707963262346296 1.4092375033518971 6720.644000000007
4.5508301568966845 -1.410693109710086 1.9814490101623434 -2.1415522283465434 -1.5707963262346296 1.4092375033518971 6720.694000000007
4.5508301568966845 -1.410693109710086 1.9814490101623434 -2.1415522283465434 -1.5707963262346296 1.4092375033518971 6720.744000000007
4.5508301568966845 -1.410693109710086 1.9814490101623434 -2.1415522283465434 -1.5707963262346296 1.4092375033518971 6720.794000000007
4.5508301568966845 -1.410693109710086 1.9814490101623434 -2.1415522283465434 -1.5707963262346296 1.4092375033518971 6720.844000000007
4.5508301568966845 -1.410693109710086 1.9814490101623434 -2.1415522283465434 -1.5707963262346296 1.4092375033518971 6720.8940000000075
4.5508301568966845 -1.410693109710086 1.9814490101623434 -2.1415522283465434 -1.5707963262346296 1.4092375033518971 6720.944000000008
4.5508301568966845 -1.410693109710086 1.9814490101623434 -2.1415522283465434 -1.5707963262346296 1.4092375033518971 6720.994000000008
4.5508301568966845 -1.410693109710086 1.9814490101623434 -2.1415522283465434 -1.5707963262346296 1.4092375033518971 6721.044000000008
4.550830156913826 -1.410944492344133 1.9810390163063214 -2.1408908518535905 -1.5707963262360785 1.4092375033689244 6721.094000000008
4.5508301570198455 -1.4124992029626773 1.9785033526797862 -2.136800477590674 -1.5707963262450384 1.409237503474231 6721.144000000008
4.550830157267915 -1.4161370104453324 1.9725702510439695 -2.1272295684304656 -1.5707963262660039 1.4092375037206344 6721.194000000009
4.550830157677784 -1.4221475432330979 1.962767340338757 -2.1114161248685295 -1.5707963263006437 1.409237504127752 6721.244000000009
4.550830158241858 -1.4304194057717434 1.9492763017411159 -2.089653223637341 -1.5707963263483162 1.4092375046880388 6721.294000000009
4.55083015893127 -1.4405292949551927 1.9327875237235204 -2.0630545563203064 -1.5707963264065814 1.4092375053728223 6721.344000000009
4.550830159701963 -1.4518311165689088 1.9143547571123785 -2.033319967965784 -1.5707963264717162 1.4092375061383402 6721.394000000009
4.550830160500762 -1.4635451017332777 1.8952497701464592 -2.0025009957011024 -1.5707963265392262 1.4092375069317757 6721.4440000000095
4.550830161271455 -1.4748469233469939 1.8768170035353176 -1.97276640734658 -1.570796326604361 1.4092375076972936 6721.49400000001
4.550830161960867 -1.484956812530443 1.860328225517722 -1.9461677400295456 -1.5707963266626261 1.4092375083820772 6721.54400000001
4.550830162524941 -1.4932286750690884 1.8468371869200808 -1.924404838798357 -1.5707963267102987 1.4092375089423639 6721.59400000001
4.550830162934811 -1.4992392078568542 1.837034276214868 -1.9085913952364204 -1.5707963267449385 1.4092375093494816 6721.64400000001
4.55083016318288 -1.5028770153395095 1.8311011745790513 -1.8990204860762123 -1.570796326765904 1.409237509595885 6721.69400000001
4.550830163288899 -1.5044317259580535 1.8285655109525163 -1.894930111813296 -1.570796326774864 1.4092375097011915 6721.744000000011
4.550830163306041 -1.5046831085921004 1.8281555170964943 -1.8942687353203431 -1.5707963267763128 1.4092375097182188 6721.794000000011
4.550830163306041 -1.5046831085921004 1.8281555170964943 -1.8942687353203431 -1.5707963267763128 1.4092375097182188 6721.844000000011
4.550685404657931 -1.5046680248150421 1.8281377870472875 -1.8942660890481045 -1.570796326776461 1.4092392591832381 6721.894000000011
4.549709287030792 -1.5045663138577858 1.828018232092978 -1.894248245050443 -1.5707963267774607 1.4092510559474782 6721.944000000011
4.547170539351987 -1.5043017776487633 1.8277072861021426 -1.894201835267048 -1.5707963267800606 1.4092817377085682 6721.9940000000115
4.542442647870774 -1.503809133775742 1.8271282136273703 -1.8941154066623507 -1.5707963267849026 1.4093388761308294 6722.044000000012
4.534998983724738 -1.503033507780741 1.8262165131292627 -1.8939793321546055 -1.5707963267925256 1.4094288357305444 6722.094000000012
4.524407930506207 -1.5019299254549443 1.8249193202004335 -1.893785721544973 -1.570796326803372 1.4095568327612285 6722.144000000012
4.510328011828679 -1.5004628051336162 1.823194810789507 -1.8935283324466003 -1.5707963268177916 1.409726994098898 6722.194000000012
4.492503018893244 -1.4986054499910155 1.8210116044251183 -1.8932024812137043 -1.5707963268360463 1.4099424161273424 6722.244000000012
4.470757138055012 -1.4963395403353106 1.8183481674399125 -1.892804953870652 -1.5707963268583165 1.4102052236233928 6722.294000000013
4.444990078389525 -1.4936546259034933 1.8151922161945435 -1.8923339170410434 -1.5707963268847047 1.4105166286421937 6722.344000000013
4.415172199259192 -1.490547618156294 1.811540120301675 -1.8917888288767923 -1.5707963269152416 1.4108769894024717 6722.394000000013
4.38133963787971 -1.4870222825730963 1.8073963058499773 -1.891170349987209 -1.57079632694989 1.4112858691718067 6722.444000000013
4.343589436886479 -1.4830887309468512 1.8027726586281299 -1.8904802543680819 -1.5707963269885503 1.4117420951519009 6722.494000000013
4.3020746719010345 -1.478762913678992 1.7976879273488175 -1.8897213403307582 -1.570796327031066 1.4122438173638505 6722.5440000000135
4.256999579097468 -1.4740661120743486 1.7921671268727326 -1.8888973414312271 -1.570796327077228 1.4127885675334149 6722.594000000014
4.20861468276885 -1.4690244306360625 1.7862409414325724 -1.8880128373992011 -1.5707963271267795 1.4133733179762864 6722.644000000014
4.1572119228936515 -1.4636682893605013 1.77994512785704 -1.8870731650671972 -1.5707963271794216 1.4139945404833618 6722.694000000014
4.103119782702168 -1.4580319160321729 1.7733199187948423 -1.8860843292996194 -1.570796327234818 1.414648265206011 6722.744000000014
4.046698416242949 -1.4521528385186402 1.7664094259386904 -1.8850529139218402 -1.5707963272925998 1.4153301395413485 6722.794000000014
3.988334775949209 -1.4460713770654365 1.7592610432492988 -1.8839859926492817 -1.5707963273523706 1.4160354870175025 6722.844000000015
3.9284377402052626 -1.439830136590979 1.7519248501793847 -1.8828910400164993 -1.570796327413712 1.4167593661788858 6722.894000000015
3.867433240912941 -1.4334734989814835 1.7444530148976671 -1.8817758423062612 -1.5707963274761874 1.417496629471465 6722.944000000015
3.805759391058017 -1.4270471153858801 1.7368991975128671 -1.8806484084786312 -1.5707963275393482 1.418241982128032 6722.994000000015
3.7438616122766306 -1.4205973985107263 1.729317953297706 -1.879516881100051 -1.5707963276027386 1.4189900410534737 6723.044000000015
3.682187762421707 -1.414171014915123 1.7217641359129061 -1.8783894472724212 -1.5707963276658994 1.4197353937100408 6723.0940000000155
3.621183263129385 -1.4078143773056275 1.7142923006311885 -1.877274249562183 -1.5707963277283747 1.42047265700262 6723.144000000016
3.5612862273854393 -1.40157313683117 1.7069561075612745 -1.8761792969294007 -1.5707963277897161 1.4211965361640033 6723.194000000016
3.5029225870916987 -1.3954916753779663 1.6998077248718828 -1.8751123756568422 -1.570796327849487 1.4219018836401573 6723.244000000016
3.446501220632479 -1.3896125978644336 1.692897232015731 -1.874080960279063 -1.5707963279072688 1.4225837579754947 6723.294000000016
3.3924090804409968 -1.3839762245361051 1.6862720229535333 -1.873092124511485 -1.570796327962665 1.423237482698144 6723.344000000016
3.341006320565797 -1.378620083260544 1.6799762093780006 -1.8721524521794812 -1.5707963280153072 1.4238587052052194 6723.394000000017
3.2926214242371783 -1.3735784018222579 1.6740500239378406 -1.8712679481474552 -1.5707963280648587 1.424443455648091 6723.444000000017
3.247546331433613 -1.3688816002176145 1.6685292234617557 -1.8704439492479241 -1.5707963281110207 1.4249882058176553 6723.494000000017
3.2060315664481696 -1.3645557829497552 1.6634444921824436 -1.8696850352106005 -1.5707963281535364 1.425489928029605 6723.544000000017
3.1682813654549378 -1.3606222313235101 1.6588208449605957 -1.8689949395914733 -1.5707963281921968 1.4259461540096992 6723.594000000017
3.134448804075454 -1.3570968957403124 1.6546770305088983 -1.86837646070189 -1.5707963282268451 1.426355033779034 6723.6440000000175
3.1046309249451243 -1.3539898879931132 1.6510249346160297 -1.867831372537639 -1.570796328257382 1.426715394539312 6723.694000000018
3.0788638652796365 -1.3513049735612959 1.6478689833706608 -1.8673603357080304 -1.5707963282837702 1.427026799558113 6723.744000000018
3.057117984441402 -1.349039063905591 1.645205546385455 -1.866962808364978 -1.5707963283060404 1.4272896070541634 6723.794000000018
3.0392929915059694 -1.3471817087629903 1.6430223400210662 -1.866636957132082 -1.5707963283242952 1.427505029082608 6723.844000000018
3.025213072828442 -1.3457145884416621 1.6412978306101398 -1.8663795680337094 -1.5707963283387147 1.4276751904202774 6723.894000000018
3.014622019609912 -1.3446110061158654 1.6400006376813105 -1.866185957424077 -1.5707963283495612 1.4278031874509614 6723.944000000019
3.007178355463874 -1.3438353801208642 1.639088937183203 -1.8660498829163317 -1.5707963283571842 1.4278931470506764 6723.994000000019
3.0024504639826644 -1.3433427362478434 1.638509864708431 -1.8659634543116344 -1.570796328362026 1.4279502854729376 6724.044000000019
4.375371932983398 -1.7220713100829066 2.034491840993063 -1.8832141361632289 -1.5707767645465296 1.2337874174118042 6724.294
4.375554842399995 -1.7213245725291415 2.033797702499636 -1.8832667462260093 -1.570776843629077 1.2339702939294335 6724.344
4.376662656861207 -1.7168018602697956 2.029593563229988 -1.8835853858534157 -1.5707773226027206 1.2350779091338098 6724.394
4.379185247023075 -1.7065032499430197 2.0200203713895983 -1.8843109560796771 -1.5707784132674878 1.2376000455704823 6724.444
4.383217662415878 -1.69004069671741 2.004717415436246 -1.885470795911435 -1.570780156718906 1.2416317356736624 6724.494000000001
4.388547869472073 -1.6682798390630211 1.9844893595795006 -1.8870039183338734 -1.5707824612823365 1.2469609840131868 6724.544000000001
4.394744489554252 -1.6429818035223764 1.9609732792802077 -1.8887862463168508 -1.5707851404473077 1.253156489541482 6724.594000000001
4.401244536983083 -1.616445009481482 1.9363056967499805 -1.8906558488210299 -1.5707879508018479 1.259655367840528 6724.644000000001
4.407441157065262 -1.5911469739408373 1.9127896164506875 -1.8924381768040073 -1.570790629966819 1.2658508733688232 6724.694000000001
4.412771364121457 -1.5693861162864482 1.8925615605939419 -1.8939712992264457 -1.5707929345302496 1.2711801217083476 6724.7440000000015
4.416803779514259 -1.5529235630608387 1.87725860464059 -1.8951311390582035 -1.5707946779816677 1.2752118118115277 6724.794000000002
4.419326369676128 -1.542624952734063 1.8676854128002003 -1.8958567092844647 -1.5707957686464349 1.2777339482482002 6724.844000000002
4.420434184137339 -1.5381022404747169 1.8634812735305522 -1.8961753489118713 -1.5707962476200785 1.2788415634525765 6724.894000000002
4.420617093553936 -1.5373555029209518 1.8627871350371255 -1.8962279589746518 -1.570796326702626 1.2790244399702058 6724.944000000002
4.420617093553936 -1.5373555029209518 1.8627871350371255 -1.8962279589746518 -1.570796326702626 1.2790244399702058 6724.994000000002
4.420617093508544 -1.5370986896781664 1.8632025402836998 -1.8969001774701757 -1.5707963266981555 1.2790244399251052 6725.044000000003
4.420617093227808 -1.5355103927098617 1.8657716714024684 -1.9010576055953725 -1.5707963266705074 1.2790244396461745 6725.094000000003
4.420617092570923 -1.5317939978212822 1.8717830823340607 -1.910785411504748 -1.5707963266058145 1.2790244389935155 6725.144000000003
4.4206170914855925 -1.5256536197400903 1.881715378827853 -1.926858086227118 -1.5707963264989264 1.2790244379151656 6725.194000000003
4.42061708999193 -1.5172030604941085 1.8953844817494696 -1.9489777485975532 -1.5707963263518239 1.2790244364311107 6725.244000000003
4.420617088166373 -1.5068747677890606 1.9120908903882836 -1.9760124501893226 -1.570796326172035 1.2790244346172954 6725.2940000000035
4.420617086125587 -1.4953287933863155 1.9307669457649166 -2.0062344802458356 -1.5707963259710493 1.2790244325896354 6725.344000000004
4.420617084010376 -1.4833617514806283 1.950124093938739 -2.037558670612587 -1.570796325762734 1.2790244304880294 6725.394000000004
4.420617081969589 -1.4718157770778832 1.968800149315372 -2.0677807006691 -1.5707963255617483 1.2790244284603693 6725.444000000004
4.420617080144032 -1.4614874843728356 1.985506557954186 -2.094815402260869 -1.5707963253819595 1.279024426646554 6725.494000000004
4.42061707865037 -1.4530369251268536 1.9991756608758027 -2.1169350646313045 -1.570796325234857 1.2790244251624991 6725.544000000004
4.420617077565039 -1.4468965470456616 2.0091079573695954 -2.133007739353675 -1.5707963251279689 1.2790244240841493 6725.594000000005
4.4206170769081545 -1.4431801521570822 2.015119368301187 -2.1427355452630503 -1.570796325063276 1.2790244234314903 6725.644000000005
4.420617076627418 -1.4415918551887774 2.0176884994199558 -2.1468929733882476 -1.5707963250356278 1.2790244231525596 6725.694000000005
4.420617076582026 -1.441335041945992 2.01810390466653 -2.147565191883771 -1.5707963250311574 1.279024423107459 6725.744000000005
4.420617076582026 -1.441335041945992 2.01810390466653 -2.147565191883771 -1.5707963250311574 1.279024423107459 6725.794000000005
4.420617076582026 -1.441335041945992 2.01810390466653 -2.147565191883771 -1.5707963250311574 1.279024423107459 6725.8440000000055
4.420617076582026 -1.441335041945992 2.01810390466653 -2.147565191883771 -1.5707963250311574 1.279024423107459 6725.894000000006
4.420617076582026 -1.441335041945992 2.01810390466653 -2.147565191883771 -1.5707963250311574 1.279024423107459 6725.944000000006
4.420617076582026 -1.441335041945992 2.01810390466653 -2.147565191883771 -1.5707963250311574 1.279024423107459 6725.994000000006
4.420617076582026 -1.441335041945992 2.01810390466653 -2.147565191883771 -1.5707963250311574 1.279024423107459 6726.044000000006
4.420617076582026 -1.441335041945992 2.01810390466653 -2.147565191883771 -1.5707963250311574 1.279024423107459 6726.094000000006
4.420617076582026 -1.441335041945992 2.01810390466653 -2.147565191883771 -1.5707963250311574 1.279024423107459 6726.144000000007
4.420617076582026 -1.441335041945992 2.01810390466653 -2.147565191883771 -1.5707963250311574 1.279024423107459 6726.194000000007
4.420617076582026 -1.441335041945992 2.01810390466653 -2.147565191883771 -1.5707963250311574 1.279024423107459 6726.244000000007
4.420617076582026 -1.441335041945992 2.01810390466653 -2.147565191883771 -1.5707963250311574 1.279024423107459 6726.294000000007
4.420617076582026 -1.441335041945992 2.01810390466653 -2.147565191883771 -1.5707963250311574 1.279024423107459 6726.344000000007
4.420617076582026 -1.441335041945992 2.01810390466653 -2.147565191883771 -1.5707963250311574 1.279024423107459 6726.3940000000075
4.420617076582026 -1.441335041945992 2.01810390466653 -2.147565191883771 -1.5707963250311574 1.279024423107459 6726.444000000008
4.420617076627418 -1.4415918551887774 2.0176884994199558 -2.146892973388247 -1.5707963250356278 1.2790244231525596 6726.494000000008
4.4206170769081545 -1.4431801521570822 2.015119368301187 -2.14273554526305 -1.570796325063276 1.2790244234314903 6726.544000000008
4.420617077565039 -1.4468965470456616 2.009107957369595 -2.133007739353675 -1.5707963251279689 1.2790244240841493 6726.594000000008
4.42061707865037 -1.4530369251268536 1.9991756608758027 -2.1169350646313045 -1.570796325234857 1.2790244251624991 6726.644000000008
4.420617080144032 -1.4614874843728354 1.985506557954186 -2.094815402260869 -1.5707963253819595 1.279024426646554 6726.694000000009
4.420617081969589 -1.4718157770778832 1.968800149315372 -2.0677807006691 -1.5707963255617483 1.2790244284603693 6726.744000000009
4.420617084010376 -1.4833617514806283 1.950124093938739 -2.037558670612587 -1.570796325762734 1.2790244304880294 6726.794000000009
4.420617086125587 -1.4953287933863155 1.9307669457649166 -2.0062344802458356 -1.5707963259710493 1.2790244325896354 6726.844000000009
4.420617088166373 -1.5068747677890606 1.9120908903882836 -1.9760124501893226 -1.570796326172035 1.2790244346172954 6726.894000000009
4.42061708999193 -1.5172030604941082 1.8953844817494696 -1.9489777485975535 -1.5707963263518239 1.2790244364311107 6726.9440000000095
4.4206170914855925 -1.5256536197400903 1.881715378827853 -1.926858086227118 -1.5707963264989264 1.2790244379151656 6726.99400000001
4.420617092570923 -1.5317939978212822 1.8717830823340604 -1.9107854115047478 -1.5707963266058145 1.2790244389935155 6727.04400000001
4.420617093227808 -1.5355103927098617 1.8657716714024681 -1.9010576055953723 -1.5707963266705074 1.2790244396461745 6727.09400000001
4.420617093508544 -1.5370986896781664 1.8632025402836996 -1.8969001774701753 -1.5707963266981555 1.2790244399251052 6727.14400000001
4.420617093553936 -1.5373555029209518 1.8627871350371255 -1.8962279589746518 -1.570796326702626 1.2790244399702058 6727.19400000001
4.420617093553936 -1.5373555029209518 1.8627871350371255 -1.8962279589746518 -1.570796326702626 1.2790244399702058 6727.244000000011
4.420455819658298 -1.537333453325698 1.8627616450330144 -1.89622451856568 -1.5707963267028147 1.2790413372416032 6727.294000000011
4.419371182444854 -1.5371851601908468 1.8625902136496506 -1.896201380316397 -1.5707963267040832 1.2791549787537073 6727.344000000011
4.416558795381848 -1.536800646651372 1.862145704279338 -1.896141384483562 -1.570796326707373 1.2794496431027642 6727.394000000011
4.41133842162731 -1.5360869097635366 1.8613206026846998 -1.896030019773052 -1.5707963267134795 1.2799966012560173 6727.444000000011
4.4031477665445715 -1.5349670718088295 1.860026035880163 -1.8958552909174058 -1.5707963267230602 1.2808547669331574 6727.4940000000115
4.391536270217773 -1.5333795315979015 1.8581907910134428 -1.8956075862533677 -1.5707963267366425 1.282071346987773 6727.544000000012
4.376158899967376 -1.5312771157744998 1.8557603342470255 -1.895279545299432 -1.5707963267546299 1.2836824917888006 6727.594000000012
4.356769942865675 -1.5286262301194036 1.8526958296396534 -1.8948659263333867 -1.5707963267773097 1.2857139456019744 6727.644000000012
4.333216798252302 -1.5254060108543606 1.8489731580278086 -1.8943634739698587 -1.5707963268048604 1.2881816969712767 6727.694000000012
4.305433770249745 -1.5216074759460212 1.8445819359071969 -1.8937707867378564 -1.570796326837359 1.2910926291003884 6727.744000000012
4.273435860278854 -1.5172326764098745 1.839524534314232 -1.8930881846583147 -1.5707963268747878 1.294445170234138 6727.794000000013
4.23731255957435 -1.512293847614184 1.8338150977075192 -1.8923175768216394 -1.5707963269170422 1.298229944039953 6727.844000000013
4.197221641700341 -1.5068125605839229 1.82747856284934 -1.8914623289652506 -1.5707963269639376 1.3024304199893089 6727.894000000013
4.153382955065828 -1.5008188733047096 1.8205496776871353 -1.890527131051127 -1.5707963270152168 1.3070235637391807 6727.944000000013
4.106072215440217 -1.494350482026743 1.81307202023499 -1.8895178648433506 -1.5707963270705574 1.3119804875134917 6727.994000000013
4.055614798468831 -1.4874518725687382 1.805097017455117 -1.8884414714856501 -1.5707963271295788 1.3172671004845642 6728.0440000000135
4.002379532188417 -1.4801734716218622 1.7966829641393414 -1.8873058190789453 -1.5707963271918495 1.3228447591545698 6728.094000000014
3.9467724895426604 -1.4725707980536682 1.787894041790583 -1.8861195702588918 -1.5707963272568946 1.3286709177369789 6728.144000000014
3.8892307808976923 -1.464703614212033 1.7787993375043434 -1.8848920497734236 -1.5707963273242027 1.334699778538012 6728.194000000014
3.830216346557603 -1.4566350772290915 1.7694718628501862 -1.8836331120602992 -1.5707963273932335 1.3408829423380881 6728.244000000014
3.7702097492799505 -1.448430890325171 1.7599875727532244 -1.882353008824644 -1.5707963274634247 1.3471700587732767 6728.294000000014
3.7097039667912712 -1.440158454112729 1.7504243843756022 -1.8810622566164956 -1.5707963275341998 1.3535094767167464 6728.344000000015
3.649198184302592 -1.431886017900287 1.74086119599798 -1.879771504408347 -1.5707963276049752 1.359848894660216 6728.394000000015
3.5891915870249393 -1.4236818309963666 1.7313769059010182 -1.8784914011726919 -1.5707963276751664 1.3661360110954046 6728.444000000015
3.5301771526848498 -1.4156132940134247 1.722049431246861 -1.8772324634595674 -1.5707963277441972 1.3723191748954808 6728.494000000015
3.4726354440398817 -1.4077461101717896 1.7129547269606213 -1.8760049429740993 -1.5707963278115054 1.3783480356965139 6728.544000000015
3.417028401394125 -1.4001434366035959 1.704165804611863 -1.8748186941540457 -1.5707963278765504 1.384174194278923 6728.5940000000155
3.3637931351137116 -1.3928650356567196 1.6957517512960876 -1.8736830417473411 -1.570796327938821 1.3897518529489283 6728.644000000016
3.313335718142324 -1.3859664261987148 1.6877767485162143 -1.8726066483896404 -1.5707963279978425 1.395038465920001 6728.694000000016
3.266024978516714 -1.3794980349207482 1.6802990910640694 -1.871597382181864 -1.5707963280531831 1.399995389694312 6728.744000000016
3.2221862918822017 -1.3735043476415347 1.6733702059018645 -1.8706621842677404 -1.5707963281044623 1.4045885334441839 6728.794000000016
3.1820953740081928 -1.368023060611274 1.6670336710436855 -1.8698069364113516 -1.5707963281513577 1.4087890093935398 6728.844000000016
3.145972073303689 -1.3630842318155836 1.6613242344369725 -1.8690363285746763 -1.5707963281936121 1.4125737831993548 6728.894000000017
3.113974163332797 -1.3587094322794369 1.6562668328440073 -1.8683537264951346 -1.5707963282310409 1.4159263243331044 6728.944000000017
3.08619113533024 -1.3549108973710973 1.6518756107233958 -1.8677610392631323 -1.5707963282635395 1.4188372564622158 6728.994000000017
3.0626379907168646 -1.351690678106054 1.648152939111551 -1.8672585868996041 -1.5707963282910902 1.4213050078315186 6729.044000000017
3.043249033615165 -1.349039792450958 1.645088434504179 -1.866844967933559 -1.57079632831377 1.4233364616446922 6729.094000000017
3.027871663364767 -1.3469373766275563 1.6426579777377617 -1.8665169269796233 -1.5707963283317574 1.4249476064457198 6729.1440000000175
3.01626016703797 -1.3453498364166283 1.6408227328710414 -1.8662692223155852 -1.5707963283453397 1.4261641865003356 6729.194000000018
3.008069511955231 -1.3442299984619215 1.6395281660665046 -1.866094493459939 -1.5707963283549204 1.4270223521774756 6729.244000000018
3.002849138200691 -1.3435162615740859 1.6387030644718663 -1.865983128749429 -1.570796328361027 1.4275693103307285 6729.294000000018
4.375384330749512 -1.7221042118468226 2.0345085302936 -1.8831974468626917 -1.5708168188678187 1.2337696552276611 6729.494
4.375375592144052 -1.7220858119745097 2.034491553119184 -1.8831988698999893 -1.5708168166933056 1.2339276022918606 6729.544
4.375316767552648 -1.7219619518259253 2.0343772699703675 -1.8832084491844612 -1.5708168020554052 1.2349908350419345 6729.594
4.375164076923433 -1.7216404488019228 2.0340806259056152 -1.8832333140741018 -1.5708167640598973 1.2377506617357843 6729.644
4.374880327294912 -1.721042989978823 2.033529363240649 -1.8832795212528597 -1.5708166934516923 1.2428793314071866 6729.694
4.374434591474482 -1.7201044555388805 2.032663397291998 -1.883352107056199 -1.5708165825348734 1.2509358416328245 6729.744000000001
4.373801886716947 -1.7187722422007472 2.0314341921205465 -1.8834551397966635 -1.5708164250927386 1.2623717462993165 6729.794000000001
4.372962853403044 -1.7170055866499379 2.029804136275084 -1.88359177208944 -1.5708162163078443 1.2775369633702487 6729.844000000001
4.37190343371795 -1.7147748889692955 2.0277459185358504 -1.8837642931779217 -1.570815952682046 1.296685582653204 6729.894000000001
4.370614550329812 -1.7120610360694557 2.025241903658087 -1.8839741812592705 -1.5708156319565423 1.3199816735667933 6729.944000000001
4.369091785068257 -1.708854725119312 2.022283508115583 -1.8842221558099814 -1.5708152530319166 1.3475050929076853 6729.9940000000015
4.367335057602914 -1.7051557869764804 2.018870575844227 -1.8845082299114453 -1.5708148158881796 1.3792572926176379 6730.044000000002
4.365348304121935 -1.700972509617765 2.0150107539855506 -1.8848317625755122 -1.5708143215048114 1.4151671275505275 6730.094000000002
4.363139156010505 -1.6963209615696229 2.010718868630281 -1.8851915110700543 -1.5708137717808044 1.455096663239381 6730.144000000002
4.36071861852937 -1.6912243153386282 2.006016300561886 -1.8855856832445301 -1.5708131694547058 1.4988469836634044 6730.194000000002
4.358100749493351 -1.685712170841938 2.0009303610001252 -1.8860119898555465 -1.5708125180246597 1.5461639990150147 6730.244000000002
4.355302337949859 -1.6798198788377576 1.9954936673445975 -1.8864676968924228 -1.5708118216684497 1.5967442534668699 6730.294000000003
4.352342582857422 -1.6735878643558044 1.9897435189182884 -1.8869496779027541 -1.5708110851635406 1.6502407329388995 6730.344000000003
4.349242771764193 -1.6670609501277736 1.9837212727111193 -1.8874544663179738 -1.570810313807122 1.7062686728653351 6730.394000000003
4.346025959486479 -1.6602876800178028 1.9774717191234954 -1.8879783077789178 -1.5708095133361508 1.7644113659617402 6730.444000000003
4.34271664678725 -1.6533196424529377 1.9710424577098549 -1.888517212461387 -1.5708086898473916 1.824225969992042 6730.494000000003
4.339340459054664 -1.6462107938535961 1.964483272922216 -1.8890670074017106 -1.5708078497174613 1.8852493155355599 6730.5440000000035
4.335923824980582 -1.6390167820640338 1.9578455098537264 -1.8896233888223106 -1.5708069995228713 1.947003713754038 6730.594000000004
4.332493655239087 -1.6317942697828085 1.9511814499822113 -1.890181974457263 -1.570806145960068 2.0090027641586747 6730.644000000004
4.329077021165006 -1.6246002579932461 1.9445436869137218 -1.890738355877863 -1.570805295765478 2.0707571623771526 6730.694000000004
4.325700833432419 -1.6174914093939046 1.9379845021260829 -1.8912881508181867 -1.5708044556355476 2.131780507920671 6730.744000000004
4.32239152073319 -1.6105233718290395 1.9315552407124423 -1.8918270555006558 -1.5708036321467884 2.1915951119509725 6730.794000000004
4.319174708455476 -1.603750101719069 1.9253056871248186 -1.8923508969615999 -1.5708028316758171 2.249737805047377 6730.844000000005
4.316074897362247 -1.5972231874910379 1.9192834409176494 -1.8928556853768195 -1.5708020603193986 2.305765744973813 6730.894000000005
4.31311514226981 -1.5909911730090847 1.9135332924913402 -1.8933376663871508 -1.5708013238144896 2.359262224445842 6730.944000000005
4.310316730726318 -1.5850988810049045 1.9080965988358125 -1.893793373424027 -1.5708006274582795 2.4098424788976978 6730.994000000005
4.307698861690299 -1.5795867365082144 1.903010659274052 -1.8942196800350435 -1.5707999760282334 2.457159494249308 6731.044000000005
4.305278324209164 -1.5744900902772194 1.898308091205657 -1.8946138522095193 -1.5707993737021348 2.5009098146733315 6731.0940000000055
4.303069176097734 -1.569838542229077 1.8940162058503869 -1.8949736007040614 -1.5707988239781279 2.5408393503621856 6731.144000000006
4.301082422616755 -1.5656552648703619 1.8901563839917106 -1.8952971333681283 -1.5707983295947596 2.576749185295074 6731.194000000006
4.2993256951514125 -1.5619563267275303 1.886743451720354 -1.8955832074695922 -1.5707978924510226 2.6085013850050274 6731.244000000006
4.2978029298898575 -1.5587500157773864 1.8837850561778509 -1.895831182020303 -1.570797513526397 2.6360248043459205 6731.294000000006
4.296514046501719 -1.5560361628775468 1.8812810413000873 -1.896041070101652 -1.5707971928008932 2.6593208952595084 6731.344000000006
4.295454626816626 -1.5538054651969047 1.8792228235608537 -1.8962135911901337 -1.570796929175095 2.6784695145424635 6731.394000000007
4.294615593502721 -1.5520388096460949 1.877592767715391 -1.8963502234829102 -1.5707967203902007 2.693634731613397 6731.444000000007
4.293982888745187 -1.5507065963079618 1.8763635625439399 -1.8964532562233747 -1.5707965629480658 2.70507063627989 6731.494000000007
4.293537152924757 -1.5497680618680194 1.875497596595289 -1.896525842026714 -1.570796452031247 2.713127146505526 6731.544000000007
4.375384330749512 -1.7221042118468226 2.0345085302936 -1.8831974468626917 -1.5708168188678187 1.2337696552276611 6731.643999999999
4.375375592144052 -1.7220858119745097 2.034491553119184 -1.8831988698999893 -1.5708168166933056 1.2339276022918606 6731.6939999999995
4.375316767552648 -1.7219619518259253 2.0343772699703675 -1.8832084491844612 -1.5708168020554052 1.2349908350419345 6731.744
4.375164076923433 -1.7216404488019228 2.0340806259056152 -1.8832333140741018 -1.5708167640598973 1.2377506617357843 6731.794
4.374880327294912 -1.721042989978823 2.033529363240649 -1.8832795212528597 -1.5708166934516923 1.2428793314071866 6731.844
4.374434591474482 -1.7201044555388805 2.032663397291998 -1.883352107056199 -1.5708165825348734 1.2509358416328245 6731.894
4.373801886716947 -1.7187722422007472 2.0314341921205465 -1.8834551397966635 -1.5708164250927386 1.2623717462993165 6731.944
4.372962853403044 -1.7170055866499379 2.029804136275084 -1.88359177208944 -1.5708162163078443 1.2775369633702487 6731.994000000001
4.37190343371795 -1.7147748889692955 2.0277459185358504 -1.8837642931779217 -1.570815952682046 1.296685582653204 6732.044000000001
4.370614550329812 -1.7120610360694557 2.025241903658087 -1.8839741812592705 -1.5708156319565423 1.3199816735667933 6732.094000000001
4.369091785068257 -1.708854725119312 2.022283508115583 -1.8842221558099814 -1.5708152530319166 1.3475050929076853 6732.144000000001
4.367335057602914 -1.7051557869764804 2.018870575844227 -1.8845082299114453 -1.5708148158881796 1.3792572926176379 6732.194000000001
4.365348304121935 -1.700972509617765 2.0150107539855506 -1.8848317625755122 -1.5708143215048114 1.4151671275505275 6732.2440000000015
4.363139156010505 -1.6963209615696229 2.010718868630281 -1.8851915110700543 -1.5708137717808044 1.455096663239381 6732.294000000002
4.36071861852937 -1.6912243153386282 2.006016300561886 -1.8855856832445301 -1.5708131694547058 1.4988469836634044 6732.344000000002
4.358100749493351 -1.685712170841938 2.0009303610001252 -1.8860119898555465 -1.5708125180246597 1.5461639990150147 6732.394000000002
4.355302337949859 -1.6798198788377576 1.9954936673445975 -1.8864676968924228 -1.5708118216684497 1.5967442534668699 6732.444000000002
4.352342582857422 -1.6735878643558044 1.9897435189182884 -1.8869496779027541 -1.5708110851635406 1.6502407329388995 6732.494000000002
4.349242771764193 -1.6670609501277736 1.9837212727111193 -1.8874544663179738 -1.570810313807122 1.7062686728653351 6732.544000000003
4.346025959486479 -1.6602876800178028 1.9774717191234954 -1.8879783077789178 -1.5708095133361508 1.7644113659617402 6732.594000000003
4.34271664678725 -1.6533196424529377 1.9710424577098549 -1.888517212461387 -1.5708086898473916 1.824225969992042 6732.644000000003
4.339340459054664 -1.6462107938535961 1.964483272922216 -1.8890670074017106 -1.5708078497174613 1.8852493155355599 6732.694000000003
4.335923824980582 -1.6390167820640338 1.9578455098537264 -1.8896233888223106 -1.5708069995228713 1.947003713754038 6732.744000000003
4.332493655239087 -1.6317942697828085 1.9511814499822113 -1.890181974457263 -1.570806145960068 2.0090027641586747 6732.7940000000035
4.329077021165006 -1.6246002579932461 1.9445436869137218 -1.890738355877863 -1.570805295765478 2.0707571623771526 6732.844000000004
4.325700833432419 -1.6174914093939046 1.9379845021260829 -1.8912881508181867 -1.5708044556355476 2.131780507920671 6732.894000000004
4.32239152073319 -1.6105233718290395 1.9315552407124423 -1.8918270555006558 -1.5708036321467884 2.1915951119509725 6732.944000000004
4.319174708455476 -1.603750101719069 1.9253056871248186 -1.8923508969615999 -1.5708028316758171 2.249737805047377 6732.994000000004
4.316074897362247 -1.5972231874910379 1.9192834409176494 -1.8928556853768195 -1.5708020603193986 2.305765744973813 6733.044000000004
4.31311514226981 -1.5909911730090847 1.9135332924913402 -1.8933376663871508 -1.5708013238144896 2.359262224445842 6733.094000000005
4.310316730726318 -1.5850988810049045 1.9080965988358125 -1.893793373424027 -1.5708006274582795 2.4098424788976978 6733.144000000005
4.307698861690299 -1.5795867365082144 1.903010659274052 -1.8942196800350435 -1.5707999760282334 2.457159494249308 6733.194000000005
4.305278324209164 -1.5744900902772194 1.898308091205657 -1.8946138522095193 -1.5707993737021348 2.5009098146733315 6733.244000000005
4.303069176097734 -1.569838542229077 1.8940162058503869 -1.8949736007040614 -1.5707988239781279 2.5408393503621856 6733.294000000005
4.301082422616755 -1.5656552648703619 1.8901563839917106 -1.8952971333681283 -1.5707983295947596 2.576749185295074 6733.3440000000055
4.2993256951514125 -1.5619563267275303 1.886743451720354 -1.8955832074695922 -1.5707978924510226 2.6085013850050274 6733.394000000006
4.2978029298898575 -1.5587500157773864 1.8837850561778509 -1.895831182020303 -1.570797513526397 2.6360248043459205 6733.444000000006
4.296514046501719 -1.5560361628775468 1.8812810413000873 -1.896041070101652 -1.5707971928008932 2.6593208952595084 6733.494000000006
4.295454626816626 -1.5538054651969047 1.8792228235608537 -1.8962135911901337 -1.570796929175095 2.6784695145424635 6733.544000000006
4.294615593502721 -1.5520388096460949 1.877592767715391 -1.8963502234829102 -1.5707967203902007 2.693634731613397 6733.594000000006
4.293982888745187 -1.5507065963079618 1.8763635625439399 -1.8964532562233747 -1.5707965629480658 2.70507063627989 6733.644000000007
4.293537152924757 -1.5497680618680194 1.875497596595289 -1.896525842026714 -1.570796452031247 2.713127146505526 6733.694000000007
4.293253403296236 -1.5491706030449197 1.8749463339303225 -1.8965720492054718 -1.570796381423042 2.7182558161769297 6733.744000000007
4.293100712667021 -1.5488491000209172 1.87464968986557 -1.8965969140951124 -1.570796343427534 2.7210156428707766 6733.794000000007
4.293041888075617 -1.5487252398723328 1.874535406716754 -1.896606493379584 -1.5707963287896336 2.722078875620852 6733.844000000007
4.2930331494701575 -1.54870684000002 1.8745184295423378 -1.8966079164168819 -1.5707963266151206 2.7222368226850513 6733.8940000000075
4.2930331494701575 -1.5487068400000197 1.8745184295423378 -1.8966079164168819 -1.5707963266151206 2.7222368226850513 6733.944000000008
4.293033149408071 -1.5484923406050548 1.8748646125879476 -1.8971685988639604 -1.570796326608723 2.7222368226233526 6733.994000000008
4.2930331490208715 -1.5471546242579515 1.8770235684175323 -1.9006652710812093 -1.5707963265688247 2.722236822238571 6734.044000000008
4.293033148105164 -1.5439909887275693 1.8821293962604755 -1.9089347345504593 -1.5707963264744673 2.722236821328582 6734.094000000008
4.293033146572863 -1.5386971141500287 1.8906732414523368 -1.9227724544803775 -1.5707963263165738 2.7222368198058495 6734.144000000008
4.293033144431975 -1.5313006659675001 1.9026104544171567 -1.9421061158519937 -1.57079632609597 2.7222368176783323 6734.194000000009
4.293033141767385 -1.5220948978669953 1.9174677496497587 -1.9661691794642293 -1.570796325821402 2.7222368150303815 6734.244000000009
4.2930331387216265 -1.5115722547191561 1.934450364698056 -1.9936744379794233 -1.5707963255075572 2.722236812003644 6734.294000000009
4.293033135475676 -1.5003579755170444 1.9525492191453524 -2.0229875719688604 -1.570796325173084 2.7222368087779643 6734.344000000009
4.293033132229726 -1.489143696314933 1.970648073592649 -2.0523007059582974 -1.5707963248386108 2.7222368055522845 6734.394000000009
4.293033129183968 -1.4786210531670936 1.9876306886409458 -2.079805964473491 -1.570796324524766 2.722236802525547 6734.4440000000095
4.2930331265193775 -1.4694152850665887 2.0024879838735483 -2.103869028085727 -1.5707963242501979 2.7222367998775963 6734.49400000001
4.29303312437849 -1.46201883688406 2.014425196838368 -2.1232026894573433 -1.5707963240295941 2.722236797750079 6734.54400000001
4.293033122846189 -1.4567249623065195 2.0229690420302293 -2.1370404093872613 -1.5707963238717007 2.7222367962273464 6734.59400000001
4.293033121930481 -1.4535613267761374 2.0280748698731728 -2.145309872856511 -1.5707963237773432 2.7222367953173574 6734.64400000001
4.2930331215432815 -1.452223610429034 2.0302338257027572 -2.14880654507376 -1.570796323737445 2.722236794932576 6734.69400000001
4.293033121481195 -1.4520091110340692 2.030580008748367 -2.149367227520839 -1.5707963237310474 2.722236794870877 6734.744000000011
4.293033121481195 -1.4520091110340692 2.030580008748367 -2.149367227520839 -1.5707963237310474 2.722236794870877 6734.794000000011
4.293033121481195 -1.4520091110340692 2.030580008748367 -2.149367227520839 -1.5707963237310474 2.722236794870877 6734.844000000011
4.293033121481195 -1.4520091110340692 2.030580008748367 -2.149367227520839 -1.5707963237310474 2.722236794870877 6734.894000000011
4.293033121481195 -1.4520091110340692 2.030580008748367 -2.149367227520839 -1.5707963237310474 2.722236794870877 6734.944000000011
4.293033121481195 -1.4520091110340692 2.030580008748367 -2.149367227520839 -1.5707963237310474 2.722236794870877 6734.9940000000115
4.293033121481195 -1.4520091110340692 2.030580008748367 -2.149367227520839 -1.5707963237310474 2.722236794870877 6735.044000000012
4.293033121481195 -1.4520091110340692 2.030580008748367 -2.149367227520839 -1.5707963237310474 2.722236794870877 6735.094000000012
4.293033121481195 -1.4520091110340692 2.030580008748367 -2.149367227520839 -1.5707963237310474 2.722236794870877 6735.144000000012
4.293033121481195 -1.4520091110340692 2.030580008748367 -2.149367227520839 -1.5707963237310474 2.722236794870877 6735.194000000012
4.293033121481195 -1.4520091110340692 2.030580008748367 -2.149367227520839 -1.5707963237310474 2.722236794870877 6735.244000000012
4.293033121481195 -1.4520091110340692 2.030580008748367 -2.149367227520839 -1.5707963237310474 2.722236794870877 6735.294000000013
4.293033121481195 -1.4520091110340692 2.030580008748367 -2.149367227520839 -1.5707963237310474 2.722236794870877 6735.344000000013
4.293033121481195 -1.4520091110340692 2.030580008748367 -2.149367227520839 -1.5707963237310474 2.722236794870877 6735.394000000013
4.293033121481195 -1.4520091110340692 2.030580008748367 -2.149367227520839 -1.5707963237310474 2.722236794870877 6735.444000000013
4.2930331215432815 -1.452223610429034 2.0302338257027572 -2.1488065450737603 -1.570796323737445 2.722236794932576 6735.494000000013
4.293033121930481 -1.4535613267761374 2.0280748698731723 -2.1453098728565116 -1.5707963237773432 2.7222367953173574 6735.5440000000135
4.293033122846189 -1.4567249623065195 2.0229690420302293 -2.1370404093872613 -1.5707963238717007 2.7222367962273464 6735.594000000014
4.29303312437849 -1.46201883688406 2.014425196838368 -2.1232026894573433 -1.5707963240295941 2.722236797750079 6735.644000000014
4.2930331265193775 -1.4694152850665887 2.0024879838735483 -2.103869028085727 -1.5707963242501979 2.7222367998775963 6735.694000000014
4.293033129183968 -1.4786210531670936 1.987630688640946 -2.079805964473491 -1.570796324524766 2.722236802525547 6735.744000000014
4.293033132229726 -1.4891436963149327 1.9706480735926488 -2.0523007059582974 -1.5707963248386108 2.7222368055522845 6735.794000000014
4.293033135475676 -1.5003579755170444 1.9525492191453524 -2.0229875719688604 -1.570796325173084 2.7222368087779643 6735.844000000015
4.2930331387216265 -1.511572254719156 1.9344503646980558 -1.9936744379794233 -1.5707963255075572 2.722236812003644 6735.894000000015
4.293033141767385 -1.5220948978669953 1.917467749649759 -1.9661691794642295 -1.570796325821402 2.7222368150303815 6735.944000000015
4.293033144431975 -1.5313006659675001 1.9026104544171565 -1.9421061158519937 -1.57079632609597 2.7222368176783323 6735.994000000015
4.293033146572863 -1.5386971141500287 1.8906732414523368 -1.9227724544803775 -1.5707963263165738 2.7222368198058495 6736.044000000015
4.293033148105164 -1.5439909887275693 1.8821293962604755 -1.9089347345504595 -1.5707963264744673 2.722236821328582 6736.0940000000155
4.2930331490208715 -1.5471546242579515 1.8770235684175323 -1.9006652710812095 -1.5707963265688247 2.722236822238571 6736.144000000016
4.293033149408071 -1.5484923406050548 1.8748646125879476 -1.8971685988639606 -1.570796326608723 2.7222368226233526 6736.194000000016
4.2930331494701575 -1.5487068400000197 1.8745184295423378 -1.8966079164168819 -1.5707963266151206 2.7222368226850513 6736.244000000016
4.2930331494701575 -1.5487068400000197 1.8745184295423378 -1.8966079164168819 -1.5707963266151206 2.7222368226850513 6736.294000000016
4.292864639105686 -1.5486800519419135 1.8744876428646378 -1.8966039177971543 -1.5707963266153486 2.722068312320609 6736.344000000016
4.291733551906087 -1.5485002432415933 1.8742809943467607 -1.8965770779787012 -1.5707963266168785 2.720937225121201 6736.394000000017
4.288807437163939 -1.5480350793806994 1.8737463960639613 -1.8965076435544763 -1.5707963266208365 2.718011110379551 6736.444000000017
4.283389317948624 -1.5471737620794066 1.8727565110171482 -1.8963790758046617 -1.5707963266281653 2.7125929911651556 6736.494000000017
4.274910560907537 -1.5458258958101845 1.8712074504525875 -1.896177881502603 -1.570796326639634 2.704114234125508 6736.544000000017
4.262923746067311 -1.5439203543115598 1.8690174711816043 -1.895893443720744 -1.570796326655848 2.6921274192873175 6736.594000000017
4.24709553663504 -1.5414041471018765 1.8661256729002855 -1.8955178526365632 -1.570796326677258 2.6762992098577354 6736.6440000000175
4.2271995487995015 -1.5382412859930583 1.862490695509182 -1.8950457363385087 -1.5707963267041702 2.6564032220255753 6736.694000000018
4.2031092215323715 -1.53441165160437 1.8580894164330115 -1.894474091631933 -1.570796326736756 2.632312894762536 6736.744000000018
4.174790686389451 -1.5299098598761776 1.8529156479403601 -1.8938021148450288 -1.5707963267750609 2.603994359624424 6736.794000000018
4.142295637311885 -1.5247441285837116 1.8469788344633855 -1.8930310326347655 -1.5707963268190153 2.571499310552377 6736.844000000018
4.105754200427387 -1.5189351438508265 1.8403027499175193 -1.892163932792822 -1.570796326868443 2.5349578736740837 6736.894000000018
4.065367803851455 -1.5125149266637636 1.8329241950211685 -1.8912055950515243 -1.5707963269230716 2.4945714771050103 6736.944000000019
4.021402047488597 -1.505525699384912 1.8248916946154192 -1.8901623218897803 -1.5707963269825416 2.4506057207496195 6736.994000000019
3.9741795728335525 -1.4980187522665687 1.8162641949837381 -1.8890417693390145 -1.570796327046417 2.4033832461025937 6737.044000000019
3.924072932772509 -1.4900533099647022 1.807109761171675 -1.8878527777891043 -1.5707963271141936 2.3532766060500587 6737.094000000019
3.8714974613843274 -1.4816953980527123 1.797504274306566 -1.8866052027943143 -1.5707963271853098 2.300701134670806 6737.144000000019
3.816904143741764 -1.4730167095351918 1.7875301289172338 -1.8853097458792327 -1.5707963272591552 2.2461078170375135 6737.1940000000195
3.7607724857126885 -1.4640934713616884 1.777274930253693 -1.8839777853447064 -1.5707963273350816 2.18997615901797 6737.24400000002
3.7036033837613065 -1.4550053109404653 1.7668301916068505 -1.8826212070737758 -1.5707963274124113 2.1328070570762963 6737.29400000002
3.645911994749382 -1.4458341226522629 1.7562900316282084 -1.8812522353376107 -1.5707963274904473 2.075115668074169 6737.34400000002
3.5882206057374573 -1.4366629343640605 1.7457498716495663 -1.8798832636014453 -1.5707963275684833 2.017424279072042 6737.39400000002
3.5310515037860757 -1.4275747739428373 1.7353051330027238 -1.8785266853305147 -1.570796327645813 1.9602551771303682 6737.44400000002
3.4749198457569994 -1.418651535769334 1.7250499343391832 -1.8771947247959884 -1.5707963277217394 1.9041235191108248 6737.494000000021
3.420326528114437 -1.4099728472518134 1.7150757889498511 -1.8758992678809068 -1.5707963277955848 1.8495302014775326 6737.544000000021
3.3677510567262554 -1.4016149353398235 1.7054703020847417 -1.8746516928861168 -1.570796327866701 1.796954730098279 6737.594000000021
3.3176444166652117 -1.393649493037957 1.6963158682726787 -1.8734627013362064 -1.5707963279344777 1.7468480900457446 6737.644000000021
3.2704219420101666 -1.386142545919614 1.6876883686409976 -1.8723421487854408 -1.570796327998353 1.6996256153987193 6737.694000000021
3.22645618564731 -1.3791533186407618 1.6796558682352483 -1.8712988756236968 -1.570796328057823 1.655659859043328 6737.7440000000215
3.186069789071378 -1.3727331014536992 1.6722773133388977 -1.8703405378823992 -1.5707963281124515 1.6152734624742537 6737.794000000022
3.149528352186879 -1.3669241167208142 1.665601228793031 -1.8694734380404556 -1.5707963281618793 1.5787320255959614 6737.844000000022
3.117033303109314 -1.3617583854283482 1.659664415316057 -1.8687023558301923 -1.5707963282058337 1.5462369765239137 6737.894000000022
3.088714767966393 -1.357256593700156 1.6544906468234053 -1.8680303790432882 -1.5707963282441386 1.5179184413858025 6737.944000000022
3.064624440699262 -1.3534269593114674 1.650089367747235 -1.8674587343367124 -1.5707963282767243 1.4938281141227634 6737.994000000022
3.0447284528637235 -1.3502640982026493 1.6464543903561315 -1.8669866180386578 -1.5707963283036366 1.4739321262906033 6738.044000000023
3.028900243431454 -1.3477478909929659 1.6435625920748125 -1.8666110269544771 -1.5707963283250466 1.4581039168610204 6738.094000000023
3.016913428591228 -1.345842349494341 1.6413726128038295 -1.8663265891726182 -1.5707963283412605 1.4461171020228303 6738.144000000023
3.008434671550142 -1.3444944832251193 1.6398235522392688 -1.8661253948705594 -1.5707963283527293 1.4376383449831849 6738.194000000023
3.0030165523348247 -1.3436331659238263 1.6388336671924557 -1.8659968271207448 -1.5707963283600581 1.4322202257687842 6738.244000000023
3.000090437592678 -1.3431680020629326 1.6382990689096562 -1.8659273926965199 -1.570796328364016 1.4292941110271364 6738.2940000000235
2.9989593503930765 -1.3429881933626122 1.6380924203917788 -1.8659005528780668 -1.570796328365546 1.428163023827727 6738.344000000024
2.998790840028607 -1.342961405304506 1.638061633714079 -1.8658965542583392 -1.570796328365774 1.427994513463286 6738.394000000024
2.9987908400286063 -1.342961405304506 1.638061633714079 -1.8658965542583392 -1.570796328365774 1.427994513463287 6738.444000000024
2.9987908375813794 -1.3427405478580317 1.6384527923103132 -1.8665085704197473 -1.570796328244215 1.427994511023567 6738.494000000024
2.998790822446168 -1.3413746244778415 1.640871966671366 -1.870293668895103 -1.570796327492416 1.4279944959347812 6738.544000000024
2.998790787031869 -1.338178552981371 1.6465324995625137 -1.8791502750004434 -1.5707963257333106 1.4279944606291126 6738.594000000025
2.998790728518931 -1.3328978742722388 1.6558850611537157 -1.8937835181388678 -1.5707963228268453 1.4279944022956577 6738.644000000025
2.998790647991797 -1.3256304572336688 1.6687563167642183 -1.9139221946937996 -1.570796318826887 1.4279943220155333 6738.694000000025
2.998790549571351 -1.3167482036219098 1.6844875946071576 -1.9385357309222473 -1.570796313938129 1.427994223896983 6738.744000000025
2.998790439547363 -1.306818752959659 1.7020735535341616 -1.9660511458480658 -1.5707963084729977 1.4279941142104835 6738.794000000025
2.9987903255109356 -1.296527187429481 1.7203008507799544 -1.994570014155218 -1.5707963028085596 1.4279940005238523 6738.8440000000255
2.9987902154869475 -1.2865977367672303 1.7378868097069584 -2.0220854290810366 -1.5707962973434284 1.4279938908373528 6738.894000000026
2.9987901170665014 -1.2777154831554716 1.7536180875498977 -2.046698965309484 -1.5707962924546703 1.4279937927188024 6738.944000000026
2.9987900365393676 -1.2704480661169013 1.7664893431604003 -2.066837641864416 -1.570796288454712 1.4279937124386781 6738.994000000026
2.9987899780264295 -1.265167387407769 1.7758419047516023 -2.0814708850028403 -1.5707962855482467 1.4279936541052232 6739.044000000026
2.9987899426121305 -1.2619713159112986 1.7815024376427502 -2.090327491108181 -1.5707962837891414 1.4279936187995546 6739.094000000026
2.998789927476919 -1.2606053925311085 1.7839216120038028 -2.0941125895835366 -1.5707962830373423 1.4279936037107688 6739.144000000027
2.9987899250296923 -1.260384535084634 1.784312770600037 -2.0947246057449442 -1.5707962829157833 1.4279936012710488 6739.194000000027
2.9987899250296923 -1.260384535084634 1.784312770600037 -2.0947246057449442 -1.5707962829157833 1.4279936012710488 6739.244000000027
2.9987899250296923 -1.260384535084634 1.784312770600037 -2.0947246057449442 -1.5707962829157833 1.4279936012710488 6739.294000000027
2.9987899250296923 -1.260384535084634 1.784312770600037 -2.0947246057449442 -1.5707962829157833 1.4279936012710488 6739.344000000027
2.9987899250296923 -1.260384535084634 1.784312770600037 -2.0947246057449442 -1.5707962829157833 1.4279936012710488 6739.3940000000275
2.9987899250296923 -1.260384535084634 1.784312770600037 -2.0947246057449442 -1.5707962829157833 1.4279936012710488 6739.444000000028
2.9987899250296923 -1.260384535084634 1.784312770600037 -2.0947246057449447 -1.5707962829157833 1.4279936012710488 6739.494000000028
2.998789927476919 -1.2606053925311085 1.7839216120038028 -2.0941125895835366 -1.5707962830373423 1.4279936037107688 6739.544000000028
2.9987899426121305 -1.2619713159112986 1.78150243764275 -2.0903274911081806 -1.5707962837891414 1.4279936187995546 6739.594000000028
2.9987899780264295 -1.2651673874077691 1.7758419047516023 -2.0814708850028403 -1.5707962855482467 1.4279936541052232 6739.644000000028
2.9987900365393676 -1.2704480661169013 1.7664893431604003 -2.066837641864416 -1.570796288454712 1.4279937124386781 6739.694000000029
2.9987901170665014 -1.2777154831554713 1.7536180875498977 -2.0466989653094845 -1.5707962924546703 1.4279937927188024 6739.744000000029
2.9987902154869475 -1.2865977367672303 1.7378868097069584 -2.0220854290810366 -1.5707962973434284 1.4279938908373528 6739.794000000029
2.9987903255109356 -1.296527187429481 1.7203008507799544 -1.994570014155218 -1.5707963028085596 1.4279940005238523 6739.844000000029
2.998790439547363 -1.306818752959659 1.7020735535341616 -1.9660511458480658 -1.5707963084729977 1.4279941142104835 6739.894000000029
2.998790549571351 -1.3167482036219098 1.6844875946071576 -1.9385357309222475 -1.570796313938129 1.427994223896983 6739.9440000000295
2.998790647991797 -1.3256304572336686 1.6687563167642183 -1.9139221946937996 -1.570796318826887 1.4279943220155333 6739.99400000003
2.998790728518931 -1.3328978742722388 1.6558850611537157 -1.893783518138868 -1.5707963228268453 1.4279944022956577 6740.04400000003
2.998790787031869 -1.338178552981371 1.6465324995625137 -1.8791502750004436 -1.5707963257333106 1.4279944606291126 6740.09400000003
2.998790822446168 -1.3413746244778415 1.6408719666713658 -1.8702936688951028 -1.570796327492416 1.4279944959347812 6740.14400000003
2.9987908375813794 -1.3427405478580314 1.6384527923103132 -1.8665085704197473 -1.570796328244215 1.427994511023567 6740.19400000003
2.9987908400286063 -1.342961405304506 1.638061633714079 -1.8658965542583394 -1.570796328365774 1.427994513463287 6740.244000000031
2.9987908400286063 -1.342961405304506 1.638061633714079 -1.8658965542583394 -1.570796328365774 1.427994513463287 6740.294000000031
2.9987908400286063 -1.342961405304506 1.638061633714079 -1.8658965542583394 -1.570796328365774 1.427994513463287 6740.344000000031
2.9987908400286063 -1.342961405304506 1.638061633714079 -1.8658965542583394 -1.570796328365774 1.427994513463287 6740.394000000031
2.9987908400286063 -1.342961405304506 1.638061633714079 -1.8658965542583394 -1.570796328365774 1.427994513463287 6740.444000000031
2.9987908400286063 -1.342961405304506 1.638061633714079 -1.8658965542583394 -1.570796328365774 1.427994513463287 6740.4940000000315
2.9987908400286063 -1.342961405304506 1.638061633714079 -1.8658965542583394 -1.570796328365774 1.427994513463287 6740.544000000032
2.9987908400286063 -1.342961405304506 1.638061633714079 -1.8658965542583394 -1.570796328365774 1.427994513463287 6740.594000000032
2.9987908400286063 -1.342961405304506 1.638061633714079 -1.8658965542583394 -1.570796328365774 1.427994513463287 6740.644000000032
2.9987908400286063 -1.342961405304506 1.638061633714079 -1.8658965542583394 -1.570796328365774 1.427994513463287 6740.694000000032
2.9987908400286063 -1.342961405304506 1.638061633714079 -1.8658965542583394 -1.570796328365774 1.427994513463287 6740.744000000032
2.9987908400286063 -1.342961405304506 1.638061633714079 -1.8658965542583394 -1.570796328365774 1.427994513463287 6740.794000000033
2.9987908400286063 -1.342961405304506 1.638061633714079 -1.8658965542583394 -1.570796328365774 1.427994513463287 6740.844000000033
2.9987908400286063 -1.342961405304506 1.638061633714079 -1.8658965542583394 -1.570796328365774 1.427994513463287 6740.894000000033
2.9987908400286063 -1.342961405304506 1.638061633714079 -1.8658965542583394 -1.570796328365774 1.427994513463287 6740.944000000033
2.9987908400286063 -1.342961405304506 1.638061633714079 -1.8658965542583394 -1.570796328365774 1.427994513463287 6740.994000000033
2.9987908400286063 -1.342961405304506 1.638061633714079 -1.8658965542583394 -1.570796328365774 1.427994513463287 6741.0440000000335
2.9987908400286063 -1.342961405304506 1.638061633714079 -1.8658965542583394 -1.570796328365774 1.427994513463287 6741.094000000034
2.9987908400286063 -1.342961405304506 1.638061633714079 -1.8658965542583394 -1.570796328365774 1.427994513463287 6741.144000000034
2.9987908400286063 -1.342961405304506 1.638061633714079 -1.8658965542583394 -1.570796328365774 1.427994513463287 6741.194000000034
2.9987908400286063 -1.342961405304506 1.638061633714079 -1.8658965542583394 -1.570796328365774 1.427994513463287 6741.244000000034
2.9987908400286063 -1.342961405304506 1.638061633714079 -1.8658965542583394 -1.570796328365774 1.427994513463287 6741.294000000034
2.9987908400286063 -1.342961405304506 1.638061633714079 -1.8658965542583394 -1.570796328365774 1.427994513463287 6741.344000000035
2.9987908400286063 -1.342961405304506 1.638061633714079 -1.8658965542583392 -1.570796328365774 1.427994513463287 6741.394000000035
2.99899844189963 -1.3428107938692904 1.6378302245929695 -1.865815756572745 -1.5707963283653206 1.4282021153342435 6741.444000000035
3.0003730868506455 -1.34181351360412 1.6362979388848324 -1.8652807511317617 -1.5707963283623183 1.4295767602848133 6741.494000000035
3.003872643027089 -1.3392746483436442 1.632397062582173 -1.863918740094628 -1.5707963283546753 1.4330763164601221 6741.544000000035
3.010240701812168 -1.3346547358716183 1.625298731149213 -1.861440321142883 -1.5707963283407673 1.4394443752431367 6741.5940000000355
3.020021883309879 -1.3275586640673973 1.6143958688453397 -1.8576335306573448 -1.570796328319405 1.4492255567376768 6741.644000000036
3.0335771418280224 -1.3177245670524262 1.5992861280485542 -1.8523578868950903 -1.5707963282898003 1.4627808152514261 6741.694000000036
3.0510990713612203 -1.3050127213367348 1.579754828578921 -1.8455384331664322 -1.5707963282515323 1.4803027447789436 6741.744000000036
3.072627211073931 -1.2893944419654284 1.5557578970220158 -1.8371597810118985 -1.5707963282045145 1.5018308844846755 6741.794000000036
3.098063350783467 -1.2709409786651809 1.527404806052376 -1.82726015337921 -1.5707963281489616 1.5272670241859656 6741.844000000036
3.12718683644301 -1.2498124119907266 1.4949415137569473 -1.8159254278002603 -1.5707963280853556 1.5563905098360673 6741.894000000037
3.159669875624628 -1.2262465494713535 1.4587334029585342 -1.803283179568093 -1.5707963280144122 1.5888735490071548 6741.944000000037
3.195092843002291 -1.2005478217573948 1.4192482205392485 -1.7894967249138807 -1.570796327937048 1.6242965163733345 6741.994000000037
3.232959585834888 -1.1730761787667223 1.3770390167639575 -1.7747591641839031 -1.5707963278543466 1.6621632591936555 6742.044000000037
3.2727127294492417 -1.1442359858312379 1.3327270846037333 -1.7592874250165267 -1.5707963277675252 1.7019164027951224 6742.094000000037
3.313748982723128 -1.114464919843366 1.286984899059302 -1.7433163055191818 -1.5707963276779016 1.7429526560557054 6742.1440000000375
3.355434443568288 -1.0842228654025468 1.2405190564844912 -1.727092517445342 -1.57079632758686 1.784638116887352 6742.194000000038
3.397119904413448 -1.0539808109617272 1.1940532139096804 -1.710868729371502 -1.5707963274958183 1.8263235777189983 6742.244000000038
3.4381561576873345 -1.0242097449738554 1.148311028365249 -1.694897609874157 -1.5707963274061947 1.8673598309795816 6742.294000000038
3.477909301301689 -0.9953695520383711 1.103999096205025 -1.6794258707067806 -1.5707963273193732 1.9071129745810482 6742.344000000038
3.5157760441342853 -0.9678979090476987 1.0617898924297338 -1.664688309976803 -1.5707963272366718 1.9449797174013692 6742.394000000038
3.5511990115119483 -0.9421991813337403 1.022304710010448 -1.6509018553225907 -1.5707963271593077 1.980402684767549 6742.444000000039
3.5836820506935663 -0.9186333188143669 0.9860965992120347 -1.6382596070904234 -1.5707963270883643 2.0128857239386364 6742.494000000039
3.6128055363531097 -0.8975047521399127 0.9536333069166063 -1.6269248815114739 -1.5707963270247582 2.042009209588738 6742.544000000039
3.6382416760626453 -0.8790512888396649 0.9252802159469664 -1.6170252538787853 -1.5707963269692053 2.067445349290028 6742.594000000039
3.659769815775357 -0.8634330094683584 0.9012832843900611 -1.6086466017242513 -1.5707963269221876 2.0889734889957605 6742.644000000039
3.6772917453085543 -0.8507211637526677 0.8817519849204274 -1.6018271479955934 -1.5707963268839196 2.1064954185232776 6742.6940000000395
3.6908470038266974 -0.8408870667376964 0.8666422441236419 -1.596551504233339 -1.5707963268543148 2.1200506770370273 6742.74400000004
3.70062818532441 -0.833790994933475 0.8557393818197694 -1.5927447137478008 -1.5707963268329526 2.129831858531567 6742.79400000004
3.7069962441094875 -0.8291710824614491 0.8486410503868091 -1.5902662947960555 -1.5707963268190446 2.136199917314582 6742.84400000004
3.7104958002859325 -0.8266322172009739 0.8447401740841487 -1.5889042837589218 -1.5707963268114016 2.13969947348989 6742.89400000004
3.711870445236946 -0.8256349369358034 0.8432078883760132 -1.5883692783179384 -1.5707963268083993 2.1410741184404607 6742.94400000004
3.712078047107971 -0.8254843255005884 0.8429764792549026 -1.5882884806323443 -1.570796326807946 2.141281720311416 6742.994000000041
      6743.044000000041
