Andreas691667/Digital_Twin_UR/src/dt/dt_trajectories/buster_dt_trajectory.csv
actual_q_0 actual_q_1 actual_q_2 actual_q_3 actual_q_4 actual_q_5 timestamp
3.71207804710797 -0.8254843255005873 0.8429764792549035 -1.5882884806323445 -1.570796326807946 2.141281720311417 2416.387
3.71207804710797 -0.8254843255005873 0.8429764792549035 -1.5882884806323445 -1.570796326807946 2.141281720311417 2416.4370000000004
3.71207804710797 -0.8254843255005873 0.8429764792549035 -1.5882884806323445 -1.570796326807946 2.141281720311417 2416.4870000000005
3.71207804710797 -0.8254843255005873 0.8429764792549035 -1.5882884806323445 -1.570796326807946 2.141281720311417 2416.5370000000007
3.71207804710797 -0.8254843255005873 0.8429764792549035 -1.5882884806323445 -1.570796326807946 2.141281720311417 2416.587000000001
3.71207804710797 -0.8254843255005873 0.8429764792549035 -1.5882884806323445 -1.570796326807946 2.141281720311417 2416.637000000001
3.71207804710797 -0.8254843255005873 0.8429764792549035 -1.5882884806323445 -1.570796326807946 2.141281720311417 2416.6870000000013
3.71207804710797 -0.8254843255005873 0.8429764792549035 -1.5882884806323445 -1.570796326807946 2.141281720311417 2416.7370000000014
3.71207804710797 -0.8254843255005873 0.8429764792549035 -1.5882884806323445 -1.570796326807946 2.141281720311417 2416.7870000000016
3.71207804710797 -0.8254843255005873 0.8429764792549035 -1.5882884806323445 -1.570796326807946 2.141281720311417 2416.837000000002
3.71207804710797 -0.8254843255005873 0.8429764792549035 -1.5882884806323445 -1.570796326807946 2.141281720311417 2416.887000000002
3.71207804710797 -0.8254843255005873 0.8429764792549035 -1.5882884806323445 -1.570796326807946 2.141281720311417 2416.937000000002
3.71207804710797 -0.8254843255005873 0.8429764792549035 -1.5882884806323445 -1.570796326807946 2.141281720311417 2416.9870000000024
3.7122689791773014 -0.8255822011483995 0.8431247541871719 -1.5883388799190803 -1.5707963268548544 2.1411975678393773 2417.0370000000025
3.713544740040671 -0.8262361820191524 0.8441154906112279 -1.5886756354876148 -1.5707963271682845 2.1406352818349363 2417.0870000000027
3.7168275167322813 -0.8279189998738993 0.8466648449093596 -1.589542171970193 -1.5707963279748003 2.1391884124079175 2417.137000000003
3.7228710753776704 -0.8310170505030092 0.8513581803555411 -1.591137456859419 -1.5707963294595875 2.1365247404448637 2417.187000000003
3.732270668305987 -0.835835472312677 0.8586577608276864 -1.593618615634119 -1.5707963317688887 2.1323819110927604 2417.2370000000033
3.7454729411622654 -0.8426032249114345 0.8689104445199027 -1.5971035468852008 -1.5707963350124359 2.126563067242757 2417.2870000000034
3.762785840019699 -0.8514781676966612 0.8823553776547448 -1.601673537441516 -1.5707963392658857 2.118932483013891 2417.3370000000036
3.784388518491916 -0.8625521384410955 0.8991316881954681 -1.6073758774957212 -1.5707963445732527 2.109411197236808 2417.387000000004
3.810341244845251 -0.8758560318793451 0.9192861795582831 -1.6142264757301383 -1.5707963509493437 2.0979726469374858 2417.437000000004
3.840595309111022 -0.8913648782943985 0.9427810243246088 -1.6222124744426163 -1.5707963583821913 2.0846383008209557 2417.487000000004
3.8750029301978044 -0.9090029221041348 0.9695014579533265 -1.631294864672393 -1.5707963668354892 2.069473292755027 2417.5370000000044
3.913327163003703 -0.9286487004478358 0.9992634724930336 -1.6414111013259551 -1.5707963762510238 2.0525820552540046 2417.5870000000045
2.9987971782684326 -1.3429356080344697 1.638068977986471 -1.8659082851805628 -1.570784870778219 1.4279978275299072 2425.787
2.9990047782947147 -1.342785004107536 1.6378375667278149 -1.8658274840806897 -1.5707848741124906 1.4282054284363062 2425.837
3.0003794110306936 -1.3417877735587866 1.6363052668658182 -1.8652924560319086 -1.5707848961905164 1.429580067000017 2425.887
3.0038789361102296 -1.3392490348658348 1.632404354530417 -1.8639303874400888 -1.5707849523965147 1.4330796069157292 2425.9370000000004
3.0102469383090087 -1.3346293527057091 1.6253059575295372 -1.861451863757456 -1.5707850546732274 1.439447636111544 2425.9870000000005
3.020028032891556 -1.327533634654896 1.6144029945149536 -1.8576449124078533 -1.5707852117677399 1.4492287721608739 2426.0370000000007
3.0335831709582486 -1.3177000278893798 1.5992931141481466 -1.852369045712001 -1.5707854294773007 1.4627839676943406 2426.087000000001
3.0511049447923244 -1.3049888158846863 1.5797616342661605 -1.8455493038127566 -1.5707857108951413 1.4803058158116755 2426.137000000001
3.0726328932069005 -1.2893713151159232 1.5557644810474611 -1.837170297600376 -1.5707860566562963 1.5018338554936181 2426.1870000000013
3.098068806891979 -1.2709187717578228 1.5274111281777945 -1.827270251637773 -1.5707864651834222 1.5272698770138156 2426.2370000000014
3.1271920337614656 -1.2497912583847826 1.4949475360160431 -1.815935047085779 -1.5707869329326178 1.5563932273507213 2426.2870000000016
3.159674784300177 -1.2262265706709086 1.4587390907600857 -1.803292264628404 -1.5707874546392444 1.5888761155994948 2426.337000000002
3.1950974369108565 -1.200529124090056 1.4192535436126528 -1.7895052273980974 -1.570788023563744 1.6242989183839005 2426.387000000002
3.2329638432611847 -1.1730588506158708 1.377043949947187 -1.7747670439010064 -1.5707886317374602 1.662165485268207 2426.437000000002
3.272716633630793 -1.1442200954218322 1.3327316084736984 -1.759294650942238 -1.5707892702084583 1.7019184441690864 2426.4870000000024
3.3137525222582758 -1.1144505135812948 1.2869890004046247 -1.7433228565511187 -1.5707899292873435 1.7429545067675125 2426.5370000000025
3.3554376126882013 -1.0842099667675285 1.2405227286206872 -1.7270983829064537 -1.5707905987930824 1.784639773920662 2426.5870000000027
3.397122703118127 -1.0539694199537621 1.1940564568367498 -1.7108739092617888 -1.5707912682988214 1.8263250410738117 2426.637000000003
3.4381585917456094 -1.024199838113225 1.148313848767676 -1.6949021148706693 -1.5707919273777067 1.8673611036722377 2426.687000000003
3.4779113821152174 -0.9953610829191862 1.1040015072941878 -1.6794297219119012 -1.5707925658487047 1.907114062573117 2426.7370000000033
3.515777788465546 -0.967890809445001 1.061791913628722 -1.6646915384148102 -1.570793174022421 1.9449806294574237 2426.7870000000034
3.5512004410762255 -0.9421933628641481 1.0223063664812888 -1.6509045011845034 -1.5707937429469205 1.9804034322418294 2426.8370000000036
3.5836831916149365 -0.9186286751502746 0.9860979212253316 -1.6382617187271287 -1.570794264653547 2.012886320490603 2426.887000000004
3.612806418484423 -0.8975011617772344 0.95363432906358 -1.6269265141751346 -1.5707947324027427 2.0420096708275084 2426.937000000004
3.638242332169502 -0.8790486184191337 0.9252809761939136 -1.6170264682125313 -1.5707951409298686 2.067445692347706 2426.987000000004
3.6597702805840777 -0.8634311176503711 0.9012838229752145 -1.608647462000151 -1.5707954866910236 2.088973732029649 2427.0370000000044
3.6772920544181535 -0.8507199056456769 0.8817523430932281 -1.6018277201009068 -1.5707957681088642 2.1064955801469836 2427.0870000000045
3.690847192484846 -0.8408862988801613 0.8666424627264213 -1.5965518534050545 -1.570795985818425 2.1200507756804505 2427.1370000000047
3.700628287067393 -0.8337905808293482 0.8557394997118379 -1.5927449020554516 -1.5707961429129376 2.12983191172978 2427.187000000005
3.706996289266172 -0.8291708986692221 0.8486411027109577 -1.5902663783728188 -1.5707962451896502 2.1361999409255956 2427.237000000005
3.710495814345708 -0.8266321599762709 0.8447401903755578 -1.5889043097809994 -1.5707963013956485 2.1396994808413066 2427.2870000000053
3.7118704470816857 -0.8256349294275216 0.8432078905135594 -1.5883692817322186 -1.5707963234736744 2.141074119405019 2427.3370000000054
3.712078047107969 -0.8254843255005877 0.8429764792549044 -1.588288480632345 -1.570796326807946 2.141281720311417 2427.3870000000056
3.712078047107969 -0.8254843255005877 0.8429764792549044 -1.588288480632345 -1.570796326807946 2.141281720311417 2427.437000000006
3.712078047107969 -0.8254843255005877 0.8429764792549044 -1.588288480632345 -1.570796326807946 2.141281720311417 2427.487000000006
3.712078047107969 -0.8254843255005877 0.8429764792549044 -1.588288480632345 -1.570796326807946 2.141281720311417 2427.537000000006
3.712078047107969 -0.8254843255005877 0.8429764792549044 -1.588288480632345 -1.570796326807946 2.141281720311417 2427.5870000000064
3.712078047107969 -0.8254843255005877 0.8429764792549044 -1.588288480632345 -1.570796326807946 2.141281720311417 2427.6370000000065
3.712078047107969 -0.8254843255005877 0.8429764792549044 -1.588288480632345 -1.570796326807946 2.141281720311417 2427.6870000000067
3.712078047107969 -0.8254843255005877 0.8429764792549044 -1.588288480632345 -1.570796326807946 2.141281720311417 2427.737000000007
3.712078047107969 -0.8254843255005877 0.8429764792549044 -1.588288480632345 -1.570796326807946 2.141281720311417 2427.787000000007
2.980024099349976 -1.509608206605055 1.8335569540606895 -1.8946696720519007 -1.5708048979388636 -0.161548916493551 2436.237
2.9800555632461903 -1.5095788027573485 1.8335143786175183 -1.8946565036972483 -1.5708048975704738 -0.16144994014846437 2436.2870000000003
2.980269590720807 -1.5093787883908576 1.8332247668504116 -1.8945669283416744 -1.570804895064569 -0.1607766714267051 2436.3370000000004
2.9808319217323427 -1.5088532751069594 1.8324638473551877 -1.8943315800509999 -1.5708048884806107 -0.1590077402087871 2436.3870000000006
2.9818905105267888 -1.507863995728345 1.83103141550527 -1.893888536615391 -1.5708048760863011 -0.15567772509843245 2436.437000000001
2.983576149697703 -1.506288721098273 1.8287504890033515 -1.8931830583660492 -1.5708048563502777 -0.15037519030947627 2436.487000000001
2.986003094246296 -1.5040206768798192 1.8254664634330566 -1.8921673269919006 -1.5708048279348041 -0.14274072255277176 2436.537000000001
2.9892696856415206 -1.5009679603551314 1.821046267810605 -1.890800184356286 -1.5708047896884665 -0.13246496792309517 2436.5870000000014
2.993458975880161 -1.4970529572246802 1.815377520136474 -1.8890468713136506 -1.570804740638864 -0.11928666878605078 2436.6370000000015
2.99863935154692 -1.4922117584065109 1.8083676829470612 -1.8868787665262323 -1.5708046799853042 -0.10299070066497584 2436.6870000000017
3.004865157874508 -1.4863935768354959 1.7999432188663487 -1.8842731252807534 -1.5708046070914945 -0.0834061091278455 2436.737000000002
3.012177322803732 -1.4795601642625873 1.7900487461575645 -1.8812128183051087 -1.5708045214782373 -0.06040414667417811 2436.787000000002
3.0206039810435845 -1.4716852280540684 1.7786461942748466 -1.8776860705850558 -1.570804422816122 -0.03389630962193971 2436.8370000000023
3.03016109813133 -1.462753847990806 1.7657139594149056 -1.873686200180904 -1.5708043109182188 -0.0038323749944492447 2436.8870000000024
3.0408530944925958 -1.4527618930675026 1.751246060068687 -1.869211357044205 -1.570804185732772 0.029801562592716185 2436.9370000000026
3.05267346950146 -1.4417154382919488 1.7352512925730355 -1.864264261834442 -1.5708040473358929 0.06698505404481689 2436.987000000003
3.0656054255405385 -1.4296301814842747 1.7177523866623565 -1.8588519447357188 -1.5708038959242536 0.10766525890104514 2437.037000000003
3.0796224920610764 -1.4165308600762028 1.69878516102028 -1.8529854842734508 -1.5708037318077803 0.15175890844762038 2437.087000000003
3.0946891496430338 -1.4024506679102995 1.6783976788313233 -1.846679746131053 -1.5708035554023458 0.1991542688308844 2437.1370000000034
3.110761454055176 -1.3874306720392275 1.6566494033325538 -1.8399531219666303 -1.5708033672224642 0.2497131041703964 2437.1870000000035
3.1277876603151604 -1.3715192295249983 1.6336103533652522 -1.832827268229668 -1.5708031678739827 0.3032726396720272 2437.2370000000037
3.1457088467496277 -1.3547714042382235 1.6093602589265752 -1.8253268449777205 -1.570802958046776 0.359647524741055 2437.287000000004
3.1644595390542882 -1.3372483836573679 1.5839877167212182 -1.8174792546931005 -1.5708027385074386 0.41863179609526113 2437.337000000004
3.183968334354011 -1.3190168956680004 1.5575893457130796 -1.8093143810995695 -1.5708025100919796 0.4800008408780233 2437.3870000000043
3.2041585252629123 -1.3001486253620476 1.5302689426769216 -1.8008643279790277 -1.570802273698514 0.5435133597714114 2437.4370000000044
3.2249487239444448 -1.2807196318370446 1.5021366377500351 -1.7921631579882022 -1.5708020302799584 0.6089133301092836 2437.4870000000046
3.246253486171485 -1.260809764995388 1.4733080499839013 -1.7832466314753381 -1.5708017808367216 0.6759319689903799 2437.537000000005
3.2679839353864235 -1.2405020823435875 1.4439034428958555 -1.7741519452968872 -1.5708015264094002 0.7442896963914175 2437.587000000005
3.290048386761251 -1.2198822657915183 1.41404688002075 -1.7649174716341984 -1.5708012680714702 0.8136980982801859 2437.637000000005
3.3123529712576496 -1.1990380384516732 1.3838653804626158 -1.7555824968102067 -1.5708010069219822 0.8838618897286433 2437.6870000000054
3.3348022596870788 -1.1780585814384148 1.3534880744463273 -1.7461869601061224 -1.5708007440782523 0.9544808780260087 2437.7370000000055
3.357299886770867 -1.1570339506672274 1.3230453588692652 -1.7367711925781226 -1.5708004806685572 1.0252519257918586 2437.7870000000057
3.3797491752002964 -1.1360544936539687 1.292668052852977 -1.7273756558740385 -1.5708002178248273 1.0958709140892235 2437.837000000006
3.4020537596966953 -1.115210266314124 1.262486553294843 -1.7180406810500468 -1.5707999566753392 1.1660347055376805 2437.887000000006
3.4241182110715225 -1.0945904497620549 1.2326299904197375 -1.708806207387358 -1.5707996983374093 1.2354431074264487 2437.9370000000063
3.445848660286461 -1.0742827671102542 1.2032253833316917 -1.6997115212089073 -1.5707994439100879 1.3038008348274865 2437.9870000000064
3.4671534225135012 -1.0543729002685978 1.1743967955655583 -1.6907949946960432 -1.5707991944668511 1.3708194737085821 2438.0370000000066
3.4879436211950336 -1.0349439067435944 1.1462644906386714 -1.6820938247052175 -1.5707989510482954 1.436219444046455 2438.087000000007
3.508133812103935 -1.016075636437642 1.1189440876025136 -1.6736437715846757 -1.57079871465483 1.499731962939844 2438.137000000007
3.5276426074036573 -0.9978441484482745 1.092545716594375 -1.6654788979911448 -1.570798486239371 1.5611010077226055 2438.187000000007
3.5463932997083183 -0.9803211278674184 1.0671731743890176 -1.6576313077065248 -1.5707982667000335 1.6200852790768128 2438.2370000000074
3.5643144861427856 -0.9635733025806439 1.0429230799503408 -1.6501308844545772 -1.5707980568728268 1.6764601641458388 2438.2870000000075
3.5813406924027698 -0.9476618600664146 1.0198840299830396 -1.643005030717615 -1.5707978575243453 1.7300196996474693 2438.3370000000077
3.5974129968149122 -0.9326418641953431 0.9981357544842704 -1.6362784065531926 -1.5707976693444636 1.7805785349869812 2438.387000000008
3.6124796543968696 -0.918561672029439 0.9777482722953124 -1.6299726684107947 -1.5707974929390291 1.8279738953702473 2438.437000000008
3.626496720917407 -0.9054623506213675 0.9587810466532372 -1.6241062079485267 -1.5707973288225558 1.8720675449168214 2438.4870000000083
3.639428676956486 -0.8933770938136933 0.9412821407425576 -1.6186938908498036 -1.5707971774109166 1.9127477497730503 2438.5370000000084
3.6512490519653507 -0.8823306390381398 0.925287373246906 -1.6137467956400402 -1.5707970390140376 1.9499312412251513 2438.5870000000086
3.6619410483266157 -0.8723386841148368 0.9108194739006883 -1.6092719525033417 -1.5707969138285907 1.9835651788123148 2438.637000000009
3.671498165414361 -0.8634073040515737 0.8978872390407469 -1.6052720820991895 -1.5707968019306875 2.0136291134398068 2438.687000000009
3.679924823654214 -0.8555323678430553 0.8864846871580292 -1.6017453343791368 -1.5707967032685721 2.040136950492043 2438.737000000009
3.6872369885834373 -0.8486989552701472 0.8765902144492441 -1.598685027403492 -1.570796617655315 2.0631389129457123 2438.7870000000094
3.6934627949110257 -0.8428807736991315 0.8681657503685318 -1.5960793861580134 -1.5707965447615053 2.0827235044828445 2438.8370000000095
3.698643170577785 -0.8380395748809617 0.861155913179118 -1.5939112813705947 -1.5707964841079454 2.0990194726039206 2438.8870000000097
3.7028324608164245 -0.834124571750511 0.8554871655049892 -1.5921579683279594 -1.570796435058343 2.112197771740961 2438.93700000001
3.7060990522116497 -0.8310718552258232 0.8510669698825362 -1.5907908256923449 -1.5707963968120053 2.122473526370639 2438.98700000001
4.550808429718018 -1.4931172144464036 1.847072903309957 -1.9249292812743128 -1.5707524458514612 1.409258484840393 2440.787
4.550661922723815 -1.493118752560609 1.8470716426778895 -1.924926458961722 -1.5707524507436654 1.4091119756943626 2440.837
4.549674015877443 -1.4931291241716205 1.8470631421482238 -1.924907427911729 -1.5707524837321383 1.4081240543380638 2440.887
4.54710460606107 -1.4931560993051984 1.8470410334398497 -1.9248579307685043 -1.5707525695306184 1.405554606783368 2440.9370000000004
4.542319612702341 -1.4932063349017934 1.8469998605517934 -1.9247657525958757 -1.570752729312509 1.4007695431448326 2440.9870000000005
4.53478604649319 -1.493285426587953 1.8469350373315843 -1.9246206258810665 -1.5707529808755438 1.3932358662860873 2441.0370000000007
4.524067078108657 -1.493397960447733 1.846842805043619 -1.9244141355384314 -1.570753338806455 1.382516740466221 2441.087000000001
4.509817106925701 -1.4935475647941068 1.846720189937529 -1.924139623913194 -1.570753814645639 1.3682665599861692 2441.137000000001
4.491776829742018 -1.493736961940376 1.8465649608165458 -1.9237920957851826 -1.5707544170518237 1.3502260178350989 2441.1870000000013
4.469768309494853 -1.4939680199715792 1.8463755866058655 -1.9233681233725686 -1.5707551519667355 1.3282171743367972 2441.2370000000014
4.443690043979817 -1.4942418045159023 1.8461511939210165 -1.9228657513356011 -1.5707560227797654 1.3021385257960574 2441.2870000000016
4.413512034569703 -1.4945586305160885 1.8458915246362233 -1.9222844017803467 -1.5707570304926364 1.271960073145065 2441.337000000002
4.379270854933298 -1.4949181140008485 1.8455968934527736 -1.9216247792624233 -1.57075817388407 1.2377183905897855 2441.387000000002
4.341064719754202 -1.4953192238562691 1.8452681454673832 -1.920888775790739 -1.5707594496744524 1.19951169425635 2441.437000000002
4.299048553449638 -1.4957603335972243 1.844906613740562 -1.9200793758312282 -1.5707608526905028 1.1574949108374433 2441.4870000000024
4.253429058889274 -1.4962392731387846 1.8445140768649806 -1.9192005613105887 -1.5707623760299387 1.1118747462386889 2441.5370000000025
4.204459786114031 -1.496753380567627 1.844092716533834 -1.9182572166200178 -1.5707640112261436 1.0629047542250372 2441.5870000000027
4.152436201054904 -1.4972995539134446 1.8436450751092093 -1.9172550336189502 -1.570765748412833 1.0108804050671516 2441.637000000003
4.097690754251773 -1.4978743029203567 1.8431740131904504 -1.9162004166387943 -1.5707675764887217 0.9561341541877945 2441.687000000003
4.04058794957222 -1.498473800818319 1.842682667182524 -1.9151003874866686 -1.5707694832821903 0.8990305108082156 2441.7370000000033
3.9815194129303464 -1.4990939360945321 1.8421744068643855 -1.9139624904491397 -1.5707714557159527 0.8399611065945374 2441.7870000000034
3.92089896100558 -1.4997303642648532 1.8416527929573439 -1.9127946972959575 -1.570773479971722 0.779339764304142 2441.8370000000036
3.8591576699615016 -1.5003785596452046 1.841121534693429 -1.9116053122837942 -1.570775541654877 0.7175975664320582 2441.887000000004
3.79673894416465 -1.5010338671229841 1.8405844473837558 -1.9104028771599786 -1.5707776259591304 0.6551779238573483 2441.937000000004
3.734093584903343 -1.5016915539284743 1.8400454099868908 -1.909196076166235 -1.5707797178311944 0.5925316444894941 2441.987000000004
3.671674859106492 -1.5023468614062538 1.8395083226772175 -1.9079936410424196 -1.5707818021354478 0.5301120019147842 2442.0370000000044
3.6099335680624134 -1.5029950567866053 1.8389770644133028 -1.906804256030256 -1.570783863818603 0.4683698040427 2442.0870000000045
3.5493131161376477 -1.5036314849569263 1.8384554505062614 -1.9056364628770739 -1.5707858880743721 0.40774846175230506 2442.1370000000047
3.490244579495773 -1.5042516202331395 1.8379471901881226 -1.904498565839545 -1.5707878605081345 0.3486790575386265 2442.187000000005
3.4331417748162205 -1.5048511181311017 1.8374558441801963 -1.9033985366874193 -1.5707897673016031 0.29157541415904786 2442.237000000005
3.3783963280130895 -1.5054258671380139 1.8369847822614374 -1.9023439197072634 -1.5707915953774918 0.2368291632796904 2442.2870000000053
3.3263727429539625 -1.5059720404838315 1.8365371408368125 -1.9013417367061958 -1.5707933325641812 0.18480481412180438 2442.3370000000054
3.2774034701787196 -1.5064861479126739 1.836115780505666 -1.9003983920156249 -1.570794967760386 0.13583482210815223 2442.3870000000056
3.231783975618355 -1.5069650874542342 1.8357232436300845 -1.8995195774949853 -1.570796491099822 0.0902146575093985 2442.437000000006
3.189767809313791 -1.5074061971951893 1.8353617119032635 -1.8987101775354747 -1.5707978941158725 0.04819787409049159 2442.487000000006
3.151561674134695 -1.50780730705061 1.835032963917873 -1.8979741740637903 -1.570799169906255 0.00999117775705649 2442.537000000006
3.1173204944982897 -1.50816679053537 1.8347383327344233 -1.897314551545867 -1.5708003132976884 -0.024250504798222217 2442.5870000000064
3.087142485088177 -1.5084836165355562 1.8344786634496302 -1.8967332019906125 -1.5708013210105594 -0.05442895744921472 2442.6370000000065
3.061064219573142 -1.5087574010798792 1.834254270764781 -1.896230829953645 -1.5708021918235893 -0.08050760598995499 2442.6870000000067
3.0390556993259743 -1.5089884591110825 1.8340648965541009 -1.895806857541031 -1.570802926738501 -0.10251644948825778 2442.737000000007
3.021015422142293 -1.5091778562573515 1.8339096674331177 -1.8954593294130195 -1.5708035291446858 -0.12055699163932587 2442.787000000007
3.0067654509593353 -1.5093274606037255 1.8337870523270277 -1.8951848177877821 -1.5708040049838699 -0.13480717211938043 2442.8370000000073
2.996046482574803 -1.5094399944635055 1.8336948200390626 -1.894978327445147 -1.570804362914781 -0.1455262979392451 2442.8870000000074
2.9885129163656536 -1.509519086149665 1.8336299968188532 -1.894833200730338 -1.5708046144778158 -0.1530599747979906 2442.9370000000076
2.9837279230069242 -1.5095693217462598 1.833588823930797 -1.8947410225577093 -1.5708047742597064 -0.1578450384365251 2442.987000000008
2.981158513190552 -1.509596296879838 1.8335667152224229 -1.8946915254144843 -1.5708048600581865 -0.16041448599122354 2443.037000000008
2.9801706063441795 -1.5096066684908491 1.8335582146927571 -1.8946724943644915 -1.5708048930466594 -0.1614024073475182 2443.087000000008
2.9800240993499756 -1.509608206605055 1.8335569540606895 -1.8946696720519007 -1.5708048979388636 -0.16154891649355108 2443.1370000000084
2.980024099349976 -1.509608206605055 1.8335569540606895 -1.8946696720519007 -1.5708048979388636 -0.161548916493551 2443.1870000000085
2.9800555632461903 -1.5095788027573485 1.8335143786175183 -1.8946565036972483 -1.5708048975704738 -0.16144994014846437 2443.2370000000087
2.980269590720807 -1.5093787883908576 1.8332247668504116 -1.8945669283416744 -1.570804895064569 -0.1607766714267051 2443.287000000009
2.9808319217323427 -1.5088532751069594 1.8324638473551877 -1.8943315800509999 -1.5708048884806107 -0.1590077402087871 2443.337000000009
2.9818905105267888 -1.507863995728345 1.83103141550527 -1.893888536615391 -1.5708048760863011 -0.15567772509843245 2443.3870000000093
2.983576149697703 -1.506288721098273 1.8287504890033515 -1.8931830583660492 -1.5708048563502777 -0.15037519030947627 2443.4370000000094
2.986003094246296 -1.5040206768798192 1.8254664634330566 -1.8921673269919006 -1.5708048279348041 -0.14274072255277176 2443.4870000000096
2.9892696856415206 -1.5009679603551314 1.821046267810605 -1.890800184356286 -1.5708047896884665 -0.13246496792309517 2443.53700000001
2.993458975880161 -1.4970529572246802 1.815377520136474 -1.8890468713136506 -1.570804740638864 -0.11928666878605078 2443.58700000001
2.99863935154692 -1.4922117584065109 1.8083676829470612 -1.8868787665262323 -1.5708046799853042 -0.10299070066497584 2443.63700000001
3.004865157874508 -1.4863935768354959 1.7999432188663487 -1.8842731252807534 -1.5708046070914945 -0.0834061091278455 2443.6870000000104
3.012177322803732 -1.4795601642625873 1.7900487461575645 -1.8812128183051087 -1.5708045214782373 -0.06040414667417811 2443.7370000000105
3.0206039810435845 -1.4716852280540684 1.7786461942748466 -1.8776860705850558 -1.570804422816122 -0.03389630962193971 2443.7870000000107
3.03016109813133 -1.462753847990806 1.7657139594149056 -1.873686200180904 -1.5708043109182188 -0.0038323749944492447 2443.837000000011
3.0408530944925958 -1.4527618930675026 1.751246060068687 -1.869211357044205 -1.570804185732772 0.029801562592716185 2443.887000000011
3.05267346950146 -1.4417154382919488 1.7352512925730355 -1.864264261834442 -1.5708040473358929 0.06698505404481689 2443.9370000000113
3.0656054255405385 -1.4296301814842747 1.7177523866623565 -1.8588519447357188 -1.5708038959242536 0.10766525890104514 2443.9870000000114
3.0796224920610764 -1.4165308600762028 1.69878516102028 -1.8529854842734508 -1.5708037318077803 0.15175890844762038 2444.0370000000116
3.0946891496430338 -1.4024506679102995 1.6783976788313233 -1.846679746131053 -1.5708035554023458 0.1991542688308844 2444.087000000012
3.110761454055176 -1.3874306720392275 1.6566494033325538 -1.8399531219666303 -1.5708033672224642 0.2497131041703964 2444.137000000012
3.1277876603151604 -1.3715192295249983 1.6336103533652522 -1.832827268229668 -1.5708031678739827 0.3032726396720272 2444.187000000012
3.1457088467496277 -1.3547714042382235 1.6093602589265752 -1.8253268449777205 -1.570802958046776 0.359647524741055 2444.2370000000124
3.1644595390542882 -1.3372483836573679 1.5839877167212182 -1.8174792546931005 -1.5708027385074386 0.41863179609526113 2444.2870000000125
3.183968334354011 -1.3190168956680004 1.5575893457130796 -1.8093143810995695 -1.5708025100919796 0.4800008408780233 2444.3370000000127
3.2041585252629123 -1.3001486253620476 1.5302689426769216 -1.8008643279790277 -1.570802273698514 0.5435133597714114 2444.387000000013
3.2249487239444448 -1.2807196318370446 1.5021366377500351 -1.7921631579882022 -1.5708020302799584 0.6089133301092836 2444.437000000013
3.246253486171485 -1.260809764995388 1.4733080499839013 -1.7832466314753381 -1.5708017808367216 0.6759319689903799 2444.4870000000133
3.2679839353864235 -1.2405020823435875 1.4439034428958555 -1.7741519452968872 -1.5708015264094002 0.7442896963914175 2444.5370000000134
3.290048386761251 -1.2198822657915183 1.41404688002075 -1.7649174716341984 -1.5708012680714702 0.8136980982801859 2444.5870000000136
3.3123529712576496 -1.1990380384516732 1.3838653804626158 -1.7555824968102067 -1.5708010069219822 0.8838618897286433 2444.637000000014
3.3348022596870788 -1.1780585814384148 1.3534880744463273 -1.7461869601061224 -1.5708007440782523 0.9544808780260087 2444.687000000014
3.357299886770867 -1.1570339506672274 1.3230453588692652 -1.7367711925781226 -1.5708004806685572 1.0252519257918586 2444.737000000014
3.3797491752002964 -1.1360544936539687 1.292668052852977 -1.7273756558740385 -1.5708002178248273 1.0958709140892235 2444.7870000000144
3.4020537596966953 -1.115210266314124 1.262486553294843 -1.7180406810500468 -1.5707999566753392 1.1660347055376805 2444.8370000000145
3.4241182110715225 -1.0945904497620549 1.2326299904197375 -1.708806207387358 -1.5707996983374093 1.2354431074264487 2444.8870000000147
3.445848660286461 -1.0742827671102542 1.2032253833316917 -1.6997115212089073 -1.5707994439100879 1.3038008348274865 2444.937000000015
3.4671534225135012 -1.0543729002685978 1.1743967955655583 -1.6907949946960432 -1.5707991944668511 1.3708194737085821 2444.987000000015
3.4879436211950336 -1.0349439067435944 1.1462644906386714 -1.6820938247052175 -1.5707989510482954 1.436219444046455 2445.0370000000153
3.508133812103935 -1.016075636437642 1.1189440876025136 -1.6736437715846757 -1.57079871465483 1.499731962939844 2445.0870000000155
3.5276426074036573 -0.9978441484482745 1.092545716594375 -1.6654788979911448 -1.570798486239371 1.5611010077226055 2445.1370000000156
3.5463932997083183 -0.9803211278674184 1.0671731743890176 -1.6576313077065248 -1.5707982667000335 1.6200852790768128 2445.187000000016
3.5643144861427856 -0.9635733025806439 1.0429230799503408 -1.6501308844545772 -1.5707980568728268 1.6764601641458388 2445.237000000016
3.5813406924027698 -0.9476618600664146 1.0198840299830396 -1.643005030717615 -1.5707978575243453 1.7300196996474693 2445.287000000016
3.5974129968149122 -0.9326418641953431 0.9981357544842704 -1.6362784065531926 -1.5707976693444636 1.7805785349869812 2445.3370000000164
3.6124796543968696 -0.918561672029439 0.9777482722953124 -1.6299726684107947 -1.5707974929390291 1.8279738953702473 2445.3870000000165
3.626496720917407 -0.9054623506213675 0.9587810466532372 -1.6241062079485267 -1.5707973288225558 1.8720675449168214 2445.4370000000167
3.639428676956486 -0.8933770938136933 0.9412821407425576 -1.6186938908498036 -1.5707971774109166 1.9127477497730503 2445.487000000017
3.6512490519653507 -0.8823306390381398 0.925287373246906 -1.6137467956400402 -1.5707970390140376 1.9499312412251513 2445.537000000017
3.6619410483266157 -0.8723386841148368 0.9108194739006883 -1.6092719525033417 -1.5707969138285907 1.9835651788123148 2445.5870000000173
3.671498165414361 -0.8634073040515737 0.8978872390407469 -1.6052720820991895 -1.5707968019306875 2.0136291134398068 2445.6370000000175
3.679924823654214 -0.8555323678430553 0.8864846871580292 -1.6017453343791368 -1.5707967032685721 2.040136950492043 2445.6870000000176
3.6872369885834373 -0.8486989552701472 0.8765902144492441 -1.598685027403492 -1.570796617655315 2.0631389129457123 2445.737000000018
3.6934627949110257 -0.8428807736991315 0.8681657503685318 -1.5960793861580134 -1.5707965447615053 2.0827235044828445 2445.787000000018
3.698643170577785 -0.8380395748809617 0.861155913179118 -1.5939112813705947 -1.5707964841079454 2.0990194726039206 2445.837000000018
3.7028324608164245 -0.834124571750511 0.8554871655049892 -1.5921579683279594 -1.570796435058343 2.112197771740961 2445.8870000000184
3.7060990522116497 -0.8310718552258232 0.8510669698825362 -1.5907908256923449 -1.5707963968120053 2.122473526370639 2445.9370000000185
3.7085259967602426 -0.8288038110073703 0.8477829443122429 -1.5897750943181963 -1.5707963683965318 2.130107994127343 2445.9870000000187
3.710211635931157 -0.8272285363772962 0.8455020178103234 -1.5890696160688544 -1.5707963486605083 2.135410528916303 2446.037000000019
3.7112702247256046 -0.8262392569986838 0.8440695859604064 -1.5886265726332458 -1.5707963362661987 2.138740544026657 2446.087000000019
3.7118325557371388 -0.8257137437147852 0.843308666465181 -1.5883912243425709 -1.5707963296822405 2.1405094752445706 2446.1370000000193
3.7120465832117557 -0.8255137293482937 0.8430190546980734 -1.5883016489869966 -1.5707963271763357 2.1411827439663362 2446.1870000000195
3.7120780471079695 -0.8254843255005877 0.8429764792549042 -1.588288480632345 -1.570796326807946 2.1412817203114187 2446.2370000000196
3.7120780471079695 -0.8254843255005877 0.8429764792549042 -1.588288480632345 -1.570796326807946 2.1412817203114187 2446.28700000002
3.7120780471079695 -0.8254843255005877 0.8429764792549042 -1.588288480632345 -1.570796326807946 2.1412817203114187 2446.33700000002
3.7120780471079695 -0.8254843255005877 0.8429764792549042 -1.588288480632345 -1.570796326807946 2.1412817203114187 2446.38700000002
3.7120780471079695 -0.8254843255005877 0.8429764792549042 -1.588288480632345 -1.570796326807946 2.1412817203114187 2446.4370000000204
3.7120780471079695 -0.8254843255005877 0.8429764792549042 -1.588288480632345 -1.570796326807946 2.1412817203114187 2446.4870000000205
3.7120780471079695 -0.8254843255005877 0.8429764792549042 -1.588288480632345 -1.570796326807946 2.1412817203114187 2446.5370000000207
3.7120780471079695 -0.8254843255005877 0.8429764792549042 -1.588288480632345 -1.570796326807946 2.1412817203114187 2446.587000000021
3.7120780471079695 -0.8254843255005877 0.8429764792549042 -1.588288480632345 -1.570796326807946 2.1412817203114187 2446.637000000021
3.7120780471079695 -0.8254843255005877 0.8429764792549042 -1.588288480632345 -1.570796326807946 2.1412817203114187 2446.6870000000213
3.7120780471079695 -0.8254843255005877 0.8429764792549042 -1.588288480632345 -1.570796326807946 2.1412817203114187 2446.7370000000215
3.7120780471079695 -0.8254843255005877 0.8429764792549042 -1.588288480632345 -1.570796326807946 2.1412817203114187 2446.7870000000216
3.7120780471079695 -0.8254843255005877 0.8429764792549042 -1.588288480632345 -1.570796326807946 2.1412817203114187 2446.837000000022
3.71207804710797 -0.8254843255005873 0.8429764792549035 -1.5882884806323445 -1.570796326807946 2.141281720311417 2446.887000000022
3.7122689791773014 -0.8255822011483995 0.8431247541871719 -1.5883388799190803 -1.5707963268548544 2.1411975678393773 2446.937000000022
3.713544740040671 -0.8262361820191524 0.8441154906112279 -1.5886756354876148 -1.5707963271682845 2.1406352818349363 2446.9870000000224
3.7168275167322813 -0.8279189998738993 0.8466648449093596 -1.589542171970193 -1.5707963279748003 2.1391884124079175 2447.0370000000225
3.7228710753776704 -0.8310170505030092 0.8513581803555411 -1.591137456859419 -1.5707963294595875 2.1365247404448637 2447.0870000000227
3.732270668305987 -0.835835472312677 0.8586577608276864 -1.593618615634119 -1.5707963317688887 2.1323819110927604 2447.137000000023
3.7454729411622654 -0.8426032249114345 0.8689104445199027 -1.5971035468852008 -1.5707963350124359 2.126563067242757 2447.187000000023
3.762785840019699 -0.8514781676966612 0.8823553776547448 -1.601673537441516 -1.5707963392658857 2.118932483013891 2447.2370000000233
3.784388518491916 -0.8625521384410955 0.8991316881954681 -1.6073758774957212 -1.5707963445732527 2.109411197236808 2447.2870000000235
3.810341244845251 -0.8758560318793451 0.9192861795582831 -1.6142264757301383 -1.5707963509493437 2.0979726469374858 2447.3370000000236
3.8405953091110225 -0.8913648782943985 0.9427810243246089 -1.6222124744426163 -1.5707963583821913 2.0846383008209557 2447.387000000024
3.8750029301978044 -0.9090029221041348 0.9695014579533265 -1.631294864672393 -1.5707963668354892 2.069473292755027 2447.437000000024
3.913327163003703 -0.9286487004478358 0.9992634724930336 -1.6414111013259551 -1.5707963762510238 2.0525820552540046 2447.487000000024
3.955251805528629 -0.9501401217726961 1.0318215102942974 -1.6524777183029 -1.5707963865511108 2.0341039529624183 2447.5370000000244
4.000391305986574 -0.9732795444203345 1.0668761577219086 -1.6643929436217972 -1.5707963976410269 2.014208916138738 2447.5870000000245
4.048300669917882 -0.9978388552133042 1.1040818388671358 -1.6770393145460483 -1.570796409411446 1.9930930741391024 2447.6370000000247
4.098485367301527 -1.023564548041604 1.143054509259978 -1.6902862927097497 -1.570796421740871 1.970974388901036 2447.687000000025
4.150411239667385 -1.0501828024491897 1.18337934958142 -1.703992879243553 -1.5707964344980696 1.9480882884271746 2447.737000000025
4.203514407208509 -1.077404562220484 1.2246184593756846 -1.7180102299005264 -1.5707964475445073 1.9246833002689874 2447.7870000000253
4.257211175893402 -1.104930613966888 1.2663185507624877 -1.7321842701820154 -1.5707964607367817 1.9010166850104984 2447.8370000000255
4.310907944578295 -1.132456665713292 1.3080186421492905 -1.746358310463504 -1.5707964739290559 1.8773500697520094 2447.8870000000256
4.364011112119418 -1.1596784254845862 1.3492577519435551 -1.7603756611204775 -1.5707964869754936 1.8539450815938223 2447.937000000026
4.415936984485277 -1.186296679892172 1.3895825922649971 -1.774082247654281 -1.5707964997326922 1.831058981119961 2447.987000000026
4.4661216818689216 -1.212022372720472 1.4285552626578395 -1.7873292258179825 -1.5707965120621172 1.8089402958818943 2448.037000000026
4.5140310458002295 -1.2365816835134416 1.4657609438030665 -1.7999755967422337 -1.5707965238325363 1.7878244538822583 2448.0870000000264
4.559170546258175 -1.2597211061610796 1.5008155912306778 -1.8118908220611303 -1.5707965349224524 1.7679294170585789 2448.1370000000265
4.6010951887831 -1.2812125274859398 1.5333736290319409 -1.8229574390380754 -1.5707965452225394 1.7494513147669921 2448.1870000000267
4.639419421588999 -1.3008583058296415 1.5631356435716484 -1.8330736756916375 -1.570796554638074 1.73256007726597 2448.237000000027
4.673827042675782 -1.3184963496393773 1.5898560772003663 -1.8421560659214142 -1.5707965630913718 1.7173950692000408 2448.287000000027
4.704081106941552 -1.33400519605443 1.613350921966691 -1.850142064633892 -1.5707965705242195 1.7040607230835114 2448.3370000000273
4.730033833294888 -1.347309089492681 1.633505413329508 -1.8569926628683096 -1.5707965769003105 1.6926221727841888 2448.3870000000275
4.751636511767104 -1.3583830602371147 1.6502817238702292 -1.8626950029225142 -1.5707965822076775 1.6831008870071056 2448.4370000000276
4.768949410624537 -1.3672580030223411 1.6637266570050722 -1.8672649934788292 -1.5707965864611273 1.67547030277824 2448.487000000028
4.782151683480817 -1.3740257556210982 1.6739793406972883 -1.8707499247299113 -1.5707965897046745 1.6696514589282363 2448.537000000028
4.791551276409133 -1.378844177430766 1.681278921169433 -1.8732310835046113 -1.5707965920139757 1.6655086295761325 2448.587000000028
4.797594835054522 -1.3819422280598759 1.6859722566156154 -1.8748263683938378 -1.5707965934987629 1.6628449576130788 2448.6370000000284
4.800877611746134 -1.383625045914623 1.688521610913746 -1.8756929048764155 -1.5707965943052786 1.66139808818606 2448.6870000000285
4.802153372609502 -1.3842790267853755 1.6895123473378035 -1.8760296604449502 -1.5707965946187088 1.6608358021816194 2448.7370000000287
4.802344304678834 -1.3843769024331887 1.689660622270071 -1.8760800597316858 -1.5707965946656173 1.6607516497095798 2448.787000000029
4.802344304678834 -1.384376902433189 1.6896606222700719 -1.8760800597316862 -1.5707965946656173 1.6607516497095798 2448.837000000029
4.802344307386492 -1.384147745783343 1.6900552203559738 -1.8767038144324433 -1.5707965939491735 1.6607516524209287 2448.8870000000293
4.802344324132375 -1.3827304948337065 1.6924956667159023 -1.8805615115256038 -1.5707965895182276 1.66075166918964 2448.9370000000295
4.802344363315421 -1.3794143239348313 1.6982059731377366 -1.8895879883399567 -1.5707965791504284 1.6607517084261019 2448.9870000000296
4.802344428055237 -1.3739352121312087 1.7076407725712601 -1.9045018987404798 -1.5707965620203306 1.6607517732541726 2449.03700000003
4.802344517151974 -1.366394705944188 1.720625206189633 -1.9250268373944897 -1.5707965384454132 1.6607518624723678 2449.08700000003
4.802344626046208 -1.3571786821548983 1.736494810450864 -1.9501124640377867 -1.5707965096320957 1.660751971515049 2449.13700000003
4.80234474777882 -1.3468761105871672 1.7542354041592816 -1.978155627740803 -1.5707964774217549 1.6607520934136086 2449.1870000000304
4.8023448739508705 -1.3361978168904423 1.7726229755270069 -2.0072214911747506 -1.5707964440367426 1.660752219757659 2449.2370000000305
4.802344995683482 -1.325895245322711 1.7903635692354245 -2.035264654877767 -1.5707964118264017 1.6607523416562187 2449.2870000000307
4.802345104577716 -1.3166792215334213 1.8062331734966552 -2.060350281521064 -1.5707963830130842 1.6607524506988998 2449.337000000031
4.802345193674453 -1.3091387153464007 1.8192176071150283 -2.0808752201750735 -1.5707963594381669 1.660752539917095 2449.387000000031
4.802345258414269 -1.3036596035427779 1.828652406548552 -2.095789130575597 -1.570796342308069 1.6607526047451657 2449.4370000000313
4.8023452975973155 -1.3003434326439027 1.8343627129703863 -2.10481560738995 -1.5707963319402698 1.6607526439816276 2449.4870000000315
4.8023453143431984 -1.298926181694266 1.8368031593303145 -2.1086733044831103 -1.570796327509324 1.660752660750339 2449.5370000000316
4.8023453170508565 -1.2986970250444205 1.8371977574162166 -2.1092970591838673 -1.5707963267928802 1.6607526634616878 2449.587000000032
4.8023453170508565 -1.2986970250444205 1.8371977574162166 -2.1092970591838673 -1.5707963267928802 1.6607526634616878 2449.637000000032
4.8023453170508565 -1.2986970250444205 1.8371977574162166 -2.1092970591838673 -1.5707963267928802 1.6607526634616878 2449.687000000032
4.8023453170508565 -1.2986970250444205 1.8371977574162166 -2.1092970591838673 -1.5707963267928802 1.6607526634616878 2449.7370000000324
4.8023453170508565 -1.2986970250444205 1.8371977574162166 -2.1092970591838673 -1.5707963267928802 1.6607526634616878 2449.7870000000325
4.8023453170508565 -1.2986970250444205 1.8371977574162166 -2.1092970591838673 -1.5707963267928802 1.6607526634616878 2449.8370000000327
4.8023453170508565 -1.2986970250444205 1.8371977574162166 -2.1092970591838673 -1.5707963267928802 1.6607526634616878 2449.887000000033
4.8023453170508565 -1.2986970250444205 1.8371977574162166 -2.1092970591838673 -1.5707963267928802 1.6607526634616878 2449.937000000033
4.8023453170508565 -1.2986970250444205 1.8371977574162166 -2.1092970591838673 -1.5707963267928802 1.6607526634616878 2449.9870000000333
4.8023453170508565 -1.2986970250444205 1.8371977574162166 -2.1092970591838673 -1.5707963267928802 1.6607526634616878 2450.0370000000335
4.8023453170508565 -1.2986970250444205 1.8371977574162166 -2.1092970591838673 -1.5707963267928802 1.6607526634616878 2450.0870000000336
4.8023453170508565 -1.2986970250444205 1.8371977574162166 -2.1092970591838673 -1.5707963267928802 1.6607526634616878 2450.137000000034
4.8023453170508565 -1.2986970250444205 1.8371977574162166 -2.1092970591838673 -1.5707963267928802 1.6607526634616878 2450.187000000034
4.8023453170508565 -1.2986970250444205 1.8371977574162166 -2.1092970591838673 -1.5707963267928802 1.6607526634616878 2450.237000000034
4.8023453170508565 -1.2986970250444205 1.8371977574162166 -2.1092970591838673 -1.5707963267928802 1.6607526634616878 2450.2870000000344
4.8023453143431984 -1.2989261816942663 1.8368031593303147 -2.1086733044831103 -1.570796327509324 1.660752660750339 2450.3370000000345
4.8023452975973155 -1.300343432643903 1.8343627129703861 -2.1048156073899498 -1.5707963319402698 1.6607526439816276 2450.3870000000347
4.802345258414269 -1.303659603542778 1.8286524065485519 -2.095789130575597 -1.570796342308069 1.6607526047451657 2450.437000000035
4.802345193674453 -1.3091387153464007 1.8192176071150283 -2.0808752201750735 -1.5707963594381669 1.660752539917095 2450.487000000035
4.802345104577716 -1.3166792215334213 1.8062331734966555 -2.060350281521064 -1.5707963830130842 1.6607524506988998 2450.5370000000353
4.802344995683482 -1.325895245322711 1.7903635692354245 -2.035264654877767 -1.5707964118264017 1.6607523416562187 2450.5870000000355
4.8023448739508705 -1.3361978168904423 1.7726229755270069 -2.0072214911747506 -1.5707964440367426 1.660752219757659 2450.6370000000356
4.80234474777882 -1.3468761105871672 1.7542354041592816 -1.978155627740803 -1.5707964774217549 1.6607520934136086 2450.687000000036
4.802344626046208 -1.3571786821548981 1.736494810450864 -1.9501124640377867 -1.5707965096320957 1.660751971515049 2450.737000000036
4.802344517151974 -1.366394705944188 1.7206252061896332 -1.9250268373944897 -1.5707965384454132 1.6607518624723678 2450.787000000036
4.802344428055237 -1.3739352121312087 1.7076407725712601 -1.90450189874048 -1.5707965620203306 1.6607517732541726 2450.8370000000364
4.802344363315421 -1.3794143239348315 1.6982059731377364 -1.8895879883399567 -1.5707965791504284 1.6607517084261019 2450.8870000000366
4.802344324132375 -1.3827304948337067 1.6924956667159021 -1.8805615115256036 -1.5707965895182276 1.66075166918964 2450.9370000000367
4.802344307386492 -1.384147745783343 1.690055220355974 -1.876703814432443 -1.5707965939491735 1.6607516524209287 2450.987000000037
4.802344304678834 -1.384376902433189 1.6896606222700719 -1.8760800597316862 -1.5707965946656173 1.6607516497095798 2451.037000000037
4.802344304678834 -1.384376902433189 1.6896606222700719 -1.8760800597316862 -1.5707965946656173 1.6607516497095798 2451.0870000000373
4.802212309909164 -1.384373871400779 1.6896568459491903 -1.8760793144421866 -1.570796594646128 1.6607346151579627 2451.1370000000375
4.801319584917722 -1.3843533715098446 1.689631305421826 -1.876074273798804 -1.5707965945143145 1.6606194047599698 2451.1870000000376
4.798989611424414 -1.3842998676839735 1.6895646457535802 -1.8760611179382838 -1.5707965941702873 1.6603187106200612 2451.237000000038
4.7946343172108 -1.384199855858134 1.6894400424187244 -1.8760365263953482 -1.5707965935272155 1.6597566392268146 2451.287000000038
4.787750312457899 -1.3840417765526598 1.6892430936232345 -1.8759976568517203 -1.5707965925107725 1.6588682257344527 2451.337000000038
4.77791512608398 -1.383815928447232 1.688961712627827 -1.8759421238851444 -1.570796591058579 1.6575989482443698 2451.3870000000384
4.764783442082378 -1.383514381954864 1.688586020070994 -1.8758679777184097 -1.5707965891196483 1.6559042420866585 2451.4370000000386
4.748083335859287 -1.3831308927958859 1.6881082362920383 -1.8757736829683724 -1.5707965866538296 1.6537490141016378 2451.4870000000387
4.727612510571563 -1.3826608155719262 1.6875225736541093 -1.8756580973949766 -1.5707965836312534 1.6511071569213778 2451.537000000039
4.703234533464529 -1.382101017339898 1.686825128867238 -1.8755204506502783 -1.5707965800317751 1.647961063251229 2451.587000000039
4.674875072209772 -1.3814497911859813 1.686013775311372 -1.8753603230274662 -1.5707965758444193 1.6443011401513474 2451.6370000000393
4.642518131242952 -1.3807067697996072 1.6850880553594116 -1.8751776242098848 -1.5707965710668241 1.6401253233182225 2451.6870000000395
4.606202288101599 -1.3798728390474417 1.6840490727002448 -1.8749725720200563 -1.5707965657046858 1.6354385913662033 2451.7370000000396
4.566016929762916 -1.3789500515473696 1.6828993846617821 -1.874745671168703 -1.5707965597712024 1.6302524801090263 2451.78700000004
4.522098488981579 -1.3779415402424784 1.6816428945339927 -1.874497692003769 -1.5707965532865187 1.6245845968413415 2451.83700000004
4.474626680627545 -1.3768514319750413 1.6802847438919395 -1.8742296492594435 -1.5707965462771698 1.6184581346202391 2451.88700000004
4.4238207380238475 -1.3756847610605023 1.678831204918814 -1.8739427808051814 -1.5707965387755267 1.6119013865467775 2451.9370000000404
4.369935649284402 -1.374447382861459 1.6772895727289723 -1.873638526394727 -1.5707965308192389 1.6049472600475096 2451.9870000000406
4.3132583936518065 -1.3731458873616467 1.6756680576909702 -1.8733185064151359 -1.5707965224506795 1.597632791156009 2452.0370000000407
4.254104177835144 -1.371787512739922 1.673975677750598 -1.8729845006357966 -1.5707965137163897 1.5899986587943984 2452.087000000041
4.192812672347786 -1.3703800589442472 1.672222150753917 -1.8726384269574534 -1.570796504666523 1.5820886990548748 2452.137000000041
4.129744247845192 -1.3689318012656735 1.6704177867702936 -1.8722823201612282 -1.5707964953542892 1.5739494194812382 2452.1870000000413
4.065276211462712 -1.3674514039123251 1.668573380415436 -1.871918310657643 -1.5707964858353987 1.5656295133504166 2452.2370000000415
3.9997990431533905 -1.365947833583383 1.6667001031744273 -1.8715486032356417 -1.570796476167507 1.5571793739539947 2452.2870000000416
3.933712632025766 -1.3644302730430682 1.6648093957247636 -1.8711754558116132 -1.5707964664096588 1.5486506088797394 2452.337000000042
3.867422512681674 -1.3629080346946267 1.6629128602593874 -1.8708011581784123 -1.5707964566217325 1.5400955542931274 2452.387000000042
3.8013361015540488 -1.361390474154312 1.6610221528097235 -1.8704280107543838 -1.5707964468638842 1.531566789218872 2452.437000000042
3.7358589332447267 -1.3598869038253698 1.659148875568715 -1.8700583033323825 -1.5707964371959926 1.52311664982245 2452.4870000000424
3.6713908968622477 -1.3584065064720214 1.657304469213857 -1.8696942938287973 -1.570796427677102 1.5147967436916285 2452.5370000000426
3.6083224723596534 -1.3569582487934477 1.6555001052302338 -1.869338187032572 -1.5707964183648682 1.506657464117992 2452.5870000000427
3.5470309668722964 -1.355550794997773 1.6537465782335528 -1.8689921133542289 -1.5707964093150015 1.4987475043784684 2452.637000000043
3.4878767510556345 -1.3541924203760485 1.6520541982931807 -1.8686581075748896 -1.5707964005807118 1.4911133720168577 2452.687000000043
3.4311994954230376 -1.352890924876236 1.6504326832551786 -1.8683380875952984 -1.5707963922121524 1.4837989031253571 2452.7370000000433
3.377314406683592 -1.3516535466771926 1.6488910510653367 -1.868033833184844 -1.5707963842558645 1.4768447766260893 2452.7870000000435
3.326508464079894 -1.3504868757626536 1.6474375120922113 -1.867746964730582 -1.5707963767542215 1.4702880285526276 2452.8370000000436
3.27903665572586 -1.3493967674952165 1.6460793614501579 -1.8674789219862564 -1.5707963697448726 1.4641615663315255 2452.887000000044
3.2351182149445226 -1.3483882561903253 1.6448228713223687 -1.8672309428213225 -1.570796363260189 1.4584936830638404 2452.937000000044
3.1949328566058393 -1.3474654686902532 1.643673183283906 -1.8670040419699692 -1.5707963573267054 1.4533075718066633 2452.987000000044
3.1586170134644878 -1.3466315379380878 1.6426342006247392 -1.8667989897801407 -1.5707963519645671 1.4486208398546445 2453.0370000000444
3.126260072497666 -1.3458885165517136 1.6417084806727789 -1.8666162909625592 -1.570796347186972 1.4444450230215193 2453.0870000000446
3.097900611242909 -1.345237290397797 1.6408971271169128 -1.8664561633397472 -1.5707963429996161 1.4407850999216378 2453.1370000000447
3.073522634135874 -1.3446774921657687 1.6401996823300415 -1.8663185165950489 -1.5707963394001379 1.4376390062514892 2453.187000000045
3.05305180884815 -1.344207414941809 1.6396140196921125 -1.866202931021653 -1.5707963363775617 1.4349971490712288 2453.237000000045
3.036351702625061 -1.3438239257828308 1.639136235913157 -1.8661086362716155 -1.570796333911743 1.432841921086208 2453.2870000000453
3.0232200186234577 -1.343522379290463 1.6387605433563237 -1.866034490104881 -1.5707963319728122 1.4311472149284967 2453.3370000000455
3.01338483224954 -1.3432965311850351 1.6384791623609165 -1.8659789571383052 -1.5707963305206187 1.4298779374384138 2453.3870000000456
3.0065008274966365 -1.3431384518795608 1.6382822135654265 -1.8659400875946772 -1.5707963295041758 1.428989523946052 2453.437000000046
3.0021455332830227 -1.3430384400537214 1.6381576102305706 -1.8659154960517417 -1.570796328861104 1.4284274525528056 2453.487000000046
2.999815559789716 -1.3429849362278503 1.638090950562325 -1.8659023401912214 -1.5707963285170767 1.428126758412897 2453.537000000046
2.9989228347982744 -1.3429644363369158 1.6380654100349605 -1.865897299547839 -1.5707963283852633 1.428011548014904 2453.5870000000464
2.9987908400286054 -1.342961405304506 1.638061633714079 -1.8658965542583392 -1.570796328365774 1.427994513463287 2453.6370000000466
2.9987908400286063 -1.342961405304506 1.638061633714079 -1.8658965542583392 -1.570796328365774 1.427994513463287 2453.6870000000467
2.9987908375813794 -1.3427405478580317 1.6384527923103132 -1.8665085704197473 -1.570796328244215 1.427994511023567 2453.737000000047
2.998790822446168 -1.3413746244778415 1.640871966671366 -1.870293668895103 -1.570796327492416 1.4279944959347812 2453.787000000047
2.998790787031869 -1.338178552981371 1.6465324995625137 -1.8791502750004434 -1.5707963257333106 1.4279944606291126 2453.8370000000473
2.998790728518931 -1.3328978742722388 1.6558850611537157 -1.8937835181388678 -1.5707963228268453 1.4279944022956577 2453.8870000000475
2.998790647991797 -1.3256304572336688 1.6687563167642183 -1.9139221946937996 -1.570796318826887 1.4279943220155333 2453.9370000000476
2.998790549571351 -1.3167482036219098 1.6844875946071576 -1.9385357309222473 -1.570796313938129 1.427994223896983 2453.987000000048
2.998790439547363 -1.306818752959659 1.7020735535341616 -1.9660511458480658 -1.5707963084729977 1.4279941142104835 2454.037000000048
2.9987903255109356 -1.296527187429481 1.7203008507799544 -1.994570014155218 -1.5707963028085596 1.4279940005238523 2454.087000000048
2.9987902154869475 -1.2865977367672303 1.7378868097069584 -2.0220854290810366 -1.5707962973434284 1.4279938908373528 2454.1370000000484
2.9987901170665014 -1.2777154831554716 1.7536180875498977 -2.046698965309484 -1.5707962924546703 1.4279937927188024 2454.1870000000486
2.9987900365393676 -1.2704480661169013 1.7664893431604003 -2.066837641864416 -1.570796288454712 1.4279937124386781 2454.2370000000487
2.9987899780264295 -1.265167387407769 1.7758419047516023 -2.0814708850028403 -1.5707962855482467 1.4279936541052232 2454.287000000049
2.9987899426121305 -1.2619713159112986 1.7815024376427502 -2.090327491108181 -1.5707962837891414 1.4279936187995546 2454.337000000049
2.998789927476919 -1.2606053925311085 1.7839216120038028 -2.0941125895835366 -1.5707962830373423 1.4279936037107688 2454.3870000000493
2.9987899250296923 -1.260384535084634 1.784312770600037 -2.0947246057449442 -1.5707962829157833 1.4279936012710488 2454.4370000000495
2.9987899250296923 -1.260384535084634 1.784312770600037 -2.0947246057449442 -1.5707962829157833 1.4279936012710488 2454.4870000000496
2.9987899250296923 -1.260384535084634 1.784312770600037 -2.0947246057449442 -1.5707962829157833 1.4279936012710488 2454.53700000005
2.9987899250296923 -1.260384535084634 1.784312770600037 -2.0947246057449442 -1.5707962829157833 1.4279936012710488 2454.58700000005
2.9987899250296923 -1.260384535084634 1.784312770600037 -2.0947246057449442 -1.5707962829157833 1.4279936012710488 2454.63700000005
2.9987899250296923 -1.260384535084634 1.784312770600037 -2.0947246057449442 -1.5707962829157833 1.4279936012710488 2454.6870000000504
2.9987899250296923 -1.260384535084634 1.784312770600037 -2.0947246057449447 -1.5707962829157833 1.4279936012710488 2454.7370000000506
2.998789927476919 -1.2606053925311085 1.7839216120038028 -2.0941125895835366 -1.5707962830373423 1.4279936037107688 2454.7870000000507
2.9987899426121305 -1.2619713159112986 1.78150243764275 -2.0903274911081806 -1.5707962837891414 1.4279936187995546 2454.837000000051
2.9987899780264295 -1.2651673874077691 1.7758419047516023 -2.0814708850028403 -1.5707962855482467 1.4279936541052232 2454.887000000051
2.9987900365393676 -1.2704480661169013 1.7664893431604003 -2.066837641864416 -1.570796288454712 1.4279937124386781 2454.9370000000513
2.9987901170665014 -1.2777154831554713 1.7536180875498977 -2.0466989653094845 -1.5707962924546703 1.4279937927188024 2454.9870000000515
2.9987902154869475 -1.2865977367672303 1.7378868097069584 -2.0220854290810366 -1.5707962973434284 1.4279938908373528 2455.0370000000516
2.9987903255109356 -1.296527187429481 1.7203008507799544 -1.994570014155218 -1.5707963028085596 1.4279940005238523 2455.087000000052
2.998790439547363 -1.306818752959659 1.7020735535341616 -1.9660511458480658 -1.5707963084729977 1.4279941142104835 2455.137000000052
2.998790549571351 -1.3167482036219098 1.6844875946071576 -1.9385357309222475 -1.570796313938129 1.427994223896983 2455.187000000052
2.998790647991797 -1.3256304572336686 1.6687563167642183 -1.9139221946937996 -1.570796318826887 1.4279943220155333 2455.2370000000524
2.998790728518931 -1.3328978742722388 1.6558850611537157 -1.893783518138868 -1.5707963228268453 1.4279944022956577 2455.2870000000526
2.998790787031869 -1.338178552981371 1.6465324995625137 -1.8791502750004436 -1.5707963257333106 1.4279944606291126 2455.3370000000527
2.998790822446168 -1.3413746244778415 1.6408719666713658 -1.8702936688951028 -1.570796327492416 1.4279944959347812 2455.387000000053
2.9987908375813794 -1.3427405478580314 1.6384527923103132 -1.8665085704197473 -1.570796328244215 1.427994511023567 2455.437000000053
2.9987908400286063 -1.342961405304506 1.638061633714079 -1.8658965542583394 -1.570796328365774 1.427994513463287 2455.4870000000533
2.9987908400286063 -1.342961405304506 1.638061633714079 -1.8658965542583394 -1.570796328365774 1.427994513463287 2455.5370000000535
2.9987908400286063 -1.342961405304506 1.638061633714079 -1.8658965542583394 -1.570796328365774 1.427994513463287 2455.5870000000536
2.9987908400286063 -1.342961405304506 1.638061633714079 -1.8658965542583394 -1.570796328365774 1.427994513463287 2455.637000000054
2.9987908400286063 -1.342961405304506 1.638061633714079 -1.8658965542583394 -1.570796328365774 1.427994513463287 2455.687000000054
2.9987908400286063 -1.342961405304506 1.638061633714079 -1.8658965542583394 -1.570796328365774 1.427994513463287 2455.737000000054
2.9987908400286063 -1.342961405304506 1.638061633714079 -1.8658965542583394 -1.570796328365774 1.427994513463287 2455.7870000000544
2.9987908400286063 -1.342961405304506 1.638061633714079 -1.8658965542583394 -1.570796328365774 1.427994513463287 2455.8370000000546
2.9987908400286063 -1.342961405304506 1.638061633714079 -1.8658965542583394 -1.570796328365774 1.427994513463287 2455.8870000000547
2.9987908400286063 -1.342961405304506 1.638061633714079 -1.8658965542583394 -1.570796328365774 1.427994513463287 2455.937000000055
2.9987908400286063 -1.342961405304506 1.638061633714079 -1.8658965542583394 -1.570796328365774 1.427994513463287 2455.987000000055
2.9987908400286063 -1.342961405304506 1.638061633714079 -1.8658965542583394 -1.570796328365774 1.427994513463287 2456.0370000000553
2.9987908400286063 -1.342961405304506 1.638061633714079 -1.8658965542583394 -1.570796328365774 1.427994513463287 2456.0870000000555
2.9987908400286063 -1.342961405304506 1.638061633714079 -1.8658965542583394 -1.570796328365774 1.427994513463287 2456.1370000000557
2.9987908400286063 -1.342961405304506 1.638061633714079 -1.8658965542583394 -1.570796328365774 1.427994513463287 2456.187000000056
2.9987908400286063 -1.342961405304506 1.638061633714079 -1.8658965542583394 -1.570796328365774 1.427994513463287 2456.237000000056
2.9987908400286063 -1.342961405304506 1.638061633714079 -1.8658965542583394 -1.570796328365774 1.427994513463287 2456.287000000056
2.9987908400286063 -1.342961405304506 1.638061633714079 -1.8658965542583394 -1.570796328365774 1.427994513463287 2456.3370000000564
2.9987908400286063 -1.342961405304506 1.638061633714079 -1.8658965542583394 -1.570796328365774 1.427994513463287 2456.3870000000566
2.9987908400286063 -1.342961405304506 1.638061633714079 -1.8658965542583394 -1.570796328365774 1.427994513463287 2456.4370000000567
2.9987908400286063 -1.342961405304506 1.638061633714079 -1.8658965542583394 -1.570796328365774 1.427994513463287 2456.487000000057
2.9987908400286063 -1.342961405304506 1.638061633714079 -1.8658965542583394 -1.570796328365774 1.427994513463287 2456.537000000057
2.9987908400286063 -1.342961405304506 1.638061633714079 -1.8658965542583394 -1.570796328365774 1.427994513463287 2456.5870000000573
2.9987908400286063 -1.342961405304506 1.638061633714079 -1.8658965542583394 -1.570796328365774 1.427994513463287 2456.6370000000575
2.9987908400286063 -1.342961405304506 1.638061633714079 -1.8658965542583394 -1.570796328365774 1.427994513463287 2456.6870000000577
2.9987908400286063 -1.342961405304506 1.638061633714079 -1.8658965542583394 -1.570796328365774 1.427994513463287 2456.737000000058
2.9987908400286063 -1.342961405304506 1.638061633714079 -1.8658965542583394 -1.570796328365774 1.427994513463287 2456.787000000058
2.9987908400286063 -1.342961405304506 1.638061633714079 -1.8658965542583394 -1.570796328365774 1.427994513463287 2456.837000000058
2.9987908400286063 -1.342961405304506 1.638061633714079 -1.8658965542583394 -1.570796328365774 1.427994513463287 2456.8870000000584
2.9987908400286063 -1.342961405304506 1.638061633714079 -1.8658965542583394 -1.570796328365774 1.427994513463287 2456.9370000000586
2.9987908400286063 -1.342961405304506 1.638061633714079 -1.8658965542583394 -1.570796328365774 1.427994513463287 2456.9870000000587
2.9987908400286063 -1.342961405304506 1.638061633714079 -1.8658965542583394 -1.570796328365774 1.427994513463287 2457.037000000059
2.9987908400286063 -1.342961405304506 1.638061633714079 -1.8658965542583394 -1.570796328365774 1.427994513463287 2457.087000000059
2.9987908400286063 -1.342961405304506 1.638061633714079 -1.8658965542583392 -1.570796328365774 1.427994513463287 2457.1370000000593
2.9989293451024603 -1.3429704590962062 1.6380725530469444 -1.8658984198377797 -1.5707963284533968 1.428003556894504 2457.1870000000595
2.999864755577403 -1.3430316049543225 1.6381462980590036 -1.8659110192502193 -1.570796329045168 1.4280646327818654 2457.2370000000597
3.0023020605540616 -1.3431909265658304 1.6383384480185248 -1.8659438482717714 -1.570796330587087 1.4282237720776159 2457.28700000006
3.0068498708762683 -1.3434882075693588 1.638696984015329 -1.866005104521815 -1.5707963334641803 1.4285207128949589 2457.33700000006
3.0140247026091416 -1.3439572115573397 1.63926262665761 -1.866101745158849 -1.5707963380032135 1.4289891801897918 2457.38700000006
3.024255260517163 -1.3446259620781567 1.6400691737687558 -1.8662395445763484 -1.570796344475399 1.4296571654424415 2457.4370000000604
3.037886721542261 -1.345517022638293 1.6411438380841659 -1.8664231520986179 -1.5707963530991067 1.4305472063393991 2457.4870000000606
3.0551850182818865 -1.346647776704481 1.642507584948073 -1.8666561496766467 -1.5707963640425748 1.431676666455056 2457.5370000000607
3.0763411224670962 -1.3480307077058513 1.6441754700103626 -1.8669411095839645 -1.570796377426618 1.4330580149334375 2457.587000000061
3.101475328440629 -1.3496736790360795 1.646156976923392 -1.8672796521124955 -1.5707963933273383 1.4346991061699395 2457.637000000061
3.13064153663499 -1.351580214055537 1.6484563550388112 -1.8676725032684134 -1.5707964117788353 1.4366034594930623 2457.6870000000613
3.163831537050525 -1.353749776093439 1.651072957104382 -1.8681195524679963 -1.5707964327759145 1.4387705388461471 2457.7370000000615
3.200979292733505 -1.3561780484499926 1.6540015769607987 -1.8686199102334817 -1.5707964562767993 1.4411960324691104 2457.7870000000617
3.241965223254203 -1.3588572143985467 1.6572327872385066 -1.8691719658889212 -1.570796482205839 1.443872132580179 2457.837000000062
3.286620488184975 -1.3617762371877393 1.6607532770545232 -1.8697734452560357 -1.5707965104562194 1.4467878150576254 2457.887000000062
3.334731270578341 -1.3649211400436474 1.6645461897092573 -1.8704214683500695 -1.5707965408926732 1.4499291191215034 2457.937000000062
3.3860430604450604 -1.3682752861719352 1.6685914603833294 -1.8711126070756463 -1.570796573354189 1.453279427015382 2457.9870000000624
3.440264938232217 -1.3718196587600027 1.6728661538343905 -1.8718429429226227 -1.5707966076567215 1.4568197436880819 2458.0370000000626
3.497073858301295 -1.3755331409791347 1.6773448020939439 -1.8726081246619446 -1.5707966435959015 1.4605289764754106 2458.0870000000627
3.5561189324062608 -1.3793927959866497 1.6819997421641624 -1.8734034260415005 -1.5707966809497458 1.4643842147818962 2458.137000000063
3.6170257131716426 -1.3833741469280476 1.6868014537147105 -1.8742238034819776 -1.5707967194813666 1.4683610097625237 2458.187000000063
3.6794004775706086 -1.3874514569391596 1.6917188967795633 -1.8750639537727163 -1.5707967589416818 1.4724336540044705 2458.2370000000633
3.742834510403049 -1.3915980091482965 1.6967198494538265 -1.8759183717675647 -1.5707967990721248 1.47657546120884 2458.2870000000635
3.806908387773653 -1.3957863866783968 1.7017712455905551 -1.8767814080807337 -1.5707968396073544 1.4807590458723985 2458.3370000000637
3.871196260569992 -1.3999887526491763 1.7068395124975762 -1.8776473267826521 -1.5707968802779644 1.4849566029693093 2458.387000000064
3.935270137940596 -1.4041771301792767 1.7118909086343048 -1.878510363095821 -1.570796920813194 1.4891401876328678 2458.437000000064
3.998704170773036 -1.4083236823884135 1.716891861308568 -1.8793647810906695 -1.570796960943637 1.4932819948372373 2458.487000000064
4.061078935172002 -1.4124009923995255 1.7218093043734206 -1.8802049313814082 -1.5707970004039522 1.497354639079184 2458.5370000000644
4.1219857159373845 -1.4163823433409235 1.726611015923969 -1.8810253088218853 -1.570797038935573 1.5013314340598116 2458.5870000000646
4.18103079004235 -1.4202419983484385 1.7312659559941874 -1.8818206102014412 -1.5707970762894172 1.5051866723662972 2458.6370000000647
4.2378397101114285 -1.4239554805675705 1.7357446042537408 -1.8825857919407631 -1.5707971122285973 1.508895905153626 2458.687000000065
4.292061587898584 -1.427499853155638 1.740019297704802 -1.8833161277877395 -1.5707971465311297 1.5124362218263259 2458.737000000065
4.343373377765303 -1.4308539992839258 1.744064568378874 -1.8840072665133163 -1.5707971789926456 1.5157865297202044 2458.7870000000653
4.39148416015867 -1.4339989021398338 1.747857481033608 -1.88465528960735 -1.5707972094290994 1.5189278337840824 2458.8370000000655
4.436139425089443 -1.4369179249290265 1.7513779708496249 -1.8852567689744646 -1.5707972376794799 1.5218435162615287 2458.8870000000657
4.477125355610141 -1.4395970908775806 1.7546091811273326 -1.885808824629904 -1.5707972636085195 1.5245196163725974 2458.937000000066
4.51427311129312 -1.4420253632341342 1.7575378009837492 -1.8863091823953895 -1.5707972871094042 1.5269451099955607 2458.987000000066
4.547463111708655 -1.444194925272036 1.7601544030493201 -1.8867562315949724 -1.5707973081064834 1.5291121893486457 2459.037000000066
4.576629319903017 -1.4461014602914937 1.7624537811647394 -1.8871490827508903 -1.5707973265579804 1.5310165426717686 2459.0870000000664
4.601763525876548 -1.447744431621722 1.764435288077769 -1.8874876252794213 -1.5707973424587007 1.5326576339082703 2459.1370000000666
4.622919630061759 -1.4491273626230918 1.7661031731400585 -1.887772585186739 -1.570797355842744 1.5340389823866518 2459.1870000000667
4.640217926801382 -1.4502581166892803 1.7674669200039654 -1.888005582764768 -1.570797366786212 1.5351684425023087 2459.237000000067
4.6538493878264795 -1.4511491772494165 1.7685415843193755 -1.8881891902870374 -1.5707973754099198 1.5360584833992665 2459.287000000067
4.664079945734503 -1.4518179277702332 1.7693481314305213 -1.8883269897045367 -1.5707973818821053 1.5367264686519162 2459.3370000000673
4.671254777467372 -1.4522869317582143 1.7699137740728024 -1.888423630341571 -1.5707973864211384 1.537194935946749 2459.3870000000675
4.6758025877895815 -1.4525842127617428 1.7702723100696067 -1.8884848865916144 -1.5707973892982319 1.5374918767640917 2459.4370000000677
4.678239892766243 -1.4527435343732507 1.7704644600291277 -1.8885177156131665 -1.5707973908401507 1.5376510160598424 2459.487000000068
4.679175303241182 -1.452804680231367 1.7705382050411869 -1.888530315025606 -1.570797391431922 1.5377120919472038 2459.537000000068
4.679313808315037 -1.4528137340230671 1.7705491243740523 -1.8885321806050466 -1.5707973915195448 1.5377211353784208 2459.587000000068
4.679313808315039 -1.4528137340230671 1.7705491243740523 -1.8885321806050466 -1.5707973915195448 1.5377211353784208 2459.6370000000684
4.679313805721838 -1.4525715252642073 1.7709515278660957 -1.8891767916170832 -1.5707973886716573 1.537721132836989 2459.6870000000686
4.679313789683828 -1.4510735517437556 1.7734402478383051 -1.893163477447803 -1.5707973710585041 1.5377211171191536 2459.7370000000687
4.679313752157106 -1.4475685012111865 1.7792635078258228 -1.9024917700400081 -1.5707973298461655 1.5377210803415962 2459.787000000069
4.679313690153936 -1.441777314830591 1.7888849337131296 -1.9179043526867392 -1.5707972617534711 1.5377210195762268 2459.837000000069
4.679313604823449 -1.4338073229234727 1.8021262078523486 -1.939115577967596 -1.57079716804241 1.5377209359492339 2459.8870000000693
4.6793135005323325 -1.424066380711545 1.8183097231815455 -1.9650399856850573 -1.5707970535085378 1.5377208337401334 2459.9370000000695
4.679313383945535 -1.4131770040595288 1.8364012373430307 -1.9940208208008015 -1.5707969254713885 1.5377207194808173 2459.9870000000697
4.6793132631069625 -1.4018905052179493 1.8551525268016624 -2.024058551372027 -1.5707967927648818 1.5377206010546045 2460.03700000007
4.679313146520165 -1.3910011285659332 1.8732440409631477 -2.053039386487771 -1.5707966647277325 1.5377204867952885 2460.08700000007
4.679313042229049 -1.3812601863540055 1.8894275562923444 -2.078963794205232 -1.5707965501938603 1.537720384586188 2460.13700000007
4.679312956898562 -1.3732901944468872 1.9026688304315633 -2.1001750194860893 -1.5707964564827992 1.537720300959195 2460.1870000000704
4.679312894895392 -1.3674990080662917 1.9122902563188706 -2.11558760213282 -1.5707963883901048 1.5377202401938257 2460.2370000000706
4.67931285736867 -1.3639939575337225 1.918113516306388 -2.1249158947250253 -1.5707963471777662 1.5377202034162682 2460.2870000000707
4.67931284133066 -1.3624959840132709 1.9206022362785973 -2.1289025805557453 -1.570796329564613 1.5377201876984328 2460.337000000071
4.6793128387374585 -1.362253775254411 1.9210046397706408 -2.1295471915677817 -1.5707963267167255 1.537720185157001 2460.387000000071
4.6793128387374585 -1.362253775254411 1.9210046397706408 -2.1295471915677817 -1.5707963267167255 1.537720185157001 2460.4370000000713
4.6793128387374585 -1.362253775254411 1.9210046397706408 -2.1295471915677817 -1.5707963267167255 1.537720185157001 2460.4870000000715
4.6793128387374585 -1.362253775254411 1.9210046397706408 -2.1295471915677817 -1.5707963267167255 1.537720185157001 2460.5370000000717
4.6793128387374585 -1.362253775254411 1.9210046397706408 -2.1295471915677817 -1.5707963267167255 1.537720185157001 2460.587000000072
4.6793128387374585 -1.362253775254411 1.9210046397706408 -2.1295471915677817 -1.5707963267167255 1.537720185157001 2460.637000000072
4.6793128387374585 -1.362253775254411 1.9210046397706408 -2.1295471915677817 -1.5707963267167255 1.537720185157001 2460.687000000072
4.6793128387374585 -1.362253775254411 1.9210046397706408 -2.1295471915677817 -1.5707963267167255 1.537720185157001 2460.7370000000724
4.6793128387374585 -1.362253775254411 1.9210046397706408 -2.1295471915677817 -1.5707963267167255 1.537720185157001 2460.7870000000726
4.6793128387374585 -1.362253775254411 1.9210046397706408 -2.1295471915677817 -1.5707963267167255 1.537720185157001 2460.8370000000727
4.6793128387374585 -1.362253775254411 1.9210046397706408 -2.1295471915677817 -1.5707963267167255 1.537720185157001 2460.887000000073
4.6793128387374585 -1.362253775254411 1.9210046397706408 -2.1295471915677817 -1.5707963267167255 1.537720185157001 2460.937000000073
4.6793128387374585 -1.362253775254411 1.9210046397706408 -2.1295471915677817 -1.5707963267167255 1.537720185157001 2460.9870000000733
4.6793128387374585 -1.362253775254411 1.9210046397706408 -2.1295471915677817 -1.5707963267167255 1.537720185157001 2461.0370000000735
4.6793128387374585 -1.362253775254411 1.9210046397706408 -2.1295471915677817 -1.5707963267167255 1.537720185157001 2461.0870000000737
4.67931284133066 -1.3624959840132709 1.9206022362785975 -2.128902580555745 -1.570796329564613 1.5377201876984328 2461.137000000074
4.67931285736867 -1.3639939575337225 1.918113516306388 -2.1249158947250253 -1.5707963471777662 1.5377202034162682 2461.187000000074
4.679312894895392 -1.3674990080662917 1.9122902563188704 -2.11558760213282 -1.5707963883901048 1.5377202401938257 2461.237000000074
4.679312956898562 -1.3732901944468872 1.9026688304315635 -2.100175019486089 -1.5707964564827992 1.537720300959195 2461.2870000000744
4.679313042229049 -1.3812601863540055 1.8894275562923446 -2.0789637942052326 -1.5707965501938603 1.537720384586188 2461.3370000000746
4.679313146520165 -1.3910011285659332 1.8732440409631477 -2.053039386487771 -1.5707966647277325 1.5377204867952885 2461.3870000000747
4.6793132631069625 -1.4018905052179493 1.8551525268016624 -2.024058551372027 -1.5707967927648818 1.5377206010546045 2461.437000000075
4.679313383945535 -1.4131770040595288 1.8364012373430307 -1.9940208208008015 -1.5707969254713885 1.5377207194808173 2461.487000000075
4.6793135005323325 -1.4240663807115448 1.8183097231815455 -1.9650399856850571 -1.5707970535085378 1.5377208337401334 2461.5370000000753
4.679313604823449 -1.4338073229234727 1.8021262078523488 -1.9391155779675961 -1.57079716804241 1.5377209359492339 2461.5870000000755
4.679313690153936 -1.441777314830591 1.7888849337131298 -1.9179043526867392 -1.5707972617534711 1.5377210195762268 2461.6370000000757
4.679313752157106 -1.4475685012111865 1.7792635078258225 -1.9024917700400081 -1.5707973298461655 1.5377210803415962 2461.687000000076
4.679313789683828 -1.4510735517437556 1.7734402478383051 -1.8931634774478028 -1.5707973710585041 1.5377211171191536 2461.737000000076
4.679313805721838 -1.4525715252642075 1.7709515278660959 -1.889176791617083 -1.5707973886716573 1.537721132836989 2461.787000000076
4.679313808315039 -1.4528137340230671 1.7705491243740523 -1.8885321806050466 -1.5707973915195448 1.5377211353784208 2461.8370000000764
4.679313808315039 -1.4528137340230671 1.7705491243740523 -1.8885321806050466 -1.5707973915195448 1.5377211353784208 2461.8870000000766
4.679173757451438 -1.4528184193051188 1.7705543144394804 -1.8885326853580306 -1.570797391421642 1.5375810845170481 2461.9370000000768
4.6782279073017525 -1.4528500619142104 1.7705893661630885 -1.8885360942672886 -1.570797390760444 1.5366352343824106 2461.987000000077
4.675763400714797 -1.452932509877623 1.7706806969132551 -1.8885449765192217 -1.5707973890376266 1.5341707278346657 2462.037000000077
4.671164834428413 -1.453086350985996 1.7708511125700241 -1.8885615500696855 -1.5707973858229916 1.5295721616214435 2462.0870000000773
4.663909927785502 -1.4533290576927345 1.771119968035696 -1.8885876972542357 -1.5707973807514373 1.522317255093958 2462.1370000000775
4.653565191450081 -1.4536751320134154 1.7715033277454215 -1.888624980398375 -1.5707973735199328 1.5119725189231206 2462.1870000000777
4.639781596123315 -1.4541362504251936 1.7720141261777944 -1.8886746574277997 -1.5707973638844883 1.4981889238156512 2462.237000000078
4.62229024125957 -1.4547214087662073 1.7726623283654435 -1.888737697478646 -1.5707973516571285 1.4806975692301916 2462.287000000078
4.600898023782447 -1.455437067134986 1.7734550904056257 -1.8888147965077366 -1.5707973367028645 1.4593053520934174 2462.337000000078
4.575483306800835 -1.456287294789856 1.774396919970819 -1.8889063929028271 -1.5707973189366657 1.4338906355161505 2462.3870000000784
4.545991588324944 -1.4572739150483454 1.7754898368193144 -1.8890126830928522 -1.5707972983204326 1.4043989175094713 2462.4370000000786
4.512431169982361 -1.4583966501865924 1.7767335333058094 -1.889133637158173 -1.5707972748599681 1.3708384997008312 2462.4870000000788
4.47486882573408 -1.4596532663387507 1.7781255348920002 -1.889269014440823 -1.5707972486019508 1.3332761560501647 2462.537000000079
4.433425470590557 -1.4610397183963952 1.7796613606571745 -1.889418379154754 -1.5707972196309068 1.2918328015660019 2462.587000000079
4.388271829327746 -1.4625502949079292 1.781334683808804 -1.889581115996084 -1.5707971880661813 1.2466791610215813 2462.6370000000793
4.339624105203145 -1.4641777629779902 1.7831374921931376 -1.889756445753342 -1.5707971540589114 1.198031437670961 2462.6870000000795
4.287739648671838 -1.4659135131668557 1.7850602488057932 -1.8899434409177158 -1.5707971177889988 1.1461469819651326 2462.7370000000797
4.232912626102545 -1.467747704389851 1.7870920523023515 -1.8901410412932982 -1.5707970794620805 1.0913199602681325 2462.78700000008
4.175469688493653 -1.4696694088167532 1.7892207975089474 -1.8903480696073331 -1.5707970393065025 1.0338770235731536 2462.83700000008
4.115765640189273 -1.4716667567711998 1.7914333359328642 -1.8905632471204623 -1.5707969975702916 0.9741729762186594 2462.88700000008
4.054179107595272 -1.4737270816300931 1.793715636273125 -1.8907852092369717 -1.5707969545181268 0.9125864446044956 2462.9370000000804
3.9911082078953255 -1.4758370647230077 1.7960529449310858 -1.8910125211150384 -1.5707969104283128 0.8495155459080018 2462.9870000000806
3.9269662177669544 -1.4779828802315957 1.7984299465210283 -1.8912436932769765 -1.5707968655897515 0.7853735568001246 2463.0370000000808
3.862177242097572 -1.4801503400889944 1.8008309243807525 -1.8914771972194837 -1.570796820298914 0.72058458216153 2463.087000000081
3.797171882700527 -1.4823250388792306 1.8032399210821695 -1.8917114810238886 -1.5707967748568128 0.6555792237987144 2463.137000000081
3.732382907031145 -1.4844924987366293 1.8056408989418937 -1.8919449849663958 -1.5707967295659753 0.59079024916012 2463.1870000000813
3.668240916902774 -1.4866383142452173 1.8080179005318362 -1.892176157128334 -1.570796684727414 0.5266482600522422 2463.2370000000815
3.6051700172028274 -1.4887482973381319 1.810355209189797 -1.8924034690064007 -1.5707966406376 0.4635773613557488 2463.2870000000817
3.5435834846088268 -1.4908086221970251 1.8126375095300578 -1.89262543112291 -1.5707965975854352 0.4019908297415844 2463.337000000082
3.4838794363044463 -1.4928059701514718 1.8148500479539746 -1.8928406086360392 -1.5707965558492243 0.34228678238709076 2463.387000000082
3.426436498695555 -1.4947276745783742 1.8169787931605708 -1.8930476369500742 -1.5707965156936463 0.2848438456921114 2463.437000000082
3.3716094761262614 -1.496561865801369 1.8190105966571288 -1.8932452373256565 -1.570796477366728 0.23001682399511125 2463.4870000000824
3.319725019594955 -1.4982976159902348 1.8209333532697844 -1.8934322324900306 -1.5707964410968154 0.17813236828928236 2463.5370000000826
3.271077295470354 -1.4999250840602958 1.822736161654118 -1.8936075622472883 -1.5707964070895455 0.12948464493866307 2463.5870000000828
3.2259236542075422 -1.5014356605718298 1.8244094848057475 -1.8937702990886183 -1.57079637552482 0.08433100439424202 2463.637000000083
3.1844802990640195 -1.5028221126294743 1.8259453105709218 -1.8939196638025493 -1.570796346553776 0.042887649910078984 2463.687000000083
3.1469179548157395 -1.5040787287816326 1.8273373121571126 -1.8940550410851993 -1.5707963202957587 0.005325306259412521 2463.7370000000833
3.1133575364731554 -1.5052014639198796 1.8285810086436076 -1.8941759951505202 -1.5707962968352942 -0.02823511154922631 2463.7870000000835
3.083865817997265 -1.506188084178369 1.829673925492103 -1.8942822853405452 -1.570796276219061 -0.057726829555907244 2463.8370000000837
3.0584511010156534 -1.5070383118332389 1.8306157550572963 -1.8943738817356357 -1.5707962584528623 -0.08314154613317548 2463.887000000084
3.0370588835385286 -1.5077539702020177 1.8314085170974788 -1.8944509807647263 -1.5707962434985983 -0.10453376326994857 2463.937000000084
3.019567528674785 -1.5083391285430316 1.8320567192851276 -1.8945140208155726 -1.5707962312712385 -0.12202511785540793 2463.987000000084
3.005783933348021 -1.5088002469548094 1.8325675177175005 -1.8945636978449973 -1.570796221635794 -0.1358087129628771 2464.0370000000844
2.9954391970125984 -1.5091463212754905 1.8329508774272258 -1.8946009809891367 -1.5707962144042895 -0.14615344913371686 2464.0870000000846
2.9881842903696887 -1.509389027982229 1.8332197328928979 -1.8946271281736868 -1.5707962093327352 -0.15340835566119715 2464.1370000000848
2.9835857240833024 -1.509542869090602 1.8333901485496669 -1.8946437017241506 -1.5707962061181002 -0.15800692187442422 2464.187000000085
2.981121217496347 -1.5096253170540144 1.8334814792998335 -1.8946525839760837 -1.5707962043952828 -0.16047142842216822 2464.237000000085
2.9801753673466616 -1.5096569596631062 1.8335165310234416 -1.8946559928853417 -1.5707962037340848 -0.16141727855680266 2464.2870000000853
2.980035316483062 -1.5096616449451579 1.8335217210888697 -1.8946564976383258 -1.570796203636182 -0.16155732941817824 2464.3370000000855
2.9800353164830593 -1.5096616449451579 1.8335217210888697 -1.8946564976383258 -1.570796203636182 -0.16155732941817647 2464.3870000000857
2.9800353227011427 -1.5094094136401337 1.8339324893587425 -1.8953194969600284 -1.5707962039657037 -0.16155732322065963 2464.437000000086
2.980035361157738 -1.5078494542987209 1.8364729424546922 -1.8994199078314742 -1.5707962060036773 -0.16155728489126092 2464.487000000086
2.9800354511408442 -1.5041993655316275 1.8424172507854824 -1.9090143012653298 -1.5707962107722526 -0.16155719520577747 2464.537000000086
2.9800355998145744 -1.4981685411085448 1.8522386776457964 -1.9248665464948718 -1.5707962186510858 -0.16155704702379106 2464.5870000000864
2.980035804423501 -1.4898687526565144 1.865755198691526 -1.9466828476611477 -1.5707962294941555 -0.16155684309161641 2464.6370000000866
2.9800360544969955 -1.4797247323582954 1.8822751214150557 -1.9733467805001381 -1.5707962427465798 -0.16155659384524934 2464.6870000000868
2.980036334053574 -1.4683847556507295 1.900742704620553 -2.0031543290299196 -1.5707962575614343 -0.16155631521331507 2464.737000000087
2.9800366238052374 -1.4566312239231092 1.9198837778992541 -2.0340489222378246 -1.5707962729165683 -0.1615560264200164 2464.787000000087
2.9800369033618157 -1.4452912472155433 1.9383513611047514 -2.0638564707676057 -1.5707962877314228 -0.16155574778808213 2464.8370000000873
2.98003715343531 -1.4351472269173242 1.9548712838282811 -2.0905204036065963 -1.570796300983847 -0.16155549854171505 2464.8870000000875
2.9800373580442368 -1.4268474384652938 1.9683878048740104 -2.112336704772872 -1.5707963118269168 -0.1615552946095404 2464.9370000000877
2.980037506717967 -1.4208166140422112 1.978209231734325 -2.1281889500024143 -1.57079631970575 -0.161555146427554 2464.987000000088
2.9800375967010733 -1.4171665252751176 1.9841535400651151 -2.1377833434362703 -1.5707963244743253 -0.16155505674207055 2465.037000000088
2.9800376351576685 -1.415606565933705 1.9866939931610643 -2.141883754307716 -1.5707963265122988 -0.16155501841267184 2465.087000000088
2.980037641375752 -1.4153543346286808 1.9871047614309374 -2.142546753629418 -1.5707963268418206 -0.161555012215155 2465.1370000000884
2.980037641375752 -1.4153543346286808 1.9871047614309374 -2.142546753629418 -1.5707963268418206 -0.161555012215155 2465.1870000000886
2.980037641375752 -1.4153543346286808 1.9871047614309374 -2.142546753629418 -1.5707963268418206 -0.161555012215155 2465.2370000000888
2.980037641375752 -1.4153543346286808 1.9871047614309374 -2.142546753629418 -1.5707963268418206 -0.161555012215155 2465.287000000089
2.980037641375752 -1.4153543346286808 1.9871047614309374 -2.142546753629418 -1.5707963268418206 -0.161555012215155 2465.337000000089
2.980037641375752 -1.4153543346286808 1.9871047614309374 -2.142546753629418 -1.5707963268418206 -0.161555012215155 2465.3870000000893
2.980037641375752 -1.4153543346286808 1.9871047614309374 -2.1425467536294183 -1.5707963268418206 -0.161555012215155 2465.4370000000895
2.9800376351576685 -1.415606565933705 1.9866939931610645 -2.141883754307716 -1.5707963265122988 -0.16155501841267184 2465.4870000000897
2.9800375967010733 -1.4171665252751178 1.984153540065115 -2.13778334343627 -1.5707963244743253 -0.16155505674207055 2465.53700000009
2.980037506717967 -1.4208166140422112 1.9782092317343247 -2.1281889500024143 -1.57079631970575 -0.161555146427554 2465.58700000009
2.9800373580442368 -1.4268474384652938 1.9683878048740107 -2.112336704772872 -1.5707963118269168 -0.1615552946095404 2465.63700000009
2.98003715343531 -1.4351472269173242 1.9548712838282811 -2.0905204036065963 -1.570796300983847 -0.16155549854171505 2465.6870000000904
2.9800369033618157 -1.4452912472155433 1.9383513611047514 -2.0638564707676057 -1.5707962877314228 -0.16155574778808213 2465.7370000000906
2.9800366238052374 -1.4566312239231092 1.9198837778992541 -2.0340489222378246 -1.5707962729165683 -0.1615560264200164 2465.7870000000908
2.980036334053574 -1.4683847556507295 1.900742704620553 -2.0031543290299196 -1.5707962575614343 -0.16155631521331507 2465.837000000091
2.9800360544969955 -1.4797247323582954 1.8822751214150557 -1.9733467805001383 -1.5707962427465798 -0.16155659384524934 2465.887000000091
2.980035804423501 -1.4898687526565144 1.865755198691526 -1.9466828476611477 -1.5707962294941555 -0.16155684309161641 2465.9370000000913
2.9800355998145744 -1.4981685411085448 1.8522386776457966 -1.924866546494872 -1.5707962186510858 -0.16155704702379106 2465.9870000000915
2.9800354511408442 -1.5041993655316275 1.8424172507854821 -1.9090143012653296 -1.5707962107722526 -0.16155719520577747 2466.0370000000917
2.980035361157738 -1.507849454298721 1.836472942454692 -1.899419907831474 -1.5707962060036773 -0.16155728489126092 2466.087000000092
2.9800353227011427 -1.5094094136401337 1.8339324893587428 -1.8953194969600284 -1.5707962039657037 -0.16155732322065963 2466.137000000092
2.9800353164830593 -1.5096616449451579 1.8335217210888697 -1.894656497638326 -1.570796203636182 -0.16155732941817647 2466.187000000092
2.9800353164830593 -1.5096616449451579 1.8335217210888697 -1.894656497638326 -1.570796203636182 -0.16155732941817647 2466.2370000000924
2.9800353164830593 -1.5096616449451579 1.8335217210888697 -1.894656497638326 -1.570796203636182 -0.16155732941817647 2466.2870000000926
2.9800353164830593 -1.5096616449451579 1.8335217210888697 -1.894656497638326 -1.570796203636182 -0.16155732941817647 2466.3370000000928
2.9800353164830593 -1.5096616449451579 1.8335217210888697 -1.894656497638326 -1.570796203636182 -0.16155732941817647 2466.387000000093
2.9800353164830593 -1.5096616449451579 1.8335217210888697 -1.894656497638326 -1.570796203636182 -0.16155732941817647 2466.437000000093
2.9800353164830593 -1.5096616449451579 1.8335217210888697 -1.894656497638326 -1.570796203636182 -0.16155732941817647 2466.4870000000933
2.9800353164830593 -1.5096616449451579 1.8335217210888697 -1.894656497638326 -1.570796203636182 -0.16155732941817647 2466.5370000000935
2.9800353164830593 -1.5096616449451579 1.8335217210888697 -1.894656497638326 -1.570796203636182 -0.16155732941817647 2466.5870000000937
2.9800353164830593 -1.5096616449451579 1.8335217210888697 -1.894656497638326 -1.570796203636182 -0.16155732941817647 2466.637000000094
2.9800353164830593 -1.5096616449451579 1.8335217210888697 -1.894656497638326 -1.570796203636182 -0.16155732941817647 2466.687000000094
2.9800353164830593 -1.5096616449451579 1.8335217210888697 -1.894656497638326 -1.570796203636182 -0.16155732941817647 2466.737000000094
2.9800353164830593 -1.5096616449451579 1.8335217210888697 -1.894656497638326 -1.570796203636182 -0.16155732941817647 2466.7870000000944
2.9800353164830593 -1.5096616449451579 1.8335217210888697 -1.894656497638326 -1.570796203636182 -0.16155732941817647 2466.8370000000946
2.9800353164830593 -1.5096616449451579 1.8335217210888697 -1.894656497638326 -1.570796203636182 -0.16155732941817647 2466.8870000000948
2.9800353164830593 -1.5096616449451579 1.8335217210888697 -1.894656497638326 -1.570796203636182 -0.16155732941817647 2466.937000000095
2.9800353164830593 -1.5096616449451579 1.8335217210888697 -1.894656497638326 -1.570796203636182 -0.16155732941817647 2466.987000000095
2.9800353164830593 -1.5096616449451579 1.8335217210888697 -1.894656497638326 -1.570796203636182 -0.16155732941817647 2467.0370000000953
2.9800353164830593 -1.5096616449451579 1.8335217210888697 -1.894656497638326 -1.570796203636182 -0.16155732941817647 2467.0870000000955
2.9800353164830593 -1.5096616449451579 1.8335217210888697 -1.894656497638326 -1.570796203636182 -0.16155732941817647 2467.1370000000957
2.9800353164830593 -1.5096616449451579 1.8335217210888697 -1.894656497638326 -1.570796203636182 -0.16155732941817647 2467.187000000096
2.9800353164830593 -1.5096616449451579 1.8335217210888697 -1.894656497638326 -1.570796203636182 -0.16155732941817647 2467.237000000096
2.9800353164830593 -1.5096616449451579 1.8335217210888697 -1.894656497638326 -1.570796203636182 -0.16155732941817647 2467.287000000096
2.9800353164830593 -1.5096616449451579 1.8335217210888697 -1.894656497638326 -1.570796203636182 -0.16155732941817647 2467.3370000000964
2.9800353164830593 -1.5096616449451579 1.8335217210888697 -1.894656497638326 -1.570796203636182 -0.16155732941817647 2467.3870000000966
2.9800353164830593 -1.5096616449451579 1.8335217210888697 -1.894656497638326 -1.570796203636182 -0.16155732941817647 2467.4370000000968
2.9800353164830593 -1.5096616449451579 1.8335217210888697 -1.894656497638326 -1.570796203636182 -0.16155732941817647 2467.487000000097
2.9800353164830593 -1.5096616449451579 1.8335217210888697 -1.894656497638326 -1.570796203636182 -0.16155732941817647 2467.537000000097
2.9800353164830593 -1.5096616449451579 1.8335217210888697 -1.894656497638326 -1.570796203636182 -0.16155732941817647 2467.5870000000973
2.9800353164830593 -1.5096616449451579 1.8335217210888697 -1.894656497638326 -1.570796203636182 -0.16155732941817647 2467.6370000000975
2.9800353164830593 -1.5096616449451579 1.8335217210888697 -1.894656497638326 -1.570796203636182 -0.16155732941817647 2467.6870000000977
2.9800353164830593 -1.5096616449451579 1.8335217210888697 -1.894656497638326 -1.570796203636182 -0.16155732941817647 2467.737000000098
2.9800353164830593 -1.5096616449451579 1.8335217210888697 -1.894656497638326 -1.570796203636182 -0.16155732941817647 2467.787000000098
2.9800353164830593 -1.5096616449451579 1.8335217210888697 -1.8946564976383258 -1.570796203636182 -0.16155732941817647 2467.837000000098
2.980181824458131 -1.5096611805972633 1.8335212205832292 -1.8946564614717492 -1.5707962036476673 -0.16141082144382163 2467.8870000000984
2.9811697379185738 -1.509658049467131 1.8335178456389034 -1.8946562175980097 -1.5707962037251133 -0.16042290798821335 2467.9370000000986
2.983739164937233 -1.5096499058283581 1.8335090678729502 -1.894655583315959 -1.5707962039265397 -0.15785348098212704 2467.9870000000988
2.988524190331657 -1.5096347399886403 1.8334927211027612 -1.8946544020970733 -1.5707962043016546 -0.15306845561111868 2468.037000000099
2.9960578069782917 -1.5096108626602793 1.8334669844995326 -1.8946525423681218 -1.5707962048922413 -0.14553483900134911 2468.087000000099
3.0067768471266856 -1.5095768893306898 1.8334303657417395 -1.8946498962938347 -1.5707962057325446 -0.13481579890540812 2468.1370000000993
3.021026913713687 -1.509531724632906 1.8333816841686075 -1.8946463785595726 -1.5707962068496575 -0.12056573238813867 2468.1870000000995
3.0390673116776443 -1.50947454671609 1.8333200539335872 -1.8946419251539952 -1.5707962082639078 -0.10252533451246089 2468.2370000000997
3.0610759792726068 -1.5094047916160362 1.833244867157826 -1.8946364921517291 -1.5707962099892445 -0.08051666702519641 2468.2870000001
3.0871544193825238 -1.5093221376256816 1.833155777083641 -1.8946300544960373 -1.5707962120336252 -0.05443822704289247 2468.3370000001
3.1173326308354454 -1.5092264896656107 1.8330526812279926 -1.8946226047814871 -1.5707962143994012 -0.024260015737645996 2468.3870000001
3.151574039717722 -1.5091179636545629 1.8329357045359567 -1.8946141520366198 -1.5707962170837055 0.009981392977072123 2468.4370000001004
3.1897804306882036 -1.5089968708799395 1.8328051825341976 -1.894604720506618 -1.570796220078839 0.04818778376059313 2468.4870000001006
3.231796878292441 -1.5088637023683118 1.832661644484442 -1.8945943484359753 -1.570796223372656 0.09020423115922577 2468.5370000001008
3.2774166782768854 -1.5087191132559263 1.8325057965369502 -1.8945830868511646 -1.5707962269489526 0.1358240309204326 2468.587000000101
3.3263862789030885 -1.5085639071592134 1.8323385048839906 -1.8945709983433063 -1.5707962307878516 0.1847936313070057 2468.637000000101
3.3784102122619006 -1.508399020545293 1.8321607789133116 -1.894558155850838 -1.5707962348661908 0.2368175644112423 2468.6870000001013
3.4331560255876745 -1.5082255071024835 1.831973754361615 -1.8945446414421816 -1.5707962391579076 0.2915633774691211 2468.7370000001015
3.4902592125724614 -1.508044522110806 1.8317786764680282 -1.894530545098414 -1.5707962436344272 0.3486665641744773 2468.7870000001017
3.549328144680214 -1.507857306812494 1.8315768831275783 -1.8945159634959334 -1.5707962482650484 0.4077354959931794 2468.837000000102
3.6099490024609837 -1.5076651727824995 1.8313697880446638 -1.89450099878913 -1.5707962530173305 0.46835635347730464 2468.887000000102
3.6716907068651223 -1.5074694862989988 1.8311588638865284 -1.894485757393053 -1.57079625785748 0.5300980575793143 2468.937000000102
3.734109850557483 -1.5072716527139016 1.8309456254367333 -1.8944703487660808 -1.570796262750736 0.5925172009662305 2468.9870000001024
3.796755629231617 -1.5070731008233567 1.8307316127486306 -1.8944548841925881 -1.5707962676617588 0.6551629793338116 2469.0370000001026
3.8591747729239776 -1.5068752672382595 1.8305183742988356 -1.894439475565616 -1.5707962725550149 0.717582122720728 2469.0870000001028
3.920916477328116 -1.5066795807547588 1.8303074501407002 -1.894424234169539 -1.5707962773951643 0.779323826822738 2469.137000000103
3.9815373351088863 -1.5064874467247642 1.8301003550577857 -1.8944092694627355 -1.5707962821474464 0.8399446843068632 2469.187000000103
4.0406062672166385 -1.5063002314264522 1.8298985617173358 -1.8943946878602549 -1.5707962867780676 0.8990136161255653 2469.2370000001033
4.097709454201425 -1.5061192464347748 1.829703483823749 -1.8943805915164873 -1.5707962912545872 0.9561168028309215 2469.2870000001035
4.1524552675272 -1.5059457329919652 1.8295164592720523 -1.894367077107831 -1.570796295546304 1.0108626158888003 2469.3370000001037
4.204479200886013 -1.5057808463780449 1.8293387333013733 -1.8943542346153626 -1.5707962996246432 1.0628865489930375 2469.387000000104
4.2534488015122145 -1.505625640281332 1.8291714416484137 -1.8943421461075043 -1.5707963034635422 1.1118561493796104 2469.437000000104
4.29906860149666 -1.5054810511689465 1.829015593700922 -1.8943308845226936 -1.5707963070398387 1.1574759491408173 2469.487000000104
4.341085049100897 -1.5053478826573188 1.8288720556511664 -1.8943205124520508 -1.5707963103336557 1.1994923965394504 2469.5370000001044
4.379291440071379 -1.5052267898826954 1.8287415336494073 -1.8943110809220491 -1.5707963133287892 1.2376987873229703 2469.5870000001046
4.413532848953656 -1.5051182638716476 1.8286245569573714 -1.8943026281771818 -1.5707963160130936 1.27194019603769 2469.6370000001048
4.443711060406575 -1.5050226159115767 1.8285214611017229 -1.8942951784626316 -1.5707963183788696 1.3021184073429355 2469.687000000105
4.469789500516493 -1.504939961921222 1.8284323710275379 -1.8942887408069398 -1.5707963204232502 1.3281968473252412 2469.737000000105
4.491798168111456 -1.5048702068211683 1.8283571842517767 -1.8942833078046737 -1.570796322148587 1.3502055148125045 2469.7870000001053
4.509838566075413 -1.5048130289043522 1.8282955540167565 -1.8942788543990963 -1.5707963235628373 1.3682459126881827 2469.8370000001055
4.524088632662416 -1.5047678642065685 1.8282468724436245 -1.8942753366648342 -1.5707963246799501 1.3824959792054532 2469.8870000001057
4.534807672810809 -1.504733890876979 1.8282102536858313 -1.8942726905905471 -1.5707963255202535 1.393215019301394 2469.937000000106
4.542341289457443 -1.504710013548618 1.8281845170826028 -1.8942708308615956 -1.5707963261108402 1.400748635911162 2469.987000000106
4.547126314851864 -1.5046948477089002 1.8281681703124137 -1.8942696496427098 -1.570796326485955 1.4055336612821705 2470.037000000106
4.5496957418705275 -1.5046867040701273 1.8281593925464605 -1.8942690153606592 -1.5707963266873815 1.4081030882882573 2470.0870000001064
4.550683655330969 -1.504683572939995 1.8281560176021348 -1.8942687714869197 -1.5707963267648275 1.4090910017438656 2470.1370000001066
4.55083016330604 -1.5046831085921004 1.8281555170964943 -1.8942687353203431 -1.5707963267763128 1.4092375097182206 2470.1870000001068
4.550830163306041 -1.5046831085921004 1.8281555170964943 -1.8942687353203431 -1.5707963267763128 1.4092375097182188 2470.237000000107
4.550830163288899 -1.5044317259580535 1.8285655109525163 -1.8949301118132962 -1.570796326774864 1.4092375097011915 2470.287000000107
4.55083016318288 -1.5028770153395092 1.8311011745790515 -1.8990204860762125 -1.570796326765904 1.409237509595885 2470.3370000001073
4.550830162934811 -1.4992392078568542 1.8370342762148681 -1.9085913952364206 -1.5707963267449385 1.4092375093494816 2470.3870000001075
4.550830162524941 -1.4932286750690886 1.8468371869200806 -1.9244048387983568 -1.5707963267102987 1.4092375089423639 2470.4370000001077
4.550830161960867 -1.484956812530443 1.8603282255177218 -1.9461677400295456 -1.5707963266626261 1.4092375083820772 2470.487000000108
4.550830161271455 -1.4748469233469939 1.8768170035353173 -1.97276640734658 -1.570796326604361 1.4092375076972936 2470.537000000108
4.550830160500762 -1.4635451017332777 1.8952497701464592 -2.0025009957011024 -1.5707963265392262 1.4092375069317757 2470.587000000108
4.550830159701963 -1.4518311165689088 1.9143547571123785 -2.033319967965784 -1.5707963264717162 1.4092375061383402 2470.6370000001084
4.55083015893127 -1.4405292949551927 1.9327875237235201 -2.0630545563203064 -1.5707963264065814 1.4092375053728223 2470.6870000001086
4.550830158241858 -1.4304194057717434 1.9492763017411157 -2.089653223637341 -1.5707963263483162 1.4092375046880388 2470.7370000001088
4.550830157677784 -1.4221475432330979 1.9627673403387569 -2.1114161248685295 -1.5707963263006437 1.409237504127752 2470.787000000109
4.550830157267915 -1.4161370104453324 1.9725702510439698 -2.127229568430466 -1.5707963262660039 1.4092375037206344 2470.837000000109
4.5508301570198455 -1.4124992029626768 1.9785033526797864 -2.136800477590674 -1.5707963262450384 1.409237503474231 2470.8870000001093
4.550830156913826 -1.410944492344133 1.9810390163063214 -2.1408908518535905 -1.5707963262360785 1.4092375033689244 2470.9370000001095
4.5508301568966845 -1.410693109710086 1.9814490101623434 -2.1415522283465434 -1.5707963262346296 1.4092375033518971 2470.9870000001097
4.5508301568966845 -1.410693109710086 1.9814490101623434 -2.1415522283465434 -1.5707963262346296 1.4092375033518971 2471.03700000011
4.5508301568966845 -1.410693109710086 1.9814490101623434 -2.1415522283465434 -1.5707963262346296 1.4092375033518971 2471.08700000011
4.5508301568966845 -1.410693109710086 1.9814490101623434 -2.1415522283465434 -1.5707963262346296 1.4092375033518971 2471.13700000011
4.5508301568966845 -1.410693109710086 1.9814490101623434 -2.1415522283465434 -1.5707963262346296 1.4092375033518971 2471.1870000001104
4.5508301568966845 -1.410693109710086 1.9814490101623434 -2.1415522283465434 -1.5707963262346296 1.4092375033518971 2471.2370000001106
4.5508301568966845 -1.410693109710086 1.9814490101623434 -2.1415522283465434 -1.5707963262346296 1.4092375033518971 2471.2870000001108
4.5508301568966845 -1.410693109710086 1.9814490101623434 -2.1415522283465434 -1.5707963262346296 1.4092375033518971 2471.337000000111
4.5508301568966845 -1.410693109710086 1.9814490101623434 -2.1415522283465434 -1.5707963262346296 1.4092375033518971 2471.387000000111
4.5508301568966845 -1.410693109710086 1.9814490101623434 -2.1415522283465434 -1.5707963262346296 1.4092375033518971 2471.4370000001113
4.5508301568966845 -1.410693109710086 1.9814490101623434 -2.1415522283465434 -1.5707963262346296 1.4092375033518971 2471.4870000001115
4.5508301568966845 -1.410693109710086 1.9814490101623434 -2.1415522283465434 -1.5707963262346296 1.4092375033518971 2471.5370000001117
4.5508301568966845 -1.410693109710086 1.9814490101623434 -2.1415522283465434 -1.5707963262346296 1.4092375033518971 2471.587000000112
4.5508301568966845 -1.410693109710086 1.9814490101623434 -2.1415522283465434 -1.5707963262346296 1.4092375033518971 2471.637000000112
