Andreas691667/Digital_Twin_UR/src/dt/dt_trajectories/busterTest3_dt_trajectory.csv
actual_q_0 actual_q_1 actual_q_2 actual_q_3 actual_q_4 actual_q_5 timestamp
3.71207804710797 -0.8254843255005873 0.8429764792549035 -1.5882884806323445 -1.570796326807946 2.141281720311417 7160.197999999999
3.71207804710797 -0.8254843255005873 0.8429764792549035 -1.5882884806323445 -1.570796326807946 2.141281720311417 7160.248
3.71207804710797 -0.8254843255005873 0.8429764792549035 -1.5882884806323445 -1.570796326807946 2.141281720311417 7160.298
3.71207804710797 -0.8254843255005873 0.8429764792549035 -1.5882884806323445 -1.570796326807946 2.141281720311417 7160.348
3.71207804710797 -0.8254843255005873 0.8429764792549035 -1.5882884806323445 -1.570796326807946 2.141281720311417 7160.398
3.71207804710797 -0.8254843255005873 0.8429764792549035 -1.5882884806323445 -1.570796326807946 2.141281720311417 7160.448
3.71207804710797 -0.8254843255005873 0.8429764792549035 -1.5882884806323445 -1.570796326807946 2.141281720311417 7160.4980000000005
3.71207804710797 -0.8254843255005873 0.8429764792549035 -1.5882884806323445 -1.570796326807946 2.141281720311417 7160.548000000001
3.71207804710797 -0.8254843255005873 0.8429764792549035 -1.5882884806323445 -1.570796326807946 2.141281720311417 7160.598000000001
3.71207804710797 -0.8254843255005873 0.8429764792549035 -1.5882884806323445 -1.570796326807946 2.141281720311417 7160.648000000001
3.71207804710797 -0.8254843255005873 0.8429764792549035 -1.5882884806323445 -1.570796326807946 2.141281720311417 7160.698000000001
3.71207804710797 -0.8254843255005873 0.8429764792549035 -1.5882884806323445 -1.570796326807946 2.141281720311417 7160.748000000001
3.71207804710797 -0.8254843255005873 0.8429764792549035 -1.5882884806323445 -1.570796326807946 2.141281720311417 7160.798000000002
3.7122689791773014 -0.8255822011483995 0.8431247541871719 -1.5883388799190803 -1.5707963268548544 2.1411975678393773 7160.848000000002
3.713544740040671 -0.8262361820191524 0.8441154906112279 -1.5886756354876148 -1.5707963271682845 2.1406352818349363 7160.898000000002
3.7168275167322813 -0.8279189998738993 0.8466648449093596 -1.589542171970193 -1.5707963279748003 2.1391884124079175 7160.948000000002
3.7228710753776704 -0.8310170505030092 0.8513581803555411 -1.591137456859419 -1.5707963294595875 2.1365247404448637 7160.998000000002
3.732270668305987 -0.835835472312677 0.8586577608276864 -1.593618615634119 -1.5707963317688887 2.1323819110927604 7161.0480000000025
3.7454729411622654 -0.8426032249114345 0.8689104445199027 -1.5971035468852008 -1.5707963350124359 2.126563067242757 7161.098000000003
3.762785840019699 -0.8514781676966612 0.8823553776547448 -1.601673537441516 -1.5707963392658857 2.118932483013891 7161.148000000003
3.784388518491916 -0.8625521384410955 0.8991316881954681 -1.6073758774957212 -1.5707963445732527 2.109411197236808 7161.198000000003
3.810341244845251 -0.8758560318793451 0.9192861795582831 -1.6142264757301383 -1.5707963509493437 2.0979726469374858 7161.248000000003
3.840595309111022 -0.8913648782943985 0.9427810243246088 -1.6222124744426163 -1.5707963583821913 2.0846383008209557 7161.298000000003
3.8750029301978044 -0.9090029221041348 0.9695014579533265 -1.631294864672393 -1.5707963668354892 2.069473292755027 7161.348000000004
3.913327163003703 -0.9286487004478358 0.9992634724930336 -1.6414111013259551 -1.5707963762510238 2.0525820552540046 7161.398000000004
3.955251805528629 -0.9501401217726961 1.0318215102942974 -1.6524777183029 -1.5707963865511108 2.0341039529624183 7161.448000000004
4.000391305986574 -0.9732795444203346 1.0668761577219086 -1.664392943621797 -1.5707963976410269 2.014208916138738 7161.498000000004
4.048300669917882 -0.9978388552133042 1.1040818388671358 -1.6770393145460483 -1.570796409411446 1.9930930741391024 7161.548000000004
4.098485367301527 -1.023564548041604 1.143054509259978 -1.6902862927097497 -1.570796421740871 1.970974388901036 7161.5980000000045
4.150411239667386 -1.0501828024491897 1.18337934958142 -1.7039928792435532 -1.5707964344980696 1.9480882884271746 7161.648000000005
4.203514407208509 -1.077404562220484 1.2246184593756846 -1.7180102299005264 -1.5707964475445073 1.9246833002689874 7161.698000000005
4.257211175893402 -1.104930613966888 1.2663185507624877 -1.7321842701820154 -1.5707964607367817 1.9010166850104984 7161.748000000005
4.310907944578295 -1.132456665713292 1.3080186421492905 -1.7463583104635043 -1.5707964739290559 1.8773500697520094 7161.798000000005
4.364011112119418 -1.1596784254845862 1.3492577519435551 -1.7603756611204775 -1.5707964869754936 1.8539450815938223 7161.848000000005
4.415936984485277 -1.186296679892172 1.3895825922649974 -1.774082247654281 -1.5707964997326922 1.8310589811199607 7161.898000000006
4.4661216818689216 -1.2120223727204718 1.4285552626578395 -1.7873292258179825 -1.5707965120621172 1.808940295881894 7161.948000000006
4.5140310458002295 -1.2365816835134416 1.4657609438030668 -1.7999755967422335 -1.5707965238325363 1.7878244538822583 7161.998000000006
4.559170546258174 -1.2597211061610796 1.5008155912306775 -1.8118908220611303 -1.5707965349224524 1.7679294170585786 7162.048000000006
4.6010951887831 -1.2812125274859398 1.533373629031941 -1.8229574390380754 -1.5707965452225394 1.7494513147669921 7162.098000000006
4.6394194215889994 -1.300858305829641 1.5631356435716484 -1.8330736756916375 -1.570796554638074 1.7325600772659702 7162.1480000000065
4.673827042675781 -1.3184963496393776 1.5898560772003665 -1.8421560659214142 -1.5707965630913718 1.7173950692000408 7162.198000000007
4.704081106941552 -1.3340051960544304 1.6133509219666915 -1.850142064633892 -1.5707965705242195 1.7040607230835114 7162.248000000007
4.730033833294889 -1.3473090894926805 1.6335054133295075 -1.8569926628683096 -1.5707965769003105 1.6926221727841884 7162.298000000007
4.751636511767105 -1.3583830602371147 1.6502817238702299 -1.8626950029225142 -1.5707965822076775 1.683100887007106 7162.348000000007
4.768949410624538 -1.367258003022341 1.6637266570050717 -1.8672649934788295 -1.5707965864611273 1.6754703027782398 7162.398000000007
4.782151683480817 -1.3740257556210984 1.6739793406972883 -1.8707499247299113 -1.5707965897046745 1.6696514589282365 7162.448000000008
4.791551276409134 -1.3788441774307665 1.681278921169434 -1.8732310835046113 -1.5707965920139757 1.665508629576133 7162.498000000008
4.7975948350545226 -1.381942228059876 1.6859722566156154 -1.8748263683938375 -1.5707965934987629 1.662844957613079 7162.548000000008
4.800877611746131 -1.383625045914623 1.6885216109137464 -1.8756929048764155 -1.5707965943052786 1.6613980881860604 7162.598000000008
4.802153372609503 -1.384279026785376 1.689512347337803 -1.8760296604449502 -1.5707965946187088 1.6608358021816192 7162.648000000008
4.802344304678834 -1.3843769024331887 1.689660622270071 -1.8760800597316858 -1.5707965946656173 1.6607516497095798 7162.6980000000085
4.802344304678834 -1.384376902433189 1.6896606222700719 -1.8760800597316862 -1.5707965946656173 1.6607516497095798 7162.748000000009
4.802344307386492 -1.384147745783343 1.6900552203559738 -1.8767038144324433 -1.5707965939491735 1.6607516524209287 7162.798000000009
4.802344324132375 -1.3827304948337065 1.6924956667159023 -1.8805615115256038 -1.5707965895182276 1.66075166918964 7162.848000000009
4.802344363315421 -1.3794143239348313 1.6982059731377366 -1.8895879883399567 -1.5707965791504284 1.6607517084261019 7162.898000000009
4.802344428055237 -1.3739352121312087 1.7076407725712601 -1.9045018987404798 -1.5707965620203306 1.6607517732541726 7162.948000000009
4.802344517151974 -1.366394705944188 1.720625206189633 -1.9250268373944897 -1.5707965384454132 1.6607518624723678 7162.99800000001
4.802344626046208 -1.3571786821548983 1.736494810450864 -1.9501124640377867 -1.5707965096320957 1.660751971515049 7163.04800000001
4.80234474777882 -1.3468761105871672 1.7542354041592816 -1.978155627740803 -1.5707964774217549 1.6607520934136086 7163.09800000001
4.8023448739508705 -1.3361978168904423 1.7726229755270069 -2.0072214911747506 -1.5707964440367426 1.660752219757659 7163.14800000001
4.802344995683482 -1.325895245322711 1.7903635692354243 -2.035264654877767 -1.5707964118264017 1.6607523416562187 7163.19800000001
4.802345104577716 -1.3166792215334213 1.8062331734966552 -2.060350281521064 -1.5707963830130842 1.6607524506988998 7163.2480000000105
4.802345193674453 -1.3091387153464007 1.8192176071150283 -2.0808752201750735 -1.5707963594381669 1.660752539917095 7163.298000000011
4.802345258414269 -1.3036596035427779 1.8286524065485519 -2.0957891305755973 -1.570796342308069 1.6607526047451657 7163.348000000011
4.8023452975973155 -1.3003434326439027 1.8343627129703863 -2.1048156073899498 -1.5707963319402698 1.6607526439816276 7163.398000000011
4.8023453143431984 -1.2989261816942663 1.8368031593303147 -2.1086733044831103 -1.570796327509324 1.660752660750339 7163.448000000011
4.8023453170508565 -1.2986970250444205 1.8371977574162166 -2.1092970591838673 -1.5707963267928802 1.6607526634616878 7163.498000000011
4.8023453170508565 -1.2986970250444205 1.8371977574162166 -2.1092970591838673 -1.5707963267928802 1.6607526634616878 7163.548000000012
4.8023453170508565 -1.2986970250444205 1.8371977574162166 -2.1092970591838673 -1.5707963267928802 1.6607526634616878 7163.598000000012
4.8023453170508565 -1.2986970250444205 1.8371977574162166 -2.1092970591838673 -1.5707963267928802 1.6607526634616878 7163.648000000012
4.8023453170508565 -1.2986970250444205 1.8371977574162166 -2.1092970591838673 -1.5707963267928802 1.6607526634616878 7163.698000000012
4.8023453170508565 -1.2986970250444205 1.8371977574162166 -2.1092970591838673 -1.5707963267928802 1.6607526634616878 7163.748000000012
4.8023453170508565 -1.2986970250444205 1.8371977574162166 -2.1092970591838673 -1.5707963267928802 1.6607526634616878 7163.7980000000125
4.8023453170508565 -1.2986970250444205 1.8371977574162166 -2.1092970591838673 -1.5707963267928802 1.6607526634616878 7163.848000000013
4.8023453170508565 -1.2986970250444205 1.8371977574162166 -2.1092970591838673 -1.5707963267928802 1.6607526634616878 7163.898000000013
4.8023453170508565 -1.2986970250444205 1.8371977574162166 -2.1092970591838673 -1.5707963267928802 1.6607526634616878 7163.948000000013
4.8023453170508565 -1.2986970250444205 1.8371977574162166 -2.1092970591838673 -1.5707963267928802 1.6607526634616878 7163.998000000013
4.8023453170508565 -1.2986970250444205 1.8371977574162166 -2.1092970591838673 -1.5707963267928802 1.6607526634616878 7164.048000000013
4.8023453170508565 -1.2986970250444205 1.8371977574162166 -2.1092970591838673 -1.5707963267928802 1.6607526634616878 7164.098000000014
4.8023453170508565 -1.2986970250444205 1.8371977574162166 -2.1092970591838673 -1.5707963267928802 1.6607526634616878 7164.148000000014
4.8023453170508565 -1.2986970250444205 1.8371977574162166 -2.1092970591838673 -1.5707963267928802 1.6607526634616878 7164.198000000014
4.8023453143431984 -1.2989261816942663 1.8368031593303147 -2.1086733044831103 -1.570796327509324 1.660752660750339 7164.248000000014
4.8023452975973155 -1.300343432643903 1.8343627129703861 -2.1048156073899498 -1.5707963319402698 1.6607526439816276 7164.298000000014
4.802345258414269 -1.303659603542778 1.8286524065485519 -2.095789130575597 -1.570796342308069 1.6607526047451657 7164.3480000000145
4.802345193674453 -1.3091387153464007 1.8192176071150283 -2.0808752201750735 -1.5707963594381669 1.660752539917095 7164.398000000015
4.802345104577716 -1.3166792215334213 1.8062331734966555 -2.060350281521064 -1.5707963830130842 1.6607524506988998 7164.448000000015
4.802344995683482 -1.325895245322711 1.7903635692354245 -2.035264654877767 -1.5707964118264017 1.6607523416562187 7164.498000000015
4.8023448739508705 -1.3361978168904423 1.7726229755270069 -2.0072214911747506 -1.5707964440367426 1.660752219757659 7164.548000000015
4.80234474777882 -1.3468761105871672 1.7542354041592816 -1.978155627740803 -1.5707964774217549 1.6607520934136086 7164.598000000015
4.802344626046208 -1.3571786821548981 1.7364948104508642 -1.9501124640377867 -1.5707965096320957 1.660751971515049 7164.648000000016
4.802344517151974 -1.366394705944188 1.7206252061896332 -1.9250268373944899 -1.5707965384454132 1.6607518624723678 7164.698000000016
4.802344428055237 -1.3739352121312087 1.7076407725712601 -1.90450189874048 -1.5707965620203306 1.6607517732541726 7164.748000000016
4.802344363315421 -1.3794143239348315 1.6982059731377366 -1.8895879883399564 -1.5707965791504284 1.6607517084261019 7164.798000000016
4.802344324132375 -1.3827304948337067 1.6924956667159021 -1.8805615115256038 -1.5707965895182276 1.66075166918964 7164.848000000016
4.802344307386492 -1.384147745783343 1.6900552203559738 -1.876703814432443 -1.5707965939491735 1.6607516524209287 7164.8980000000165
4.802344304678834 -1.384376902433189 1.6896606222700719 -1.8760800597316862 -1.5707965946656173 1.6607516497095798 7164.948000000017
4.802344304678834 -1.384376902433189 1.6896606222700719 -1.8760800597316862 -1.5707965946656173 1.6607516497095798 7164.998000000017
4.802212309909164 -1.384373871400779 1.6896568459491903 -1.8760793144421866 -1.570796594646128 1.6607346151579627 7165.048000000017
4.801319584917722 -1.3843533715098446 1.689631305421826 -1.876074273798804 -1.5707965945143145 1.6606194047599698 7165.098000000017
4.798989611424414 -1.3842998676839735 1.6895646457535802 -1.8760611179382838 -1.5707965941702873 1.6603187106200612 7165.148000000017
4.7946343172108 -1.384199855858134 1.6894400424187244 -1.8760365263953482 -1.5707965935272155 1.6597566392268146 7165.198000000018
4.787750312457899 -1.3840417765526598 1.6892430936232345 -1.8759976568517203 -1.5707965925107725 1.6588682257344527 7165.248000000018
4.77791512608398 -1.383815928447232 1.688961712627827 -1.8759421238851444 -1.570796591058579 1.6575989482443698 7165.298000000018
4.764783442082378 -1.383514381954864 1.688586020070994 -1.8758679777184097 -1.5707965891196483 1.6559042420866585 7165.348000000018
4.748083335859287 -1.3831308927958859 1.6881082362920383 -1.8757736829683724 -1.5707965866538296 1.6537490141016378 7165.398000000018
4.727612510571563 -1.3826608155719262 1.6875225736541093 -1.8756580973949766 -1.5707965836312534 1.6511071569213778 7165.4480000000185
4.703234533464529 -1.382101017339898 1.686825128867238 -1.8755204506502783 -1.5707965800317751 1.647961063251229 7165.498000000019
4.674875072209772 -1.3814497911859813 1.686013775311372 -1.8753603230274662 -1.5707965758444193 1.6443011401513474 7165.548000000019
4.642518131242952 -1.3807067697996072 1.6850880553594116 -1.8751776242098848 -1.5707965710668241 1.6401253233182225 7165.598000000019
4.606202288101599 -1.3798728390474417 1.6840490727002448 -1.8749725720200563 -1.5707965657046858 1.6354385913662033 7165.648000000019
4.566016929762916 -1.3789500515473696 1.6828993846617821 -1.874745671168703 -1.5707965597712024 1.6302524801090263 7165.698000000019
4.522098488981579 -1.3779415402424784 1.6816428945339927 -1.874497692003769 -1.5707965532865187 1.6245845968413415 7165.74800000002
4.474626680627545 -1.3768514319750413 1.6802847438919395 -1.8742296492594435 -1.5707965462771698 1.6184581346202391 7165.79800000002
4.4238207380238475 -1.3756847610605023 1.678831204918814 -1.8739427808051814 -1.5707965387755267 1.6119013865467775 7165.84800000002
4.369935649284402 -1.374447382861459 1.6772895727289723 -1.873638526394727 -1.5707965308192389 1.6049472600475096 7165.89800000002
4.3132583936518065 -1.3731458873616467 1.6756680576909702 -1.8733185064151359 -1.5707965224506795 1.597632791156009 7165.94800000002
4.254104177835144 -1.371787512739922 1.673975677750598 -1.8729845006357966 -1.5707965137163897 1.5899986587943984 7165.9980000000205
4.192812672347786 -1.3703800589442472 1.672222150753917 -1.8726384269574534 -1.570796504666523 1.5820886990548748 7166.048000000021
4.129744247845192 -1.3689318012656735 1.6704177867702936 -1.8722823201612282 -1.5707964953542892 1.5739494194812382 7166.098000000021
4.065276211462712 -1.3674514039123251 1.668573380415436 -1.871918310657643 -1.5707964858353987 1.5656295133504166 7166.148000000021
3.9997990431533905 -1.365947833583383 1.6667001031744273 -1.8715486032356417 -1.570796476167507 1.5571793739539947 7166.198000000021
3.933712632025766 -1.3644302730430682 1.6648093957247636 -1.8711754558116132 -1.5707964664096588 1.5486506088797394 7166.248000000021
3.867422512681674 -1.3629080346946267 1.6629128602593872 -1.8708011581784123 -1.5707964566217325 1.5400955542931274 7166.298000000022
3.8013361015540488 -1.361390474154312 1.6610221528097235 -1.8704280107543838 -1.5707964468638842 1.531566789218872 7166.348000000022
3.735858933244727 -1.3598869038253698 1.659148875568715 -1.8700583033323825 -1.5707964371959926 1.52311664982245 7166.398000000022
3.6713908968622473 -1.3584065064720214 1.657304469213857 -1.8696942938287973 -1.570796427677102 1.5147967436916285 7166.448000000022
3.608322472359654 -1.3569582487934477 1.6555001052302338 -1.869338187032572 -1.5707964183648682 1.506657464117992 7166.498000000022
3.5470309668722955 -1.355550794997773 1.6537465782335528 -1.8689921133542289 -1.5707964093150015 1.4987475043784684 7166.5480000000225
3.4878767510556337 -1.3541924203760485 1.6520541982931807 -1.8686581075748896 -1.5707964005807118 1.4911133720168577 7166.598000000023
3.431199495423038 -1.352890924876236 1.6504326832551786 -1.8683380875952984 -1.5707963922121524 1.4837989031253573 7166.648000000023
3.3773144066835927 -1.3516535466771926 1.6488910510653367 -1.868033833184844 -1.5707963842558645 1.4768447766260893 7166.698000000023
3.3265084640798936 -1.3504868757626536 1.6474375120922113 -1.867746964730582 -1.5707963767542215 1.4702880285526276 7166.748000000023
3.27903665572586 -1.3493967674952165 1.646079361450158 -1.8674789219862564 -1.5707963697448726 1.4641615663315255 7166.798000000023
3.235118214944524 -1.3483882561903253 1.6448228713223687 -1.8672309428213225 -1.570796363260189 1.4584936830638404 7166.848000000024
3.1949328566058393 -1.3474654686902532 1.643673183283906 -1.8670040419699692 -1.5707963573267054 1.4533075718066635 7166.898000000024
3.1586170134644878 -1.3466315379380878 1.6426342006247392 -1.8667989897801407 -1.5707963519645671 1.4486208398546445 7166.948000000024
3.126260072497666 -1.3458885165517136 1.6417084806727789 -1.8666162909625592 -1.570796347186972 1.4444450230215193 7166.998000000024
3.0979006112429097 -1.345237290397797 1.6408971271169128 -1.8664561633397472 -1.5707963429996161 1.4407850999216378 7167.048000000024
4.802371025085449 -1.3844142866185685 1.6896756331073206 -1.8760415516295375 -1.5707891623126429 1.660757064819336 7167.498
4.801317655309894 -1.384999785888351 1.690367910192564 -1.8761484714135679 -1.570789232754654 1.6597038772633217 7167.548
4.795243551090107 -1.388375982612237 1.6943598257214898 -1.876765008859799 -1.5707896389483067 1.6536308237861181 7167.598
4.782302854174531 -1.3955688685012941 1.7028644820630991 -1.8780785234028634 -1.5707905043317045 1.6406923654461114 7167.648
4.763307742193851 -1.4061270072026526 1.715348114175032 -1.880006576891523 -1.5707917745920819 1.6217005393776118 7167.698
4.740842416700245 -1.4186140103208178 1.7301123787406865 -1.882286866117292 -1.5707932769160937 1.5992391000988784 7167.7480000000005
4.718377091206638 -1.431101013438983 1.744876643306341 -1.884567155343061 -1.5707947792401058 1.576777660820145 7167.798000000001
4.699381979225958 -1.4416591521403415 1.7573602754182738 -1.8864952088317206 -1.5707960495004831 1.5577858347516453 7167.848000000001
4.686441282310382 -1.4488520380293985 1.7658649317598831 -1.8878087233747851 -1.570796914883881 1.5448473764116386 7167.898000000001
4.680367178090594 -1.4522282347532847 1.7698568472888092 -1.8884252608210161 -1.5707973210775337 1.5387743229344348 7167.948000000001
4.679313808315039 -1.4528137340230671 1.7705491243740523 -1.8885321806050466 -1.5707973915195448 1.5377211353784208 7167.998000000001
4.679313808315039 -1.4528137340230671 1.7705491243740523 -1.8885321806050466 -1.5707973915195448 1.5377211353784208 7168.048000000002
4.679313805721838 -1.4525715252642073 1.7709515278660957 -1.8891767916170832 -1.5707973886716573 1.537721132836989 7168.098000000002
4.679313789683828 -1.4510735517437556 1.7734402478383051 -1.893163477447803 -1.5707973710585041 1.5377211171191536 7168.148000000002
4.679313752157106 -1.4475685012111865 1.7792635078258228 -1.9024917700400081 -1.5707973298461655 1.5377210803415962 7168.198000000002
4.679313690153936 -1.441777314830591 1.7888849337131296 -1.9179043526867392 -1.5707972617534711 1.5377210195762268 7168.248000000002
4.679313604823449 -1.4338073229234727 1.8021262078523486 -1.939115577967596 -1.57079716804241 1.5377209359492339 7168.2980000000025
4.6793135005323325 -1.424066380711545 1.8183097231815455 -1.9650399856850573 -1.5707970535085378 1.5377208337401334 7168.348000000003
4.679313383945535 -1.4131770040595288 1.8364012373430307 -1.9940208208008015 -1.5707969254713885 1.5377207194808173 7168.398000000003
4.6793132631069625 -1.4018905052179493 1.8551525268016624 -2.024058551372027 -1.5707967927648818 1.5377206010546045 7168.448000000003
4.679313146520165 -1.3910011285659332 1.8732440409631477 -2.053039386487771 -1.5707966647277325 1.5377204867952885 7168.498000000003
4.679313042229049 -1.3812601863540055 1.8894275562923444 -2.078963794205232 -1.5707965501938603 1.537720384586188 7168.548000000003
4.679312956898562 -1.3732901944468872 1.9026688304315633 -2.1001750194860893 -1.5707964564827992 1.537720300959195 7168.598000000004
4.679312894895392 -1.3674990080662917 1.9122902563188706 -2.11558760213282 -1.5707963883901048 1.5377202401938257 7168.648000000004
4.67931285736867 -1.3639939575337225 1.918113516306388 -2.1249158947250253 -1.5707963471777662 1.5377202034162682 7168.698000000004
4.67931284133066 -1.3624959840132709 1.9206022362785973 -2.1289025805557453 -1.570796329564613 1.5377201876984328 7168.748000000004
4.6793128387374585 -1.362253775254411 1.9210046397706408 -2.1295471915677817 -1.5707963267167255 1.537720185157001 7168.798000000004
4.6793128387374585 -1.362253775254411 1.9210046397706408 -2.1295471915677817 -1.5707963267167255 1.537720185157001 7168.8480000000045
4.6793128387374585 -1.362253775254411 1.9210046397706408 -2.1295471915677817 -1.5707963267167255 1.537720185157001 7168.898000000005
4.6793128387374585 -1.362253775254411 1.9210046397706408 -2.1295471915677817 -1.5707963267167255 1.537720185157001 7168.948000000005
4.6793128387374585 -1.362253775254411 1.9210046397706408 -2.1295471915677817 -1.5707963267167255 1.537720185157001 7168.998000000005
4.6793128387374585 -1.362253775254411 1.9210046397706408 -2.1295471915677817 -1.5707963267167255 1.537720185157001 7169.048000000005
4.6793128387374585 -1.362253775254411 1.9210046397706408 -2.1295471915677817 -1.5707963267167255 1.537720185157001 7169.098000000005
4.6793128387374585 -1.362253775254411 1.9210046397706408 -2.1295471915677817 -1.5707963267167255 1.537720185157001 7169.148000000006
4.6793128387374585 -1.362253775254411 1.9210046397706408 -2.1295471915677817 -1.5707963267167255 1.537720185157001 7169.198000000006
4.6793128387374585 -1.362253775254411 1.9210046397706408 -2.1295471915677817 -1.5707963267167255 1.537720185157001 7169.248000000006
4.6793128387374585 -1.362253775254411 1.9210046397706408 -2.1295471915677817 -1.5707963267167255 1.537720185157001 7169.298000000006
4.6793128387374585 -1.362253775254411 1.9210046397706408 -2.1295471915677817 -1.5707963267167255 1.537720185157001 7169.348000000006
4.6793128387374585 -1.362253775254411 1.9210046397706408 -2.1295471915677817 -1.5707963267167255 1.537720185157001 7169.3980000000065
4.6793128387374585 -1.362253775254411 1.9210046397706408 -2.1295471915677817 -1.5707963267167255 1.537720185157001 7169.448000000007
4.6793128387374585 -1.362253775254411 1.9210046397706408 -2.1295471915677817 -1.5707963267167255 1.537720185157001 7169.498000000007
4.67931284133066 -1.3624959840132709 1.9206022362785975 -2.128902580555745 -1.570796329564613 1.5377201876984328 7169.548000000007
4.67931285736867 -1.3639939575337225 1.918113516306388 -2.1249158947250253 -1.5707963471777662 1.5377202034162682 7169.598000000007
4.679312894895392 -1.3674990080662917 1.9122902563188704 -2.11558760213282 -1.5707963883901048 1.5377202401938257 7169.648000000007
4.679312956898562 -1.3732901944468872 1.9026688304315635 -2.100175019486089 -1.5707964564827992 1.537720300959195 7169.698000000008
4.679313042229049 -1.3812601863540055 1.8894275562923446 -2.0789637942052326 -1.5707965501938603 1.537720384586188 7169.748000000008
4.679313146520165 -1.3910011285659332 1.8732440409631477 -2.053039386487771 -1.5707966647277325 1.5377204867952885 7169.798000000008
4.6793132631069625 -1.4018905052179493 1.8551525268016624 -2.024058551372027 -1.5707967927648818 1.5377206010546045 7169.848000000008
4.679313383945535 -1.4131770040595288 1.8364012373430307 -1.9940208208008015 -1.5707969254713885 1.5377207194808173 7169.898000000008
4.6793135005323325 -1.4240663807115448 1.8183097231815455 -1.9650399856850571 -1.5707970535085378 1.5377208337401334 7169.9480000000085
4.679313604823449 -1.4338073229234727 1.8021262078523488 -1.9391155779675961 -1.57079716804241 1.5377209359492339 7169.998000000009
4.679313690153936 -1.441777314830591 1.7888849337131298 -1.9179043526867392 -1.5707972617534711 1.5377210195762268 7170.048000000009
4.679313752157106 -1.4475685012111865 1.7792635078258225 -1.9024917700400081 -1.5707973298461655 1.5377210803415962 7170.098000000009
4.679313789683828 -1.4510735517437556 1.7734402478383051 -1.8931634774478028 -1.5707973710585041 1.5377211171191536 7170.148000000009
4.679313805721838 -1.4525715252642075 1.7709515278660959 -1.889176791617083 -1.5707973886716573 1.537721132836989 7170.198000000009
4.679313808315039 -1.4528137340230671 1.7705491243740523 -1.8885321806050466 -1.5707973915195448 1.5377211353784208 7170.24800000001
4.679313808315039 -1.4528137340230671 1.7705491243740523 -1.8885321806050466 -1.5707973915195448 1.5377211353784208 7170.29800000001
4.679175303241186 -1.452804680231367 1.7705382050411869 -1.888530315025606 -1.570797391431922 1.5377120919472038 7170.34800000001
4.678239892766243 -1.4527435343732507 1.7704644600291277 -1.8885177156131665 -1.5707973908401507 1.5376510160598424 7170.39800000001
4.675802587789584 -1.4525842127617428 1.7702723100696065 -1.8884848865916144 -1.5707973892982319 1.537491876764092 7170.44800000001
4.671254777467377 -1.4522869317582143 1.7699137740728024 -1.888423630341571 -1.5707973864211384 1.537194935946749 7170.4980000000105
4.664079945734504 -1.4518179277702334 1.7693481314305213 -1.8883269897045367 -1.5707973818821053 1.536726468651916 7170.548000000011
4.653849387826482 -1.4511491772494165 1.7685415843193755 -1.8881891902870374 -1.5707973754099198 1.5360584833992663 7170.598000000011
4.640217926801385 -1.45025811668928 1.7674669200039654 -1.888005582764768 -1.570797366786212 1.5351684425023087 7170.648000000011
4.622919630061759 -1.449127362623092 1.7661031731400583 -1.887772585186739 -1.570797355842744 1.5340389823866518 7170.698000000011
4.6017635258765495 -1.4477444316217218 1.7644352880777687 -1.8874876252794213 -1.5707973424587007 1.5326576339082703 7170.748000000011
4.576629319903017 -1.4461014602914937 1.7624537811647394 -1.8871490827508903 -1.5707973265579804 1.5310165426717683 7170.798000000012
4.547463111708656 -1.444194925272036 1.7601544030493201 -1.8867562315949724 -1.5707973081064834 1.5291121893486455 7170.848000000012
4.514273111293121 -1.4420253632341342 1.7575378009837492 -1.8863091823953895 -1.5707972871094042 1.5269451099955607 7170.898000000012
4.4771253556101405 -1.4395970908775806 1.7546091811273326 -1.885808824629904 -1.5707972636085195 1.5245196163725974 7170.948000000012
4.436139425089443 -1.4369179249290265 1.7513779708496247 -1.8852567689744646 -1.5707972376794799 1.5218435162615287 7170.998000000012
4.3914841601586705 -1.4339989021398338 1.747857481033608 -1.88465528960735 -1.5707972094290994 1.5189278337840824 7171.0480000000125
4.343373377765305 -1.4308539992839258 1.744064568378874 -1.8840072665133163 -1.5707971789926456 1.5157865297202044 7171.098000000013
4.292061587898585 -1.427499853155638 1.740019297704802 -1.8833161277877395 -1.5707971465311297 1.5124362218263259 7171.148000000013
4.2378397101114285 -1.4239554805675705 1.7357446042537408 -1.8825857919407631 -1.5707971122285973 1.508895905153626 7171.198000000013
4.1810307900423505 -1.4202419983484385 1.7312659559941874 -1.8818206102014412 -1.5707970762894172 1.5051866723662972 7171.248000000013
4.1219857159373845 -1.4163823433409235 1.726611015923969 -1.8810253088218853 -1.570797038935573 1.5013314340598116 7171.298000000013
4.061078935172003 -1.4124009923995255 1.7218093043734208 -1.8802049313814082 -1.5707970004039522 1.497354639079184 7171.348000000014
3.998704170773037 -1.4083236823884135 1.716891861308568 -1.8793647810906695 -1.570796960943637 1.4932819948372373 7171.398000000014
3.9352701379405968 -1.4041771301792767 1.7118909086343048 -1.878510363095821 -1.570796920813194 1.4891401876328678 7171.448000000014
3.8711962605699926 -1.3999887526491763 1.7068395124975762 -1.8776473267826521 -1.5707968802779644 1.4849566029693093 7171.498000000014
3.8069083877736536 -1.3957863866783968 1.7017712455905551 -1.8767814080807337 -1.5707968396073544 1.4807590458723985 7171.548000000014
3.74283451040305 -1.3915980091482965 1.6967198494538265 -1.8759183717675647 -1.5707967990721248 1.47657546120884 7171.5980000000145
3.6794004775706095 -1.3874514569391596 1.6917188967795633 -1.8750639537727163 -1.5707967589416818 1.4724336540044705 7171.648000000015
3.6170257131716435 -1.3833741469280476 1.6868014537147107 -1.8742238034819776 -1.5707967194813666 1.4683610097625237 7171.698000000015
3.556118932406261 -1.3793927959866497 1.6819997421641624 -1.8734034260415005 -1.5707966809497458 1.4643842147818962 7171.748000000015
3.4970738583012957 -1.3755331409791347 1.6773448020939439 -1.8726081246619446 -1.5707966435959015 1.4605289764754106 7171.798000000015
3.4402649382322172 -1.3718196587600024 1.6728661538343905 -1.8718429429226227 -1.5707966076567215 1.4568197436880819 7171.848000000015
3.3860430604450613 -1.3682752861719352 1.6685914603833294 -1.8711126070756463 -1.570796573354189 1.453279427015382 7171.898000000016
3.334731270578342 -1.3649211400436472 1.6645461897092573 -1.8704214683500695 -1.5707965408926732 1.4499291191215034 7171.948000000016
3.286620488184976 -1.3617762371877393 1.6607532770545232 -1.8697734452560357 -1.5707965104562194 1.4467878150576254 7171.998000000016
3.241965223254203 -1.3588572143985467 1.6572327872385064 -1.8691719658889212 -1.570796482205839 1.443872132580179 7172.048000000016
3.2009792927335043 -1.3561780484499928 1.6540015769607987 -1.8686199102334817 -1.5707964562767993 1.4411960324691104 7172.098000000016
3.163831537050526 -1.353749776093439 1.651072957104382 -1.8681195524679963 -1.5707964327759145 1.4387705388461471 7172.1480000000165
3.1306415366349905 -1.351580214055537 1.6484563550388112 -1.8676725032684134 -1.5707964117788353 1.4366034594930621 7172.198000000017
3.101475328440629 -1.3496736790360795 1.646156976923392 -1.8672796521124955 -1.5707963933273383 1.4346991061699392 7172.248000000017
3.076341122467098 -1.3480307077058513 1.6441754700103623 -1.8669411095839645 -1.570796377426618 1.4330580149334375 7172.298000000017
3.055185018281887 -1.346647776704481 1.6425075849480728 -1.8666561496766467 -1.5707963640425748 1.431676666455056 7172.348000000017
3.0378867215422636 -1.345517022638293 1.6411438380841659 -1.8664231520986179 -1.5707963530991067 1.4305472063393991 7172.398000000017
3.024255260517166 -1.3446259620781567 1.6400691737687558 -1.8662395445763484 -1.570796344475399 1.4296571654424413 7172.448000000018
4.550844669342041 -1.4545353663018723 1.9099863211261194 -2.0260654888548792 -1.5707967917071741 1.4091848134994507 7172.748
4.550844574677345 -1.4548626246060556 1.909452302864605 -2.025205398647648 -1.5707967886730896 1.4091851573888146 7172.798
4.550844017948058 -1.4567872521780416 1.9063117064094008 -2.020147151672485 -1.57079677082944 1.4091871798247397 7172.848
4.550842799196401 -1.4610005082331363 1.899436538857974 -2.009074001725724 -1.5707967317674068 1.409191607195797 7172.898
4.550840945443696 -1.4674089793638663 1.8889792316836396 -1.9922314550511038 -1.5707966723530469 1.4091983413413687 7172.948
4.550838645839191 -1.4753587717179144 1.8760068051996044 -1.9713380553547948 -1.5707965986487555 1.4092066951371314 7172.9980000000005
4.550836186808891 -1.4838597031760583 1.8621350330230093 -1.9489961688204276 -1.5707965198347313 1.4092156280805381 7173.048000000001
4.550833887204386 -1.4918094955301064 1.8491626065389741 -1.9281027691241186 -1.57079644613044 1.4092239818763008 7173.098000000001
4.550832033451681 -1.4982179666608364 1.8387052993646398 -1.9112602224494983 -1.5707963867160801 1.4092307160218724 7173.148000000001
4.550830814700024 -1.502431222715931 1.8318301318132129 -1.900187072502737 -1.570796347654047 1.4092351433929298 7173.198000000001
4.550830257970737 -1.5043558502879173 1.8286895353580084 -1.8951288255275744 -1.5707963298103973 1.409237165828855 7173.248000000001
4.550830163306041 -1.5046831085921004 1.8281555170964943 -1.8942687353203431 -1.5707963267763128 1.4092375097182188 7173.298000000002
4.550830163306041 -1.5046831085921004 1.8281555170964943 -1.8942687353203431 -1.5707963267763128 1.4092375097182188 7173.348000000002
4.550830163288899 -1.5044317259580535 1.8285655109525163 -1.8949301118132962 -1.570796326774864 1.4092375097011915 7173.398000000002
4.55083016318288 -1.5028770153395092 1.8311011745790515 -1.8990204860762125 -1.570796326765904 1.409237509595885 7173.448000000002
4.550830162934811 -1.4992392078568542 1.8370342762148681 -1.9085913952364206 -1.5707963267449385 1.4092375093494816 7173.498000000002
4.550830162524941 -1.4932286750690886 1.8468371869200806 -1.9244048387983568 -1.5707963267102987 1.4092375089423639 7173.5480000000025
4.550830161960867 -1.484956812530443 1.8603282255177218 -1.9461677400295456 -1.5707963266626261 1.4092375083820772 7173.598000000003
4.550830161271455 -1.4748469233469939 1.8768170035353173 -1.97276640734658 -1.570796326604361 1.4092375076972936 7173.648000000003
4.550830160500762 -1.4635451017332777 1.8952497701464592 -2.0025009957011024 -1.5707963265392262 1.4092375069317757 7173.698000000003
4.550830159701963 -1.4518311165689088 1.9143547571123785 -2.033319967965784 -1.5707963264717162 1.4092375061383402 7173.748000000003
4.55083015893127 -1.4405292949551927 1.9327875237235201 -2.0630545563203064 -1.5707963264065814 1.4092375053728223 7173.798000000003
4.550830158241858 -1.4304194057717434 1.9492763017411157 -2.089653223637341 -1.5707963263483162 1.4092375046880388 7173.848000000004
4.550830157677784 -1.4221475432330979 1.9627673403387569 -2.1114161248685295 -1.5707963263006437 1.409237504127752 7173.898000000004
4.550830157267915 -1.4161370104453324 1.9725702510439698 -2.127229568430466 -1.5707963262660039 1.4092375037206344 7173.948000000004
4.5508301570198455 -1.4124992029626768 1.9785033526797864 -2.136800477590674 -1.5707963262450384 1.409237503474231 7173.998000000004
4.550830156913826 -1.410944492344133 1.9810390163063214 -2.1408908518535905 -1.5707963262360785 1.4092375033689244 7174.048000000004
4.5508301568966845 -1.410693109710086 1.9814490101623434 -2.1415522283465434 -1.5707963262346296 1.4092375033518971 7174.0980000000045
4.5508301568966845 -1.410693109710086 1.9814490101623434 -2.1415522283465434 -1.5707963262346296 1.4092375033518971 7174.148000000005
4.5508301568966845 -1.410693109710086 1.9814490101623434 -2.1415522283465434 -1.5707963262346296 1.4092375033518971 7174.198000000005
4.5508301568966845 -1.410693109710086 1.9814490101623434 -2.1415522283465434 -1.5707963262346296 1.4092375033518971 7174.248000000005
4.5508301568966845 -1.410693109710086 1.9814490101623434 -2.1415522283465434 -1.5707963262346296 1.4092375033518971 7174.298000000005
4.5508301568966845 -1.410693109710086 1.9814490101623434 -2.1415522283465434 -1.5707963262346296 1.4092375033518971 7174.348000000005
4.5508301568966845 -1.410693109710086 1.9814490101623434 -2.1415522283465434 -1.5707963262346296 1.4092375033518971 7174.398000000006
4.5508301568966845 -1.410693109710086 1.9814490101623434 -2.1415522283465434 -1.5707963262346296 1.4092375033518971 7174.448000000006
4.5508301568966845 -1.410693109710086 1.9814490101623434 -2.1415522283465434 -1.5707963262346296 1.4092375033518971 7174.498000000006
4.5508301568966845 -1.410693109710086 1.9814490101623434 -2.1415522283465434 -1.5707963262346296 1.4092375033518971 7174.548000000006
4.5508301568966845 -1.410693109710086 1.9814490101623434 -2.1415522283465434 -1.5707963262346296 1.4092375033518971 7174.598000000006
4.5508301568966845 -1.410693109710086 1.9814490101623434 -2.1415522283465434 -1.5707963262346296 1.4092375033518971 7174.6480000000065
4.5508301568966845 -1.410693109710086 1.9814490101623434 -2.1415522283465434 -1.5707963262346296 1.4092375033518971 7174.698000000007
4.5508301568966845 -1.410693109710086 1.9814490101623434 -2.1415522283465434 -1.5707963262346296 1.4092375033518971 7174.748000000007
4.5508301568966845 -1.410693109710086 1.9814490101623434 -2.1415522283465434 -1.5707963262346296 1.4092375033518971 7174.798000000007
4.550830156913826 -1.410944492344133 1.9810390163063214 -2.1408908518535905 -1.5707963262360785 1.4092375033689244 7174.848000000007
4.5508301570198455 -1.4124992029626773 1.9785033526797862 -2.136800477590674 -1.5707963262450384 1.409237503474231 7174.898000000007
4.550830157267915 -1.4161370104453324 1.9725702510439695 -2.1272295684304656 -1.5707963262660039 1.4092375037206344 7174.948000000008
4.550830157677784 -1.4221475432330979 1.962767340338757 -2.1114161248685295 -1.5707963263006437 1.409237504127752 7174.998000000008
4.550830158241858 -1.4304194057717434 1.9492763017411159 -2.089653223637341 -1.5707963263483162 1.4092375046880388 7175.048000000008
4.55083015893127 -1.4405292949551927 1.9327875237235204 -2.0630545563203064 -1.5707963264065814 1.4092375053728223 7175.098000000008
4.550830159701963 -1.4518311165689088 1.9143547571123785 -2.033319967965784 -1.5707963264717162 1.4092375061383402 7175.148000000008
4.550830160500762 -1.4635451017332777 1.8952497701464592 -2.0025009957011024 -1.5707963265392262 1.4092375069317757 7175.1980000000085
4.550830161271455 -1.4748469233469939 1.8768170035353176 -1.97276640734658 -1.570796326604361 1.4092375076972936 7175.248000000009
4.550830161960867 -1.484956812530443 1.860328225517722 -1.9461677400295456 -1.5707963266626261 1.4092375083820772 7175.298000000009
4.550830162524941 -1.4932286750690884 1.8468371869200808 -1.924404838798357 -1.5707963267102987 1.4092375089423639 7175.348000000009
4.550830162934811 -1.4992392078568542 1.837034276214868 -1.9085913952364204 -1.5707963267449385 1.4092375093494816 7175.398000000009
4.55083016318288 -1.5028770153395095 1.8311011745790513 -1.8990204860762123 -1.570796326765904 1.409237509595885 7175.448000000009
4.550830163288899 -1.5044317259580535 1.8285655109525163 -1.894930111813296 -1.570796326774864 1.4092375097011915 7175.49800000001
4.550830163306041 -1.5046831085921004 1.8281555170964943 -1.8942687353203431 -1.5707963267763128 1.4092375097182188 7175.54800000001
4.550830163306041 -1.5046831085921004 1.8281555170964943 -1.8942687353203431 -1.5707963267763128 1.4092375097182188 7175.59800000001
4.550685404657931 -1.5046680248150421 1.8281377870472875 -1.8942660890481045 -1.570796326776461 1.4092392591832381 7175.64800000001
4.549709287030792 -1.5045663138577858 1.828018232092978 -1.894248245050443 -1.5707963267774607 1.4092510559474782 7175.69800000001
4.293012619018555 -1.5440229822746296 1.8820913473712366 -1.9089552364745082 -1.570801083241598 2.722215175628662 7175.947999999999
4.293026159627694 -1.5440222747623562 1.882089298925875 -1.9089538859333874 -1.570801082736863 2.7220620330234633 7175.998
4.293117309274356 -1.5440175120893431 1.8820755096591606 -1.9089447946624793 -1.5708010793392013 2.7210311418568303 7176.048
4.293353905850201 -1.5440051496483682 1.8820397169445693 -1.9089211965066368 -1.5708010705199116 2.718355264011711 7176.098
4.29379358044484 -1.5439821761492587 1.881973202257183 -1.908877343337726 -1.5708010541307578 2.713382599032702 7176.148
4.294484255238619 -1.5439460876034268 1.8818687158516592 -1.9088084553947708 -1.5708010283854101 2.705571153020601 7176.198
4.295464641395404 -1.5438948613084023 1.881720401440202 -1.9087106716241011 -1.5708009918408847 2.6944831075269624 7176.2480000000005
4.29676473695536 -1.5438269298323677 1.8815237208705324 -1.9085810000194952 -1.5708009433789853 2.67977918844865 7176.298000000001
4.298406324727735 -1.543741154998692 1.881275378803858 -1.9084172679623281 -1.5708008821877437 2.661213034922389 7176.348000000001
4.300403470183644 -1.5436368018704647 1.8809732473928449 -1.9082180725617164 -1.5708008077428608 2.6386255682193243 7176.398000000001
4.30276301934885 -1.5435135127350303 1.8806162909595867 -1.9079827309946633 -1.5708007197891458 2.611939360639569 7176.448000000001
4.30548509669655 -1.5433712810885227 1.8802044906735764 -1.9077112308462054 -1.5708006183219596 2.5811530044067617 7176.498000000001
4.308563603040154 -1.5432104256203985 1.8797387692296754 -1.9074041804495578 -1.570800503568653 2.5463354805626195 7176.548000000002
4.31198671342607 -1.5430315641979715 1.8792209155260853 -1.9070627592262597 -1.5708003759700087 2.50762052786149 7176.598000000002
4.315737375026486 -1.5428355878509472 1.8786535093423176 -1.9066886680263204 -1.570800236161682 2.465201011664908 7176.648000000002
4.319793805032154 -1.5426236347559565 1.878039846017164 -1.9062840794683655 -1.570800084955641 2.4193232928361468 7176.698000000002
4.324129988545169 -1.5423970642210905 1.8773838611266676 -1.9058515882797813 -1.5707999233216077 2.3702815966347726 7176.748000000002
4.328716176471762 -1.5421574306704333 1.8766900551620929 -1.905394161636862 -1.570799752368499 2.3184123816111994 7176.7980000000025
4.333519383415066 -1.5419064576285981 1.8759634182078964 -1.9049150895049538 -1.5707995733258666 2.2640887085012418 7176.848000000003
4.338503885567917 -1.5416460117052597 1.8752093546196968 -1.9044179349786023 -1.5707993875253385 2.2077146091206674 7176.898000000003
4.343631718605622 -1.541378076579689 1.874433607702246 -1.903906484621697 -1.5707991963820596 2.149719455259753 7176.948000000003
4.348863175578754 -1.541104726985288 1.8736421843873992 -1.903384698807618 -1.5707990013761315 2.0905523275778384 7176.998000000003
4.354157304805923 -1.5408281026941228 1.872841279912085 -1.9028566620593799 -1.570798804034055 2.030676384497877 7177.048000000003
4.359472407766568 -1.5405503825014586 1.872037202496277 -1.90232653338978 -1.5707986059101688 1.9705632311009913 7177.098000000004
4.364766536993737 -1.5402737582102934 1.871236298020963 -1.901798496641542 -1.5707984085680924 1.9106872880210295 7177.148000000004
4.3699979939668685 -1.5400004086158925 1.870444874706116 -1.9012767108274629 -1.5707982135621643 1.851520160339114 7177.198000000004
4.375125827004574 -1.5397324734903217 1.8696691277886652 -1.9007652604705576 -1.5707980224188853 1.7935250064782005 7177.248000000004
4.380110329157425 -1.5394720275669833 1.8689150642004657 -1.9002681059442061 -1.5707978366183573 1.737150907097627 7177.298000000004
4.384913536100729 -1.5392210545251481 1.8681884272462692 -1.899789033812298 -1.570797657575725 1.6828272339876689 7177.3480000000045
4.3894997240273215 -1.538981420974491 1.8674946212816945 -1.8993316071693787 -1.5707974866226162 1.6309580189640958 7177.398000000005
4.393835907540337 -1.538754850439625 1.8668386363911982 -1.8988991159807944 -1.570797324988583 1.5819163227627224 7177.448000000005
4.397892337546005 -1.5385428973446342 1.8662249730660445 -1.8984945274228395 -1.570797173782542 1.5360386039339602 7177.498000000005
4.4016429991464205 -1.53834692099761 1.8656575668822768 -1.8981204362229003 -1.5707970339742152 1.493619087737378 7177.548000000005
4.405066109532337 -1.538168059575183 1.8651397131786867 -1.897779014999602 -1.570796906375571 1.454904135036248 7177.598000000005
4.4081446158759405 -1.5380072041070587 1.8646739917347857 -1.8974719646029545 -1.5707967916222643 1.4200866111921062 7177.648000000006
4.410866693223641 -1.537864972460551 1.8642621914487751 -1.8972004644544964 -1.570796690155078 1.3893002549592994 7177.698000000006
4.413226242388847 -1.5377416833251167 1.8639052350155172 -1.8969651228874436 -1.570796602201363 1.3626140473795436 7177.748000000006
4.4152233878447555 -1.5376373301968895 1.863603103604504 -1.8967659274868318 -1.5707965277564802 1.3400265806764793 7177.798000000006
4.4168649756171305 -1.5375515553632138 1.8633547615378296 -1.8966021954296648 -1.5707964665652385 1.3214604271502193 7177.848000000006
4.418165071177087 -1.5374836238871792 1.86315808096816 -1.8964725238250588 -1.5707964181033391 1.3067565080719055 7177.8980000000065
4.4191454573338715 -1.5374323975921547 1.863009766556703 -1.896374740054389 -1.5707963815588137 1.2956684625782646 7177.948000000007
4.419836132127651 -1.5373963090463227 1.8629052801511792 -1.896305852111434 -1.570796355813466 1.287857016566166 7177.998000000007
4.293025970458984 -1.5432643604329606 1.8832710425006312 -1.9108144245543421 -1.5708048979388636 2.722227096557617 7178.197999999999
4.293027477165033 -1.5444066092309854 1.8814340743488907 -1.907832811735369 -1.5708030990190656 2.722229137843622 7178.248
4.293031642764109 -1.5475645912019949 1.8763553976940783 -1.8995895292358551 -1.5707981255349186 2.7222347813990466 7178.298
4.2930331494701575 -1.5487068400000197 1.8745184295423378 -1.8966079164168819 -1.5707963266151206 2.7222368226850513 7178.348
4.2930331494701575 -1.5487068400000197 1.8745184295423378 -1.8966079164168819 -1.5707963266151206 2.7222368226850513 7178.398
4.293033149408071 -1.5484923406050548 1.8748646125879476 -1.8971685988639604 -1.570796326608723 2.7222368226233526 7178.448
4.2930331490208715 -1.5471546242579515 1.8770235684175323 -1.9006652710812093 -1.5707963265688247 2.722236822238571 7178.4980000000005
4.293033148105164 -1.5439909887275693 1.8821293962604755 -1.9089347345504593 -1.5707963264744673 2.722236821328582 7178.548000000001
4.293033146572863 -1.5386971141500287 1.8906732414523368 -1.9227724544803775 -1.5707963263165738 2.7222368198058495 7178.598000000001
4.293033144431975 -1.5313006659675001 1.9026104544171567 -1.9421061158519937 -1.57079632609597 2.7222368176783323 7178.648000000001
4.293033141767385 -1.5220948978669953 1.9174677496497587 -1.9661691794642293 -1.570796325821402 2.7222368150303815 7178.698000000001
4.2930331387216265 -1.5115722547191561 1.934450364698056 -1.9936744379794233 -1.5707963255075572 2.722236812003644 7178.748000000001
4.293033135475676 -1.5003579755170444 1.9525492191453524 -2.0229875719688604 -1.570796325173084 2.7222368087779643 7178.798000000002
4.293033132229726 -1.489143696314933 1.970648073592649 -2.0523007059582974 -1.5707963248386108 2.7222368055522845 7178.848000000002
4.293033129183968 -1.4786210531670936 1.9876306886409458 -2.079805964473491 -1.570796324524766 2.722236802525547 7178.898000000002
4.2930331265193775 -1.4694152850665887 2.0024879838735483 -2.103869028085727 -1.5707963242501979 2.7222367998775963 7178.948000000002
4.29303312437849 -1.46201883688406 2.014425196838368 -2.1232026894573433 -1.5707963240295941 2.722236797750079 7178.998000000002
4.293033122846189 -1.4567249623065195 2.0229690420302293 -2.1370404093872613 -1.5707963238717007 2.7222367962273464 7179.0480000000025
4.293033121930481 -1.4535613267761374 2.0280748698731728 -2.145309872856511 -1.5707963237773432 2.7222367953173574 7179.098000000003
4.2930331215432815 -1.452223610429034 2.0302338257027572 -2.14880654507376 -1.570796323737445 2.722236794932576 7179.148000000003
4.293033121481195 -1.4520091110340692 2.030580008748367 -2.149367227520839 -1.5707963237310474 2.722236794870877 7179.198000000003
4.293033121481195 -1.4520091110340692 2.030580008748367 -2.149367227520839 -1.5707963237310474 2.722236794870877 7179.248000000003
4.293033121481195 -1.4520091110340692 2.030580008748367 -2.149367227520839 -1.5707963237310474 2.722236794870877 7179.298000000003
4.293033121481195 -1.4520091110340692 2.030580008748367 -2.149367227520839 -1.5707963237310474 2.722236794870877 7179.348000000004
4.293033121481195 -1.4520091110340692 2.030580008748367 -2.149367227520839 -1.5707963237310474 2.722236794870877 7179.398000000004
4.293033121481195 -1.4520091110340692 2.030580008748367 -2.149367227520839 -1.5707963237310474 2.722236794870877 7179.448000000004
4.293033121481195 -1.4520091110340692 2.030580008748367 -2.149367227520839 -1.5707963237310474 2.722236794870877 7179.498000000004
4.293033121481195 -1.4520091110340692 2.030580008748367 -2.149367227520839 -1.5707963237310474 2.722236794870877 7179.548000000004
4.293033121481195 -1.4520091110340692 2.030580008748367 -2.149367227520839 -1.5707963237310474 2.722236794870877 7179.5980000000045
4.293033121481195 -1.4520091110340692 2.030580008748367 -2.149367227520839 -1.5707963237310474 2.722236794870877 7179.648000000005
4.293033121481195 -1.4520091110340692 2.030580008748367 -2.149367227520839 -1.5707963237310474 2.722236794870877 7179.698000000005
4.293033121481195 -1.4520091110340692 2.030580008748367 -2.149367227520839 -1.5707963237310474 2.722236794870877 7179.748000000005
4.293033121481195 -1.4520091110340692 2.030580008748367 -2.149367227520839 -1.5707963237310474 2.722236794870877 7179.798000000005
4.293033121481195 -1.4520091110340692 2.030580008748367 -2.149367227520839 -1.5707963237310474 2.722236794870877 7179.848000000005
4.293033121481195 -1.4520091110340692 2.030580008748367 -2.149367227520839 -1.5707963237310474 2.722236794870877 7179.898000000006
4.2930331215432815 -1.452223610429034 2.0302338257027572 -2.1488065450737603 -1.570796323737445 2.722236794932576 7179.948000000006
4.293033121930481 -1.4535613267761374 2.0280748698731723 -2.1453098728565116 -1.5707963237773432 2.7222367953173574 7179.998000000006
4.293033122846189 -1.4567249623065195 2.0229690420302293 -2.1370404093872613 -1.5707963238717007 2.7222367962273464 7180.048000000006
4.29303312437849 -1.46201883688406 2.014425196838368 -2.1232026894573433 -1.5707963240295941 2.722236797750079 7180.098000000006
4.2930331265193775 -1.4694152850665887 2.0024879838735483 -2.103869028085727 -1.5707963242501979 2.7222367998775963 7180.1480000000065
4.293033129183968 -1.4786210531670936 1.987630688640946 -2.079805964473491 -1.570796324524766 2.722236802525547 7180.198000000007
4.293033132229726 -1.4891436963149327 1.9706480735926488 -2.0523007059582974 -1.5707963248386108 2.7222368055522845 7180.248000000007
4.293033135475676 -1.5003579755170444 1.9525492191453524 -2.0229875719688604 -1.570796325173084 2.7222368087779643 7180.298000000007
4.2930331387216265 -1.511572254719156 1.9344503646980558 -1.9936744379794233 -1.5707963255075572 2.722236812003644 7180.348000000007
4.293033141767385 -1.5220948978669953 1.917467749649759 -1.9661691794642295 -1.570796325821402 2.7222368150303815 7180.398000000007
4.293033144431975 -1.5313006659675001 1.9026104544171565 -1.9421061158519937 -1.57079632609597 2.7222368176783323 7180.448000000008
4.293033146572863 -1.5386971141500287 1.8906732414523368 -1.9227724544803775 -1.5707963263165738 2.7222368198058495 7180.498000000008
4.293033148105164 -1.5439909887275693 1.8821293962604755 -1.9089347345504595 -1.5707963264744673 2.722236821328582 7180.548000000008
4.2930331490208715 -1.5471546242579515 1.8770235684175323 -1.9006652710812095 -1.5707963265688247 2.722236822238571 7180.598000000008
4.293033149408071 -1.5484923406050548 1.8748646125879476 -1.8971685988639606 -1.570796326608723 2.7222368226233526 7180.648000000008
4.2930331494701575 -1.5487068400000197 1.8745184295423378 -1.8966079164168819 -1.5707963266151206 2.7222368226850513 7180.6980000000085
4.2930331494701575 -1.5487068400000197 1.8745184295423378 -1.8966079164168819 -1.5707963266151206 2.7222368226850513 7180.748000000009
4.292864639105686 -1.5486800519419135 1.8744876428646378 -1.8966039177971543 -1.5707963266153486 2.722068312320609 7180.798000000009
4.291733551906087 -1.5485002432415933 1.8742809943467607 -1.8965770779787012 -1.5707963266168785 2.720937225121201 7180.848000000009
4.288807437163939 -1.5480350793806994 1.8737463960639613 -1.8965076435544763 -1.5707963266208365 2.718011110379551 7180.898000000009
4.283389317948624 -1.5471737620794066 1.8727565110171482 -1.8963790758046617 -1.5707963266281653 2.7125929911651556 7180.948000000009
4.274910560907537 -1.5458258958101845 1.8712074504525875 -1.896177881502603 -1.570796326639634 2.704114234125508 7180.99800000001
4.262923746067311 -1.5439203543115598 1.8690174711816043 -1.895893443720744 -1.570796326655848 2.6921274192873175 7181.04800000001
4.24709553663504 -1.5414041471018765 1.8661256729002855 -1.8955178526365632 -1.570796326677258 2.6762992098577354 7181.09800000001
4.2271995487995015 -1.5382412859930583 1.862490695509182 -1.8950457363385087 -1.5707963267041702 2.6564032220255753 7181.14800000001
4.2031092215323715 -1.53441165160437 1.8580894164330115 -1.894474091631933 -1.570796326736756 2.632312894762536 7181.19800000001
4.174790686389451 -1.5299098598761776 1.8529156479403601 -1.8938021148450288 -1.5707963267750609 2.603994359624424 7181.2480000000105
4.142295637311885 -1.5247441285837116 1.8469788344633855 -1.8930310326347655 -1.5707963268190153 2.571499310552377 7181.298000000011
4.105754200427387 -1.5189351438508265 1.8403027499175193 -1.892163932792822 -1.570796326868443 2.5349578736740837 7181.348000000011
4.065367803851455 -1.5125149266637636 1.8329241950211685 -1.8912055950515243 -1.5707963269230716 2.4945714771050103 7181.398000000011
4.021402047488597 -1.505525699384912 1.8248916946154192 -1.8901623218897803 -1.5707963269825416 2.4506057207496195 7181.448000000011
3.9741795728335525 -1.4980187522665687 1.8162641949837381 -1.8890417693390145 -1.570796327046417 2.4033832461025937 7181.498000000011
3.924072932772509 -1.4900533099647022 1.807109761171675 -1.8878527777891043 -1.5707963271141936 2.3532766060500587 7181.548000000012
3.8714974613843274 -1.4816953980527123 1.797504274306566 -1.8866052027943143 -1.5707963271853098 2.300701134670806 7181.598000000012
3.816904143741764 -1.4730167095351918 1.7875301289172338 -1.8853097458792327 -1.5707963272591552 2.2461078170375135 7181.648000000012
3.7607724857126885 -1.4640934713616884 1.777274930253693 -1.8839777853447064 -1.5707963273350816 2.18997615901797 7181.698000000012
3.7036033837613065 -1.4550053109404653 1.7668301916068505 -1.8826212070737758 -1.5707963274124113 2.1328070570762963 7181.748000000012
3.645911994749382 -1.4458341226522629 1.7562900316282084 -1.8812522353376107 -1.5707963274904473 2.075115668074169 7181.7980000000125
3.5882206057374573 -1.4366629343640605 1.7457498716495663 -1.8798832636014453 -1.5707963275684833 2.017424279072042 7181.848000000013
3.5310515037860757 -1.4275747739428373 1.7353051330027238 -1.8785266853305147 -1.570796327645813 1.9602551771303682 7181.898000000013
3.4749198457569994 -1.418651535769334 1.7250499343391832 -1.8771947247959884 -1.5707963277217394 1.9041235191108248 7181.948000000013
3.420326528114437 -1.4099728472518134 1.7150757889498511 -1.8758992678809068 -1.5707963277955848 1.8495302014775326 7181.998000000013
3.3677510567262554 -1.4016149353398235 1.7054703020847417 -1.8746516928861168 -1.570796327866701 1.796954730098279 7182.048000000013
3.3176444166652117 -1.393649493037957 1.6963158682726787 -1.8734627013362064 -1.5707963279344777 1.7468480900457446 7182.098000000014
3.2704219420101666 -1.386142545919614 1.6876883686409976 -1.8723421487854408 -1.570796327998353 1.6996256153987193 7182.148000000014
3.22645618564731 -1.3791533186407618 1.6796558682352483 -1.8712988756236968 -1.570796328057823 1.655659859043328 7182.198000000014
3.186069789071378 -1.3727331014536992 1.6722773133388977 -1.8703405378823992 -1.5707963281124515 1.6152734624742537 7182.248000000014
3.149528352186879 -1.3669241167208142 1.665601228793031 -1.8694734380404556 -1.5707963281618793 1.5787320255959614 7182.298000000014
3.117033303109314 -1.3617583854283482 1.659664415316057 -1.8687023558301923 -1.5707963282058337 1.5462369765239137 7182.3480000000145
3.088714767966393 -1.357256593700156 1.6544906468234053 -1.8680303790432882 -1.5707963282441386 1.5179184413858025 7182.398000000015
3.064624440699262 -1.3534269593114674 1.650089367747235 -1.8674587343367124 -1.5707963282767243 1.4938281141227634 7182.448000000015
3.0447284528637235 -1.3502640982026493 1.6464543903561315 -1.8669866180386578 -1.5707963283036366 1.4739321262906033 7182.498000000015
3.028900243431454 -1.3477478909929659 1.6435625920748125 -1.8666110269544771 -1.5707963283250466 1.4581039168610204 7182.548000000015
3.016913428591228 -1.345842349494341 1.6413726128038295 -1.8663265891726182 -1.5707963283412605 1.4461171020228303 7182.598000000015
3.008434671550142 -1.3444944832251193 1.6398235522392688 -1.8661253948705594 -1.5707963283527293 1.4376383449831849 7182.648000000016
3.0030165523348247 -1.3436331659238263 1.6388336671924557 -1.8659968271207448 -1.5707963283600581 1.4322202257687842 7182.698000000016
3.000090437592678 -1.3431680020629326 1.6382990689096562 -1.8659273926965199 -1.570796328364016 1.4292941110271364 7182.748000000016
2.9989593503930765 -1.3429881933626122 1.6380924203917788 -1.8659005528780668 -1.570796328365546 1.428163023827727 7182.798000000016
4.293025970458984 -1.5432643604329606 1.8832710425006312 -1.9108144245543421 -1.5708048979388636 2.722227096557617 7182.897999999999
4.293027477165033 -1.5444066092309854 1.8814340743488907 -1.907832811735369 -1.5708030990190656 2.722229137843622 7182.947999999999
4.293031642764109 -1.5475645912019949 1.8763553976940783 -1.8995895292358551 -1.5707981255349186 2.7222347813990466 7182.998
4.2930331494701575 -1.5487068400000197 1.8745184295423378 -1.8966079164168819 -1.5707963266151206 2.7222368226850513 7183.048
4.2930331494701575 -1.5487068400000197 1.8745184295423378 -1.8966079164168819 -1.5707963266151206 2.7222368226850513 7183.098
4.293033149408071 -1.5484923406050548 1.8748646125879476 -1.8971685988639604 -1.570796326608723 2.7222368226233526 7183.148
4.2930331490208715 -1.5471546242579515 1.8770235684175323 -1.9006652710812093 -1.5707963265688247 2.722236822238571 7183.198
4.293033148105164 -1.5439909887275693 1.8821293962604755 -1.9089347345504593 -1.5707963264744673 2.722236821328582 7183.2480000000005
4.293033146572863 -1.5386971141500287 1.8906732414523368 -1.9227724544803775 -1.5707963263165738 2.7222368198058495 7183.298000000001
4.293033144431975 -1.5313006659675001 1.9026104544171567 -1.9421061158519937 -1.57079632609597 2.7222368176783323 7183.348000000001
4.293033141767385 -1.5220948978669953 1.9174677496497587 -1.9661691794642293 -1.570796325821402 2.7222368150303815 7183.398000000001
4.2930331387216265 -1.5115722547191561 1.934450364698056 -1.9936744379794233 -1.5707963255075572 2.722236812003644 7183.448000000001
4.293033135475676 -1.5003579755170444 1.9525492191453524 -2.0229875719688604 -1.570796325173084 2.7222368087779643 7183.498000000001
4.293033132229726 -1.489143696314933 1.970648073592649 -2.0523007059582974 -1.5707963248386108 2.7222368055522845 7183.548000000002
4.293033129183968 -1.4786210531670936 1.9876306886409458 -2.079805964473491 -1.570796324524766 2.722236802525547 7183.598000000002
4.2930331265193775 -1.4694152850665887 2.0024879838735483 -2.103869028085727 -1.5707963242501979 2.7222367998775963 7183.648000000002
4.29303312437849 -1.46201883688406 2.014425196838368 -2.1232026894573433 -1.5707963240295941 2.722236797750079 7183.698000000002
4.293033122846189 -1.4567249623065195 2.0229690420302293 -2.1370404093872613 -1.5707963238717007 2.7222367962273464 7183.748000000002
4.293033121930481 -1.4535613267761374 2.0280748698731728 -2.145309872856511 -1.5707963237773432 2.7222367953173574 7183.7980000000025
4.2930331215432815 -1.452223610429034 2.0302338257027572 -2.14880654507376 -1.570796323737445 2.722236794932576 7183.848000000003
4.293033121481195 -1.4520091110340692 2.030580008748367 -2.149367227520839 -1.5707963237310474 2.722236794870877 7183.898000000003
4.293033121481195 -1.4520091110340692 2.030580008748367 -2.149367227520839 -1.5707963237310474 2.722236794870877 7183.948000000003
4.293033121481195 -1.4520091110340692 2.030580008748367 -2.149367227520839 -1.5707963237310474 2.722236794870877 7183.998000000003
4.293033121481195 -1.4520091110340692 2.030580008748367 -2.149367227520839 -1.5707963237310474 2.722236794870877 7184.048000000003
4.293033121481195 -1.4520091110340692 2.030580008748367 -2.149367227520839 -1.5707963237310474 2.722236794870877 7184.098000000004
4.293033121481195 -1.4520091110340692 2.030580008748367 -2.149367227520839 -1.5707963237310474 2.722236794870877 7184.148000000004
4.293033121481195 -1.4520091110340692 2.030580008748367 -2.149367227520839 -1.5707963237310474 2.722236794870877 7184.198000000004
4.293033121481195 -1.4520091110340692 2.030580008748367 -2.149367227520839 -1.5707963237310474 2.722236794870877 7184.248000000004
4.293033121481195 -1.4520091110340692 2.030580008748367 -2.149367227520839 -1.5707963237310474 2.722236794870877 7184.298000000004
4.293033121481195 -1.4520091110340692 2.030580008748367 -2.149367227520839 -1.5707963237310474 2.722236794870877 7184.3480000000045
4.293033121481195 -1.4520091110340692 2.030580008748367 -2.149367227520839 -1.5707963237310474 2.722236794870877 7184.398000000005
4.293033121481195 -1.4520091110340692 2.030580008748367 -2.149367227520839 -1.5707963237310474 2.722236794870877 7184.448000000005
4.293033121481195 -1.4520091110340692 2.030580008748367 -2.149367227520839 -1.5707963237310474 2.722236794870877 7184.498000000005
4.293033121481195 -1.4520091110340692 2.030580008748367 -2.149367227520839 -1.5707963237310474 2.722236794870877 7184.548000000005
4.293033121481195 -1.4520091110340692 2.030580008748367 -2.149367227520839 -1.5707963237310474 2.722236794870877 7184.598000000005
4.2930331215432815 -1.452223610429034 2.0302338257027572 -2.1488065450737603 -1.570796323737445 2.722236794932576 7184.648000000006
4.293033121930481 -1.4535613267761374 2.0280748698731723 -2.1453098728565116 -1.5707963237773432 2.7222367953173574 7184.698000000006
4.293033122846189 -1.4567249623065195 2.0229690420302293 -2.1370404093872613 -1.5707963238717007 2.7222367962273464 7184.748000000006
4.29303312437849 -1.46201883688406 2.014425196838368 -2.1232026894573433 -1.5707963240295941 2.722236797750079 7184.798000000006
4.2930331265193775 -1.4694152850665887 2.0024879838735483 -2.103869028085727 -1.5707963242501979 2.7222367998775963 7184.848000000006
4.293033129183968 -1.4786210531670936 1.987630688640946 -2.079805964473491 -1.570796324524766 2.722236802525547 7184.8980000000065
4.293033132229726 -1.4891436963149327 1.9706480735926488 -2.0523007059582974 -1.5707963248386108 2.7222368055522845 7184.948000000007
4.293033135475676 -1.5003579755170444 1.9525492191453524 -2.0229875719688604 -1.570796325173084 2.7222368087779643 7184.998000000007
4.2930331387216265 -1.511572254719156 1.9344503646980558 -1.9936744379794233 -1.5707963255075572 2.722236812003644 7185.048000000007
4.293033141767385 -1.5220948978669953 1.917467749649759 -1.9661691794642295 -1.570796325821402 2.7222368150303815 7185.098000000007
4.293033144431975 -1.5313006659675001 1.9026104544171565 -1.9421061158519937 -1.57079632609597 2.7222368176783323 7185.148000000007
4.293033146572863 -1.5386971141500287 1.8906732414523368 -1.9227724544803775 -1.5707963263165738 2.7222368198058495 7185.198000000008
4.293033148105164 -1.5439909887275693 1.8821293962604755 -1.9089347345504595 -1.5707963264744673 2.722236821328582 7185.248000000008
4.2930331490208715 -1.5471546242579515 1.8770235684175323 -1.9006652710812095 -1.5707963265688247 2.722236822238571 7185.298000000008
4.293033149408071 -1.5484923406050548 1.8748646125879476 -1.8971685988639606 -1.570796326608723 2.7222368226233526 7185.348000000008
4.2930331494701575 -1.5487068400000197 1.8745184295423378 -1.8966079164168819 -1.5707963266151206 2.7222368226850513 7185.398000000008
4.2930331494701575 -1.5487068400000197 1.8745184295423378 -1.8966079164168819 -1.5707963266151206 2.7222368226850513 7185.4480000000085
4.292864639105686 -1.5486800519419135 1.8744876428646378 -1.8966039177971543 -1.5707963266153486 2.722068312320609 7185.498000000009
4.291733551906087 -1.5485002432415933 1.8742809943467607 -1.8965770779787012 -1.5707963266168785 2.720937225121201 7185.548000000009
4.288807437163939 -1.5480350793806994 1.8737463960639613 -1.8965076435544763 -1.5707963266208365 2.718011110379551 7185.598000000009
4.283389317948624 -1.5471737620794066 1.8727565110171482 -1.8963790758046617 -1.5707963266281653 2.7125929911651556 7185.648000000009
4.274910560907537 -1.5458258958101845 1.8712074504525875 -1.896177881502603 -1.570796326639634 2.704114234125508 7185.698000000009
4.262923746067311 -1.5439203543115598 1.8690174711816043 -1.895893443720744 -1.570796326655848 2.6921274192873175 7185.74800000001
4.24709553663504 -1.5414041471018765 1.8661256729002855 -1.8955178526365632 -1.570796326677258 2.6762992098577354 7185.79800000001
4.2271995487995015 -1.5382412859930583 1.862490695509182 -1.8950457363385087 -1.5707963267041702 2.6564032220255753 7185.84800000001
4.2031092215323715 -1.53441165160437 1.8580894164330115 -1.894474091631933 -1.570796326736756 2.632312894762536 7185.89800000001
4.174790686389451 -1.5299098598761776 1.8529156479403601 -1.8938021148450288 -1.5707963267750609 2.603994359624424 7185.94800000001
4.142295637311885 -1.5247441285837116 1.8469788344633855 -1.8930310326347655 -1.5707963268190153 2.571499310552377 7185.9980000000105
4.105754200427387 -1.5189351438508265 1.8403027499175193 -1.892163932792822 -1.570796326868443 2.5349578736740837 7186.048000000011
4.065367803851455 -1.5125149266637636 1.8329241950211685 -1.8912055950515243 -1.5707963269230716 2.4945714771050103 7186.098000000011
4.021402047488597 -1.505525699384912 1.8248916946154192 -1.8901623218897803 -1.5707963269825416 2.4506057207496195 7186.148000000011
3.9741795728335525 -1.4980187522665687 1.8162641949837381 -1.8890417693390145 -1.570796327046417 2.4033832461025937 7186.198000000011
3.924072932772509 -1.4900533099647022 1.807109761171675 -1.8878527777891043 -1.5707963271141936 2.3532766060500587 7186.248000000011
3.8714974613843274 -1.4816953980527123 1.797504274306566 -1.8866052027943143 -1.5707963271853098 2.300701134670806 7186.298000000012
3.816904143741764 -1.4730167095351918 1.7875301289172338 -1.8853097458792327 -1.5707963272591552 2.2461078170375135 7186.348000000012
3.7607724857126885 -1.4640934713616884 1.777274930253693 -1.8839777853447064 -1.5707963273350816 2.18997615901797 7186.398000000012
3.7036033837613065 -1.4550053109404653 1.7668301916068505 -1.8826212070737758 -1.5707963274124113 2.1328070570762963 7186.448000000012
3.645911994749382 -1.4458341226522629 1.7562900316282084 -1.8812522353376107 -1.5707963274904473 2.075115668074169 7186.498000000012
3.5882206057374573 -1.4366629343640605 1.7457498716495663 -1.8798832636014453 -1.5707963275684833 2.017424279072042 7186.5480000000125
3.5310515037860757 -1.4275747739428373 1.7353051330027238 -1.8785266853305147 -1.570796327645813 1.9602551771303682 7186.598000000013
3.4749198457569994 -1.418651535769334 1.7250499343391832 -1.8771947247959884 -1.5707963277217394 1.9041235191108248 7186.648000000013
3.420326528114437 -1.4099728472518134 1.7150757889498511 -1.8758992678809068 -1.5707963277955848 1.8495302014775326 7186.698000000013
3.3677510567262554 -1.4016149353398235 1.7054703020847417 -1.8746516928861168 -1.570796327866701 1.796954730098279 7186.748000000013
3.3176444166652117 -1.393649493037957 1.6963158682726787 -1.8734627013362064 -1.5707963279344777 1.7468480900457446 7186.798000000013
3.2704219420101666 -1.386142545919614 1.6876883686409976 -1.8723421487854408 -1.570796327998353 1.6996256153987193 7186.848000000014
3.22645618564731 -1.3791533186407618 1.6796558682352483 -1.8712988756236968 -1.570796328057823 1.655659859043328 7186.898000000014
3.186069789071378 -1.3727331014536992 1.6722773133388977 -1.8703405378823992 -1.5707963281124515 1.6152734624742537 7186.948000000014
3.149528352186879 -1.3669241167208142 1.665601228793031 -1.8694734380404556 -1.5707963281618793 1.5787320255959614 7186.998000000014
3.117033303109314 -1.3617583854283482 1.659664415316057 -1.8687023558301923 -1.5707963282058337 1.5462369765239137 7187.048000000014
3.088714767966393 -1.357256593700156 1.6544906468234053 -1.8680303790432882 -1.5707963282441386 1.5179184413858025 7187.0980000000145
3.064624440699262 -1.3534269593114674 1.650089367747235 -1.8674587343367124 -1.5707963282767243 1.4938281141227634 7187.148000000015
3.0447284528637235 -1.3502640982026493 1.6464543903561315 -1.8669866180386578 -1.5707963283036366 1.4739321262906033 7187.198000000015
3.028900243431454 -1.3477478909929659 1.6435625920748125 -1.8666110269544771 -1.5707963283250466 1.4581039168610204 7187.248000000015
3.016913428591228 -1.345842349494341 1.6413726128038295 -1.8663265891726182 -1.5707963283412605 1.4461171020228303 7187.298000000015
3.008434671550142 -1.3444944832251193 1.6398235522392688 -1.8661253948705594 -1.5707963283527293 1.4376383449831849 7187.348000000015
3.0030165523348247 -1.3436331659238263 1.6388336671924557 -1.8659968271207448 -1.5707963283600581 1.4322202257687842 7187.398000000016
3.000090437592678 -1.3431680020629326 1.6382990689096562 -1.8659273926965199 -1.570796328364016 1.4292941110271364 7187.448000000016
2.9989593503930765 -1.3429881933626122 1.6380924203917788 -1.8659005528780668 -1.570796328365546 1.428163023827727 7187.498000000016
2.998790840028607 -1.342961405304506 1.638061633714079 -1.8658965542583392 -1.570796328365774 1.427994513463286 7187.548000000016
2.9987908400286063 -1.342961405304506 1.638061633714079 -1.8658965542583392 -1.570796328365774 1.427994513463287 7187.598000000016
2.9987908375813794 -1.3427405478580317 1.6384527923103132 -1.8665085704197473 -1.570796328244215 1.427994511023567 7187.6480000000165
2.998790822446168 -1.3413746244778415 1.640871966671366 -1.870293668895103 -1.570796327492416 1.4279944959347812 7187.698000000017
2.998790787031869 -1.338178552981371 1.6465324995625137 -1.8791502750004434 -1.5707963257333106 1.4279944606291126 7187.748000000017
2.998790728518931 -1.3328978742722388 1.6558850611537157 -1.8937835181388678 -1.5707963228268453 1.4279944022956577 7187.798000000017
2.998790647991797 -1.3256304572336688 1.6687563167642183 -1.9139221946937996 -1.570796318826887 1.4279943220155333 7187.848000000017
2.998790549571351 -1.3167482036219098 1.6844875946071576 -1.9385357309222473 -1.570796313938129 1.427994223896983 7187.898000000017
2.998790439547363 -1.306818752959659 1.7020735535341616 -1.9660511458480658 -1.5707963084729977 1.4279941142104835 7187.948000000018
2.9987903255109356 -1.296527187429481 1.7203008507799544 -1.994570014155218 -1.5707963028085596 1.4279940005238523 7187.998000000018
2.9987902154869475 -1.2865977367672303 1.7378868097069584 -2.0220854290810366 -1.5707962973434284 1.4279938908373528 7188.048000000018
2.9987901170665014 -1.2777154831554716 1.7536180875498977 -2.046698965309484 -1.5707962924546703 1.4279937927188024 7188.098000000018
2.9987900365393676 -1.2704480661169013 1.7664893431604003 -2.066837641864416 -1.570796288454712 1.4279937124386781 7188.148000000018
2.9987899780264295 -1.265167387407769 1.7758419047516023 -2.0814708850028403 -1.5707962855482467 1.4279936541052232 7188.1980000000185
2.9987899426121305 -1.2619713159112986 1.7815024376427502 -2.090327491108181 -1.5707962837891414 1.4279936187995546 7188.248000000019
2.998789927476919 -1.2606053925311085 1.7839216120038028 -2.0941125895835366 -1.5707962830373423 1.4279936037107688 7188.298000000019
2.9987899250296923 -1.260384535084634 1.784312770600037 -2.0947246057449442 -1.5707962829157833 1.4279936012710488 7188.348000000019
2.9987899250296923 -1.260384535084634 1.784312770600037 -2.0947246057449442 -1.5707962829157833 1.4279936012710488 7188.398000000019
2.9987899250296923 -1.260384535084634 1.784312770600037 -2.0947246057449442 -1.5707962829157833 1.4279936012710488 7188.448000000019
2.9987899250296923 -1.260384535084634 1.784312770600037 -2.0947246057449442 -1.5707962829157833 1.4279936012710488 7188.49800000002
2.9987899250296923 -1.260384535084634 1.784312770600037 -2.0947246057449442 -1.5707962829157833 1.4279936012710488 7188.54800000002
2.9987899250296923 -1.260384535084634 1.784312770600037 -2.0947246057449442 -1.5707962829157833 1.4279936012710488 7188.59800000002
2.9987899250296923 -1.260384535084634 1.784312770600037 -2.0947246057449447 -1.5707962829157833 1.4279936012710488 7188.64800000002
2.998789927476919 -1.2606053925311085 1.7839216120038028 -2.0941125895835366 -1.5707962830373423 1.4279936037107688 7188.69800000002
2.9987899426121305 -1.2619713159112986 1.78150243764275 -2.0903274911081806 -1.5707962837891414 1.4279936187995546 7188.7480000000205
2.9987899780264295 -1.2651673874077691 1.7758419047516023 -2.0814708850028403 -1.5707962855482467 1.4279936541052232 7188.798000000021
2.9987900365393676 -1.2704480661169013 1.7664893431604003 -2.066837641864416 -1.570796288454712 1.4279937124386781 7188.848000000021
2.9987901170665014 -1.2777154831554713 1.7536180875498977 -2.0466989653094845 -1.5707962924546703 1.4279937927188024 7188.898000000021
2.9987902154869475 -1.2865977367672303 1.7378868097069584 -2.0220854290810366 -1.5707962973434284 1.4279938908373528 7188.948000000021
2.9987903255109356 -1.296527187429481 1.7203008507799544 -1.994570014155218 -1.5707963028085596 1.4279940005238523 7188.998000000021
2.998790439547363 -1.306818752959659 1.7020735535341616 -1.9660511458480658 -1.5707963084729977 1.4279941142104835 7189.048000000022
2.998790549571351 -1.3167482036219098 1.6844875946071576 -1.9385357309222475 -1.570796313938129 1.427994223896983 7189.098000000022
2.998790647991797 -1.3256304572336686 1.6687563167642183 -1.9139221946937996 -1.570796318826887 1.4279943220155333 7189.148000000022
2.998790728518931 -1.3328978742722388 1.6558850611537157 -1.893783518138868 -1.5707963228268453 1.4279944022956577 7189.198000000022
2.998790787031869 -1.338178552981371 1.6465324995625137 -1.8791502750004436 -1.5707963257333106 1.4279944606291126 7189.248000000022
2.998790822446168 -1.3413746244778415 1.6408719666713658 -1.8702936688951028 -1.570796327492416 1.4279944959347812 7189.2980000000225
2.9987908375813794 -1.3427405478580314 1.6384527923103132 -1.8665085704197473 -1.570796328244215 1.427994511023567 7189.348000000023
2.9987908400286063 -1.342961405304506 1.638061633714079 -1.8658965542583394 -1.570796328365774 1.427994513463287 7189.398000000023
2.9987908400286063 -1.342961405304506 1.638061633714079 -1.8658965542583394 -1.570796328365774 1.427994513463287 7189.448000000023
2.9987908400286063 -1.342961405304506 1.638061633714079 -1.8658965542583394 -1.570796328365774 1.427994513463287 7189.498000000023
2.9987908400286063 -1.342961405304506 1.638061633714079 -1.8658965542583394 -1.570796328365774 1.427994513463287 7189.548000000023
2.9987908400286063 -1.342961405304506 1.638061633714079 -1.8658965542583394 -1.570796328365774 1.427994513463287 7189.598000000024
2.9987908400286063 -1.342961405304506 1.638061633714079 -1.8658965542583394 -1.570796328365774 1.427994513463287 7189.648000000024
2.9987908400286063 -1.342961405304506 1.638061633714079 -1.8658965542583394 -1.570796328365774 1.427994513463287 7189.698000000024
2.9987908400286063 -1.342961405304506 1.638061633714079 -1.8658965542583394 -1.570796328365774 1.427994513463287 7189.748000000024
2.9987908400286063 -1.342961405304506 1.638061633714079 -1.8658965542583394 -1.570796328365774 1.427994513463287 7189.798000000024
2.9987908400286063 -1.342961405304506 1.638061633714079 -1.8658965542583394 -1.570796328365774 1.427994513463287 7189.8480000000245
2.9987908400286063 -1.342961405304506 1.638061633714079 -1.8658965542583394 -1.570796328365774 1.427994513463287 7189.898000000025
2.9987908400286063 -1.342961405304506 1.638061633714079 -1.8658965542583394 -1.570796328365774 1.427994513463287 7189.948000000025
2.9987908400286063 -1.342961405304506 1.638061633714079 -1.8658965542583394 -1.570796328365774 1.427994513463287 7189.998000000025
2.9987908400286063 -1.342961405304506 1.638061633714079 -1.8658965542583394 -1.570796328365774 1.427994513463287 7190.048000000025
2.9987908400286063 -1.342961405304506 1.638061633714079 -1.8658965542583394 -1.570796328365774 1.427994513463287 7190.098000000025
2.9987908400286063 -1.342961405304506 1.638061633714079 -1.8658965542583394 -1.570796328365774 1.427994513463287 7190.148000000026
2.9987908400286063 -1.342961405304506 1.638061633714079 -1.8658965542583394 -1.570796328365774 1.427994513463287 7190.198000000026
2.9987908400286063 -1.342961405304506 1.638061633714079 -1.8658965542583394 -1.570796328365774 1.427994513463287 7190.248000000026
2.9987908400286063 -1.342961405304506 1.638061633714079 -1.8658965542583394 -1.570796328365774 1.427994513463287 7190.298000000026
2.9987908400286063 -1.342961405304506 1.638061633714079 -1.8658965542583394 -1.570796328365774 1.427994513463287 7190.348000000026
2.9987908400286063 -1.342961405304506 1.638061633714079 -1.8658965542583394 -1.570796328365774 1.427994513463287 7190.3980000000265
2.9987908400286063 -1.342961405304506 1.638061633714079 -1.8658965542583394 -1.570796328365774 1.427994513463287 7190.448000000027
2.9987908400286063 -1.342961405304506 1.638061633714079 -1.8658965542583394 -1.570796328365774 1.427994513463287 7190.498000000027
2.9987908400286063 -1.342961405304506 1.638061633714079 -1.8658965542583392 -1.570796328365774 1.427994513463287 7190.548000000027
2.99899844189963 -1.3428107938692904 1.6378302245929695 -1.865815756572745 -1.5707963283653206 1.4282021153342435 7190.598000000027
3.0003730868506455 -1.34181351360412 1.6362979388848324 -1.8652807511317617 -1.5707963283623183 1.4295767602848133 7190.648000000027
3.003872643027089 -1.3392746483436442 1.632397062582173 -1.863918740094628 -1.5707963283546753 1.4330763164601221 7190.698000000028
3.010240701812168 -1.3346547358716183 1.625298731149213 -1.861440321142883 -1.5707963283407673 1.4394443752431367 7190.748000000028
3.020021883309879 -1.3275586640673973 1.6143958688453397 -1.8576335306573448 -1.570796328319405 1.4492255567376768 7190.798000000028
3.0335771418280224 -1.3177245670524262 1.5992861280485542 -1.8523578868950903 -1.5707963282898003 1.4627808152514261 7190.848000000028
3.0510990713612203 -1.3050127213367348 1.579754828578921 -1.8455384331664322 -1.5707963282515323 1.4803027447789436 7190.898000000028
3.072627211073931 -1.2893944419654284 1.5557578970220158 -1.8371597810118985 -1.5707963282045145 1.5018308844846755 7190.9480000000285
3.098063350783467 -1.2709409786651809 1.527404806052376 -1.82726015337921 -1.5707963281489616 1.5272670241859656 7190.998000000029
3.12718683644301 -1.2498124119907266 1.4949415137569473 -1.8159254278002603 -1.5707963280853556 1.5563905098360673 7191.048000000029
3.159669875624628 -1.2262465494713535 1.4587334029585342 -1.803283179568093 -1.5707963280144122 1.5888735490071548 7191.098000000029
3.195092843002291 -1.2005478217573948 1.4192482205392485 -1.7894967249138807 -1.570796327937048 1.6242965163733345 7191.148000000029
3.232959585834888 -1.1730761787667223 1.3770390167639575 -1.7747591641839031 -1.5707963278543466 1.6621632591936555 7191.198000000029
3.2727127294492417 -1.1442359858312379 1.3327270846037333 -1.7592874250165267 -1.5707963277675252 1.7019164027951224 7191.24800000003
3.313748982723128 -1.114464919843366 1.286984899059302 -1.7433163055191818 -1.5707963276779016 1.7429526560557054 7191.29800000003
3.355434443568288 -1.0842228654025468 1.2405190564844912 -1.727092517445342 -1.57079632758686 1.784638116887352 7191.34800000003
3.397119904413448 -1.0539808109617272 1.1940532139096804 -1.710868729371502 -1.5707963274958183 1.8263235777189983 7191.39800000003
3.4381561576873345 -1.0242097449738554 1.148311028365249 -1.694897609874157 -1.5707963274061947 1.8673598309795816 7191.44800000003
3.477909301301689 -0.9953695520383711 1.103999096205025 -1.6794258707067806 -1.5707963273193732 1.9071129745810482 7191.4980000000305
3.5157760441342853 -0.9678979090476987 1.0617898924297338 -1.664688309976803 -1.5707963272366718 1.9449797174013692 7191.548000000031
3.5511990115119483 -0.9421991813337403 1.022304710010448 -1.6509018553225907 -1.5707963271593077 1.980402684767549 7191.598000000031
3.5836820506935663 -0.9186333188143669 0.9860965992120347 -1.6382596070904234 -1.5707963270883643 2.0128857239386364 7191.648000000031
3.6128055363531097 -0.8975047521399127 0.9536333069166063 -1.6269248815114739 -1.5707963270247582 2.042009209588738 7191.698000000031
3.6382416760626453 -0.8790512888396649 0.9252802159469664 -1.6170252538787853 -1.5707963269692053 2.067445349290028 7191.748000000031
3.659769815775357 -0.8634330094683584 0.9012832843900611 -1.6086466017242513 -1.5707963269221876 2.0889734889957605 7191.798000000032
3.6772917453085543 -0.8507211637526677 0.8817519849204274 -1.6018271479955934 -1.5707963268839196 2.1064954185232776 7191.848000000032
3.6908470038266974 -0.8408870667376964 0.8666422441236419 -1.596551504233339 -1.5707963268543148 2.1200506770370273 7191.898000000032
3.70062818532441 -0.833790994933475 0.8557393818197694 -1.5927447137478008 -1.5707963268329526 2.129831858531567 7191.948000000032
3.7069962441094875 -0.8291710824614491 0.8486410503868091 -1.5902662947960555 -1.5707963268190446 2.136199917314582 7191.998000000032
3.7104958002859325 -0.8266322172009739 0.8447401740841487 -1.5889042837589218 -1.5707963268114016 2.13969947348989 7192.0480000000325
3.711870445236946 -0.8256349369358034 0.8432078883760132 -1.5883692783179384 -1.5707963268083993 2.1410741184404607 7192.098000000033
3.712078047107971 -0.8254843255005884 0.8429764792549026 -1.5882884806323443 -1.570796326807946 2.141281720311416 7192.148000000033
      7192.198000000033
