Andreas691667/Digital_Twin_UR/src/dt/dt_trajectories/case1_1_3_miss_dt_trajectory.csv
actual_q_0 actual_q_1 actual_q_2 actual_q_3 actual_q_4 actual_q_5 timestamp
3.71207804710797 -0.8254843255005873 0.8429764792549035 -1.5882884806323445 -1.570796326807946 2.141281720311417 9804.438
3.71207804710797 -0.8254843255005873 0.8429764792549035 -1.5882884806323445 -1.570796326807946 2.141281720311417 9804.488
3.71207804710797 -0.8254843255005873 0.8429764792549035 -1.5882884806323445 -1.570796326807946 2.141281720311417 9804.537999999999
3.71207804710797 -0.8254843255005873 0.8429764792549035 -1.5882884806323445 -1.570796326807946 2.141281720311417 9804.587999999998
3.71207804710797 -0.8254843255005873 0.8429764792549035 -1.5882884806323445 -1.570796326807946 2.141281720311417 9804.637999999997
3.71207804710797 -0.8254843255005873 0.8429764792549035 -1.5882884806323445 -1.570796326807946 2.141281720311417 9804.687999999996
3.71207804710797 -0.8254843255005873 0.8429764792549035 -1.5882884806323445 -1.570796326807946 2.141281720311417 9804.737999999996
3.71207804710797 -0.8254843255005873 0.8429764792549035 -1.5882884806323445 -1.570796326807946 2.141281720311417 9804.787999999995
3.71207804710797 -0.8254843255005873 0.8429764792549035 -1.5882884806323445 -1.570796326807946 2.141281720311417 9804.837999999994
3.71207804710797 -0.8254843255005873 0.8429764792549035 -1.5882884806323445 -1.570796326807946 2.141281720311417 9804.887999999994
3.71207804710797 -0.8254843255005873 0.8429764792549035 -1.5882884806323445 -1.570796326807946 2.141281720311417 9804.937999999993
3.71207804710797 -0.8254843255005873 0.8429764792549035 -1.5882884806323445 -1.570796326807946 2.141281720311417 9804.987999999992
3.71207804710797 -0.8254843255005873 0.8429764792549035 -1.5882884806323445 -1.570796326807946 2.141281720311417 9805.037999999991
3.7122689791773014 -0.8255822011483995 0.8431247541871719 -1.5883388799190803 -1.5707963268548544 2.1411975678393773 9805.08799999999
3.713544740040671 -0.8262361820191524 0.8441154906112279 -1.5886756354876148 -1.5707963271682845 2.1406352818349363 9805.13799999999
3.7168275167322813 -0.8279189998738993 0.8466648449093596 -1.589542171970193 -1.5707963279748003 2.1391884124079175 9805.18799999999
3.7228710753776704 -0.8310170505030092 0.8513581803555411 -1.591137456859419 -1.5707963294595875 2.1365247404448637 9805.237999999988
3.732270668305987 -0.835835472312677 0.8586577608276864 -1.593618615634119 -1.5707963317688887 2.1323819110927604 9805.287999999988
3.7454729411622654 -0.8426032249114345 0.8689104445199027 -1.5971035468852008 -1.5707963350124359 2.126563067242757 9805.337999999987
3.762785840019699 -0.8514781676966612 0.8823553776547448 -1.601673537441516 -1.5707963392658857 2.118932483013891 9805.387999999986
3.784388518491916 -0.8625521384410955 0.8991316881954681 -1.6073758774957212 -1.5707963445732527 2.109411197236808 9805.437999999986
3.810341244845251 -0.8758560318793451 0.9192861795582831 -1.6142264757301383 -1.5707963509493437 2.0979726469374858 9805.487999999985
3.840595309111022 -0.8913648782943985 0.9427810243246088 -1.6222124744426163 -1.5707963583821913 2.0846383008209557 9805.537999999984
3.8750029301978044 -0.9090029221041348 0.9695014579533265 -1.631294864672393 -1.5707963668354892 2.069473292755027 9805.587999999983
3.913327163003703 -0.9286487004478358 0.9992634724930336 -1.6414111013259551 -1.5707963762510238 2.0525820552540046 9805.637999999983
3.955251805528629 -0.9501401217726961 1.0318215102942974 -1.6524777183029 -1.5707963865511108 2.0341039529624183 9805.687999999982
4.000391305986574 -0.9732795444203346 1.0668761577219086 -1.664392943621797 -1.5707963976410269 2.014208916138738 9805.737999999981
4.048300669917882 -0.9978388552133042 1.1040818388671358 -1.6770393145460483 -1.570796409411446 1.9930930741391024 9805.78799999998
4.098485367301527 -1.023564548041604 1.143054509259978 -1.6902862927097497 -1.570796421740871 1.970974388901036 9805.83799999998
4.150411239667386 -1.0501828024491897 1.18337934958142 -1.7039928792435532 -1.5707964344980696 1.9480882884271746 9805.887999999979
4.203514407208509 -1.077404562220484 1.2246184593756846 -1.7180102299005264 -1.5707964475445073 1.9246833002689874 9805.937999999978
4.257211175893402 -1.104930613966888 1.2663185507624877 -1.7321842701820154 -1.5707964607367817 1.9010166850104984 9805.987999999978
4.310907944578295 -1.132456665713292 1.3080186421492905 -1.7463583104635043 -1.5707964739290559 1.8773500697520094 9806.037999999977
4.364011112119418 -1.1596784254845862 1.3492577519435551 -1.7603756611204775 -1.5707964869754936 1.8539450815938223 9806.087999999976
4.415936984485277 -1.186296679892172 1.3895825922649974 -1.774082247654281 -1.5707964997326922 1.8310589811199607 9806.137999999975
4.4661216818689216 -1.2120223727204718 1.4285552626578395 -1.7873292258179825 -1.5707965120621172 1.808940295881894 9806.187999999975
4.5140310458002295 -1.2365816835134416 1.4657609438030668 -1.7999755967422335 -1.5707965238325363 1.7878244538822583 9806.237999999974
4.559170546258174 -1.2597211061610796 1.5008155912306775 -1.8118908220611303 -1.5707965349224524 1.7679294170585786 9806.287999999973
4.6010951887831 -1.2812125274859398 1.533373629031941 -1.8229574390380754 -1.5707965452225394 1.7494513147669921 9806.337999999972
4.6394194215889994 -1.300858305829641 1.5631356435716484 -1.8330736756916375 -1.570796554638074 1.7325600772659702 9806.387999999972
4.673827042675781 -1.3184963496393776 1.5898560772003665 -1.8421560659214142 -1.5707965630913718 1.7173950692000408 9806.437999999971
4.704081106941552 -1.3340051960544304 1.6133509219666915 -1.850142064633892 -1.5707965705242195 1.7040607230835114 9806.48799999997
4.730033833294889 -1.3473090894926805 1.6335054133295075 -1.8569926628683096 -1.5707965769003105 1.6926221727841884 9806.53799999997
4.751636511767105 -1.3583830602371147 1.6502817238702299 -1.8626950029225142 -1.5707965822076775 1.683100887007106 9806.587999999969
4.768949410624538 -1.367258003022341 1.6637266570050717 -1.8672649934788295 -1.5707965864611273 1.6754703027782398 9806.637999999968
4.782151683480817 -1.3740257556210984 1.6739793406972883 -1.8707499247299113 -1.5707965897046745 1.6696514589282365 9806.687999999967
4.791551276409134 -1.3788441774307665 1.681278921169434 -1.8732310835046113 -1.5707965920139757 1.665508629576133 9806.737999999967
4.7975948350545226 -1.381942228059876 1.6859722566156154 -1.8748263683938375 -1.5707965934987629 1.662844957613079 9806.787999999966
4.800877611746131 -1.383625045914623 1.6885216109137464 -1.8756929048764155 -1.5707965943052786 1.6613980881860604 9806.837999999965
4.802153372609503 -1.384279026785376 1.689512347337803 -1.8760296604449502 -1.5707965946187088 1.6608358021816192 9806.887999999964
4.802344304678834 -1.3843769024331887 1.689660622270071 -1.8760800597316858 -1.5707965946656173 1.6607516497095798 9806.937999999964
4.802344304678834 -1.384376902433189 1.6896606222700719 -1.8760800597316862 -1.5707965946656173 1.6607516497095798 9806.987999999963
4.802344307386492 -1.384147745783343 1.6900552203559738 -1.8767038144324433 -1.5707965939491735 1.6607516524209287 9807.037999999962
4.802344324132375 -1.3827304948337065 1.6924956667159023 -1.8805615115256038 -1.5707965895182276 1.66075166918964 9807.087999999962
4.802344363315421 -1.3794143239348313 1.6982059731377366 -1.8895879883399567 -1.5707965791504284 1.6607517084261019 9807.13799999996
4.802344428055237 -1.3739352121312087 1.7076407725712601 -1.9045018987404798 -1.5707965620203306 1.6607517732541726 9807.18799999996
4.802344517151974 -1.366394705944188 1.720625206189633 -1.9250268373944897 -1.5707965384454132 1.6607518624723678 9807.23799999996
4.802344626046208 -1.3571786821548983 1.736494810450864 -1.9501124640377867 -1.5707965096320957 1.660751971515049 9807.287999999959
4.80234474777882 -1.3468761105871672 1.7542354041592816 -1.978155627740803 -1.5707964774217549 1.6607520934136086 9807.337999999958
4.8023448739508705 -1.3361978168904423 1.7726229755270069 -2.0072214911747506 -1.5707964440367426 1.660752219757659 9807.387999999957
4.802344995683482 -1.325895245322711 1.7903635692354243 -2.035264654877767 -1.5707964118264017 1.6607523416562187 9807.437999999956
4.802345104577716 -1.3166792215334213 1.8062331734966552 -2.060350281521064 -1.5707963830130842 1.6607524506988998 9807.487999999956
4.802345193674453 -1.3091387153464007 1.8192176071150283 -2.0808752201750735 -1.5707963594381669 1.660752539917095 9807.537999999955
4.802345258414269 -1.3036596035427779 1.8286524065485519 -2.0957891305755973 -1.570796342308069 1.6607526047451657 9807.587999999954
4.8023452975973155 -1.3003434326439027 1.8343627129703863 -2.1048156073899498 -1.5707963319402698 1.6607526439816276 9807.637999999954
4.8023453143431984 -1.2989261816942663 1.8368031593303147 -2.1086733044831103 -1.570796327509324 1.660752660750339 9807.687999999953
4.8023453170508565 -1.2986970250444205 1.8371977574162166 -2.1092970591838673 -1.5707963267928802 1.6607526634616878 9807.737999999952
4.8023453170508565 -1.2986970250444205 1.8371977574162166 -2.1092970591838673 -1.5707963267928802 1.6607526634616878 9807.787999999951
4.8023453170508565 -1.2986970250444205 1.8371977574162166 -2.1092970591838673 -1.5707963267928802 1.6607526634616878 9807.83799999995
4.8023453170508565 -1.2986970250444205 1.8371977574162166 -2.1092970591838673 -1.5707963267928802 1.6607526634616878 9807.88799999995
4.8023453170508565 -1.2986970250444205 1.8371977574162166 -2.1092970591838673 -1.5707963267928802 1.6607526634616878 9807.93799999995
4.8023453170508565 -1.2986970250444205 1.8371977574162166 -2.1092970591838673 -1.5707963267928802 1.6607526634616878 9807.987999999948
4.8023453170508565 -1.2986970250444205 1.8371977574162166 -2.1092970591838673 -1.5707963267928802 1.6607526634616878 9808.037999999948
4.8023453170508565 -1.2986970250444205 1.8371977574162166 -2.1092970591838673 -1.5707963267928802 1.6607526634616878 9808.087999999947
4.8023453170508565 -1.2986970250444205 1.8371977574162166 -2.1092970591838673 -1.5707963267928802 1.6607526634616878 9808.137999999946
4.8023453170508565 -1.2986970250444205 1.8371977574162166 -2.1092970591838673 -1.5707963267928802 1.6607526634616878 9808.187999999946
4.8023453170508565 -1.2986970250444205 1.8371977574162166 -2.1092970591838673 -1.5707963267928802 1.6607526634616878 9808.237999999945
4.8023453170508565 -1.2986970250444205 1.8371977574162166 -2.1092970591838673 -1.5707963267928802 1.6607526634616878 9808.287999999944
4.8023453170508565 -1.2986970250444205 1.8371977574162166 -2.1092970591838673 -1.5707963267928802 1.6607526634616878 9808.337999999943
4.8023453170508565 -1.2986970250444205 1.8371977574162166 -2.1092970591838673 -1.5707963267928802 1.6607526634616878 9808.387999999943
4.8023453170508565 -1.2986970250444205 1.8371977574162166 -2.1092970591838673 -1.5707963267928802 1.6607526634616878 9808.437999999942
4.8023453143431984 -1.2989261816942663 1.8368031593303147 -2.1086733044831103 -1.570796327509324 1.660752660750339 9808.487999999941
4.8023452975973155 -1.300343432643903 1.8343627129703861 -2.1048156073899498 -1.5707963319402698 1.6607526439816276 9808.53799999994
4.802345258414269 -1.303659603542778 1.8286524065485519 -2.095789130575597 -1.570796342308069 1.6607526047451657 9808.58799999994
4.802345193674453 -1.3091387153464007 1.8192176071150283 -2.0808752201750735 -1.5707963594381669 1.660752539917095 9808.637999999939
4.802345104577716 -1.3166792215334213 1.8062331734966555 -2.060350281521064 -1.5707963830130842 1.6607524506988998 9808.687999999938
4.802344995683482 -1.325895245322711 1.7903635692354245 -2.035264654877767 -1.5707964118264017 1.6607523416562187 9808.737999999938
4.8023448739508705 -1.3361978168904423 1.7726229755270069 -2.0072214911747506 -1.5707964440367426 1.660752219757659 9808.787999999937
4.80234474777882 -1.3468761105871672 1.7542354041592816 -1.978155627740803 -1.5707964774217549 1.6607520934136086 9808.837999999936
4.802344626046208 -1.3571786821548981 1.7364948104508642 -1.9501124640377867 -1.5707965096320957 1.660751971515049 9808.887999999935
4.802344517151974 -1.366394705944188 1.7206252061896332 -1.9250268373944899 -1.5707965384454132 1.6607518624723678 9808.937999999935
4.802344428055237 -1.3739352121312087 1.7076407725712601 -1.90450189874048 -1.5707965620203306 1.6607517732541726 9808.987999999934
4.802344363315421 -1.3794143239348315 1.6982059731377366 -1.8895879883399564 -1.5707965791504284 1.6607517084261019 9809.037999999933
4.802344324132375 -1.3827304948337067 1.6924956667159021 -1.8805615115256038 -1.5707965895182276 1.66075166918964 9809.087999999932
4.802344307386492 -1.384147745783343 1.6900552203559738 -1.876703814432443 -1.5707965939491735 1.6607516524209287 9809.137999999932
4.802344304678834 -1.384376902433189 1.6896606222700719 -1.8760800597316862 -1.5707965946656173 1.6607516497095798 9809.187999999931
4.802344304678834 -1.384376902433189 1.6896606222700719 -1.8760800597316862 -1.5707965946656173 1.6607516497095798 9809.23799999993
4.802212309909164 -1.384373871400779 1.6896568459491903 -1.8760793144421866 -1.570796594646128 1.6607346151579627 9809.28799999993
4.801319584917722 -1.3843533715098446 1.689631305421826 -1.876074273798804 -1.5707965945143145 1.6606194047599698 9809.337999999929
4.798989611424414 -1.3842998676839735 1.6895646457535802 -1.8760611179382838 -1.5707965941702873 1.6603187106200612 9809.387999999928
4.7946343172108 -1.384199855858134 1.6894400424187244 -1.8760365263953482 -1.5707965935272155 1.6597566392268146 9809.437999999927
4.787750312457899 -1.3840417765526598 1.6892430936232345 -1.8759976568517203 -1.5707965925107725 1.6588682257344527 9809.487999999927
4.77791512608398 -1.383815928447232 1.688961712627827 -1.8759421238851444 -1.570796591058579 1.6575989482443698 9809.537999999926
4.764783442082378 -1.383514381954864 1.688586020070994 -1.8758679777184097 -1.5707965891196483 1.6559042420866585 9809.587999999925
4.748083335859287 -1.3831308927958859 1.6881082362920383 -1.8757736829683724 -1.5707965866538296 1.6537490141016378 9809.637999999924
4.727612510571563 -1.3826608155719262 1.6875225736541093 -1.8756580973949766 -1.5707965836312534 1.6511071569213778 9809.687999999924
4.703234533464529 -1.382101017339898 1.686825128867238 -1.8755204506502783 -1.5707965800317751 1.647961063251229 9809.737999999923
4.674875072209772 -1.3814497911859813 1.686013775311372 -1.8753603230274662 -1.5707965758444193 1.6443011401513474 9809.787999999922
4.642518131242952 -1.3807067697996072 1.6850880553594116 -1.8751776242098848 -1.5707965710668241 1.6401253233182225 9809.837999999922
4.606202288101599 -1.3798728390474417 1.6840490727002448 -1.8749725720200563 -1.5707965657046858 1.6354385913662033 9809.88799999992
4.566016929762916 -1.3789500515473696 1.6828993846617821 -1.874745671168703 -1.5707965597712024 1.6302524801090263 9809.93799999992
4.522098488981579 -1.3779415402424784 1.6816428945339927 -1.874497692003769 -1.5707965532865187 1.6245845968413415 9809.98799999992
4.474626680627545 -1.3768514319750413 1.6802847438919395 -1.8742296492594435 -1.5707965462771698 1.6184581346202391 9810.037999999919
4.4238207380238475 -1.3756847610605023 1.678831204918814 -1.8739427808051814 -1.5707965387755267 1.6119013865467775 9810.087999999918
4.369935649284402 -1.374447382861459 1.6772895727289723 -1.873638526394727 -1.5707965308192389 1.6049472600475096 9810.137999999917
4.3132583936518065 -1.3731458873616467 1.6756680576909702 -1.8733185064151359 -1.5707965224506795 1.597632791156009 9810.187999999916
4.254104177835144 -1.371787512739922 1.673975677750598 -1.8729845006357966 -1.5707965137163897 1.5899986587943984 9810.237999999916
4.192812672347786 -1.3703800589442472 1.672222150753917 -1.8726384269574534 -1.570796504666523 1.5820886990548748 9810.287999999915
4.129744247845192 -1.3689318012656735 1.6704177867702936 -1.8722823201612282 -1.5707964953542892 1.5739494194812382 9810.337999999914
4.065276211462712 -1.3674514039123251 1.668573380415436 -1.871918310657643 -1.5707964858353987 1.5656295133504166 9810.387999999914
3.9997990431533905 -1.365947833583383 1.6667001031744273 -1.8715486032356417 -1.570796476167507 1.5571793739539947 9810.437999999913
3.933712632025766 -1.3644302730430682 1.6648093957247636 -1.8711754558116132 -1.5707964664096588 1.5486506088797394 9810.487999999912
3.867422512681674 -1.3629080346946267 1.6629128602593872 -1.8708011581784123 -1.5707964566217325 1.5400955542931274 9810.537999999911
3.8013361015540488 -1.361390474154312 1.6610221528097235 -1.8704280107543838 -1.5707964468638842 1.531566789218872 9810.58799999991
3.735858933244727 -1.3598869038253698 1.659148875568715 -1.8700583033323825 -1.5707964371959926 1.52311664982245 9810.63799999991
3.6713908968622473 -1.3584065064720214 1.657304469213857 -1.8696942938287973 -1.570796427677102 1.5147967436916285 9810.68799999991
3.608322472359654 -1.3569582487934477 1.6555001052302338 -1.869338187032572 -1.5707964183648682 1.506657464117992 9810.737999999908
3.5470309668722955 -1.355550794997773 1.6537465782335528 -1.8689921133542289 -1.5707964093150015 1.4987475043784684 9810.787999999908
3.4878767510556337 -1.3541924203760485 1.6520541982931807 -1.8686581075748896 -1.5707964005807118 1.4911133720168577 9810.837999999907
3.431199495423038 -1.352890924876236 1.6504326832551786 -1.8683380875952984 -1.5707963922121524 1.4837989031253573 9810.887999999906
3.3773144066835927 -1.3516535466771926 1.6488910510653367 -1.868033833184844 -1.5707963842558645 1.4768447766260893 9810.937999999906
3.3265084640798936 -1.3504868757626536 1.6474375120922113 -1.867746964730582 -1.5707963767542215 1.4702880285526276 9810.987999999905
3.27903665572586 -1.3493967674952165 1.646079361450158 -1.8674789219862564 -1.5707963697448726 1.4641615663315255 9811.037999999904
3.235118214944524 -1.3483882561903253 1.6448228713223687 -1.8672309428213225 -1.570796363260189 1.4584936830638404 9811.087999999903
3.1949328566058393 -1.3474654686902532 1.643673183283906 -1.8670040419699692 -1.5707963573267054 1.4533075718066635 9811.137999999903
3.1586170134644878 -1.3466315379380878 1.6426342006247392 -1.8667989897801407 -1.5707963519645671 1.4486208398546445 9811.187999999902
3.126260072497666 -1.3458885165517136 1.6417084806727789 -1.8666162909625592 -1.570796347186972 1.4444450230215193 9811.237999999901
3.0979006112429097 -1.345237290397797 1.6408971271169128 -1.8664561633397472 -1.5707963429996161 1.4407850999216378 9811.2879999999
3.073522634135875 -1.3446774921657687 1.6401996823300415 -1.8663185165950489 -1.5707963394001379 1.437639006251489 9811.3379999999
3.05305180884815 -1.344207414941809 1.6396140196921125 -1.866202931021653 -1.5707963363775617 1.434997149071229 9811.387999999899
3.03635170262506 -1.3438239257828308 1.639136235913157 -1.8661086362716157 -1.570796333911743 1.432841921086208 9811.437999999898
3.023220018623457 -1.343522379290463 1.6387605433563237 -1.866034490104881 -1.5707963319728122 1.431147214928497 9811.487999999898
3.01338483224954 -1.3432965311850351 1.6384791623609163 -1.8659789571383052 -1.5707963305206187 1.4298779374384143 9811.537999999897
3.0065008274966356 -1.3431384518795608 1.6382822135654265 -1.8659400875946772 -1.5707963295041758 1.428989523946052 9811.587999999896
3.0021455332830254 -1.3430384400537216 1.6381576102305706 -1.8659154960517417 -1.570796328861104 1.4284274525528056 9811.637999999895
2.9998155597897167 -1.3429849362278503 1.638090950562325 -1.8659023401912214 -1.5707963285170767 1.428126758412897 9811.687999999895
2.9989228347982744 -1.342964436336916 1.6380654100349605 -1.865897299547839 -1.5707963283852633 1.4280115480149043 9811.737999999894
2.9987908400286054 -1.342961405304506 1.638061633714079 -1.8658965542583392 -1.570796328365774 1.427994513463287 9811.787999999893
2.9987908400286063 -1.342961405304506 1.638061633714079 -1.8658965542583392 -1.570796328365774 1.427994513463287 9811.837999999892
2.9987908375813794 -1.3427405478580317 1.6384527923103132 -1.8665085704197473 -1.570796328244215 1.427994511023567 9811.887999999892
2.998790822446168 -1.3413746244778415 1.640871966671366 -1.870293668895103 -1.570796327492416 1.4279944959347812 9811.937999999891
2.998790787031869 -1.338178552981371 1.6465324995625137 -1.8791502750004434 -1.5707963257333106 1.4279944606291126 9811.98799999989
2.998790728518931 -1.3328978742722388 1.6558850611537157 -1.8937835181388678 -1.5707963228268453 1.4279944022956577 9812.03799999989
2.998790647991797 -1.3256304572336688 1.6687563167642183 -1.9139221946937996 -1.570796318826887 1.4279943220155333 9812.087999999889
2.998790549571351 -1.3167482036219098 1.6844875946071576 -1.9385357309222473 -1.570796313938129 1.427994223896983 9812.137999999888
2.998790439547363 -1.306818752959659 1.7020735535341616 -1.9660511458480658 -1.5707963084729977 1.4279941142104835 9812.187999999887
2.9987903255109356 -1.296527187429481 1.7203008507799544 -1.994570014155218 -1.5707963028085596 1.4279940005238523 9812.237999999887
2.9987902154869475 -1.2865977367672303 1.7378868097069584 -2.0220854290810366 -1.5707962973434284 1.4279938908373528 9812.287999999886
2.9987901170665014 -1.2777154831554713 1.7536180875498977 -2.046698965309484 -1.5707962924546703 1.4279937927188024 9812.337999999885
2.9987900365393676 -1.2704480661169013 1.7664893431604003 -2.066837641864416 -1.570796288454712 1.4279937124386781 9812.387999999884
2.9987899780264295 -1.2651673874077691 1.7758419047516023 -2.0814708850028403 -1.5707962855482467 1.4279936541052232 9812.437999999884
2.9987899426121305 -1.2619713159112986 1.78150243764275 -2.090327491108181 -1.5707962837891414 1.4279936187995546 9812.487999999883
2.998789927476919 -1.2606053925311085 1.7839216120038028 -2.094112589583536 -1.5707962830373423 1.4279936037107688 9812.537999999882
2.9987899250296923 -1.260384535084634 1.784312770600037 -2.0947246057449442 -1.5707962829157833 1.4279936012710488 9812.587999999882
2.9987899250296923 -1.260384535084634 1.784312770600037 -2.0947246057449442 -1.5707962829157833 1.4279936012710488 9812.63799999988
2.9987899250296923 -1.260384535084634 1.784312770600037 -2.0947246057449442 -1.5707962829157833 1.4279936012710488 9812.68799999988
2.9987899250296923 -1.260384535084634 1.784312770600037 -2.0947246057449442 -1.5707962829157833 1.4279936012710488 9812.73799999988
2.9987899250296923 -1.260384535084634 1.784312770600037 -2.0947246057449442 -1.5707962829157833 1.4279936012710488 9812.787999999879
2.9987899250296923 -1.260384535084634 1.784312770600037 -2.0947246057449442 -1.5707962829157833 1.4279936012710488 9812.837999999878
2.9987899250296923 -1.260384535084634 1.784312770600037 -2.0947246057449447 -1.5707962829157833 1.4279936012710488 9812.887999999877
2.998789927476919 -1.2606053925311085 1.7839216120038028 -2.0941125895835366 -1.5707962830373423 1.4279936037107688 9812.937999999876
2.9987899426121305 -1.2619713159112986 1.78150243764275 -2.0903274911081806 -1.5707962837891414 1.4279936187995546 9812.987999999876
2.9987899780264295 -1.2651673874077691 1.7758419047516023 -2.0814708850028403 -1.5707962855482467 1.4279936541052232 9813.037999999875
2.9987900365393676 -1.2704480661169013 1.7664893431604003 -2.066837641864416 -1.570796288454712 1.4279937124386781 9813.087999999874
2.9987901170665014 -1.2777154831554713 1.7536180875498977 -2.0466989653094845 -1.5707962924546703 1.4279937927188024 9813.137999999874
2.9987902154869475 -1.2865977367672303 1.7378868097069584 -2.0220854290810366 -1.5707962973434284 1.4279938908373528 9813.187999999873
2.9987903255109356 -1.296527187429481 1.7203008507799544 -1.994570014155218 -1.5707963028085596 1.4279940005238523 9813.237999999872
2.998790439547363 -1.306818752959659 1.7020735535341616 -1.9660511458480658 -1.5707963084729977 1.4279941142104835 9813.287999999871
2.998790549571351 -1.3167482036219098 1.6844875946071576 -1.9385357309222473 -1.570796313938129 1.427994223896983 9813.33799999987
2.998790647991797 -1.3256304572336686 1.6687563167642183 -1.9139221946937996 -1.570796318826887 1.4279943220155333 9813.38799999987
2.998790728518931 -1.3328978742722388 1.6558850611537157 -1.893783518138868 -1.5707963228268453 1.4279944022956577 9813.43799999987
2.998790787031869 -1.338178552981371 1.6465324995625137 -1.8791502750004434 -1.5707963257333106 1.4279944606291126 9813.487999999868
2.998790822446168 -1.3413746244778415 1.640871966671366 -1.8702936688951028 -1.570796327492416 1.4279944959347812 9813.537999999868
2.9987908375813794 -1.3427405478580317 1.6384527923103132 -1.8665085704197475 -1.570796328244215 1.427994511023567 9813.587999999867
2.9987908400286063 -1.342961405304506 1.638061633714079 -1.8658965542583394 -1.570796328365774 1.427994513463287 9813.637999999866
2.9987908400286063 -1.342961405304506 1.638061633714079 -1.8658965542583394 -1.570796328365774 1.427994513463287 9813.687999999865
2.9987908400286063 -1.342961405304506 1.638061633714079 -1.8658965542583394 -1.570796328365774 1.427994513463287 9813.737999999865
2.9987908400286063 -1.342961405304506 1.638061633714079 -1.8658965542583394 -1.570796328365774 1.427994513463287 9813.787999999864
2.9987908400286063 -1.342961405304506 1.638061633714079 -1.8658965542583394 -1.570796328365774 1.427994513463287 9813.837999999863
2.9987908400286063 -1.342961405304506 1.638061633714079 -1.8658965542583394 -1.570796328365774 1.427994513463287 9813.887999999863
2.9987908400286063 -1.342961405304506 1.638061633714079 -1.8658965542583394 -1.570796328365774 1.427994513463287 9813.937999999862
2.9987908400286063 -1.342961405304506 1.638061633714079 -1.8658965542583394 -1.570796328365774 1.427994513463287 9813.987999999861
2.9987908400286063 -1.342961405304506 1.638061633714079 -1.8658965542583394 -1.570796328365774 1.427994513463287 9814.03799999986
2.9987908400286063 -1.342961405304506 1.638061633714079 -1.8658965542583394 -1.570796328365774 1.427994513463287 9814.08799999986
2.9987908400286063 -1.342961405304506 1.638061633714079 -1.8658965542583394 -1.570796328365774 1.427994513463287 9814.137999999859
2.9987908400286063 -1.342961405304506 1.638061633714079 -1.8658965542583394 -1.570796328365774 1.427994513463287 9814.187999999858
2.9987908400286063 -1.342961405304506 1.638061633714079 -1.8658965542583394 -1.570796328365774 1.427994513463287 9814.237999999857
2.9987908400286063 -1.342961405304506 1.638061633714079 -1.8658965542583394 -1.570796328365774 1.427994513463287 9814.287999999857
2.9987908400286063 -1.342961405304506 1.638061633714079 -1.8658965542583394 -1.570796328365774 1.427994513463287 9814.337999999856
2.9987908400286063 -1.342961405304506 1.638061633714079 -1.8658965542583394 -1.570796328365774 1.427994513463287 9814.387999999855
2.9987908400286063 -1.342961405304506 1.638061633714079 -1.8658965542583394 -1.570796328365774 1.427994513463287 9814.437999999855
2.9987908400286063 -1.342961405304506 1.638061633714079 -1.8658965542583394 -1.570796328365774 1.427994513463287 9814.487999999854
2.9987908400286063 -1.342961405304506 1.638061633714079 -1.8658965542583394 -1.570796328365774 1.427994513463287 9814.537999999853
2.9987908400286063 -1.342961405304506 1.638061633714079 -1.8658965542583394 -1.570796328365774 1.427994513463287 9814.587999999852
2.9987908400286063 -1.342961405304506 1.638061633714079 -1.8658965542583394 -1.570796328365774 1.427994513463287 9814.637999999852
2.9987908400286063 -1.342961405304506 1.638061633714079 -1.8658965542583394 -1.570796328365774 1.427994513463287 9814.687999999851
2.9987908400286063 -1.342961405304506 1.638061633714079 -1.8658965542583394 -1.570796328365774 1.427994513463287 9814.73799999985
2.9987908400286063 -1.342961405304506 1.638061633714079 -1.8658965542583394 -1.570796328365774 1.427994513463287 9814.78799999985
2.9987908400286063 -1.342961405304506 1.638061633714079 -1.8658965542583394 -1.570796328365774 1.427994513463287 9814.837999999849
2.9987908400286063 -1.342961405304506 1.638061633714079 -1.8658965542583394 -1.570796328365774 1.427994513463287 9814.887999999848
2.9987908400286063 -1.342961405304506 1.638061633714079 -1.8658965542583394 -1.570796328365774 1.427994513463287 9814.937999999847
2.9987908400286063 -1.342961405304506 1.638061633714079 -1.8658965542583394 -1.570796328365774 1.427994513463287 9814.987999999847
2.9987908400286063 -1.342961405304506 1.638061633714079 -1.8658965542583394 -1.570796328365774 1.427994513463287 9815.037999999846
2.9987908400286063 -1.342961405304506 1.638061633714079 -1.8658965542583394 -1.570796328365774 1.427994513463287 9815.087999999845
2.9987908400286063 -1.342961405304506 1.638061633714079 -1.8658965542583394 -1.570796328365774 1.427994513463287 9815.137999999844
2.9987908400286063 -1.342961405304506 1.638061633714079 -1.8658965542583394 -1.570796328365774 1.427994513463287 9815.187999999844
2.9987908400286063 -1.342961405304506 1.638061633714079 -1.8658965542583394 -1.570796328365774 1.427994513463287 9815.237999999843
2.9987908400286063 -1.342961405304506 1.638061633714079 -1.8658965542583392 -1.570796328365774 1.427994513463287 9815.287999999842
2.9989293451024603 -1.3429704590962062 1.6380725530469444 -1.8658984198377797 -1.5707963284533968 1.428003556894504 9815.337999999841
2.999864755577403 -1.3430316049543225 1.6381462980590036 -1.8659110192502193 -1.570796329045168 1.4280646327818654 9815.38799999984
3.0023020605540616 -1.3431909265658304 1.6383384480185248 -1.8659438482717714 -1.570796330587087 1.4282237720776159 9815.43799999984
3.0068498708762683 -1.3434882075693588 1.638696984015329 -1.866005104521815 -1.5707963334641803 1.4285207128949589 9815.48799999984
3.0140247026091416 -1.3439572115573397 1.63926262665761 -1.866101745158849 -1.5707963380032135 1.4289891801897918 9815.537999999839
3.024255260517163 -1.3446259620781567 1.6400691737687558 -1.8662395445763484 -1.570796344475399 1.4296571654424415 9815.587999999838
3.037886721542261 -1.345517022638293 1.6411438380841659 -1.8664231520986179 -1.5707963530991067 1.4305472063393991 9815.637999999837
3.0551850182818865 -1.346647776704481 1.642507584948073 -1.8666561496766467 -1.5707963640425748 1.431676666455056 9815.687999999836
3.0763411224670962 -1.3480307077058513 1.6441754700103626 -1.8669411095839645 -1.570796377426618 1.4330580149334375 9815.737999999836
3.101475328440629 -1.3496736790360795 1.646156976923392 -1.8672796521124955 -1.5707963933273383 1.4346991061699395 9815.787999999835
3.13064153663499 -1.351580214055537 1.6484563550388112 -1.8676725032684134 -1.5707964117788353 1.4366034594930623 9815.837999999834
3.163831537050525 -1.353749776093439 1.651072957104382 -1.8681195524679963 -1.5707964327759145 1.4387705388461471 9815.887999999833
3.200979292733505 -1.3561780484499926 1.6540015769607987 -1.8686199102334817 -1.5707964562767993 1.4411960324691104 9815.937999999833
3.241965223254203 -1.3588572143985467 1.6572327872385066 -1.8691719658889212 -1.570796482205839 1.443872132580179 9815.987999999832
3.286620488184975 -1.3617762371877393 1.6607532770545232 -1.8697734452560357 -1.5707965104562194 1.4467878150576254 9816.037999999831
3.334731270578341 -1.3649211400436474 1.6645461897092573 -1.8704214683500695 -1.5707965408926732 1.4499291191215034 9816.08799999983
3.3860430604450604 -1.3682752861719352 1.6685914603833294 -1.8711126070756463 -1.570796573354189 1.453279427015382 9816.13799999983
3.440264938232217 -1.3718196587600027 1.6728661538343905 -1.8718429429226227 -1.5707966076567215 1.4568197436880819 9816.18799999983
3.497073858301295 -1.3755331409791347 1.6773448020939439 -1.8726081246619446 -1.5707966435959015 1.4605289764754106 9816.237999999828
3.5561189324062608 -1.3793927959866497 1.6819997421641624 -1.8734034260415005 -1.5707966809497458 1.4643842147818962 9816.287999999828
3.6170257131716426 -1.3833741469280476 1.6868014537147105 -1.8742238034819776 -1.5707967194813666 1.4683610097625237 9816.337999999827
3.6794004775706086 -1.3874514569391596 1.6917188967795633 -1.8750639537727163 -1.5707967589416818 1.4724336540044705 9816.387999999826
3.742834510403049 -1.3915980091482965 1.6967198494538265 -1.8759183717675647 -1.5707967990721248 1.47657546120884 9816.437999999825
3.806908387773653 -1.3957863866783968 1.7017712455905551 -1.8767814080807337 -1.5707968396073544 1.4807590458723985 9816.487999999825
3.871196260569992 -1.3999887526491763 1.7068395124975762 -1.8776473267826521 -1.5707968802779644 1.4849566029693093 9816.537999999824
3.935270137940596 -1.4041771301792767 1.7118909086343048 -1.878510363095821 -1.570796920813194 1.4891401876328678 9816.587999999823
3.998704170773036 -1.4083236823884135 1.7168918613085677 -1.8793647810906695 -1.570796960943637 1.4932819948372373 9816.637999999823
4.061078935172002 -1.4124009923995255 1.7218093043734206 -1.8802049313814082 -1.5707970004039522 1.497354639079184 9816.687999999822
4.1219857159373845 -1.4163823433409235 1.726611015923969 -1.8810253088218853 -1.570797038935573 1.5013314340598116 9816.737999999821
4.18103079004235 -1.4202419983484385 1.7312659559941874 -1.8818206102014412 -1.5707970762894172 1.5051866723662972 9816.78799999982
4.2378397101114285 -1.4239554805675705 1.7357446042537408 -1.8825857919407631 -1.5707971122285973 1.508895905153626 9816.83799999982
4.292061587898584 -1.427499853155638 1.740019297704802 -1.8833161277877395 -1.5707971465311297 1.5124362218263259 9816.887999999819
4.343373377765305 -1.4308539992839258 1.744064568378874 -1.8840072665133163 -1.5707971789926456 1.5157865297202044 9816.937999999818
4.39148416015867 -1.433998902139834 1.747857481033608 -1.88465528960735 -1.5707972094290994 1.5189278337840824 9816.987999999817
4.436139425089443 -1.4369179249290265 1.7513779708496247 -1.8852567689744646 -1.5707972376794799 1.5218435162615287 9817.037999999817
4.47712535561014 -1.4395970908775806 1.7546091811273326 -1.885808824629904 -1.5707972636085195 1.5245196163725974 9817.087999999816
4.514273111293119 -1.4420253632341342 1.7575378009837492 -1.8863091823953895 -1.5707972871094042 1.5269451099955604 9817.137999999815
4.547463111708654 -1.444194925272036 1.7601544030493201 -1.8867562315949724 -1.5707973081064834 1.5291121893486457 9817.187999999815
4.576629319903015 -1.4461014602914937 1.7624537811647394 -1.8871490827508903 -1.5707973265579804 1.5310165426717686 9817.237999999814
4.601763525876549 -1.447744431621722 1.7644352880777687 -1.8874876252794213 -1.5707973424587007 1.5326576339082703 9817.287999999813
4.62291963006176 -1.449127362623092 1.7661031731400583 -1.887772585186739 -1.570797355842744 1.5340389823866518 9817.337999999812
4.640217926801383 -1.45025811668928 1.7674669200039654 -1.888005582764768 -1.570797366786212 1.5351684425023087 9817.387999999812
4.65384938782648 -1.4511491772494165 1.7685415843193755 -1.8881891902870374 -1.5707973754099198 1.5360584833992663 9817.437999999811
4.6640799457345015 -1.4518179277702332 1.769348131430521 -1.8883269897045367 -1.5707973818821053 1.5367264686519162 9817.48799999981
4.671254777467373 -1.4522869317582143 1.7699137740728024 -1.888423630341571 -1.5707973864211384 1.537194935946749 9817.53799999981
4.675802587789582 -1.4525842127617428 1.7702723100696065 -1.8884848865916144 -1.5707973892982319 1.537491876764092 9817.587999999809
4.678239892766241 -1.4527435343732507 1.7704644600291277 -1.8885177156131665 -1.5707973908401507 1.5376510160598424 9817.637999999808
4.679175303241183 -1.452804680231367 1.7705382050411869 -1.888530315025606 -1.570797391431922 1.537712091947204 9817.687999999807
4.679313808315037 -1.4528137340230671 1.7705491243740523 -1.8885321806050466 -1.5707973915195448 1.5377211353784208 9817.737999999807
4.679313808315039 -1.4528137340230671 1.7705491243740523 -1.8885321806050466 -1.5707973915195448 1.5377211353784208 9817.787999999806
4.679313805721838 -1.4525715252642073 1.7709515278660957 -1.8891767916170832 -1.5707973886716573 1.537721132836989 9817.837999999805
4.679313789683828 -1.4510735517437556 1.7734402478383051 -1.893163477447803 -1.5707973710585041 1.5377211171191536 9817.887999999804
4.679313752157106 -1.4475685012111865 1.7792635078258228 -1.9024917700400081 -1.5707973298461655 1.5377210803415962 9817.937999999804
4.679313690153936 -1.441777314830591 1.7888849337131296 -1.9179043526867392 -1.5707972617534711 1.5377210195762268 9817.987999999803
4.679313604823449 -1.4338073229234727 1.8021262078523486 -1.939115577967596 -1.57079716804241 1.5377209359492339 9818.037999999802
4.6793135005323325 -1.424066380711545 1.8183097231815455 -1.9650399856850573 -1.5707970535085378 1.5377208337401334 9818.087999999801
4.679313383945535 -1.4131770040595288 1.8364012373430307 -1.9940208208008015 -1.5707969254713885 1.5377207194808173 9818.1379999998
4.6793132631069625 -1.4018905052179493 1.8551525268016624 -2.024058551372027 -1.5707967927648818 1.5377206010546045 9818.1879999998
4.679313146520165 -1.3910011285659332 1.8732440409631477 -2.053039386487771 -1.5707966647277325 1.5377204867952885 9818.2379999998
4.679313042229049 -1.3812601863540055 1.8894275562923444 -2.078963794205232 -1.5707965501938603 1.537720384586188 9818.287999999799
4.679312956898562 -1.3732901944468872 1.9026688304315633 -2.100175019486089 -1.5707964564827992 1.537720300959195 9818.337999999798
4.679312894895392 -1.3674990080662917 1.9122902563188706 -2.11558760213282 -1.5707963883901048 1.5377202401938257 9818.387999999797
4.67931285736867 -1.3639939575337225 1.918113516306388 -2.1249158947250253 -1.5707963471777662 1.5377202034162682 9818.437999999796
4.67931284133066 -1.3624959840132709 1.9206022362785975 -2.1289025805557453 -1.570796329564613 1.5377201876984328 9818.487999999796
4.6793128387374585 -1.362253775254411 1.9210046397706408 -2.1295471915677817 -1.5707963267167255 1.537720185157001 9818.537999999795
4.6793128387374585 -1.362253775254411 1.9210046397706408 -2.1295471915677817 -1.5707963267167255 1.537720185157001 9818.587999999794
4.6793128387374585 -1.362253775254411 1.9210046397706408 -2.1295471915677817 -1.5707963267167255 1.537720185157001 9818.637999999793
4.6793128387374585 -1.362253775254411 1.9210046397706408 -2.1295471915677817 -1.5707963267167255 1.537720185157001 9818.687999999793
4.6793128387374585 -1.362253775254411 1.9210046397706408 -2.1295471915677817 -1.5707963267167255 1.537720185157001 9818.737999999792
4.6793128387374585 -1.362253775254411 1.9210046397706408 -2.1295471915677817 -1.5707963267167255 1.537720185157001 9818.787999999791
4.6793128387374585 -1.362253775254411 1.9210046397706408 -2.1295471915677817 -1.5707963267167255 1.537720185157001 9818.83799999979
4.6793128387374585 -1.362253775254411 1.9210046397706408 -2.1295471915677817 -1.5707963267167255 1.537720185157001 9818.88799999979
4.6793128387374585 -1.362253775254411 1.9210046397706408 -2.1295471915677817 -1.5707963267167255 1.537720185157001 9818.93799999979
4.6793128387374585 -1.362253775254411 1.9210046397706408 -2.1295471915677817 -1.5707963267167255 1.537720185157001 9818.987999999788
4.6793128387374585 -1.362253775254411 1.9210046397706408 -2.1295471915677817 -1.5707963267167255 1.537720185157001 9819.037999999788
4.6793128387374585 -1.362253775254411 1.9210046397706408 -2.1295471915677817 -1.5707963267167255 1.537720185157001 9819.087999999787
4.6793128387374585 -1.362253775254411 1.9210046397706408 -2.1295471915677817 -1.5707963267167255 1.537720185157001 9819.137999999786
4.6793128387374585 -1.362253775254411 1.9210046397706408 -2.1295471915677817 -1.5707963267167255 1.537720185157001 9819.187999999785
4.6793128387374585 -1.362253775254411 1.9210046397706408 -2.1295471915677817 -1.5707963267167255 1.537720185157001 9819.237999999785
4.67931284133066 -1.3624959840132709 1.9206022362785975 -2.128902580555745 -1.570796329564613 1.5377201876984328 9819.287999999784
4.67931285736867 -1.3639939575337225 1.918113516306388 -2.1249158947250253 -1.5707963471777662 1.5377202034162682 9819.337999999783
4.679312894895392 -1.3674990080662917 1.9122902563188704 -2.11558760213282 -1.5707963883901048 1.5377202401938257 9819.387999999783
4.679312956898562 -1.3732901944468872 1.9026688304315635 -2.100175019486089 -1.5707964564827992 1.537720300959195 9819.437999999782
4.679313042229049 -1.3812601863540055 1.8894275562923446 -2.0789637942052326 -1.5707965501938603 1.537720384586188 9819.487999999781
4.679313146520165 -1.3910011285659332 1.8732440409631477 -2.053039386487771 -1.5707966647277325 1.5377204867952885 9819.53799999978
4.6793132631069625 -1.4018905052179493 1.8551525268016624 -2.024058551372027 -1.5707967927648818 1.5377206010546045 9819.58799999978
4.679313383945535 -1.4131770040595288 1.8364012373430307 -1.9940208208008015 -1.5707969254713885 1.5377207194808173 9819.637999999779
4.6793135005323325 -1.424066380711545 1.8183097231815455 -1.9650399856850573 -1.5707970535085378 1.5377208337401334 9819.687999999778
4.679313604823449 -1.4338073229234727 1.8021262078523488 -1.9391155779675961 -1.57079716804241 1.5377209359492339 9819.737999999777
4.679313690153936 -1.441777314830591 1.7888849337131298 -1.9179043526867394 -1.5707972617534711 1.5377210195762268 9819.787999999777
4.679313752157106 -1.4475685012111865 1.7792635078258225 -1.902491770040008 -1.5707973298461655 1.5377210803415962 9819.837999999776
4.679313789683828 -1.4510735517437556 1.7734402478383051 -1.8931634774478028 -1.5707973710585041 1.5377211171191536 9819.887999999775
4.679313805721838 -1.4525715252642073 1.7709515278660957 -1.889176791617083 -1.5707973886716573 1.537721132836989 9819.937999999775
4.679313808315039 -1.4528137340230671 1.7705491243740523 -1.8885321806050466 -1.5707973915195448 1.5377211353784208 9819.987999999774
4.679313808315039 -1.4528137340230671 1.7705491243740523 -1.8885321806050466 -1.5707973915195448 1.5377211353784208 9820.037999999773
4.679173757451438 -1.4528184193051188 1.7705543144394804 -1.8885326853580306 -1.570797391421642 1.5375810845170481 9820.087999999772
4.6782279073017525 -1.4528500619142104 1.7705893661630885 -1.8885360942672886 -1.570797390760444 1.5366352343824106 9820.137999999772
4.675763400714797 -1.452932509877623 1.7706806969132551 -1.8885449765192217 -1.5707973890376266 1.5341707278346657 9820.18799999977
4.671164834428413 -1.453086350985996 1.7708511125700241 -1.8885615500696855 -1.5707973858229916 1.5295721616214435 9820.23799999977
4.663909927785502 -1.4533290576927345 1.771119968035696 -1.8885876972542357 -1.5707973807514373 1.522317255093958 9820.28799999977
4.653565191450081 -1.4536751320134154 1.7715033277454215 -1.888624980398375 -1.5707973735199328 1.5119725189231206 9820.337999999769
4.639781596123315 -1.4541362504251936 1.7720141261777944 -1.8886746574277997 -1.5707973638844883 1.4981889238156512 9820.387999999768
4.62229024125957 -1.4547214087662073 1.7726623283654435 -1.888737697478646 -1.5707973516571285 1.4806975692301916 9820.437999999767
4.600898023782447 -1.455437067134986 1.7734550904056257 -1.8888147965077366 -1.5707973367028645 1.4593053520934174 9820.487999999767
4.575483306800835 -1.456287294789856 1.774396919970819 -1.8889063929028271 -1.5707973189366657 1.4338906355161505 9820.537999999766
4.545991588324944 -1.4572739150483454 1.7754898368193144 -1.8890126830928522 -1.5707972983204326 1.4043989175094713 9820.587999999765
4.512431169982361 -1.4583966501865924 1.7767335333058094 -1.889133637158173 -1.5707972748599681 1.3708384997008312 9820.637999999764
4.47486882573408 -1.4596532663387507 1.7781255348920002 -1.889269014440823 -1.5707972486019508 1.3332761560501647 9820.687999999764
4.433425470590557 -1.4610397183963952 1.7796613606571745 -1.889418379154754 -1.5707972196309068 1.2918328015660019 9820.737999999763
4.388271829327746 -1.4625502949079292 1.781334683808804 -1.889581115996084 -1.5707971880661813 1.2466791610215813 9820.787999999762
4.339624105203145 -1.4641777629779902 1.7831374921931376 -1.889756445753342 -1.5707971540589114 1.198031437670961 9820.837999999761
4.287739648671838 -1.4659135131668557 1.7850602488057932 -1.8899434409177158 -1.5707971177889988 1.1461469819651326 9820.88799999976
4.232912626102545 -1.467747704389851 1.7870920523023515 -1.8901410412932982 -1.5707970794620805 1.0913199602681323 9820.93799999976
4.175469688493653 -1.4696694088167532 1.7892207975089474 -1.8903480696073331 -1.5707970393065025 1.0338770235731536 9820.98799999976
4.115765640189273 -1.4716667567711998 1.7914333359328642 -1.8905632471204623 -1.5707969975702916 0.9741729762186595 9821.037999999759
4.054179107595272 -1.4737270816300931 1.793715636273125 -1.8907852092369717 -1.5707969545181268 0.9125864446044956 9821.087999999758
3.9911082078953255 -1.4758370647230077 1.7960529449310858 -1.8910125211150384 -1.5707969104283128 0.849515545908002 9821.137999999757
3.9269662177669544 -1.4779828802315957 1.7984299465210283 -1.8912436932769765 -1.5707968655897515 0.7853735568001247 9821.187999999756
3.862177242097572 -1.4801503400889944 1.8008309243807525 -1.8914771972194837 -1.570796820298914 0.7205845821615299 9821.237999999756
3.797171882700527 -1.4823250388792306 1.8032399210821695 -1.8917114810238886 -1.5707967748568128 0.6555792237987141 9821.287999999755
3.732382907031145 -1.4844924987366293 1.8056408989418937 -1.8919449849663958 -1.5707967295659753 0.5907902491601198 9821.337999999754
3.668240916902774 -1.4866383142452173 1.8080179005318362 -1.892176157128334 -1.570796684727414 0.5266482600522426 9821.387999999753
3.6051700172028274 -1.4887482973381319 1.810355209189797 -1.8924034690064007 -1.5707966406376 0.46357736135574856 9821.437999999753
3.5435834846088268 -1.4908086221970251 1.8126375095300578 -1.89262543112291 -1.5707965975854352 0.4019908297415846 9821.487999999752
3.4838794363044463 -1.4928059701514718 1.8148500479539746 -1.8928406086360392 -1.5707965558492243 0.34228678238709054 9821.537999999751
3.4264364986955544 -1.494727674578374 1.8169787931605708 -1.8930476369500742 -1.5707965156936463 0.2848438456921112 9821.58799999975
3.3716094761262614 -1.4965618658013693 1.8190105966571288 -1.8932452373256565 -1.570796477366728 0.23001682399511147 9821.63799999975
3.319725019594955 -1.4982976159902348 1.8209333532697844 -1.8934322324900303 -1.5707964410968154 0.1781323682892828 9821.687999999749
3.2710772954703535 -1.4999250840602958 1.822736161654118 -1.8936075622472883 -1.5707964070895455 0.12948464493866285 9821.737999999748
3.2259236542075427 -1.5014356605718298 1.8244094848057475 -1.8937702990886183 -1.57079637552482 0.08433100439424202 9821.787999999748
3.1844802990640195 -1.5028221126294743 1.8259453105709218 -1.8939196638025493 -1.570796346553776 0.042887649910079206 9821.837999999747
3.1469179548157395 -1.5040787287816326 1.8273373121571126 -1.8940550410851993 -1.5707963202957587 0.005325306259412521 9821.887999999746
3.1133575364731554 -1.5052014639198796 1.8285810086436076 -1.8941759951505202 -1.5707962968352942 -0.02823511154922742 9821.937999999745
3.0838658179972653 -1.506188084178369 1.829673925492103 -1.8942822853405452 -1.570796276219061 -0.05772682955590702 9821.987999999745
3.058451101015652 -1.5070383118332389 1.8306157550572963 -1.8943738817356357 -1.5707962584528623 -0.08314154613317504 9822.037999999744
3.0370588835385295 -1.5077539702020177 1.8314085170974785 -1.8944509807647263 -1.5707962434985983 -0.10453376326994923 9822.087999999743
4.679332256317139 -1.4528069508126755 1.770564381276266 -1.888578554193014 -1.570784870778219 1.5377498865127563 9823.338
4.678493666679355 -1.453145488554299 1.7709402142965331 -1.8886156876498992 -1.5707849455387235 1.5369112297642042 9823.387999999999
4.673561865964665 -1.4551364512383842 1.7731505129628242 -1.8888340719477181 -1.570785385210158 1.5319790343666777 9823.437999999998
4.662765523063763 -1.459494923342956 1.7779891396014884 -1.8893121431228979 -1.5707863477071944 1.5211818274545388 9823.487999999998
4.6463440070454745 -1.4661242718304435 1.7853488155197759 -1.8900393017110566 -1.570787811690012 1.5047589972528737 9823.537999999997
4.625972901391574 -1.4743480654378505 1.7944785898684372 -1.8909413514615199 -1.5707896277798676 1.4843862613372858 9823.587999999996
4.604189518231606 -1.4831419939669255 1.804241308504323 -1.8919059380518373 -1.5707915697746642 1.4626011348936894 9823.637999999995
4.583818412577705 -1.4913657875743325 1.8133710828529843 -1.8928079878023005 -1.5707933858645198 1.4422283989781015 9823.687999999995
4.5673968965594165 -1.49799513606182 1.8207307587712718 -1.8935351463904593 -1.5707948498473374 1.4258055687764364 9823.737999999994
4.556600553658515 -1.5023536081663917 1.8255693854099362 -1.894013217565639 -1.5707958123443737 1.4150083618642972 9823.787999999993
4.551668752943825 -1.504344570850477 1.827779684076227 -1.894231601863458 -1.5707962520158083 1.410076166466771 9823.837999999992
4.550830163306041 -1.5046831085921004 1.8281555170964943 -1.8942687353203431 -1.5707963267763128 1.4092375097182188 9823.887999999992
4.550830163306041 -1.5046831085921004 1.8281555170964943 -1.8942687353203431 -1.5707963267763128 1.4092375097182188 9823.937999999991
4.550830163288899 -1.5044317259580535 1.8285655109525163 -1.8949301118132962 -1.570796326774864 1.4092375097011915 9823.98799999999
4.55083016318288 -1.5028770153395092 1.8311011745790515 -1.8990204860762125 -1.570796326765904 1.409237509595885 9824.03799999999
4.550830162934811 -1.4992392078568542 1.8370342762148681 -1.9085913952364206 -1.5707963267449385 1.4092375093494816 9824.087999999989
4.550830162524941 -1.4932286750690886 1.8468371869200806 -1.9244048387983568 -1.5707963267102987 1.4092375089423639 9824.137999999988
4.550830161960867 -1.484956812530443 1.8603282255177218 -1.9461677400295456 -1.5707963266626261 1.4092375083820772 9824.187999999987
4.550830161271455 -1.4748469233469939 1.8768170035353173 -1.97276640734658 -1.570796326604361 1.4092375076972936 9824.237999999987
4.550830160500762 -1.4635451017332777 1.8952497701464592 -2.0025009957011024 -1.5707963265392262 1.4092375069317757 9824.287999999986
4.550830159701963 -1.4518311165689088 1.9143547571123785 -2.033319967965784 -1.5707963264717162 1.4092375061383402 9824.337999999985
4.55083015893127 -1.4405292949551927 1.9327875237235201 -2.0630545563203064 -1.5707963264065814 1.4092375053728223 9824.387999999984
4.550830158241858 -1.4304194057717434 1.9492763017411157 -2.089653223637341 -1.5707963263483162 1.4092375046880388 9824.437999999984
4.550830157677784 -1.4221475432330979 1.9627673403387569 -2.1114161248685295 -1.5707963263006437 1.409237504127752 9824.487999999983
4.550830157267915 -1.4161370104453324 1.9725702510439698 -2.127229568430466 -1.5707963262660039 1.4092375037206344 9824.537999999982
4.5508301570198455 -1.4124992029626768 1.9785033526797864 -2.136800477590674 -1.5707963262450384 1.409237503474231 9824.587999999982
4.550830156913826 -1.410944492344133 1.9810390163063214 -2.1408908518535905 -1.5707963262360785 1.4092375033689244 9824.63799999998
4.5508301568966845 -1.410693109710086 1.9814490101623434 -2.1415522283465434 -1.5707963262346296 1.4092375033518971 9824.68799999998
4.5508301568966845 -1.410693109710086 1.9814490101623434 -2.1415522283465434 -1.5707963262346296 1.4092375033518971 9824.73799999998
4.5508301568966845 -1.410693109710086 1.9814490101623434 -2.1415522283465434 -1.5707963262346296 1.4092375033518971 9824.787999999979
4.5508301568966845 -1.410693109710086 1.9814490101623434 -2.1415522283465434 -1.5707963262346296 1.4092375033518971 9824.837999999978
4.5508301568966845 -1.410693109710086 1.9814490101623434 -2.1415522283465434 -1.5707963262346296 1.4092375033518971 9824.887999999977
4.5508301568966845 -1.410693109710086 1.9814490101623434 -2.1415522283465434 -1.5707963262346296 1.4092375033518971 9824.937999999976
4.5508301568966845 -1.410693109710086 1.9814490101623434 -2.1415522283465434 -1.5707963262346296 1.4092375033518971 9824.987999999976
4.5508301568966845 -1.410693109710086 1.9814490101623434 -2.1415522283465434 -1.5707963262346296 1.4092375033518971 9825.037999999975
4.5508301568966845 -1.410693109710086 1.9814490101623434 -2.1415522283465434 -1.5707963262346296 1.4092375033518971 9825.087999999974
4.5508301568966845 -1.410693109710086 1.9814490101623434 -2.1415522283465434 -1.5707963262346296 1.4092375033518971 9825.137999999974
4.5508301568966845 -1.410693109710086 1.9814490101623434 -2.1415522283465434 -1.5707963262346296 1.4092375033518971 9825.187999999973
4.5508301568966845 -1.410693109710086 1.9814490101623434 -2.1415522283465434 -1.5707963262346296 1.4092375033518971 9825.237999999972
4.5508301568966845 -1.410693109710086 1.9814490101623434 -2.1415522283465434 -1.5707963262346296 1.4092375033518971 9825.287999999971
4.5508301568966845 -1.410693109710086 1.9814490101623434 -2.1415522283465434 -1.5707963262346296 1.4092375033518971 9825.33799999997
4.5508301568966845 -1.410693109710086 1.9814490101623434 -2.1415522283465434 -1.5707963262346296 1.4092375033518971 9825.38799999997
4.550830156913826 -1.410944492344133 1.9810390163063214 -2.1408908518535905 -1.5707963262360785 1.4092375033689244 9825.43799999997
4.5508301570198455 -1.4124992029626773 1.9785033526797862 -2.136800477590674 -1.5707963262450384 1.409237503474231 9825.487999999968
4.550830157267915 -1.4161370104453324 1.9725702510439695 -2.1272295684304656 -1.5707963262660039 1.4092375037206344 9825.537999999968
4.550830157677784 -1.4221475432330979 1.962767340338757 -2.1114161248685295 -1.5707963263006437 1.409237504127752 9825.587999999967
4.550830158241858 -1.4304194057717434 1.9492763017411159 -2.089653223637341 -1.5707963263483162 1.4092375046880388 9825.637999999966
4.55083015893127 -1.4405292949551927 1.9327875237235204 -2.0630545563203064 -1.5707963264065814 1.4092375053728223 9825.687999999966
4.550830159701963 -1.4518311165689088 1.9143547571123785 -2.033319967965784 -1.5707963264717162 1.4092375061383402 9825.737999999965
4.550830160500762 -1.4635451017332777 1.8952497701464592 -2.0025009957011024 -1.5707963265392262 1.4092375069317757 9825.787999999964
4.550830161271455 -1.4748469233469939 1.8768170035353176 -1.97276640734658 -1.570796326604361 1.4092375076972936 9825.837999999963
4.550830161960867 -1.484956812530443 1.860328225517722 -1.9461677400295456 -1.5707963266626261 1.4092375083820772 9825.887999999963
4.550830162524941 -1.4932286750690884 1.8468371869200808 -1.924404838798357 -1.5707963267102987 1.4092375089423639 9825.937999999962
4.550830162934811 -1.4992392078568542 1.837034276214868 -1.9085913952364204 -1.5707963267449385 1.4092375093494816 9825.987999999961
4.55083016318288 -1.5028770153395095 1.8311011745790513 -1.8990204860762123 -1.570796326765904 1.409237509595885 9826.03799999996
4.550830163288899 -1.5044317259580535 1.8285655109525163 -1.894930111813296 -1.570796326774864 1.4092375097011915 9826.08799999996
4.550830163306041 -1.5046831085921004 1.8281555170964943 -1.8942687353203431 -1.5707963267763128 1.4092375097182188 9826.137999999959
4.550830163306041 -1.5046831085921004 1.8281555170964943 -1.8942687353203431 -1.5707963267763128 1.4092375097182188 9826.187999999958
4.550683655330969 -1.504683572939995 1.8281560176021348 -1.8942687714869197 -1.5707963267648275 1.409091001743864 9826.237999999958
4.549695741870527 -1.5046867040701273 1.8281593925464605 -1.8942690153606592 -1.5707963266873815 1.4081030882882557 9826.287999999957
4.547126314851867 -1.5046948477089002 1.8281681703124137 -1.8942696496427098 -1.570796326485955 1.4055336612821694 9826.337999999956
4.542341289457443 -1.504710013548618 1.8281845170826028 -1.8942708308615956 -1.5707963261108402 1.400748635911161 9826.387999999955
4.534807672810809 -1.504733890876979 1.8282102536858313 -1.8942726905905471 -1.5707963255202535 1.3932150193013915 9826.437999999955
4.524088632662415 -1.5047678642065685 1.8282468724436245 -1.8942753366648342 -1.5707963246799501 1.3824959792054505 9826.487999999954
4.5098385660754134 -1.5048130289043522 1.8282955540167565 -1.8942788543990963 -1.5707963235628373 1.368245912688181 9826.537999999953
4.4917981681114565 -1.5048702068211683 1.8283571842517767 -1.8942833078046737 -1.570796322148587 1.3502055148125032 9826.587999999952
4.469789500516494 -1.504939961921222 1.8284323710275379 -1.8942887408069398 -1.5707963204232502 1.3281968473252388 9826.637999999952
4.443711060406576 -1.5050226159115767 1.8285214611017229 -1.8942951784626316 -1.5707963183788696 1.3021184073429348 9826.687999999951
4.413532848953655 -1.5051182638716476 1.8286245569573714 -1.8943026281771818 -1.5707963160130936 1.2719401960376884 9826.73799999995
4.379291440071379 -1.5052267898826954 1.8287415336494073 -1.8943110809220491 -1.5707963133287892 1.2376987873229703 9826.78799999995
4.341085049100897 -1.5053478826573188 1.8288720556511664 -1.8943205124520508 -1.5707963103336557 1.1994923965394493 9826.837999999949
4.29906860149666 -1.5054810511689465 1.829015593700922 -1.8943308845226936 -1.5707963070398387 1.1574759491408166 9826.887999999948
4.2534488015122145 -1.505625640281332 1.8291714416484137 -1.8943421461075043 -1.5707963034635422 1.1118561493796097 9826.937999999947
4.204479200886012 -1.5057808463780449 1.8293387333013733 -1.8943542346153626 -1.5707962996246432 1.0628865489930366 9826.987999999947
4.152455267527199 -1.5059457329919652 1.8295164592720523 -1.894367077107831 -1.570796295546304 1.0108626158888 9827.037999999946
4.097709454201426 -1.5061192464347748 1.829703483823749 -1.8943805915164873 -1.5707962912545872 0.9561168028309213 9827.087999999945
4.0406062672166385 -1.5063002314264522 1.8298985617173358 -1.8943946878602549 -1.5707962867780676 0.8990136161255651 9827.137999999944
3.9815373351088863 -1.5064874467247642 1.8301003550577857 -1.8944092694627355 -1.5707962821474464 0.839944684306863 9827.187999999944
3.9209164773281167 -1.5066795807547588 1.8303074501407002 -1.894424234169539 -1.5707962773951643 0.7793238268227377 9827.237999999943
3.859174772923978 -1.5068752672382595 1.8305183742988356 -1.894439475565616 -1.5707962725550149 0.7175821227207281 9827.287999999942
3.7967556292316176 -1.5070731008233567 1.8307316127486306 -1.8944548841925881 -1.5707962676617588 0.6551629793338118 9827.337999999942
3.7341098505574832 -1.5072716527139016 1.8309456254367333 -1.8944703487660808 -1.570796262750736 0.5925172009662307 9827.38799999994
3.6716907068651228 -1.5074694862989988 1.8311588638865284 -1.894485757393053 -1.57079625785748 0.5300980575793144 9827.43799999994
3.609949002460984 -1.5076651727824995 1.8313697880446638 -1.89450099878913 -1.5707962530173305 0.4683563534773043 9827.48799999994
3.549328144680214 -1.507857306812494 1.8315768831275783 -1.8945159634959334 -1.5707962482650484 0.40773549599317915 9827.537999999939
3.4902592125724614 -1.508044522110806 1.8317786764680282 -1.894530545098414 -1.5707962436344272 0.34866656417447706 9827.587999999938
3.433156025587675 -1.5082255071024835 1.831973754361615 -1.8945446414421816 -1.5707962391579076 0.29156337746912087 9827.637999999937
3.3784102122619 -1.508399020545293 1.8321607789133116 -1.894558155850838 -1.5707962348661908 0.23681756441124202 9827.687999999936
3.3263862789030876 -1.5085639071592134 1.8323385048839906 -1.8945709983433063 -1.5707962307878516 0.18479363130700488 9827.737999999936
3.277416678276886 -1.5087191132559263 1.8325057965369502 -1.8945830868511646 -1.5707962269489526 0.13582403092043194 9827.787999999935
3.2317968782924407 -1.5088637023683118 1.832661644484442 -1.8945943484359753 -1.570796223372656 0.09020423115922505 9827.837999999934
3.189780430688203 -1.5089968708799395 1.8328051825341976 -1.894604720506618 -1.570796220078839 0.04818778376059196 9827.887999999934
3.1515740397177217 -1.5091179636545629 1.8329357045359567 -1.8946141520366198 -1.5707962170837055 0.009981392977072012 9827.937999999933
3.1173326308354445 -1.5092264896656107 1.8330526812279926 -1.8946226047814871 -1.5707962143994012 -0.024260015737647578 9827.987999999932
3.087154419382525 -1.5093221376256816 1.833155777083641 -1.8946300544960373 -1.5707962120336252 -0.05443822704289314 9828.037999999931
3.0610759792726077 -1.5094047916160362 1.833244867157826 -1.8946364921517291 -1.5707962099892445 -0.08051666702519888 9828.08799999993
3.0390673116776448 -1.50947454671609 1.8333200539335872 -1.8946419251539952 -1.5707962082639078 -0.10252533451246215 9828.13799999993
3.021026913713688 -1.509531724632906 1.8333816841686075 -1.8946463785595726 -1.5707962068496575 -0.12056573238814039 9828.18799999993
3.0067768471266847 -1.5095768893306898 1.8334303657417395 -1.8946498962938347 -1.5707962057325446 -0.13481579890541084 9828.237999999928
2.9960578069782917 -1.5096108626602793 1.8334669844995326 -1.8946525423681218 -1.5707962048922413 -0.14553483900135156 9828.287999999928
2.988524190331657 -1.5096347399886403 1.8334927211027612 -1.8946544020970733 -1.5707962043016546 -0.1530684556111197 9828.337999999927
2.9837391649372362 -1.5096499058283581 1.8335090678729502 -1.894655583315959 -1.5707962039265397 -0.15785348098212815 9828.387999999926
2.981169737918573 -1.509658049467131 1.8335178456389034 -1.8946562175980097 -1.5707962037251133 -0.1604229079882149 9828.437999999926
2.980181824458131 -1.5096611805972633 1.8335212205832292 -1.8946564614717492 -1.5707962036476673 -0.16141082144382324 9828.487999999925
2.98003531648306 -1.5096616449451579 1.8335217210888697 -1.8946564976383258 -1.570796203636182 -0.16155732941817824 9828.537999999924
2.9800353164830593 -1.5096616449451579 1.8335217210888697 -1.8946564976383258 -1.570796203636182 -0.16155732941817647 9828.587999999923
2.9800353227011427 -1.5094094136401337 1.8339324893587425 -1.8953194969600284 -1.5707962039657037 -0.16155732322065963 9828.637999999923
2.980035361157738 -1.5078494542987209 1.8364729424546922 -1.8994199078314742 -1.5707962060036773 -0.16155728489126092 9828.687999999922
2.9800354511408442 -1.5041993655316275 1.8424172507854824 -1.9090143012653298 -1.5707962107722526 -0.16155719520577747 9828.737999999921
2.9800355998145744 -1.4981685411085448 1.8522386776457964 -1.9248665464948718 -1.5707962186510858 -0.16155704702379106 9828.78799999992
2.980035804423501 -1.4898687526565144 1.865755198691526 -1.9466828476611477 -1.5707962294941555 -0.16155684309161641 9828.83799999992
2.9800360544969955 -1.4797247323582954 1.8822751214150557 -1.9733467805001381 -1.5707962427465798 -0.16155659384524934 9828.887999999919
2.980036334053574 -1.4683847556507295 1.900742704620553 -2.0031543290299196 -1.5707962575614343 -0.16155631521331507 9828.937999999918
2.9800366238052374 -1.4566312239231092 1.9198837778992541 -2.0340489222378246 -1.5707962729165683 -0.1615560264200164 9828.987999999918
2.9800369033618157 -1.4452912472155433 1.9383513611047514 -2.0638564707676057 -1.5707962877314228 -0.16155574778808213 9829.037999999917
2.98003715343531 -1.4351472269173242 1.9548712838282811 -2.0905204036065963 -1.570796300983847 -0.16155549854171505 9829.087999999916
2.9800373580442368 -1.4268474384652938 1.9683878048740104 -2.112336704772872 -1.5707963118269168 -0.1615552946095404 9829.137999999915
2.980037506717967 -1.4208166140422112 1.978209231734325 -2.1281889500024143 -1.57079631970575 -0.161555146427554 9829.187999999915
2.9800375967010733 -1.4171665252751176 1.9841535400651151 -2.1377833434362703 -1.5707963244743253 -0.16155505674207055 9829.237999999914
2.9800376351576685 -1.415606565933705 1.9866939931610643 -2.141883754307716 -1.5707963265122988 -0.16155501841267184 9829.287999999913
2.980037641375752 -1.4153543346286808 1.9871047614309374 -2.142546753629418 -1.5707963268418206 -0.161555012215155 9829.337999999912
2.980037641375752 -1.4153543346286808 1.9871047614309374 -2.142546753629418 -1.5707963268418206 -0.161555012215155 9829.387999999912
2.980037641375752 -1.4153543346286808 1.9871047614309374 -2.142546753629418 -1.5707963268418206 -0.161555012215155 9829.437999999911
2.980037641375752 -1.4153543346286808 1.9871047614309374 -2.142546753629418 -1.5707963268418206 -0.161555012215155 9829.48799999991
2.980037641375752 -1.4153543346286808 1.9871047614309374 -2.142546753629418 -1.5707963268418206 -0.161555012215155 9829.53799999991
2.980037641375752 -1.4153543346286808 1.9871047614309374 -2.142546753629418 -1.5707963268418206 -0.161555012215155 9829.587999999909
2.980037641375752 -1.4153543346286808 1.9871047614309374 -2.1425467536294183 -1.5707963268418206 -0.161555012215155 9829.637999999908
2.9800376351576685 -1.415606565933705 1.9866939931610645 -2.141883754307716 -1.5707963265122988 -0.16155501841267184 9829.687999999907
2.9800375967010733 -1.4171665252751178 1.984153540065115 -2.13778334343627 -1.5707963244743253 -0.16155505674207055 9829.737999999907
2.980037506717967 -1.4208166140422112 1.9782092317343247 -2.1281889500024143 -1.57079631970575 -0.161555146427554 9829.787999999906
2.9800373580442368 -1.4268474384652938 1.9683878048740107 -2.112336704772872 -1.5707963118269168 -0.1615552946095404 9829.837999999905
2.98003715343531 -1.4351472269173242 1.9548712838282811 -2.0905204036065963 -1.570796300983847 -0.16155549854171505 9829.887999999904
2.9800369033618157 -1.4452912472155433 1.9383513611047514 -2.0638564707676057 -1.5707962877314228 -0.16155574778808213 9829.937999999904
2.9800366238052374 -1.4566312239231092 1.9198837778992541 -2.0340489222378246 -1.5707962729165683 -0.1615560264200164 9829.987999999903
2.980036334053574 -1.4683847556507295 1.900742704620553 -2.0031543290299196 -1.5707962575614343 -0.16155631521331507 9830.037999999902
2.9800360544969955 -1.4797247323582954 1.8822751214150557 -1.9733467805001383 -1.5707962427465798 -0.16155659384524934 9830.087999999902
2.980035804423501 -1.4898687526565144 1.865755198691526 -1.9466828476611477 -1.5707962294941555 -0.16155684309161641 9830.1379999999
2.9800355998145744 -1.4981685411085448 1.8522386776457966 -1.924866546494872 -1.5707962186510858 -0.16155704702379106 9830.1879999999
2.9800354511408442 -1.5041993655316275 1.8424172507854821 -1.9090143012653296 -1.5707962107722526 -0.16155719520577747 9830.2379999999
2.980035361157738 -1.507849454298721 1.836472942454692 -1.899419907831474 -1.5707962060036773 -0.16155728489126092 9830.287999999899
2.9800353227011427 -1.5094094136401337 1.8339324893587428 -1.8953194969600284 -1.5707962039657037 -0.16155732322065963 9830.337999999898
2.9800353164830593 -1.5096616449451579 1.8335217210888697 -1.894656497638326 -1.570796203636182 -0.16155732941817647 9830.387999999897
2.9800353164830593 -1.5096616449451579 1.8335217210888697 -1.894656497638326 -1.570796203636182 -0.16155732941817647 9830.437999999896
2.9800353164830593 -1.5096616449451579 1.8335217210888697 -1.894656497638326 -1.570796203636182 -0.16155732941817647 9830.487999999896
2.9800353164830593 -1.5096616449451579 1.8335217210888697 -1.894656497638326 -1.570796203636182 -0.16155732941817647 9830.537999999895
2.9800353164830593 -1.5096616449451579 1.8335217210888697 -1.894656497638326 -1.570796203636182 -0.16155732941817647 9830.587999999894
2.9800353164830593 -1.5096616449451579 1.8335217210888697 -1.894656497638326 -1.570796203636182 -0.16155732941817647 9830.637999999894
2.9800353164830593 -1.5096616449451579 1.8335217210888697 -1.894656497638326 -1.570796203636182 -0.16155732941817647 9830.687999999893
2.9800353164830593 -1.5096616449451579 1.8335217210888697 -1.894656497638326 -1.570796203636182 -0.16155732941817647 9830.737999999892
2.9800353164830593 -1.5096616449451579 1.8335217210888697 -1.894656497638326 -1.570796203636182 -0.16155732941817647 9830.787999999891
2.9800353164830593 -1.5096616449451579 1.8335217210888697 -1.894656497638326 -1.570796203636182 -0.16155732941817647 9830.83799999989
2.9800353164830593 -1.5096616449451579 1.8335217210888697 -1.894656497638326 -1.570796203636182 -0.16155732941817647 9830.88799999989
2.9800353164830593 -1.5096616449451579 1.8335217210888697 -1.894656497638326 -1.570796203636182 -0.16155732941817647 9830.93799999989
2.9800353164830593 -1.5096616449451579 1.8335217210888697 -1.894656497638326 -1.570796203636182 -0.16155732941817647 9830.987999999888
2.9800353164830593 -1.5096616449451579 1.8335217210888697 -1.894656497638326 -1.570796203636182 -0.16155732941817647 9831.037999999888
2.9800353164830593 -1.5096616449451579 1.8335217210888697 -1.894656497638326 -1.570796203636182 -0.16155732941817647 9831.087999999887
2.9800353164830593 -1.5096616449451579 1.8335217210888697 -1.894656497638326 -1.570796203636182 -0.16155732941817647 9831.137999999886
2.9800353164830593 -1.5096616449451579 1.8335217210888697 -1.894656497638326 -1.570796203636182 -0.16155732941817647 9831.187999999886
2.9800353164830593 -1.5096616449451579 1.8335217210888697 -1.894656497638326 -1.570796203636182 -0.16155732941817647 9831.237999999885
2.9800353164830593 -1.5096616449451579 1.8335217210888697 -1.894656497638326 -1.570796203636182 -0.16155732941817647 9831.287999999884
2.9800353164830593 -1.5096616449451579 1.8335217210888697 -1.894656497638326 -1.570796203636182 -0.16155732941817647 9831.337999999883
2.9800353164830593 -1.5096616449451579 1.8335217210888697 -1.894656497638326 -1.570796203636182 -0.16155732941817647 9831.387999999883
2.9800353164830593 -1.5096616449451579 1.8335217210888697 -1.894656497638326 -1.570796203636182 -0.16155732941817647 9831.437999999882
2.9800353164830593 -1.5096616449451579 1.8335217210888697 -1.894656497638326 -1.570796203636182 -0.16155732941817647 9831.487999999881
2.9800353164830593 -1.5096616449451579 1.8335217210888697 -1.894656497638326 -1.570796203636182 -0.16155732941817647 9831.53799999988
2.9800353164830593 -1.5096616449451579 1.8335217210888697 -1.894656497638326 -1.570796203636182 -0.16155732941817647 9831.58799999988
2.9800353164830593 -1.5096616449451579 1.8335217210888697 -1.894656497638326 -1.570796203636182 -0.16155732941817647 9831.637999999879
2.9800353164830593 -1.5096616449451579 1.8335217210888697 -1.894656497638326 -1.570796203636182 -0.16155732941817647 9831.687999999878
2.9800353164830593 -1.5096616449451579 1.8335217210888697 -1.894656497638326 -1.570796203636182 -0.16155732941817647 9831.737999999878
2.9800353164830593 -1.5096616449451579 1.8335217210888697 -1.894656497638326 -1.570796203636182 -0.16155732941817647 9831.787999999877
2.9800353164830593 -1.5096616449451579 1.8335217210888697 -1.894656497638326 -1.570796203636182 -0.16155732941817647 9831.837999999876
2.9800353164830593 -1.5096616449451579 1.8335217210888697 -1.894656497638326 -1.570796203636182 -0.16155732941817647 9831.887999999875
2.9800353164830593 -1.5096616449451579 1.8335217210888697 -1.894656497638326 -1.570796203636182 -0.16155732941817647 9831.937999999875
2.9800353164830593 -1.5096616449451579 1.8335217210888697 -1.894656497638326 -1.570796203636182 -0.16155732941817647 9831.987999999874
2.9800353164830593 -1.5096616449451579 1.8335217210888697 -1.8946564976383258 -1.570796203636182 -0.16155732941817647 9832.037999999873
2.9801987177668643 -1.5096647861843564 1.8335250405853998 -1.894656675884923 -1.570796203650141 -0.16139392813524278 9832.087999999872
2.9812976625926093 -1.5096859123865698 1.8335473656458328 -1.8946578746709495 -1.5707962037440222 -0.1602949833153585 9832.137999999872
2.9841471482755413 -1.5097406911246207 1.8336052529378823 -1.894660983037757 -1.5707962039874488 -0.1574454976476227 9832.187999999871
2.989436384763924 -1.5098423718250442 1.8337127037593257 -1.8946667528113112 -1.5707962044392991 -0.15215626118744713 9832.23799999987
2.9977350840073864 -1.5100019066754014 1.8338812918065006 -1.8946758054629624 -1.570796205148243 -0.1438575619882406 9832.28799999987
3.0094997493252738 -1.5102280715315948 1.8341202909428014 -1.8946886389702136 -1.5707962061532783 -0.1320928967330933 9832.337999999869
3.0250799647749935 -1.5105275868251828 1.834436802967177 -1.89470563467749 -1.5707962074842694 -0.11651268136646123 9832.387999999868
3.044724684520368 -1.510905238470693 1.8348358853826263 -1.8947270641569087 -1.5707962091624843 -0.09686796172585055 9832.437999999867
3.0685885221999802 -1.511363998772937 1.8353206791646965 -1.894753096069048 -1.5707962112011313 -0.07300412417350191 9832.487999999867
3.0967380402955262 -1.5119051473343261 1.8358925365299794 -1.8947838030237154 -1.5707962136058966 -0.04485460622807487 9832.537999999866
3.1291580395001617 -1.5125283919621835 1.8365511487046071 -1.894819168440719 -1.5707962163754818 -0.012434607196332215 9832.587999999865
3.1657578480868533 -1.51323198957606 1.8372946736927507 -1.8948590934106349 -1.570796219502141 0.024165201195175623 9832.637999999864
3.2063776112767255 -1.5140128671150483 1.8381198640451157 -1.8949034035555774 -1.570796222972218 0.06478496416842652 9832.687999999864
3.2507945806074123 -1.5148667424450977 1.8390221946274397 -1.894951855889968 -1.5707962267666842 0.10920193326224137 9832.737999999863
3.298729403301404 -1.5157882452663267 1.8399959903889882 -1.8950041456813054 -1.5707962308616743 0.15713675570060115 9832.787999999862
3.3498524116343984 -1.5167710380203405 1.841034554131053 -1.895059913310933 -1.5707962352290257 0.20825976376096106 9832.837999999861
3.403789912303649 -1.517807936797542 1.8421302942754478 -1.89511875113481 -1.5707962398368143 0.2621972641425673 9832.88799999986
3.460130475796313 -1.5188910322444484 1.8432748526330047 -1.8951802103442799 -1.5707962446498924 0.3185378273347722 9832.93799999986
3.5184312257578028 -1.5200118104710054 1.8444592321720727 -1.8952438078268399 -1.5707962496304262 0.3768385769853496 9832.98799999986
3.578224128360135 -1.5211612739579006 1.8456739247870126 -1.8953090330269096 -1.5707962547384318 0.4366314792688113 9833.037999999859
3.6390222816702766 -1.5223300624638785 1.8469090390666951 -1.8953753548066012 -1.5707962599323144 0.4974296322547218 9833.087999999858
3.7003262050184977 -1.523508573933055 1.8481544280629976 -1.895442228306489 -1.5707962651694038 0.5587335552760146 9833.137999999857
3.761630128366719 -1.5246870854022312 1.8493998170593 -1.8955091018063763 -1.5707962704064935 0.620037478297307 9833.187999999856
3.82242828167686 -1.525855873908209 1.8506349313389825 -1.895575423586068 -1.5707962756003762 0.6808356312832173 9833.237999999856
3.8822211842791927 -1.5270053373951042 1.8518496239539224 -1.8956406487861377 -1.5707962807083817 0.7406285335666796 9833.287999999855
3.9405219342406825 -1.5281261156216612 1.8530340034929904 -1.8957042462686977 -1.5707962856889155 0.798929283217257 9833.337999999854
3.9968624977333467 -1.5292092110685678 1.8541785618505473 -1.8957657054781676 -1.5707962905019937 0.8552698464094619 9833.387999999853
4.050799998402596 -1.5302461098457691 1.855274301994942 -1.8958245433020446 -1.5707962951097822 0.9092073467910677 9833.437999999853
4.101923006735591 -1.531228902599783 1.856312865737007 -1.8958803109316722 -1.5707962994771336 0.9603303548514281 9833.487999999852
4.149857829429583 -1.532150405421012 1.8572866614985557 -1.8959326007230095 -1.5707963035721237 1.0082651772897875 9833.537999999851
4.1942747987602695 -1.5330042807510613 1.8581889920808794 -1.8959810530574002 -1.5707963073665898 1.052682146383603 9833.58799999985
4.234894561950141 -1.5337851582900497 1.8590141824332445 -1.8960253632023427 -1.570796310836667 1.0933019093568532 9833.63799999985
4.271494370536833 -1.5344887559039262 1.859757707421388 -1.8960652881722586 -1.570796313963326 1.1299017177483606 9833.68799999985
4.303914369741469 -1.5351120005317835 1.8604163195960157 -1.8961006535892622 -1.5707963167329113 1.162321716780104 9833.737999999848
4.332063887837015 -1.5356531490931724 1.8609881769612986 -1.8961313605439296 -1.5707963191376766 1.1904712347255293 9833.787999999848
4.3559277255166275 -1.5361119093954168 1.8614729707433688 -1.8961573924560688 -1.5707963211763236 1.2143350722778807 9833.837999999847
4.3755724452620015 -1.5364895610409268 1.8618720531588182 -1.8961788219354876 -1.5707963228545385 1.2339797919184896 9833.887999999846
4.391152660711721 -1.536789076334515 1.8621885651831938 -1.896195817642764 -1.5707963241855296 1.2495600072851225 9833.937999999845
4.402917326029607 -1.5370152411907083 1.8624275643194945 -1.8962086511500151 -1.570796325190565 1.2613246725402707 9833.987999999845
4.411216025273072 -1.5371747760410654 1.8625961523666694 -1.8962177038016663 -1.5707963258995088 1.269623371739474 9834.037999999844
4.416505261761452 -1.537276456741489 1.862703603188113 -1.8962234735752206 -1.5707963263513591 1.2749126081996511 9834.087999999843
4.419354747444384 -1.5373312354795399 1.8627614904801626 -1.896226581942028 -1.5707963265947857 1.277762093867386 9834.137999999843
4.420453692270129 -1.5373523616817533 1.8627838155405954 -1.8962277807280545 -1.5707963266886669 1.2788610386872676 9834.187999999842
4.420617093553934 -1.5373555029209518 1.8627871350371255 -1.8962279589746518 -1.570796326702626 1.279024439970204 9834.237999999841
4.420617093553936 -1.5373555029209518 1.8627871350371255 -1.8962279589746518 -1.570796326702626 1.2790244399702058 9834.28799999984
4.420617093508544 -1.5370986896781664 1.8632025402836998 -1.8969001774701757 -1.5707963266981555 1.2790244399251052 9834.33799999984
4.420617093227808 -1.5355103927098617 1.8657716714024684 -1.9010576055953725 -1.5707963266705074 1.2790244396461745 9834.387999999839
4.420617092570923 -1.5317939978212822 1.8717830823340607 -1.910785411504748 -1.5707963266058145 1.2790244389935155 9834.437999999838
4.4206170914855925 -1.5256536197400903 1.881715378827853 -1.926858086227118 -1.5707963264989264 1.2790244379151656 9834.487999999837
4.42061708999193 -1.5172030604941085 1.8953844817494696 -1.9489777485975532 -1.5707963263518239 1.2790244364311107 9834.537999999837
4.420617088166373 -1.5068747677890606 1.9120908903882836 -1.9760124501893226 -1.570796326172035 1.2790244346172954 9834.587999999836
4.420617086125587 -1.4953287933863155 1.9307669457649166 -2.0062344802458356 -1.5707963259710493 1.2790244325896354 9834.637999999835
4.420617084010376 -1.4833617514806283 1.950124093938739 -2.037558670612587 -1.570796325762734 1.2790244304880294 9834.687999999835
4.420617081969589 -1.4718157770778832 1.968800149315372 -2.0677807006691 -1.5707963255617483 1.2790244284603693 9834.737999999834
4.420617080144032 -1.4614874843728356 1.985506557954186 -2.094815402260869 -1.5707963253819595 1.279024426646554 9834.787999999833
4.42061707865037 -1.4530369251268536 1.9991756608758027 -2.1169350646313045 -1.570796325234857 1.2790244251624991 9834.837999999832
4.420617077565039 -1.4468965470456616 2.0091079573695954 -2.133007739353675 -1.5707963251279689 1.2790244240841493 9834.887999999832
4.4206170769081545 -1.4431801521570822 2.015119368301187 -2.1427355452630503 -1.570796325063276 1.2790244234314903 9834.937999999831
4.420617076627418 -1.4415918551887774 2.0176884994199558 -2.1468929733882476 -1.5707963250356278 1.2790244231525596 9834.98799999983
4.420617076582026 -1.441335041945992 2.01810390466653 -2.147565191883771 -1.5707963250311574 1.279024423107459 9835.03799999983
4.420617076582026 -1.441335041945992 2.01810390466653 -2.147565191883771 -1.5707963250311574 1.279024423107459 9835.087999999829
4.420617076582026 -1.441335041945992 2.01810390466653 -2.147565191883771 -1.5707963250311574 1.279024423107459 9835.137999999828
4.420617076582026 -1.441335041945992 2.01810390466653 -2.147565191883771 -1.5707963250311574 1.279024423107459 9835.187999999827
4.420617076582026 -1.441335041945992 2.01810390466653 -2.147565191883771 -1.5707963250311574 1.279024423107459 9835.237999999827
4.420617076582026 -1.441335041945992 2.01810390466653 -2.147565191883771 -1.5707963250311574 1.279024423107459 9835.287999999826
4.420617076582026 -1.441335041945992 2.01810390466653 -2.147565191883771 -1.5707963250311574 1.279024423107459 9835.337999999825
4.420617076582026 -1.441335041945992 2.01810390466653 -2.147565191883771 -1.5707963250311574 1.279024423107459 9835.387999999824
4.420617076582026 -1.441335041945992 2.01810390466653 -2.147565191883771 -1.5707963250311574 1.279024423107459 9835.437999999824
4.420617076582026 -1.441335041945992 2.01810390466653 -2.147565191883771 -1.5707963250311574 1.279024423107459 9835.487999999823
4.420617076582026 -1.441335041945992 2.01810390466653 -2.147565191883771 -1.5707963250311574 1.279024423107459 9835.537999999822
4.420617076582026 -1.441335041945992 2.01810390466653 -2.147565191883771 -1.5707963250311574 1.279024423107459 9835.587999999821
4.420617076582026 -1.441335041945992 2.01810390466653 -2.147565191883771 -1.5707963250311574 1.279024423107459 9835.63799999982
4.420617076582026 -1.441335041945992 2.01810390466653 -2.147565191883771 -1.5707963250311574 1.279024423107459 9835.68799999982
4.420617076582026 -1.441335041945992 2.01810390466653 -2.147565191883771 -1.5707963250311574 1.279024423107459 9835.73799999982
4.420617076627418 -1.4415918551887774 2.0176884994199558 -2.146892973388247 -1.5707963250356278 1.2790244231525596 9835.787999999819
4.4206170769081545 -1.4431801521570822 2.015119368301187 -2.14273554526305 -1.570796325063276 1.2790244234314903 9835.837999999818
4.420617077565039 -1.4468965470456616 2.009107957369595 -2.133007739353675 -1.5707963251279689 1.2790244240841493 9835.887999999817
4.42061707865037 -1.4530369251268536 1.9991756608758027 -2.1169350646313045 -1.570796325234857 1.2790244251624991 9835.937999999816
4.420617080144032 -1.4614874843728354 1.985506557954186 -2.094815402260869 -1.5707963253819595 1.279024426646554 9835.987999999816
4.420617081969589 -1.4718157770778832 1.968800149315372 -2.0677807006691 -1.5707963255617483 1.2790244284603693 9836.037999999815
4.420617084010376 -1.4833617514806283 1.950124093938739 -2.037558670612587 -1.570796325762734 1.2790244304880294 9836.087999999814
4.420617086125587 -1.4953287933863155 1.9307669457649166 -2.0062344802458356 -1.5707963259710493 1.2790244325896354 9836.137999999813
4.420617088166373 -1.5068747677890606 1.9120908903882836 -1.9760124501893226 -1.570796326172035 1.2790244346172954 9836.187999999813
4.42061708999193 -1.5172030604941082 1.8953844817494696 -1.9489777485975535 -1.5707963263518239 1.2790244364311107 9836.237999999812
4.4206170914855925 -1.5256536197400903 1.881715378827853 -1.926858086227118 -1.5707963264989264 1.2790244379151656 9836.287999999811
4.420617092570923 -1.5317939978212822 1.8717830823340604 -1.9107854115047478 -1.5707963266058145 1.2790244389935155 9836.33799999981
4.420617093227808 -1.5355103927098617 1.8657716714024681 -1.9010576055953723 -1.5707963266705074 1.2790244396461745 9836.38799999981
4.420617093508544 -1.5370986896781664 1.8632025402836996 -1.8969001774701753 -1.5707963266981555 1.2790244399251052 9836.43799999981
4.420617093553936 -1.5373555029209518 1.8627871350371255 -1.8962279589746518 -1.570796326702626 1.2790244399702058 9836.487999999808
4.420617093553936 -1.5373555029209518 1.8627871350371255 -1.8962279589746518 -1.570796326702626 1.2790244399702058 9836.537999999808
4.420446323918154 -1.537345095200241 1.8627758083708894 -1.896227040029013 -1.5707963267029859 1.2790581880353424 9836.587999999807
4.41930007187769 -1.5372752357603783 1.8626997807198076 -1.8962208718170317 -1.570796326705402 1.2792847141876498 9836.637999999806
4.4163347257973875 -1.5370945098738749 1.8625030977136519 -1.8962049146954079 -1.5707963267116525 1.2798707357728845 9836.687999999805
4.4108439641583 -1.5367598700922336 1.8621389110467286 -1.8961753678064748 -1.570796326723226 1.2809558384060162 9836.737999999805
4.402251529762107 -1.5362361958628445 1.861568999211323 -1.8961291301947452 -1.5707963267413378 1.2826539039570586 9836.787999999804
4.390104003935521 -1.5354958531458796 1.8607632882311456 -1.8960637619234557 -1.570796326766943 1.2850545385369003 9836.837999999803
4.374063580734701 -1.5345182540311877 1.8596993723947777 -1.895977445191114 -1.5707963268007537 1.2882245004831359 9836.887999999803
4.353900841149655 -1.533289416355191 1.8583620349891166 -1.895868945448043 -1.5707963268432537 1.2922091283458956 9836.937999999802
4.3294875273086575 -1.5318015233177786 1.8567427690328213 -1.8957375725129275 -1.5707963268947132 1.2970337688736782 9836.987999999801
4.300789316682655 -1.5300524830992024 1.8548392980097583 -1.8955831416893592 -1.5707963269552048 1.30270520499918 9837.0379999998
4.267858596289677 -1.5280454884769727 1.8526550966024475 -1.895405934882382 -1.5707963270246177 1.3092130838251277 9837.0879999998
4.230827236899244 -1.5257885764427523 1.8501989114255066 -1.8952066617150387 -1.5707963271026741 1.316531344610107 9837.137999999799
4.18989936723678 -1.523294187819253 1.847484281759098 -1.8949864206449158 -1.5707963271889438 1.3246196467543954 9837.187999999798
4.145344148188023 -1.5205787268771294 1.8445290602823734 -1.8947466600806895 -1.5707963272828593 1.333424797785792 9837.237999999797
4.097488547003429 -1.5176621209518752 1.8413549338069202 -1.894489139498671 -1.5707963273837318 1.342882181345449 9837.287999999797
4.046710111502587 -1.5145673800607176 1.8379869440102063 -1.8942158905593516 -1.570796327490765 1.352917185173702 9837.337999999796
3.993429744278629 -1.5113201565195127 1.834453008169027 -1.8939291782239498 -1.5707963276030719 1.363446629095902 9837.387999999795
3.938104476902636 -1.5079483045596414 1.8307834398929481 -1.893631461870956 -1.5707963277196892 1.3743801930082444 9837.437999999795
3.881220244128052 -1.5044814399449031 1.8270104698577545 -1.8933253564126775 -1.5707963278395924 1.385621844863602 9837.487999999794
3.8232846580950897 -1.5009504995884122 1.8231677665388937 -1.8930135934117855 -1.5707963279617119 1.3970712686573545 9837.537999999793
3.7648197825351426 -1.4973873011694927 1.819289956944922 -1.8926989821978593 -1.5707963280849468 1.40862529241322 9837.587999999792
3.706354906975196 -1.493824102750573 1.8154121473509501 -1.8923843709839332 -1.570796328208182 1.4201793161690857 9837.637999999792
3.6484193209422333 -1.490293162394082 1.8115694440320893 -1.8920726079830412 -1.5707963283303015 1.431628739962838 9837.687999999791
3.591535088167649 -1.4868262977793438 1.8077964739968957 -1.8917665025247627 -1.5707963284502047 1.4428703918181958 9837.73799999979
3.536209820791657 -1.4834544458194725 1.804126905720817 -1.891468786171769 -1.570796328566822 1.4538039557305382 9837.78799999979
3.482929453567698 -1.4802072222782676 1.8005929698796375 -1.8911820738363672 -1.5707963286791289 1.4643333996527381 9837.837999999789
3.4321510180668566 -1.4771124813871102 1.7972249800829236 -1.8909088248970478 -1.5707963287861622 1.4743684034809912 9837.887999999788
3.3842954168822623 -1.4741958754618558 1.7940508536074704 -1.8906513043150293 -1.5707963288870346 1.4838257870406482 9837.937999999787
3.339740197833505 -1.4714804145197322 1.7910956321307459 -1.890411543750803 -1.5707963289809501 1.4926309380720446 9837.987999999787
3.298812328171041 -1.4689860258962328 1.7883810024643372 -1.89019130268068 -1.5707963290672198 1.5007192402163332 9838.037999999786
3.2617809687806076 -1.4667291138620127 1.7859248172873963 -1.8899920295133368 -1.5707963291452762 1.5080375010013125 9838.087999999785
3.22885024838763 -1.4647221192397828 1.7837406158800855 -1.8898148227063596 -1.5707963292146891 1.51454537982726 9838.137999999784
3.200152037761627 -1.4629730790212065 1.7818371448570225 -1.8896603918827912 -1.5707963292751808 1.5202168159527623 9838.187999999784
3.17573872392063 -1.4614851859837943 1.7802178789007275 -1.8895290189476757 -1.5707963293266403 1.5250414564805446 9838.237999999783
3.1555759843355835 -1.4602563483077975 1.7788805414950661 -1.8894205192046047 -1.5707963293691403 1.5290260843433041 9838.287999999782
3.139535561134764 -1.4592787491931056 1.7778166256586982 -1.889334202472263 -1.570796329402951 1.5321960462895396 9838.337999999781
3.1273880353081767 -1.4585384064761406 1.7770109146785207 -1.8892688342009736 -1.570796329428556 1.5345966808693814 9838.38799999978
3.1187956009119873 -1.4580147322467516 1.7764410028431152 -1.889222596589244 -1.5707963294466678 1.5362947464204235 9838.43799999978
3.113304839272896 -1.4576800924651103 1.7760768161761917 -1.8891930497003109 -1.5707963294582414 1.5373798490535557 9838.48799999978
3.110339493192596 -1.457499366578607 1.7758801331700362 -1.889177092578687 -1.570796329464492 1.53796587063879 9838.537999999779
3.109193241152129 -1.4574295071387442 1.7758041055189544 -1.8891709243667056 -1.570796329466908 1.5381923967910978 9838.587999999778
4.420610427856445 -1.537358121281006 1.8627937475787562 -1.8961941204466761 -1.5707529226886194 1.2790412902832031 9839.887999999999
4.420596890133195 -1.5373593255378706 1.8627949917305489 -1.8961941643561826 -1.5707529272943797 1.279194433397403 9839.937999999998
4.4205057599131194 -1.537367432085114 1.8628033668335544 -1.8961944599363854 -1.5707529582984066 1.2802253279904166 9839.987999999998
4.420269213762746 -1.5373884741998118 1.8628251060367882 -1.8961952271720957 -1.570753038775368 1.2829012147293701 9840.037999999997
4.419829632875291 -1.53742757739992 1.86286550465767 -1.896196652949492 -1.5707531883281471 1.2878738962360616 9840.087999999996
4.419139105283987 -1.5374890037252074 1.8629289659299086 -1.8961988926706885 -1.5707534232571971 1.2956853682111216 9840.137999999995
4.4181589280754245 -1.5375761960181882 1.8630190467513819 -1.8962020718683021 -1.5707537567298975 1.3067734505581763 9840.187999999995
4.416859109602873 -1.537691822205056 1.8631385034320214 -1.8962062878200197 -1.5707541989499085 1.3214774185080103 9840.237999999994
4.415217871699623 -1.5378378195766143 1.8632893374416943 -1.896211611163166 -1.570754757326527 1.3400436337427284 9840.287999999993
4.413221151892311 -1.5380154390692111 1.8634728411580868 -1.8962180875092705 -1.5707554366440424 1.362631175519918 9840.337999999992
4.410862105614258 -1.5382252895456707 1.8636896436145853 -1.8962257390586352 -1.5707562392310905 1.3893174717968129 9840.387999999992
4.408140608418795 -1.538467382076226 1.8639397562481608 -1.896234566214902 -1.5707571651300103 1.420103930354453 9840.437999999991
4.405062758192603 -1.538741174219452 1.8642226186472501 -1.89624454919962 -1.5707582122661985 1.454921569921849 9840.48799999999
4.401640377369038 -1.5390456143031976 1.8645371442996401 -1.896255649666813 -1.5707593766174655 1.493636651300144 9840.53799999999
4.3978905151414684 -1.5393791857055197 1.8648817663403483 -1.896267812317547 -1.5707606523833901 1.5360563084867762 9840.587999999989
4.393834949676607 -1.5397399511356138 1.865254483299508 -1.896280966514497 -1.5707620321546751 1.5819341797996405 9840.637999999988
4.389499690327839 -1.5401255969147483 1.8656529048502486 -1.896295027896516 -1.5707635070825035 1.6309760390012515 9840.687999999987
4.384914479848559 -1.5405334772571966 1.8660742975565803 -1.8963098999932002 -1.5707650670478919 1.6828454264229062 9840.737999999987
4.380112296605502 -1.5409606585511697 1.8665156306212756 -1.8963254758394583 -1.570766700831048 1.737169280088846 9840.787999999986
4.375128856792073 -1.541403963639749 1.8669736216337518 -1.8963416395900778 -1.5707683962807246 1.7935435668404183 9840.837999999985
4.370002116641684 -1.5418600161018188 1.8674447823179547 -1.8963582681342932 -1.5707701404835754 1.851538913460241 9840.887999999984
4.364771774641084 -1.5423252845329993 1.8679254642802405 -1.8963752327103527 -1.5707719199335108 1.9107062377963624 9840.937999999984
4.359478773743688 -1.5427961268265789 1.868411904757259 -1.896392400520086 -1.5707737207010521 1.970582379886425 9840.987999999983
4.354164803582915 -1.5432688344544467 1.868900272363835 -1.896409636343472 -1.5707755286026879 2.030695733081829 9841.037999999982
4.348871802685519 -1.5437396767480263 1.8693867128408534 -1.8964268041532053 -1.5707773293702292 2.090571875171892 9841.087999999982
4.3436414606849185 -1.5442049451792068 1.8698673948031392 -1.8964437687292648 -1.5707791088201646 2.149739199508014 9841.13799999998
4.338514720534529 -1.5446609976412766 1.8703385554873422 -1.8964603972734801 -1.5707808530230154 2.207734546127836 9841.18799999998
4.3335312807211 -1.5451043027298559 1.8707965464998184 -1.8964765610240997 -1.570782548472692 2.2641088328794083 9841.23799999998
4.3287290974780435 -1.545531484023829 1.8712378795645137 -1.8964921368703578 -1.5707841822558481 2.318432686545348 9841.287999999979
4.324143886998764 -1.5459393643662773 1.8716592722708454 -1.896507008967042 -1.5707857422212366 2.3703020739670024 9841.337999999978
4.319808627649996 -1.5463250101454118 1.872057693821586 -1.896521070349061 -1.5707872171490649 2.419343933168614 9841.387999999977
4.315753062185134 -1.546685775575506 1.8724304107807457 -1.896534224546011 -1.5707885969203499 2.4652218044814775 9841.437999999976
4.312003199957565 -1.547019346977828 1.8727750328214539 -1.896546387196745 -1.5707898726862746 2.5076414616681104 9841.487999999976
4.308580819134001 -1.5473237870615737 1.8730895584738438 -1.896557487663938 -1.5707910370375415 2.5463565430464055 9841.537999999975
4.305502968907808 -1.5475975792047996 1.8733724208729332 -1.896567470648656 -1.5707920841737297 2.5811741826138013 9841.587999999974
4.302781471712345 -1.5478396717353549 1.8736225335065086 -1.8965762978049228 -1.5707930100726495 2.611960641171442 9841.637999999974
4.3004224254342915 -1.5480495222118145 1.8738393359630072 -1.8965839493542875 -1.5707938126596976 2.6386469374483372 9841.687999999973
4.29842570562698 -1.5482271417044113 1.8740228396793996 -1.896590425700392 -1.570794491977213 2.6612344792255254 9841.737999999972
4.296784467723729 -1.5483731390759696 1.8741736736890726 -1.8965957490435383 -1.5707950503538315 2.6798006944602424 9841.787999999971
4.295484649251178 -1.5484887652628374 1.8742931303697121 -1.8965999649952558 -1.5707954925738425 2.69450466241008 9841.83799999997
4.294504472042615 -1.5485759575558182 1.8743832111911853 -1.8966031441928695 -1.5707958260465429 2.7055927447571335 9841.88799999997
4.293813944451312 -1.5486373838811056 1.874446672463424 -1.896605383914066 -1.5707960609755929 2.7134042167321937 9841.93799999997
4.293374363563856 -1.5486764870812137 1.8744870710843058 -1.8966068096914623 -1.570796210528372 2.718376898238887 9841.987999999968
4.293137817413483 -1.5486975291959115 1.8745088102875396 -1.8966075769271726 -1.5707962910053335 2.7210527849778394 9842.037999999968
4.293046687193407 -1.548705635743155 1.8745171853905451 -1.8966078725073754 -1.5707963220093604 2.722083679570849 9842.087999999967
4.2930331494701575 -1.5487068400000197 1.8745184295423378 -1.8966079164168819 -1.5707963266151206 2.7222368226850513 9842.137999999966
4.2930331494701575 -1.5487068400000197 1.8745184295423378 -1.8966079164168819 -1.5707963266151206 2.7222368226850513 9842.187999999966
4.293033149408071 -1.5484923406050548 1.8748646125879476 -1.8971685988639604 -1.570796326608723 2.7222368226233526 9842.237999999965
4.2930331490208715 -1.5471546242579515 1.8770235684175323 -1.9006652710812093 -1.5707963265688247 2.722236822238571 9842.287999999964
4.293033148105164 -1.5439909887275693 1.8821293962604755 -1.9089347345504593 -1.5707963264744673 2.722236821328582 9842.337999999963
4.293033146572863 -1.5386971141500287 1.8906732414523368 -1.9227724544803775 -1.5707963263165738 2.7222368198058495 9842.387999999963
4.293033144431975 -1.5313006659675001 1.9026104544171567 -1.9421061158519937 -1.57079632609597 2.7222368176783323 9842.437999999962
4.293033141767385 -1.5220948978669953 1.9174677496497587 -1.9661691794642293 -1.570796325821402 2.7222368150303815 9842.487999999961
4.2930331387216265 -1.5115722547191561 1.934450364698056 -1.9936744379794233 -1.5707963255075572 2.722236812003644 9842.53799999996
4.293033135475676 -1.5003579755170444 1.9525492191453524 -2.0229875719688604 -1.570796325173084 2.7222368087779643 9842.58799999996
4.293033132229726 -1.489143696314933 1.970648073592649 -2.0523007059582974 -1.5707963248386108 2.7222368055522845 9842.637999999959
4.293033129183968 -1.4786210531670936 1.9876306886409458 -2.079805964473491 -1.570796324524766 2.722236802525547 9842.687999999958
4.2930331265193775 -1.4694152850665887 2.0024879838735483 -2.103869028085727 -1.5707963242501979 2.7222367998775963 9842.737999999958
4.29303312437849 -1.46201883688406 2.014425196838368 -2.1232026894573433 -1.5707963240295941 2.722236797750079 9842.787999999957
4.293033122846189 -1.4567249623065195 2.0229690420302293 -2.1370404093872613 -1.5707963238717007 2.7222367962273464 9842.837999999956
4.293033121930481 -1.4535613267761374 2.0280748698731728 -2.145309872856511 -1.5707963237773432 2.7222367953173574 9842.887999999955
4.2930331215432815 -1.452223610429034 2.0302338257027572 -2.14880654507376 -1.570796323737445 2.722236794932576 9842.937999999955
4.293033121481195 -1.4520091110340692 2.030580008748367 -2.149367227520839 -1.5707963237310474 2.722236794870877 9842.987999999954
4.293033121481195 -1.4520091110340692 2.030580008748367 -2.149367227520839 -1.5707963237310474 2.722236794870877 9843.037999999953
4.293033121481195 -1.4520091110340692 2.030580008748367 -2.149367227520839 -1.5707963237310474 2.722236794870877 9843.087999999952
4.293033121481195 -1.4520091110340692 2.030580008748367 -2.149367227520839 -1.5707963237310474 2.722236794870877 9843.137999999952
4.293033121481195 -1.4520091110340692 2.030580008748367 -2.149367227520839 -1.5707963237310474 2.722236794870877 9843.187999999951
4.293033121481195 -1.4520091110340692 2.030580008748367 -2.149367227520839 -1.5707963237310474 2.722236794870877 9843.23799999995
4.293033121481195 -1.4520091110340692 2.030580008748367 -2.149367227520839 -1.5707963237310474 2.722236794870877 9843.28799999995
4.293033121481195 -1.4520091110340692 2.030580008748367 -2.149367227520839 -1.5707963237310474 2.722236794870877 9843.337999999949
4.293033121481195 -1.4520091110340692 2.030580008748367 -2.149367227520839 -1.5707963237310474 2.722236794870877 9843.387999999948
4.293033121481195 -1.4520091110340692 2.030580008748367 -2.149367227520839 -1.5707963237310474 2.722236794870877 9843.437999999947
4.293033121481195 -1.4520091110340692 2.030580008748367 -2.149367227520839 -1.5707963237310474 2.722236794870877 9843.487999999947
4.293033121481195 -1.4520091110340692 2.030580008748367 -2.149367227520839 -1.5707963237310474 2.722236794870877 9843.537999999946
4.293033121481195 -1.4520091110340692 2.030580008748367 -2.149367227520839 -1.5707963237310474 2.722236794870877 9843.587999999945
4.293033121481195 -1.4520091110340692 2.030580008748367 -2.149367227520839 -1.5707963237310474 2.722236794870877 9843.637999999944
4.293033121481195 -1.4520091110340692 2.030580008748367 -2.149367227520839 -1.5707963237310474 2.722236794870877 9843.687999999944
4.2930331215432815 -1.452223610429034 2.0302338257027572 -2.1488065450737603 -1.570796323737445 2.722236794932576 9843.737999999943
4.293033121930481 -1.4535613267761374 2.0280748698731723 -2.1453098728565116 -1.5707963237773432 2.7222367953173574 9843.787999999942
4.293033122846189 -1.4567249623065195 2.0229690420302293 -2.1370404093872613 -1.5707963238717007 2.7222367962273464 9843.837999999942
4.29303312437849 -1.46201883688406 2.014425196838368 -2.1232026894573433 -1.5707963240295941 2.722236797750079 9843.88799999994
4.2930331265193775 -1.4694152850665887 2.0024879838735483 -2.103869028085727 -1.5707963242501979 2.7222367998775963 9843.93799999994
4.293033129183968 -1.4786210531670936 1.987630688640946 -2.079805964473491 -1.570796324524766 2.722236802525547 9843.98799999994
4.293033132229726 -1.4891436963149327 1.9706480735926488 -2.0523007059582974 -1.5707963248386108 2.7222368055522845 9844.037999999939
4.293033135475676 -1.5003579755170444 1.9525492191453524 -2.0229875719688604 -1.570796325173084 2.7222368087779643 9844.087999999938
4.2930331387216265 -1.511572254719156 1.9344503646980558 -1.9936744379794233 -1.5707963255075572 2.722236812003644 9844.137999999937
