Andreas691667/Digital_Twin_UR/src/dt/dt_trajectories/case1_13_miss_stock_dt_trajectory.csv
actual_q_0 actual_q_1 actual_q_2 actual_q_3 actual_q_4 actual_q_5 timestamp
3.71207804710797 -0.8254843255005873 0.8429764792549035 -1.5882884806323445 -1.570796326807946 2.141281720311417 13165.846
3.71207804710797 -0.8254843255005873 0.8429764792549035 -1.5882884806323445 -1.570796326807946 2.141281720311417 13165.895999999999
3.71207804710797 -0.8254843255005873 0.8429764792549035 -1.5882884806323445 -1.570796326807946 2.141281720311417 13165.945999999998
3.71207804710797 -0.8254843255005873 0.8429764792549035 -1.5882884806323445 -1.570796326807946 2.141281720311417 13165.995999999997
3.71207804710797 -0.8254843255005873 0.8429764792549035 -1.5882884806323445 -1.570796326807946 2.141281720311417 13166.045999999997
3.71207804710797 -0.8254843255005873 0.8429764792549035 -1.5882884806323445 -1.570796326807946 2.141281720311417 13166.095999999996
3.71207804710797 -0.8254843255005873 0.8429764792549035 -1.5882884806323445 -1.570796326807946 2.141281720311417 13166.145999999995
3.71207804710797 -0.8254843255005873 0.8429764792549035 -1.5882884806323445 -1.570796326807946 2.141281720311417 13166.195999999994
3.71207804710797 -0.8254843255005873 0.8429764792549035 -1.5882884806323445 -1.570796326807946 2.141281720311417 13166.245999999994
3.71207804710797 -0.8254843255005873 0.8429764792549035 -1.5882884806323445 -1.570796326807946 2.141281720311417 13166.295999999993
3.71207804710797 -0.8254843255005873 0.8429764792549035 -1.5882884806323445 -1.570796326807946 2.141281720311417 13166.345999999992
3.71207804710797 -0.8254843255005873 0.8429764792549035 -1.5882884806323445 -1.570796326807946 2.141281720311417 13166.395999999992
3.71207804710797 -0.8254843255005873 0.8429764792549035 -1.5882884806323445 -1.570796326807946 2.141281720311417 13166.44599999999
3.7122689791773014 -0.8255822011483995 0.8431247541871719 -1.5883388799190803 -1.5707963268548544 2.1411975678393773 13166.49599999999
3.713544740040671 -0.8262361820191524 0.8441154906112279 -1.5886756354876148 -1.5707963271682845 2.1406352818349363 13166.54599999999
3.7168275167322813 -0.8279189998738993 0.8466648449093596 -1.589542171970193 -1.5707963279748003 2.1391884124079175 13166.595999999989
3.7228710753776704 -0.8310170505030092 0.8513581803555411 -1.591137456859419 -1.5707963294595875 2.1365247404448637 13166.645999999988
3.732270668305987 -0.835835472312677 0.8586577608276864 -1.593618615634119 -1.5707963317688887 2.1323819110927604 13166.695999999987
3.7454729411622654 -0.8426032249114345 0.8689104445199027 -1.5971035468852008 -1.5707963350124359 2.126563067242757 13166.745999999986
3.762785840019699 -0.8514781676966612 0.8823553776547448 -1.601673537441516 -1.5707963392658857 2.118932483013891 13166.795999999986
3.784388518491916 -0.8625521384410955 0.8991316881954681 -1.6073758774957212 -1.5707963445732527 2.109411197236808 13166.845999999985
3.810341244845251 -0.8758560318793451 0.9192861795582831 -1.6142264757301383 -1.5707963509493437 2.0979726469374858 13166.895999999984
3.840595309111022 -0.8913648782943985 0.9427810243246088 -1.6222124744426163 -1.5707963583821913 2.0846383008209557 13166.945999999984
3.8750029301978044 -0.9090029221041348 0.9695014579533265 -1.631294864672393 -1.5707963668354892 2.069473292755027 13166.995999999983
3.913327163003703 -0.9286487004478358 0.9992634724930336 -1.6414111013259551 -1.5707963762510238 2.0525820552540046 13167.045999999982
3.955251805528629 -0.9501401217726961 1.0318215102942974 -1.6524777183029 -1.5707963865511108 2.0341039529624183 13167.095999999981
4.000391305986574 -0.9732795444203346 1.0668761577219086 -1.664392943621797 -1.5707963976410269 2.014208916138738 13167.14599999998
4.048300669917882 -0.9978388552133042 1.1040818388671358 -1.6770393145460483 -1.570796409411446 1.9930930741391024 13167.19599999998
4.098485367301527 -1.023564548041604 1.143054509259978 -1.6902862927097497 -1.570796421740871 1.970974388901036 13167.24599999998
4.150411239667386 -1.0501828024491897 1.18337934958142 -1.7039928792435532 -1.5707964344980696 1.9480882884271746 13167.295999999978
4.203514407208509 -1.077404562220484 1.2246184593756846 -1.7180102299005264 -1.5707964475445073 1.9246833002689874 13167.345999999978
4.257211175893402 -1.104930613966888 1.2663185507624877 -1.7321842701820154 -1.5707964607367817 1.9010166850104984 13167.395999999977
4.310907944578295 -1.132456665713292 1.3080186421492905 -1.7463583104635043 -1.5707964739290559 1.8773500697520094 13167.445999999976
4.364011112119418 -1.1596784254845862 1.3492577519435551 -1.7603756611204775 -1.5707964869754936 1.8539450815938223 13167.495999999976
4.415936984485277 -1.186296679892172 1.3895825922649974 -1.774082247654281 -1.5707964997326922 1.8310589811199607 13167.545999999975
4.4661216818689216 -1.2120223727204718 1.4285552626578395 -1.7873292258179825 -1.5707965120621172 1.808940295881894 13167.595999999974
4.5140310458002295 -1.2365816835134416 1.4657609438030668 -1.7999755967422335 -1.5707965238325363 1.7878244538822583 13167.645999999973
4.559170546258174 -1.2597211061610796 1.5008155912306775 -1.8118908220611303 -1.5707965349224524 1.7679294170585786 13167.695999999973
4.6010951887831 -1.2812125274859398 1.533373629031941 -1.8229574390380754 -1.5707965452225394 1.7494513147669921 13167.745999999972
4.6394194215889994 -1.300858305829641 1.5631356435716484 -1.8330736756916375 -1.570796554638074 1.7325600772659702 13167.795999999971
4.673827042675781 -1.3184963496393776 1.5898560772003665 -1.8421560659214142 -1.5707965630913718 1.7173950692000408 13167.84599999997
4.704081106941552 -1.3340051960544304 1.6133509219666915 -1.850142064633892 -1.5707965705242195 1.7040607230835114 13167.89599999997
4.730033833294889 -1.3473090894926805 1.6335054133295075 -1.8569926628683096 -1.5707965769003105 1.6926221727841884 13167.945999999969
4.751636511767105 -1.3583830602371147 1.6502817238702299 -1.8626950029225142 -1.5707965822076775 1.683100887007106 13167.995999999968
4.768949410624538 -1.367258003022341 1.6637266570050717 -1.8672649934788295 -1.5707965864611273 1.6754703027782398 13168.045999999968
4.782151683480817 -1.3740257556210984 1.6739793406972883 -1.8707499247299113 -1.5707965897046745 1.6696514589282365 13168.095999999967
4.791551276409134 -1.3788441774307665 1.681278921169434 -1.8732310835046113 -1.5707965920139757 1.665508629576133 13168.145999999966
4.7975948350545226 -1.381942228059876 1.6859722566156154 -1.8748263683938375 -1.5707965934987629 1.662844957613079 13168.195999999965
4.800877611746131 -1.383625045914623 1.6885216109137464 -1.8756929048764155 -1.5707965943052786 1.6613980881860604 13168.245999999965
4.802153372609503 -1.384279026785376 1.689512347337803 -1.8760296604449502 -1.5707965946187088 1.6608358021816192 13168.295999999964
4.802344304678834 -1.3843769024331887 1.689660622270071 -1.8760800597316858 -1.5707965946656173 1.6607516497095798 13168.345999999963
4.802344304678834 -1.384376902433189 1.6896606222700719 -1.8760800597316862 -1.5707965946656173 1.6607516497095798 13168.395999999962
4.802344307386492 -1.384147745783343 1.6900552203559738 -1.8767038144324433 -1.5707965939491735 1.6607516524209287 13168.445999999962
4.802344324132375 -1.3827304948337065 1.6924956667159023 -1.8805615115256038 -1.5707965895182276 1.66075166918964 13168.495999999961
4.802344363315421 -1.3794143239348313 1.6982059731377366 -1.8895879883399567 -1.5707965791504284 1.6607517084261019 13168.54599999996
4.802344428055237 -1.3739352121312087 1.7076407725712601 -1.9045018987404798 -1.5707965620203306 1.6607517732541726 13168.59599999996
4.802344517151974 -1.366394705944188 1.720625206189633 -1.9250268373944897 -1.5707965384454132 1.6607518624723678 13168.645999999959
4.802344626046208 -1.3571786821548983 1.736494810450864 -1.9501124640377867 -1.5707965096320957 1.660751971515049 13168.695999999958
4.80234474777882 -1.3468761105871672 1.7542354041592816 -1.978155627740803 -1.5707964774217549 1.6607520934136086 13168.745999999957
4.8023448739508705 -1.3361978168904423 1.7726229755270069 -2.0072214911747506 -1.5707964440367426 1.660752219757659 13168.795999999957
4.802344995683482 -1.325895245322711 1.7903635692354243 -2.035264654877767 -1.5707964118264017 1.6607523416562187 13168.845999999956
4.802345104577716 -1.3166792215334213 1.8062331734966552 -2.060350281521064 -1.5707963830130842 1.6607524506988998 13168.895999999955
4.802345193674453 -1.3091387153464007 1.8192176071150283 -2.0808752201750735 -1.5707963594381669 1.660752539917095 13168.945999999954
4.802345258414269 -1.3036596035427779 1.8286524065485519 -2.0957891305755973 -1.570796342308069 1.6607526047451657 13168.995999999954
4.8023452975973155 -1.3003434326439027 1.8343627129703863 -2.1048156073899498 -1.5707963319402698 1.6607526439816276 13169.045999999953
4.8023453143431984 -1.2989261816942663 1.8368031593303147 -2.1086733044831103 -1.570796327509324 1.660752660750339 13169.095999999952
4.8023453170508565 -1.2986970250444205 1.8371977574162166 -2.1092970591838673 -1.5707963267928802 1.6607526634616878 13169.145999999952
4.8023453170508565 -1.2986970250444205 1.8371977574162166 -2.1092970591838673 -1.5707963267928802 1.6607526634616878 13169.19599999995
4.8023453170508565 -1.2986970250444205 1.8371977574162166 -2.1092970591838673 -1.5707963267928802 1.6607526634616878 13169.24599999995
4.8023453170508565 -1.2986970250444205 1.8371977574162166 -2.1092970591838673 -1.5707963267928802 1.6607526634616878 13169.29599999995
4.8023453170508565 -1.2986970250444205 1.8371977574162166 -2.1092970591838673 -1.5707963267928802 1.6607526634616878 13169.345999999949
4.8023453170508565 -1.2986970250444205 1.8371977574162166 -2.1092970591838673 -1.5707963267928802 1.6607526634616878 13169.395999999948
4.8023453170508565 -1.2986970250444205 1.8371977574162166 -2.1092970591838673 -1.5707963267928802 1.6607526634616878 13169.445999999947
4.8023453170508565 -1.2986970250444205 1.8371977574162166 -2.1092970591838673 -1.5707963267928802 1.6607526634616878 13169.495999999946
4.8023453170508565 -1.2986970250444205 1.8371977574162166 -2.1092970591838673 -1.5707963267928802 1.6607526634616878 13169.545999999946
4.8023453170508565 -1.2986970250444205 1.8371977574162166 -2.1092970591838673 -1.5707963267928802 1.6607526634616878 13169.595999999945
4.8023453170508565 -1.2986970250444205 1.8371977574162166 -2.1092970591838673 -1.5707963267928802 1.6607526634616878 13169.645999999944
4.8023453170508565 -1.2986970250444205 1.8371977574162166 -2.1092970591838673 -1.5707963267928802 1.6607526634616878 13169.695999999944
4.8023453170508565 -1.2986970250444205 1.8371977574162166 -2.1092970591838673 -1.5707963267928802 1.6607526634616878 13169.745999999943
4.8023453170508565 -1.2986970250444205 1.8371977574162166 -2.1092970591838673 -1.5707963267928802 1.6607526634616878 13169.795999999942
4.8023453170508565 -1.2986970250444205 1.8371977574162166 -2.1092970591838673 -1.5707963267928802 1.6607526634616878 13169.845999999941
4.8023453143431984 -1.2989261816942663 1.8368031593303147 -2.1086733044831103 -1.570796327509324 1.660752660750339 13169.89599999994
4.8023452975973155 -1.300343432643903 1.8343627129703861 -2.1048156073899498 -1.5707963319402698 1.6607526439816276 13169.94599999994
4.802345258414269 -1.303659603542778 1.8286524065485519 -2.095789130575597 -1.570796342308069 1.6607526047451657 13169.99599999994
4.802345193674453 -1.3091387153464007 1.8192176071150283 -2.0808752201750735 -1.5707963594381669 1.660752539917095 13170.045999999938
4.802345104577716 -1.3166792215334213 1.8062331734966555 -2.060350281521064 -1.5707963830130842 1.6607524506988998 13170.095999999938
4.802344995683482 -1.325895245322711 1.7903635692354245 -2.035264654877767 -1.5707964118264017 1.6607523416562187 13170.145999999937
4.8023448739508705 -1.3361978168904423 1.7726229755270069 -2.0072214911747506 -1.5707964440367426 1.660752219757659 13170.195999999936
4.80234474777882 -1.3468761105871672 1.7542354041592816 -1.978155627740803 -1.5707964774217549 1.6607520934136086 13170.245999999936
4.802344626046208 -1.3571786821548981 1.7364948104508642 -1.9501124640377867 -1.5707965096320957 1.660751971515049 13170.295999999935
4.802344517151974 -1.366394705944188 1.7206252061896332 -1.9250268373944899 -1.5707965384454132 1.6607518624723678 13170.345999999934
4.802344428055237 -1.3739352121312087 1.7076407725712601 -1.90450189874048 -1.5707965620203306 1.6607517732541726 13170.395999999933
4.802344363315421 -1.3794143239348315 1.6982059731377366 -1.8895879883399564 -1.5707965791504284 1.6607517084261019 13170.445999999933
4.802344324132375 -1.3827304948337067 1.6924956667159021 -1.8805615115256038 -1.5707965895182276 1.66075166918964 13170.495999999932
4.802344307386492 -1.384147745783343 1.6900552203559738 -1.876703814432443 -1.5707965939491735 1.6607516524209287 13170.545999999931
4.802344304678834 -1.384376902433189 1.6896606222700719 -1.8760800597316862 -1.5707965946656173 1.6607516497095798 13170.59599999993
4.802344304678834 -1.384376902433189 1.6896606222700719 -1.8760800597316862 -1.5707965946656173 1.6607516497095798 13170.64599999993
4.802212309909164 -1.384373871400779 1.6896568459491903 -1.8760793144421866 -1.570796594646128 1.6607346151579627 13170.695999999929
4.801319584917722 -1.3843533715098446 1.689631305421826 -1.876074273798804 -1.5707965945143145 1.6606194047599698 13170.745999999928
4.798989611424414 -1.3842998676839735 1.6895646457535802 -1.8760611179382838 -1.5707965941702873 1.6603187106200612 13170.795999999928
4.7946343172108 -1.384199855858134 1.6894400424187244 -1.8760365263953482 -1.5707965935272155 1.6597566392268146 13170.845999999927
4.787750312457899 -1.3840417765526598 1.6892430936232345 -1.8759976568517203 -1.5707965925107725 1.6588682257344527 13170.895999999926
4.77791512608398 -1.383815928447232 1.688961712627827 -1.8759421238851444 -1.570796591058579 1.6575989482443698 13170.945999999925
4.764783442082378 -1.383514381954864 1.688586020070994 -1.8758679777184097 -1.5707965891196483 1.6559042420866585 13170.995999999925
4.748083335859287 -1.3831308927958859 1.6881082362920383 -1.8757736829683724 -1.5707965866538296 1.6537490141016378 13171.045999999924
4.727612510571563 -1.3826608155719262 1.6875225736541093 -1.8756580973949766 -1.5707965836312534 1.6511071569213778 13171.095999999923
4.703234533464529 -1.382101017339898 1.686825128867238 -1.8755204506502783 -1.5707965800317751 1.647961063251229 13171.145999999922
4.674875072209772 -1.3814497911859813 1.686013775311372 -1.8753603230274662 -1.5707965758444193 1.6443011401513474 13171.195999999922
4.642518131242952 -1.3807067697996072 1.6850880553594116 -1.8751776242098848 -1.5707965710668241 1.6401253233182225 13171.245999999921
4.606202288101599 -1.3798728390474417 1.6840490727002448 -1.8749725720200563 -1.5707965657046858 1.6354385913662033 13171.29599999992
4.566016929762916 -1.3789500515473696 1.6828993846617821 -1.874745671168703 -1.5707965597712024 1.6302524801090263 13171.34599999992
4.522098488981579 -1.3779415402424784 1.6816428945339927 -1.874497692003769 -1.5707965532865187 1.6245845968413415 13171.395999999919
4.474626680627545 -1.3768514319750413 1.6802847438919395 -1.8742296492594435 -1.5707965462771698 1.6184581346202391 13171.445999999918
4.4238207380238475 -1.3756847610605023 1.678831204918814 -1.8739427808051814 -1.5707965387755267 1.6119013865467775 13171.495999999917
4.369935649284402 -1.374447382861459 1.6772895727289723 -1.873638526394727 -1.5707965308192389 1.6049472600475096 13171.545999999917
4.3132583936518065 -1.3731458873616467 1.6756680576909702 -1.8733185064151359 -1.5707965224506795 1.597632791156009 13171.595999999916
4.254104177835144 -1.371787512739922 1.673975677750598 -1.8729845006357966 -1.5707965137163897 1.5899986587943984 13171.645999999915
4.192812672347786 -1.3703800589442472 1.672222150753917 -1.8726384269574534 -1.570796504666523 1.5820886990548748 13171.695999999914
4.129744247845192 -1.3689318012656735 1.6704177867702936 -1.8722823201612282 -1.5707964953542892 1.5739494194812382 13171.745999999914
4.065276211462712 -1.3674514039123251 1.668573380415436 -1.871918310657643 -1.5707964858353987 1.5656295133504166 13171.795999999913
3.9997990431533905 -1.365947833583383 1.6667001031744273 -1.8715486032356417 -1.570796476167507 1.5571793739539947 13171.845999999912
3.933712632025766 -1.3644302730430682 1.6648093957247636 -1.8711754558116132 -1.5707964664096588 1.5486506088797394 13171.895999999912
3.867422512681674 -1.3629080346946267 1.6629128602593872 -1.8708011581784123 -1.5707964566217325 1.5400955542931274 13171.94599999991
3.8013361015540488 -1.361390474154312 1.6610221528097235 -1.8704280107543838 -1.5707964468638842 1.531566789218872 13171.99599999991
3.735858933244727 -1.3598869038253698 1.659148875568715 -1.8700583033323825 -1.5707964371959926 1.52311664982245 13172.04599999991
3.6713908968622473 -1.3584065064720214 1.657304469213857 -1.8696942938287973 -1.570796427677102 1.5147967436916285 13172.095999999909
3.608322472359654 -1.3569582487934477 1.6555001052302338 -1.869338187032572 -1.5707964183648682 1.506657464117992 13172.145999999908
3.5470309668722955 -1.355550794997773 1.6537465782335528 -1.8689921133542289 -1.5707964093150015 1.4987475043784684 13172.195999999907
3.4878767510556337 -1.3541924203760485 1.6520541982931807 -1.8686581075748896 -1.5707964005807118 1.4911133720168577 13172.245999999906
3.431199495423038 -1.352890924876236 1.6504326832551786 -1.8683380875952984 -1.5707963922121524 1.4837989031253573 13172.295999999906
3.3773144066835927 -1.3516535466771926 1.6488910510653367 -1.868033833184844 -1.5707963842558645 1.4768447766260893 13172.345999999905
3.3265084640798936 -1.3504868757626536 1.6474375120922113 -1.867746964730582 -1.5707963767542215 1.4702880285526276 13172.395999999904
3.27903665572586 -1.3493967674952165 1.646079361450158 -1.8674789219862564 -1.5707963697448726 1.4641615663315255 13172.445999999904
3.235118214944524 -1.3483882561903253 1.6448228713223687 -1.8672309428213225 -1.570796363260189 1.4584936830638404 13172.495999999903
3.1949328566058393 -1.3474654686902532 1.643673183283906 -1.8670040419699692 -1.5707963573267054 1.4533075718066635 13172.545999999902
3.1586170134644878 -1.3466315379380878 1.6426342006247392 -1.8667989897801407 -1.5707963519645671 1.4486208398546445 13172.595999999901
3.126260072497666 -1.3458885165517136 1.6417084806727789 -1.8666162909625592 -1.570796347186972 1.4444450230215193 13172.6459999999
3.0979006112429097 -1.345237290397797 1.6408971271169128 -1.8664561633397472 -1.5707963429996161 1.4407850999216378 13172.6959999999
3.073522634135875 -1.3446774921657687 1.6401996823300415 -1.8663185165950489 -1.5707963394001379 1.437639006251489 13172.7459999999
3.05305180884815 -1.344207414941809 1.6396140196921125 -1.866202931021653 -1.5707963363775617 1.434997149071229 13172.795999999898
3.03635170262506 -1.3438239257828308 1.639136235913157 -1.8661086362716157 -1.570796333911743 1.432841921086208 13172.845999999898
3.023220018623457 -1.343522379290463 1.6387605433563237 -1.866034490104881 -1.5707963319728122 1.431147214928497 13172.895999999897
3.01338483224954 -1.3432965311850351 1.6384791623609163 -1.8659789571383052 -1.5707963305206187 1.4298779374384143 13172.945999999896
3.0065008274966356 -1.3431384518795608 1.6382822135654265 -1.8659400875946772 -1.5707963295041758 1.428989523946052 13172.995999999896
3.0021455332830254 -1.3430384400537216 1.6381576102305706 -1.8659154960517417 -1.570796328861104 1.4284274525528056 13173.045999999895
2.9998155597897167 -1.3429849362278503 1.638090950562325 -1.8659023401912214 -1.5707963285170767 1.428126758412897 13173.095999999894
2.9989228347982744 -1.342964436336916 1.6380654100349605 -1.865897299547839 -1.5707963283852633 1.4280115480149043 13173.145999999893
2.9987908400286054 -1.342961405304506 1.638061633714079 -1.8658965542583392 -1.570796328365774 1.427994513463287 13173.195999999893
2.9987908400286063 -1.342961405304506 1.638061633714079 -1.8658965542583392 -1.570796328365774 1.427994513463287 13173.245999999892
2.9987908375813794 -1.3427405478580317 1.6384527923103132 -1.8665085704197473 -1.570796328244215 1.427994511023567 13173.295999999891
2.998790822446168 -1.3413746244778415 1.640871966671366 -1.870293668895103 -1.570796327492416 1.4279944959347812 13173.34599999989
2.998790787031869 -1.338178552981371 1.6465324995625137 -1.8791502750004434 -1.5707963257333106 1.4279944606291126 13173.39599999989
2.998790728518931 -1.3328978742722388 1.6558850611537157 -1.8937835181388678 -1.5707963228268453 1.4279944022956577 13173.445999999889
2.998790647991797 -1.3256304572336688 1.6687563167642183 -1.9139221946937996 -1.570796318826887 1.4279943220155333 13173.495999999888
2.998790549571351 -1.3167482036219098 1.6844875946071576 -1.9385357309222473 -1.570796313938129 1.427994223896983 13173.545999999887
2.998790439547363 -1.306818752959659 1.7020735535341616 -1.9660511458480658 -1.5707963084729977 1.4279941142104835 13173.595999999887
2.9987903255109356 -1.296527187429481 1.7203008507799544 -1.994570014155218 -1.5707963028085596 1.4279940005238523 13173.645999999886
2.9987902154869475 -1.2865977367672303 1.7378868097069584 -2.0220854290810366 -1.5707962973434284 1.4279938908373528 13173.695999999885
2.9987901170665014 -1.2777154831554713 1.7536180875498977 -2.046698965309484 -1.5707962924546703 1.4279937927188024 13173.745999999885
2.9987900365393676 -1.2704480661169013 1.7664893431604003 -2.066837641864416 -1.570796288454712 1.4279937124386781 13173.795999999884
2.9987899780264295 -1.2651673874077691 1.7758419047516023 -2.0814708850028403 -1.5707962855482467 1.4279936541052232 13173.845999999883
2.9987899426121305 -1.2619713159112986 1.78150243764275 -2.090327491108181 -1.5707962837891414 1.4279936187995546 13173.895999999882
2.998789927476919 -1.2606053925311085 1.7839216120038028 -2.094112589583536 -1.5707962830373423 1.4279936037107688 13173.945999999882
2.9987899250296923 -1.260384535084634 1.784312770600037 -2.0947246057449442 -1.5707962829157833 1.4279936012710488 13173.995999999881
2.9987899250296923 -1.260384535084634 1.784312770600037 -2.0947246057449442 -1.5707962829157833 1.4279936012710488 13174.04599999988
2.9987899250296923 -1.260384535084634 1.784312770600037 -2.0947246057449442 -1.5707962829157833 1.4279936012710488 13174.09599999988
2.9987899250296923 -1.260384535084634 1.784312770600037 -2.0947246057449442 -1.5707962829157833 1.4279936012710488 13174.145999999879
2.9987899250296923 -1.260384535084634 1.784312770600037 -2.0947246057449442 -1.5707962829157833 1.4279936012710488 13174.195999999878
2.9987899250296923 -1.260384535084634 1.784312770600037 -2.0947246057449442 -1.5707962829157833 1.4279936012710488 13174.245999999877
2.9987899250296923 -1.260384535084634 1.784312770600037 -2.0947246057449447 -1.5707962829157833 1.4279936012710488 13174.295999999877
2.998789927476919 -1.2606053925311085 1.7839216120038028 -2.0941125895835366 -1.5707962830373423 1.4279936037107688 13174.345999999876
2.9987899426121305 -1.2619713159112986 1.78150243764275 -2.0903274911081806 -1.5707962837891414 1.4279936187995546 13174.395999999875
2.9987899780264295 -1.2651673874077691 1.7758419047516023 -2.0814708850028403 -1.5707962855482467 1.4279936541052232 13174.445999999874
2.9987900365393676 -1.2704480661169013 1.7664893431604003 -2.066837641864416 -1.570796288454712 1.4279937124386781 13174.495999999874
2.9987901170665014 -1.2777154831554713 1.7536180875498977 -2.0466989653094845 -1.5707962924546703 1.4279937927188024 13174.545999999873
2.9987902154869475 -1.2865977367672303 1.7378868097069584 -2.0220854290810366 -1.5707962973434284 1.4279938908373528 13174.595999999872
2.9987903255109356 -1.296527187429481 1.7203008507799544 -1.994570014155218 -1.5707963028085596 1.4279940005238523 13174.645999999871
2.998790439547363 -1.306818752959659 1.7020735535341616 -1.9660511458480658 -1.5707963084729977 1.4279941142104835 13174.69599999987
2.998790549571351 -1.3167482036219098 1.6844875946071576 -1.9385357309222473 -1.570796313938129 1.427994223896983 13174.74599999987
2.998790647991797 -1.3256304572336686 1.6687563167642183 -1.9139221946937996 -1.570796318826887 1.4279943220155333 13174.79599999987
2.998790728518931 -1.3328978742722388 1.6558850611537157 -1.893783518138868 -1.5707963228268453 1.4279944022956577 13174.845999999869
2.998790787031869 -1.338178552981371 1.6465324995625137 -1.8791502750004434 -1.5707963257333106 1.4279944606291126 13174.895999999868
2.998790822446168 -1.3413746244778415 1.640871966671366 -1.8702936688951028 -1.570796327492416 1.4279944959347812 13174.945999999867
2.9987908375813794 -1.3427405478580317 1.6384527923103132 -1.8665085704197475 -1.570796328244215 1.427994511023567 13174.995999999866
2.9987908400286063 -1.342961405304506 1.638061633714079 -1.8658965542583394 -1.570796328365774 1.427994513463287 13175.045999999866
2.9987908400286063 -1.342961405304506 1.638061633714079 -1.8658965542583394 -1.570796328365774 1.427994513463287 13175.095999999865
2.9987908400286063 -1.342961405304506 1.638061633714079 -1.8658965542583394 -1.570796328365774 1.427994513463287 13175.145999999864
2.9987908400286063 -1.342961405304506 1.638061633714079 -1.8658965542583394 -1.570796328365774 1.427994513463287 13175.195999999863
2.9987908400286063 -1.342961405304506 1.638061633714079 -1.8658965542583394 -1.570796328365774 1.427994513463287 13175.245999999863
2.9987908400286063 -1.342961405304506 1.638061633714079 -1.8658965542583394 -1.570796328365774 1.427994513463287 13175.295999999862
2.9987908400286063 -1.342961405304506 1.638061633714079 -1.8658965542583394 -1.570796328365774 1.427994513463287 13175.345999999861
2.9987908400286063 -1.342961405304506 1.638061633714079 -1.8658965542583394 -1.570796328365774 1.427994513463287 13175.39599999986
2.9987908400286063 -1.342961405304506 1.638061633714079 -1.8658965542583394 -1.570796328365774 1.427994513463287 13175.44599999986
2.9987908400286063 -1.342961405304506 1.638061633714079 -1.8658965542583394 -1.570796328365774 1.427994513463287 13175.49599999986
2.9987908400286063 -1.342961405304506 1.638061633714079 -1.8658965542583394 -1.570796328365774 1.427994513463287 13175.545999999858
2.9987908400286063 -1.342961405304506 1.638061633714079 -1.8658965542583394 -1.570796328365774 1.427994513463287 13175.595999999858
2.9987908400286063 -1.342961405304506 1.638061633714079 -1.8658965542583394 -1.570796328365774 1.427994513463287 13175.645999999857
2.9987908400286063 -1.342961405304506 1.638061633714079 -1.8658965542583394 -1.570796328365774 1.427994513463287 13175.695999999856
2.9987908400286063 -1.342961405304506 1.638061633714079 -1.8658965542583394 -1.570796328365774 1.427994513463287 13175.745999999855
2.9987908400286063 -1.342961405304506 1.638061633714079 -1.8658965542583394 -1.570796328365774 1.427994513463287 13175.795999999855
2.9987908400286063 -1.342961405304506 1.638061633714079 -1.8658965542583394 -1.570796328365774 1.427994513463287 13175.845999999854
2.9987908400286063 -1.342961405304506 1.638061633714079 -1.8658965542583394 -1.570796328365774 1.427994513463287 13175.895999999853
2.9987908400286063 -1.342961405304506 1.638061633714079 -1.8658965542583394 -1.570796328365774 1.427994513463287 13175.945999999853
2.9987908400286063 -1.342961405304506 1.638061633714079 -1.8658965542583394 -1.570796328365774 1.427994513463287 13175.995999999852
2.9987908400286063 -1.342961405304506 1.638061633714079 -1.8658965542583394 -1.570796328365774 1.427994513463287 13176.045999999851
2.9987908400286063 -1.342961405304506 1.638061633714079 -1.8658965542583394 -1.570796328365774 1.427994513463287 13176.09599999985
2.9987908400286063 -1.342961405304506 1.638061633714079 -1.8658965542583394 -1.570796328365774 1.427994513463287 13176.14599999985
2.9987908400286063 -1.342961405304506 1.638061633714079 -1.8658965542583394 -1.570796328365774 1.427994513463287 13176.195999999849
2.9987908400286063 -1.342961405304506 1.638061633714079 -1.8658965542583394 -1.570796328365774 1.427994513463287 13176.245999999848
2.9987908400286063 -1.342961405304506 1.638061633714079 -1.8658965542583394 -1.570796328365774 1.427994513463287 13176.295999999847
2.9987908400286063 -1.342961405304506 1.638061633714079 -1.8658965542583394 -1.570796328365774 1.427994513463287 13176.345999999847
2.9987908400286063 -1.342961405304506 1.638061633714079 -1.8658965542583394 -1.570796328365774 1.427994513463287 13176.395999999846
2.9987908400286063 -1.342961405304506 1.638061633714079 -1.8658965542583394 -1.570796328365774 1.427994513463287 13176.445999999845
2.9987908400286063 -1.342961405304506 1.638061633714079 -1.8658965542583394 -1.570796328365774 1.427994513463287 13176.495999999845
2.9987908400286063 -1.342961405304506 1.638061633714079 -1.8658965542583394 -1.570796328365774 1.427994513463287 13176.545999999844
2.9987908400286063 -1.342961405304506 1.638061633714079 -1.8658965542583394 -1.570796328365774 1.427994513463287 13176.595999999843
2.9987908400286063 -1.342961405304506 1.638061633714079 -1.8658965542583394 -1.570796328365774 1.427994513463287 13176.645999999842
2.9987908400286063 -1.342961405304506 1.638061633714079 -1.8658965542583392 -1.570796328365774 1.427994513463287 13176.695999999842
2.9989293451024603 -1.3429704590962062 1.6380725530469444 -1.8658984198377797 -1.5707963284533968 1.428003556894504 13176.745999999841
2.999864755577403 -1.3430316049543225 1.6381462980590036 -1.8659110192502193 -1.570796329045168 1.4280646327818654 13176.79599999984
3.0023020605540616 -1.3431909265658304 1.6383384480185248 -1.8659438482717714 -1.570796330587087 1.4282237720776159 13176.84599999984
3.0068498708762683 -1.3434882075693588 1.638696984015329 -1.866005104521815 -1.5707963334641803 1.4285207128949589 13176.895999999839
3.0140247026091416 -1.3439572115573397 1.63926262665761 -1.866101745158849 -1.5707963380032135 1.4289891801897918 13176.945999999838
3.024255260517163 -1.3446259620781567 1.6400691737687558 -1.8662395445763484 -1.570796344475399 1.4296571654424415 13176.995999999837
3.037886721542261 -1.345517022638293 1.6411438380841659 -1.8664231520986179 -1.5707963530991067 1.4305472063393991 13177.045999999837
3.0551850182818865 -1.346647776704481 1.642507584948073 -1.8666561496766467 -1.5707963640425748 1.431676666455056 13177.095999999836
3.0763411224670962 -1.3480307077058513 1.6441754700103626 -1.8669411095839645 -1.570796377426618 1.4330580149334375 13177.145999999835
3.101475328440629 -1.3496736790360795 1.646156976923392 -1.8672796521124955 -1.5707963933273383 1.4346991061699395 13177.195999999834
3.13064153663499 -1.351580214055537 1.6484563550388112 -1.8676725032684134 -1.5707964117788353 1.4366034594930623 13177.245999999834
3.163831537050525 -1.353749776093439 1.651072957104382 -1.8681195524679963 -1.5707964327759145 1.4387705388461471 13177.295999999833
3.200979292733505 -1.3561780484499926 1.6540015769607987 -1.8686199102334817 -1.5707964562767993 1.4411960324691104 13177.345999999832
3.241965223254203 -1.3588572143985467 1.6572327872385066 -1.8691719658889212 -1.570796482205839 1.443872132580179 13177.395999999831
3.286620488184975 -1.3617762371877393 1.6607532770545232 -1.8697734452560357 -1.5707965104562194 1.4467878150576254 13177.44599999983
3.334731270578341 -1.3649211400436474 1.6645461897092573 -1.8704214683500695 -1.5707965408926732 1.4499291191215034 13177.49599999983
3.3860430604450604 -1.3682752861719352 1.6685914603833294 -1.8711126070756463 -1.570796573354189 1.453279427015382 13177.54599999983
3.440264938232217 -1.3718196587600027 1.6728661538343905 -1.8718429429226227 -1.5707966076567215 1.4568197436880819 13177.595999999829
3.497073858301295 -1.3755331409791347 1.6773448020939439 -1.8726081246619446 -1.5707966435959015 1.4605289764754106 13177.645999999828
3.5561189324062608 -1.3793927959866497 1.6819997421641624 -1.8734034260415005 -1.5707966809497458 1.4643842147818962 13177.695999999827
3.6170257131716426 -1.3833741469280476 1.6868014537147105 -1.8742238034819776 -1.5707967194813666 1.4683610097625237 13177.745999999826
3.6794004775706086 -1.3874514569391596 1.6917188967795633 -1.8750639537727163 -1.5707967589416818 1.4724336540044705 13177.795999999826
3.742834510403049 -1.3915980091482965 1.6967198494538265 -1.8759183717675647 -1.5707967990721248 1.47657546120884 13177.845999999825
3.806908387773653 -1.3957863866783968 1.7017712455905551 -1.8767814080807337 -1.5707968396073544 1.4807590458723985 13177.895999999824
3.871196260569992 -1.3999887526491763 1.7068395124975762 -1.8776473267826521 -1.5707968802779644 1.4849566029693093 13177.945999999823
3.935270137940596 -1.4041771301792767 1.7118909086343048 -1.878510363095821 -1.570796920813194 1.4891401876328678 13177.995999999823
3.998704170773036 -1.4083236823884135 1.7168918613085677 -1.8793647810906695 -1.570796960943637 1.4932819948372373 13178.045999999822
4.061078935172002 -1.4124009923995255 1.7218093043734206 -1.8802049313814082 -1.5707970004039522 1.497354639079184 13178.095999999821
4.1219857159373845 -1.4163823433409235 1.726611015923969 -1.8810253088218853 -1.570797038935573 1.5013314340598116 13178.14599999982
4.18103079004235 -1.4202419983484385 1.7312659559941874 -1.8818206102014412 -1.5707970762894172 1.5051866723662972 13178.19599999982
4.2378397101114285 -1.4239554805675705 1.7357446042537408 -1.8825857919407631 -1.5707971122285973 1.508895905153626 13178.24599999982
4.292061587898584 -1.427499853155638 1.740019297704802 -1.8833161277877395 -1.5707971465311297 1.5124362218263259 13178.295999999818
4.343373377765305 -1.4308539992839258 1.744064568378874 -1.8840072665133163 -1.5707971789926456 1.5157865297202044 13178.345999999818
4.39148416015867 -1.433998902139834 1.747857481033608 -1.88465528960735 -1.5707972094290994 1.5189278337840824 13178.395999999817
4.436139425089443 -1.4369179249290265 1.7513779708496247 -1.8852567689744646 -1.5707972376794799 1.5218435162615287 13178.445999999816
4.47712535561014 -1.4395970908775806 1.7546091811273326 -1.885808824629904 -1.5707972636085195 1.5245196163725974 13178.495999999815
4.514273111293119 -1.4420253632341342 1.7575378009837492 -1.8863091823953895 -1.5707972871094042 1.5269451099955604 13178.545999999815
4.547463111708654 -1.444194925272036 1.7601544030493201 -1.8867562315949724 -1.5707973081064834 1.5291121893486457 13178.595999999814
4.576629319903015 -1.4461014602914937 1.7624537811647394 -1.8871490827508903 -1.5707973265579804 1.5310165426717686 13178.645999999813
4.601763525876549 -1.447744431621722 1.7644352880777687 -1.8874876252794213 -1.5707973424587007 1.5326576339082703 13178.695999999813
4.62291963006176 -1.449127362623092 1.7661031731400583 -1.887772585186739 -1.570797355842744 1.5340389823866518 13178.745999999812
4.640217926801383 -1.45025811668928 1.7674669200039654 -1.888005582764768 -1.570797366786212 1.5351684425023087 13178.795999999811
4.65384938782648 -1.4511491772494165 1.7685415843193755 -1.8881891902870374 -1.5707973754099198 1.5360584833992663 13178.84599999981
4.6640799457345015 -1.4518179277702332 1.769348131430521 -1.8883269897045367 -1.5707973818821053 1.5367264686519162 13178.89599999981
4.671254777467373 -1.4522869317582143 1.7699137740728024 -1.888423630341571 -1.5707973864211384 1.537194935946749 13178.945999999809
4.675802587789582 -1.4525842127617428 1.7702723100696065 -1.8884848865916144 -1.5707973892982319 1.537491876764092 13178.995999999808
4.678239892766241 -1.4527435343732507 1.7704644600291277 -1.8885177156131665 -1.5707973908401507 1.5376510160598424 13179.045999999807
4.679175303241183 -1.452804680231367 1.7705382050411869 -1.888530315025606 -1.570797391431922 1.537712091947204 13179.095999999807
4.679313808315037 -1.4528137340230671 1.7705491243740523 -1.8885321806050466 -1.5707973915195448 1.5377211353784208 13179.145999999806
4.679313808315039 -1.4528137340230671 1.7705491243740523 -1.8885321806050466 -1.5707973915195448 1.5377211353784208 13179.195999999805
4.679313805721838 -1.4525715252642073 1.7709515278660957 -1.8891767916170832 -1.5707973886716573 1.537721132836989 13179.245999999805
4.679313789683828 -1.4510735517437556 1.7734402478383051 -1.893163477447803 -1.5707973710585041 1.5377211171191536 13179.295999999804
4.679313752157106 -1.4475685012111865 1.7792635078258228 -1.9024917700400081 -1.5707973298461655 1.5377210803415962 13179.345999999803
4.679313690153936 -1.441777314830591 1.7888849337131296 -1.9179043526867392 -1.5707972617534711 1.5377210195762268 13179.395999999802
4.679313604823449 -1.4338073229234727 1.8021262078523486 -1.939115577967596 -1.57079716804241 1.5377209359492339 13179.445999999802
4.6793135005323325 -1.424066380711545 1.8183097231815455 -1.9650399856850573 -1.5707970535085378 1.5377208337401334 13179.495999999801
4.679313383945535 -1.4131770040595288 1.8364012373430307 -1.9940208208008015 -1.5707969254713885 1.5377207194808173 13179.5459999998
4.6793132631069625 -1.4018905052179493 1.8551525268016624 -2.024058551372027 -1.5707967927648818 1.5377206010546045 13179.5959999998
4.679313146520165 -1.3910011285659332 1.8732440409631477 -2.053039386487771 -1.5707966647277325 1.5377204867952885 13179.645999999799
4.679313042229049 -1.3812601863540055 1.8894275562923444 -2.078963794205232 -1.5707965501938603 1.537720384586188 13179.695999999798
4.679312956898562 -1.3732901944468872 1.9026688304315633 -2.100175019486089 -1.5707964564827992 1.537720300959195 13179.745999999797
4.679312894895392 -1.3674990080662917 1.9122902563188706 -2.11558760213282 -1.5707963883901048 1.5377202401938257 13179.795999999797
4.67931285736867 -1.3639939575337225 1.918113516306388 -2.1249158947250253 -1.5707963471777662 1.5377202034162682 13179.845999999796
4.67931284133066 -1.3624959840132709 1.9206022362785975 -2.1289025805557453 -1.570796329564613 1.5377201876984328 13179.895999999795
4.6793128387374585 -1.362253775254411 1.9210046397706408 -2.1295471915677817 -1.5707963267167255 1.537720185157001 13179.945999999794
4.6793128387374585 -1.362253775254411 1.9210046397706408 -2.1295471915677817 -1.5707963267167255 1.537720185157001 13179.995999999794
4.6793128387374585 -1.362253775254411 1.9210046397706408 -2.1295471915677817 -1.5707963267167255 1.537720185157001 13180.045999999793
4.6793128387374585 -1.362253775254411 1.9210046397706408 -2.1295471915677817 -1.5707963267167255 1.537720185157001 13180.095999999792
4.6793128387374585 -1.362253775254411 1.9210046397706408 -2.1295471915677817 -1.5707963267167255 1.537720185157001 13180.145999999791
4.6793128387374585 -1.362253775254411 1.9210046397706408 -2.1295471915677817 -1.5707963267167255 1.537720185157001 13180.19599999979
4.6793128387374585 -1.362253775254411 1.9210046397706408 -2.1295471915677817 -1.5707963267167255 1.537720185157001 13180.24599999979
4.6793128387374585 -1.362253775254411 1.9210046397706408 -2.1295471915677817 -1.5707963267167255 1.537720185157001 13180.29599999979
4.6793128387374585 -1.362253775254411 1.9210046397706408 -2.1295471915677817 -1.5707963267167255 1.537720185157001 13180.345999999789
4.6793128387374585 -1.362253775254411 1.9210046397706408 -2.1295471915677817 -1.5707963267167255 1.537720185157001 13180.395999999788
4.6793128387374585 -1.362253775254411 1.9210046397706408 -2.1295471915677817 -1.5707963267167255 1.537720185157001 13180.445999999787
4.6793128387374585 -1.362253775254411 1.9210046397706408 -2.1295471915677817 -1.5707963267167255 1.537720185157001 13180.495999999786
4.6793128387374585 -1.362253775254411 1.9210046397706408 -2.1295471915677817 -1.5707963267167255 1.537720185157001 13180.545999999786
4.6793128387374585 -1.362253775254411 1.9210046397706408 -2.1295471915677817 -1.5707963267167255 1.537720185157001 13180.595999999785
4.6793128387374585 -1.362253775254411 1.9210046397706408 -2.1295471915677817 -1.5707963267167255 1.537720185157001 13180.645999999784
4.67931284133066 -1.3624959840132709 1.9206022362785975 -2.128902580555745 -1.570796329564613 1.5377201876984328 13180.695999999783
4.67931285736867 -1.3639939575337225 1.918113516306388 -2.1249158947250253 -1.5707963471777662 1.5377202034162682 13180.745999999783
4.679312894895392 -1.3674990080662917 1.9122902563188704 -2.11558760213282 -1.5707963883901048 1.5377202401938257 13180.795999999782
4.679312956898562 -1.3732901944468872 1.9026688304315635 -2.100175019486089 -1.5707964564827992 1.537720300959195 13180.845999999781
4.679313042229049 -1.3812601863540055 1.8894275562923446 -2.0789637942052326 -1.5707965501938603 1.537720384586188 13180.89599999978
4.679313146520165 -1.3910011285659332 1.8732440409631477 -2.053039386487771 -1.5707966647277325 1.5377204867952885 13180.94599999978
4.6793132631069625 -1.4018905052179493 1.8551525268016624 -2.024058551372027 -1.5707967927648818 1.5377206010546045 13180.995999999779
4.679313383945535 -1.4131770040595288 1.8364012373430307 -1.9940208208008015 -1.5707969254713885 1.5377207194808173 13181.045999999778
4.6793135005323325 -1.424066380711545 1.8183097231815455 -1.9650399856850573 -1.5707970535085378 1.5377208337401334 13181.095999999778
4.679313604823449 -1.4338073229234727 1.8021262078523488 -1.9391155779675961 -1.57079716804241 1.5377209359492339 13181.145999999777
4.679313690153936 -1.441777314830591 1.7888849337131298 -1.9179043526867394 -1.5707972617534711 1.5377210195762268 13181.195999999776
4.679313752157106 -1.4475685012111865 1.7792635078258225 -1.902491770040008 -1.5707973298461655 1.5377210803415962 13181.245999999775
4.679313789683828 -1.4510735517437556 1.7734402478383051 -1.8931634774478028 -1.5707973710585041 1.5377211171191536 13181.295999999775
4.679313805721838 -1.4525715252642073 1.7709515278660957 -1.889176791617083 -1.5707973886716573 1.537721132836989 13181.345999999774
4.679313808315039 -1.4528137340230671 1.7705491243740523 -1.8885321806050466 -1.5707973915195448 1.5377211353784208 13181.395999999773
4.679313808315039 -1.4528137340230671 1.7705491243740523 -1.8885321806050466 -1.5707973915195448 1.5377211353784208 13181.445999999773
4.679173757451438 -1.4528184193051188 1.7705543144394804 -1.8885326853580306 -1.570797391421642 1.5375810845170481 13181.495999999772
4.6782279073017525 -1.4528500619142104 1.7705893661630885 -1.8885360942672886 -1.570797390760444 1.5366352343824106 13181.545999999771
4.675763400714797 -1.452932509877623 1.7706806969132551 -1.8885449765192217 -1.5707973890376266 1.5341707278346657 13181.59599999977
4.671164834428413 -1.453086350985996 1.7708511125700241 -1.8885615500696855 -1.5707973858229916 1.5295721616214435 13181.64599999977
4.663909927785502 -1.4533290576927345 1.771119968035696 -1.8885876972542357 -1.5707973807514373 1.522317255093958 13181.695999999769
4.653565191450081 -1.4536751320134154 1.7715033277454215 -1.888624980398375 -1.5707973735199328 1.5119725189231206 13181.745999999768
4.639781596123315 -1.4541362504251936 1.7720141261777944 -1.8886746574277997 -1.5707973638844883 1.4981889238156512 13181.795999999767
4.62229024125957 -1.4547214087662073 1.7726623283654435 -1.888737697478646 -1.5707973516571285 1.4806975692301916 13181.845999999767
4.600898023782447 -1.455437067134986 1.7734550904056257 -1.8888147965077366 -1.5707973367028645 1.4593053520934174 13181.895999999766
4.575483306800835 -1.456287294789856 1.774396919970819 -1.8889063929028271 -1.5707973189366657 1.4338906355161505 13181.945999999765
4.545991588324944 -1.4572739150483454 1.7754898368193144 -1.8890126830928522 -1.5707972983204326 1.4043989175094713 13181.995999999765
4.512431169982361 -1.4583966501865924 1.7767335333058094 -1.889133637158173 -1.5707972748599681 1.3708384997008312 13182.045999999764
4.47486882573408 -1.4596532663387507 1.7781255348920002 -1.889269014440823 -1.5707972486019508 1.3332761560501647 13182.095999999763
4.433425470590557 -1.4610397183963952 1.7796613606571745 -1.889418379154754 -1.5707972196309068 1.2918328015660019 13182.145999999762
4.388271829327746 -1.4625502949079292 1.781334683808804 -1.889581115996084 -1.5707971880661813 1.2466791610215813 13182.195999999762
4.339624105203145 -1.4641777629779902 1.7831374921931376 -1.889756445753342 -1.5707971540589114 1.198031437670961 13182.24599999976
4.287739648671838 -1.4659135131668557 1.7850602488057932 -1.8899434409177158 -1.5707971177889988 1.1461469819651326 13182.29599999976
4.232912626102545 -1.467747704389851 1.7870920523023515 -1.8901410412932982 -1.5707970794620805 1.0913199602681323 13182.34599999976
4.175469688493653 -1.4696694088167532 1.7892207975089474 -1.8903480696073331 -1.5707970393065025 1.0338770235731536 13182.395999999759
4.115765640189273 -1.4716667567711998 1.7914333359328642 -1.8905632471204623 -1.5707969975702916 0.9741729762186595 13182.445999999758
4.054179107595272 -1.4737270816300931 1.793715636273125 -1.8907852092369717 -1.5707969545181268 0.9125864446044956 13182.495999999757
3.9911082078953255 -1.4758370647230077 1.7960529449310858 -1.8910125211150384 -1.5707969104283128 0.849515545908002 13182.545999999757
3.9269662177669544 -1.4779828802315957 1.7984299465210283 -1.8912436932769765 -1.5707968655897515 0.7853735568001247 13182.595999999756
3.862177242097572 -1.4801503400889944 1.8008309243807525 -1.8914771972194837 -1.570796820298914 0.7205845821615299 13182.645999999755
3.797171882700527 -1.4823250388792306 1.8032399210821695 -1.8917114810238886 -1.5707967748568128 0.6555792237987141 13182.695999999754
3.732382907031145 -1.4844924987366293 1.8056408989418937 -1.8919449849663958 -1.5707967295659753 0.5907902491601198 13182.745999999754
3.668240916902774 -1.4866383142452173 1.8080179005318362 -1.892176157128334 -1.570796684727414 0.5266482600522426 13182.795999999753
3.6051700172028274 -1.4887482973381319 1.810355209189797 -1.8924034690064007 -1.5707966406376 0.46357736135574856 13182.845999999752
3.5435834846088268 -1.4908086221970251 1.8126375095300578 -1.89262543112291 -1.5707965975854352 0.4019908297415846 13182.895999999751
3.4838794363044463 -1.4928059701514718 1.8148500479539746 -1.8928406086360392 -1.5707965558492243 0.34228678238709054 13182.94599999975
3.4264364986955544 -1.494727674578374 1.8169787931605708 -1.8930476369500742 -1.5707965156936463 0.2848438456921112 13182.99599999975
3.3716094761262614 -1.4965618658013693 1.8190105966571288 -1.8932452373256565 -1.570796477366728 0.23001682399511147 13183.04599999975
3.319725019594955 -1.4982976159902348 1.8209333532697844 -1.8934322324900303 -1.5707964410968154 0.1781323682892828 13183.095999999749
3.2710772954703535 -1.4999250840602958 1.822736161654118 -1.8936075622472883 -1.5707964070895455 0.12948464493866285 13183.145999999748
3.2259236542075427 -1.5014356605718298 1.8244094848057475 -1.8937702990886183 -1.57079637552482 0.08433100439424202 13183.195999999747
3.1844802990640195 -1.5028221126294743 1.8259453105709218 -1.8939196638025493 -1.570796346553776 0.042887649910079206 13183.245999999746
3.1469179548157395 -1.5040787287816326 1.8273373121571126 -1.8940550410851993 -1.5707963202957587 0.005325306259412521 13183.295999999746
3.1133575364731554 -1.5052014639198796 1.8285810086436076 -1.8941759951505202 -1.5707962968352942 -0.02823511154922742 13183.345999999745
3.0838658179972653 -1.506188084178369 1.829673925492103 -1.8942822853405452 -1.570796276219061 -0.05772682955590702 13183.395999999744
3.058451101015652 -1.5070383118332389 1.8306157550572963 -1.8943738817356357 -1.5707962584528623 -0.08314154613317504 13183.445999999743
3.0370588835385295 -1.5077539702020177 1.8314085170974785 -1.8944509807647263 -1.5707962434985983 -0.10453376326994923 13183.495999999743
4.679253101348877 -1.4528230738690873 1.7705519835101526 -1.888477464715475 -1.5707805792437952 1.5376651287078857 13184.895999999999
4.679275530019508 -1.4528069823079328 1.770531330654774 -1.8884729065452937 -1.5707805802632733 1.5377901031581773 13184.945999999998
4.67942742406521 -1.4526980051703406 1.7703914629911803 -1.8884420371762962 -1.5707805871675007 1.5386364696315256 13184.995999999997
4.67982447175375 -1.452413141333943 1.7700258520004746 -1.8883613453259311 -1.570780605214999 1.5408488529435076 13185.045999999997
4.680567869511938 -1.451879786919651 1.76934131359689 -1.8882102648829595 -1.5707806390055743 1.5449911281458406 13185.095999999996
4.681744913429344 -1.451035310914378 1.76825746345705 -1.8879710546963808 -1.5707806925072034 1.5515497164351106 13185.145999999995
4.683429590762002 -1.449826630793764 1.7667061723492272 -1.8876286783643583 -1.5707807690829203 1.5609368810615014 13185.195999999994
4.685683171436133 -1.4482097881448972 1.7646310214626044 -1.8871706840231464 -1.5707808715177025 1.5734940232375234 13185.245999999994
4.688554799551848 -1.4461495242890383 1.761986757736534 -1.886587084136016 -1.5707810020453574 1.5894949780467436 13185.295999999993
4.6920820848868665 -1.4436188559043444 1.7587387491897981 -1.8858702352821797 -1.5707811623754087 1.609149310352513 13185.345999999992
4.696291694400227 -1.4405986506485902 1.7548624402498691 -1.8850147179457195 -1.5707813537199824 1.6326056107066966 13185.395999999992
4.701199943735997 -1.4370772027818937 1.7503428070821687 -1.8840172163045117 -1.5707815768206939 1.6599547912584023 13185.44599999999
4.706813388726991 -1.4330498087894383 1.7451738129193286 -1.882876398019153 -1.5707818319755333 1.6912333816627099 13185.49599999999
4.7131294168984805 -1.428518343004196 1.7393578633904507 -1.8815927940218868 -1.5707821190657527 1.7264268249893993 13185.54599999999
4.720136838971902 -1.4234908332296508 1.7329052618503662 -1.880168678305529 -1.570782437582752 1.7654727736316809 13185.595999999989
4.727816480368576 -1.4179810363625227 1.7258336647088968 -1.8786079477123943 -1.5707827866549653 1.8082643852149232 13185.645999999988
4.736141772713417 -1.41200801401549 1.7181675367601132 -1.876916001723222 -1.5707831650747475 1.8546536185053828 13185.695999999987
4.745079345338646 -1.4055957081399133 1.7099376065115972 -1.8750996222461023 -1.5707835713252607 1.9044545293189326 13185.745999999986
4.754589616787502 -1.3987725166485583 1.7011803215136994 -1.8731668534054018 -1.57078400360736 1.9574465664297915 13185.795999999986
4.764627386317956 -1.3915708690383195 1.6919373036888008 -1.8711268813306903 -1.57078445986648 2.013377867479253 13185.845999999985
4.775142425406423 -1.3840268020129434 1.6822548046605723 -1.8689899139456656 -1.5707849378195222 2.071968554884414 13185.895999999984
4.786080069251473 -1.3761795351057518 1.672183161083235 -1.8667670607570814 -1.5707854349817396 2.132914031746904 13185.945999999984
4.797381808277548 -1.3680710463023646 1.6617762499708189 -1.8644702126436712 -1.5707859486936244 2.1958882777616155 13185.995999999983
4.808985879638666 -1.3597456476634242 1.6510909440264254 -1.862111921645076 -1.5707864761477937 2.2605471451254284 13186.045999999982
4.8208278587221445 -1.3512495609473179 1.6401865669714848 -1.8597052807507695 -1.5707870144158762 2.3265316544459456 13186.095999999981
4.8328412506523035 -1.342630493232901 1.6291243488750178 -1.8572638036889844 -1.5707875604753982 2.393471290650216 13186.14599999998
4.844958081794184 -1.3339372125422213 1.617966881482895 -1.8548013047156378 -1.5707881112366704 2.460987298893468 13186.19599999998
4.8571094912572566 -1.3252191234632413 1.6067775735470968 -1.8523317784032585 -1.5707886635696735 2.528695980467835 13186.24599999998
4.869226322399137 -1.3165258427725617 1.595620106154974 -1.849869279429912 -1.5707892143309456 2.5962119887110866 13186.295999999978
4.881239714329296 -1.3079067750581448 1.584557888058507 -1.8474278023681268 -1.5707897603904677 2.6631516249153577 13186.345999999978
4.893081693412775 -1.2994106883420384 1.5736535110035663 -1.8450211614738201 -1.5707902986585502 2.7291361342358744 13186.395999999977
4.904685764773893 -1.2910852897030982 1.5629682050591729 -1.842662870475225 -1.5707908261127195 2.7937950015996873 13186.445999999976
4.9159875037999665 -1.2829768008997111 1.552561293946757 -1.8403660223618148 -1.5707913398246043 2.8567692476143987 13186.495999999976
4.926925147645017 -1.2751295339925193 1.5424896503694194 -1.8381431691732304 -1.5707918369868217 2.9177147244768884 13186.545999999975
4.937440186733484 -1.2675854669671434 1.532807151341191 -1.836006201788206 -1.570792314939864 2.976305411882049 13186.595999999974
4.947477956263938 -1.2603838193569046 1.5235641335162924 -1.8339662297134944 -1.570792771198984 3.0322367129315113 13186.645999999973
4.956988227712794 -1.2535606278655496 1.5148068485183948 -1.832033460872794 -1.5707932034810832 3.0852287500423703 13186.695999999973
4.965925800338024 -1.2471483219899728 1.5065769182698785 -1.8302170813956742 -1.5707936097315964 3.1350296608559205 13186.745999999972
4.974251092682865 -1.24117529964294 1.4989107903210952 -1.828525135406502 -1.5707939881513786 3.181418894146381 13186.795999999971
4.98193073407954 -1.2356655027758119 1.4918391931796253 -1.8269644048133673 -1.570794337223592 3.224210505729623 13186.84599999997
4.98893815615296 -1.2306379930012668 1.485386591639541 -1.8255402890970094 -1.5707946557405912 3.263256454371904 13186.89599999997
4.995254184324449 -1.226106527216024 1.4795706421106627 -1.8242566850997433 -1.5707949428308106 3.2984498976985934 13186.945999999969
5.000867629315444 -1.222079133223569 1.4744016479478232 -1.8231158668143845 -1.57079519798565 3.329728488102899 13186.995999999968
5.005775878651214 -1.2185576853568725 1.4698820147801224 -1.8221183651731765 -1.5707954210863615 3.3570776686546075 13187.045999999968
5.009985488164574 -1.2155374801011185 1.4660057058401934 -1.8212628478367165 -1.5707956124309352 3.3805339690087894 13187.095999999967
5.013512773499592 -1.2130068117164243 1.462757697293458 -1.8205459989828803 -1.5707957727609865 3.400188301314559 13187.145999999966
5.016384401615308 -1.210946547860566 1.4601134335673875 -1.8199623990957499 -1.5707959032886414 3.4161892561237774 13187.195999999965
5.018637982289439 -1.2093297052116987 1.458038282680764 -1.819504404754538 -1.5707960057234236 3.4287463982998005 13187.245999999965
5.020322659622098 -1.2081210250910848 1.4564869915729415 -1.8191620284225154 -1.5707960822991405 3.4381335629261898 13187.295999999964
5.021499703539503 -1.207276549085812 1.4554031414331017 -1.8189228182359365 -1.5707961358007696 3.4446921512154614 13187.345999999963
5.02224310129769 -1.20674319467152 1.4547186030295176 -1.8187717377929649 -1.5707961695913448 3.4488344264177915 13187.395999999962
5.0226401489862305 -1.206458330835122 1.4543529920388116 -1.8186910459426002 -1.5707961876388432 3.451046809729773 13187.445999999962
5.022792043031933 -1.2063493536975303 1.454213124375217 -1.8186601765736026 -1.5707961945430706 3.451893176203125 13187.495999999961
5.022814471702564 -1.2063332621363756 1.454192471519839 -1.8186556184034213 -1.5707961955625487 3.4520181506534158 13187.54599999996
5.022814471702564 -1.2063332621363754 1.454192471519839 -1.8186556184034213 -1.5707961955625487 3.4520181506534175 13187.59599999996
5.0228144646695245 -1.2060992651767715 1.4546656975756227 -1.8193628413239213 -1.570796195181164 3.4520181436701725 13187.645999999959
5.022814421590161 -1.2046659671713615 1.4575643419127566 -1.8236947830852528 -1.5707961928450747 3.452018100895808 13187.695999999958
5.02281432203822 -1.201353764194189 1.4642628082240063 -1.8337054510305535 -1.5707961874466148 3.4520180020486904 13187.745999999957
5.022814160005983 -1.1959627727376192 1.4751653328895968 -1.8499989649666286 -1.5707961786599998 3.452017841163632 13187.795999999957
5.022813941020551 -1.1886768856286762 1.4899000184397213 -1.8720195346712176 -1.5707961667849513 3.4520176237286053 13187.845999999956
5.022813679260146 -1.1799678279453767 1.5075128670170483 -1.8983414374002598 -1.57079615259032 3.452017363821451 13187.895999999955
5.022813394670402 -1.1704992129330667 1.5266618138392305 -1.9269589953951622 -1.570796137157709 3.452017081246587 13187.945999999954
5.022813110080659 -1.1610305979207567 1.5458107606614129 -1.9555765533900642 -1.570796121725098 3.452016798671723 13187.995999999954
5.022812848320254 -1.1523215402374571 1.5634236092387397 -1.9818984561191066 -1.5707961075304668 3.4520165387645685 13188.045999999953
5.022812629334822 -1.145035653128514 1.5781582947888642 -2.0039190258236954 -1.5707960956554183 3.4520163213295416 13188.095999999952
5.022812467302584 -1.1396446616719442 1.5890608194544547 -2.020212539759771 -1.5707960868688033 3.4520161604444835 13188.145999999952
5.022812367750643 -1.1363324586947716 1.5957592857657044 -2.0302232077050713 -1.5707960814703434 3.452016061597366 13188.19599999995
5.02281232467128 -1.1348991606893617 1.5986579301028383 -2.034555149466403 -1.5707960791342541 3.4520160188230014 13188.24599999995
5.022812317638241 -1.1346651637297578 1.599131156158622 -2.035262372386903 -1.5707960787528694 3.4520160118397563 13188.29599999995
5.022812317638241 -1.1346651637297578 1.599131156158622 -2.035262372386903 -1.5707960787528694 3.4520160118397563 13188.345999999949
5.022812317638241 -1.1346651637297578 1.599131156158622 -2.035262372386903 -1.5707960787528694 3.4520160118397563 13188.395999999948
5.022812317638241 -1.1346651637297578 1.599131156158622 -2.035262372386903 -1.5707960787528694 3.4520160118397563 13188.445999999947
5.022812317638241 -1.1346651637297578 1.599131156158622 -2.035262372386903 -1.5707960787528694 3.4520160118397563 13188.495999999946
5.022812317638241 -1.1346651637297578 1.599131156158622 -2.035262372386903 -1.5707960787528694 3.4520160118397563 13188.545999999946
5.022812317638241 -1.1346651637297578 1.599131156158622 -2.035262372386903 -1.5707960787528694 3.4520160118397563 13188.595999999945
5.022812317638241 -1.1346651637297578 1.599131156158622 -2.035262372386903 -1.5707960787528694 3.4520160118397563 13188.645999999944
5.022812317638241 -1.1346651637297578 1.599131156158622 -2.035262372386903 -1.5707960787528694 3.4520160118397563 13188.695999999944
5.022812317638241 -1.1346651637297578 1.599131156158622 -2.035262372386903 -1.5707960787528694 3.4520160118397563 13188.745999999943
5.022812317638241 -1.1346651637297578 1.599131156158622 -2.035262372386903 -1.5707960787528694 3.4520160118397563 13188.795999999942
5.022812317638241 -1.1346651637297578 1.599131156158622 -2.035262372386903 -1.5707960787528694 3.4520160118397563 13188.845999999941
5.022812317638241 -1.1346651637297578 1.599131156158622 -2.035262372386903 -1.5707960787528694 3.4520160118397563 13188.89599999994
5.022812317638241 -1.1346651637297578 1.599131156158622 -2.035262372386903 -1.5707960787528694 3.4520160118397563 13188.94599999994
5.022812317638241 -1.1346651637297578 1.599131156158622 -2.035262372386903 -1.5707960787528694 3.4520160118397563 13188.99599999994
5.02281232467128 -1.1348991606893617 1.5986579301028383 -2.034555149466403 -1.5707960791342541 3.4520160188230014 13189.045999999938
5.022812367750643 -1.1363324586947716 1.5957592857657044 -2.0302232077050717 -1.5707960814703434 3.452016061597366 13189.095999999938
5.022812467302584 -1.1396446616719442 1.5890608194544547 -2.020212539759771 -1.5707960868688033 3.4520161604444835 13189.145999999937
5.022812629334822 -1.145035653128514 1.5781582947888642 -2.0039190258236954 -1.5707960956554183 3.4520163213295416 13189.195999999936
5.022812848320254 -1.152321540237457 1.5634236092387397 -1.9818984561191066 -1.5707961075304668 3.4520165387645685 13189.245999999936
5.022813110080659 -1.1610305979207565 1.5458107606614127 -1.9555765533900644 -1.570796121725098 3.452016798671723 13189.295999999935
5.022813394670402 -1.1704992129330667 1.5266618138392305 -1.9269589953951622 -1.570796137157709 3.452017081246587 13189.345999999934
5.022813679260146 -1.1799678279453767 1.5075128670170481 -1.8983414374002598 -1.57079615259032 3.452017363821451 13189.395999999933
5.022813941020551 -1.1886768856286762 1.4899000184397213 -1.8720195346712178 -1.5707961667849513 3.4520176237286053 13189.445999999933
5.022814160005983 -1.1959627727376192 1.4751653328895968 -1.8499989649666289 -1.5707961786599998 3.452017841163632 13189.495999999932
5.02281432203822 -1.201353764194189 1.4642628082240063 -1.8337054510305535 -1.5707961874466148 3.4520180020486904 13189.545999999931
5.022814421590161 -1.2046659671713615 1.4575643419127566 -1.8236947830852528 -1.5707961928450747 3.452018100895808 13189.59599999993
5.0228144646695245 -1.2060992651767715 1.4546656975756227 -1.8193628413239211 -1.570796195181164 3.4520181436701725 13189.64599999993
5.022814471702564 -1.2063332621363754 1.454192471519839 -1.8186556184034215 -1.5707961955625487 3.4520181506534175 13189.695999999929
5.022814471702564 -1.2063332621363754 1.454192471519839 -1.8186556184034213 -1.5707961955625487 3.4520181506534175 13189.745999999928
5.022782912924617 -1.2063379482391552 1.4541983317556484 -1.8186567925366433 -1.5707961955626735 3.4519623247331865 13189.795999999928
5.022566420298469 -1.2063700948165332 1.4542385328636358 -1.8186648470685751 -1.570796195563529 3.4515793599650846 13189.845999999927
5.02199207103594 -1.2064553788437005 1.4543451853493876 -1.818686215530667 -1.570796195565799 3.4505633644734663 13189.895999999926
5.0208997610940305 -1.2066175738648113 1.454548019370629 -1.818726854537468 -1.5707961955701162 3.448631122110098 13189.945999999925
5.019141892522607 -1.2068785964181292 1.4548744427944902 -1.818792255418746 -1.5707961955770637 3.445521539387631 13189.995999999925
5.016583060812074 -1.207258552461176 1.4553495992547711 -1.8188874558516062 -1.570796195587177 3.440995092413084 13190.045999999924
5.0130997422410575 -1.2077757837958776 1.455996426209206 -1.8190170514926112 -1.570796195600944 3.4348332738213174 13190.095999999923
5.008579981224079 -1.208446914493711 1.4568357129967284 -1.8191852076099009 -1.5707961956188075 3.426838039708513 13190.145999999922
5.002923077659237 -1.2092868973208533 1.457886158894736 -1.8193956707153112 -1.5707961956411651 3.4168312565656507 13190.195999999922
4.996039274275885 -1.2103090601633273 1.4591644311763556 -1.8196517801964942 -1.5707961956683718 3.4046541482119865 13190.245999999921
4.987849443982309 -1.2115251524521493 1.4606852231677083 -1.8199564799490378 -1.5707961957007401 3.390166742728532 13190.29599999992
4.978284777213406 -1.2129453915884765 1.4624613123051737 -1.8203123300085844 -1.5707961957385426 3.3732473193915293 13190.34599999992
4.967286469278363 -1.2145785093687542 1.464503618192655 -1.8207215181829517 -1.570796195782011 3.3537918556059316 13190.395999999919
4.954805407708337 -1.2164317984098627 1.4668212606588444 -1.8211858716842506 -1.5707961958313394 3.3317134738388785 13190.445999999918
4.940801859604127 -1.218511158574265 1.4694216178144874 -1.8217068687610072 -1.5707961958866854 3.306941888553177 13190.495999999917
4.925245158983863 -1.220821143395154 1.472310384109648 -1.8222856503302791 -1.5707961959481698 3.279422853140775 13190.545999999917
4.908113394130674 -1.2233650065015989 1.4754916283909736 -1.8229230316097782 -1.5707961960158794 3.249117606856244 13190.595999999916
4.889393094940375 -1.2261447480436942 1.4789678519589593 -1.823619513749988 -1.570796196089867 3.2160023217502522 13190.645999999915
4.869078920269137 -1.2291611611177053 1.4827400466252139 -1.8243752954662842 -1.5707961961701544 3.1800675496030464 13190.695999999914
4.847173345281175 -1.2324138781912166 1.4868077527697232 -1.8251902846710533 -1.5707961962567314 3.1413176688579267 13190.745999999914
4.823686348796416 -1.235901417528278 1.4911691173981168 -1.8260641101058135 -1.5707961963495587 3.0997703315547267 13190.795999999913
4.7986351006381875 -1.2396212296145537 1.4958209521989312 -1.826996132973333 -1.5707961964485682 3.055455910263289 13190.845999999912
4.772043648980889 -1.2435697435824669 1.500758791600876 -1.8279854585697508 -1.570796196553665 3.008416945016945 13190.895999999912
4.743942607697671 -1.24774241363635 1.505976950830098 -1.8290309479166946 -1.5707961966647281 2.9587075902459925 13190.94599999991
4.71436884370812 -1.2521337654775897 1.5114685839674467 -1.8301312293934018 -1.570796196781612 2.9063930617111717 13190.99599999991
4.683365164325926 -1.2567374427297753 1.517225742005738 -1.831284710368838 -1.570796196904147 2.851549083437145 13191.04599999991
4.6509800046065735 -1.2615462533638448 1.5232394309070207 -1.832489588833818 -1.5707961970321422 2.7942613346459737 13191.095999999909
4.617267114695008 -1.266552216123234 1.5294996696598404 -1.833743865033123 -1.570796197165385 2.734624896690597 13191.145999999908
4.582285247173324 -1.2717466069490224 1.5359955483365042 -1.8350453530976227 -1.570796197303643 2.6727436999883083 13191.195999999907
4.546097844408435 -1.2771200054050804 1.5427152861503466 -1.8363916926763932 -1.5707961974466658 2.6087299709542338 13191.245999999906
4.50877272589976 -1.282662341103217 1.5496462895129932 -1.8377803605688368 -1.570796197594185 2.542703678934811 13191.295999999906
4.4703817756268975 -1.2883629401283272 1.5567752100916263 -1.839208682356802 -1.5707961977459168 2.474791983141265 13191.345999999905
4.431000629397303 -1.294210571463539 1.5640880028662496 -1.8406738440367025 -1.570796197901562 2.405128679583086 13191.395999999904
4.390708362193973 -1.3001934934153603 1.571569984186953 -1.8421729036516377 -1.5707961980608085 2.3338536480015124 13191.445999999904
4.349587175523112 -1.3062995000388269 1.5792058898311776 -1.843702802923511 -1.570796198223331 2.261112298802999 13191.495999999903
4.307722084761828 -1.3125159675626494 1.5869799330609808 -1.8452603788851496 -1.5707961983887933 2.187055019992705 13191.545999999902
4.265200606505795 -1.3188299008143598 1.5948758626803008 -1.8468423755124255 -1.5707961985568502 2.111836624107962 13191.595999999901
4.222112445916939 -1.32522797964546 1.6028770210922212 -1.8484454553563725 -1.5707961987271466 2.035615795151763 13191.6459999999
4.178549184071118 -1.3316966053565682 1.6109664023562371 -1.8500662111753083 -1.5707961988993207 1.9585545355262286 13191.6959999999
4.134603965305794 -1.338221947122566 1.6191267102455185 -1.8517011775669525 -1.5707961990730044 1.8808176129660934 13191.7459999999
4.090371184567717 -1.3447899884177468 1.627340416304176 -1.853346842600546 -1.5707961992478248 1.8025720074721803 13191.795999999898
4.045946174760604 -1.3513865734409616 1.6355898179045258 -1.8549996594489717 -1.5707961994234048 1.7239863582448782 13191.845999999898
4.001424894092811 -1.3579974535407666 1.6438570963043544 -1.8566560580208735 -1.5707961995993653 1.64523041061762 13191.895999999897
3.956903613425018 -1.3646083336405719 1.652124374704183 -1.8583124565927753 -1.570796199775326 1.566474462990362 13191.945999999896
3.912478603617905 -1.3712049186637865 1.6603737763045325 -1.859965273441201 -1.570796199950906 1.4878888137630604 13191.995999999896
3.868245822879829 -1.3777729599589672 1.6685874823631903 -1.8616109384747945 -1.5707962001257263 1.4096432082691468 13192.045999999895
3.824300604114505 -1.3842983017249653 1.6767477902524717 -1.8632459048664387 -1.57079620029941 1.3319062857090112 13192.095999999894
3.7807373422686834 -1.3907669274360732 1.6848371715164874 -1.8648666606853745 -1.570796200471584 1.2548450260834771 13192.145999999893
3.7376491816798283 -1.3971650062671734 1.692838329928408 -1.8664697405293216 -1.5707962006418805 1.1786241971272773 13192.195999999893
3.6951277034237946 -1.4034789395188838 1.700734259547728 -1.8680517371565974 -1.5707962008099374 1.1034058012425358 13192.245999999892
3.6532626126625103 -1.4096954070427063 1.7085083027775312 -1.869609313118236 -1.5707962009753997 1.029348522432242 13192.295999999891
3.6121414259916507 -1.415801413666173 1.7161442084217557 -1.8711392123901094 -1.5707962011379222 0.9566071732337287 13192.34599999989
3.5718491587883188 -1.4217843356179944 1.7236261897424594 -1.8726382720050445 -1.5707962012971686 0.8853321416521531 13192.39599999989
3.532468012558725 -1.427631966953206 1.7309389825170824 -1.8741034336849451 -1.5707962014528138 0.8156688380939734 13192.445999999889
3.494077062285862 -1.4333325659783163 1.7380679030957156 -1.8755317554729103 -1.5707962016045456 0.7477571423004274 13192.495999999888
3.4567519437771876 -1.4388749016764528 1.744998906458362 -1.8769204233653538 -1.570796201752065 0.6817308502810073 13192.545999999887
3.4205645410122987 -1.4442483001325108 1.7517186442722048 -1.8782667629441243 -1.5707962018950876 0.6177171212469297 13192.595999999887
3.3855826734906147 -1.449442690958299 1.7582145229488682 -1.8795682510086238 -1.5707962020333457 0.5558359245446436 13192.645999999886
3.3518697835790485 -1.4544486537176884 1.764474761701688 -1.880822527207929 -1.5707962021665884 0.4961994865892638 13192.695999999885
3.3194846238596956 -1.459257464351758 1.7704884506029708 -1.882027405672909 -1.5707962022945836 0.43891173779809556 13192.745999999885
3.2884809444775023 -1.4638611416039438 1.7762456086412626 -1.8831808866483453 -1.5707962024171187 0.3840677595240667 13192.795999999884
3.2589071804879497 -1.4682524934451833 1.7817372417786108 -1.8842811681250524 -1.5707962025340025 0.3317532309892446 13192.845999999883
3.2308061392047334 -1.4724251634990662 1.7869554010078326 -1.8853266574719962 -1.5707962026450657 0.28204387621829596 13192.895999999882
3.204214687547436 -1.4763736774669796 1.7918932404097774 -1.886315983068414 -1.5707962027501625 0.23500491097195209 13192.945999999882
3.179163439389205 -1.4800934895532554 1.7965450752105925 -1.8872480059359336 -1.570796202849172 0.19069048968051128 13192.995999999881
3.155676442904447 -1.4835810288903168 1.8009064398389858 -1.8881218313706938 -1.5707962029419993 0.14914315237731124 13193.04599999988
3.1337708679164864 -1.4868337459638277 1.8049741459834947 -1.8889368205754629 -1.5707962030285763 0.11039327163219248 13193.09599999988
3.113456693245249 -1.489850159037839 1.8087463406497495 -1.8896926022917588 -1.5707962031088636 0.07445849948498484 13193.145999999879
3.094736394054946 -1.4926299005799344 1.8122225642177348 -1.8903890844319688 -1.5707962031828513 0.041343214378995796 13193.195999999878
3.07760462920176 -1.4951737636863796 1.8154038084990605 -1.891026465711468 -1.570796203250561 0.011037968094461448 13193.245999999877
3.062047928581496 -1.497483748507268 1.8182925747942211 -1.8916052472807399 -1.5707962033120453 -0.016481067317934972 13193.295999999877
3.048044380477286 -1.4995631086716703 1.8208929319498641 -1.8921262443574962 -1.5707962033673912 -0.041252652603636975 13193.345999999876
3.035563318907256 -1.5014163977127792 1.823210574416054 -1.8925905978587956 -1.5707962034167198 -0.06333103437069276 13193.395999999875
3.024565010972214 -1.5030495154930568 1.8252528803035353 -1.8929997860331627 -1.5707962034601881 -0.08278649815629358 13193.445999999874
3.0150003442033135 -1.504469754629384 1.8270289694410007 -1.8933556360927093 -1.5707962034979905 -0.09970592149330137 13193.495999999874
3.0068105139097376 -1.5056858469182053 1.8285497614323525 -1.8936603358452526 -1.5707962035303589 -0.11419332697674456 13193.545999999873
2.9999267105263847 -1.5067080097606795 1.829828033713973 -1.8939164453264357 -1.5707962035575656 -0.12637043533041314 13193.595999999872
2.994269806961544 -1.5075479925878223 1.8308784796119801 -1.8941269084318462 -1.5707962035799232 -0.13637721847327633 13193.645999999871
2.9897500459445645 -1.5082191232856557 1.8317177663995023 -1.8942950645491359 -1.5707962035977867 -0.14437245258607767 13193.69599999987
2.9862667273735486 -1.5087363546203567 1.8323645933539376 -1.894424660190141 -1.5707962036115537 -0.150534271177845 13193.74599999987
2.983707895663013 -1.5091163106634042 1.8328397498142186 -1.8945198606230012 -1.570796203621667 -0.15506071815239686 13193.79599999987
2.9819500270915924 -1.5093773332167222 1.8331661732380797 -1.8945852615042793 -1.5707962036286145 -0.1581703008748594 13193.845999999869
2.9808577171496786 -1.5095395282378334 1.8333690072593218 -1.8946259005110804 -1.5707962036329317 -0.1601025432382368 13193.895999999868
2.9802833678871536 -1.5096248122650004 1.8334756597450728 -1.894647268973172 -1.5707962036352017 -0.16111853872984305 13193.945999999867
2.9800668752610022 -1.5096569588423778 1.8335158608530606 -1.8946553235051038 -1.5707962036360572 -0.16150150349795034 13193.995999999866
2.9800353164830575 -1.5096616449451579 1.8335217210888697 -1.8946564976383258 -1.570796203636182 -0.16155732941818535 13194.045999999866
2.9800353164830593 -1.5096616449451579 1.8335217210888697 -1.8946564976383258 -1.570796203636182 -0.16155732941817647 13194.095999999865
2.9800353227011427 -1.5094094136401337 1.8339324893587425 -1.8953194969600284 -1.5707962039657037 -0.16155732322065963 13194.145999999864
2.980035361157738 -1.5078494542987209 1.8364729424546922 -1.8994199078314742 -1.5707962060036773 -0.16155728489126092 13194.195999999863
2.9800354511408442 -1.5041993655316275 1.8424172507854824 -1.9090143012653298 -1.5707962107722526 -0.16155719520577747 13194.245999999863
2.9800355998145744 -1.4981685411085448 1.8522386776457964 -1.9248665464948718 -1.5707962186510858 -0.16155704702379106 13194.295999999862
2.980035804423501 -1.4898687526565144 1.865755198691526 -1.9466828476611477 -1.5707962294941555 -0.16155684309161641 13194.345999999861
2.9800360544969955 -1.4797247323582954 1.8822751214150557 -1.9733467805001381 -1.5707962427465798 -0.16155659384524934 13194.39599999986
2.980036334053574 -1.4683847556507295 1.900742704620553 -2.0031543290299196 -1.5707962575614343 -0.16155631521331507 13194.44599999986
2.9800366238052374 -1.4566312239231092 1.9198837778992541 -2.0340489222378246 -1.5707962729165683 -0.1615560264200164 13194.49599999986
2.9800369033618157 -1.4452912472155433 1.9383513611047514 -2.0638564707676057 -1.5707962877314228 -0.16155574778808213 13194.545999999858
2.98003715343531 -1.4351472269173242 1.9548712838282811 -2.0905204036065963 -1.570796300983847 -0.16155549854171505 13194.595999999858
2.9800373580442368 -1.4268474384652938 1.9683878048740104 -2.112336704772872 -1.5707963118269168 -0.1615552946095404 13194.645999999857
2.980037506717967 -1.4208166140422112 1.978209231734325 -2.1281889500024143 -1.57079631970575 -0.161555146427554 13194.695999999856
2.9800375967010733 -1.4171665252751176 1.9841535400651151 -2.1377833434362703 -1.5707963244743253 -0.16155505674207055 13194.745999999855
2.9800376351576685 -1.415606565933705 1.9866939931610643 -2.141883754307716 -1.5707963265122988 -0.16155501841267184 13194.795999999855
2.980037641375752 -1.4153543346286808 1.9871047614309374 -2.142546753629418 -1.5707963268418206 -0.161555012215155 13194.845999999854
2.980037641375752 -1.4153543346286808 1.9871047614309374 -2.142546753629418 -1.5707963268418206 -0.161555012215155 13194.895999999853
2.980037641375752 -1.4153543346286808 1.9871047614309374 -2.142546753629418 -1.5707963268418206 -0.161555012215155 13194.945999999853
2.980037641375752 -1.4153543346286808 1.9871047614309374 -2.142546753629418 -1.5707963268418206 -0.161555012215155 13194.995999999852
2.980037641375752 -1.4153543346286808 1.9871047614309374 -2.142546753629418 -1.5707963268418206 -0.161555012215155 13195.045999999851
2.980037641375752 -1.4153543346286808 1.9871047614309374 -2.142546753629418 -1.5707963268418206 -0.161555012215155 13195.09599999985
2.980037641375752 -1.4153543346286808 1.9871047614309374 -2.1425467536294183 -1.5707963268418206 -0.161555012215155 13195.14599999985
2.9800376351576685 -1.415606565933705 1.9866939931610645 -2.141883754307716 -1.5707963265122988 -0.16155501841267184 13195.195999999849
2.9800375967010733 -1.4171665252751178 1.984153540065115 -2.13778334343627 -1.5707963244743253 -0.16155505674207055 13195.245999999848
2.980037506717967 -1.4208166140422112 1.9782092317343247 -2.1281889500024143 -1.57079631970575 -0.161555146427554 13195.295999999847
2.9800373580442368 -1.4268474384652938 1.9683878048740107 -2.112336704772872 -1.5707963118269168 -0.1615552946095404 13195.345999999847
2.98003715343531 -1.4351472269173242 1.9548712838282811 -2.0905204036065963 -1.570796300983847 -0.16155549854171505 13195.395999999846
2.9800369033618157 -1.4452912472155433 1.9383513611047514 -2.0638564707676057 -1.5707962877314228 -0.16155574778808213 13195.445999999845
2.9800366238052374 -1.4566312239231092 1.9198837778992541 -2.0340489222378246 -1.5707962729165683 -0.1615560264200164 13195.495999999845
2.980036334053574 -1.4683847556507295 1.900742704620553 -2.0031543290299196 -1.5707962575614343 -0.16155631521331507 13195.545999999844
2.9800360544969955 -1.4797247323582954 1.8822751214150557 -1.9733467805001383 -1.5707962427465798 -0.16155659384524934 13195.595999999843
2.980035804423501 -1.4898687526565144 1.865755198691526 -1.9466828476611477 -1.5707962294941555 -0.16155684309161641 13195.645999999842
2.9800355998145744 -1.4981685411085448 1.8522386776457966 -1.924866546494872 -1.5707962186510858 -0.16155704702379106 13195.695999999842
2.9800354511408442 -1.5041993655316275 1.8424172507854821 -1.9090143012653296 -1.5707962107722526 -0.16155719520577747 13195.745999999841
2.980035361157738 -1.507849454298721 1.836472942454692 -1.899419907831474 -1.5707962060036773 -0.16155728489126092 13195.79599999984
2.9800353227011427 -1.5094094136401337 1.8339324893587428 -1.8953194969600284 -1.5707962039657037 -0.16155732322065963 13195.84599999984
2.9800353164830593 -1.5096616449451579 1.8335217210888697 -1.894656497638326 -1.570796203636182 -0.16155732941817647 13195.895999999839
2.9800353164830593 -1.5096616449451579 1.8335217210888697 -1.894656497638326 -1.570796203636182 -0.16155732941817647 13195.945999999838
2.9800353164830593 -1.5096616449451579 1.8335217210888697 -1.894656497638326 -1.570796203636182 -0.16155732941817647 13195.995999999837
2.9800353164830593 -1.5096616449451579 1.8335217210888697 -1.894656497638326 -1.570796203636182 -0.16155732941817647 13196.045999999837
2.9800353164830593 -1.5096616449451579 1.8335217210888697 -1.894656497638326 -1.570796203636182 -0.16155732941817647 13196.095999999836
2.9800353164830593 -1.5096616449451579 1.8335217210888697 -1.894656497638326 -1.570796203636182 -0.16155732941817647 13196.145999999835
2.9800353164830593 -1.5096616449451579 1.8335217210888697 -1.894656497638326 -1.570796203636182 -0.16155732941817647 13196.195999999834
2.9800353164830593 -1.5096616449451579 1.8335217210888697 -1.894656497638326 -1.570796203636182 -0.16155732941817647 13196.245999999834
2.9800353164830593 -1.5096616449451579 1.8335217210888697 -1.894656497638326 -1.570796203636182 -0.16155732941817647 13196.295999999833
2.9800353164830593 -1.5096616449451579 1.8335217210888697 -1.894656497638326 -1.570796203636182 -0.16155732941817647 13196.345999999832
2.9800353164830593 -1.5096616449451579 1.8335217210888697 -1.894656497638326 -1.570796203636182 -0.16155732941817647 13196.395999999831
2.9800353164830593 -1.5096616449451579 1.8335217210888697 -1.894656497638326 -1.570796203636182 -0.16155732941817647 13196.44599999983
2.9800353164830593 -1.5096616449451579 1.8335217210888697 -1.894656497638326 -1.570796203636182 -0.16155732941817647 13196.49599999983
2.9800353164830593 -1.5096616449451579 1.8335217210888697 -1.894656497638326 -1.570796203636182 -0.16155732941817647 13196.54599999983
2.9800353164830593 -1.5096616449451579 1.8335217210888697 -1.894656497638326 -1.570796203636182 -0.16155732941817647 13196.595999999829
2.9800353164830593 -1.5096616449451579 1.8335217210888697 -1.894656497638326 -1.570796203636182 -0.16155732941817647 13196.645999999828
2.9800353164830593 -1.5096616449451579 1.8335217210888697 -1.894656497638326 -1.570796203636182 -0.16155732941817647 13196.695999999827
2.9800353164830593 -1.5096616449451579 1.8335217210888697 -1.894656497638326 -1.570796203636182 -0.16155732941817647 13196.745999999826
2.9800353164830593 -1.5096616449451579 1.8335217210888697 -1.894656497638326 -1.570796203636182 -0.16155732941817647 13196.795999999826
2.9800353164830593 -1.5096616449451579 1.8335217210888697 -1.894656497638326 -1.570796203636182 -0.16155732941817647 13196.845999999825
2.9800353164830593 -1.5096616449451579 1.8335217210888697 -1.894656497638326 -1.570796203636182 -0.16155732941817647 13196.895999999824
2.9800353164830593 -1.5096616449451579 1.8335217210888697 -1.894656497638326 -1.570796203636182 -0.16155732941817647 13196.945999999823
2.9800353164830593 -1.5096616449451579 1.8335217210888697 -1.894656497638326 -1.570796203636182 -0.16155732941817647 13196.995999999823
2.9800353164830593 -1.5096616449451579 1.8335217210888697 -1.894656497638326 -1.570796203636182 -0.16155732941817647 13197.045999999822
2.9800353164830593 -1.5096616449451579 1.8335217210888697 -1.894656497638326 -1.570796203636182 -0.16155732941817647 13197.095999999821
2.9800353164830593 -1.5096616449451579 1.8335217210888697 -1.894656497638326 -1.570796203636182 -0.16155732941817647 13197.14599999982
2.9800353164830593 -1.5096616449451579 1.8335217210888697 -1.894656497638326 -1.570796203636182 -0.16155732941817647 13197.19599999982
2.9800353164830593 -1.5096616449451579 1.8335217210888697 -1.894656497638326 -1.570796203636182 -0.16155732941817647 13197.24599999982
2.9800353164830593 -1.5096616449451579 1.8335217210888697 -1.894656497638326 -1.570796203636182 -0.16155732941817647 13197.295999999818
2.9800353164830593 -1.5096616449451579 1.8335217210888697 -1.894656497638326 -1.570796203636182 -0.16155732941817647 13197.345999999818
2.9800353164830593 -1.5096616449451579 1.8335217210888697 -1.894656497638326 -1.570796203636182 -0.16155732941817647 13197.395999999817
2.9800353164830593 -1.5096616449451579 1.8335217210888697 -1.894656497638326 -1.570796203636182 -0.16155732941817647 13197.445999999816
2.9800353164830593 -1.5096616449451579 1.8335217210888697 -1.894656497638326 -1.570796203636182 -0.16155732941817647 13197.495999999815
2.9800353164830593 -1.5096616449451579 1.8335217210888697 -1.8946564976383258 -1.570796203636182 -0.16155732941817647 13197.545999999815
2.980181824458131 -1.5096611805972633 1.8335212205832292 -1.8946564614717492 -1.5707962036476673 -0.16141082144382163 13197.595999999814
2.9811697379185738 -1.509658049467131 1.8335178456389034 -1.8946562175980097 -1.5707962037251133 -0.16042290798821335 13197.645999999813
2.983739164937233 -1.5096499058283581 1.8335090678729502 -1.894655583315959 -1.5707962039265397 -0.15785348098212704 13197.695999999813
2.988524190331657 -1.5096347399886403 1.8334927211027612 -1.8946544020970733 -1.5707962043016546 -0.15306845561111868 13197.745999999812
2.9960578069782917 -1.5096108626602793 1.8334669844995326 -1.8946525423681218 -1.5707962048922413 -0.14553483900134911 13197.795999999811
3.0067768471266856 -1.5095768893306898 1.8334303657417395 -1.8946498962938347 -1.5707962057325446 -0.13481579890540812 13197.84599999981
3.021026913713687 -1.509531724632906 1.8333816841686075 -1.8946463785595726 -1.5707962068496575 -0.12056573238813867 13197.89599999981
3.0390673116776443 -1.50947454671609 1.8333200539335872 -1.8946419251539952 -1.5707962082639078 -0.10252533451246089 13197.945999999809
3.0610759792726068 -1.5094047916160362 1.833244867157826 -1.8946364921517291 -1.5707962099892445 -0.08051666702519641 13197.995999999808
3.0871544193825238 -1.5093221376256816 1.833155777083641 -1.8946300544960373 -1.5707962120336252 -0.05443822704289247 13198.045999999807
3.1173326308354454 -1.5092264896656107 1.8330526812279926 -1.8946226047814871 -1.5707962143994012 -0.024260015737645996 13198.095999999807
3.151574039717722 -1.5091179636545629 1.8329357045359567 -1.8946141520366198 -1.5707962170837055 0.009981392977072123 13198.145999999806
3.1897804306882036 -1.5089968708799395 1.8328051825341976 -1.894604720506618 -1.570796220078839 0.04818778376059313 13198.195999999805
3.231796878292441 -1.5088637023683118 1.832661644484442 -1.8945943484359753 -1.570796223372656 0.09020423115922577 13198.245999999805
3.2774166782768854 -1.5087191132559263 1.8325057965369502 -1.8945830868511646 -1.5707962269489526 0.1358240309204326 13198.295999999804
3.3263862789030885 -1.5085639071592134 1.8323385048839906 -1.8945709983433063 -1.5707962307878516 0.1847936313070057 13198.345999999803
3.3784102122619006 -1.508399020545293 1.8321607789133116 -1.894558155850838 -1.5707962348661908 0.2368175644112423 13198.395999999802
3.4331560255876745 -1.5082255071024835 1.831973754361615 -1.8945446414421816 -1.5707962391579076 0.2915633774691211 13198.445999999802
3.4902592125724614 -1.508044522110806 1.8317786764680282 -1.894530545098414 -1.5707962436344272 0.3486665641744773 13198.495999999801
3.549328144680214 -1.507857306812494 1.8315768831275783 -1.8945159634959334 -1.5707962482650484 0.4077354959931794 13198.5459999998
3.6099490024609837 -1.5076651727824995 1.8313697880446638 -1.89450099878913 -1.5707962530173305 0.46835635347730464 13198.5959999998
3.6716907068651223 -1.5074694862989988 1.8311588638865284 -1.894485757393053 -1.57079625785748 0.5300980575793143 13198.645999999799
3.734109850557483 -1.5072716527139016 1.8309456254367333 -1.8944703487660808 -1.570796262750736 0.5925172009662305 13198.695999999798
3.796755629231617 -1.5070731008233567 1.8307316127486306 -1.8944548841925881 -1.5707962676617588 0.6551629793338116 13198.745999999797
3.8591747729239776 -1.5068752672382595 1.8305183742988356 -1.894439475565616 -1.5707962725550149 0.717582122720728 13198.795999999797
3.920916477328116 -1.5066795807547588 1.8303074501407002 -1.894424234169539 -1.5707962773951643 0.779323826822738 13198.845999999796
3.9815373351088863 -1.5064874467247642 1.8301003550577857 -1.8944092694627355 -1.5707962821474464 0.8399446843068632 13198.895999999795
4.0406062672166385 -1.5063002314264522 1.8298985617173358 -1.8943946878602549 -1.5707962867780676 0.8990136161255653 13198.945999999794
4.097709454201425 -1.5061192464347748 1.829703483823749 -1.8943805915164873 -1.5707962912545872 0.9561168028309215 13198.995999999794
4.1524552675272 -1.5059457329919652 1.8295164592720523 -1.894367077107831 -1.570796295546304 1.0108626158888003 13199.045999999793
4.204479200886013 -1.5057808463780449 1.8293387333013733 -1.8943542346153626 -1.5707962996246432 1.0628865489930375 13199.095999999792
4.2534488015122145 -1.505625640281332 1.8291714416484137 -1.8943421461075043 -1.5707963034635422 1.1118561493796104 13199.145999999791
4.29906860149666 -1.5054810511689465 1.829015593700922 -1.8943308845226936 -1.5707963070398387 1.1574759491408173 13199.19599999979
4.341085049100897 -1.5053478826573188 1.8288720556511664 -1.8943205124520508 -1.5707963103336557 1.1994923965394504 13199.24599999979
4.379291440071379 -1.5052267898826954 1.8287415336494073 -1.8943110809220491 -1.5707963133287892 1.2376987873229703 13199.29599999979
4.413532848953656 -1.5051182638716476 1.8286245569573714 -1.8943026281771818 -1.5707963160130936 1.27194019603769 13199.345999999789
4.443711060406575 -1.5050226159115767 1.8285214611017229 -1.8942951784626316 -1.5707963183788696 1.3021184073429355 13199.395999999788
4.469789500516493 -1.504939961921222 1.8284323710275379 -1.8942887408069398 -1.5707963204232502 1.3281968473252412 13199.445999999787
4.491798168111456 -1.5048702068211683 1.8283571842517767 -1.8942833078046737 -1.570796322148587 1.3502055148125045 13199.495999999786
4.509838566075413 -1.5048130289043522 1.8282955540167565 -1.8942788543990963 -1.5707963235628373 1.3682459126881827 13199.545999999786
4.524088632662416 -1.5047678642065685 1.8282468724436245 -1.8942753366648342 -1.5707963246799501 1.3824959792054532 13199.595999999785
4.534807672810809 -1.504733890876979 1.8282102536858313 -1.8942726905905471 -1.5707963255202535 1.393215019301394 13199.645999999784
4.542341289457443 -1.504710013548618 1.8281845170826028 -1.8942708308615956 -1.5707963261108402 1.400748635911162 13199.695999999783
4.547126314851864 -1.5046948477089002 1.8281681703124137 -1.8942696496427098 -1.570796326485955 1.4055336612821705 13199.745999999783
4.5496957418705275 -1.5046867040701273 1.8281593925464605 -1.8942690153606592 -1.5707963266873815 1.4081030882882573 13199.795999999782
4.550683655330969 -1.504683572939995 1.8281560176021348 -1.8942687714869197 -1.5707963267648275 1.4090910017438656 13199.845999999781
4.55083016330604 -1.5046831085921004 1.8281555170964943 -1.8942687353203431 -1.5707963267763128 1.4092375097182206 13199.89599999978
4.550830163306041 -1.5046831085921004 1.8281555170964943 -1.8942687353203431 -1.5707963267763128 1.4092375097182188 13199.94599999978
4.550830163288899 -1.5044317259580535 1.8285655109525163 -1.8949301118132962 -1.570796326774864 1.4092375097011915 13199.995999999779
4.55083016318288 -1.5028770153395092 1.8311011745790515 -1.8990204860762125 -1.570796326765904 1.409237509595885 13200.045999999778
4.550830162934811 -1.4992392078568542 1.8370342762148681 -1.9085913952364206 -1.5707963267449385 1.4092375093494816 13200.095999999778
4.550830162524941 -1.4932286750690886 1.8468371869200806 -1.9244048387983568 -1.5707963267102987 1.4092375089423639 13200.145999999777
4.550830161960867 -1.484956812530443 1.8603282255177218 -1.9461677400295456 -1.5707963266626261 1.4092375083820772 13200.195999999776
4.550830161271455 -1.4748469233469939 1.8768170035353173 -1.97276640734658 -1.570796326604361 1.4092375076972936 13200.245999999775
4.550830160500762 -1.4635451017332777 1.8952497701464592 -2.0025009957011024 -1.5707963265392262 1.4092375069317757 13200.295999999775
4.550830159701963 -1.4518311165689088 1.9143547571123785 -2.033319967965784 -1.5707963264717162 1.4092375061383402 13200.345999999774
4.55083015893127 -1.4405292949551927 1.9327875237235201 -2.0630545563203064 -1.5707963264065814 1.4092375053728223 13200.395999999773
4.550830158241858 -1.4304194057717434 1.9492763017411157 -2.089653223637341 -1.5707963263483162 1.4092375046880388 13200.445999999773
4.550830157677784 -1.4221475432330979 1.9627673403387569 -2.1114161248685295 -1.5707963263006437 1.409237504127752 13200.495999999772
4.550830157267915 -1.4161370104453324 1.9725702510439698 -2.127229568430466 -1.5707963262660039 1.4092375037206344 13200.545999999771
4.5508301570198455 -1.4124992029626768 1.9785033526797864 -2.136800477590674 -1.5707963262450384 1.409237503474231 13200.59599999977
4.550830156913826 -1.410944492344133 1.9810390163063214 -2.1408908518535905 -1.5707963262360785 1.4092375033689244 13200.64599999977
4.5508301568966845 -1.410693109710086 1.9814490101623434 -2.1415522283465434 -1.5707963262346296 1.4092375033518971 13200.695999999769
4.5508301568966845 -1.410693109710086 1.9814490101623434 -2.1415522283465434 -1.5707963262346296 1.4092375033518971 13200.745999999768
4.5508301568966845 -1.410693109710086 1.9814490101623434 -2.1415522283465434 -1.5707963262346296 1.4092375033518971 13200.795999999767
4.5508301568966845 -1.410693109710086 1.9814490101623434 -2.1415522283465434 -1.5707963262346296 1.4092375033518971 13200.845999999767
4.5508301568966845 -1.410693109710086 1.9814490101623434 -2.1415522283465434 -1.5707963262346296 1.4092375033518971 13200.895999999766
4.5508301568966845 -1.410693109710086 1.9814490101623434 -2.1415522283465434 -1.5707963262346296 1.4092375033518971 13200.945999999765
4.5508301568966845 -1.410693109710086 1.9814490101623434 -2.1415522283465434 -1.5707963262346296 1.4092375033518971 13200.995999999765
4.5508301568966845 -1.410693109710086 1.9814490101623434 -2.1415522283465434 -1.5707963262346296 1.4092375033518971 13201.045999999764
4.5508301568966845 -1.410693109710086 1.9814490101623434 -2.1415522283465434 -1.5707963262346296 1.4092375033518971 13201.095999999763
4.5508301568966845 -1.410693109710086 1.9814490101623434 -2.1415522283465434 -1.5707963262346296 1.4092375033518971 13201.145999999762
4.5508301568966845 -1.410693109710086 1.9814490101623434 -2.1415522283465434 -1.5707963262346296 1.4092375033518971 13201.195999999762
4.5508301568966845 -1.410693109710086 1.9814490101623434 -2.1415522283465434 -1.5707963262346296 1.4092375033518971 13201.24599999976
4.5508301568966845 -1.410693109710086 1.9814490101623434 -2.1415522283465434 -1.5707963262346296 1.4092375033518971 13201.29599999976
4.5508301568966845 -1.410693109710086 1.9814490101623434 -2.1415522283465434 -1.5707963262346296 1.4092375033518971 13201.34599999976
4.5508301568966845 -1.410693109710086 1.9814490101623434 -2.1415522283465434 -1.5707963262346296 1.4092375033518971 13201.395999999759
4.550830156913826 -1.410944492344133 1.9810390163063214 -2.1408908518535905 -1.5707963262360785 1.4092375033689244 13201.445999999758
4.5508301570198455 -1.4124992029626773 1.9785033526797862 -2.136800477590674 -1.5707963262450384 1.409237503474231 13201.495999999757
4.550830157267915 -1.4161370104453324 1.9725702510439695 -2.1272295684304656 -1.5707963262660039 1.4092375037206344 13201.545999999757
4.550830157677784 -1.4221475432330979 1.962767340338757 -2.1114161248685295 -1.5707963263006437 1.409237504127752 13201.595999999756
4.550830158241858 -1.4304194057717434 1.9492763017411159 -2.089653223637341 -1.5707963263483162 1.4092375046880388 13201.645999999755
4.55083015893127 -1.4405292949551927 1.9327875237235204 -2.0630545563203064 -1.5707963264065814 1.4092375053728223 13201.695999999754
4.550830159701963 -1.4518311165689088 1.9143547571123785 -2.033319967965784 -1.5707963264717162 1.4092375061383402 13201.745999999754
4.550830160500762 -1.4635451017332777 1.8952497701464592 -2.0025009957011024 -1.5707963265392262 1.4092375069317757 13201.795999999753
4.550830161271455 -1.4748469233469939 1.8768170035353176 -1.97276640734658 -1.570796326604361 1.4092375076972936 13201.845999999752
4.550830161960867 -1.484956812530443 1.860328225517722 -1.9461677400295456 -1.5707963266626261 1.4092375083820772 13201.895999999751
4.550830162524941 -1.4932286750690884 1.8468371869200808 -1.924404838798357 -1.5707963267102987 1.4092375089423639 13201.94599999975
4.550830162934811 -1.4992392078568542 1.837034276214868 -1.9085913952364204 -1.5707963267449385 1.4092375093494816 13201.99599999975
4.55083016318288 -1.5028770153395095 1.8311011745790513 -1.8990204860762123 -1.570796326765904 1.409237509595885 13202.04599999975
4.550830163288899 -1.5044317259580535 1.8285655109525163 -1.894930111813296 -1.570796326774864 1.4092375097011915 13202.095999999749
4.550830163306041 -1.5046831085921004 1.8281555170964943 -1.8942687353203431 -1.5707963267763128 1.4092375097182188 13202.145999999748
4.550830163306041 -1.5046831085921004 1.8281555170964943 -1.8942687353203431 -1.5707963267763128 1.4092375097182188 13202.195999999747
4.550666622970055 -1.50467774756373 1.8281495777331143 -1.8942681569852395 -1.570796326776618 1.4092521405492575 13202.245999999746
4.549566742957805 -1.5046416923121972 1.8281096329266682 -1.8942642674296934 -1.5707963267786709 1.4093505392624865 13202.295999999746
4.546714832402856 -1.5045482036122824 1.8280060588878184 -1.8942541820891174 -1.5707963267839935 1.4096056801194214 13202.345999999745
4.541421094849024 -1.5043746691931401 1.8278138039876393 -1.8942354616050348 -1.5707963267938736 1.4100792744730484 13202.395999999744
4.53311533352987 -1.5041023973905818 1.8275121601495972 -1.894206089564772 -1.5707963268093752 1.4108223339132502 13202.445999999743
4.52134065664818 -1.5037164107993555 1.8270845342415292 -1.8941644502411557 -1.5707963268313512 1.4118757334122327 13202.495999999743
4.505747182655456 -1.5032052399254279 1.8265182194676228 -1.8941093063322052 -1.5707963268604546 1.4132707744699515 13202.545999999742
4.486085745531404 -1.5025607168382655 1.825804166760396 -1.8940397767008277 -1.57079632689715 1.4150297482595389 13202.595999999741
4.4622016000634215 -1.5017777688231164 1.8249367561726746 -1.8939553141145136 -1.5707963269417269 1.4171664987727288 13202.64599999974
4.434028127126082 -1.5008542120332904 1.8239135682695744 -1.8938556829850293 -1.5707963269943093 1.4196869859652852 13202.69599999974
4.401580538960624 -1.4997905451424411 1.8227351555204785 -1.8937409371081133 -1.5707963270548686 1.4225898489024276 13202.745999999739
4.364949584454439 -1.498589742996847 1.821404813691017 -1.8936113974031699 -1.570796327123236 1.425866968904257 13202.795999999738
4.324295254420559 -1.4972570502676927 1.8199283532350474 -1.8934676296529636 -1.570796327199112 1.4295040326911836 13202.845999999738
4.27984048687714 -1.4957997751033503 1.8183138706866333 -1.893310422243314 -1.5707963272820813 1.4334810955293529 13202.895999999737
4.2318648723269545 -1.49422708278166 1.816571520052023 -1.8931407639027904 -1.570796327371622 1.4377731443760713 13202.945999999736
4.180698359036878 -1.4925497893622128 1.8147132842016307 -1.892959821442406 -1.570796327467118 1.4423506610252341 13202.995999999735
4.126714958317371 -1.4907801553386302 1.8127527462620143 -1.892768917495312 -1.5707963275678711 1.4471801852527504 13203.045999999735
4.070326449801972 -1.4889316792908465 1.8107048610078555 -1.8925695082564928 -1.5707963276731134 1.452224877961971 13203.095999999734
4.0119760867267855 -1.4870188915373892 1.8085857262539393 -1.8923631612224612 -1.5707963277820172 1.4574450843291138 13203.145999999733
3.9521323012099616 -1.4850571477876613 1.8064123542471329 -1.8921515329309504 -1.570796327893708 1.4627988969486911 13203.195999999733
3.8912824095311933 -1.4830624227942217 1.804202443058365 -1.8919363467006112 -1.5707963280072768 1.4682427189789355 13203.245999999732
3.829926317411195 -1.481051104005067 1.8019741479746063 -1.891719370370705 -1.5707963281217903 1.4737318272872266 13203.295999999731
3.7685702252911977 -1.479039785215912 1.7997458528908477 -1.891502394040799 -1.570796328236304 1.4792209355955177 13203.34599999973
3.7077203336124285 -1.4770450602224725 1.7975359417020798 -1.8912872078104597 -1.5707963283498727 1.484664757625762 13203.39599999973
3.6478765480956046 -1.4750833164727446 1.7953625696952733 -1.891075579518949 -1.5707963284615636 1.4900185702453395 13203.445999999729
3.5895261850204174 -1.4731705287192873 1.793243434941357 -1.8908692324849172 -1.5707963285704674 1.4952387766124822 13203.495999999728
3.533137676505019 -1.4713220526715036 1.7911955496871983 -1.8906698232460981 -1.5707963286757096 1.5002834693217029 13203.545999999727
3.4791542757855134 -1.469552418647921 1.789235011747582 -1.8904789192990041 -1.5707963287764628 1.5051129935492191 13203.595999999727
3.427987762495435 -1.4678751252284739 1.7873767758971897 -1.8902979768386197 -1.5707963288719589 1.509690510198382 13203.645999999726
3.3800121479452505 -1.4663024329067835 1.7856344252625793 -1.8901283184980961 -1.5707963289614995 1.5139825590451004 13203.695999999725
3.3355573804018315 -1.464845157742441 1.7840199427141652 -1.8899711110884465 -1.5707963290444686 1.5179596218832696 13203.745999999725
3.294903050367952 -1.4635124650132867 1.7825434822581956 -1.8898273433382402 -1.5707963291203448 1.5215966856701963 13203.795999999724
3.2582720958617655 -1.4623116628676927 1.7812131404287341 -1.8896978036332968 -1.5707963291887121 1.524873805672026 13203.845999999723
3.2258245076963084 -1.4612479959768434 1.7800347276796382 -1.8895830577563808 -1.5707963292492715 1.527776668609168 13203.895999999722
3.1976510347589695 -1.4603244391870174 1.779011539776538 -1.8894834266268965 -1.5707963293018539 1.5302971558017244 13203.945999999722
3.1737668892909845 -1.4595414911718683 1.7781441291888167 -1.8893989640405824 -1.5707963293464307 1.5324339063149144 13203.99599999972
3.154105452166937 -1.458896968084706 1.7774300764815898 -1.8893294344092049 -1.5707963293831262 1.5341928801045017 13204.04599999972
3.1385119781742112 -1.4583857972107783 1.7768637617076837 -1.8892742905002544 -1.5707963294122296 1.5355879211622208 13204.09599999972
