Andreas691667/Digital_Twin_UR/src/dt/dt_trajectories/case1_no_blocks_dt_trajectory.csv
actual_q_0 actual_q_1 actual_q_2 actual_q_3 actual_q_4 actual_q_5 timestamp
3.71207804710797 -0.8254843255005873 0.8429764792549035 -1.5882884806323445 -1.570796326807946 2.141281720311417 8649.502
3.71207804710797 -0.8254843255005873 0.8429764792549035 -1.5882884806323445 -1.570796326807946 2.141281720311417 8649.552
3.71207804710797 -0.8254843255005873 0.8429764792549035 -1.5882884806323445 -1.570796326807946 2.141281720311417 8649.601999999999
3.71207804710797 -0.8254843255005873 0.8429764792549035 -1.5882884806323445 -1.570796326807946 2.141281720311417 8649.651999999998
3.71207804710797 -0.8254843255005873 0.8429764792549035 -1.5882884806323445 -1.570796326807946 2.141281720311417 8649.701999999997
3.71207804710797 -0.8254843255005873 0.8429764792549035 -1.5882884806323445 -1.570796326807946 2.141281720311417 8649.751999999997
3.71207804710797 -0.8254843255005873 0.8429764792549035 -1.5882884806323445 -1.570796326807946 2.141281720311417 8649.801999999996
3.71207804710797 -0.8254843255005873 0.8429764792549035 -1.5882884806323445 -1.570796326807946 2.141281720311417 8649.851999999995
3.71207804710797 -0.8254843255005873 0.8429764792549035 -1.5882884806323445 -1.570796326807946 2.141281720311417 8649.901999999995
3.71207804710797 -0.8254843255005873 0.8429764792549035 -1.5882884806323445 -1.570796326807946 2.141281720311417 8649.951999999994
3.71207804710797 -0.8254843255005873 0.8429764792549035 -1.5882884806323445 -1.570796326807946 2.141281720311417 8650.001999999993
3.71207804710797 -0.8254843255005873 0.8429764792549035 -1.5882884806323445 -1.570796326807946 2.141281720311417 8650.051999999992
3.71207804710797 -0.8254843255005873 0.8429764792549035 -1.5882884806323445 -1.570796326807946 2.141281720311417 8650.101999999992
3.7122689791773014 -0.8255822011483995 0.8431247541871719 -1.5883388799190803 -1.5707963268548544 2.1411975678393773 8650.151999999991
3.713544740040671 -0.8262361820191524 0.8441154906112279 -1.5886756354876148 -1.5707963271682845 2.1406352818349363 8650.20199999999
3.7168275167322813 -0.8279189998738993 0.8466648449093596 -1.589542171970193 -1.5707963279748003 2.1391884124079175 8650.25199999999
3.7228710753776704 -0.8310170505030092 0.8513581803555411 -1.591137456859419 -1.5707963294595875 2.1365247404448637 8650.301999999989
3.732270668305987 -0.835835472312677 0.8586577608276864 -1.593618615634119 -1.5707963317688887 2.1323819110927604 8650.351999999988
3.7454729411622654 -0.8426032249114345 0.8689104445199027 -1.5971035468852008 -1.5707963350124359 2.126563067242757 8650.401999999987
3.762785840019699 -0.8514781676966612 0.8823553776547448 -1.601673537441516 -1.5707963392658857 2.118932483013891 8650.451999999987
3.784388518491916 -0.8625521384410955 0.8991316881954681 -1.6073758774957212 -1.5707963445732527 2.109411197236808 8650.501999999986
3.810341244845251 -0.8758560318793451 0.9192861795582831 -1.6142264757301383 -1.5707963509493437 2.0979726469374858 8650.551999999985
3.840595309111022 -0.8913648782943985 0.9427810243246088 -1.6222124744426163 -1.5707963583821913 2.0846383008209557 8650.601999999984
3.8750029301978044 -0.9090029221041348 0.9695014579533265 -1.631294864672393 -1.5707963668354892 2.069473292755027 8650.651999999984
3.913327163003703 -0.9286487004478358 0.9992634724930336 -1.6414111013259551 -1.5707963762510238 2.0525820552540046 8650.701999999983
3.955251805528629 -0.9501401217726961 1.0318215102942974 -1.6524777183029 -1.5707963865511108 2.0341039529624183 8650.751999999982
4.000391305986574 -0.9732795444203346 1.0668761577219086 -1.664392943621797 -1.5707963976410269 2.014208916138738 8650.801999999981
4.048300669917882 -0.9978388552133042 1.1040818388671358 -1.6770393145460483 -1.570796409411446 1.9930930741391024 8650.85199999998
4.098485367301527 -1.023564548041604 1.143054509259978 -1.6902862927097497 -1.570796421740871 1.970974388901036 8650.90199999998
4.150411239667386 -1.0501828024491897 1.18337934958142 -1.7039928792435532 -1.5707964344980696 1.9480882884271746 8650.95199999998
4.203514407208509 -1.077404562220484 1.2246184593756846 -1.7180102299005264 -1.5707964475445073 1.9246833002689874 8651.001999999979
4.257211175893402 -1.104930613966888 1.2663185507624877 -1.7321842701820154 -1.5707964607367817 1.9010166850104984 8651.051999999978
4.310907944578295 -1.132456665713292 1.3080186421492905 -1.7463583104635043 -1.5707964739290559 1.8773500697520094 8651.101999999977
4.364011112119418 -1.1596784254845862 1.3492577519435551 -1.7603756611204775 -1.5707964869754936 1.8539450815938223 8651.151999999976
4.415936984485277 -1.186296679892172 1.3895825922649974 -1.774082247654281 -1.5707964997326922 1.8310589811199607 8651.201999999976
4.4661216818689216 -1.2120223727204718 1.4285552626578395 -1.7873292258179825 -1.5707965120621172 1.808940295881894 8651.251999999975
4.5140310458002295 -1.2365816835134416 1.4657609438030668 -1.7999755967422335 -1.5707965238325363 1.7878244538822583 8651.301999999974
4.559170546258174 -1.2597211061610796 1.5008155912306775 -1.8118908220611303 -1.5707965349224524 1.7679294170585786 8651.351999999973
4.6010951887831 -1.2812125274859398 1.533373629031941 -1.8229574390380754 -1.5707965452225394 1.7494513147669921 8651.401999999973
4.6394194215889994 -1.300858305829641 1.5631356435716484 -1.8330736756916375 -1.570796554638074 1.7325600772659702 8651.451999999972
4.673827042675781 -1.3184963496393776 1.5898560772003665 -1.8421560659214142 -1.5707965630913718 1.7173950692000408 8651.501999999971
4.704081106941552 -1.3340051960544304 1.6133509219666915 -1.850142064633892 -1.5707965705242195 1.7040607230835114 8651.55199999997
4.730033833294889 -1.3473090894926805 1.6335054133295075 -1.8569926628683096 -1.5707965769003105 1.6926221727841884 8651.60199999997
4.751636511767105 -1.3583830602371147 1.6502817238702299 -1.8626950029225142 -1.5707965822076775 1.683100887007106 8651.65199999997
4.768949410624538 -1.367258003022341 1.6637266570050717 -1.8672649934788295 -1.5707965864611273 1.6754703027782398 8651.701999999968
4.782151683480817 -1.3740257556210984 1.6739793406972883 -1.8707499247299113 -1.5707965897046745 1.6696514589282365 8651.751999999968
4.791551276409134 -1.3788441774307665 1.681278921169434 -1.8732310835046113 -1.5707965920139757 1.665508629576133 8651.801999999967
4.7975948350545226 -1.381942228059876 1.6859722566156154 -1.8748263683938375 -1.5707965934987629 1.662844957613079 8651.851999999966
4.800877611746131 -1.383625045914623 1.6885216109137464 -1.8756929048764155 -1.5707965943052786 1.6613980881860604 8651.901999999965
4.802153372609503 -1.384279026785376 1.689512347337803 -1.8760296604449502 -1.5707965946187088 1.6608358021816192 8651.951999999965
4.802344304678834 -1.3843769024331887 1.689660622270071 -1.8760800597316858 -1.5707965946656173 1.6607516497095798 8652.001999999964
4.802344304678834 -1.384376902433189 1.6896606222700719 -1.8760800597316862 -1.5707965946656173 1.6607516497095798 8652.051999999963
4.802344307386492 -1.384147745783343 1.6900552203559738 -1.8767038144324433 -1.5707965939491735 1.6607516524209287 8652.101999999963
4.802344324132375 -1.3827304948337065 1.6924956667159023 -1.8805615115256038 -1.5707965895182276 1.66075166918964 8652.151999999962
4.802344363315421 -1.3794143239348313 1.6982059731377366 -1.8895879883399567 -1.5707965791504284 1.6607517084261019 8652.201999999961
4.802344428055237 -1.3739352121312087 1.7076407725712601 -1.9045018987404798 -1.5707965620203306 1.6607517732541726 8652.25199999996
4.802344517151974 -1.366394705944188 1.720625206189633 -1.9250268373944897 -1.5707965384454132 1.6607518624723678 8652.30199999996
4.802344626046208 -1.3571786821548983 1.736494810450864 -1.9501124640377867 -1.5707965096320957 1.660751971515049 8652.351999999959
4.80234474777882 -1.3468761105871672 1.7542354041592816 -1.978155627740803 -1.5707964774217549 1.6607520934136086 8652.401999999958
4.8023448739508705 -1.3361978168904423 1.7726229755270069 -2.0072214911747506 -1.5707964440367426 1.660752219757659 8652.451999999957
4.802344995683482 -1.325895245322711 1.7903635692354243 -2.035264654877767 -1.5707964118264017 1.6607523416562187 8652.501999999957
4.802345104577716 -1.3166792215334213 1.8062331734966552 -2.060350281521064 -1.5707963830130842 1.6607524506988998 8652.551999999956
4.802345193674453 -1.3091387153464007 1.8192176071150283 -2.0808752201750735 -1.5707963594381669 1.660752539917095 8652.601999999955
4.802345258414269 -1.3036596035427779 1.8286524065485519 -2.0957891305755973 -1.570796342308069 1.6607526047451657 8652.651999999955
4.8023452975973155 -1.3003434326439027 1.8343627129703863 -2.1048156073899498 -1.5707963319402698 1.6607526439816276 8652.701999999954
4.8023453143431984 -1.2989261816942663 1.8368031593303147 -2.1086733044831103 -1.570796327509324 1.660752660750339 8652.751999999953
4.8023453170508565 -1.2986970250444205 1.8371977574162166 -2.1092970591838673 -1.5707963267928802 1.6607526634616878 8652.801999999952
4.8023453170508565 -1.2986970250444205 1.8371977574162166 -2.1092970591838673 -1.5707963267928802 1.6607526634616878 8652.851999999952
4.8023453170508565 -1.2986970250444205 1.8371977574162166 -2.1092970591838673 -1.5707963267928802 1.6607526634616878 8652.901999999951
4.8023453170508565 -1.2986970250444205 1.8371977574162166 -2.1092970591838673 -1.5707963267928802 1.6607526634616878 8652.95199999995
4.8023453170508565 -1.2986970250444205 1.8371977574162166 -2.1092970591838673 -1.5707963267928802 1.6607526634616878 8653.00199999995
4.8023453170508565 -1.2986970250444205 1.8371977574162166 -2.1092970591838673 -1.5707963267928802 1.6607526634616878 8653.051999999949
4.8023453170508565 -1.2986970250444205 1.8371977574162166 -2.1092970591838673 -1.5707963267928802 1.6607526634616878 8653.101999999948
4.8023453170508565 -1.2986970250444205 1.8371977574162166 -2.1092970591838673 -1.5707963267928802 1.6607526634616878 8653.151999999947
4.8023453170508565 -1.2986970250444205 1.8371977574162166 -2.1092970591838673 -1.5707963267928802 1.6607526634616878 8653.201999999947
4.8023453170508565 -1.2986970250444205 1.8371977574162166 -2.1092970591838673 -1.5707963267928802 1.6607526634616878 8653.251999999946
4.8023453170508565 -1.2986970250444205 1.8371977574162166 -2.1092970591838673 -1.5707963267928802 1.6607526634616878 8653.301999999945
4.8023453170508565 -1.2986970250444205 1.8371977574162166 -2.1092970591838673 -1.5707963267928802 1.6607526634616878 8653.351999999944
4.8023453170508565 -1.2986970250444205 1.8371977574162166 -2.1092970591838673 -1.5707963267928802 1.6607526634616878 8653.401999999944
4.8023453170508565 -1.2986970250444205 1.8371977574162166 -2.1092970591838673 -1.5707963267928802 1.6607526634616878 8653.451999999943
4.8023453170508565 -1.2986970250444205 1.8371977574162166 -2.1092970591838673 -1.5707963267928802 1.6607526634616878 8653.501999999942
4.8023453143431984 -1.2989261816942663 1.8368031593303147 -2.1086733044831103 -1.570796327509324 1.660752660750339 8653.551999999941
4.8023452975973155 -1.300343432643903 1.8343627129703861 -2.1048156073899498 -1.5707963319402698 1.6607526439816276 8653.60199999994
4.802345258414269 -1.303659603542778 1.8286524065485519 -2.095789130575597 -1.570796342308069 1.6607526047451657 8653.65199999994
4.802345193674453 -1.3091387153464007 1.8192176071150283 -2.0808752201750735 -1.5707963594381669 1.660752539917095 8653.70199999994
4.802345104577716 -1.3166792215334213 1.8062331734966555 -2.060350281521064 -1.5707963830130842 1.6607524506988998 8653.751999999939
4.802344995683482 -1.325895245322711 1.7903635692354245 -2.035264654877767 -1.5707964118264017 1.6607523416562187 8653.801999999938
4.8023448739508705 -1.3361978168904423 1.7726229755270069 -2.0072214911747506 -1.5707964440367426 1.660752219757659 8653.851999999937
4.80234474777882 -1.3468761105871672 1.7542354041592816 -1.978155627740803 -1.5707964774217549 1.6607520934136086 8653.901999999936
4.802344626046208 -1.3571786821548981 1.7364948104508642 -1.9501124640377867 -1.5707965096320957 1.660751971515049 8653.951999999936
4.802344517151974 -1.366394705944188 1.7206252061896332 -1.9250268373944899 -1.5707965384454132 1.6607518624723678 8654.001999999935
4.802344428055237 -1.3739352121312087 1.7076407725712601 -1.90450189874048 -1.5707965620203306 1.6607517732541726 8654.051999999934
4.802344363315421 -1.3794143239348315 1.6982059731377366 -1.8895879883399564 -1.5707965791504284 1.6607517084261019 8654.101999999933
4.802344324132375 -1.3827304948337067 1.6924956667159021 -1.8805615115256038 -1.5707965895182276 1.66075166918964 8654.151999999933
4.802344307386492 -1.384147745783343 1.6900552203559738 -1.876703814432443 -1.5707965939491735 1.6607516524209287 8654.201999999932
4.802344304678834 -1.384376902433189 1.6896606222700719 -1.8760800597316862 -1.5707965946656173 1.6607516497095798 8654.251999999931
4.802344304678834 -1.384376902433189 1.6896606222700719 -1.8760800597316862 -1.5707965946656173 1.6607516497095798 8654.30199999993
4.802212309909164 -1.384373871400779 1.6896568459491903 -1.8760793144421866 -1.570796594646128 1.6607346151579627 8654.35199999993
4.801319584917722 -1.3843533715098446 1.689631305421826 -1.876074273798804 -1.5707965945143145 1.6606194047599698 8654.40199999993
4.798989611424414 -1.3842998676839735 1.6895646457535802 -1.8760611179382838 -1.5707965941702873 1.6603187106200612 8654.451999999928
4.7946343172108 -1.384199855858134 1.6894400424187244 -1.8760365263953482 -1.5707965935272155 1.6597566392268146 8654.501999999928
4.787750312457899 -1.3840417765526598 1.6892430936232345 -1.8759976568517203 -1.5707965925107725 1.6588682257344527 8654.551999999927
4.77791512608398 -1.383815928447232 1.688961712627827 -1.8759421238851444 -1.570796591058579 1.6575989482443698 8654.601999999926
4.764783442082378 -1.383514381954864 1.688586020070994 -1.8758679777184097 -1.5707965891196483 1.6559042420866585 8654.651999999925
4.748083335859287 -1.3831308927958859 1.6881082362920383 -1.8757736829683724 -1.5707965866538296 1.6537490141016378 8654.701999999925
4.727612510571563 -1.3826608155719262 1.6875225736541093 -1.8756580973949766 -1.5707965836312534 1.6511071569213778 8654.751999999924
4.703234533464529 -1.382101017339898 1.686825128867238 -1.8755204506502783 -1.5707965800317751 1.647961063251229 8654.801999999923
4.674875072209772 -1.3814497911859813 1.686013775311372 -1.8753603230274662 -1.5707965758444193 1.6443011401513474 8654.851999999923
4.642518131242952 -1.3807067697996072 1.6850880553594116 -1.8751776242098848 -1.5707965710668241 1.6401253233182225 8654.901999999922
4.606202288101599 -1.3798728390474417 1.6840490727002448 -1.8749725720200563 -1.5707965657046858 1.6354385913662033 8654.951999999921
4.566016929762916 -1.3789500515473696 1.6828993846617821 -1.874745671168703 -1.5707965597712024 1.6302524801090263 8655.00199999992
4.522098488981579 -1.3779415402424784 1.6816428945339927 -1.874497692003769 -1.5707965532865187 1.6245845968413415 8655.05199999992
4.474626680627545 -1.3768514319750413 1.6802847438919395 -1.8742296492594435 -1.5707965462771698 1.6184581346202391 8655.101999999919
4.4238207380238475 -1.3756847610605023 1.678831204918814 -1.8739427808051814 -1.5707965387755267 1.6119013865467775 8655.151999999918
4.369935649284402 -1.374447382861459 1.6772895727289723 -1.873638526394727 -1.5707965308192389 1.6049472600475096 8655.201999999917
4.3132583936518065 -1.3731458873616467 1.6756680576909702 -1.8733185064151359 -1.5707965224506795 1.597632791156009 8655.251999999917
4.254104177835144 -1.371787512739922 1.673975677750598 -1.8729845006357966 -1.5707965137163897 1.5899986587943984 8655.301999999916
4.192812672347786 -1.3703800589442472 1.672222150753917 -1.8726384269574534 -1.570796504666523 1.5820886990548748 8655.351999999915
4.129744247845192 -1.3689318012656735 1.6704177867702936 -1.8722823201612282 -1.5707964953542892 1.5739494194812382 8655.401999999915
4.065276211462712 -1.3674514039123251 1.668573380415436 -1.871918310657643 -1.5707964858353987 1.5656295133504166 8655.451999999914
3.9997990431533905 -1.365947833583383 1.6667001031744273 -1.8715486032356417 -1.570796476167507 1.5571793739539947 8655.501999999913
3.933712632025766 -1.3644302730430682 1.6648093957247636 -1.8711754558116132 -1.5707964664096588 1.5486506088797394 8655.551999999912
3.867422512681674 -1.3629080346946267 1.6629128602593872 -1.8708011581784123 -1.5707964566217325 1.5400955542931274 8655.601999999912
3.8013361015540488 -1.361390474154312 1.6610221528097235 -1.8704280107543838 -1.5707964468638842 1.531566789218872 8655.651999999911
3.735858933244727 -1.3598869038253698 1.659148875568715 -1.8700583033323825 -1.5707964371959926 1.52311664982245 8655.70199999991
3.6713908968622473 -1.3584065064720214 1.657304469213857 -1.8696942938287973 -1.570796427677102 1.5147967436916285 8655.75199999991
3.608322472359654 -1.3569582487934477 1.6555001052302338 -1.869338187032572 -1.5707964183648682 1.506657464117992 8655.801999999909
3.5470309668722955 -1.355550794997773 1.6537465782335528 -1.8689921133542289 -1.5707964093150015 1.4987475043784684 8655.851999999908
3.4878767510556337 -1.3541924203760485 1.6520541982931807 -1.8686581075748896 -1.5707964005807118 1.4911133720168577 8655.901999999907
3.431199495423038 -1.352890924876236 1.6504326832551786 -1.8683380875952984 -1.5707963922121524 1.4837989031253573 8655.951999999907
3.3773144066835927 -1.3516535466771926 1.6488910510653367 -1.868033833184844 -1.5707963842558645 1.4768447766260893 8656.001999999906
3.3265084640798936 -1.3504868757626536 1.6474375120922113 -1.867746964730582 -1.5707963767542215 1.4702880285526276 8656.051999999905
3.27903665572586 -1.3493967674952165 1.646079361450158 -1.8674789219862564 -1.5707963697448726 1.4641615663315255 8656.101999999904
3.235118214944524 -1.3483882561903253 1.6448228713223687 -1.8672309428213225 -1.570796363260189 1.4584936830638404 8656.151999999904
3.1949328566058393 -1.3474654686902532 1.643673183283906 -1.8670040419699692 -1.5707963573267054 1.4533075718066635 8656.201999999903
3.1586170134644878 -1.3466315379380878 1.6426342006247392 -1.8667989897801407 -1.5707963519645671 1.4486208398546445 8656.251999999902
3.126260072497666 -1.3458885165517136 1.6417084806727789 -1.8666162909625592 -1.570796347186972 1.4444450230215193 8656.301999999901
3.0979006112429097 -1.345237290397797 1.6408971271169128 -1.8664561633397472 -1.5707963429996161 1.4407850999216378 8656.3519999999
4.8023295402526855 -1.3843687337687989 1.689629379902975 -1.876077791253561 -1.570813004170553 1.660757064819336 8657.652
4.8012765255873 -1.3849546229709755 1.6903220529156473 -1.8761844008264097 -1.5708128705262605 1.6597038772633217 8657.702
4.795204469058857 -1.3883330681835262 1.6943162515027397 -1.8767991494847989 -1.5708120998858066 1.6536308237861181 8657.751999999999
4.7822681346882945 -1.395530744410265 1.7028257718313182 -1.878108853069001 -1.5708104580594267 1.6406923654461114 8657.801999999998
4.763279426306399 -1.4060959146495138 1.7153165435878737 -1.8800313126092965 -1.570808048090617 1.6217005393776118 8657.851999999997
4.740821674283863 -1.418591233895933 1.7300892521385136 -1.8823049859293037 -1.5708051978450488 1.5992391000988784 8657.901999999996
4.718363922261326 -1.4310865531423522 1.7448619606891536 -1.884578659249311 -1.5708023475994808 1.576777660820145 8657.951999999996
4.6993752138794305 -1.441651723381601 1.757352732445709 -1.8865011187896064 -1.5707999376306712 1.5577858347516453 8658.001999999995
4.686438879508868 -1.44884939960834 1.7658622527742875 -1.8878108223738086 -1.5707982958042912 1.5448473764116386 8658.051999999994
4.680366822980425 -1.4522278448208907 1.7698564513613797 -1.8884255710321978 -1.5707975251638373 1.5387743229344348 8658.101999999993
4.679313808315039 -1.4528137340230671 1.7705491243740523 -1.8885321806050466 -1.5707973915195448 1.5377211353784208 8658.151999999993
4.679313808315039 -1.4528137340230671 1.7705491243740523 -1.8885321806050466 -1.5707973915195448 1.5377211353784208 8658.201999999992
4.679313805721838 -1.4525715252642073 1.7709515278660957 -1.8891767916170832 -1.5707973886716573 1.537721132836989 8658.251999999991
4.679313789683828 -1.4510735517437556 1.7734402478383051 -1.893163477447803 -1.5707973710585041 1.5377211171191536 8658.30199999999
4.679313752157106 -1.4475685012111865 1.7792635078258228 -1.9024917700400081 -1.5707973298461655 1.5377210803415962 8658.35199999999
4.679313690153936 -1.441777314830591 1.7888849337131296 -1.9179043526867392 -1.5707972617534711 1.5377210195762268 8658.40199999999
4.679313604823449 -1.4338073229234727 1.8021262078523486 -1.939115577967596 -1.57079716804241 1.5377209359492339 8658.451999999988
4.6793135005323325 -1.424066380711545 1.8183097231815455 -1.9650399856850573 -1.5707970535085378 1.5377208337401334 8658.501999999988
4.679313383945535 -1.4131770040595288 1.8364012373430307 -1.9940208208008015 -1.5707969254713885 1.5377207194808173 8658.551999999987
4.6793132631069625 -1.4018905052179493 1.8551525268016624 -2.024058551372027 -1.5707967927648818 1.5377206010546045 8658.601999999986
4.679313146520165 -1.3910011285659332 1.8732440409631477 -2.053039386487771 -1.5707966647277325 1.5377204867952885 8658.651999999985
4.679313042229049 -1.3812601863540055 1.8894275562923444 -2.078963794205232 -1.5707965501938603 1.537720384586188 8658.701999999985
4.679312956898562 -1.3732901944468872 1.9026688304315633 -2.1001750194860893 -1.5707964564827992 1.537720300959195 8658.751999999984
4.679312894895392 -1.3674990080662917 1.9122902563188706 -2.11558760213282 -1.5707963883901048 1.5377202401938257 8658.801999999983
4.67931285736867 -1.3639939575337225 1.918113516306388 -2.1249158947250253 -1.5707963471777662 1.5377202034162682 8658.851999999983
4.67931284133066 -1.3624959840132709 1.9206022362785973 -2.1289025805557453 -1.570796329564613 1.5377201876984328 8658.901999999982
4.6793128387374585 -1.362253775254411 1.9210046397706408 -2.1295471915677817 -1.5707963267167255 1.537720185157001 8658.951999999981
4.6793128387374585 -1.362253775254411 1.9210046397706408 -2.1295471915677817 -1.5707963267167255 1.537720185157001 8659.00199999998
4.6793128387374585 -1.362253775254411 1.9210046397706408 -2.1295471915677817 -1.5707963267167255 1.537720185157001 8659.05199999998
4.6793128387374585 -1.362253775254411 1.9210046397706408 -2.1295471915677817 -1.5707963267167255 1.537720185157001 8659.101999999979
4.6793128387374585 -1.362253775254411 1.9210046397706408 -2.1295471915677817 -1.5707963267167255 1.537720185157001 8659.151999999978
4.6793128387374585 -1.362253775254411 1.9210046397706408 -2.1295471915677817 -1.5707963267167255 1.537720185157001 8659.201999999977
4.6793128387374585 -1.362253775254411 1.9210046397706408 -2.1295471915677817 -1.5707963267167255 1.537720185157001 8659.251999999977
4.6793128387374585 -1.362253775254411 1.9210046397706408 -2.1295471915677817 -1.5707963267167255 1.537720185157001 8659.301999999976
4.6793128387374585 -1.362253775254411 1.9210046397706408 -2.1295471915677817 -1.5707963267167255 1.537720185157001 8659.351999999975
4.6793128387374585 -1.362253775254411 1.9210046397706408 -2.1295471915677817 -1.5707963267167255 1.537720185157001 8659.401999999975
4.6793128387374585 -1.362253775254411 1.9210046397706408 -2.1295471915677817 -1.5707963267167255 1.537720185157001 8659.451999999974
4.6793128387374585 -1.362253775254411 1.9210046397706408 -2.1295471915677817 -1.5707963267167255 1.537720185157001 8659.501999999973
4.6793128387374585 -1.362253775254411 1.9210046397706408 -2.1295471915677817 -1.5707963267167255 1.537720185157001 8659.551999999972
4.6793128387374585 -1.362253775254411 1.9210046397706408 -2.1295471915677817 -1.5707963267167255 1.537720185157001 8659.601999999972
4.6793128387374585 -1.362253775254411 1.9210046397706408 -2.1295471915677817 -1.5707963267167255 1.537720185157001 8659.651999999971
4.67931284133066 -1.3624959840132709 1.9206022362785975 -2.128902580555745 -1.570796329564613 1.5377201876984328 8659.70199999997
4.67931285736867 -1.3639939575337225 1.918113516306388 -2.1249158947250253 -1.5707963471777662 1.5377202034162682 8659.75199999997
4.679312894895392 -1.3674990080662917 1.9122902563188704 -2.11558760213282 -1.5707963883901048 1.5377202401938257 8659.801999999969
4.679312956898562 -1.3732901944468872 1.9026688304315635 -2.100175019486089 -1.5707964564827992 1.537720300959195 8659.851999999968
4.679313042229049 -1.3812601863540055 1.8894275562923446 -2.0789637942052326 -1.5707965501938603 1.537720384586188 8659.901999999967
4.679313146520165 -1.3910011285659332 1.8732440409631477 -2.053039386487771 -1.5707966647277325 1.5377204867952885 8659.951999999967
4.6793132631069625 -1.4018905052179493 1.8551525268016624 -2.024058551372027 -1.5707967927648818 1.5377206010546045 8660.001999999966
4.679313383945535 -1.4131770040595288 1.8364012373430307 -1.9940208208008015 -1.5707969254713885 1.5377207194808173 8660.051999999965
4.6793135005323325 -1.4240663807115448 1.8183097231815455 -1.9650399856850571 -1.5707970535085378 1.5377208337401334 8660.101999999964
4.679313604823449 -1.4338073229234727 1.8021262078523488 -1.9391155779675961 -1.57079716804241 1.5377209359492339 8660.151999999964
4.679313690153936 -1.441777314830591 1.7888849337131298 -1.9179043526867392 -1.5707972617534711 1.5377210195762268 8660.201999999963
4.679313752157106 -1.4475685012111865 1.7792635078258225 -1.9024917700400081 -1.5707973298461655 1.5377210803415962 8660.251999999962
4.679313789683828 -1.4510735517437556 1.7734402478383051 -1.8931634774478028 -1.5707973710585041 1.5377211171191536 8660.301999999961
4.679313805721838 -1.4525715252642075 1.7709515278660959 -1.889176791617083 -1.5707973886716573 1.537721132836989 8660.35199999996
4.679313808315039 -1.4528137340230671 1.7705491243740523 -1.8885321806050466 -1.5707973915195448 1.5377211353784208 8660.40199999996
4.679313808315039 -1.4528137340230671 1.7705491243740523 -1.8885321806050466 -1.5707973915195448 1.5377211353784208 8660.45199999996
4.679175303241186 -1.452804680231367 1.7705382050411869 -1.888530315025606 -1.570797391431922 1.5377120919472038 8660.501999999959
4.678239892766243 -1.4527435343732507 1.7704644600291277 -1.8885177156131665 -1.5707973908401507 1.5376510160598424 8660.551999999958
4.675802587789584 -1.4525842127617428 1.7702723100696065 -1.8884848865916144 -1.5707973892982319 1.537491876764092 8660.601999999957
4.671254777467377 -1.4522869317582143 1.7699137740728024 -1.888423630341571 -1.5707973864211384 1.537194935946749 8660.651999999956
4.664079945734504 -1.4518179277702334 1.7693481314305213 -1.8883269897045367 -1.5707973818821053 1.536726468651916 8660.701999999956
4.653849387826482 -1.4511491772494165 1.7685415843193755 -1.8881891902870374 -1.5707973754099198 1.5360584833992663 8660.751999999955
4.640217926801385 -1.45025811668928 1.7674669200039654 -1.888005582764768 -1.570797366786212 1.5351684425023087 8660.801999999954
4.622919630061759 -1.449127362623092 1.7661031731400583 -1.887772585186739 -1.570797355842744 1.5340389823866518 8660.851999999953
4.6017635258765495 -1.4477444316217218 1.7644352880777687 -1.8874876252794213 -1.5707973424587007 1.5326576339082703 8660.901999999953
4.576629319903017 -1.4461014602914937 1.7624537811647394 -1.8871490827508903 -1.5707973265579804 1.5310165426717683 8660.951999999952
4.547463111708656 -1.444194925272036 1.7601544030493201 -1.8867562315949724 -1.5707973081064834 1.5291121893486455 8661.001999999951
4.514273111293121 -1.4420253632341342 1.7575378009837492 -1.8863091823953895 -1.5707972871094042 1.5269451099955607 8661.05199999995
4.4771253556101405 -1.4395970908775806 1.7546091811273326 -1.885808824629904 -1.5707972636085195 1.5245196163725974 8661.10199999995
4.436139425089443 -1.4369179249290265 1.7513779708496247 -1.8852567689744646 -1.5707972376794799 1.5218435162615287 8661.15199999995
4.3914841601586705 -1.4339989021398338 1.747857481033608 -1.88465528960735 -1.5707972094290994 1.5189278337840824 8661.201999999948
4.343373377765305 -1.4308539992839258 1.744064568378874 -1.8840072665133163 -1.5707971789926456 1.5157865297202044 8661.251999999948
4.292061587898585 -1.427499853155638 1.740019297704802 -1.8833161277877395 -1.5707971465311297 1.5124362218263259 8661.301999999947
4.2378397101114285 -1.4239554805675705 1.7357446042537408 -1.8825857919407631 -1.5707971122285973 1.508895905153626 8661.351999999946
4.1810307900423505 -1.4202419983484385 1.7312659559941874 -1.8818206102014412 -1.5707970762894172 1.5051866723662972 8661.401999999945
4.1219857159373845 -1.4163823433409235 1.726611015923969 -1.8810253088218853 -1.570797038935573 1.5013314340598116 8661.451999999945
4.061078935172003 -1.4124009923995255 1.7218093043734208 -1.8802049313814082 -1.5707970004039522 1.497354639079184 8661.501999999944
3.998704170773037 -1.4083236823884135 1.716891861308568 -1.8793647810906695 -1.570796960943637 1.4932819948372373 8661.551999999943
3.9352701379405968 -1.4041771301792767 1.7118909086343048 -1.878510363095821 -1.570796920813194 1.4891401876328678 8661.601999999943
3.8711962605699926 -1.3999887526491763 1.7068395124975762 -1.8776473267826521 -1.5707968802779644 1.4849566029693093 8661.651999999942
3.8069083877736536 -1.3957863866783968 1.7017712455905551 -1.8767814080807337 -1.5707968396073544 1.4807590458723985 8661.701999999941
3.74283451040305 -1.3915980091482965 1.6967198494538265 -1.8759183717675647 -1.5707967990721248 1.47657546120884 8661.75199999994
3.6794004775706095 -1.3874514569391596 1.6917188967795633 -1.8750639537727163 -1.5707967589416818 1.4724336540044705 8661.80199999994
3.6170257131716435 -1.3833741469280476 1.6868014537147107 -1.8742238034819776 -1.5707967194813666 1.4683610097625237 8661.851999999939
3.556118932406261 -1.3793927959866497 1.6819997421641624 -1.8734034260415005 -1.5707966809497458 1.4643842147818962 8661.901999999938
3.4970738583012957 -1.3755331409791347 1.6773448020939439 -1.8726081246619446 -1.5707966435959015 1.4605289764754106 8661.951999999937
3.4402649382322172 -1.3718196587600024 1.6728661538343905 -1.8718429429226227 -1.5707966076567215 1.4568197436880819 8662.001999999937
3.3860430604450613 -1.3682752861719352 1.6685914603833294 -1.8711126070756463 -1.570796573354189 1.453279427015382 8662.051999999936
3.334731270578342 -1.3649211400436472 1.6645461897092573 -1.8704214683500695 -1.5707965408926732 1.4499291191215034 8662.101999999935
3.286620488184976 -1.3617762371877393 1.6607532770545232 -1.8697734452560357 -1.5707965104562194 1.4467878150576254 8662.151999999935
3.241965223254203 -1.3588572143985467 1.6572327872385064 -1.8691719658889212 -1.570796482205839 1.443872132580179 8662.201999999934
3.2009792927335043 -1.3561780484499928 1.6540015769607987 -1.8686199102334817 -1.5707964562767993 1.4411960324691104 8662.251999999933
3.163831537050526 -1.353749776093439 1.651072957104382 -1.8681195524679963 -1.5707964327759145 1.4387705388461471 8662.301999999932
3.1306415366349905 -1.351580214055537 1.6484563550388112 -1.8676725032684134 -1.5707964117788353 1.4366034594930621 8662.351999999932
3.101475328440629 -1.3496736790360795 1.646156976923392 -1.8672796521124955 -1.5707963933273383 1.4346991061699392 8662.401999999931
3.076341122467098 -1.3480307077058513 1.6441754700103623 -1.8669411095839645 -1.570796377426618 1.4330580149334375 8662.45199999993
3.055185018281887 -1.346647776704481 1.6425075849480728 -1.8666561496766467 -1.5707963640425748 1.431676666455056 8662.50199999993
4.6793646812438965 -1.4528444346836586 1.7706015745746058 -1.8885461292662562 -1.5707805792437952 1.5376975536346436 8663.702
4.678525880004831 -1.4531827278099216 1.7709771648757557 -1.8885834743244232 -1.5707806820103516 1.5368592384043367 8663.751999999999
4.673592834849111 -1.4551722518950132 1.7731860360949832 -1.8888031030632717 -1.5707812863872166 1.531929051498031 8663.801999999998
4.66279376770754 -1.459527574722286 1.7780215378693507 -1.8892838984791205 -1.570782609445518 1.521136241430207 8663.851999999997
4.646368108048929 -1.4661521330777736 1.7853764607884446 -1.8900152007076019 -1.5707846218513195 1.5047200989421508 8663.901999999996
4.625991862154949 -1.47436998446371 1.7945003389793677 -1.8909223906981447 -1.570787118267068 1.4843556592228677 8663.951999999996
4.604202982394988 -1.4831575588120491 1.8042567526917324 -1.8918924738884546 -1.57078978775304 1.4625794041299947 8664.001999999995
4.583826736501009 -1.4913754101979855 1.8133806308826554 -1.8927996638789975 -1.5707922841687885 1.4422149644107116 8664.051999999994
4.567401076842398 -1.497999968553473 1.8207355538017493 -1.8935309661074788 -1.57079429657459 1.4257988219226556 8664.101999999993
4.556602009700827 -1.5023552913807459 1.8255710555761169 -1.8940117615233276 -1.5707956196328914 1.4150060118548313 8664.151999999993
4.551668964545106 -1.5043448154658374 1.8277799267953443 -1.8942313902621761 -1.5707962240097564 1.4100758249485257 8664.201999999992
4.550830163306041 -1.5046831085921004 1.8281555170964943 -1.8942687353203431 -1.5707963267763128 1.4092375097182188 8664.251999999991
4.550830163306041 -1.5046831085921004 1.8281555170964943 -1.8942687353203431 -1.5707963267763128 1.4092375097182188 8664.30199999999
4.550830163288899 -1.5044317259580535 1.8285655109525163 -1.8949301118132962 -1.570796326774864 1.4092375097011915 8664.35199999999
4.55083016318288 -1.5028770153395092 1.8311011745790515 -1.8990204860762125 -1.570796326765904 1.409237509595885 8664.40199999999
4.550830162934811 -1.4992392078568542 1.8370342762148681 -1.9085913952364206 -1.5707963267449385 1.4092375093494816 8664.451999999988
4.550830162524941 -1.4932286750690886 1.8468371869200806 -1.9244048387983568 -1.5707963267102987 1.4092375089423639 8664.501999999988
4.550830161960867 -1.484956812530443 1.8603282255177218 -1.9461677400295456 -1.5707963266626261 1.4092375083820772 8664.551999999987
4.550830161271455 -1.4748469233469939 1.8768170035353173 -1.97276640734658 -1.570796326604361 1.4092375076972936 8664.601999999986
4.550830160500762 -1.4635451017332777 1.8952497701464592 -2.0025009957011024 -1.5707963265392262 1.4092375069317757 8664.651999999985
4.550830159701963 -1.4518311165689088 1.9143547571123785 -2.033319967965784 -1.5707963264717162 1.4092375061383402 8664.701999999985
4.55083015893127 -1.4405292949551927 1.9327875237235201 -2.0630545563203064 -1.5707963264065814 1.4092375053728223 8664.751999999984
4.550830158241858 -1.4304194057717434 1.9492763017411157 -2.089653223637341 -1.5707963263483162 1.4092375046880388 8664.801999999983
4.550830157677784 -1.4221475432330979 1.9627673403387569 -2.1114161248685295 -1.5707963263006437 1.409237504127752 8664.851999999983
4.550830157267915 -1.4161370104453324 1.9725702510439698 -2.127229568430466 -1.5707963262660039 1.4092375037206344 8664.901999999982
4.5508301570198455 -1.4124992029626768 1.9785033526797864 -2.136800477590674 -1.5707963262450384 1.409237503474231 8664.951999999981
4.550830156913826 -1.410944492344133 1.9810390163063214 -2.1408908518535905 -1.5707963262360785 1.4092375033689244 8665.00199999998
4.5508301568966845 -1.410693109710086 1.9814490101623434 -2.1415522283465434 -1.5707963262346296 1.4092375033518971 8665.05199999998
4.5508301568966845 -1.410693109710086 1.9814490101623434 -2.1415522283465434 -1.5707963262346296 1.4092375033518971 8665.101999999979
4.5508301568966845 -1.410693109710086 1.9814490101623434 -2.1415522283465434 -1.5707963262346296 1.4092375033518971 8665.151999999978
4.5508301568966845 -1.410693109710086 1.9814490101623434 -2.1415522283465434 -1.5707963262346296 1.4092375033518971 8665.201999999977
4.5508301568966845 -1.410693109710086 1.9814490101623434 -2.1415522283465434 -1.5707963262346296 1.4092375033518971 8665.251999999977
4.5508301568966845 -1.410693109710086 1.9814490101623434 -2.1415522283465434 -1.5707963262346296 1.4092375033518971 8665.301999999976
4.5508301568966845 -1.410693109710086 1.9814490101623434 -2.1415522283465434 -1.5707963262346296 1.4092375033518971 8665.351999999975
4.5508301568966845 -1.410693109710086 1.9814490101623434 -2.1415522283465434 -1.5707963262346296 1.4092375033518971 8665.401999999975
4.5508301568966845 -1.410693109710086 1.9814490101623434 -2.1415522283465434 -1.5707963262346296 1.4092375033518971 8665.451999999974
4.5508301568966845 -1.410693109710086 1.9814490101623434 -2.1415522283465434 -1.5707963262346296 1.4092375033518971 8665.501999999973
4.5508301568966845 -1.410693109710086 1.9814490101623434 -2.1415522283465434 -1.5707963262346296 1.4092375033518971 8665.551999999972
4.5508301568966845 -1.410693109710086 1.9814490101623434 -2.1415522283465434 -1.5707963262346296 1.4092375033518971 8665.601999999972
4.5508301568966845 -1.410693109710086 1.9814490101623434 -2.1415522283465434 -1.5707963262346296 1.4092375033518971 8665.651999999971
4.5508301568966845 -1.410693109710086 1.9814490101623434 -2.1415522283465434 -1.5707963262346296 1.4092375033518971 8665.70199999997
4.5508301568966845 -1.410693109710086 1.9814490101623434 -2.1415522283465434 -1.5707963262346296 1.4092375033518971 8665.75199999997
4.550830156913826 -1.410944492344133 1.9810390163063214 -2.1408908518535905 -1.5707963262360785 1.4092375033689244 8665.801999999969
4.5508301570198455 -1.4124992029626773 1.9785033526797862 -2.136800477590674 -1.5707963262450384 1.409237503474231 8665.851999999968
4.550830157267915 -1.4161370104453324 1.9725702510439695 -2.1272295684304656 -1.5707963262660039 1.4092375037206344 8665.901999999967
4.550830157677784 -1.4221475432330979 1.962767340338757 -2.1114161248685295 -1.5707963263006437 1.409237504127752 8665.951999999967
4.550830158241858 -1.4304194057717434 1.9492763017411159 -2.089653223637341 -1.5707963263483162 1.4092375046880388 8666.001999999966
4.55083015893127 -1.4405292949551927 1.9327875237235204 -2.0630545563203064 -1.5707963264065814 1.4092375053728223 8666.051999999965
4.550830159701963 -1.4518311165689088 1.9143547571123785 -2.033319967965784 -1.5707963264717162 1.4092375061383402 8666.101999999964
4.550830160500762 -1.4635451017332777 1.8952497701464592 -2.0025009957011024 -1.5707963265392262 1.4092375069317757 8666.151999999964
4.550830161271455 -1.4748469233469939 1.8768170035353176 -1.97276640734658 -1.570796326604361 1.4092375076972936 8666.201999999963
4.550830161960867 -1.484956812530443 1.860328225517722 -1.9461677400295456 -1.5707963266626261 1.4092375083820772 8666.251999999962
4.550830162524941 -1.4932286750690884 1.8468371869200808 -1.924404838798357 -1.5707963267102987 1.4092375089423639 8666.301999999961
4.550830162934811 -1.4992392078568542 1.837034276214868 -1.9085913952364204 -1.5707963267449385 1.4092375093494816 8666.35199999996
4.55083016318288 -1.5028770153395095 1.8311011745790513 -1.8990204860762123 -1.570796326765904 1.409237509595885 8666.40199999996
4.550830163288899 -1.5044317259580535 1.8285655109525163 -1.894930111813296 -1.570796326774864 1.4092375097011915 8666.45199999996
4.550830163306041 -1.5046831085921004 1.8281555170964943 -1.8942687353203431 -1.5707963267763128 1.4092375097182188 8666.501999999959
4.550830163306041 -1.5046831085921004 1.8281555170964943 -1.8942687353203431 -1.5707963267763128 1.4092375097182188 8666.551999999958
4.550685404657931 -1.5046680248150421 1.8281377870472875 -1.8942660890481045 -1.570796326776461 1.4092392591832381 8666.601999999957
4.549709287030792 -1.5045663138577858 1.828018232092978 -1.894248245050443 -1.5707963267774607 1.4092510559474782 8666.651999999956
4.547170539351987 -1.5043017776487633 1.8277072861021426 -1.894201835267048 -1.5707963267800606 1.4092817377085682 8666.701999999956
4.542442647870774 -1.503809133775742 1.8271282136273703 -1.8941154066623507 -1.5707963267849026 1.4093388761308294 8666.751999999955
4.534998983724738 -1.503033507780741 1.8262165131292627 -1.8939793321546055 -1.5707963267925256 1.4094288357305444 8666.801999999954
4.524407930506207 -1.5019299254549443 1.8249193202004335 -1.893785721544973 -1.570796326803372 1.4095568327612285 8666.851999999953
4.510328011828679 -1.5004628051336162 1.823194810789507 -1.8935283324466003 -1.5707963268177916 1.409726994098898 8666.901999999953
4.492503018893244 -1.4986054499910155 1.8210116044251183 -1.8932024812137043 -1.5707963268360463 1.4099424161273424 8666.951999999952
4.470757138055012 -1.4963395403353106 1.8183481674399125 -1.892804953870652 -1.5707963268583165 1.4102052236233928 8667.001999999951
4.444990078389525 -1.4936546259034933 1.8151922161945435 -1.8923339170410434 -1.5707963268847047 1.4105166286421937 8667.05199999995
4.415172199259192 -1.490547618156294 1.811540120301675 -1.8917888288767923 -1.5707963269152416 1.4108769894024717 8667.10199999995
4.38133963787971 -1.4870222825730963 1.8073963058499773 -1.891170349987209 -1.57079632694989 1.4112858691718067 8667.15199999995
4.343589436886479 -1.4830887309468512 1.8027726586281299 -1.8904802543680819 -1.5707963269885503 1.4117420951519009 8667.201999999948
4.3020746719010345 -1.478762913678992 1.7976879273488175 -1.8897213403307582 -1.570796327031066 1.4122438173638505 8667.251999999948
4.256999579097468 -1.4740661120743486 1.7921671268727326 -1.8888973414312271 -1.570796327077228 1.4127885675334149 8667.301999999947
4.20861468276885 -1.4690244306360625 1.7862409414325724 -1.8880128373992011 -1.5707963271267795 1.4133733179762864 8667.351999999946
4.1572119228936515 -1.4636682893605013 1.77994512785704 -1.8870731650671972 -1.5707963271794216 1.4139945404833618 8667.401999999945
4.103119782702168 -1.4580319160321729 1.7733199187948423 -1.8860843292996194 -1.570796327234818 1.414648265206011 8667.451999999945
4.046698416242949 -1.4521528385186402 1.7664094259386904 -1.8850529139218402 -1.5707963272925998 1.4153301395413485 8667.501999999944
3.988334775949209 -1.4460713770654365 1.7592610432492988 -1.8839859926492817 -1.5707963273523706 1.4160354870175025 8667.551999999943
3.9284377402052626 -1.439830136590979 1.7519248501793847 -1.8828910400164993 -1.570796327413712 1.4167593661788858 8667.601999999943
3.867433240912941 -1.4334734989814835 1.7444530148976671 -1.8817758423062612 -1.5707963274761874 1.417496629471465 8667.651999999942
3.805759391058017 -1.4270471153858801 1.7368991975128671 -1.8806484084786312 -1.5707963275393482 1.418241982128032 8667.701999999941
3.7438616122766306 -1.4205973985107263 1.729317953297706 -1.879516881100051 -1.5707963276027386 1.4189900410534737 8667.75199999994
3.682187762421707 -1.414171014915123 1.7217641359129061 -1.8783894472724212 -1.5707963276658994 1.4197353937100408 8667.80199999994
3.621183263129385 -1.4078143773056275 1.7142923006311885 -1.877274249562183 -1.5707963277283747 1.42047265700262 8667.851999999939
3.5612862273854393 -1.40157313683117 1.7069561075612745 -1.8761792969294007 -1.5707963277897161 1.4211965361640033 8667.901999999938
3.5029225870916987 -1.3954916753779663 1.6998077248718828 -1.8751123756568422 -1.570796327849487 1.4219018836401573 8667.951999999937
3.446501220632479 -1.3896125978644336 1.692897232015731 -1.874080960279063 -1.5707963279072688 1.4225837579754947 8668.001999999937
3.3924090804409968 -1.3839762245361051 1.6862720229535333 -1.873092124511485 -1.570796327962665 1.423237482698144 8668.051999999936
3.341006320565797 -1.378620083260544 1.6799762093780006 -1.8721524521794812 -1.5707963280153072 1.4238587052052194 8668.101999999935
3.2926214242371783 -1.3735784018222579 1.6740500239378406 -1.8712679481474552 -1.5707963280648587 1.424443455648091 8668.151999999935
3.247546331433613 -1.3688816002176145 1.6685292234617557 -1.8704439492479241 -1.5707963281110207 1.4249882058176553 8668.201999999934
3.2060315664481696 -1.3645557829497552 1.6634444921824436 -1.8696850352106005 -1.5707963281535364 1.425489928029605 8668.251999999933
3.1682813654549378 -1.3606222313235101 1.6588208449605957 -1.8689949395914733 -1.5707963281921968 1.4259461540096992 8668.301999999932
3.134448804075454 -1.3570968957403124 1.6546770305088983 -1.86837646070189 -1.5707963282268451 1.426355033779034 8668.351999999932
3.1046309249451243 -1.3539898879931132 1.6510249346160297 -1.867831372537639 -1.570796328257382 1.426715394539312 8668.401999999931
3.0788638652796365 -1.3513049735612959 1.6478689833706608 -1.8673603357080304 -1.5707963282837702 1.427026799558113 8668.45199999993
3.057117984441402 -1.349039063905591 1.645205546385455 -1.866962808364978 -1.5707963283060404 1.4272896070541634 8668.50199999993
3.0392929915059694 -1.3471817087629903 1.6430223400210662 -1.866636957132082 -1.5707963283242952 1.427505029082608 8668.551999999929
3.025213072828442 -1.3457145884416621 1.6412978306101398 -1.8663795680337094 -1.5707963283387147 1.4276751904202774 8668.601999999928
4.550783634185791 -1.5046456170133133 1.8281663099872034 -1.8942581615843714 -1.5708368460284632 1.4092497825622559 8669.802
4.5499341825574 -1.504859077905136 1.82839224144449 -1.8942710162518817 -1.5708365816040792 1.4083999471991457 8669.851999999999
4.544938501762834 -1.5061144554240282 1.8297209591775905 -1.8943466153954407 -1.5708350265069175 1.4034020096355078 8669.901999999998
4.534002317192173 -1.5088626374670846 1.8326296923351026 -1.894512111595327 -1.57083162220022 1.3924608847085405 8669.951999999997
4.517368098387296 -1.5130426932374001 1.8370539504915404 -1.8947638355839354 -1.5708264441619277 1.3758191514942977 8670.001999999997
4.496733132141375 -1.5182281071566426 1.8425423006685002 -1.8950761024880294 -1.5708200207376213 1.35517486352516 8670.051999999996
4.474667595598352 -1.5237730127776226 1.8484111443558287 -1.8954100180709939 -1.5708131519934678 1.333099359007302 8670.101999999995
4.454032629352431 -1.528958426696865 1.8538994945327885 -1.8957222849750879 -1.5708067285691614 1.312455071038164 8670.151999999995
4.437398410547554 -1.5331384824671805 1.8583237526892262 -1.8959740089636963 -1.570801550530869 1.2958133378239212 8670.201999999994
4.426462225976893 -1.535886664510237 1.8612324858467384 -1.8961395051635825 -1.5707981462241716 1.2848722128969539 8670.251999999993
4.421466545182327 -1.537142042029129 1.862561203579839 -1.8962151043071416 -1.5707965911270099 1.2798742753333157 8670.301999999992
4.420617093553936 -1.5373555029209518 1.8627871350371255 -1.8962279589746518 -1.570796326702626 1.2790244399702058 8670.351999999992
4.420617093553936 -1.5373555029209518 1.8627871350371255 -1.8962279589746518 -1.570796326702626 1.2790244399702058 8670.401999999991
4.420617093508544 -1.5370986896781664 1.8632025402836998 -1.8969001774701757 -1.5707963266981555 1.2790244399251052 8670.45199999999
4.420617093227808 -1.5355103927098617 1.8657716714024684 -1.9010576055953725 -1.5707963266705074 1.2790244396461745 8670.50199999999
4.420617092570923 -1.5317939978212822 1.8717830823340607 -1.910785411504748 -1.5707963266058145 1.2790244389935155 8670.551999999989
4.4206170914855925 -1.5256536197400903 1.881715378827853 -1.926858086227118 -1.5707963264989264 1.2790244379151656 8670.601999999988
4.42061708999193 -1.5172030604941085 1.8953844817494696 -1.9489777485975532 -1.5707963263518239 1.2790244364311107 8670.651999999987
4.420617088166373 -1.5068747677890606 1.9120908903882836 -1.9760124501893226 -1.570796326172035 1.2790244346172954 8670.701999999987
4.420617086125587 -1.4953287933863155 1.9307669457649166 -2.0062344802458356 -1.5707963259710493 1.2790244325896354 8670.751999999986
4.420617084010376 -1.4833617514806283 1.950124093938739 -2.037558670612587 -1.570796325762734 1.2790244304880294 8670.801999999985
4.420617081969589 -1.4718157770778832 1.968800149315372 -2.0677807006691 -1.5707963255617483 1.2790244284603693 8670.851999999984
4.420617080144032 -1.4614874843728356 1.985506557954186 -2.094815402260869 -1.5707963253819595 1.279024426646554 8670.901999999984
4.42061707865037 -1.4530369251268536 1.9991756608758027 -2.1169350646313045 -1.570796325234857 1.2790244251624991 8670.951999999983
4.420617077565039 -1.4468965470456616 2.0091079573695954 -2.133007739353675 -1.5707963251279689 1.2790244240841493 8671.001999999982
4.4206170769081545 -1.4431801521570822 2.015119368301187 -2.1427355452630503 -1.570796325063276 1.2790244234314903 8671.051999999981
4.420617076627418 -1.4415918551887774 2.0176884994199558 -2.1468929733882476 -1.5707963250356278 1.2790244231525596 8671.10199999998
4.420617076582026 -1.441335041945992 2.01810390466653 -2.147565191883771 -1.5707963250311574 1.279024423107459 8671.15199999998
4.420617076582026 -1.441335041945992 2.01810390466653 -2.147565191883771 -1.5707963250311574 1.279024423107459 8671.20199999998
4.420617076582026 -1.441335041945992 2.01810390466653 -2.147565191883771 -1.5707963250311574 1.279024423107459 8671.251999999979
4.420617076582026 -1.441335041945992 2.01810390466653 -2.147565191883771 -1.5707963250311574 1.279024423107459 8671.301999999978
4.420617076582026 -1.441335041945992 2.01810390466653 -2.147565191883771 -1.5707963250311574 1.279024423107459 8671.351999999977
4.420617076582026 -1.441335041945992 2.01810390466653 -2.147565191883771 -1.5707963250311574 1.279024423107459 8671.401999999976
4.420617076582026 -1.441335041945992 2.01810390466653 -2.147565191883771 -1.5707963250311574 1.279024423107459 8671.451999999976
4.420617076582026 -1.441335041945992 2.01810390466653 -2.147565191883771 -1.5707963250311574 1.279024423107459 8671.501999999975
4.420617076582026 -1.441335041945992 2.01810390466653 -2.147565191883771 -1.5707963250311574 1.279024423107459 8671.551999999974
4.420617076582026 -1.441335041945992 2.01810390466653 -2.147565191883771 -1.5707963250311574 1.279024423107459 8671.601999999973
4.420617076582026 -1.441335041945992 2.01810390466653 -2.147565191883771 -1.5707963250311574 1.279024423107459 8671.651999999973
4.420617076582026 -1.441335041945992 2.01810390466653 -2.147565191883771 -1.5707963250311574 1.279024423107459 8671.701999999972
4.420617076582026 -1.441335041945992 2.01810390466653 -2.147565191883771 -1.5707963250311574 1.279024423107459 8671.751999999971
4.420617076582026 -1.441335041945992 2.01810390466653 -2.147565191883771 -1.5707963250311574 1.279024423107459 8671.80199999997
4.420617076582026 -1.441335041945992 2.01810390466653 -2.147565191883771 -1.5707963250311574 1.279024423107459 8671.85199999997
4.420617076627418 -1.4415918551887774 2.0176884994199558 -2.146892973388247 -1.5707963250356278 1.2790244231525596 8671.90199999997
4.4206170769081545 -1.4431801521570822 2.015119368301187 -2.14273554526305 -1.570796325063276 1.2790244234314903 8671.951999999968
4.420617077565039 -1.4468965470456616 2.009107957369595 -2.133007739353675 -1.5707963251279689 1.2790244240841493 8672.001999999968
4.42061707865037 -1.4530369251268536 1.9991756608758027 -2.1169350646313045 -1.570796325234857 1.2790244251624991 8672.051999999967
4.420617080144032 -1.4614874843728354 1.985506557954186 -2.094815402260869 -1.5707963253819595 1.279024426646554 8672.101999999966
4.420617081969589 -1.4718157770778832 1.968800149315372 -2.0677807006691 -1.5707963255617483 1.2790244284603693 8672.151999999965
4.420617084010376 -1.4833617514806283 1.950124093938739 -2.037558670612587 -1.570796325762734 1.2790244304880294 8672.201999999965
4.420617086125587 -1.4953287933863155 1.9307669457649166 -2.0062344802458356 -1.5707963259710493 1.2790244325896354 8672.251999999964
4.420617088166373 -1.5068747677890606 1.9120908903882836 -1.9760124501893226 -1.570796326172035 1.2790244346172954 8672.301999999963
4.42061708999193 -1.5172030604941082 1.8953844817494696 -1.9489777485975535 -1.5707963263518239 1.2790244364311107 8672.351999999963
4.4206170914855925 -1.5256536197400903 1.881715378827853 -1.926858086227118 -1.5707963264989264 1.2790244379151656 8672.401999999962
4.420617092570923 -1.5317939978212822 1.8717830823340604 -1.9107854115047478 -1.5707963266058145 1.2790244389935155 8672.451999999961
4.420617093227808 -1.5355103927098617 1.8657716714024681 -1.9010576055953723 -1.5707963266705074 1.2790244396461745 8672.50199999996
4.420617093508544 -1.5370986896781664 1.8632025402836996 -1.8969001774701753 -1.5707963266981555 1.2790244399251052 8672.55199999996
4.420617093553936 -1.5373555029209518 1.8627871350371255 -1.8962279589746518 -1.570796326702626 1.2790244399702058 8672.601999999959
4.420617093553936 -1.5373555029209518 1.8627871350371255 -1.8962279589746518 -1.570796326702626 1.2790244399702058 8672.651999999958
4.420455819658298 -1.537333453325698 1.8627616450330144 -1.89622451856568 -1.5707963267028147 1.2790413372416032 8672.701999999957
4.419371182444854 -1.5371851601908468 1.8625902136496506 -1.896201380316397 -1.5707963267040832 1.2791549787537073 8672.751999999957
4.416558795381848 -1.536800646651372 1.862145704279338 -1.896141384483562 -1.570796326707373 1.2794496431027642 8672.801999999956
4.41133842162731 -1.5360869097635366 1.8613206026846998 -1.896030019773052 -1.5707963267134795 1.2799966012560173 8672.851999999955
4.4031477665445715 -1.5349670718088295 1.860026035880163 -1.8958552909174058 -1.5707963267230602 1.2808547669331574 8672.901999999955
4.391536270217773 -1.5333795315979015 1.8581907910134428 -1.8956075862533677 -1.5707963267366425 1.282071346987773 8672.951999999954
4.376158899967376 -1.5312771157744998 1.8557603342470255 -1.895279545299432 -1.5707963267546299 1.2836824917888006 8673.001999999953
4.356769942865675 -1.5286262301194036 1.8526958296396534 -1.8948659263333867 -1.5707963267773097 1.2857139456019744 8673.051999999952
4.333216798252302 -1.5254060108543606 1.8489731580278086 -1.8943634739698587 -1.5707963268048604 1.2881816969712767 8673.101999999952
4.305433770249745 -1.5216074759460212 1.8445819359071969 -1.8937707867378564 -1.570796326837359 1.2910926291003884 8673.151999999951
4.273435860278854 -1.5172326764098745 1.839524534314232 -1.8930881846583147 -1.5707963268747878 1.294445170234138 8673.20199999995
4.23731255957435 -1.512293847614184 1.8338150977075192 -1.8923175768216394 -1.5707963269170422 1.298229944039953 8673.25199999995
4.197221641700341 -1.5068125605839229 1.82747856284934 -1.8914623289652506 -1.5707963269639376 1.3024304199893089 8673.301999999949
4.153382955065828 -1.5008188733047096 1.8205496776871353 -1.890527131051127 -1.5707963270152168 1.3070235637391807 8673.351999999948
4.106072215440217 -1.494350482026743 1.81307202023499 -1.8895178648433506 -1.5707963270705574 1.3119804875134917 8673.401999999947
4.055614798468831 -1.4874518725687382 1.805097017455117 -1.8884414714856501 -1.5707963271295788 1.3172671004845642 8673.451999999947
4.002379532188417 -1.4801734716218622 1.7966829641393414 -1.8873058190789453 -1.5707963271918495 1.3228447591545698 8673.501999999946
3.9467724895426604 -1.4725707980536682 1.787894041790583 -1.8861195702588918 -1.5707963272568946 1.3286709177369789 8673.551999999945
3.8892307808976923 -1.464703614212033 1.7787993375043434 -1.8848920497734236 -1.5707963273242027 1.334699778538012 8673.601999999944
3.830216346557603 -1.4566350772290915 1.7694718628501862 -1.8836331120602992 -1.5707963273932335 1.3408829423380881 8673.651999999944
3.7702097492799505 -1.448430890325171 1.7599875727532244 -1.882353008824644 -1.5707963274634247 1.3471700587732767 8673.701999999943
3.7097039667912712 -1.440158454112729 1.7504243843756022 -1.8810622566164956 -1.5707963275341998 1.3535094767167464 8673.751999999942
3.649198184302592 -1.431886017900287 1.74086119599798 -1.879771504408347 -1.5707963276049752 1.359848894660216 8673.801999999941
3.5891915870249393 -1.4236818309963666 1.7313769059010182 -1.8784914011726919 -1.5707963276751664 1.3661360110954046 8673.85199999994
3.5301771526848498 -1.4156132940134247 1.722049431246861 -1.8772324634595674 -1.5707963277441972 1.3723191748954808 8673.90199999994
3.4726354440398817 -1.4077461101717896 1.7129547269606213 -1.8760049429740993 -1.5707963278115054 1.3783480356965139 8673.95199999994
3.417028401394125 -1.4001434366035959 1.704165804611863 -1.8748186941540457 -1.5707963278765504 1.384174194278923 8674.001999999939
3.3637931351137116 -1.3928650356567196 1.6957517512960876 -1.8736830417473411 -1.570796327938821 1.3897518529489283 8674.051999999938
3.313335718142324 -1.3859664261987148 1.6877767485162143 -1.8726066483896404 -1.5707963279978425 1.395038465920001 8674.101999999937
3.266024978516714 -1.3794980349207482 1.6802990910640694 -1.871597382181864 -1.5707963280531831 1.399995389694312 8674.151999999936
3.2221862918822017 -1.3735043476415347 1.6733702059018645 -1.8706621842677404 -1.5707963281044623 1.4045885334441839 8674.201999999936
3.1820953740081928 -1.368023060611274 1.6670336710436855 -1.8698069364113516 -1.5707963281513577 1.4087890093935398 8674.251999999935
3.145972073303689 -1.3630842318155836 1.6613242344369725 -1.8690363285746763 -1.5707963281936121 1.4125737831993548 8674.301999999934
3.113974163332797 -1.3587094322794369 1.6562668328440073 -1.8683537264951346 -1.5707963282310409 1.4159263243331044 8674.351999999933
3.08619113533024 -1.3549108973710973 1.6518756107233958 -1.8677610392631323 -1.5707963282635395 1.4188372564622158 8674.401999999933
3.0626379907168646 -1.351690678106054 1.648152939111551 -1.8672585868996041 -1.5707963282910902 1.4213050078315186 8674.451999999932
3.043249033615165 -1.349039792450958 1.645088434504179 -1.866844967933559 -1.57079632831377 1.4233364616446922 8674.501999999931
3.027871663364767 -1.3469373766275563 1.6426579777377617 -1.8665169269796233 -1.5707963283317574 1.4249476064457198 8674.55199999993
3.01626016703797 -1.3453498364166283 1.6408227328710414 -1.8662692223155852 -1.5707963283453397 1.4261641865003356 8674.60199999993
3.008069511955231 -1.3442299984619215 1.6395281660665046 -1.866094493459939 -1.5707963283549204 1.4270223521774756 8674.65199999993
3.002849138200691 -1.3435162615740859 1.6387030644718663 -1.865983128749429 -1.570796328361027 1.4275693103307285 8674.701999999928
4.420556545257568 -1.5373587508550663 1.8628266493426722 -1.8962537250914515 -1.570772949849264 1.278996467590332 8675.752
4.420543013252011 -1.5373599550451245 1.8628278900031303 -1.8962537626760763 -1.570772952329864 1.2791496154608428 8675.802
4.420451921521024 -1.5373680611426543 1.8628362416039494 -1.8962540156798544 -1.5707729690282122 1.280180542071328 8675.851999999999
4.420215475276539 -1.5373891020900339 1.8628579198027024 -1.8962546724002014 -1.5707730123720116 1.2828565119178348 8675.901999999998
4.419776080047226 -1.5374282031208786 1.8628982050571077 -1.8962558928035453 -1.570773092919109 1.2878293478658136 8675.951999999997
4.419085844102066 -1.5374896260385194 1.862961488244533 -1.8962578099073268 -1.5707732194487076 1.2956410624491697 8676.001999999997
4.418106080873924 -1.5375768134944778 1.8630513162815014 -1.8962605311619973 -1.570773399052579 1.3067294891693175 8676.051999999996
4.416806811383122 -1.5376924332669433 1.8631704377431972 -1.8962641398330196 -1.5707736372262764 1.3214339137942344 8676.101999999995
4.415166266661014 -1.5378384225392474 1.863320848482969 -1.8962686963828663 -1.5707739379603465 1.3400007056575136 8676.151999999995
4.413170390173562 -1.538016032178342 1.8635038372518369 -1.8962742398530203 -1.5707743038315425 1.3625889489574181 8676.201999999994
4.410812340244904 -1.5382258710132743 1.863720031317996 -1.896280789245973 -1.570774736094036 1.3892760740559347 8676.251999999993
4.408091992480936 -1.5384679501136636 1.8639694420863226 -1.896288344907224 -1.5707752347706305 1.4200634887778265 8676.301999999992
4.405015442192877 -1.5387417270681765 1.8642515107178792 -1.8962968899072812 -1.5707757987439728 1.4548822097096876 8676.351999999992
4.401594506820849 -1.5390461502630044 1.864565153749419 -1.8963063914236589 -1.5707764258477657 1.4935984934989959 8676.401999999991
4.397846228357449 -1.5393797031603385 1.8649088087128916 -1.896316802122879 -1.5707771129579815 1.5360194681531665 8676.45199999999
4.393792375771322 -1.5397404485768467 1.8652804797549476 -1.8963280615424678 -1.5707778560840733 1.5818987643386064 8676.50199999999
4.389458947430735 -1.5401260729621493 1.8656777832564448 -1.8963400974729583 -1.570778650460188 1.6309421466797671 8676.551999999989
4.384875673527154 -1.5405339306772958 1.8660979934519517 -1.8963528273398873 -1.5707794906363788 1.6828131450581973 8676.601999999988
4.3800755184988125 -1.5409610882732403 1.8665380880492541 -1.8963661595857961 -1.5707803705698176 1.7371386859115998 8676.651999999987
4.375094183454289 -1.541404368769318 1.8669947938488594 -1.896379995052229 -1.5707812837160073 1.7935147235328803 8676.701999999987
4.369969608596079 -1.5418603959317212 1.8674646323635018 -1.8963942283617334 -1.5707822231199955 1.8515118713692056 8676.751999999986
4.36474147564417 -1.542325638551976 1.867943965437648 -1.896408749299859 -1.570783181507585 1.9106810333210535 8676.801999999985
4.359450710259616 -1.5427964547254178 1.8684290408670017 -1.8964234441971561 -1.5707841513765477 1.9705590350412683 8676.851999999984
4.3541389844681095 -1.5432691361296682 1.8689160380180083 -1.8964381973111772 -1.5707851250878369 2.030674255234115 8676.901999999984
4.348848219083556 -1.5437399523031101 1.869401113447362 -1.8964528922084745 -1.5707860949567996 2.0905522569543296 8676.951999999983
4.343620086131647 -1.5442051949233648 1.8698804465215082 -1.8964674131466 -1.570787053344389 2.149721418906178 8677.001999999982
4.338495511273437 -1.544661222085768 1.8703502850361506 -1.8964816464561043 -1.5707879927483772 2.2077185667425034 8677.051999999981
4.333514176228913 -1.5451045025818457 1.8708069908357559 -1.8964954819225373 -1.570788905894567 2.264094604363783 8677.10199999998
4.328714021200572 -1.5455316601777902 1.8712470854330583 -1.896508814168446 -1.5707897858280058 2.318420145217186 8677.15199999998
4.324130747296991 -1.5459395178929367 1.8716672956285652 -1.896521544035375 -1.5707906260041966 2.370291143595616 8677.20199999998
4.319797318956404 -1.5463251422782394 1.8720645991300624 -1.8965335799658656 -1.5707914203803113 2.419334525936777 8677.251999999979
4.315743466370277 -1.5466858876947476 1.8724362701721184 -1.8965448393854545 -1.570792163506403 2.465213822122217 8677.301999999978
4.311995187906877 -1.5470194405920816 1.872779925135591 -1.8965552500846745 -1.5707928506166189 2.5076347967763883 8677.351999999977
4.308574252534849 -1.5473238637869096 1.8730935681671308 -1.8965647516010522 -1.5707934777204118 2.546351080565696 8677.401999999976
4.30549770224679 -1.5475976407414225 1.8733756367986873 -1.8965732966011093 -1.570794041693754 2.5811698014975564 8677.451999999976
4.302777354482822 -1.5478397198418117 1.8736250475670142 -1.8965808522623604 -1.5707945403703485 2.611957216219449 8677.501999999975
4.300419304554165 -1.548049558676744 1.8738412416331731 -1.896587401655313 -1.570794972632842 2.638644341317966 8677.551999999974
4.2984234280667115 -1.5482271683158386 1.874024230402041 -1.896592945125467 -1.570795338504038 2.6612325846178706 8677.601999999973
4.296782883344604 -1.5483731575881428 1.8741746411418128 -1.8965975016753138 -1.5707956392381082 2.6797993764811494 8677.651999999973
4.2954836138538015 -1.5484887773606082 1.8742937626035086 -1.896601110346336 -1.5707958774118056 2.694503801106068 8677.701999999972
4.294503850625659 -1.5485759648165667 1.874383590640477 -1.8966038316010065 -1.570796057015677 2.7055922278262123 8677.751999999971
4.2938136146804995 -1.5486373877342074 1.8744468738279023 -1.896605748704788 -1.5707961835452755 2.7134039424095686 8677.80199999997
4.293374219451187 -1.5486764887650522 1.8744871590823076 -1.896606969108132 -1.570796264092373 2.7183767783575483 8677.85199999997
4.293137773206702 -1.5486975297124317 1.8745088372810605 -1.896607625828479 -1.5707963074361724 2.7210527482040554 8677.90199999997
4.293046681475714 -1.5487056358099616 1.8745171888818797 -1.8966078788322571 -1.5707963241345206 2.722083674814538 8677.951999999968
4.2930331494701575 -1.5487068400000197 1.8745184295423378 -1.8966079164168819 -1.5707963266151206 2.7222368226850513 8678.001999999968
4.2930331494701575 -1.5487068400000197 1.8745184295423378 -1.8966079164168819 -1.5707963266151206 2.7222368226850513 8678.051999999967
4.293033149408071 -1.5484923406050548 1.8748646125879476 -1.8971685988639604 -1.570796326608723 2.7222368226233526 8678.101999999966
4.2930331490208715 -1.5471546242579515 1.8770235684175323 -1.9006652710812093 -1.5707963265688247 2.722236822238571 8678.151999999965
4.293033148105164 -1.5439909887275693 1.8821293962604755 -1.9089347345504593 -1.5707963264744673 2.722236821328582 8678.201999999965
4.293033146572863 -1.5386971141500287 1.8906732414523368 -1.9227724544803775 -1.5707963263165738 2.7222368198058495 8678.251999999964
4.293033144431975 -1.5313006659675001 1.9026104544171567 -1.9421061158519937 -1.57079632609597 2.7222368176783323 8678.301999999963
4.293033141767385 -1.5220948978669953 1.9174677496497587 -1.9661691794642293 -1.570796325821402 2.7222368150303815 8678.351999999963
4.2930331387216265 -1.5115722547191561 1.934450364698056 -1.9936744379794233 -1.5707963255075572 2.722236812003644 8678.401999999962
4.293033135475676 -1.5003579755170444 1.9525492191453524 -2.0229875719688604 -1.570796325173084 2.7222368087779643 8678.451999999961
4.293033132229726 -1.489143696314933 1.970648073592649 -2.0523007059582974 -1.5707963248386108 2.7222368055522845 8678.50199999996
4.293033129183968 -1.4786210531670936 1.9876306886409458 -2.079805964473491 -1.570796324524766 2.722236802525547 8678.55199999996
4.2930331265193775 -1.4694152850665887 2.0024879838735483 -2.103869028085727 -1.5707963242501979 2.7222367998775963 8678.601999999959
4.29303312437849 -1.46201883688406 2.014425196838368 -2.1232026894573433 -1.5707963240295941 2.722236797750079 8678.651999999958
4.293033122846189 -1.4567249623065195 2.0229690420302293 -2.1370404093872613 -1.5707963238717007 2.7222367962273464 8678.701999999957
4.293033121930481 -1.4535613267761374 2.0280748698731728 -2.145309872856511 -1.5707963237773432 2.7222367953173574 8678.751999999957
4.2930331215432815 -1.452223610429034 2.0302338257027572 -2.14880654507376 -1.570796323737445 2.722236794932576 8678.801999999956
4.293033121481195 -1.4520091110340692 2.030580008748367 -2.149367227520839 -1.5707963237310474 2.722236794870877 8678.851999999955
4.293033121481195 -1.4520091110340692 2.030580008748367 -2.149367227520839 -1.5707963237310474 2.722236794870877 8678.901999999955
4.293033121481195 -1.4520091110340692 2.030580008748367 -2.149367227520839 -1.5707963237310474 2.722236794870877 8678.951999999954
4.293033121481195 -1.4520091110340692 2.030580008748367 -2.149367227520839 -1.5707963237310474 2.722236794870877 8679.001999999953
4.293033121481195 -1.4520091110340692 2.030580008748367 -2.149367227520839 -1.5707963237310474 2.722236794870877 8679.051999999952
4.293033121481195 -1.4520091110340692 2.030580008748367 -2.149367227520839 -1.5707963237310474 2.722236794870877 8679.101999999952
4.293033121481195 -1.4520091110340692 2.030580008748367 -2.149367227520839 -1.5707963237310474 2.722236794870877 8679.151999999951
4.293033121481195 -1.4520091110340692 2.030580008748367 -2.149367227520839 -1.5707963237310474 2.722236794870877 8679.20199999995
4.293033121481195 -1.4520091110340692 2.030580008748367 -2.149367227520839 -1.5707963237310474 2.722236794870877 8679.25199999995
4.293033121481195 -1.4520091110340692 2.030580008748367 -2.149367227520839 -1.5707963237310474 2.722236794870877 8679.301999999949
4.293033121481195 -1.4520091110340692 2.030580008748367 -2.149367227520839 -1.5707963237310474 2.722236794870877 8679.351999999948
4.293033121481195 -1.4520091110340692 2.030580008748367 -2.149367227520839 -1.5707963237310474 2.722236794870877 8679.401999999947
4.293033121481195 -1.4520091110340692 2.030580008748367 -2.149367227520839 -1.5707963237310474 2.722236794870877 8679.451999999947
4.293033121481195 -1.4520091110340692 2.030580008748367 -2.149367227520839 -1.5707963237310474 2.722236794870877 8679.501999999946
4.293033121481195 -1.4520091110340692 2.030580008748367 -2.149367227520839 -1.5707963237310474 2.722236794870877 8679.551999999945
4.2930331215432815 -1.452223610429034 2.0302338257027572 -2.1488065450737603 -1.570796323737445 2.722236794932576 8679.601999999944
4.293033121930481 -1.4535613267761374 2.0280748698731723 -2.1453098728565116 -1.5707963237773432 2.7222367953173574 8679.651999999944
4.293033122846189 -1.4567249623065195 2.0229690420302293 -2.1370404093872613 -1.5707963238717007 2.7222367962273464 8679.701999999943
4.29303312437849 -1.46201883688406 2.014425196838368 -2.1232026894573433 -1.5707963240295941 2.722236797750079 8679.751999999942
4.2930331265193775 -1.4694152850665887 2.0024879838735483 -2.103869028085727 -1.5707963242501979 2.7222367998775963 8679.801999999941
4.293033129183968 -1.4786210531670936 1.987630688640946 -2.079805964473491 -1.570796324524766 2.722236802525547 8679.85199999994
4.293033132229726 -1.4891436963149327 1.9706480735926488 -2.0523007059582974 -1.5707963248386108 2.7222368055522845 8679.90199999994
4.293033135475676 -1.5003579755170444 1.9525492191453524 -2.0229875719688604 -1.570796325173084 2.7222368087779643 8679.95199999994
4.2930331387216265 -1.511572254719156 1.9344503646980558 -1.9936744379794233 -1.5707963255075572 2.722236812003644 8680.001999999939
4.293033141767385 -1.5220948978669953 1.917467749649759 -1.9661691794642295 -1.570796325821402 2.7222368150303815 8680.051999999938
4.293033144431975 -1.5313006659675001 1.9026104544171565 -1.9421061158519937 -1.57079632609597 2.7222368176783323 8680.101999999937
4.293033146572863 -1.5386971141500287 1.8906732414523368 -1.9227724544803775 -1.5707963263165738 2.7222368198058495 8680.151999999936
4.293033148105164 -1.5439909887275693 1.8821293962604755 -1.9089347345504595 -1.5707963264744673 2.722236821328582 8680.201999999936
4.2930331490208715 -1.5471546242579515 1.8770235684175323 -1.9006652710812095 -1.5707963265688247 2.722236822238571 8680.251999999935
4.293033149408071 -1.5484923406050548 1.8748646125879476 -1.8971685988639606 -1.570796326608723 2.7222368226233526 8680.301999999934
4.2930331494701575 -1.5487068400000197 1.8745184295423378 -1.8966079164168819 -1.5707963266151206 2.7222368226850513 8680.351999999933
4.2930331494701575 -1.5487068400000197 1.8745184295423378 -1.8966079164168819 -1.5707963266151206 2.7222368226850513 8680.401999999933
4.292864639105686 -1.5486800519419135 1.8744876428646378 -1.8966039177971543 -1.5707963266153486 2.722068312320609 8680.451999999932
4.291733551906087 -1.5485002432415933 1.8742809943467607 -1.8965770779787012 -1.5707963266168785 2.720937225121201 8680.501999999931
4.288807437163939 -1.5480350793806994 1.8737463960639613 -1.8965076435544763 -1.5707963266208365 2.718011110379551 8680.55199999993
4.283389317948624 -1.5471737620794066 1.8727565110171482 -1.8963790758046617 -1.5707963266281653 2.7125929911651556 8680.60199999993
4.274910560907537 -1.5458258958101845 1.8712074504525875 -1.896177881502603 -1.570796326639634 2.704114234125508 8680.65199999993
4.262923746067311 -1.5439203543115598 1.8690174711816043 -1.895893443720744 -1.570796326655848 2.6921274192873175 8680.701999999928
4.24709553663504 -1.5414041471018765 1.8661256729002855 -1.8955178526365632 -1.570796326677258 2.6762992098577354 8680.751999999928
4.2271995487995015 -1.5382412859930583 1.862490695509182 -1.8950457363385087 -1.5707963267041702 2.6564032220255753 8680.801999999927
4.2031092215323715 -1.53441165160437 1.8580894164330115 -1.894474091631933 -1.570796326736756 2.632312894762536 8680.851999999926
4.174790686389451 -1.5299098598761776 1.8529156479403601 -1.8938021148450288 -1.5707963267750609 2.603994359624424 8680.901999999925
4.142295637311885 -1.5247441285837116 1.8469788344633855 -1.8930310326347655 -1.5707963268190153 2.571499310552377 8680.951999999925
4.105754200427387 -1.5189351438508265 1.8403027499175193 -1.892163932792822 -1.570796326868443 2.5349578736740837 8681.001999999924
4.065367803851455 -1.5125149266637636 1.8329241950211685 -1.8912055950515243 -1.5707963269230716 2.4945714771050103 8681.051999999923
4.021402047488597 -1.505525699384912 1.8248916946154192 -1.8901623218897803 -1.5707963269825416 2.4506057207496195 8681.101999999923
3.9741795728335525 -1.4980187522665687 1.8162641949837381 -1.8890417693390145 -1.570796327046417 2.4033832461025937 8681.151999999922
3.924072932772509 -1.4900533099647022 1.807109761171675 -1.8878527777891043 -1.5707963271141936 2.3532766060500587 8681.201999999921
3.8714974613843274 -1.4816953980527123 1.797504274306566 -1.8866052027943143 -1.5707963271853098 2.300701134670806 8681.25199999992
3.816904143741764 -1.4730167095351918 1.7875301289172338 -1.8853097458792327 -1.5707963272591552 2.2461078170375135 8681.30199999992
3.7607724857126885 -1.4640934713616884 1.777274930253693 -1.8839777853447064 -1.5707963273350816 2.18997615901797 8681.351999999919
3.7036033837613065 -1.4550053109404653 1.7668301916068505 -1.8826212070737758 -1.5707963274124113 2.1328070570762963 8681.401999999918
3.645911994749382 -1.4458341226522629 1.7562900316282084 -1.8812522353376107 -1.5707963274904473 2.075115668074169 8681.451999999917
3.5882206057374573 -1.4366629343640605 1.7457498716495663 -1.8798832636014453 -1.5707963275684833 2.017424279072042 8681.501999999917
3.5310515037860757 -1.4275747739428373 1.7353051330027238 -1.8785266853305147 -1.570796327645813 1.9602551771303682 8681.551999999916
3.4749198457569994 -1.418651535769334 1.7250499343391832 -1.8771947247959884 -1.5707963277217394 1.9041235191108248 8681.601999999915
3.420326528114437 -1.4099728472518134 1.7150757889498511 -1.8758992678809068 -1.5707963277955848 1.8495302014775326 8681.651999999915
3.3677510567262554 -1.4016149353398235 1.7054703020847417 -1.8746516928861168 -1.570796327866701 1.796954730098279 8681.701999999914
3.3176444166652117 -1.393649493037957 1.6963158682726787 -1.8734627013362064 -1.5707963279344777 1.7468480900457446 8681.751999999913
3.2704219420101666 -1.386142545919614 1.6876883686409976 -1.8723421487854408 -1.570796327998353 1.6996256153987193 8681.801999999912
3.22645618564731 -1.3791533186407618 1.6796558682352483 -1.8712988756236968 -1.570796328057823 1.655659859043328 8681.851999999912
3.186069789071378 -1.3727331014536992 1.6722773133388977 -1.8703405378823992 -1.5707963281124515 1.6152734624742537 8681.901999999911
3.149528352186879 -1.3669241167208142 1.665601228793031 -1.8694734380404556 -1.5707963281618793 1.5787320255959614 8681.95199999991
3.117033303109314 -1.3617583854283482 1.659664415316057 -1.8687023558301923 -1.5707963282058337 1.5462369765239137 8682.00199999991
3.088714767966393 -1.357256593700156 1.6544906468234053 -1.8680303790432882 -1.5707963282441386 1.5179184413858025 8682.051999999909
3.064624440699262 -1.3534269593114674 1.650089367747235 -1.8674587343367124 -1.5707963282767243 1.4938281141227634 8682.101999999908
3.0447284528637235 -1.3502640982026493 1.6464543903561315 -1.8669866180386578 -1.5707963283036366 1.4739321262906033 8682.151999999907
3.028900243431454 -1.3477478909929659 1.6435625920748125 -1.8666110269544771 -1.5707963283250466 1.4581039168610204 8682.201999999907
3.016913428591228 -1.345842349494341 1.6413726128038295 -1.8663265891726182 -1.5707963283412605 1.4461171020228303 8682.251999999906
3.008434671550142 -1.3444944832251193 1.6398235522392688 -1.8661253948705594 -1.5707963283527293 1.4376383449831849 8682.301999999905
3.0030165523348247 -1.3436331659238263 1.6388336671924557 -1.8659968271207448 -1.5707963283600581 1.4322202257687842 8682.351999999904
3.000090437592678 -1.3431680020629326 1.6382990689096562 -1.8659273926965199 -1.570796328364016 1.4292941110271364 8682.401999999904
2.9989593503930765 -1.3429881933626122 1.6380924203917788 -1.8659005528780668 -1.570796328365546 1.428163023827727 8682.451999999903
