Andreas691667/Digital_Twin_UR/src/dt/dt_trajectories/case1_2miss_shift_sim_dt_trajectory.csv
actual_q_0 actual_q_1 actual_q_2 actual_q_3 actual_q_4 actual_q_5 actual_qd_0 actual_qd_1 actual_qd_2 actual_qd_3 actual_qd_4 actual_qd_5 actual_qdd_0 actual_qdd_1 actual_qdd_2 actual_qdd_3 actual_qdd_4 actual_qdd_5 timestamp
3.71207804710797 -0.8254843255005873 0.8429764792549035 -1.5882884806323445 -1.570796326807946 2.141281720311417 0.0 0.0 0.0 0.0 0.0 0.0 0.0 0.0 0.0 0.0 0.0 0.0 0.0
3.71207804710797 -0.8254843255005873 0.8429764792549035 -1.5882884806323445 -1.570796326807946 2.141281720311417 0.0 0.0 0.0 0.0 0.0 0.0 0.0 0.0 0.0 0.0 0.0 0.0 0.05
3.71207804710797 -0.8254843255005873 0.8429764792549035 -1.5882884806323445 -1.570796326807946 2.141281720311417 0.0 0.0 0.0 0.0 0.0 0.0 0.0 0.0 0.0 0.0 0.0 0.0 0.1
3.71207804710797 -0.8254843255005873 0.8429764792549035 -1.5882884806323445 -1.570796326807946 2.141281720311417 0.02665422366443778 -0.013663495175156616 0.02069926347288822 -0.007035768615958483 -6.548435516122917e-09 -0.011747732162092484 1.757563354358079 -0.9009625909436605 1.3648968883940837 -0.46393431843411087 -4.317998691843475e-07 -0.7746383389307043 0.15000000000000002
3.71207804710797 -0.8254843255005873 0.8429764792549035 -1.5882884806323445 -1.570796326807946 2.141281720311417 0.10025316816302768 -0.051391805544023415 0.07785508097791566 -0.026463276630822725 -2.463029556844763e-08 -0.044186144110129305 3.195569735196507 -1.6381138017157464 2.4816307061710616 -0.8435169426074742 -7.850906712442682e-07 -1.4084333435103715 0.2
3.71207804710797 -0.8254843255005873 0.8429764792549035 -1.5882884806323445 -1.570796326807946 2.141281720311417 0.21169180943408844 -0.10851751126715294 0.16439662973095517 -0.05587912099120745 -5.2008649016480346e-08 -0.09330223642785847 4.333991453360263 -2.2216918435769806 3.365711645244502 -1.144019853411387 -1.0647792228750386e-06 -1.9101877221359411 0.25
3.71207804710797 -0.8254843255005873 0.8429764792549035 -1.5882884806323445 -1.570796326807946 2.141281720311417 0.3524525443231442 -0.18067431636570733 0.27370926906298476 -0.09303495690523614 -8.659088285782369e-08 -0.15534191288717333 5.192800819694324 -2.6619349277880873 4.032649897527975 -1.3707150317371457 -1.2757723407719358e-06 -2.2887041832043535 0.3
3.71207804710797 -0.8254843255005873 0.8429764792549035 -1.5882884806323445 -1.570796326807946 2.141281720311417 0.5146051905829241 -0.2637970487214581 0.3996345404200871 -0.13583749784254096 -1.2642870222817662e-07 -0.22680998044811246 5.79197014504367 -2.96908126560979 4.497955654935049 -1.5288744584760472 -1.422976841630236e-06 -2.5527854351125483 0.35000000000000003
3.71207804710797 -0.8254843255005873 0.8429764792549035 -1.5882884806323445 -1.570796326807946 2.141281720311417 0.6908069868733625 -0.3541216600767863 0.53647016736345 -0.18234851553426282 -1.697181304013344e-07 -0.3044701492588597 6.151471740253277 -3.153369068302811 4.777139109379293 -1.623770114519388 -1.5112995421452162e-06 -2.711234186257465 0.4
3.71207804710797 -0.8254843255005873 0.8429764792549035 -1.5882884806323445 -1.570796326807946 2.141281720311417 0.8743025927615995 -0.4481852260346827 0.6789700555693665 -0.23078483997305138 -2.147995087891889e-07 -0.3853450326557443 6.2912779161681245 -3.225036547127875 4.885710452774277 -1.660673980758465 -1.545647259012153e-06 -2.7728531450360436 0.45
3.71207804710797 -0.8254843255005873 0.8429764792549035 -1.5882884806323445 -1.570796326807946 2.141281720311417 1.05892408872198 -0.5428259460587472 0.8223442928292342 -0.279518359413065 -2.601574969417281e-07 -0.4667161471632408 6.231360983633189 -3.194321913345704 4.839179877033569 -1.6448580380845748 -1.5309268089263225e-06 -2.7464450198452237 0.5
3.71207804710797 -0.8254843255005873 0.8429764792549035 -1.5882884806323445 -1.570796326807946 2.141281720311417 1.239090976136054 -0.6351831434731897 0.9622591490495558 -0.3270760203699708 -3.044210725470364e-07 -0.5461239124939687 5.991693253493453 -3.071463378217022 4.653057574070741 -1.581594267389014 -1.4720450085830027e-06 -2.6408125190819467 0.55
3.71207804710797 -0.8254843255005873 0.8429764792549035 -1.5882884806323445 -1.570796326807946 2.141281720311417 1.4098101772925768 -0.7226972654628292 1.094837076251939 -0.3721398276209446 -3.463635314312948e-07 -0.6213676515486933 5.592247036593889 -2.8666991530025543 4.342853735799357 -1.47615464956308 -1.3739086746774692e-06 -2.4647583511431503 0.6000000000000001
3.712343346354296 -0.8256203232703135 0.8431825066023136 -1.5883585102131959 -1.5707963268731249 2.1411647908323266 1.5666760353875095 -0.8031098830730944 1.2166567085730966 -0.4135468442046709 -3.8490248755878036e-07 -0.690505590416325 5.052994643779479 -2.5902674489630217 3.9240785541329912 -1.3338111654980684 -1.2414246239049987e-06 -2.2270852244257746 0.6500000000000001
3.7141059930111453 -0.8265238916651229 0.8445513511058738 -1.588823786342991 -1.5707963273061736 2.140387912050121 1.705870314524018 -0.8744636912100231 1.3247528622648461 -0.4502891914213429 -4.190998730318667e-07 -0.7518548583739187 4.3939083858952 -2.2524064773591492 3.412242220985211 -1.159835796085277 -1.0794996729608687e-06 -1.9365958473267604 0.7012096348550656
3.7186113769920777 -0.8288334427914545 0.8480501635733431 -1.5900130477379188 -1.5707963284130608 2.1384021838232656 1.8241621997124735 -0.9351025086402639 1.416616535694111 -0.48151404883266286 -4.4816193809102385e-07 -0.8039914878866766 3.6349605737860275 -1.8633544494516576 2.8228549282695803 -0.9595005222160014 -8.930406385403543e-07 -1.6020929282430472 0.7524192697101312
3.726845731928063 -0.8330545399937143 0.8544448379969936 -1.5921866250576202 -1.570796330436085 2.1347729280049985 1.9189082968704518 -0.9836712779910727 1.490194909342917 -0.5065236542618412 -4.714392511148179e-07 -0.8457504146079436 2.7961235182969486 -1.4333495765012747 2.1714268678996795 -0.73807732478154 -6.869543373387347e-07 -1.232379175571576 0.8036289045651966
3.7395534122529863 -0.8395687544384096 0.8643134286746419 -1.595541001442291 -1.5707963335581203 2.1291720736436734 1.9880526328227353 -1.0191160657503173 1.5438913458083983 -0.5247753037935975 -4.884266986199117e-07 -0.876225477379212 1.8973695302729305 -0.9726300697687204 1.4734682317890677 -0.5008381846731886 -4.6614758605128404e-07 -0.8362572977092835 0.8548385394202622
3.757254170289154 -0.8486425216982858 0.8780595673306825 -1.6002133730497863 -1.5707963379068597 2.121370542183114 2.0301266553013106 -1.040684062266474 1.5765653898027918 -0.5358813517741601 -4.987634852610644e-07 -0.8947694182301187 0.958670920558954 -0.4914341405147185 0.744489211851319 -0.2530550827822422 -2.3552720137327996e-07 -0.42253000305311017 0.9060481742753277
3.7802604333328005 -0.8604359983364612 0.8959258802371198 -1.6062862095927217 -1.5707963435590606 2.1112306326629575 2.0442492329453703 -1.047923581748627 1.5875327681534408 -0.5396092108112658 -5.022331338311314e-07 -0.9009938823784447 7.105427357601002e-15 7.105427357601002e-15 0.0 0.0 0.0 0.0 0.9572578091303932
3.8086945807395938 -0.8750119184905628 0.9180074053346006 -1.6137918148755785 -1.5707963505447895 2.098698406919008 2.0301266553013106 -1.0406840622664735 1.576565389802792 -0.5358813517741601 -4.987634852610644e-07 -0.8947694182301184 -0.958670920558954 0.49143414051472917 -0.744489211851319 0.2530550827822431 2.3552720137328165e-07 0.42253000305311195 1.0084674439854586
3.8425062210101406 -0.8923444504568616 0.9442650093534468 -1.6227168873318056 -1.5707963588516662 2.083796074783581 1.9880526328227355 -1.0191160657503167 1.5438913458083978 -0.5247753037935975 -4.884266986199118e-07 -0.8762254773792117 -1.8973695302729234 0.972630069768731 -1.4734682317890677 0.5008381846731886 4.661475860512832e-07 0.8362572977092817 1.0596770788405243
3.881489468875494 -0.912328053274409 0.9745388049346878 -1.6330070805609234 -1.5707963684291082 2.0666143792858556 1.9189082968704527 -0.9836712779910722 1.490194909342917 -0.5065236542618413 -4.7143925111481815e-07 -0.8457504146079438 -2.796123518296945 1.4333495765012854 -2.1714268678996795 0.7380773247815409 6.869543373387347e-07 1.232379175571576 1.1108867136955898
3.92530022238266 -0.9347863333091713 1.0085615677510928 -1.6445715638656264 -1.5707963791925768 2.0473049818522204 1.8241621997124724 -0.9351025086402625 1.4166165356941105 -0.48151404883266274 -4.481619380910235e-07 -0.8039914878866766 -3.6349605737860204 1.8633544494516683 -2.8228549282695803 0.9595005222160005 8.930406385403543e-07 1.6020929282430472 1.1620963485506552
3.9734734399800993 -0.959480900838166 1.045972153628204 -1.6572875827888867 -1.5707963910278195 2.026072847506624 1.7058703145240188 -0.8744636912100223 1.3247528622648466 -0.45028919142134327 -4.190998730318669e-07 -0.7518548583739191 -4.393908385895193 2.25240647735916 -3.4122422209852146 1.1598357960852788 1.0794996729608704e-06 1.9365958473267604 1.213305983405721
4.02544041760324 -0.986120226633597 1.0863289156653682 -1.6710050196510575 -1.570796403795117 2.0031686300709226 1.5666760353875093 -0.8031098830730933 1.2166567085730966 -0.4135468442046709 -3.849024875587804e-07 -0.6905055904163249 -5.052994643779479 2.5902674489630324 -3.924078554132997 1.3338111654980693 1.2414246239049996e-06 2.227085224425777 1.2645156182607864
4.080546065759976 -1.0143684985469907 1.1291231213567698 -1.685550954086976 -1.570796417333526 1.978881057365229 1.4098101772925773 -0.7226972654628284 1.09483707625194 -0.3721398276209448 -3.463635314312951e-07 -0.6213676515486931 -5.592247036593879 2.8666991530025623 -4.342853735799356 1.47615464956308 1.3739086746774684e-06 2.46475835114315 1.3157252531158519
4.138066186616182 -1.043854478093331 1.173792369712463 -1.7007342235830665 -1.570796431465125 1.9535293164082617 1.239090976136051 -0.6351831434731869 0.9622591490495531 -0.3270760203699703 -3.0442107254703605e-07 -0.5461239124939683 -5.991693253493437 3.0714633782170333 -4.653057574070733 1.5815942673890113 1.4720450085830018e-06 2.6408125190819427 1.3669348879709173
4.19722475108121 -1.0741803570351947 1.219734008379405 -1.7163499840144434 -1.5707964459992585 1.9274554386176932 1.0589240887219835 -0.5428259460587478 0.8223442928292385 -0.27951835941306574 -2.601574969417287e-07 -0.4667161471632427 -6.231360983633196 3.1943219133457244 -4.839179877033582 1.6448580380845765 1.5309268089263248e-06 2.74644501984523 1.4181445228259828
4.257211175893402 -1.104930613966888 1.2663185507624877 -1.7321842701820154 -1.5707964607367817 1.9010166850104984 0.874302592761596 -0.4481852260346793 0.6789700555693647 -0.23078483997305044 -2.147995087891883e-07 -0.38534503265574327 -6.291277916168109 3.2250365471278872 -4.88571045277427 1.6606739807584638 1.545647259012152e-06 2.7728531450360445 1.4693541576810483
4.317197600705594 -1.1356808708985815 1.3129030931455703 -1.7480185563495874 -1.5707964754743047 1.8745779314033035 0.6908069868733633 -0.3541216600767832 0.53647016736345 -0.18234851553426307 -1.6971813040133462e-07 -0.3044701492588603 -6.151471740253263 3.1533690683028266 -4.777139109379291 1.6237701145193881 1.5112995421452156e-06 2.711234186257465 1.5205637925361137
4.3763561651706215 -1.1660067498404452 1.3588447318125123 -1.7636343167809643 -1.5707964900084381 1.848504053612735 0.5146051905829263 -0.26379704872145615 0.3996345404200897 -0.13583749784254126 -1.2642870222817686e-07 -0.22680998044811274 -5.791970145043665 2.969081265609808 -4.497955654935054 1.5288744584760519 1.4229768416302386e-06 2.5527854351125505 1.5717734273911794
4.433876286026827 -1.1954927293867852 1.4035139801682055 -1.7788175862770546 -1.5707965041400371 1.8231523126557678 0.3524525443231421 -0.18067431636570405 0.27370926906298354 -0.09303495690523592 -8.659088285782384e-08 -0.15534191288717217 -5.19280081969431 2.6619349277881006 -4.032649897527979 1.370715031737145 1.2757723407719358e-06 2.2887041832043544 1.622983062246245
4.488981934183564 -1.2237410013001788 1.4463081858596067 -1.793363520712973 -1.5707965176784462 1.7988647399500746 0.21169180943408744 -0.10851751126714922 0.1643966297309556 -0.05587912099120603 -5.200864901647983e-08 -0.09330223642785668 -4.333991453360241 2.2216918435769846 -3.3657116452444917 1.1440198534113843 1.0647792228750322e-06 1.9101877221359345 1.6741926971013104
4.540948911806704 -1.2503803270956098 1.486664947896771 -1.8070809575751439 -1.5707965304457436 1.7759605225143729 0.10025316816302675 -0.051391805544021334 0.07785508097791748 -0.026463276630822104 -2.4630295568447167e-08 -0.04418614411012972 -3.1955697351965093 1.6381138017157564 -2.4816307061710625 0.8435169426074758 7.850906712442679e-07 1.4084333435103773 1.725402331956376
4.589122129404144 -1.2750748946246049 1.5240755337738823 -1.8197969764984043 -1.5707965422809864 1.7547283881687763 0.026654223664433194 -0.013663495175150161 0.020699263472885143 -0.007035768615957898 -6.548435516122527e-09 -0.011747732162091786 -1.7575633543580527 0.9009625909436684 -1.3648968883940793 0.4639343184341076 4.317998691843427e-07 0.7746383389306978 1.7766119668114415
4.63293288291131 -1.2975331746593668 1.5580982965902872 -1.8313614598031072 -1.570796553044455 1.7354189907351412 0.0 3.552713678800501e-15 0.0 0.0 0.0 0.0 1.4210854715202004e-14 1.4210854715202004e-14 0.0 0.0 0.0 0.0 1.827821601666507
4.671916130776664 -1.3175167774769145 1.5883720921715287 -1.841651653032225 -1.570796562621897 1.7182372952374152 0.0 0.0 0.0 0.0 0.0 0.0 0.0 0.0 0.0 0.0 0.0 0.0 1.8790312365215724
4.70572777104721 -1.3348493094432126 1.6146296961903737 -1.8505767254884518 -1.5707965709287737 1.7033349631019892 1.175851356686474e-07 0.009951559092265838 0.017136165030307775 -0.027087722603038517 3.111292235389471e-08 1.1774543002974058e-07 3.2755859221980346e-06 0.2772220032845483 0.47736459727285946 -0.7545865582275015 8.667171227156384e-07 3.280051265114202e-06 1.930240871376638
4.734161918454003 -1.349425229597315 1.6367112212878556 -1.858082330771309 -1.5707965779145026 1.6908027373580388 4.0554873322451856e-07 0.034322724216182175 0.059102283471877834 -0.09342500244721448 1.073078342409838e-07 4.0610158520461547e-07 5.147349306311197e-06 0.4356345765900045 0.7501443671430649 -1.1857788772146451 1.3619840499817174e-06 5.154366273750889e-06 1.9814505062317036
4.75716818149765 -1.3612187062354897 1.6545775341942925 -1.8641551673142445 -1.5707965835667035 1.6806628278378828 7.775017134008522e-07 0.06580214583457411 0.11330851979223919 -0.1791106555792751 2.057262620951406e-07 7.785616189721624e-07 5.831262850506391e-06 0.49351609375930566 0.8498138984417937 -1.343329916844563 1.542946965713554e-06 5.839212142291217e-06 2.032660141086769
4.7748689395338175 -1.370292473495366 1.6683236728503332 -1.8688275389217395 -1.5707965879154429 1.6728612963773228 1.1614531768086803e-06 0.09829703266646254 0.16926334438099924 -0.26756036203817635 3.0731947794459265e-07 1.163036492538662e-06 5.54329925295052e-06 0.46914492863538937 0.8078477800002237 -1.276992637000387 1.466752053826465e-06 5.550855987116342e-06 2.0838697759418343
4.787576619858742 -1.376806687940062 1.6781922635279822 -1.8721819153064105 -1.5707965910374782 1.667260442015998 1.4998104039368294e-06 0.1269331516870643 0.2185735335498441 -0.3455066658550832 3.968484994119224e-07 1.5018549748691404e-06 4.4994312118104855e-06 0.3807994550611925 0.6557206006495323 -1.0365199975652486 1.1905454982357667e-06 4.50556492460742e-06 2.1350794107969
4.795810974794726 -1.381027785142321 1.6845869379516312 -1.8743554926261115 -1.5707965930605023 1.663631186197731 1.7493788551519177e-06 0.14805482812779175 0.2549441695325381 -0.402998975053369 4.628840897140663e-07 1.7517636426873653e-06 2.915631425253195e-06 0.24675804687965253 0.42490694922089634 -0.6716649584222804 7.714734828567761e-07 2.9196060711456067e-06 2.1862890456519657
4.8003163587756585 -1.3833373362686523 1.6880857504191005 -1.8755447540210395 -1.5707965941673896 1.661645457970876 1.881362170698358e-06 0.15922494547625338 0.2741786404849244 -0.4334035616486164 4.978067576623154e-07 1.8839268804758495e-06 1.0078725914455477e-06 0.08529907793370665 0.14688141454549491 -0.23218047945461529 2.666821916048111e-07 1.0092465431120607e-06 2.237498680507031
4.802079005432509 -1.384240904663463 1.6894545949226627 -1.876010030150835 -1.5707965946004383 1.6608685791886697 1.8813621706983582e-06 0.15922494547625346 0.27417864048492446 -0.43340356164861626 4.978067576623155e-07 1.883926880475849e-06 -1.007872591445551e-06 -0.08529907793370754 -0.14688141454549536 0.23218047945461706 -2.666821916048119e-07 -1.0092465431120607e-06 2.2887083153620966
4.802344304678834 -1.3843769024331887 1.689660622270071 -1.8760800597316858 -1.5707965946656173 1.6607516497095798 1.7493788551519179e-06 0.1480548281277918 0.25494416953253835 -0.40299897505336935 4.6288408971406676e-07 1.751763642687367e-06 -2.9156314252531985e-06 -0.24675804687965341 -0.42490694922089767 0.6716649584222839 -7.714734828567787e-07 -2.9196060711456135e-06 2.339917950217162
4.802344304678834 -1.384376902433189 1.6896606222700719 -1.8760800597316862 -1.5707965946656173 1.6607516497095798 1.499810403936832e-06 0.1269331516870645 0.2185735335498444 -0.3455066658550835 3.968484994119231e-07 1.5018549748691423e-06 -4.499431211810489e-06 -0.38079945506119345 -0.6557206006495327 1.0365199975652524 -1.1905454982357675e-06 -4.505564924607427e-06 2.3911275850722276
4.802344307386492 -1.384147745783343 1.6900552203559738 -1.8767038144324433 -1.5707965939491735 1.6607516524209287 1.1614531768086823e-06 0.09829703266646278 0.16926334438099966 -0.267560362038177 3.0731947794459286e-07 1.163036492538664e-06 -5.5432992529505185e-06 -0.4691449286353893 -0.8078477800002237 1.276992637000389 -1.4667520538264658e-06 -5.550855987116342e-06 2.4411275850722274
4.802344324132375 -1.3827304948337065 1.6924956667159023 -1.8805615115256038 -1.5707965895182276 1.66075166918964 7.775017134008516e-07 0.06580214583457385 0.11330851979223901 -0.1791106555792753 2.057262620951401e-07 7.785616189721627e-07 -5.831262850506392e-06 -0.4935160937593064 -0.8498138984417944 1.3433299168445665 -1.5429469657135544e-06 -5.839212142291229e-06 2.4922865545170843
4.802344363315421 -1.3794143239348313 1.6982059731377366 -1.8895879883399567 -1.5707965791504284 1.6607517084261019 4.0554873322451576e-07 0.03432272421618183 0.059102283471877334 -0.09342500244721406 1.0730783424098302e-07 4.061015852046111e-07 -5.147349306311193e-06 -0.4356345765900043 -0.7501443671430648 1.185778877214648 -1.3619840499817174e-06 -5.154366273750889e-06 2.543445523961941
4.802344428055237 -1.3739352121312087 1.7076407725712601 -1.9045018987404798 -1.5707965620203306 1.6607517732541726 1.1758513566864437e-07 0.009951559092265624 0.017136165030307658 -0.02708772260303806 3.1112922353894273e-08 1.1774543002974056e-07 -3.275585922198039e-06 -0.27722200328454955 -0.47736459727286007 0.7545865582275046 -8.66717122715639e-07 -3.2800512651142053e-06 2.594604493406798
4.802344517151974 -1.366394705944188 1.720625206189633 -1.9250268373944897 -1.5707965384454132 1.6607518624723678 0.0 0.0 0.0 0.0 0.0 0.0 0.0 -8.881784197001252e-16 0.0 3.552713678800501e-15 0.0 0.0 2.645763462851655
4.802344626046208 -1.3571786821548983 1.736494810450864 -1.9501124640377867 -1.5707965096320957 1.660751971515049 0.0 0.0 0.0 0.0 0.0 0.0 0.0 -8.881784197001252e-16 0.0 3.552713678800501e-15 0.0 0.0 2.6969224322965117
4.80234474777882 -1.3468761105871672 1.7542354041592816 -1.978155627740803 -1.5707964774217549 1.6607520934136086 0.0 0.0 0.0 0.0 0.0 0.0 0.0 -8.881784197001252e-16 0.0 3.552713678800501e-15 0.0 0.0 2.7480814017413686
4.8023448739508705 -1.3361978168904423 1.7726229755270069 -2.0072214911747506 -1.5707964440367426 1.660752219757659 0.0 0.0 0.0 0.0 0.0 0.0 0.0 -8.881784197001252e-16 0.0 3.552713678800501e-15 0.0 0.0 2.799240371186226
4.802344995683482 -1.325895245322711 1.7903635692354243 -2.035264654877767 -1.5707964118264017 1.6607523416562187 0.0 0.0 0.0 0.0 0.0 0.0 0.0 -8.881784197001252e-16 0.0 3.552713678800501e-15 0.0 0.0 2.850399340631083
4.802345104577716 -1.3166792215334213 1.8062331734966552 -2.060350281521064 -1.5707963830130842 1.6607524506988998 0.0 0.0 0.0 0.0 0.0 0.0 0.0 -8.881784197001252e-16 0.0 3.552713678800501e-15 0.0 0.0 2.9015583100759397
4.802345193674453 -1.3091387153464007 1.8192176071150283 -2.0808752201750735 -1.5707963594381669 1.660752539917095 0.0 0.0 0.0 0.0 0.0 0.0 0.0 -8.881784197001252e-16 0.0 3.552713678800501e-15 0.0 0.0 2.9527172795207965
4.802345258414269 -1.3036596035427779 1.8286524065485519 -2.0957891305755973 -1.570796342308069 1.6607526047451657 0.0 0.0 0.0 0.0 0.0 0.0 0.0 -8.881784197001252e-16 0.0 3.552713678800501e-15 0.0 0.0 3.0038762489656534
4.8023452975973155 -1.3003434326439027 1.8343627129703863 -2.1048156073899498 -1.5707963319402698 1.6607526439816276 0.0 0.0 0.0 0.0 0.0 0.0 0.0 -8.881784197001252e-16 0.0 3.552713678800501e-15 0.0 0.0 3.0550352184105103
4.8023453143431984 -1.2989261816942663 1.8368031593303147 -2.1086733044831103 -1.570796327509324 1.660752660750339 0.0 0.0 0.0 0.0 0.0 0.0 0.0 -8.881784197001252e-16 0.0 3.552713678800501e-15 0.0 0.0 3.106194187855367
4.8023453170508565 -1.2986970250444205 1.8371977574162166 -2.1092970591838673 -1.5707963267928802 1.6607526634616878 0.0 0.0 0.0 0.0 0.0 0.0 0.0 -8.881784197001252e-16 0.0 3.552713678800501e-15 0.0 0.0 3.157353157300224
4.8023453170508565 -1.2986970250444205 1.8371977574162166 -2.1092970591838673 -1.5707963267928802 1.6607526634616878 0.0 0.0 0.0 0.0 0.0 0.0 0.0 -8.881784197001252e-16 0.0 3.552713678800501e-15 0.0 0.0 3.208512126745081
4.8023453170508565 -1.2986970250444205 1.8371977574162166 -2.1092970591838673 -1.5707963267928802 1.6607526634616878 0.0 0.0 0.0 0.0 0.0 0.0 0.0 -8.881784197001252e-16 0.0 3.552713678800501e-15 0.0 0.0 3.2585121267450807
4.8023453170508565 -1.2986970250444205 1.8371977574162166 -2.1092970591838673 -1.5707963267928802 1.6607526634616878 0.0 0.0 0.0 0.0 0.0 0.0 0.0 -8.881784197001252e-16 0.0 3.552713678800501e-15 0.0 0.0 3.3126787934117474
4.8023453170508565 -1.2986970250444205 1.8371977574162166 -2.1092970591838673 -1.5707963267928802 1.6607526634616878 0.0 0.0 0.0 0.0 0.0 0.0 0.0 0.0 0.0 0.0 0.0 0.0 3.366845460078414
4.8023453170508565 -1.2986970250444205 1.8371977574162166 -2.1092970591838673 -1.5707963267928802 1.6607526634616878 -1.175851356686474e-07 -0.009951559092265838 -0.017136165030307775 0.027087722603038517 -3.111292235389471e-08 -1.1774543002974058e-07 -3.2755859221980346e-06 -0.2772220032845483 -0.47736459727285946 0.7545865582275015 -8.667171227156384e-07 -3.280051265114202e-06 3.421012126745081
4.8023453170508565 -1.2986970250444205 1.8371977574162166 -2.1092970591838673 -1.5707963267928802 1.6607526634616878 -4.0554873322451856e-07 -0.034322724216182175 -0.059102283471877834 0.09342500244721448 -1.073078342409838e-07 -4.0610158520461547e-07 -5.147349306311197e-06 -0.4356345765900045 -0.7501443671430649 1.1857788772146451 -1.3619840499817174e-06 -5.154366273750889e-06 3.4751787934117475
4.8023453170508565 -1.2986970250444205 1.8371977574162166 -2.1092970591838673 -1.5707963267928802 1.6607526634616878 -7.775017134008522e-07 -0.06580214583457411 -0.11330851979223919 0.1791106555792751 -2.057262620951406e-07 -7.785616189721624e-07 -5.831262850506391e-06 -0.49351609375930566 -0.8498138984417937 1.343329916844563 -1.542946965713554e-06 -5.839212142291217e-06 3.529345460078414
4.8023453170508565 -1.2986970250444205 1.8371977574162166 -2.1092970591838673 -1.5707963267928802 1.6607526634616878 -1.1614531768086803e-06 -0.09829703266646254 -0.16926334438099924 0.26756036203817635 -3.0731947794459265e-07 -1.163036492538662e-06 -5.54329925295052e-06 -0.46914492863538937 -0.8078477800002237 1.276992637000387 -1.466752053826465e-06 -5.550855987116342e-06 3.583512126745081
4.8023453170508565 -1.2986970250444205 1.8371977574162166 -2.1092970591838673 -1.5707963267928802 1.6607526634616878 -1.4998104039368294e-06 -0.1269331516870643 -0.2185735335498441 0.3455066658550832 -3.968484994119224e-07 -1.5018549748691404e-06 -4.4994312118104855e-06 -0.3807994550611925 -0.6557206006495323 1.0365199975652486 -1.1905454982357667e-06 -4.50556492460742e-06 3.6376787934117476
4.8023453170508565 -1.2986970250444205 1.8371977574162166 -2.1092970591838673 -1.5707963267928802 1.6607526634616878 -1.7493788551519177e-06 -0.14805482812779175 -0.2549441695325381 0.402998975053369 -4.628840897140663e-07 -1.7517636426873653e-06 -2.915631425253195e-06 -0.24675804687965253 -0.42490694922089634 0.6716649584222804 -7.714734828567761e-07 -2.9196060711456067e-06 3.6918454600784143
4.8023453170508565 -1.2986970250444205 1.8371977574162166 -2.1092970591838673 -1.5707963267928802 1.6607526634616878 -1.881362170698358e-06 -0.15922494547625338 -0.2741786404849244 0.4334035616486164 -4.978067576623154e-07 -1.8839268804758495e-06 -1.0078725914455477e-06 -0.08529907793370665 -0.14688141454549491 0.23218047945461529 -2.666821916048111e-07 -1.0092465431120607e-06 3.746012126745081
4.8023453170508565 -1.2986970250444205 1.8371977574162166 -2.1092970591838673 -1.5707963267928802 1.6607526634616878 -1.8813621706983582e-06 -0.15922494547625346 -0.27417864048492446 0.43340356164861626 -4.978067576623155e-07 -1.883926880475849e-06 1.007872591445551e-06 0.08529907793370754 0.14688141454549536 -0.23218047945461706 2.666821916048119e-07 1.0092465431120607e-06 3.8001787934117477
4.8023453170508565 -1.2986970250444205 1.8371977574162166 -2.1092970591838673 -1.5707963267928802 1.6607526634616878 -1.7493788551519179e-06 -0.1480548281277918 -0.25494416953253835 0.40299897505336935 -4.6288408971406676e-07 -1.751763642687367e-06 2.9156314252531985e-06 0.24675804687965341 0.42490694922089767 -0.6716649584222839 7.714734828567787e-07 2.9196060711456135e-06 3.8543454600784144
4.8023453170508565 -1.2986970250444205 1.8371977574162166 -2.1092970591838673 -1.5707963267928802 1.6607526634616878 -1.499810403936832e-06 -0.1269331516870645 -0.2185735335498444 0.3455066658550835 -3.968484994119231e-07 -1.5018549748691423e-06 4.499431211810489e-06 0.38079945506119345 0.6557206006495327 -1.0365199975652524 1.1905454982357675e-06 4.505564924607427e-06 3.908512126745081
4.8023453143431984 -1.2989261816942663 1.8368031593303147 -2.1086733044831103 -1.570796327509324 1.660752660750339 -1.1614531768086823e-06 -0.09829703266646278 -0.16926334438099966 0.267560362038177 -3.0731947794459286e-07 -1.163036492538664e-06 5.5432992529505185e-06 0.4691449286353893 0.8078477800002237 -1.276992637000389 1.4667520538264658e-06 5.550855987116342e-06 3.958512126745081
4.8023452975973155 -1.300343432643903 1.8343627129703861 -2.1048156073899498 -1.5707963319402698 1.6607526439816276 -7.775017134008516e-07 -0.06580214583457385 -0.11330851979223901 0.1791106555792753 -2.057262620951401e-07 -7.785616189721627e-07 5.831262850506392e-06 0.4935160937593064 0.8498138984417944 -1.3433299168445665 1.5429469657135544e-06 5.839212142291229e-06 4.009671096189938
4.802345258414269 -1.303659603542778 1.8286524065485519 -2.095789130575597 -1.570796342308069 1.6607526047451657 -4.0554873322451576e-07 -0.03432272421618183 -0.059102283471877334 0.09342500244721406 -1.0730783424098302e-07 -4.061015852046111e-07 5.147349306311193e-06 0.4356345765900043 0.7501443671430648 -1.185778877214648 1.3619840499817174e-06 5.154366273750889e-06 4.060830065634795
4.802345193674453 -1.3091387153464007 1.8192176071150283 -2.0808752201750735 -1.5707963594381669 1.660752539917095 -1.1758513566864437e-07 -0.009951559092265624 -0.017136165030307658 0.02708772260303806 -3.1112922353894273e-08 -1.1774543002974056e-07 3.275585922198039e-06 0.27722200328454955 0.47736459727286007 -0.7545865582275046 8.66717122715639e-07 3.2800512651142053e-06 4.1119890350796515
4.802345104577716 -1.3166792215334213 1.8062331734966555 -2.060350281521064 -1.5707963830130842 1.6607524506988998 0.0 0.0 0.0 0.0 0.0 0.0 0.0 8.881784197001252e-16 0.0 -3.552713678800501e-15 0.0 0.0 4.163148004524508
4.802344995683482 -1.325895245322711 1.7903635692354245 -2.035264654877767 -1.5707964118264017 1.6607523416562187 0.0 0.0 0.0 0.0 0.0 0.0 0.0 0.0 0.0 0.0 0.0 0.0 4.214306973969365
4.8023448739508705 -1.3361978168904423 1.7726229755270069 -2.0072214911747506 -1.5707964440367426 1.660752219757659 -0.022515471301113286 0.000517028995978803 -0.0006441591939301003 0.0001271303733013212 3.3244739324661204e-09 -0.0029057284544093424 -2.1154961971428996 0.04857872438813604 -0.06052355319990049 0.011944845287204988 3.123590826759657e-07 -0.2730148266951416 4.265465943414222
4.80234474777882 -1.3468761105871672 1.7542354041592816 -1.978155627740803 -1.5707964774217549 1.6607520934136086 -0.08627023498987002 0.001981047271147392 -0.002468159084393105 0.0004871124851165155 1.2738047697778742e-08 -0.011133583358135208 -3.960929049969684 0.09095590949268025 -0.11332069535300518 0.022364816707958275 5.848425377762762e-07 -0.5111766967909034 4.31662491285908
4.802344626046208 -1.3571786821548981 1.7364948104508642 -1.9501124640377867 -1.5707965096320957 1.660751971515049 -0.1857602826902624 0.004265664758584737 -0.005314532054946166 0.0010488687430586596 2.7428038668716635e-08 -0.023973246302222844 -5.548040443015838 0.1274011874563975 -0.15872735737439214 0.03132621312601863 8.191840882390035e-07 -0.7160009562263889 4.367783882303937
4.802344517151974 -1.366394705944188 1.7206252061896332 -1.9250268373944899 -1.5707965384454132 1.6607518624723678 -0.31572622862077193 0.007250108727677411 -0.009032809049877225 0.001782702781069138 4.661788344593506e-08 -0.04074596858478216 -6.888572260816842 0.1581841904220526 -0.19707947017913943 0.038895333405144825 1.0171174570022195e-06 -0.8890029509407016 4.418942851748794
4.802344428055237 -1.3739352121312087 1.7076407725712601 -1.90450189874048 -1.5707965620203306 1.6607517732541726 -0.47115330959436924 0.010819223784119586 -0.01347951957420502 0.0026602994594176425 6.956713785796577e-08 -0.0608045712109877 -7.994266387908183 0.18357455053241048 -0.22871296468232516 0.04513847640909563 1.1803763670039962e-06 -1.031698026872945 4.4701018211936505
4.802344363315421 -1.3794143239348315 1.6982059731377366 -1.8895879883399564 -1.5707965791504284 1.6607517084261019 -0.6472713850185143 0.01486347186991304 -0.018518191693679083 0.003654724864702174 9.557147696121707e-08 -0.0835334448930787 -8.876864708825341 0.203841899930236 -0.2539637717990274 0.05012194100162981 1.3106945411824056e-06 -1.1456015299622224 4.521260790638507
4.802344324132375 -1.3827304948337067 1.6924956667159021 -1.8805615115256038 -1.5707965895182276 1.66075166918964 -0.8395549368951561 0.01927893226336714 -0.024019352034779732 0.004740426309849038 1.2396269503997364e-07 -0.10834855005035901 -9.5481091081038 0.21925587075829392 -0.27316782244432425 0.05391202604650614 1.4098057024755196e-06 -1.2322288061476374 4.572419760083364
4.802344307386492 -1.384147745783343 1.6900552203559738 -1.876703814432443 -1.5707965939491735 1.6607516524209287 -1.0437230698207338 0.023967301579098883 -0.0298605257847181 0.005893232334112853 1.541087056063969e-07 -0.13469741680919722 -10.019741470279044 0.23008609515934922 -0.28666104753329374 0.056575030407483386 1.47944357382141e-06 -1.2930952013682933 4.623578729528221
4.802344304678834 -1.384376902433189 1.6896606222700719 -1.8760800597316862 -1.5707965946656173 1.6607516497095798 -1.255739510986174 0.028835893768032826 -0.035926236691436075 0.007090352703076539 1.8541354140052445e-07 -0.16205914500302643 -10.303503679886557 0.23660220527616677 -0.294779377981014 0.058177252948320324 1.5213418781581493e-06 -1.329716061563294 4.674737698973078
4.802344304678834 -1.384376902433189 1.6896606222700719 -1.8760800597316862 -1.5707965946656173 1.6607516497095798 -1.471812610176894 0.033797640117401155 -0.04210800706360637 0.008310378408651327 2.1731735439027062e-07 -0.1899444041723445 -10.41113762146182 0.23907383325151133 -0.297858744702563 0.05878499253277571 1.537234338423809e-06 -1.3436067326717425 4.725896668417935
4.802186276784026 -1.384373273594925 1.6896561011512385 -1.8760791674498862 -1.570796594642284 1.660731255459582 -1.6883953397727998 0.03877108925074365 -0.0483043577706325 0.009533281669076757 2.4929641577142616e-07 -0.21789543356471394 -10.354385179540321 0.23777061122814783 -0.296235078613019 0.05846454802460833 1.5288546775564612e-06 -1.3362825606327424 4.775896668417935
4.801119832691974 -1.384348784544227 1.6896255905855249 -1.8760731459265652 -1.5707965944848206 1.660593625786995 -1.9021852947482873 0.04368040712790771 -0.054420808242648736 0.010740415928920674 2.8086311596765834e-07 -0.24548604213476194 -10.144988238657536 0.23296217134884112 -0.2902443106274599 0.05728221828757693 1.4979366184941778e-06 -1.3092588913853973 4.826360557879967
4.798343578590523 -1.3842850326532956 1.68954616299637 -1.87605747020672 -1.5707965940748987 1.6602353370160707 -2.11012469267224 0.04845537704504829 -0.060369876470520153 0.01191451585907923 3.115659646305109e-07 -0.2723216085441802 -9.794688683348953 0.22491814575635605 -0.2802223716609639 0.0553043021854403 1.4462138841750309e-06 -1.2640510708688106 4.876824447342001
4.79316823935666 -1.384166189906806 1.6893980984808812 -1.8760282483974156 -1.5707965933107448 1.6595674349201321 -2.3094003737080326 0.053031399634627996 -0.06607107900584265 0.01303969735677689 3.409895906394041e-07 -0.29803908116172523 -9.315228398150056 0.2139081665934576 -0.26650519262860906 0.05259709858195722 1.3754201975370927e-06 -1.2021744450220857 4.927288336804033
4.785011562252459 -1.3839788858740674 1.689164739006486 -1.8759821928922347 -1.5707965921063882 1.6585147770193431 -2.497443800613528 0.057349492865417025 -0.07145093096094289 0.014101457545566425 3.6875474210163475e-07 -0.32230697806321823 -8.718349267596324 0.20020186600291034 -0.24942870444547338 0.04922690634088642 1.287289281518434e-06 -1.1251443597843258 4.977752226266067
4.773393220621033 -1.3837120906811842 1.6888323426075824 -1.875916591595731 -1.5707965903909067 1.6570153748784777 -2.6719310587410794 0.06135629204249314 -0.07644294600887834 0.015086674775328908 3.945182863523761e-07 -0.34482538703154497 -8.015793176223239 0.1840688761274793 -0.229328838026635 0.045260024325986706 1.1835548590571277e-06 -1.034476161094635 5.0282161157281
4.7579297175824795 -1.383356997983216 1.6883899375821918 -1.8758292791478792 -1.570796588107676 1.65501973640469 -2.830782856037526 0.06500404980724174 -0.08098763638343724 0.01598360862227372 4.179732099546778e-07 -0.36532596555665564 -7.219302008566292 0.1657788291099295 -0.20654152428717198 0.040762751401016824 1.065950653091246e-06 -0.9316851948921162 5.078680005190133
4.738329289729829 -1.3829069079363374 1.687829176688609 -1.8757186081485273 -1.5707965852136168 1.6524902081452824 -2.9721645230441993 0.0682506361373558 -0.08503251287913866 0.016781899888938554 4.3884861869946615e-07 -0.38357194083556556 -6.340617649160963 0.14560135709302569 -0.18140269414216248 0.03580138642973557 9.362103865588611e-07 -0.8182868071158738 5.129143894652166
4.714386810824995 -1.382357110169999 1.6871441913420548 -1.875583420381848 -1.570796581678441 1.6494003175854772 -3.0944860128969194 0.07105953834683593 -0.0885320848512324 0.017472570604189414 4.5690973760554394e-07 -0.39935810977235425 -5.39148198254274 0.12380609221953272 -0.1542482785066845 0.030442228275901723 7.960677823980443e-07 -0.6957963437050103 5.179607784114199
4.685978695494719 -1.381704766759087 1.6863314458113263 -1.8754230180407898 -1.5707965774839012 1.6457341154461846 -3.1964019013259977 0.07339986108599034 -0.09144786021569919 0.018048024023220612 4.719579109195905e-07 -0.4125108389781665 -4.383636893247092 0.10066266663221536 -0.12541420829581595 0.024751575803273976 6.472565635468674e-07 -0.5657291505986292 5.230071673576232
4.653057802926522 -1.3809487951960835 1.6853895914154498 -1.8752371349515293 -1.570796572623037 1.641485517981772 -3.2768113866562296 0.07524632634143477 -0.09374834544925036 0.018502044627554753 4.838306021161614e-07 -0.422888064771211 -3.3288242658095166 0.07644071247383843 -0.09523641442463537 0.01879572787561118 4.915104529434021e-07 -0.42960057373583393 5.280535563038265
4.6156483405646505 -1.3800897513632275 1.6843193207203304 -1.8750259077979219 -1.5707965670994226 1.6366576492778346 -3.3348582898069035 0.07657927343609264 -0.09540904558932817 0.01882979812504277 4.92401393897689e-07 -0.4303792931767615 -2.2387859847654883 0.05140986188716718 -0.06405082780822052 0.012640983356672119 3.305631735257217e-07 -0.2889259590557291 5.330999452500298
4.573840767806024 -1.3791297125046746 1.6831232217354053 -1.8747898473459532 -1.5707965609264145 1.631262183548964 -3.3699310542917997 0.077384659029195 -0.09641246423410572 0.01902783144986389 4.975799881944822e-07 -0.43490559992715677 -1.1252639346504894 0.02583974701496596 -0.032193379361649226 0.006353641110215391 1.6614844823189626e-07 -0.14522065249741636 5.3814633419623314
4.527786699696186 -1.3780721601986567 1.681805632110294 -1.8745298096681917 -1.5707965541263993 1.6253186874365178 -3.3816627462191793 0.07765405711628037 -0.09674810354248664 0.019094072762525643 4.993122061647259e-07 -0.4364196304617991 -1.4210854715202004e-14 0.0 0.0 0.0 0.0 -8.881784197001252e-16 5.431927231424364
4.47769381062525 -1.3769218633296438 1.6803724933314506 -1.8742469673682387 -1.5707965467300404 1.6188539623063893 -3.3699310542918 0.07738465902919502 -0.09641246423410567 0.019027831449863895 4.975799881944822e-07 -0.4349055999271565 1.1252639346504658 -0.025839747014966014 0.03219337936164913 -0.006353641110215403 -1.6614844823189634e-07 0.14522065249741525 5.482391120886398
4.4238207380238475 -1.3756847610605023 1.678831204918814 -1.8739427808051814 -1.5707965387755267 1.6119013865467775 -3.334858289806906 0.07657927343609268 -0.0954090455893282 0.01882979812504277 4.924013938976891e-07 -0.43037929317676155 2.238785984765452 -0.0514098618871671 0.06405082780822025 -0.012640983356672042 -3.3056317352572173e-07 0.2889259590557272 5.53285501034843
4.366471986059078 -1.374367845804657 1.6771904786224607 -1.8736189693180425 -1.5707965303078189 1.6045002578659555 -3.2768113866562305 0.07524632634143474 -0.09374834544925033 0.018502044627554746 4.838306021161614e-07 -0.4228880647712109 3.328824265809481 -0.07644071247383843 0.09523641442463515 -0.01879572787561118 -4.915104529434021e-07 0.42960057373583127 5.583318899810464
4.305992829330453 -1.3729790461982505 1.6754601926192556 -1.8732774824502334 -1.570796521377898 1.5966951355900403 -3.1964019013259986 0.07339986108599031 -0.09144786021569917 0.018048024023220612 4.719579109195903e-07 -0.41251083897816637 4.383636893247055 -0.1006626666322152 0.12541420829581584 -0.024751575803273963 -6.472565635468666e-07 0.5657291505986263 5.633782789272496
4.24276421656585 -1.3715271100723032 1.6736512457095034 -1.8729204711740053 -1.570796512042012 1.588535182960763 -3.0944860128969216 0.07105953834683594 -0.08853208485123244 0.017472570604189417 4.569097376055442e-07 -0.3993581097723545 5.391481982542704 -0.12380609221953263 0.15424827850668443 -0.030442228275901675 -7.960677823980427e-07 0.6957963437050075 5.68424667873453
4.177197674317457 -1.3700214874248744 1.6717754115136 -1.8725502591149 -1.5707965023609238 1.5800735094332377 -2.9721645230442 0.0682506361373558 -0.08503251287913866 0.016781899888938558 4.3884861869946615e-07 -0.38357194083556556 6.340617649160928 -0.14560135709302569 0.18140269414216226 -0.03580138642973557 -9.362103865588611e-07 0.818286807115872 5.734710568196562
4.1097302106577205 -1.3684722133932221 1.6698451926686846 -1.8721693137762014 -1.5707964923991593 1.5713665129737306 -2.83078285603753 0.06500404980724171 -0.08098763638343724 0.015983608622273725 4.1797320995467784e-07 -0.36532596555665564 7.219302008566272 -0.16577882910992978 0.2065415242871722 -0.040762751401016865 -1.065950653091248e-06 0.9316851948921151 5.785174457658595
4.040819218875295 -1.3668897912259628 1.6678736750252898 -1.8717802177633887 -1.5707964822242535 1.5624732223574307 -2.6719310587410847 0.06135629204249322 -0.07644294600887847 0.015086674775328927 3.945182863523765e-07 -0.3448253870315453 8.015793176223216 -0.18406887612747966 0.22932883802663506 -0.04526002432598677 -1.1835548590571286e-06 1.0344761610946347 5.835638347120629
3.97093738117099 -1.3652850752552328 1.665874381843995 -1.8713856400085855 -1.5707964719059997 1.5534546394662179 -2.4974438006135298 0.057349492865417066 -0.07145093096094292 0.014101457545566418 3.6875474210163475e-07 -0.32230697806321823 8.718349267596292 -0.20020186600291034 0.2494287044454735 -0.049226906340886445 -1.287289281518434e-06 1.1251443597843227 5.886102236582662
3.9005675723537196 -1.3636691538688475 1.6638611279920754 -1.8709883069950126 -1.5707964615156955 1.5443730815864334 -2.3094003737080406 0.05303139963462804 -0.06607107900584275 0.013039697356776918 3.409895906394048e-07 -0.298039081161726 9.31522839815004 -0.21390816659345765 0.2665051926286093 -0.05259709858195732 -1.3754201975370937e-06 1.202174445022085 5.936566126044695
3.8301977635364497 -1.3620532324824621 1.661847874140156 -1.87059097398144 -1.5707964511253916 1.535291523706649 -2.110124692672241 0.04845537704504823 -0.06036987647052006 0.011914515859079204 3.1156596463051026e-07 -0.2723216085441798 9.7946886833489 -0.22491814575635546 0.28022237166096364 -0.05530430218544021 -1.446213884175028e-06 1.264051070868805 5.987030015506727
3.760315925832145 -1.3604485165117322 1.659848580958861 -1.8701963962266368 -1.5707964408071378 1.526272940815436 -1.9021852947482887 0.04368040712790766 -0.05442080824264872 0.010740415928920694 2.8086311596765834e-07 -0.24548604213476188 10.144988238657515 -0.23296217134884145 0.2902443106274597 -0.05728221828757696 -1.4979366184941778e-06 1.3092588913853964 6.037493904968761
3.6914049340497193 -1.3588660943444728 1.6578770633154662 -1.869807300213824 -1.570796430632232 1.5173796501991361 -1.6883953397728035 0.038771089250743705 -0.048304357770632474 0.009533281669076764 2.4929641577142626e-07 -0.21789543356471425 10.354385179540287 -0.23777061122814788 0.29623507861301923 -0.058464548024608425 -1.528854677556461e-06 1.3362825606327418 6.087957794430794
3.6239374703899827 -1.3573168203128205 1.6559468444705507 -1.8694263548751255 -1.5707964206704674 1.508672653739629 -1.4718126101768998 0.03379764011740109 -0.0421080070636064 0.00831037840865133 2.1731735439027017e-07 -0.18994440417234398 10.411137621461782 -0.2390738332515113 0.2978587447025626 -0.058784992532775714 -1.5372343384238078e-06 1.3436067326717387 6.138421683892827
3.5583709281415903 -1.3558111976653917 1.6540710102746474 -1.8690561428160202 -1.5707964109893793 1.5002109802121038 -1.2557395109861786 0.0288358937680328 -0.035926236691436145 0.007090352703076544 1.8541354140052445e-07 -0.16205914500302637 10.303503679886514 -0.2366022052761665 0.2947793779810137 -0.05817725294832027 -1.5213418781581493e-06 1.329716061563292 6.18888557335486
3.4951423153769867 -1.3543592615394444 1.6522620633648952 -1.868699131539792 -1.5707964016534932 1.4920510275828265 -1.0437230698207434 0.023967301579098967 -0.029860525784718144 0.005893232334112861 1.5410870560639762e-07 -0.1346974168091977 10.019741470279017 -0.2300860951593495 0.286661047533294 -0.05657503040748351 -1.47944357382141e-06 1.2930952013682913 6.239349462816893
3.4346631586483625 -1.3529704619330378 1.65053177736169 -1.868357644671983 -1.5707963927235724 1.4842459053069113 -0.8395549368951628 0.019278932263367243 -0.02401935203477991 0.004740426309849056 1.2396269503997513e-07 -0.10834855005035987 9.548109108103795 -0.21925587075829464 0.27316782244432514 -0.05391202604650632 -1.4098057024755234e-06 1.2322288061476379 6.289813352278926
3.3773144066835927 -1.3516535466771926 1.6488910510653367 -1.868033833184844 -1.5707963842558645 1.4768447766260893 -0.6472713850185218 0.014863471869912964 -0.01851819169367902 0.003654724864702176 9.557147696121707e-08 -0.08353344489307932 8.876864708825307 -0.20384189993023627 0.2539637717990275 -0.05012194100162981 -1.3106945411824056e-06 1.1456015299622204 6.340277241740959
3.3234413340821893 -1.350416444408051 1.6473497626527 -1.8677296466217868 -1.5707963763013508 1.4698922008664774 -0.47115330959437485 0.010819223784119519 -0.013479519574204795 0.0026602994594176173 6.956713785796547e-08 -0.06080457121098756 7.994266387908128 -0.18357455053241042 0.22871296468232472 -0.04513847640909551 -1.180376367003996e-06 1.0316980268729394 6.390741131202992
3.2733484450112535 -1.3492661475390382 1.6459166238738567 -1.8674468043218337 -1.570796368904992 1.4634274757363492 -0.31572622862077904 0.007250108727677421 -0.009032809049877239 0.0017827027810691208 4.661788344593496e-08 -0.040745968584781904 6.8885722608167805 -0.1581841904220523 0.1970794701791393 -0.03889533340514475 -1.0171174570022183e-06 0.8890029509406979 6.441205020665025
3.2272943769014155 -1.3482085952330203 1.6445990342487455 -1.8671867666440722 -1.5707963621049768 1.457483979623903 -0.18576028269027042 0.0042656647585848015 -0.0053145320549460445 0.0010488687430586455 2.7428038668716635e-08 -0.023973246302223077 5.548040443015792 -0.1274011874563976 0.15872735737439214 -0.03132621312601874 -8.191840882390035e-07 0.7160009562263843 6.491668910127058
3.185486804142789 -1.3472485563744674 1.6434029352638204 -1.8669507061921036 -1.5707963559319686 1.4520885138950321 -0.08627023498988565 0.001981047271147449 -0.0024681590843931797 0.00048711248511651884 1.2738047697779116e-08 -0.011133583358136323 3.9609290499696668 -0.09095590949268058 0.11332069535300594 -0.022364816707958358 -5.848425377762826e-07 0.5111766967909027 6.542132799589091
3.1480773417809162 -1.3463895125416114 1.642332664568701 -1.8667394790384961 -1.5707963504083542 1.4472606451910948 -0.02251547130111409 0.0005170289959787279 -0.0006441591939299716 0.0001271303733012717 3.324473932465377e-09 -0.0029057284544090874 2.1154961971428548 -0.048578724388136464 0.060523553199900555 -0.011944845287205042 -3.123590826759644e-07 0.2730148266951387 6.592596689051124
3.1151564492127193 -1.345633540978608 1.6413908101728243 -1.8665535959492356 -1.57079634554749 1.4430120477266821 -7.105427357601002e-15 0.0 0.0 0.0 0.0 0.0 -4.263256414560601e-14 0.0 0.0 0.0 0.0 -3.552713678800501e-15 6.643060578513158
3.086748333882444 -1.344981197567696 1.640578064642096 -1.8663931936081775 -1.5707963413529502 1.4393458455873895 0.0 0.0 0.0 0.0 0.0 0.0 0.0 0.0 0.0 0.0 0.0 0.0 6.69352446797519
3.062805854977609 -1.3444313998013575 1.6398930792955417 -1.8662580058414981 -1.5707963378177745 1.4362559550275844 -1.0627542941518994e-07 0.009591150555908087 0.016986798713865346 -0.026577954424518324 5.278932248500125e-09 -1.0594943922081223e-07 -2.9605298194231486e-06 0.2671820512002967 0.4732036784576775 -0.740385873254439 1.4705596977964635e-07 -2.9514486640083405e-06 6.743988357437223
3.04320542712496 -1.3439813097544788 1.639332318401959 -1.8661473348421462 -1.5707963349237153 1.4337264267681769 -3.665417871666755e-07 0.03307968252956055 0.05858712209476008 -0.09166682240293055 1.8206929591765738e-08 -3.654174536391279e-07 -4.652261144807804e-06 0.4198575090290377 0.7436057804334932 -1.1634635151141184 2.3108795251087283e-07 -4.637990757727392e-06 6.794452246899256
3.0277419240864067 -1.3436262170565105 1.6388899133765684 -1.8660600223942945 -1.5707963326404846 1.4317307882943888 -7.027191659290111e-07 0.06341903632886164 0.1123208731284158 -0.17573994354171302 3.490559282681716e-08 -7.005636389294524e-07 -5.270393744467583e-06 0.4756427724664623 0.8424065484631182 -1.3180495765628473 2.6179194620112864e-07 -5.254227291970892e-06 6.84491613636129
3.016123582454979 -1.3433594218636276 1.638557516977665 -1.8659944210977908 -1.570796330925003 1.4302313861535236 -1.0497409762643252e-06 0.09473707896039825 0.16778797096960874 -0.2625251008462626 5.2142922617837975e-08 -1.0465209914872064e-06 -5.0101273867160975e-06 0.45215424049280983 0.8008062250822234 -1.2529607085844352 2.4886394885786305e-07 -4.994759277552576e-06 6.895380025823322
3.007966905350778 -1.3431721178308889 1.6383241575032697 -1.86594836559261 -1.5707963297206464 1.4291787282527346 -1.3555539466223208e-06 0.1223361040294399 0.21666835094216008 -0.3390045207208971 6.733331949617508e-08 -1.3513959084287277e-06 -4.0666618398669625e-06 0.36700831208831974 0.6500050528264801 -1.0170135621626906 2.0199995848852513e-07 -4.054187725286182e-06 6.945843915285355
3.0027915661169144 -1.3430532750843993 1.6381760929877809 -1.8659191437833054 -1.5707963289564926 1.428510826156796 -1.581118123340275e-06 0.14269283173993869 0.25272196453893553 -0.3954148729688543 7.85375838603386e-08 -1.5762681875912677e-06 -2.6351968722337886e-06 0.23782138623323112 0.4212032742315588 -0.6590247882814235 1.3089597310056424e-07 -2.627113645985443e-06 6.996307804747389
3.000015312015462 -1.3429895231934679 1.6380966653986258 -1.8659034680634603 -1.5707963285465707 1.4281525373858714 -1.7004068706430388e-06 0.1534584088945294 0.2717887794218455 -0.42524727079229324 8.446291597600199e-08 -1.6951910275329957e-06 -9.109322521301984e-07 0.08220986190778361 0.14560113183313123 -0.22781103792444277 4.524799070142951e-08 -9.081380504641021e-07 7.046771694209422
2.998948867923411 -1.34296503414277 1.638066154832912 -1.8658974465401392 -1.5707963283891073 1.4280149077132847 -1.7004068706430395e-06 0.15345840889452939 0.27178877942184554 -0.42524727079229313 8.446291597600203e-08 -1.6951910275329953e-06 9.109322521302018e-07 -0.08220986190778361 -0.1456011318331321 0.22781103792444277 -4.5247990701429723e-08 9.081380504641054e-07 7.097235583671455
2.9987908400286054 -1.342961405304506 1.638061633714079 -1.8658965542583392 -1.570796328365774 1.427994513463287 -1.5811181233402768e-06 0.14269283173993874 0.25272196453893564 -0.3954148729688544 7.853758386033864e-08 -1.5762681875912685e-06 2.635196872233792e-06 -0.23782138623323112 -0.4212032742315597 0.6590247882814253 -1.3089597310056445e-07 2.6271136459854462e-06 7.147699473133487
2.9987908400286063 -1.342961405304506 1.638061633714079 -1.8658965542583392 -1.570796328365774 1.427994513463287 -1.3555539466223227e-06 0.12233610402944008 0.21666835094216033 -0.33900452072089776 6.733331949617514e-08 -1.3513959084287292e-06 4.066661839866962e-06 -0.3670083120883196 -0.6500050528264806 1.017013562162692 -2.019999584885255e-07 4.054187725286183e-06 7.198163362595521
2.9987908375813794 -1.3427405478580317 1.6384527923103132 -1.8665085704197473 -1.570796328244215 1.427994511023567 -1.0497409762643281e-06 0.0947370789603985 0.16778797096960896 -0.26252510084626285 5.2142922617838075e-08 -1.0465209914872075e-06 5.010127386716095e-06 -0.4521542404928092 -0.8008062250822241 1.2529607085844345 -2.488639488578632e-07 4.994759277552577e-06 7.248163362595521
2.998790822446168 -1.3413746244778415 1.640871966671366 -1.870293668895103 -1.570796327492416 1.4279944959347812 -7.027191659290074e-07 0.06341903632886155 0.11232087312841552 -0.17573994354171302 3.490559282681706e-08 -7.005636389294505e-07 5.270393744467586e-06 -0.4756427724664618 -0.8424065484631194 1.318049576562848 -2.617919462011291e-07 5.254227291970894e-06 7.29880714701568
2.998790787031869 -1.338178552981371 1.6465324995625137 -1.8791502750004434 -1.5707963257333106 1.4279944606291126 -3.665417871666709e-07 0.03307968252956038 0.05858712209475943 -0.09166682240292927 1.8206929591765718e-08 -3.654174536391248e-07 4.652261144807798e-06 -0.4198575090290369 -0.7436057804334923 1.1634635151141184 -2.3108795251087272e-07 4.6379907577273935e-06 7.349450931435839
2.998790728518931 -1.3328978742722388 1.6558850611537157 -1.8937835181388678 -1.5707963228268453 1.4279944022956577 -1.0627542941519125e-07 0.009591150555907998 0.016986798713864864 -0.02657795442451785 5.278932248499876e-09 -1.0594943922081034e-07 2.9605298194231477e-06 -0.2671820512002964 -0.4732036784576773 0.7403858732544383 -1.4705596977964685e-07 2.951448664008342e-06 7.400094715855998
2.998790647991797 -1.3256304572336688 1.6687563167642183 -1.9139221946937996 -1.570796318826887 1.4279943220155333 0.0 0.0 0.0 0.0 0.0 0.0 0.0 8.881784197001252e-16 0.0 0.0 0.0 0.0 7.450738500276158
2.998790549571351 -1.3167482036219098 1.6844875946071576 -1.9385357309222473 -1.570796313938129 1.427994223896983 0.0 0.0 0.0 0.0 0.0 0.0 0.0 8.881784197001252e-16 0.0 0.0 0.0 0.0 7.501382284696317
2.998790439547363 -1.306818752959659 1.7020735535341616 -1.9660511458480658 -1.5707963084729977 1.4279941142104835 0.0 0.0 0.0 0.0 0.0 0.0 0.0 8.881784197001252e-16 0.0 0.0 0.0 0.0 7.552026069116476
2.9987903255109356 -1.296527187429481 1.7203008507799544 -1.994570014155218 -1.5707963028085596 1.4279940005238523 0.0 0.0 0.0 0.0 0.0 0.0 0.0 8.881784197001252e-16 0.0 0.0 0.0 0.0 7.602669853536635
2.9987902154869475 -1.2865977367672303 1.7378868097069584 -2.0220854290810366 -1.5707962973434284 1.4279938908373528 0.0 0.0 0.0 0.0 0.0 0.0 0.0 8.881784197001252e-16 0.0 0.0 0.0 0.0 7.653313637956794
2.9987901170665014 -1.2777154831554713 1.7536180875498977 -2.046698965309484 -1.5707962924546703 1.4279937927188024 0.0 0.0 0.0 0.0 0.0 0.0 0.0 8.881784197001252e-16 0.0 0.0 0.0 0.0 7.703957422376953
2.9987900365393676 -1.2704480661169013 1.7664893431604003 -2.066837641864416 -1.570796288454712 1.4279937124386781 0.0 0.0 0.0 0.0 0.0 0.0 0.0 0.0 0.0 0.0 0.0 0.0 7.754601206797112
2.9987899780264295 -1.2651673874077691 1.7758419047516023 -2.0814708850028403 -1.5707962855482467 1.4279936541052232 1.0627542941518994e-07 -0.009591150555908087 -0.016986798713865346 0.026577954424518324 -5.278932248500125e-09 1.0594943922081223e-07 2.9605298194231486e-06 -0.2671820512002967 -0.4732036784576775 0.740385873254439 -1.4705596977964635e-07 2.9514486640083405e-06 7.805244991217272
2.9987899426121305 -1.2619713159112986 1.78150243764275 -2.090327491108181 -1.5707962837891414 1.4279936187995546 3.665417871666755e-07 -0.03307968252956055 -0.05858712209476008 0.09166682240293055 -1.8206929591765738e-08 3.654174536391279e-07 4.652261144807804e-06 -0.4198575090290377 -0.7436057804334932 1.1634635151141184 -2.3108795251087283e-07 4.637990757727392e-06 7.855888775637431
2.998789927476919 -1.2606053925311085 1.7839216120038028 -2.094112589583536 -1.5707962830373423 1.4279936037107688 7.027191659290111e-07 -0.06341903632886164 -0.1123208731284158 0.17573994354171302 -3.490559282681716e-08 7.005636389294524e-07 5.270393744467583e-06 -0.4756427724664623 -0.8424065484631182 1.3180495765628473 -2.6179194620112864e-07 5.254227291970892e-06 7.90653256005759
2.9987899250296923 -1.260384535084634 1.784312770600037 -2.0947246057449442 -1.5707962829157833 1.4279936012710488 1.0497409762643252e-06 -0.09473707896039825 -0.16778797096960874 0.2625251008462626 -5.2142922617837975e-08 1.0465209914872064e-06 5.0101273867160975e-06 -0.45215424049280983 -0.8008062250822234 1.2529607085844352 -2.4886394885786305e-07 4.994759277552576e-06 7.957176344477749
2.9987899250296923 -1.260384535084634 1.784312770600037 -2.0947246057449442 -1.5707962829157833 1.4279936012710488 1.3555539466223208e-06 -0.1223361040294399 -0.21666835094216008 0.3390045207208971 -6.733331949617508e-08 1.3513959084287277e-06 4.0666618398669625e-06 -0.36700831208831974 -0.6500050528264801 1.0170135621626906 -2.0199995848852513e-07 4.054187725286182e-06 8.007820128897908
2.9987899250296923 -1.260384535084634 1.784312770600037 -2.0947246057449442 -1.5707962829157833 1.4279936012710488 1.581118123340275e-06 -0.14269283173993869 -0.25272196453893553 0.3954148729688543 -7.85375838603386e-08 1.5762681875912677e-06 2.6351968722337886e-06 -0.23782138623323112 -0.4212032742315588 0.6590247882814235 -1.3089597310056424e-07 2.627113645985443e-06 8.057820128897909
2.9987899250296923 -1.260384535084634 1.784312770600037 -2.0947246057449442 -1.5707962829157833 1.4279936012710488 1.7004068706430388e-06 -0.1534584088945294 -0.2717887794218455 0.42524727079229324 -8.446291597600199e-08 1.6951910275329957e-06 9.109322521301984e-07 -0.08220986190778361 -0.14560113183313123 0.22781103792444277 -4.524799070142951e-08 9.081380504641021e-07 8.120320128897909
2.9987899250296923 -1.260384535084634 1.784312770600037 -2.0947246057449442 -1.5707962829157833 1.4279936012710488 1.7004068706430395e-06 -0.15345840889452939 -0.27178877942184554 0.42524727079229313 -8.446291597600203e-08 1.6951910275329953e-06 -9.109322521302018e-07 0.08220986190778361 0.1456011318331321 -0.22781103792444277 4.5247990701429723e-08 -9.081380504641054e-07 8.182820128897909
2.9987899250296923 -1.260384535084634 1.784312770600037 -2.0947246057449442 -1.5707962829157833 1.4279936012710488 1.5811181233402768e-06 -0.14269283173993874 -0.25272196453893564 0.3954148729688544 -7.853758386033864e-08 1.5762681875912685e-06 -2.635196872233792e-06 0.23782138623323112 0.4212032742315597 -0.6590247882814253 1.3089597310056445e-07 -2.6271136459854462e-06 8.245320128897909
2.9987899250296923 -1.260384535084634 1.784312770600037 -2.0947246057449447 -1.5707962829157833 1.4279936012710488 1.3555539466223227e-06 -0.12233610402944008 -0.21666835094216033 0.33900452072089776 -6.733331949617514e-08 1.3513959084287292e-06 -4.066661839866962e-06 0.3670083120883196 0.6500050528264806 -1.017013562162692 2.019999584885255e-07 -4.054187725286183e-06 8.307820128897909
2.998789927476919 -1.2606053925311085 1.7839216120038028 -2.0941125895835366 -1.5707962830373423 1.4279936037107688 1.0497409762643281e-06 -0.0947370789603985 -0.16778797096960896 0.26252510084626285 -5.2142922617838075e-08 1.0465209914872075e-06 -5.010127386716095e-06 0.4521542404928092 0.8008062250822241 -1.2529607085844345 2.488639488578632e-07 -4.994759277552577e-06 8.35782012889791
2.9987899426121305 -1.2619713159112986 1.78150243764275 -2.0903274911081806 -1.5707962837891414 1.4279936187995546 7.027191659290074e-07 -0.06341903632886155 -0.11232087312841552 0.17573994354171302 -3.490559282681706e-08 7.005636389294505e-07 -5.270393744467586e-06 0.4756427724664618 0.8424065484631194 -1.318049576562848 2.617919462011291e-07 -5.254227291970894e-06 8.40846391331807
2.9987899780264295 -1.2651673874077691 1.7758419047516023 -2.0814708850028403 -1.5707962855482467 1.4279936541052232 3.665417871666709e-07 -0.03307968252956038 -0.05858712209475943 0.09166682240292927 -1.8206929591765718e-08 3.654174536391248e-07 -4.652261144807798e-06 0.4198575090290369 0.7436057804334923 -1.1634635151141184 2.3108795251087272e-07 -4.6379907577273935e-06 8.459107697738228
2.9987900365393676 -1.2704480661169013 1.7664893431604003 -2.066837641864416 -1.570796288454712 1.4279937124386781 1.0627542941519125e-07 -0.009591150555907998 -0.016986798713864864 0.02657795442451785 -5.278932248499876e-09 1.0594943922081034e-07 -2.9605298194231477e-06 0.2671820512002964 0.4732036784576773 -0.7403858732544383 1.4705596977964685e-07 -2.951448664008342e-06 8.509751482158388
2.9987901170665014 -1.2777154831554713 1.7536180875498977 -2.0466989653094845 -1.5707962924546703 1.4279937927188024 0.0 0.0 0.0 0.0 0.0 0.0 0.0 -8.881784197001252e-16 0.0 0.0 0.0 0.0 8.560395266578546
2.9987902154869475 -1.2865977367672303 1.7378868097069584 -2.0220854290810366 -1.5707962973434284 1.4279938908373528 0.0 0.0 0.0 0.0 0.0 0.0 0.0 -8.881784197001252e-16 0.0 0.0 0.0 0.0 8.611039050998706
2.9987903255109356 -1.296527187429481 1.7203008507799544 -1.994570014155218 -1.5707963028085596 1.4279940005238523 0.0 0.0 0.0 0.0 0.0 0.0 0.0 -8.881784197001252e-16 0.0 0.0 0.0 0.0 8.661682835418864
2.998790439547363 -1.306818752959659 1.7020735535341616 -1.9660511458480658 -1.5707963084729977 1.4279941142104835 0.0 0.0 0.0 0.0 0.0 0.0 0.0 -8.881784197001252e-16 0.0 0.0 0.0 0.0 8.712326619839024
2.998790549571351 -1.3167482036219098 1.6844875946071576 -1.9385357309222473 -1.570796313938129 1.427994223896983 0.0 0.0 0.0 0.0 0.0 0.0 0.0 -8.881784197001252e-16 0.0 0.0 0.0 0.0 8.762970404259182
2.998790647991797 -1.3256304572336686 1.6687563167642183 -1.9139221946937996 -1.570796318826887 1.4279943220155333 0.0 0.0 0.0 0.0 0.0 0.0 0.0 -8.881784197001252e-16 0.0 0.0 0.0 0.0 8.813614188679342
2.998790728518931 -1.3328978742722388 1.6558850611537157 -1.893783518138868 -1.5707963228268453 1.4279944022956577 0.0 0.0 0.0 0.0 0.0 0.0 0.0 -8.881784197001252e-16 0.0 0.0 0.0 0.0 8.8642579730995
2.998790787031869 -1.338178552981371 1.6465324995625137 -1.8791502750004434 -1.5707963257333106 1.4279944606291126 0.0 0.0 0.0 0.0 0.0 0.0 0.0 -8.881784197001252e-16 0.0 0.0 0.0 0.0 8.91490175751966
2.998790822446168 -1.3413746244778415 1.640871966671366 -1.8702936688951028 -1.570796327492416 1.4279944959347812 0.0 0.0 0.0 0.0 0.0 0.0 0.0 -8.881784197001252e-16 0.0 0.0 0.0 0.0 8.965545541939818
2.9987908375813794 -1.3427405478580317 1.6384527923103132 -1.8665085704197475 -1.570796328244215 1.427994511023567 0.0 0.0 0.0 0.0 0.0 0.0 0.0 -8.881784197001252e-16 0.0 0.0 0.0 0.0 9.016189326359978
2.9987908400286063 -1.342961405304506 1.638061633714079 -1.8658965542583394 -1.570796328365774 1.427994513463287 0.0 0.0 0.0 0.0 0.0 0.0 0.0 -8.881784197001252e-16 0.0 0.0 0.0 0.0 9.066833110780138
2.9987908400286063 -1.342961405304506 1.638061633714079 -1.8658965542583394 -1.570796328365774 1.427994513463287 0.0 0.0 0.0 0.0 0.0 0.0 0.0 -8.881784197001252e-16 0.0 0.0 0.0 0.0 9.117476895200296
2.9987908400286063 -1.342961405304506 1.638061633714079 -1.8658965542583394 -1.570796328365774 1.427994513463287 0.0 0.0 0.0 0.0 0.0 0.0 0.0 -8.881784197001252e-16 0.0 0.0 0.0 0.0 9.167476895200297
2.9987908400286063 -1.342961405304506 1.638061633714079 -1.8658965542583394 -1.570796328365774 1.427994513463287 0.0 0.0 0.0 0.0 0.0 0.0 0.0 -8.881784197001252e-16 0.0 0.0 0.0 0.0 9.217476895200297
2.9987908400286063 -1.342961405304506 1.638061633714079 -1.8658965542583394 -1.570796328365774 1.427994513463287 0.0 0.0 0.0 0.0 0.0 0.0 0.0 -8.881784197001252e-16 0.0 0.0 0.0 0.0 9.267476895200296
2.9987908400286063 -1.342961405304506 1.638061633714079 -1.8658965542583394 -1.570796328365774 1.427994513463287 0.0 0.0 0.0 0.0 0.0 0.0 0.0 -8.881784197001252e-16 0.0 0.0 0.0 0.0 9.317476895200297
2.9987908400286063 -1.342961405304506 1.638061633714079 -1.8658965542583394 -1.570796328365774 1.427994513463287 0.0 0.0 0.0 0.0 0.0 0.0 0.0 -8.881784197001252e-16 0.0 0.0 0.0 0.0 9.367476895200296
2.9987908400286063 -1.342961405304506 1.638061633714079 -1.8658965542583394 -1.570796328365774 1.427994513463287 0.0 0.0 0.0 0.0 0.0 0.0 0.0 -8.881784197001252e-16 0.0 0.0 0.0 0.0 9.417476895200297
2.9987908400286063 -1.342961405304506 1.638061633714079 -1.8658965542583394 -1.570796328365774 1.427994513463287 0.0 0.0 0.0 0.0 0.0 0.0 0.0 -8.881784197001252e-16 0.0 0.0 0.0 0.0 9.467476895200296
2.9987908400286063 -1.342961405304506 1.638061633714079 -1.8658965542583394 -1.570796328365774 1.427994513463287 0.0 0.0 0.0 0.0 0.0 0.0 0.0 -8.881784197001252e-16 0.0 0.0 0.0 0.0 9.517476895200296
2.9987908400286063 -1.342961405304506 1.638061633714079 -1.8658965542583394 -1.570796328365774 1.427994513463287 0.0 0.0 0.0 0.0 0.0 0.0 0.0 -8.881784197001252e-16 0.0 0.0 0.0 0.0 9.567476895200297
2.9987908400286063 -1.342961405304506 1.638061633714079 -1.8658965542583394 -1.570796328365774 1.427994513463287 0.0 0.0 0.0 0.0 0.0 0.0 0.0 -8.881784197001252e-16 0.0 0.0 0.0 0.0 9.617476895200296
2.9987908400286063 -1.342961405304506 1.638061633714079 -1.8658965542583394 -1.570796328365774 1.427994513463287 0.0 0.0 0.0 0.0 0.0 0.0 0.0 -8.881784197001252e-16 0.0 0.0 0.0 0.0 9.667476895200297
2.9987908400286063 -1.342961405304506 1.638061633714079 -1.8658965542583394 -1.570796328365774 1.427994513463287 0.0 0.0 0.0 0.0 0.0 0.0 0.0 -8.881784197001252e-16 0.0 0.0 0.0 0.0 9.717476895200296
2.9987908400286063 -1.342961405304506 1.638061633714079 -1.8658965542583394 -1.570796328365774 1.427994513463287 0.0 0.0 0.0 0.0 0.0 0.0 0.0 -8.881784197001252e-16 0.0 0.0 0.0 0.0 9.767476895200296
2.9987908400286063 -1.342961405304506 1.638061633714079 -1.8658965542583394 -1.570796328365774 1.427994513463287 0.0 0.0 0.0 0.0 0.0 0.0 0.0 -8.881784197001252e-16 0.0 0.0 0.0 0.0 9.817476895200297
2.9987908400286063 -1.342961405304506 1.638061633714079 -1.8658965542583394 -1.570796328365774 1.427994513463287 0.0 0.0 0.0 0.0 0.0 0.0 0.0 -8.881784197001252e-16 0.0 0.0 0.0 0.0 9.867476895200296
2.9987908400286063 -1.342961405304506 1.638061633714079 -1.8658965542583394 -1.570796328365774 1.427994513463287 0.0 0.0 0.0 0.0 0.0 0.0 0.0 -8.881784197001252e-16 0.0 0.0 0.0 0.0 9.917476895200297
2.9987908400286063 -1.342961405304506 1.638061633714079 -1.8658965542583394 -1.570796328365774 1.427994513463287 0.0 0.0 0.0 0.0 0.0 0.0 0.0 -8.881784197001252e-16 0.0 0.0 0.0 0.0 9.967476895200296
2.9987908400286063 -1.342961405304506 1.638061633714079 -1.8658965542583394 -1.570796328365774 1.427994513463287 0.0 0.0 0.0 0.0 0.0 0.0 0.0 -8.881784197001252e-16 0.0 0.0 0.0 0.0 10.017476895200296
2.9987908400286063 -1.342961405304506 1.638061633714079 -1.8658965542583394 -1.570796328365774 1.427994513463287 0.0 0.0 0.0 0.0 0.0 0.0 0.0 -8.881784197001252e-16 0.0 0.0 0.0 0.0 10.067476895200297
2.9987908400286063 -1.342961405304506 1.638061633714079 -1.8658965542583394 -1.570796328365774 1.427994513463287 0.0 0.0 0.0 0.0 0.0 0.0 0.0 -8.881784197001252e-16 0.0 0.0 0.0 0.0 10.117476895200296
2.9987908400286063 -1.342961405304506 1.638061633714079 -1.8658965542583394 -1.570796328365774 1.427994513463287 0.0 0.0 0.0 0.0 0.0 0.0 0.0 -8.881784197001252e-16 0.0 0.0 0.0 0.0 10.167476895200297
2.9987908400286063 -1.342961405304506 1.638061633714079 -1.8658965542583394 -1.570796328365774 1.427994513463287 0.0 0.0 0.0 0.0 0.0 0.0 0.0 0.0 0.0 0.0 0.0 0.0 10.217476895200296
2.9987908400286063 -1.342961405304506 1.638061633714079 -1.8658965542583394 -1.570796328365774 1.427994513463287 0.022801289465133948 -0.0014904733781085926 0.0017975866334796768 -0.0003071195564093698 -1.4424841154426194e-08 0.001488767791653202 2.0511026612191605 -0.13407636076852406 0.16170290427390516 -0.027627110318780648 -1.2975945998470498e-06 0.13392293379138137 10.267476895200296
2.9987908400286063 -1.342961405304506 1.638061633714079 -1.8658965542583394 -1.570796328365774 1.427994513463287 0.08719663487308509 -0.005699864612381699 0.006874326365267466 -0.0011744858493008196 -5.5163441925864915e-08 0.0056933421128703195 3.8287249676090997 -0.25027587343457824 0.3018454213112896 -0.051570605928390544 -2.4221765863811596e-06 0.2499894764105786 10.317476895200295
2.9987908400286063 -1.342961405304506 1.638061633714079 -1.8658965542583394 -1.570796328365774 1.427994513463287 0.1873759298712563 -0.012248379004990168 0.014772167490239655 -0.002523840265781888 -1.1854013908681793e-07 0.01223436287451898 5.345297844389328 -0.3494111220028203 0.42140756871381346 -0.07199792386106471 -3.381610169298372e-06 0.3490112820017818 10.367476895200296
2.9987908400286063 -1.342961405304506 1.638061633714079 -1.8658965542583394 -1.570796328365774 1.427994513463287 0.3177993056118225 -0.020773886727771317 0.025054363033743407 -0.004280564128443483 -2.0105023049013575e-07 0.020750114642775295 6.613252216779355 -0.4322946904779079 0.5213693640831366 -0.0890765011490382 -4.18375955829473e-06 0.43180000470918123 10.417476895200295
2.9987908400286063 -1.342961405304506 1.638061633714079 -1.8658965542583394 -1.570796328365774 1.427994513463287 0.47319713075173053 -0.030931922822228942 0.03730547075159676 -0.006373678695359886 -2.9935997506901774e-07 0.030896526639123862 7.645019009998689 -0.49973916286449876 0.6027108250209192 -0.10297377482454605 -4.836488963066276e-06 0.49916729867696696 10.467476895200296
2.9987908400286063 -1.342961405304506 1.638061633714079 -1.8658965542583394 -1.570796328365774 1.427994513463287 0.648570011452699 -0.0423956871995333 0.05113135313008859 -0.008735845160088742 -4.103065928370118e-07 0.04234717274035775 8.453029149266843 -0.5525571231672507 0.6664119691288213 -0.11385718191982326 -5.347662593309053e-06 0.5519248180493294 10.517476895200296
2.9987908400286063 -1.342961405304506 1.638061633714079 -1.8658965542583394 -1.570796328365774 1.427994513463287 0.8391887913812189 -0.05485604464052114 0.06615917738597869 -0.011303364651671076 -5.308982648880149e-07 0.05479327147857853 9.049713559803326 -0.5915611553908213 0.7134528140085028 -0.12189415946710493 -5.725144658719104e-06 0.5908842169704585 10.567476895200295
2.9987908400286063 -1.342961405304506 1.638061633714079 -1.8658965542583394 -1.570796328365774 1.427994513463287 1.0405945517085526 -0.06802152479569565 0.08203741546649769 -0.01401617823463127 -6.583141333962722e-07 0.06794368604119622 9.447503166827648 -0.6175638435398685 0.7448133772616238 -0.127252144498626 -5.976799368992471e-06 0.6168571495845445 10.617476895200296
2.9987908400286063 -1.342961405304506 1.638061633714079 -1.8658965542583394 -1.570796328365774 1.427994513463287 1.2485986111107348 -0.08161832218522652 0.09843584404934709 -0.01681786690897709 -7.899043016163783e-07 0.08152492427092933 9.658828895559319 -0.6313777716190497 0.7614736764898443 -0.1300985740466216 -6.1104909338251975e-06 0.6306552700357778 10.667476895200295
2.9987908400286063 -1.342961405304506 1.638061633714079 -1.8658965542583392 -1.570796328365774 1.427994513463287 1.4592825257685729 -0.09539029619894994 0.11504554454269933 -0.01965565161019967 -9.231898338832766e-07 0.09528113866580494 9.696121671217847 -0.6338155236330228 0.7644137292948243 -0.13060088514332668 -6.134083562913326e-06 0.6330902324683483 10.717476895200296
2.99895791077582 -1.3429723263754991 1.6380748050806588 -1.8658988046000953 -1.5707963284714683 1.4280054220370217 1.6689980893676444 -0.10909897109636847 0.1315789030851976 -0.022480393209273506 -1.0558627556122583e-06 0.10897412637915847 9.571812419022747 -0.6256896835864457 0.754613553278224 -0.12892651482097636 -6.055441465952899e-06 0.6249736910264464 10.767476895200296
3.0000835413678586 -1.3430459065312874 1.6381635464875681 -1.8659139661622794 -1.5707963291835791 1.4280789179931732 1.8743673330983002 -0.12252353600665124 0.14776961054595603 -0.025246592512656468 -1.1857860532989642e-06 0.12238332921963391 9.298332064193524 -0.6078128354839757 0.7330531660417033 -0.12524290011180558 -5.882428852639958e-06 0.6071172998542623 10.81758083485885
3.0030083075215583 -1.3432370924769748 1.6383941264533188 -1.8659533609905894 -1.5707963310338817 1.4282698851599382 2.0722825256556625 -0.1354608449286338 0.1633726625245596 -0.02791239026228979 -1.310993674519383e-06 0.13530583365118368 8.888111531949692 -0.580997563330271 0.7007125851869224 -0.11971747804804951 -5.6229099326705486e-06 0.5803327130959861 10.867684774517405
3.0084494156580983 -1.3435927665206433 1.6388230874238165 -1.8660266494210453 -1.5707963344761047 1.4286251521967859 2.2599061732396266 -0.14772541673081827 0.17816435935106426 -0.030439567135598106 -1.4296905279298544e-06 0.1475563707930688 8.35358174751076 -0.5460564511299889 0.658571828315541 -0.11251768566194298 -5.284748915740712e-06 0.5454315848958078 10.917788714175959
3.0170065776313657 -1.3441521305922597 1.6394977089186749 -1.8661419092090223 -1.5707963398896452 1.4291838761739206 2.4346710195548584 -0.15914943515137306 0.19194230608599663 -0.03279354374548938 -1.5402524832670638e-06 0.1589673164198586 7.707173636096235 -0.5038020828877875 0.6076109130292194 -0.10381095998572124 -4.875810011546491e-06 0.5032255693979178 10.967892653834515
3.02916788545632 -1.3449470902625797 1.6404564706775306 -1.8663057146582829 -1.570796347583286 1.4299779261517458 2.594280045810796 -0.1695827487981332 0.20452541252035436 -0.03494338064035497 -1.641226371348047e-06 0.169388690961431 6.961318122925631 -0.45504704260832435 0.5488098569296175 -0.09376473805161917 -4.403957429783928e-06 0.45452632074650645 11.017996593493068
3.045315686037358 -1.346002638762056 1.6417295158063578 -1.8665232157500093 -1.5707963577989126 1.4310322667603261 2.736706470721649 -0.17889287114860009 0.21575389317560584 -0.03686177830406958 -1.731329984070188e-06 0.17868815950297234 6.128446133218458 -0.4006039142962572 0.4831486776183959 -0.08254645689187193 -3.877055380149067e-06 0.4001454930857643 11.068100533151622
3.0657324558966774 -1.3473372409997415 1.643339113923783 -1.8667982172718354 -1.5707963707152286 1.4323653417788522 2.8601937505064012 -0.18696498054994182 0.22548926730369062 -0.03852507715599134 -1.8094520744112218e-06 0.18675103178497765 5.2209885921942245 -0.3412852819562435 0.4116073926972132 -0.07032355353871439 -3.302968072337945e-06 0.3408947405598801 11.118204472810177
3.090606675902643 -1.3489632175821975 1.6453001243073988 -1.867133257946879 -1.5707963864514736 1.4339894577151022 2.9632555788888073 -0.19370192021899268 0.2336143588870188 -0.039913257550961694 -1.874652356429228e-06 0.19348026220325015 4.251376425072434 -0.2779037295929409 0.335166019767731 -0.057263465024381774 -2.6895597160466135e-06 0.2775857173130452 11.16830841246873
3.1200387059981503 -1.3508871288323978 1.6476204590400794 -1.867529689562774 -1.5707964050711378 1.4359111673849068 3.0446758870973922 -0.19902419824225356 0.24003329663847145 -0.0410099397793055 -1.926161505262639e-06 0.1987964498089017 3.232040557072605 -0.21127184121100773 0.254804576431608 -0.04353362838110887 -2.044694520971106e-06 0.2110300774894493 11.218412352127286
3.15404665992899 -1.3531101588086354 1.6503015461562949 -1.8679877561007039 -1.5707964265856813 1.4381316534916104 3.103508843865453 -0.20286998757589172 0.24467151400140036 -0.041802384066830886 -1.9633811571302316e-06 0.20263783830835244 2.1754119134142544 -0.14220220081510207 0.17150308029050573 -0.02930148064113101 -1.376236696807482e-06 0.1420394752332837 11.26851629178584
3.1925722799722127 -1.3556284993234275 1.6533387927884255 -1.8685066728644317 -1.5707964509582482 1.4406471122055364 3.1390788554310634 -0.20519512604574122 0.24747574914962872 -0.0422814905748295 -1.985883909331137e-06 0.2049603160633315 1.0939214193168718 -0.07150739240987944 0.08624154894608281 -0.014734458836682925 -6.920504532517605e-07 0.07142556468873662 11.318620231444395
3.2354868116644946 -1.3584337339624224 1.6567220483130767 -1.8690847056093345 -1.570796478107384 1.443449136743449 3.1509805655370595 -0.2059731163473021 0.24841404498745 -0.04244179940007628 -1.99341332024483e-06 0.20573741609087592 -1.4210854715202004e-14 -4.440892098500626e-16 0.0 0.0 0.0 0.0 11.368724171102949
3.2825968785305006 -1.3615132221033044 1.6604360674973935 -1.8697192496714334 -1.5707965079107524 1.4465251009480167 3.1390788554310625 -0.20519512604574125 0.24747574914962886 -0.04228149057482953 -1.9858839093311377e-06 0.2049603160633315 -1.0939214193169002 0.07150739240987944 -0.08624154894608325 0.014734458836683036 6.920504532517571e-07 -0.07142556468873662 11.418828110761503
3.33365035681125 -1.3648504829347 1.6644609736453748 -1.8704069090964286 -1.5707965402088517 1.4498585428672761 3.103508843865453 -0.20286998757589184 0.24467151400140047 -0.04180238406683091 -1.9633811571302324e-06 0.2026378383083525 -2.1754119134142815 0.1422022008151011 -0.17150308029050573 0.029301480641130976 1.3762366968074788e-06 -0.14203947523328364 11.468932050420058
3.3883422501924794 -1.368425579475083 1.6687727217441886 -1.8711435757687287 -1.5707965748087316 1.4534295483340947 3.0446758870973905 -0.19902419824225348 0.24003329663847137 -0.04100993977930547 -1.926161505262638e-06 0.19879644980890165 -3.232040557072632 0.2112718412110072 -0.25480457643160753 0.04353362838110884 2.0446945209711026e-06 -0.2110300774894492 11.519035990078612
3.4463205645330097 -1.3722155025916818 1.673343561610486 -1.871924508540485 -1.5707966114877088 1.457215134545634 2.9632555788888055 -0.19370192021899274 0.23361435888701879 -0.0399132575509617 -1.8746523564292289e-06 0.19348026220325018 -4.251376425072461 0.2779037295929404 -0.3351660197677306 0.05726346502438174 2.6895597160466135e-06 -0.27758571731304515 11.569139929737167
3.5071921825931094 -1.3761945550193837 1.678142501036716 -1.8727444123606232 -1.5707966499970845 1.4611896336428127 2.8601937505064012 -0.18696498054994187 0.22548926730369068 -0.038525077155991364 -1.8094520744112226e-06 0.18675103178497762 -5.220988592194253 0.3412852819562431 -0.4116073926972132 0.07032355353871433 3.3029680723379486e-06 -0.34089474055987967 11.61924386939572
3.5705287387628593 -1.3803347353796411 1.6831357689374402 -1.873597517403875 -1.5707966900658605 1.4653250762897712 2.73670647072165 -0.17889287114860034 0.21575389317560612 -0.03686177830406964 -1.7313299840701894e-06 0.17868815950297248 -6.12844613321849 0.40060391429625675 -0.4831486776183955 0.08254645689187193 3.877055380149067e-06 -0.40014549308576386 11.669347809054274
3.635872493790517 -1.3846061221993777 1.6882872784956475 -1.8744776581998113 -1.5707967314044562 1.4695915752533324 2.5942800458107946 -0.16958274879813326 0.20452541252035442 -0.03494338064035496 -1.6412263713480468e-06 0.16938869096143122 -6.961318122925656 0.4550470426083237 -0.5488098569296175 0.09376473805161917 4.403957429783925e-06 -0.4545263207465069 11.71945174871283
3.702742209510881 -1.388977257929894 1.6935590903090678 -1.8753783527618737 -1.5707967737084245 1.4739577089824671 2.434671019554856 -0.15914943515137306 0.19194230608599647 -0.032793543745489366 -1.540252483267064e-06 0.15896731641985842 -7.707173636096274 0.503802082887787 -0.6076109130292194 0.10381095998572118 4.875810011546488e-06 -0.5032255693979178 11.769555688371383
3.7706390235736578 -1.3934155329657731 1.6989118755364883 -1.8762928817164075 -1.5707968166621689 1.4783909051877562 2.259906173239624 -0.14772541673081832 0.17816435935106428 -0.030439567135598145 -1.4296905279298547e-06 0.14755637079306871 -8.353581747510784 0.5460564511299882 -0.6585718283155414 0.11251768566194287 5.284748915740707e-06 -0.5454315848958085 11.819659628029939
3.8390523241718224 -1.3978875696637867 1.7043053790440656 -1.877214367431693 -1.5707968599426594 1.482857824420854 2.0722825256556607 -0.13546084492863406 0.16337266252455968 -0.027912390262289786 -1.3109936745193832e-06 0.13530583365118368 -8.888111531949736 0.5809975633302703 -0.7007125851869226 0.11971747804804936 5.622909932670553e-06 -0.580332713095986 11.869763567688493
3.907465624769987 -1.4023596063618 1.709698882551643 -1.8781358531469783 -1.57079690322315 1.4873247436539516 1.874367333098291 -0.12252353600665097 0.1477696105459556 -0.02524659251265641 -1.185786053298963e-06 0.12238332921963366 -9.298332064193543 0.6078128354839736 -0.7330531660417013 0.12524290011180533 5.88242885263995e-06 -0.6071172998542604 11.919867507347046
3.975362438832764 -1.4067978813976791 1.7150516677790633 -1.879050382101512 -1.5707969461768942 1.4917579398592407 1.668998089367644 -0.10909897109636858 0.13157890308519787 -0.022480393209273527 -1.0558627556122585e-06 0.1089741263791585 -9.571812419022782 0.6256896835864458 -0.7546135532782249 0.12892651482097636 6.055441465952904e-06 -0.6249736910264471 11.969971447005602
4.042232154553129 -1.4111690171281954 1.7203234795924838 -1.8799510766635745 -1.5707969884808626 1.4961240735883754 1.4592825257685706 -0.09539029619895013 0.11504554454269947 -0.019655651610199647 -9.231898338832765e-07 0.09528113866580501 -9.696121671217867 0.6338155236330221 -0.7644137292948244 0.13060088514332668 6.134083562913325e-06 -0.6330902324683478 12.020075386664155
4.107575909580786 -1.415440403947932 1.725474989150691 -1.8808312174595108 -1.5707970298194582 1.5003905725519366 1.248598611110736 -0.08161832218522666 0.0984358440493474 -0.016817866908977134 -7.899043016163814e-07 0.0815249242709295 -9.658828895559349 0.6313777716190491 -0.7614736764898454 0.13009857404662173 6.1104909338252034e-06 -0.6306552700357781 12.07017932632271
4.170912465750535 -1.4195805843081895 1.7304682570514154 -1.8816843225027626 -1.5707970698882343 1.504526015198895 1.0405945517085478 -0.06802152479569563 0.08203741546649776 -0.014016178234631221 -6.583141333962712e-07 0.0679436860411964 -9.447503166827678 0.617563843539867 -0.7448133772616236 0.127252144498626 5.976799368992459e-06 -0.6168571495845442 12.120283265981264
4.231784083810635 -1.4235596367358914 1.7352671964776454 -1.8825042263229008 -1.57079710839761 1.508500514296074 0.8391887913812184 -0.05485604464052148 0.06615917738597936 -0.011303364651671153 -5.308982648880171e-07 0.05479327147857906 -9.049713559803392 0.5915611553908227 -0.7134528140085042 0.12189415946710519 5.725144658719122e-06 -0.5908842169704596 12.17038720563982
4.289762398151165 -1.4273495598524901 1.7398380363439427 -1.883285159094657 -1.5707971450765872 1.5122861005076131 0.6485700114526929 -0.042395687199533405 0.051131353130088784 -0.008735845160088757 -4.10306592837014e-07 0.04234717274035789 -8.453029149266902 0.5525571231672504 -0.6664119691288232 0.1138571819198235 5.34766259330907e-06 -0.5519248180493316 12.220491145298373
4.344454291532395 -1.4309246563928733 1.7441497844427567 -1.8840218257669572 -1.570797179676467 1.5158571059744317 0.47319713075172304 -0.030931922822229143 0.03730547075159667 -0.006373678695359836 -2.9935997506901917e-07 0.030896526639123647 -7.645019009998734 0.4997391628644985 -0.6027108250209203 0.10297377482454606 4.836488963066288e-06 -0.4991672986769675 12.270595084956927
4.395507769813144 -1.4342619172242688 1.748174690590738 -1.8847094851919524 -1.5707972119745663 1.5191905478936911 0.3177993056118139 -0.02077388672777143 0.025054363033743175 -0.004280564128443509 -2.0105023049013464e-07 0.020750114642775225 -6.61325221677938 0.43229469047790564 -0.5213693640831352 0.089076501149038 4.183759558294713e-06 -0.43180000470918 12.320699024615482
4.44261783667915 -1.4373414053651508 1.7518887097750546 -1.8853440292540513 -1.5707972417779348 1.5222665120982588 0.1873759298712381 -0.012248379004989785 0.014772167490238958 -0.0025238402657817567 -1.1854013908681435e-07 0.012234362874518796 -5.345297844389352 0.3494111220028186 -0.42140756871381213 0.07199792386106448 3.3816101692983575e-06 -0.3490112820017807 12.370802964274036
4.485532368371433 -1.4401466400041458 1.755271965299706 -1.885922061998954 -1.5707972689270706 1.5250685366361714 0.08719663487308406 -0.005699864612381739 0.00687432636526734 -0.0011744858493007296 -5.5163441925863876e-08 0.005693342112870337 -3.8287249676091317 0.25027587343457697 -0.30184542131128955 0.051570605928390634 2.422176586381151e-06 -0.249989476410579 12.420906903932591
4.524057988414655 -1.4426649805189378 1.7583092119318364 -1.886440978762682 -1.5707972932996375 1.5275839953500974 0.022801289465121707 -0.0014904733781083207 0.0017975866334794587 -0.00030711955640937274 -1.4424841154426012e-08 0.0014887677916529262 -2.051102661219182 0.13407636076852184 -0.1617029042739031 0.027627110318780373 1.2975945998470462e-06 -0.13392293379138087 12.471010843591145
4.558065942345493 -1.4448880104951753 1.760990299048052 -1.8868990453006118 -1.570797314814181 1.529804481456801 -7.105427357601002e-15 0.0 0.0 0.0 0.0 0.0 -4.263256414560601e-14 -8.881784197001252e-16 0.0 0.0 0.0 0.0 12.5211147832497
4.587497972441 -1.4468119217453754 1.7633106337807325 -1.887295476916507 -1.5707973334338452 1.5317261911266054 0.0 0.0 0.0 0.0 0.0 0.0 0.0 0.0 0.0 0.0 0.0 0.0 12.571218722908254
4.6123721924469665 -1.4484378983278317 1.7652716441643483 -1.8876305175915504 -1.5707973491700902 1.5333503070628556 -1.1261464050625768e-07 0.010518371507352055 0.01747512949198895 -0.027993447199227313 1.2367487559888308e-07 -1.1036645823710218e-07 -3.1371221283886067e-06 0.29301177770480724 0.4868071787054064 -0.7798174576927608 3.445228677397457e-06 -3.0744941937478466e-06 12.621322662566808
4.632788962306284 -1.449772500565517 1.7668812422817732 -1.8879055191133765 -1.5707973620864062 1.5346833820813817 -3.884055968481132e-07 0.03627764866821423 0.06027136498257413 -0.09654882809529419 4.2655212196349467e-07 -3.806516620830667e-07 -4.929763344610667e-06 0.46044707925041134 0.7649827093942101 -1.2254274335171955 5.413930778767432e-06 -4.831348018746616e-06 12.671426602225363
4.648936762887325 -1.4508280490649934 1.7681542874106007 -1.888123020205103 -1.5707973723020328 1.5357377226899622 -7.446355821230101e-07 0.06955004833432787 0.11554983582458 -0.18509952841938063 8.177685651844514e-07 -7.297700503841043e-07 -5.584766865922575e-06 0.521625362507459 0.8666237686843499 -1.3882464631453544 6.1332642388833845e-06 -5.473275377880782e-06 12.721530541883917
4.661098070712278 -1.4516230087353135 1.7691130491694562 -1.8882868256543635 -1.5707973799956736 1.5365317726677872 -1.1123568572454841e-06 0.10389575121547744 0.17261148314536023 -0.27650670294746976 1.2216048936706002e-06 -1.0901503221787237e-06 -5.308975909580719e-06 0.4958660853465968 0.8238275331937648 -1.3196910822492876 5.830386992518773e-06 -5.202990174034818e-06 12.77163448154247
4.669655232685544 -1.4521823728069296 1.7697876706643145 -1.8884020854423405 -1.570797385409214 1.537090496644922 -1.4364112309471645e-06 0.1341629018794905 0.22289705984679783 -0.35705927550034844 1.5774856581490191e-06 -1.4077354366977323e-06 -4.3092336928414925e-06 0.4024887056384713 0.6686911795403934 -1.0711778265010448 4.732456974447056e-06 -4.223206310093195e-06 12.821738421201026
4.675096340822085 -1.4525380468505984 1.7702166316348125 -1.8884753738727964 -1.570797388851437 1.5374457636817696 -1.6754300597767724e-06 0.15648760875223772 0.259987130605305 -0.4164739389436064 1.8399792716650156e-06 -1.6419826133642348e-06 -2.792383432961286e-06 0.26081268125372914 0.4333118843421746 -0.6941232315726763 3.066632119441689e-06 -2.7366376889403896e-06 12.871842360859581
4.678021106975786 -1.4527292327962857 1.770447211600563 -1.8885147687011063 -1.5707973907017396 1.5376367308485346 -1.8018342481001227e-06 0.16829394411763285 0.27960207187182323 -0.44789515518763684 1.978798009582129e-06 -1.7658633317936351e-06 -9.65268347196493e-07 0.09015747006301748 0.1497868242170482 -0.23994383313623324 1.0600703622761392e-06 -9.459982134608737e-07 12.921946300518135
4.679146737567823 -1.452802812952074 1.7705359530074725 -1.8885299302632905 -1.5707973914138504 1.537710226804686 -1.801834248100123e-06 0.16829394411763285 0.2796020718718232 -0.44789515518763695 1.9787980095821296e-06 -1.7658633317936347e-06 9.652683471964963e-07 -0.09015747006301793 -0.1497868242170482 0.23994383313623502 -1.0600703622761392e-06 9.459982134608771e-07 12.972050240176689
4.679313808315037 -1.4528137340230671 1.7705491243740523 -1.8885321806050466 -1.5707973915195448 1.5377211353784208 -1.6754300597767732e-06 0.15648760875223786 0.25998713060530504 -0.4164739389436066 1.8399792716650162e-06 -1.641982613364236e-06 2.7923834329612894e-06 -0.26081268125373 -0.4333118843421755 0.694123231572679 -3.066632119441699e-06 2.736637688940393e-06 13.022154179835244
4.679313808315039 -1.4528137340230671 1.7705491243740523 -1.8885321806050466 -1.5707973915195448 1.5377211353784208 -1.4364112309471666e-06 0.1341629018794907 0.2228970598467982 -0.3570592755003489 1.577485658149021e-06 -1.407735436697734e-06 4.309233692841498e-06 -0.4024887056384723 -0.6686911795403944 1.071177826501048 -4.732456974447063e-06 4.223206310093201e-06 13.072258119493798
4.679313805721838 -1.4525715252642073 1.7709515278660957 -1.8891767916170832 -1.5707973886716573 1.537721132836989 -1.1123568572454867e-06 0.10389575121547756 0.1726114831453604 -0.27650670294747004 1.2216048936706016e-06 -1.0901503221787264e-06 5.308975909580714e-06 -0.4958660853465971 -0.8238275331937648 1.3196910822492878 -5.830386992518773e-06 5.202990174034817e-06 13.122258119493798
4.679313789683828 -1.4510735517437556 1.7734402478383051 -1.893163477447803 -1.5707973710585041 1.5377211171191536 -7.44635582123007e-07 0.06955004833432786 0.11554983582457966 -0.18509952841938038 8.177685651844491e-07 -7.297700503841053e-07 5.584766865922574e-06 -0.5216253625074605 -0.8666237686843519 1.3882464631453566 -6.133264238883393e-06 5.473275377880788e-06 13.174320620194491
4.679313752157106 -1.4475685012111865 1.7792635078258228 -1.9024917700400081 -1.5707973298461655 1.5377210803415962 -3.884055968481101e-07 0.03627764866821374 0.060271364982573614 -0.09654882809529294 4.265521219634924e-07 -3.8065166208306413e-07 4.929763344610664e-06 -0.4604470792504117 -0.7649827093942105 1.2254274335171966 -5.413930778767424e-06 4.83134801874662e-06 13.226383120895184
4.679313690153936 -1.441777314830591 1.7888849337131296 -1.9179043526867392 -1.5707972617534711 1.5377210195762268 -1.1261464050625515e-07 0.010518371507351867 0.01747512949198899 -0.027993447199226303 1.236748755988802e-07 -1.1036645823709942e-07 3.137122128388599e-06 -0.2930117777048071 -0.4868071787054066 0.7798174576927612 -3.445228677397457e-06 3.074494193747845e-06 13.278445621595875
4.679313604823449 -1.4338073229234727 1.8021262078523486 -1.939115577967596 -1.57079716804241 1.5377209359492339 0.0 0.0 0.0 0.0 0.0 0.0 0.0 -8.881784197001252e-16 0.0 1.7763568394002505e-15 0.0 0.0 13.330508122296568
4.6793135005323325 -1.424066380711545 1.8183097231815455 -1.9650399856850573 -1.5707970535085378 1.5377208337401334 0.0 0.0 0.0 0.0 0.0 0.0 0.0 -8.881784197001252e-16 0.0 1.7763568394002505e-15 0.0 0.0 13.38257062299726
4.679313383945535 -1.4131770040595288 1.8364012373430307 -1.9940208208008015 -1.5707969254713885 1.5377207194808173 0.0 0.0 0.0 0.0 0.0 0.0 0.0 -8.881784197001252e-16 0.0 1.7763568394002505e-15 0.0 0.0 13.434633123697953
4.6793132631069625 -1.4018905052179493 1.8551525268016624 -2.024058551372027 -1.5707967927648818 1.5377206010546045 0.0 0.0 0.0 0.0 0.0 0.0 0.0 -8.881784197001252e-16 0.0 1.7763568394002505e-15 0.0 0.0 13.486695624398646
4.679313146520165 -1.3910011285659332 1.8732440409631477 -2.053039386487771 -1.5707966647277325 1.5377204867952885 0.0 0.0 0.0 0.0 0.0 0.0 0.0 -8.881784197001252e-16 0.0 1.7763568394002505e-15 0.0 0.0 13.538758125099337
4.679313042229049 -1.3812601863540055 1.8894275562923444 -2.078963794205232 -1.5707965501938603 1.537720384586188 0.0 0.0 0.0 0.0 0.0 0.0 0.0 -8.881784197001252e-16 0.0 1.7763568394002505e-15 0.0 0.0 13.59082062580003
4.679312956898562 -1.3732901944468872 1.9026688304315633 -2.100175019486089 -1.5707964564827992 1.537720300959195 0.0 0.0 0.0 0.0 0.0 0.0 0.0 -8.881784197001252e-16 0.0 1.7763568394002505e-15 0.0 0.0 13.642883126500722
4.679312894895392 -1.3674990080662917 1.9122902563188706 -2.11558760213282 -1.5707963883901048 1.5377202401938257 0.0 0.0 0.0 0.0 0.0 0.0 0.0 -8.881784197001252e-16 0.0 1.7763568394002505e-15 0.0 0.0 13.694945627201415
4.67931285736867 -1.3639939575337225 1.918113516306388 -2.1249158947250253 -1.5707963471777662 1.5377202034162682 0.0 0.0 0.0 0.0 0.0 0.0 0.0 -8.881784197001252e-16 0.0 1.7763568394002505e-15 0.0 0.0 13.747008127902108
4.67931284133066 -1.3624959840132709 1.9206022362785975 -2.1289025805557453 -1.570796329564613 1.5377201876984328 0.0 0.0 0.0 0.0 0.0 0.0 0.0 -8.881784197001252e-16 0.0 1.7763568394002505e-15 0.0 0.0 13.799070628602799
4.6793128387374585 -1.362253775254411 1.9210046397706408 -2.1295471915677817 -1.5707963267167255 1.537720185157001 0.0 0.0 0.0 0.0 0.0 0.0 0.0 -8.881784197001252e-16 0.0 1.7763568394002505e-15 0.0 0.0 13.851133129303491
4.6793128387374585 -1.362253775254411 1.9210046397706408 -2.1295471915677817 -1.5707963267167255 1.537720185157001 0.0 0.0 0.0 0.0 0.0 0.0 0.0 -8.881784197001252e-16 0.0 1.7763568394002505e-15 0.0 0.0 13.903195630004184
4.6793128387374585 -1.362253775254411 1.9210046397706408 -2.1295471915677817 -1.5707963267167255 1.537720185157001 0.0 0.0 0.0 0.0 0.0 0.0 0.0 -8.881784197001252e-16 0.0 1.7763568394002505e-15 0.0 0.0 13.953195630004185
4.6793128387374585 -1.362253775254411 1.9210046397706408 -2.1295471915677817 -1.5707963267167255 1.537720185157001 0.0 0.0 0.0 0.0 0.0 0.0 0.0 -8.881784197001252e-16 0.0 1.7763568394002505e-15 0.0 0.0 14.007362296670852
4.6793128387374585 -1.362253775254411 1.9210046397706408 -2.1295471915677817 -1.5707963267167255 1.537720185157001 0.0 0.0 0.0 0.0 0.0 0.0 0.0 0.0 0.0 0.0 0.0 0.0 14.061528963337517
4.6793128387374585 -1.362253775254411 1.9210046397706408 -2.1295471915677817 -1.5707963267167255 1.537720185157001 1.1261464050625768e-07 -0.010518371507352055 -0.01747512949198895 0.027993447199227313 -1.2367487559888308e-07 1.1036645823710218e-07 3.1371221283886067e-06 -0.29301177770480724 -0.4868071787054064 0.7798174576927608 -3.445228677397457e-06 3.0744941937478466e-06 14.115695630004184
4.6793128387374585 -1.362253775254411 1.9210046397706408 -2.1295471915677817 -1.5707963267167255 1.537720185157001 3.884055968481132e-07 -0.03627764866821423 -0.06027136498257413 0.09654882809529419 -4.2655212196349467e-07 3.806516620830667e-07 4.929763344610667e-06 -0.46044707925041134 -0.7649827093942101 1.2254274335171955 -5.413930778767432e-06 4.831348018746616e-06 14.169862296670852
4.6793128387374585 -1.362253775254411 1.9210046397706408 -2.1295471915677817 -1.5707963267167255 1.537720185157001 7.446355821230101e-07 -0.06955004833432787 -0.11554983582458 0.18509952841938063 -8.177685651844514e-07 7.297700503841043e-07 5.584766865922575e-06 -0.521625362507459 -0.8666237686843499 1.3882464631453544 -6.1332642388833845e-06 5.473275377880782e-06 14.224028963337517
4.6793128387374585 -1.362253775254411 1.9210046397706408 -2.1295471915677817 -1.5707963267167255 1.537720185157001 1.1123568572454841e-06 -0.10389575121547744 -0.17261148314536023 0.27650670294746976 -1.2216048936706002e-06 1.0901503221787237e-06 5.308975909580719e-06 -0.4958660853465968 -0.8238275331937648 1.3196910822492876 -5.830386992518773e-06 5.202990174034818e-06 14.278195630004184
4.6793128387374585 -1.362253775254411 1.9210046397706408 -2.1295471915677817 -1.5707963267167255 1.537720185157001 1.4364112309471645e-06 -0.1341629018794905 -0.22289705984679783 0.35705927550034844 -1.5774856581490191e-06 1.4077354366977323e-06 4.3092336928414925e-06 -0.4024887056384713 -0.6686911795403934 1.0711778265010448 -4.732456974447056e-06 4.223206310093195e-06 14.332362296670851
4.6793128387374585 -1.362253775254411 1.9210046397706408 -2.1295471915677817 -1.5707963267167255 1.537720185157001 1.6754300597767724e-06 -0.15648760875223772 -0.259987130605305 0.4164739389436064 -1.8399792716650156e-06 1.6419826133642348e-06 2.792383432961286e-06 -0.26081268125372914 -0.4333118843421746 0.6941232315726763 -3.066632119441689e-06 2.7366376889403896e-06 14.386528963337517
4.6793128387374585 -1.362253775254411 1.9210046397706408 -2.1295471915677817 -1.5707963267167255 1.537720185157001 1.8018342481001227e-06 -0.16829394411763285 -0.27960207187182323 0.44789515518763684 -1.978798009582129e-06 1.7658633317936351e-06 9.65268347196493e-07 -0.09015747006301748 -0.1497868242170482 0.23994383313623324 -1.0600703622761392e-06 9.459982134608737e-07 14.440695630004184
4.6793128387374585 -1.362253775254411 1.9210046397706408 -2.1295471915677817 -1.5707963267167255 1.537720185157001 1.801834248100123e-06 -0.16829394411763285 -0.2796020718718232 0.44789515518763695 -1.9787980095821296e-06 1.7658633317936347e-06 -9.652683471964963e-07 0.09015747006301793 0.1497868242170482 -0.23994383313623502 1.0600703622761392e-06 -9.459982134608771e-07 14.494862296670851
4.6793128387374585 -1.362253775254411 1.9210046397706408 -2.1295471915677817 -1.5707963267167255 1.537720185157001 1.6754300597767732e-06 -0.15648760875223786 -0.25998713060530504 0.4164739389436066 -1.8399792716650162e-06 1.641982613364236e-06 -2.7923834329612894e-06 0.26081268125373 0.4333118843421755 -0.694123231572679 3.066632119441699e-06 -2.736637688940393e-06 14.549028963337516
4.6793128387374585 -1.362253775254411 1.9210046397706408 -2.1295471915677817 -1.5707963267167255 1.537720185157001 1.4364112309471666e-06 -0.1341629018794907 -0.2228970598467982 0.3570592755003489 -1.577485658149021e-06 1.407735436697734e-06 -4.309233692841498e-06 0.4024887056384723 0.6686911795403944 -1.071177826501048 4.732456974447063e-06 -4.223206310093201e-06 14.603195630004183
4.67931284133066 -1.3624959840132709 1.9206022362785975 -2.128902580555745 -1.570796329564613 1.5377201876984328 1.1123568572454867e-06 -0.10389575121547756 -0.1726114831453604 0.27650670294747004 -1.2216048936706016e-06 1.0901503221787264e-06 -5.308975909580714e-06 0.4958660853465971 0.8238275331937648 -1.3196910822492878 5.830386992518773e-06 -5.202990174034817e-06 14.653195630004184
4.67931285736867 -1.3639939575337225 1.918113516306388 -2.1249158947250253 -1.5707963471777662 1.5377202034162682 7.44635582123007e-07 -0.06955004833432786 -0.11554983582457966 0.18509952841938038 -8.177685651844491e-07 7.297700503841053e-07 -5.584766865922574e-06 0.5216253625074605 0.8666237686843519 -1.3882464631453566 6.133264238883393e-06 -5.473275377880788e-06 14.705258130704877
4.679312894895392 -1.3674990080662917 1.9122902563188704 -2.11558760213282 -1.5707963883901048 1.5377202401938257 3.884055968481101e-07 -0.03627764866821374 -0.060271364982573614 0.09654882809529294 -4.265521219634924e-07 3.8065166208306413e-07 -4.929763344610664e-06 0.4604470792504117 0.7649827093942105 -1.2254274335171966 5.413930778767424e-06 -4.83134801874662e-06 14.75732063140557
4.679312956898562 -1.3732901944468872 1.9026688304315635 -2.100175019486089 -1.5707964564827992 1.537720300959195 1.1261464050625515e-07 -0.010518371507351867 -0.01747512949198899 0.027993447199226303 -1.236748755988802e-07 1.1036645823709942e-07 -3.137122128388599e-06 0.2930117777048071 0.4868071787054066 -0.7798174576927612 3.445228677397457e-06 -3.074494193747845e-06 14.80938313210626
4.679313042229049 -1.3812601863540055 1.8894275562923446 -2.0789637942052326 -1.5707965501938603 1.537720384586188 0.0 0.0 0.0 0.0 0.0 0.0 0.0 8.881784197001252e-16 0.0 -1.7763568394002505e-15 0.0 0.0 14.861445632806953
4.679313146520165 -1.3910011285659332 1.8732440409631477 -2.053039386487771 -1.5707966647277325 1.5377204867952885 0.0 0.0 0.0 0.0 0.0 0.0 0.0 0.0 0.0 0.0 0.0 0.0 14.913508133507646
4.6793132631069625 -1.4018905052179493 1.8551525268016624 -2.024058551372027 -1.5707967927648818 1.5377206010546045 -0.023055763893334243 -0.0007713108936228546 0.0008544104621966479 -8.309456525574155e-05 1.6117168831857613e-08 -0.023055763526518915 -2.0739940497826006 -0.0693836999418959 0.07685896779937847 -0.007474817781227596 1.4498288762524362e-06 -2.0739940167855235 14.965570634208339
4.679313383945535 -1.4131770040595288 1.8364012373430307 -1.9940208208008015 -1.5707969254713885 1.5377207194808173 -0.08816979535307673 -0.0029496452149211784 0.003267434379876959 -0.0003177700312792408 6.16352372513113e-08 -0.08816979395030246 -3.8714555595941875 -0.12951623989153901 0.14347007322550648 -0.013952993191624847 2.706347235671214e-06 -3.8714554979996443 15.017633134909032
4.6793135005323325 -1.424066380711545 1.8183097231815455 -1.9650399856850573 -1.5707970535085378 1.5377208337401334 -0.18946714417233343 -0.006338461521371815 0.007021355309340454 -0.0006828526718127384 1.3244731186713212e-07 -0.18946714115792654 -5.404954190342535 -0.18081812712130446 0.20029912820444085 -0.019479828157138585 3.778341919930591e-06 -5.4049541043501526 15.069695635609722
4.679313604823449 -1.4338073229234727 1.8021262078523488 -1.9391155779675961 -1.57079716804241 1.5377209359492339 -0.3213461136422053 -0.010750359832894543 0.01190858315310528 -0.00115815358507558 2.2463751758535768e-07 -0.32134610852961476 -6.687059602935415 -0.2237098689035674 0.24781194466223846 -0.024100624603715644 4.6745997707048245e-06 -6.68705949654484 15.121758136310415
4.679313690153936 -1.441777314830591 1.7888849337131298 -1.9179043526867394 -1.5707972617534711 1.5377210195762268 -0.4784782605517885 -0.016007081631852084 0.017731654159908215 -0.001724468693764217 3.34480997609292e-07 -0.47847825293923824 -7.730341458280602 -0.2586119725107029 0.28647433452495613 -0.02786068445730286 5.403907629668171e-06 -7.730341335291497 15.173820637011108
4.679313752157106 -1.4475685012111865 1.7792635078258225 -1.902491770040008 -1.5707973298461655 1.5377210803415962 -0.6558083951881741 -0.02193950986305009 0.024303230924704655 -0.0023635787450522043 4.5844391343950547e-07 -0.6558083847543158 -8.54736941728587 -0.2859449452150861 0.31675210971865064 -0.030805309643847065 5.975052338494889e-06 -8.547369281297916 15.2258831377118
