Andreas691667/Digital_Twin_UR/src/dt/dt_trajectories/demo_heart_dt_trajectory.csv
actual_q_0 actual_q_1 actual_q_2 actual_q_3 actual_q_4 actual_q_5 actual_qd_0 actual_qd_1 actual_qd_2 actual_qd_3 actual_qd_4 actual_qd_5 timestamp
3.71207804710797 -0.8254843255005873 0.8429764792549035 -1.5882884806323445 -1.570796326807946 2.141281720311417 0.0 0.0 0.0 0.0 0.0 0.0 1769.855
3.71207804710797 -0.8254843255005873 0.8429764792549035 -1.5882884806323445 -1.570796326807946 2.141281720311417 0.0 0.0 0.0 0.0 0.0 0.0 1769.905
3.71207804710797 -0.8254843255005873 0.8429764792549035 -1.5882884806323445 -1.570796326807946 2.141281720311417 0.0 0.0 0.0 0.0 0.0 0.0 1769.955
3.71207804710797 -0.8254843255005873 0.8429764792549035 -1.5882884806323445 -1.570796326807946 2.141281720311417 0.023855026961953952 -0.012228570222165724 0.01852545001703213 -0.006296880079673455 -5.860726155913123e-09 0.023855026931807584 1770.0049999999999
3.71207804710797 -0.8254843255005873 0.8429764792549035 -1.5882884806323445 -1.570796326807946 2.141281720311417 0.0900454242221021 -0.04615910914881168 0.06992790275816863 -0.02376879468441637 -2.212244713872839e-08 0.09004542410830879 1770.0549999999998
3.71207804710797 -0.8254843255005873 0.8429764792549035 -1.5882884806323445 -1.570796326807946 2.141281720311417 0.1908596891870291 -0.0978385442836296 0.14821872295259747 -0.050380180947656755 -4.689059351355471e-08 0.19085968894583358 1770.1049999999998
3.71207804710797 -0.8254843255005873 0.8429764792549035 -1.5882884806323445 -1.570796326807946 2.141281720311417 0.31905368305686005 -0.16355338328160263 0.24777222292167708 -0.08421884344928154 -7.838541823549437e-08 0.31905368265366163 1770.1549999999997
3.71207804710797 -0.8254843255005873 0.8429764792549035 -1.5882884806323445 -1.570796326807946 2.141281720311417 0.46785063082526024 -0.23982971394900535 0.36332566257893634 -0.12349595421563654 -1.149419966496431e-07 0.4678506302340223 1770.2049999999997
3.71207804710797 -0.8254843255005873 0.8429764792549035 -1.5882884806323445 -1.570796326807946 2.141281720311417 0.6309411212794351 -0.3234332042434036 0.48997924943007437 -0.1665460527195265 -1.5501022649108997e-07 0.6309411204820945 1770.2549999999997
3.71207804710797 -0.8254843255005873 0.8429764792549035 -1.5882884806323445 -1.570796326807946 2.141281720311417 0.8024831070001307 -0.4113691022736548 0.6231961385729607 -0.21182704588021495 -1.971548278849174e-07 0.8024831059860069 1770.3049999999996
3.71207804710797 -0.8254843255005873 0.8429764792549035 -1.5882884806323445 -1.570796326807946 2.141281720311417 0.9771019043616339 -0.5008822362999081 0.7588024326976361 -0.25792020806342475 -2.400553433462015e-07 0.9771019031268388 1770.3549999999996
3.71207804710797 -0.8254843255005873 0.8429764792549035 -1.5882884806323445 -1.570796326807946 2.141281720311417 1.1498901935317707 -0.5894570147336031 0.8929871820863104 -0.303530181081337 -2.8250613778001143e-07 1.149890192078617 1770.4049999999995
3.71207804710797 -0.8254843255005873 0.8429764792549035 -1.5882884806323445 -1.570796326807946 2.141281720311417 1.316408018471908 -0.6748174261374718 1.022302384613365 -0.3474849741925923 -3.234163984814099e-07 1.3164080168083205 1770.4549999999995
3.712302100445105 -0.8255991797814494 0.8431504756584648 -1.5883476227577187 -1.5707963268629916 2.1415057736482686 1.472682786936953 -0.7549270392255368 1.1436629857453509 -0.3887359641022898 -3.6181013513545295e-07 1.4726827850758764 1770.5049999999994
3.7137951763049775 -0.8263645607231098 0.8443099755935445 -1.588741741768964 -1.5707963272298118 2.142998849506254 1.6152092704753542 -0.8279890028631134 1.2543468785409906 -0.42635789496198784 -3.968261798171904e-07 1.6152092684341623 1770.5549999999994
3.717625071132552 -0.8283278424212271 0.8472842134894762 -1.5897526980125036 -1.5707963281707442 2.146828744328989 1.740949604429098 -0.8924460460668061 1.351994903651175 -0.45954887836970326 -4.277181869916645e-07 1.7409496022290039 1770.6049999999993
3.724651864131218 -0.8319299189042199 0.8527411137346294 -1.5916075218585575 -1.5707963298970935 2.153855537318775 1.8473332879337134 -0.9469804780045131 1.4346108493189675 -0.4876303933699122 -4.538546335139122e-07 1.8473332855991786 1770.6549999999993
3.7355408995903905 -0.837511859137468 0.8611973725539686 -1.5944818405746537 -1.5707963325723222 2.164744572764187 1.9322571839182703 -0.9905141879954236 1.5005614513796028 -0.5100472864535499 -4.7471881862896305e-07 1.9322571814764145 1770.7049999999992
3.7507757692131087 -0.845321562027516 0.8730285398866147 -1.5985033051991422 -1.5707963363152397 2.179979442367652 1.9940855191053761 -1.0222086455100163 1.5485763932604824 -0.5263677715580098 -4.8990886397184e-07 1.9940855165853857 1770.7549999999992
3.7706712944436314 -0.8555204114262757 0.8884791012634048 -1.6037550174147068 -1.5707963412031918 2.1998749675730322 2.0316498840111787 -1.0414649001700633 1.57774830598118 -0.5362834300671445 -4.991377135675594e-07 2.0316498814437174 1770.8049999999992
3.795386508795039 -0.8681899311352279 0.9076725596844525 -1.6102789564218791 -1.5707963472752495 2.2245901818932063 2.0442492329453703 -1.047923581748627 1.5875327681534408 -0.5396092108112658 -5.022331338311314e-07 2.044249230361986 1770.854999999999
3.824937640176829 -0.8833384399096261 0.9306215174967081 -1.6180794058125498 -1.5707963545354002 2.2541413132376515 2.0316498840111787 -1.0414649001700629 1.5777483059811797 -0.5362834300671443 -4.991377135675594e-07 2.0316498814437174 1770.904999999999
3.859211093222516 -0.9009077064626979 0.9572377582715189 -1.6271263804434823 -1.5707963629557353 2.288414766240026 1.9940855191053752 -1.022208645510015 1.548576393260481 -0.5263677715580095 -4.899088639718398e-07 1.9940855165853837 1770.954999999999
3.8979764316172294 -0.9207796044698482 0.9873423286821899 -1.6373590533098255 -1.5707963724796412 2.3271801045857505 1.93225718391827 -0.9905141879954228 1.5005614513796024 -0.5100472864535496 -4.7471881862896284e-07 1.9322571814764147 1771.004999999999
3.9408993604253117 -0.9427827675728616 1.0206756203815437 -1.648689182418626 -1.570796383024988 2.37010303333959 1.847333287933714 -0.9469804780045132 1.434610849318969 -0.4876303933699126 -4.538546335139122e-07 1.8473332855991806 1771.054999999999
3.987554708417918 -0.9666992443841051 1.0569074518794808 -1.6610045376623415 -1.5707963944873191 2.416758381273236 1.7409496044290982 -0.8924460460668051 1.3519949036511745 -0.459548878369703 -4.2771818699166425e-07 1.7409496022290025 1771.1049999999989
4.037439410400611 -0.9922711534907303 1.0956471504205398 -1.6741723276923528 -1.570796406743041 2.4666430831928885 1.6152092704753565 -0.8279890028631129 1.2543468785409924 -0.42635789496198845 -3.9682617981719086e-07 1.6152092684341646 1771.1549999999988
4.089985489540965 -1.0192073384588758 1.1364536338614584 -1.6880426267924775 -1.5707964196526127 2.519189162266838 1.4726827869369519 -0.754927039225535 1.1436629857453502 -0.38873596410228994 -3.6181013513545295e-07 1.472682785075875 1771.2049999999988
4.144573039696158 -1.0471900228378708 1.1788454925487324 -1.7024518017524817 -1.570796433063735 2.5737767123530473 1.3164080184719056 -0.6748174261374696 1.022302384613363 -0.3474849741925921 -3.2341639848140956e-07 1.3164080168083183 1771.2549999999987
4.200543207740575 -1.0758814651644362 1.222311071196177 -1.7172259387415933 -1.5707964468145401 2.6297468803267323 1.149890193531769 -0.5894570147336013 0.8929871820863102 -0.3035301810813369 -2.8250613778001143e-07 1.149890192078617 1771.3049999999987
4.257211175893402 -1.104930613966888 1.2663185507624877 -1.7321842701820154 -1.5707964607367817 2.6864148484079466 0.9771019043616311 -0.500882236299905 0.7588024326976346 -0.25792020806342425 -2.400553433462015e-07 0.9771019031268355 1771.3549999999987
4.313879144046229 -1.1339797627693398 1.310326030328798 -1.7471426016224372 -1.570796474659023 2.743082816489161 0.8024831070001325 -0.41136910227365375 0.6231961385729613 -0.21182704588021573 -1.9715482788491798e-07 0.8024831059860078 1771.4049999999986
4.369849312090646 -1.1626712050959052 1.353791608976243 -1.761916738611549 -1.5707964884098282 2.799052984462847 0.6309411212794366 -0.32343320424340394 0.4899792494300768 -0.16654605271952724 -1.5501022649109065e-07 0.6309411204820976 1771.4549999999986
4.424436862245839 -1.1906538894749001 1.3961834676635165 -1.776325913571553 -1.5707965018209504 2.853640534549055 0.46785063082526435 -0.23982971394900335 0.3633256625789371 -0.12349595421563694 -1.149419966496436e-07 0.4678506302340229 1771.5049999999985
4.476982941386193 -1.2175900744430457 1.4369899511044353 -1.7901962126716777 -1.570796514730522 2.906186613623005 0.3190536830568661 -0.16355338328160324 0.24777222292168313 -0.08421884344928322 -7.83854182354961e-08 0.319053682653669 1771.5549999999985
4.526867643368886 -1.2431619835496708 1.4757296496454944 -1.803364002701689 -1.570796526986244 2.956071315542658 0.19085968918702817 -0.09783854428362641 0.14821872295259736 -0.05038018094765664 -4.689059351355486e-08 0.19085968894583213 1771.6049999999984
4.573522991361491 -1.267078460360914 1.5119614811434312 -1.8156793579454045 -1.5707965384485751 3.0027266634763032 0.09004542422210522 -0.04615910914881005 0.06992790275817184 -0.023768794684417095 -2.2122447138728622e-08 0.0900454241083121 1771.6549999999984
4.616445920169575 -1.289081623463928 1.5452947728427855 -1.8270094870542053 -1.570796548993922 3.0456495922301436 0.023855026961955853 -0.01222857022216262 0.018525450017031635 -0.0062968800796737905 -5.860726155913487e-09 0.023855026931808583 1771.7049999999983
4.655211258564289 -1.3089535214710786 1.575399343253457 -1.8372421599205484 -1.5707965585178278 3.0844149305758686 0.0 3.552713678800501e-15 0.0 0.0 0.0 0.0 1771.7549999999983
4.689484711609975 -1.3265227880241497 1.602015584028267 -1.8462891345514807 -1.570796566938163 3.118688383578242 0.0 0.0 0.0 0.0 0.0 0.0 1771.8049999999982
4.719035842991765 -1.3416712967985478 1.6249645418405225 -1.8540895839421516 -1.5707965741983136 3.1482395149226874 1.175851356686474e-07 0.009951559092265838 0.017136165030307775 -0.027087722603038517 3.111292235389471e-08 1.1774543002974058e-07 1771.8549999999982
4.743751057343172 -1.3543408165075 1.6441580002615697 -1.8606135229493235 -1.5707965802703714 3.1729547292428615 4.0554873322451856e-07 0.034322724216182175 0.059102283471877834 -0.09342500244721448 1.073078342409838e-07 4.0610158520461547e-07 1771.9049999999982
4.7636465825736956 -1.3645396659062594 1.65960856163836 -1.8658652351648883 -1.5707965851583234 3.192850254448242 7.775017134008522e-07 0.06580214583457411 0.11330851979223919 -0.1791106555792751 2.057262620951406e-07 7.785616189721624e-07 1771.954999999998
4.778881452196413 -1.3723493687963073 1.6714397289710057 -1.8698866997893768 -1.570796588901241 3.2080851240517068 1.1614531768086803e-06 0.09829703266646254 0.16926334438099924 -0.26756036203817635 3.0731947794459265e-07 1.163036492538662e-06 1772.004999999998
4.789770487655584 -1.3779313090295555 1.6798959877903443 -1.8727610185054726 -1.5707965915764697 3.218974159497118 1.4998104039368294e-06 0.1269331516870643 0.2185735335498441 -0.3455066658550832 3.968484994119224e-07 1.5018549748691404e-06 1772.054999999998
4.7967972806542525 -1.3815333855125485 1.6853528880354989 -1.8746158423515267 -1.570796593302819 3.2260009524869053 1.7493788551519177e-06 0.14805482812779175 0.2549441695325381 -0.402998975053369 4.628840897140663e-07 1.7517636426873653e-06 1772.104999999998
4.800627175481825 -1.383496667210665 1.688327125931429 -1.875626798595066 -1.5707965942437514 3.229830847309638 1.881362170698358e-06 0.15922494547625338 0.2741786404849244 -0.4334035616486164 4.978067576623154e-07 1.8839268804758495e-06 1772.154999999998
4.802120251341698 -1.3842620481523258 1.6894866258665089 -1.8760209176063116 -1.5707965946105715 3.2313239231676256 1.8813621706983582e-06 0.15922494547625346 0.27417864048492446 -0.43340356164861626 4.978067576623155e-07 1.883926880475849e-06 1772.2049999999979
4.802344304678834 -1.3843769024331887 1.689660622270071 -1.8760800597316858 -1.5707965946656173 3.231547976504478 1.7493788551519179e-06 0.1480548281277918 0.25494416953253835 -0.40299897505336935 4.6288408971406676e-07 1.751763642687367e-06 1772.2549999999978
4.802344304678834 -1.384376902433189 1.6896606222700719 -1.8760800597316862 -1.5707965946656173 3.2315479765044763 1.499810403936832e-06 0.1269331516870645 0.2185735335498444 -0.3455066658550835 3.968484994119231e-07 1.5018549748691423e-06 1772.3049999999978
4.802344307386492 -1.384147745783343 1.6900552203559738 -1.8767038144324433 -1.5707965939491735 3.2315479792158253 1.1614531768086823e-06 0.09829703266646278 0.16926334438099966 -0.267560362038177 3.0731947794459286e-07 1.163036492538664e-06 1772.3549999999977
4.802344324132375 -1.3827304948337065 1.6924956667159023 -1.8805615115256038 -1.5707965895182276 3.2315479959845366 7.775017134008516e-07 0.06580214583457385 0.11330851979223901 -0.1791106555792753 2.057262620951401e-07 7.785616189721627e-07 1772.4049999999977
4.802344363315421 -1.3794143239348313 1.6982059731377366 -1.8895879883399567 -1.5707965791504284 3.2315480352209986 4.0554873322451576e-07 0.03432272421618183 0.059102283471877334 -0.09342500244721406 1.0730783424098302e-07 4.061015852046111e-07 1772.4549999999977
4.802344428055237 -1.3739352121312087 1.7076407725712601 -1.9045018987404798 -1.5707965620203306 3.231548100049069 1.1758513566864437e-07 0.009951559092265624 0.017136165030307658 -0.02708772260303806 3.1112922353894273e-08 1.1774543002974056e-07 1772.5049999999976
4.802344517151974 -1.366394705944188 1.720625206189633 -1.9250268373944897 -1.5707965384454132 3.2315481892672646 0.0 0.0 0.0 0.0 0.0 0.0 1772.5549999999976
4.802344626046208 -1.3571786821548983 1.736494810450864 -1.9501124640377867 -1.5707965096320957 3.2315482983099457 0.0 0.0 0.0 0.0 0.0 0.0 1772.6049999999975
4.80234474777882 -1.3468761105871672 1.7542354041592816 -1.978155627740803 -1.5707964774217549 3.231548420208505 0.0 0.0 0.0 0.0 0.0 0.0 1772.6549999999975
4.8023448739508705 -1.3361978168904423 1.7726229755270069 -2.0072214911747506 -1.5707964440367426 3.2315485465525557 0.0 0.0 0.0 0.0 0.0 0.0 1772.7049999999974
4.802344995683482 -1.325895245322711 1.7903635692354243 -2.035264654877767 -1.5707964118264017 3.231548668451115 0.0 0.0 0.0 0.0 0.0 0.0 1772.7549999999974
4.802345104577716 -1.3166792215334213 1.8062331734966552 -2.060350281521064 -1.5707963830130842 3.231548777493796 0.0 0.0 0.0 0.0 0.0 0.0 1772.8049999999973
4.802345193674453 -1.3091387153464007 1.8192176071150283 -2.0808752201750735 -1.5707963594381669 3.2315488667119916 0.0 0.0 0.0 0.0 0.0 0.0 1772.8549999999973
4.802345258414269 -1.3036596035427779 1.8286524065485519 -2.0957891305755973 -1.570796342308069 3.231548931540062 0.0 0.0 0.0 0.0 0.0 0.0 1772.9049999999972
4.8023452975973155 -1.3003434326439027 1.8343627129703863 -2.1048156073899498 -1.5707963319402698 3.231548970776524 0.0 0.0 0.0 0.0 0.0 0.0 1772.9549999999972
4.8023453143431984 -1.2989261816942663 1.8368031593303147 -2.1086733044831103 -1.570796327509324 3.2315489875452355 0.0 0.0 0.0 0.0 0.0 0.0 1773.0049999999972
4.8023453170508565 -1.2986970250444205 1.8371977574162166 -2.1092970591838673 -1.5707963267928802 3.2315489902565844 0.0 0.0 0.0 0.0 0.0 0.0 1773.054999999997
4.8023453170508565 -1.2986970250444205 1.8371977574162166 -2.1092970591838673 -1.5707963267928802 3.2315489902565844 0.0 0.0 0.0 0.0 0.0 0.0 1773.104999999997
4.8023453170508565 -1.2986970250444205 1.8371977574162166 -2.1092970591838673 -1.5707963267928802 3.2315489902565844 0.0 0.0 0.0 0.0 0.0 0.0 1773.154999999997
4.8023453170508565 -1.2986970250444205 1.8371977574162166 -2.1092970591838673 -1.5707963267928802 3.2315489902565844 0.0 0.0 0.0 0.0 0.0 0.0 1773.204999999997
4.8023453170508565 -1.2986970250444205 1.8371977574162166 -2.1092970591838673 -1.5707963267928802 3.2315489902565844 0.0 0.0 0.0 0.0 0.0 0.0 1773.254999999997
4.8023453170508565 -1.2986970250444205 1.8371977574162166 -2.1092970591838673 -1.5707963267928802 3.2315489902565844 -1.175851356686474e-07 -0.009951559092265838 -0.017136165030307775 0.027087722603038517 -3.111292235389471e-08 -1.1774543002974058e-07 1773.3049999999969
4.8023453170508565 -1.2986970250444205 1.8371977574162166 -2.1092970591838673 -1.5707963267928802 3.2315489902565844 -4.0554873322451856e-07 -0.034322724216182175 -0.059102283471877834 0.09342500244721448 -1.073078342409838e-07 -4.0610158520461547e-07 1773.3549999999968
4.8023453170508565 -1.2986970250444205 1.8371977574162166 -2.1092970591838673 -1.5707963267928802 3.2315489902565844 -7.775017134008522e-07 -0.06580214583457411 -0.11330851979223919 0.1791106555792751 -2.057262620951406e-07 -7.785616189721624e-07 1773.4049999999968
4.8023453170508565 -1.2986970250444205 1.8371977574162166 -2.1092970591838673 -1.5707963267928802 3.2315489902565844 -1.1614531768086803e-06 -0.09829703266646254 -0.16926334438099924 0.26756036203817635 -3.0731947794459265e-07 -1.163036492538662e-06 1773.4549999999967
4.8023453170508565 -1.2986970250444205 1.8371977574162166 -2.1092970591838673 -1.5707963267928802 3.2315489902565844 -1.4998104039368294e-06 -0.1269331516870643 -0.2185735335498441 0.3455066658550832 -3.968484994119224e-07 -1.5018549748691404e-06 1773.5049999999967
4.8023453170508565 -1.2986970250444205 1.8371977574162166 -2.1092970591838673 -1.5707963267928802 3.2315489902565844 -1.7493788551519177e-06 -0.14805482812779175 -0.2549441695325381 0.402998975053369 -4.628840897140663e-07 -1.7517636426873653e-06 1773.5549999999967
4.8023453170508565 -1.2986970250444205 1.8371977574162166 -2.1092970591838673 -1.5707963267928802 3.2315489902565844 -1.881362170698358e-06 -0.15922494547625338 -0.2741786404849244 0.4334035616486164 -4.978067576623154e-07 -1.8839268804758495e-06 1773.6049999999966
4.8023453170508565 -1.2986970250444205 1.8371977574162166 -2.1092970591838673 -1.5707963267928802 3.2315489902565844 -1.8813621706983582e-06 -0.15922494547625346 -0.27417864048492446 0.43340356164861626 -4.978067576623155e-07 -1.883926880475849e-06 1773.6549999999966
4.8023453170508565 -1.2986970250444205 1.8371977574162166 -2.1092970591838673 -1.5707963267928802 3.2315489902565844 -1.7493788551519179e-06 -0.1480548281277918 -0.25494416953253835 0.40299897505336935 -4.6288408971406676e-07 -1.751763642687367e-06 1773.7049999999965
4.8023453170508565 -1.2986970250444205 1.8371977574162166 -2.1092970591838673 -1.5707963267928802 3.2315489902565844 -1.499810403936832e-06 -0.1269331516870645 -0.2185735335498444 0.3455066658550835 -3.968484994119231e-07 -1.5018549748691423e-06 1773.7549999999965
4.8023453143431984 -1.2989261816942663 1.8368031593303147 -2.1086733044831103 -1.570796327509324 3.2315489875452355 -1.1614531768086823e-06 -0.09829703266646278 -0.16926334438099966 0.267560362038177 -3.0731947794459286e-07 -1.163036492538664e-06 1773.8049999999964
4.8023452975973155 -1.300343432643903 1.8343627129703861 -2.1048156073899498 -1.5707963319402698 3.231548970776524 -7.775017134008516e-07 -0.06580214583457385 -0.11330851979223901 0.1791106555792753 -2.057262620951401e-07 -7.785616189721627e-07 1773.8549999999964
4.802345258414269 -1.303659603542778 1.8286524065485519 -2.095789130575597 -1.570796342308069 3.231548931540062 -4.0554873322451576e-07 -0.03432272421618183 -0.059102283471877334 0.09342500244721406 -1.0730783424098302e-07 -4.061015852046111e-07 1773.9049999999963
4.802345193674453 -1.3091387153464007 1.8192176071150283 -2.0808752201750735 -1.5707963594381669 3.2315488667119916 -1.1758513566864437e-07 -0.009951559092265624 -0.017136165030307658 0.02708772260303806 -3.1112922353894273e-08 -1.1774543002974056e-07 1773.9549999999963
4.802345104577716 -1.3166792215334213 1.8062331734966555 -2.060350281521064 -1.5707963830130842 3.231548777493796 0.0 0.0 0.0 0.0 0.0 0.0 1774.0049999999962
4.802344995683482 -1.325895245322711 1.7903635692354245 -2.035264654877767 -1.5707964118264017 3.231548668451115 0.0 0.0 0.0 0.0 0.0 0.0 1774.0549999999962
4.8023448739508705 -1.3361978168904423 1.7726229755270069 -2.0072214911747506 -1.5707964440367426 3.2315485465525557 -0.02194287500930653 0.003232276022676239 -0.004397753753841335 0.001165476528278212 3.5051804072961733e-09 -0.02194287497150953 1774.1049999999962
4.80234474777882 -1.3468761105871672 1.7542354041592816 -1.978155627740803 -1.5707964774217549 3.231548420208505 -0.08399682777664597 0.012373079292853278 -0.016834501609695088 0.004461417712218108 1.341775108653072e-08 -0.08399682763195992 1774.154999999996
4.802344626046208 -1.3571786821548981 1.7364948104508642 -1.9501124640377867 -1.5707965096320957 3.2315482983099457 -0.18068650952842952 0.026615868345515492 -0.03621288346263299 0.009597005212060285 2.8863073448359413e-08 -0.18068650921719376 1774.204999999996
4.802344517151974 -1.366394705944188 1.7206252061896332 -1.9250268373944899 -1.5707965384454132 3.2315481892672646 -0.3067854509807771 0.0451907626913298 -0.061485419212496235 0.01629463970348895 4.900626520295368e-08 -0.30678545045233363 1774.254999999996
4.802344428055237 -1.3739352121312087 1.7076407725712601 -1.90450189874048 -1.5707965620203306 3.231548100049069 -0.45731606233951694 0.06736454281664563 -0.09165450876389548 0.02428994087763192 7.305220036000058e-08 -0.4573160615517818 1774.304999999996
4.802344363315421 -1.3794143239348315 1.6982059731377366 -1.8895879883399564 -1.5707965791504284 3.2315480352209986 -0.627549633300186 0.09244065018349493 -0.12577243202621086 0.03333174744106062 1.0024550922870283e-07 -0.6275496322192204 1774.354999999996
4.802344324132375 -1.3827304948337067 1.6924956667159021 -1.8805615115256038 -1.5707965895182276 3.2315479959845366 -0.8130063330480299 0.1197591872295922 -0.16294134891359194 0.04318211711579008 1.298705784177788e-07 -0.8130063316476119 1774.4049999999959
4.802344307386492 -1.384147745783343 1.6900552203559738 -1.876703814432443 -1.5707965939491735 3.2315479792158253 -1.0094552102580032 0.1486969173683345 -0.20231329934495787 0.053616326639278955 1.6125155083546253e-07 -1.0094552085191983 1774.4549999999958
4.802344304678834 -1.384376902433189 1.6896606222700719 -1.8760800597316862 -1.5707965946656173 3.2315479765044763 -1.2129141930947676 0.1786672649888013 -0.24309020324399705 0.06442287176442947 1.9375232568950355e-07 -1.212914191005501 1774.5049999999958
4.802344304678834 -1.384376902433189 1.6896606222700719 -1.8760800597316862 -1.5707965946656173 3.2315479765044763 -1.4196500892126953 0.20912031545575477 -0.2845238605391676 0.07540346725958752 2.2677655848716732e-07 -1.4196500867673225 1774.5549999999957
4.802186982540407 -1.3843537282331053 1.6896290920341965 -1.8760717037045185 -1.5707965946404865 3.231390654366321 -1.626178585755866 0.23954281510963948 -0.3259159511636969 0.08637304690854258 2.5976766103523476e-07 -1.6261785829547442 1774.6049999999957
4.801126148424714 -1.384197462990983 1.6894164814618575 -1.876015358432456 -1.5707965944710276 3.230329820252455 -1.8292642493580678 0.2694581712665825 -0.36661803505558194 0.09715976351052769 2.922088014400023e-07 -1.829264246207127 1774.6549999999957
4.798367064812313 -1.383791038591211 1.6888635106087466 -1.875868812130367 -1.5707965940302884 3.227570736644806 -2.0259205261427984 0.29842645221839365 -0.4060315521575891 0.10760498888021959 3.236229041072825e-07 -2.025920522653114 1774.7049999999956
4.793228843312032 -1.3830341573645026 1.687833716979546 -1.8755959000095475 -1.570796593209503 3.2224325151533764 -2.2134097417232614 0.32604438723256474 -0.44360782241725405 0.11756331384773848 3.5357264974240276e-07 -2.2134097379106237 1774.7549999999956
4.785139149352681 -1.3818425120671336 1.686212394251231 -1.8751662230220707 -1.5707965919172457 3.2143428212079597 -2.3892431012023745 0.3519453665522711 -0.4788480457868826 0.12690254825864844 3.816604753502072e-07 -2.3892430970868603 1774.8049999999955
4.773628906874755 -1.3801470058601844 1.6839055309963726 -1.8745548666051415 -1.5707965900785863 3.2028325787498604 -2.5511806891727575 0.3757994413963694 -0.511303302223549 0.1355037209739568 4.075285742350545e-07 -2.551180684778303 1774.8549999999955
4.758327003022147 -1.3778929722887812 1.6808387494064403 -1.8737421194254478 -1.5707965876342422 3.18753067492361 -2.6972314697167423 0.3973133239593996 -0.5405745516890977 0.14326107987011477 4.308588960008197e-07 -2.6972314650707125 1774.9049999999954
4.738954992833852 -1.3750393952613356 1.6769562440151051 -1.8727131921235127 -1.5707965845397347 3.168158664768684 -2.825653286406369 0.41623038741158414 -0.5663126341501425 0.1500820918390171 4.5137314655089326e-07 -2.8256532815391306 1774.9549999999954
4.71532180393568 -1.3715581290287866 1.6722197204215423 -1.8714579360580472 -1.5707965807645417 3.1445254759112204 -2.9349528623033883 0.4323306658988279 -0.5882182695780669 0.15588744278800218 4.688327880881814e-07 -2.9349528572478794 1775.0049999999953
4.687318441231961 -1.3674331181638408 1.6666073340137344 -1.8699705620503018 -1.570796576291252 3.116522113255737 -3.0238857999592548 0.4454308545427179 -0.6060420579490232 0.16061103763985188 4.830390391151059e-07 -3.023885794750557 1775.0549999999953
4.654912691597252 -1.3626596175402126 1.6601126286917727 -1.8682493591284197 -1.5707965711147198 3.0841163636768476 -3.091456581415134 0.4553843094405244 -0.6195844792439333 0.16420000033279175 4.938328744336039e-07 -3.0914565760900437 1775.1049999999952
4.6181438285680505 -1.3572434123118664 1.6527434755911619 -1.866296413271788 -1.5707965652412188 3.047347500710982 -3.1369185682019025 0.46208104766519964 -0.6286958934484895 0.16661467382049108 5.010950251451288e-07 -3.136918562798504 1775.1549999999952
4.5771173170345 -1.3512000378922564 1.6445210118061218 -1.8641173261553912 -1.570796558687596 3.0063209892481004 -3.1597740013401414 0.4654477472653786 -0.6332765405531524 0.1678286200720626 5.047459786506491e-07 -3.159773995897372 1775.2049999999952
4.531999517932097 -1.3445539999335672 1.6354785791128899 -1.8617209338941618 -1.5707965514804263 2.961203190223413 -3.15977400134014 0.46544774726537835 -0.6332765405531523 0.16782862007206256 5.047459786506489e-07 -3.1597739958973725 1775.254999999995
4.483012392933399 -1.3373379943059556 1.6256606626930248 -1.8591190257873347 -1.5707965436551659 2.9122160653090967 -3.1369185682019025 0.4620810476651996 -0.6286958934484895 0.16661467382049108 5.010950251451287e-07 -3.136918562798503 1775.304999999995
4.4304282091397384 -1.3295921270767905 1.615121829856709 -1.8563260630627971 -1.570796535255307 2.859631881606013 -3.091456581415135 0.45538430944052466 -0.619584479243934 0.16420000033279183 4.938328744336042e-07 -3.0914565760900468 1775.354999999995
4.374564243772923 -1.3213631344898944 1.6039256687660506 -1.8533588976214428 -1.5707965263315322 2.8037679163354245 -3.023885799959256 0.4454308545427179 -0.6060420579490237 0.160611037639852 4.830390391151062e-07 -3.0238857947505586 1775.404999999995
4.31577748886695 -1.3127036029447834 1.5921437271583878 -1.8502364907815234 -1.5707965169408675 2.744981161530713 -2.934952862303388 0.43233066589882774 -0.5882182695780664 0.15588744278800207 4.6883278808818137e-07 -2.934952857247878 1775.454999999995
4.254459355959713 -1.3036711889759083 1.5798544510695902 -1.8469796320230008 -1.5707965071458376 2.6836630287290975 -2.8256532864063684 0.4162303874115839 -0.5663126341501427 0.15008209183901708 4.5137314655089326e-07 -2.8256532815391298 1775.5049999999949
4.191030380784708 -1.2943278392318962 1.5671421235573624 -1.8436106577318991 -1.5707964970136192 2.6202340536633493 -2.6972314697167445 0.3973133239594 -0.5405745516890981 0.14326107987011483 4.3085889600081977e-07 -2.6972314650707143 1775.5549999999948
4.125934927962744 -1.2847390104547898 1.5540958034245458 -1.8401531699446578 -1.5707964866151958 2.5551386009535144 -2.551180689172755 0.3757994413963691 -0.5113033022235486 0.13550372097395672 4.075285742350543e-07 -2.551180684778302 1775.6049999999948
4.059635895693654 -1.2749728894592898 1.5408082639424232 -1.836631755092483 -1.570796476024511 2.4888395687986247 -2.389243101202375 0.351945366552271 -0.4788480457868823 0.12690254825864833 3.8166047535020706e-07 -2.389243097086862 1775.6549999999947
3.9926094204479936 -1.2650996131119943 1.5273749315740195 -1.8330717027457006 -1.5707964653176238 2.421813093668419 -2.213409741723262 0.3260443872325649 -0.4436078224172537 0.11756331384773855 3.5357264974240303e-07 -2.2134097379106237 1775.7049999999947
3.925339581658762 -1.2551904883106404 1.513892824697406 -1.8294987243581076 -1.5707964545718616 2.3545432549950616 -2.0259205261427984 0.2984264522183937 -0.40603155215758907 0.10760498888021953 3.2362290410728274e-07 -2.0259205226531107 1775.7549999999947
3.858313106413103 -1.2453172119633449 1.5004594923290024 -1.8259386720113249 -1.5707964438649744 2.2875167798648564 -1.8292642493580673 0.2694581712665822 -0.3666180350555819 0.0971597635105276 2.922088014400024e-07 -1.8292642462071265 1775.8049999999946
3.7920140741440114 -1.2355510909678449 1.4871719528468796 -1.8224172571591502 -1.5707964332742896 2.221217747709966 -1.62617858575586 0.23954281510963907 -0.32591595116369565 0.08637304690854232 2.597676610352341e-07 -1.6261785829547395 1775.8549999999946
3.7269186213220484 -1.2259622621907384 1.4741256327140633 -1.8189597693719088 -1.5707964228758662 2.156122295000131 -1.419650089212702 0.20912031545575518 -0.28452386053916895 0.07540346725958773 2.2677655848716836e-07 -1.4196500867673276 1775.9049999999945
3.6634896461470428 -1.2166189124467264 1.4614133052018352 -1.8155907950808072 -1.5707964127436478 2.092693319934383 -1.2129141930947671 0.17866726498880117 -0.2430902032439965 0.0644228717644294 1.9375232568950344e-07 -1.2129141910054977 1775.9549999999945
3.6021715132398056 -1.2075864984778513 1.4491240291130376 -1.8123339363222846 -1.5707964029486179 2.0313751871327677 -1.0094552102580046 0.14869691736833476 -0.20231329934495776 0.05361632663927901 1.6125155083546237e-07 -1.009455208519195 1776.0049999999944
3.5433847583338323 -1.1989269669327403 1.4373420875053748 -1.8092115294823652 -1.5707963935579532 1.9725884323280551 -0.8130063330480323 0.11975918722959156 -0.16294134891359158 0.043182117115790106 1.2987057841777834e-07 -0.8130063316476067 1776.0549999999944
3.487520792967017 -1.190697974345844 1.4261459264147165 -1.8062443640410109 -1.5707963846341784 1.9167244670574672 -0.627549633300185 0.09244065018349425 -0.12577243202621027 0.033331747441060496 1.002455092287022e-07 -0.6275496322192182 1776.1049999999943
3.4349366091733557 -1.1829521071166789 1.4156070935784006 -1.8034514013164733 -1.5707963762343196 1.864140283354383 -0.45731606233951555 0.06736454281664464 -0.0916545087638941 0.024289940877631536 7.305220035999972e-08 -0.457316061551778 1776.1549999999943
3.385949484174658 -1.1757361014890675 1.4057891771585356 -1.8008494932096462 -1.5707963684090591 1.815153158440067 -0.30678545098077753 0.045190762691329246 -0.06148541921249629 0.016294639703489044 4.900626520295391e-08 -0.3067854504523301 1776.2049999999942
3.340831685072255 -1.1690900635303783 1.396746744465304 -1.7984531009484168 -1.5707963612018894 1.7700353594153801 -0.18068650952843326 0.0266158683455164 -0.03621288346263425 0.00959700521206053 2.88630734483594e-08 -0.18068650921719404 1776.2549999999942
3.2998051735387044 -1.1630466891107683 1.3885242806802638 -1.79627401383202 -1.5707963546482666 1.7290088479524985 -0.08399682777664443 0.012373079292852928 -0.016834501609695896 0.004461417712218273 1.3417751086530634e-08 -0.08399682763196238 1776.3049999999942
3.263036310509503 -1.157630483882422 1.3811551275796528 -1.7943210679753883 -1.5707963487747656 1.6922399849866323 -0.021942875009311084 0.003232276022676988 -0.00439775375384315 0.0011654765282783173 3.5051804072963615e-09 -0.021942874971511313 1776.354999999994
3.230630560874795 -1.152856983258794 1.3746604222576915 -1.7925998650535062 -1.5707963435982335 1.6598342354077444 0.0 0.0 0.0 0.0 0.0 0.0 1776.404999999994
3.202627198171075 -1.1487319723938478 1.3690480358498829 -1.7911124910457608 -1.5707963391249438 1.6318308727522595 0.0 0.0 0.0 0.0 0.0 0.0 1776.454999999994
3.178994009272903 -1.1452507061612989 1.3643115122563203 -1.7898572349802953 -1.5707963353497507 1.6081976838947962 1.1712035409255465e-10 0.0086599925253983 0.019316928098502134 -0.027976906691060614 -2.1099824979681575e-10 -8.424842803120392e-11 1776.504999999994
3.1596219990846066 -1.1423971291338533 1.3604290068649851 -1.7888283076783602 -1.5707963322552432 1.5888256737398703 3.991794317000679e-10 0.029515714169404857 0.06583757742448065 -0.09535324410681015 -7.191419638045318e-10 -2.8714257127794946e-10 1776.554999999994
3.1443200952319987 -1.14014309556245 1.3573622252750528 -1.7880155604986665 -1.5707963298108991 1.5735237699136189 7.546986130579409e-10 0.05580314710153105 0.12447416981815873 -0.18027722713943792 -1.359627775317943e-09 -5.428789238223732e-10 1776.6049999999939
3.1328098527540735 -1.138447589355501 1.3550553620201944 -1.7874042040817375 -1.5707963279722397 1.562013527455521 1.1088317547224108e-09 0.08198809491501349 0.18288215951244627 -0.26487012251891706 -1.9976165661236995e-09 -7.976182535498597e-10 1776.6549999999938
3.124720158794723 -1.1372559440581318 1.3534340392918793 -1.7869745270942607 -1.5707963266799825 1.5539238335101038 1.4033651895705516e-09 0.10376618262681396 0.2314602331329398 -0.3352262488130044 -2.528233466500307e-09 -1.0094856021490411e-09 1776.7049999999938
3.119581937294444 -1.1364990628314235 1.352404245662679 -1.7867016149734412 -1.570796325859197 1.548785612018676 1.5967177268002715e-09 0.11806285667761943 0.2633503096979226 -0.3814129764272405 -2.876567855218127e-09 -1.1485702851117976e-09 1776.7549999999937
3.1168228536820397 -1.1360926384316516 1.3518512748095681 -1.786555068671352 -1.5707963254184578 1.5460265284110255 1.663940651930318e-09 0.12303338493184213 0.2744375406183647 -0.39747072760494984 -2.9976733595393767e-09 -1.1969258917332581e-09 1776.8049999999937
3.115762019566348 -1.1359363731895291 1.351638664237229 -1.7864987233992895 -1.570796325248999 1.544965694297159 1.5967177268002719e-09 0.11806285667761948 0.2633503096979226 -0.3814129764272406 -2.8765678552181277e-09 -1.1485702851117978e-09 1776.8549999999937
3.11560469742792 -1.1359131989894455 1.3516071340013536 -1.7864903673721217 -1.5707963252238681 1.5448083721590038 1.4033651895705512e-09 0.10376618262681402 0.2314602331329397 -0.3352262488130044 -2.5282334665003084e-09 -1.0094856021490413e-09 1776.9049999999936
3.115604697427922 -1.1359131989894458 1.3516071340013536 -1.7864903673721217 -1.5707963252238681 1.5448083721590038 1.1088317547224106e-09 0.0819880949150135 0.1828821595124462 -0.2648701225189173 -1.9976165661237003e-09 -7.976182535498605e-10 1776.9549999999936
3.1156046974308196 -1.135698956289043 1.3520850225015082 -1.7871824982279896 -1.5707963252290882 1.5448083721569195 7.546986130579422e-10 0.05580314710153089 0.12447416981815863 -0.18027722713943756 -1.3596277753179402e-09 -5.428789238223731e-10 1777.0049999999935
3.115604697448567 -1.134386658746028 1.3550122256379902 -1.7914219967961644 -1.570796325261062 1.544808372144153 3.991794317000669e-10 0.029515714169404912 0.06583757742448083 -0.09535324410681023 -7.191419638045286e-10 -2.871425712779473e-10 1777.0549999999935
3.115604697489581 -1.1313540752829216 1.3617766883713849 -1.8012190381136202 -1.57079632533495 1.5448083721146506 1.1712035409255462e-10 0.008659992525398329 0.01931692809850231 -0.027976906691060757 -2.109982497968173e-10 -8.42484280312058e-11 1777.1049999999934
3.115604697556335 -1.1264181967592881 1.3727866298077473 -1.8171648501324078 -1.570796325455211 1.544808372066632 0.0 0.0 0.0 0.0 0.0 0.0 1777.1549999999934
3.1156046976465532 -1.1197473915843277 1.3876664883695071 -1.8387155031366405 -1.5707963256177435 1.5448083720017354 0.0 0.0 0.0 0.0 0.0 0.0 1777.2049999999933
3.1156046977543936 -1.1117735613294681 1.4054528669663753 -1.864475699159477 -1.5707963258120234 1.544808371924162 0.0 0.0 0.0 0.0 0.0 0.0 1777.2549999999933
3.1156046978716394 -1.1031042963409545 1.4247904781662508 -1.8924825614001084 -1.5707963260232476 1.5448083718398236 0.0 0.0 0.0 0.0 0.0 0.0 1777.3049999999932
3.115604697988885 -1.094435031352441 1.4441280893661264 -1.9204894236407395 -1.570796326234472 1.544808371755485 0.0 0.0 0.0 0.0 0.0 0.0 1777.3549999999932
3.1156046980967256 -1.0864612010975814 1.4619144679629945 -1.9462496196635763 -1.5707963264287519 1.5448083716779117 0.0 0.0 0.0 0.0 0.0 0.0 1777.4049999999932
3.1156046981869436 -1.079790395922621 1.4767943265247543 -1.9678002726678092 -1.5707963265912843 1.5448083716130152 0.0 0.0 0.0 0.0 0.0 0.0 1777.454999999993
3.115604698253698 -1.0748545173989874 1.4878042679611168 -1.9837460846865969 -1.5707963267115455 1.5448083715649965 -1.1712035409255465e-10 -0.0086599925253983 -0.019316928098502134 0.027976906691060614 2.1099824979681575e-10 8.424842803120392e-11 1777.504999999993
3.1156046982947116 -1.071821933935881 1.4945687306945117 -1.9935431260040524 -1.5707963267854335 1.544808371535494 -3.991794317000679e-10 -0.029515714169404857 -0.06583757742448065 0.09535324410681015 7.191419638045318e-10 2.8714257127794946e-10 1777.554999999993
3.1156046983124592 -1.0705096363928663 1.4974959338309934 -1.9977826245722272 -1.5707963268174072 1.5448083715227277 -7.546986130579409e-10 -0.05580314710153105 -0.12447416981815873 0.18027722713943792 1.359627775317943e-09 5.428789238223732e-10 1777.604999999993
3.115604698315357 -1.0702953936924633 1.497973822331148 -1.998474755428095 -1.5707963268226273 1.5448083715206433 -1.1088317547224108e-09 -0.08198809491501349 -0.18288215951244627 0.26487012251891706 1.9976165661236995e-09 7.976182535498597e-10 1777.654999999993
3.115604698315357 -1.0702953936924633 1.497973822331148 -1.998474755428095 -1.5707963268226273 1.5448083715206433 -1.4033651895705516e-09 -0.10376618262681396 -0.2314602331329398 0.3352262488130044 2.528233466500307e-09 1.0094856021490411e-09 1777.7049999999929
3.115604698315357 -1.0702953936924633 1.497973822331148 -1.998474755428095 -1.5707963268226273 1.5448083715206433 -1.5967177268002715e-09 -0.11806285667761943 -0.2633503096979226 0.3814129764272405 2.876567855218127e-09 1.1485702851117976e-09 1777.7549999999928
3.115604698315357 -1.0702953936924633 1.497973822331148 -1.998474755428095 -1.5707963268226273 1.5448083715206433 -1.663940651930318e-09 -0.12303338493184213 -0.2744375406183647 0.39747072760494984 2.9976733595393767e-09 1.1969258917332581e-09 1777.8049999999928
3.115604698315357 -1.0702953936924633 1.497973822331148 -1.998474755428095 -1.5707963268226273 1.5448083715206433 -1.5967177268002719e-09 -0.11806285667761948 -0.2633503096979226 0.3814129764272406 2.8765678552181277e-09 1.1485702851117978e-09 1777.8549999999927
3.115604698315357 -1.0702953936924633 1.497973822331148 -1.998474755428095 -1.5707963268226273 1.5448083715206433 -1.4033651895705512e-09 -0.10376618262681402 -0.2314602331329397 0.3352262488130044 2.5282334665003084e-09 1.0094856021490413e-09 1777.9049999999927
3.115604698315357 -1.0702953936924633 1.497973822331148 -1.998474755428095 -1.5707963268226273 1.5448083715206433 -1.1088317547224106e-09 -0.0819880949150135 -0.1828821595124462 0.2648701225189173 1.9976165661237003e-09 7.976182535498605e-10 1777.9549999999927
3.1156046983124592 -1.0705096363928661 1.4974959338309934 -1.9977826245722272 -1.5707963268174072 1.5448083715227277 -7.546986130579422e-10 -0.05580314710153089 -0.12447416981815863 0.18027722713943756 1.3596277753179402e-09 5.428789238223731e-10 1778.0049999999926
3.1156046982947116 -1.071821933935881 1.4945687306945115 -1.9935431260040524 -1.5707963267854335 1.544808371535494 -3.991794317000669e-10 -0.029515714169404912 -0.06583757742448083 0.09535324410681023 7.191419638045286e-10 2.871425712779473e-10 1778.0549999999926
3.115604698253698 -1.0748545173989874 1.4878042679611168 -1.9837460846865966 -1.5707963267115455 1.5448083715649965 -1.1712035409255462e-10 -0.008659992525398329 -0.01931692809850231 0.027976906691060757 2.109982497968173e-10 8.42484280312058e-11 1778.1049999999925
3.1156046981869436 -1.079790395922621 1.4767943265247543 -1.967800272667809 -1.5707963265912843 1.5448083716130152 0.0 0.0 0.0 0.0 0.0 0.0 1778.1549999999925
3.1156046980967256 -1.0864612010975814 1.4619144679629945 -1.9462496196635763 -1.5707963264287519 1.5448083716779117 0.0 0.0 0.0 0.0 0.0 0.0 1778.2049999999924
3.115604697988885 -1.094435031352441 1.4441280893661264 -1.9204894236407397 -1.570796326234472 1.544808371755485 0.0 0.0 0.0 0.0 0.0 0.0 1778.2549999999924
3.1156046978716394 -1.1031042963409545 1.4247904781662508 -1.8924825614001084 -1.5707963260232476 1.5448083718398236 0.0 0.0 0.0 0.0 0.0 0.0 1778.3049999999923
3.1156046977543936 -1.1117735613294681 1.4054528669663753 -1.8644756991594773 -1.5707963258120234 1.544808371924162 0.0 0.0 0.0 0.0 0.0 0.0 1778.3549999999923
3.1156046976465532 -1.1197473915843277 1.3876664883695071 -1.8387155031366405 -1.5707963256177435 1.5448083720017354 0.0 0.0 0.0 0.0 0.0 0.0 1778.4049999999922
3.115604697556335 -1.1264181967592881 1.3727866298077473 -1.8171648501324076 -1.570796325455211 1.544808372066632 0.0 0.0 0.0 0.0 0.0 0.0 1778.4549999999922
3.115604697489581 -1.1313540752829216 1.3617766883713849 -1.80121903811362 -1.57079632533495 1.5448083721146506 0.0 0.0 0.0 0.0 0.0 0.0 1778.5049999999922
3.115604697448567 -1.134386658746028 1.35501222563799 -1.7914219967961644 -1.570796325261062 1.544808372144153 0.0 0.0 0.0 0.0 0.0 0.0 1778.554999999992
3.1156046974308196 -1.1356989562890427 1.3520850225015082 -1.7871824982279896 -1.5707963252290882 1.5448083721569195 0.0 0.0 0.0 0.0 0.0 0.0 1778.604999999992
3.115604697427922 -1.1359131989894458 1.3516071340013536 -1.7864903673721217 -1.5707963252238681 1.5448083721590038 0.0 0.0 0.0 0.0 0.0 0.0 1778.654999999992
3.115604697427922 -1.1359131989894458 1.3516071340013536 -1.7864903673721217 -1.5707963252238681 1.5448083721590038 0.0 0.0 0.0 0.0 0.0 0.0 1778.704999999992
3.115604697427922 -1.1359131989894458 1.3516071340013536 -1.7864903673721217 -1.5707963252238681 1.5448083721590038 0.0 0.0 0.0 0.0 0.0 0.0 1778.754999999992
3.115604697427922 -1.1359131989894458 1.3516071340013536 -1.7864903673721217 -1.5707963252238681 1.5448083721590038 0.0 0.0 0.0 0.0 0.0 0.0 1778.8049999999919
3.115604697427922 -1.1359131989894458 1.3516071340013536 -1.7864903673721217 -1.5707963252238681 1.5448083721590038 0.0 0.0 0.0 0.0 0.0 0.0 1778.8549999999918
3.115604697427922 -1.1359131989894458 1.3516071340013536 -1.7864903673721217 -1.5707963252238681 1.5448083721590038 0.0 0.0 0.0 0.0 0.0 0.0 1778.9049999999918
3.115604697427922 -1.1359131989894458 1.3516071340013536 -1.7864903673721217 -1.5707963252238681 1.5448083721590038 0.0 0.0 0.0 0.0 0.0 0.0 1778.9549999999917
3.115604697427922 -1.1359131989894458 1.3516071340013536 -1.7864903673721217 -1.5707963252238681 1.5448083721590038 0.0 0.0 0.0 0.0 0.0 0.0 1779.0049999999917
3.115604697427922 -1.1359131989894458 1.3516071340013536 -1.7864903673721217 -1.5707963252238681 1.5448083721590038 0.0 0.0 0.0 0.0 0.0 0.0 1779.0549999999917
3.115604697427922 -1.1359131989894458 1.3516071340013536 -1.7864903673721217 -1.5707963252238681 1.5448083721590038 0.0 0.0 0.0 0.0 0.0 0.0 1779.1049999999916
3.115604697427922 -1.1359131989894458 1.3516071340013536 -1.7864903673721217 -1.5707963252238681 1.5448083721590038 0.0 0.0 0.0 0.0 0.0 0.0 1779.1549999999916
3.115604697427922 -1.1359131989894458 1.3516071340013536 -1.7864903673721217 -1.5707963252238681 1.5448083721590038 0.0 0.0 0.0 0.0 0.0 0.0 1779.2049999999915
3.115604697427922 -1.1359131989894458 1.3516071340013536 -1.7864903673721217 -1.5707963252238681 1.5448083721590038 0.0 0.0 0.0 0.0 0.0 0.0 1779.2549999999915
3.115604697427922 -1.1359131989894458 1.3516071340013536 -1.7864903673721217 -1.5707963252238681 1.5448083721590038 0.0 0.0 0.0 0.0 0.0 0.0 1779.3049999999914
3.115604697427922 -1.1359131989894458 1.3516071340013536 -1.7864903673721217 -1.5707963252238681 1.5448083721590038 0.0 0.0 0.0 0.0 0.0 0.0 1779.3549999999914
3.115604697427922 -1.1359131989894458 1.3516071340013536 -1.7864903673721217 -1.5707963252238681 1.5448083721590038 0.0 0.0 0.0 0.0 0.0 0.0 1779.4049999999913
3.115604697427922 -1.1359131989894458 1.3516071340013536 -1.7864903673721217 -1.5707963252238681 1.5448083721590038 0.0 0.0 0.0 0.0 0.0 0.0 1779.4549999999913
3.115604697427922 -1.1359131989894458 1.3516071340013536 -1.7864903673721217 -1.5707963252238681 1.5448083721590038 0.0 0.0 0.0 0.0 0.0 0.0 1779.5049999999912
3.115604697427922 -1.1359131989894458 1.3516071340013536 -1.7864903673721217 -1.5707963252238681 1.5448083721590038 0.0 0.0 0.0 0.0 0.0 0.0 1779.5549999999912
3.115604697427922 -1.1359131989894458 1.3516071340013536 -1.7864903673721217 -1.5707963252238681 1.5448083721590038 0.0 0.0 0.0 0.0 0.0 0.0 1779.6049999999912
3.115604697427922 -1.1359131989894458 1.3516071340013536 -1.7864903673721217 -1.5707963252238681 1.5448083721590038 0.0 0.0 0.0 0.0 0.0 0.0 1779.654999999991
3.115604697427922 -1.1359131989894458 1.3516071340013536 -1.7864903673721217 -1.5707963252238681 1.5448083721590038 0.0 0.0 0.0 0.0 0.0 0.0 1779.704999999991
3.115604697427922 -1.1359131989894458 1.3516071340013536 -1.7864903673721217 -1.5707963252238681 1.5448083721590038 0.0 0.0 0.0 0.0 0.0 0.0 1779.754999999991
3.115604697427922 -1.1359131989894458 1.3516071340013536 -1.7864903673721217 -1.5707963252238681 1.5448083721590038 0.0 0.0 0.0 0.0 0.0 0.0 1779.804999999991
3.115604697427922 -1.1359131989894458 1.3516071340013536 -1.7864903673721217 -1.5707963252238681 1.5448083721590038 0.02326011931892882 -0.005976504948189627 0.007723227127421169 -0.001746720468718282 -2.5159842751541314e-11 0.023260119294229845 1779.854999999991
3.115604697427922 -1.1359131989894458 1.3516071340013536 -1.7864903673721217 -1.5707963252238681 1.5448083721590038 0.08855726569966951 -0.02275409379441619 0.029404315059783154 -0.0066502147530023824 -9.579000214745057e-11 0.08855726560563415 1779.9049999999909
3.115604697427922 -1.1359131989894458 1.3516071340013536 -1.7864903673721217 -1.5707963252238681 1.5448083721590038 0.18941568908793377 -0.04866887342996301 0.06289307325833932 -0.014224185899039003 -2.0488583428069546e-10 0.18941568888680094 1779.9549999999908
3.115604697427922 -1.1359131989894458 1.3516071340013536 -1.7864903673721217 -1.5707963252238681 1.5448083721590038 0.31969172917580696 -0.08214227859784244 0.10614957736581718 -0.0240072752583386 -3.4580190775229655e-10 0.3196917288363393 1780.0049999999908
3.115604697427922 -1.1359131989894458 1.3516071340013536 -1.7864903673721217 -1.5707963252238681 1.5448083721590038 0.47357381540174837 -0.12168107189279596 0.1572441692064185 -0.0355630624877354 -5.122520036713275e-10 0.47357381489887956 1780.0549999999907
3.115604697427922 -1.1359131989894458 1.3516071340013536 -1.7864903673721217 -1.5707963252238681 1.5448083721590038 0.6455824669505908 -0.16587734376129404 0.21435745678581922 -0.04848006554938737 -6.983091156549147e-10 0.6455824662650731 1780.1049999999907
3.115604697427922 -1.1359131989894458 1.3516071340013536 -1.7864903673721217 -1.5707963252238681 1.5448083721590038 0.8305702927535412 -0.21340851250153625 0.2757803142911694 -0.06237174071077626 -8.984054498282377e-10 0.8305702918715924 1780.1549999999907
3.115604697427922 -1.1359131989894458 1.3516071340013536 -1.7864903673721217 -1.5707963252238681 1.5448083721590038 1.0237219914881797 -0.26303732426345117 0.33991388209109324 -0.07687648254470754 -1.1073324248245286e-09 1.0237219904011308 1780.2049999999906
3.115604697427922 -1.1359131989894458 1.3516071340013536 -1.7864903673721217 -1.5707963252238681 1.5448083721590038 1.2205543515784607 -0.31361185304869654 0.4052695667356894 -0.0916576239293105 -1.320240671785073e-09 1.2205543502824037 1780.2549999999906
3.115604697427922 -1.1359131989894458 1.3516071340013536 -1.7864903673721217 -1.5707963252238681 1.5448083721590038 1.4169162511947127 -0.36406550071065913 0.4704690409565305 -0.10640343604803813 -1.5326400343592095e-09 1.4169162496901468 1780.3049999999905
3.11579156380108 -1.1359612128361727 1.3516691806066434 -1.7865044001169428 -1.5707963252240702 1.5449952385319634 1.608988658253636 -0.41341699695445444 0.5342442436666631 -0.12082712838966717 -1.7403995687043275e-09 1.608988656545116 1780.3549999999905
3.1170458615018677 -1.136283494777743 1.3520856542238147 -1.7865985917003044 -1.5707963252254271 1.5462495362314193 1.793284630418308 -0.46077039933692787 0.595437379960609 -0.13466684874829826 -1.939747543485874e-09 1.793284628514092 1780.4049999999904
3.120290720956217 -1.1371172359258084 1.3531630685835125 -1.7868422646733153 -1.570796325228937 1.5494943956823233 1.9666493150981763 -0.5053150932666529 0.6530009211143625 -0.1476856832233556 -2.1272714398773445e-09 1.9666493130098714 1780.4549999999904
3.12629904151432 -1.1386610266971906 1.3551580550961921 -1.7872934599727701 -1.570796325235436 1.555502716234046 2.1262599494490657 -0.5463257920039328 0.7059976045853937 -0.15967165621958726 -2.299917951560289e-09 2.126259947191277 1780.5049999999903
3.13570139834935 -1.141076888429399 1.3582799882373906 -1.7879995306903254 -1.5707963252456063 1.5649050730590919 2.269625860373171 -0.5831625366607994 0.7536004340126458 -0.170437730447065 -2.4549929847243094e-09 2.269625857963147 1780.5549999999903
3.1489939493561865 -1.1444923049961475 1.362693610933001 -1.7889977358416733 -1.5707963252599844 1.5781976240518139 2.394588464519064 -0.6152706962010138 0.7950926792165366 -0.17982180692118443 -2.590161658067063e-09 2.3945884619763476 1780.6049999999902
3.166546342050139 -1.1490022544228733 1.3685216599445453 -1.790315834135716 -1.5707963252789703 1.5957500167271281 2.4993212682816885 -0.6421809674400664 0.8298678761989582 -0.18768672496266492 -2.7034483027942596e-09 2.499321265627761 1780.6549999999902
3.1886096204656686 -1.1546712405022521 1.3758474912544472 -1.7919726777437397 -1.5707963253028356 1.6178132951192294 2.5823298678023634 -0.663509375045176 0.8574298271432768 -0.1939202621975495 -2.7932364626196588e-09 2.582329865060292 1780.7049999999902
3.2153241320551116 -1.161535324409717 1.384717705451306 -1.7939788060685897 -1.5707963253317319 1.6445278066803053 2.6424519489687803 -0.6789572715352918 0.8773926004143331 -0.19843513455720505 -2.8582688937650777e-09 2.642451946162868 1780.75499999999
3.246727434587403 -1.1696041563189756 1.3951447731151694 -1.796337039513844 -1.5707963253657 1.6759311091792508 2.6788572874150045 -0.6883113372810901 0.889480530558441 -0.2011689962783222 -2.8976475649603814e-09 2.6788572845704346 1780.80499999999
3.2827622030467998 -1.178863007017527 1.4071096602028068 -1.7990430732529887 -1.570796325404678 1.7119658776003839 2.6910477485214734 -0.6914435805049775 0.8935282183033886 -0.20208443990291514 -2.91083365744349e-09 2.6910477456639583 1780.85499999999
3.323284136531604 -1.1892747995221795 1.4205644534329822 -1.8020860709985913 -1.5707963254485093 1.7524878110421596 2.6788572874150014 -0.6883113372810895 0.88948053055844 -0.201168996278322 -2.897647564960378e-09 2.6788572845704324 1780.90499999999
3.3680698651528855 -1.2007821406945676 1.4354349856717281 -1.8054492587714759 -1.5707963254969528 1.7972735396158852 2.6424519489687786 -0.6789572715352913 0.8773926004143324 -0.19843513455720493 -2.8582688937650744e-09 2.6424519461628653 1780.95499999999
3.4168248569332063 -1.2133093528566696 1.4516234613176175 -1.8091105186698966 -1.57079632554969 1.8460285313444347 2.5823298678023634 -0.6635093750451765 0.8574298271432771 -0.19392026219754951 -2.7932364626196596e-09 2.5823298650602933 1781.0049999999899
3.469191324705341 -1.2267645054063252 1.469011081687039 -1.8130429826387133 -1.5707963256063333 1.8983949990609639 2.4993212682816885 -0.6421809674400663 0.8298678761989583 -0.18768672496266497 -2.70344830279426e-09 2.499321265627763 1781.0549999999898
3.5247561330110044 -1.2410414464327522 1.487460670399468 -1.8172156262385648 -1.5707963256664361 1.9539598073076252 2.3945884645190625 -0.6152706962010135 0.7950926792165358 -0.17982180692118438 -2.5901616580670617e-09 2.3945884619763467 1781.1049999999898
3.5830587049995706 -1.2560218343320648 1.5068192987627405 -1.8215938624150436 -1.5707963257295006 2.012262379234282 2.269625860373172 -0.5831625366607992 0.753600434012646 -0.170437730447065 -2.4549929847243098e-09 2.269625857963147 1781.1549999999897
3.643598929326798 -1.2715771694227898 1.526920911158327 -1.8261401352678708 -1.5707963257949853 2.0728026034972244 2.1262599494490693 -0.546325792003934 0.705997604585395 -0.1596716562195875 -2.2999179515602924e-09 2.1262599471912806 1781.2049999999897
3.705845067053552 -1.287570825561385 1.5475889504266056 -1.830814513820069 -1.5707963258623152 2.135048741157882 1.9666493150981765 -0.5053150932666534 0.653000921114363 -0.14768568322335573 -2.1272714398773465e-09 1.9666493130098763 1781.2549999999896
3.76924165854453 -1.3038600817577557 1.568638983252134 -1.8355752857871392 -1.5707963259308897 2.1984453325815414 1.7932846304183079 -0.46077039933692787 0.5954373799606096 -0.13466684874829835 -1.9397475434858767e-09 1.7932846285140913 1781.3049999999896
3.8332174303669815 -1.3202981537907732 1.589881325548924 -1.8403795513462324 -1.5707963260000906 2.2624211043360596 1.6089886582536366 -0.4134169969544552 0.5342442436666638 -0.12082712838966723 -1.7403995687043269e-09 1.608988656545118 1781.3549999999896
3.8971932021894324 -1.3367362258237905 1.611123667845714 -1.8451838169053256 -1.5707963260692912 2.3263968760905773 1.416916251194714 -0.3640655007106596 0.47046904095653064 -0.10640343604803813 -1.5326400343592089e-09 1.416916249690147 1781.4049999999895
3.9605897936804104 -1.3530254820201613 1.6321737006712422 -1.8499445888723955 -1.5707963261378657 2.389793467514237 1.2205543515784611 -0.3136118530486967 0.4052695667356883 -0.0916576239293104 -1.320240671785072e-09 1.2205543502824012 1781.4549999999895
4.022835931407165 -1.3690191381587564 1.6528417399395208 -1.854618967424594 -1.5707963262051956 2.452039605174895 1.0237219914881803 -0.2630373242634517 0.3399138820910944 -0.07687648254470751 -1.1073324248245294e-09 1.0237219904011323 1781.5049999999894
4.083376155734392 -1.3845744732494814 1.6729433523351074 -1.8591652402774212 -1.5707963262706803 2.5125798294378368 0.8305702927535458 -0.21340851250153725 0.2757803142911702 -0.06237174071077638 -8.984054498282436e-10 0.8305702918715953 1781.5549999999894
4.141678727722958 -1.3995548611487938 1.69230198069838 -1.8635434764539 -1.5707963263337448 2.5708824013644938 0.645582466950591 -0.16587734376129376 0.2143574567858179 -0.04848006554938706 -6.983091156549119e-10 0.64558246626507 1781.6049999999893
4.197243536028621 -1.413831802175221 1.7107515694108086 -1.8677161200537515 -1.5707963263938476 2.626447209611155 0.4735738154017443 -0.12168107189279635 0.15724416920641854 -0.03556306248773549 -5.122520036713273e-10 0.47357381489887984 1781.6549999999893
4.249610003800757 -1.4272869547248765 1.7281391897802298 -1.8716485840225683 -1.570796326450491 2.6788136773276836 0.31969172917581495 -0.08214227859784434 0.1061495773658204 -0.02400727525833876 -3.458019077523028e-10 0.3196917288363482 1781.7049999999892
4.2983649955810765 -1.4398141668869786 1.7443276654261197 -1.875309843920989 -1.570796326503228 2.7275686690562333 0.18941568908793932 -0.048668873429962296 0.06289307325834019 -0.014224185899038868 -2.0488583428069724e-10 0.18941568888679952 1781.7549999999892
4.34315072420236 -1.4513215080593667 1.7591981976648656 -1.8786730316938736 -1.5707963265516716 2.7723543976299596 0.08855726569967695 -0.02275409379441651 0.029404315059786003 -0.006650214753003023 -9.579000214745472e-11 0.08855726560563995 1781.8049999999891
4.383672657687164 -1.4617333005640192 1.7726529908950412 -1.8817160294394761 -1.570796326595503 2.812876331071736 0.0232601193189267 -0.005976504948189833 0.007723227127420452 -0.0017467204687181806 -2.5159842751541385e-11 0.023260119294231354 1781.854999999989
4.41970742614656 -1.4709921512625703 1.7846178779826782 -1.8844220631786208 -1.5707963266344809 2.848911099492868 0.0 0.0 0.0 0.0 0.0 0.0 1781.904999999989
4.451110728678852 -1.4790609831718293 1.7950449456465418 -1.8867802966238754 -1.570796326668449 2.8803144019918143 0.0 0.0 0.0 0.0 0.0 0.0 1781.954999999989
4.477825240268294 -1.485925067079294 1.8039151598434007 -1.8887864249487252 -1.5707963266973453 2.9070289135528893 -7.444349000285945e-10 0.010916764314592478 0.017804755342759368 -0.028721519782598664 6.2915493917562e-11 -7.394364750460361e-10 1782.004999999989
4.499888518683823 -1.4915940531586729 1.8112409911533023 -1.890443268556749 -1.5707963267212106 2.9290921919449904 -2.567540777649642e-09 0.03765169732992099 0.06140823781482313 -0.09905993557671784 2.1699425453199956e-10 -2.550301311893472e-09 1782.054999999989
4.5174409113777765 -1.4961040025853989 1.8170690401648466 -1.8917613668507913 -1.5707963267401965 2.9466445846203055 -4.92238586957683e-09 0.07218431914138701 0.11772940267457219 -0.18991372264412182 4.160126536589815e-10 -4.889335059488077e-09 1782.1049999999889
4.530733462384614 -1.4995194191521473 1.8214826628604572 -1.8927595720021395 -1.5707963267545746 2.9599371356130275 -7.353193706404892e-09 0.10783089649515835 0.17586737930399052 -0.28369827703628064 6.214510011448982e-10 -7.30382150861799e-09 1782.1549999999888
4.540135819219641 -1.5019352808843554 1.824604596001655 -1.8934656427196948 -1.570796326764745 2.9693394924380723 -9.495343112609624e-09 0.1392444427881694 0.22710147120866547 -0.36634591559437074 8.024935448668623e-10 -9.431587691913728e-09 1782.2049999999888
4.546144139777745 -1.5034790716557378 1.8265995825143353 -1.8939168380191498 -1.570796326771244 2.9753478129897966 -1.1075368206547866e-08 0.16241471806812074 0.2648911560177874 -0.42730587594927405 9.360284707327082e-10 -1.1001003883848172e-08 1782.2549999999887
4.549388999232093 -1.5043128128038028 1.8276769968740327 -1.8941605109921602 -1.5707963267747538 2.9785926724406977 -1.1910958400457513e-08 0.17466822903347967 0.28487608548414994 -0.45954431652157857 1.006647902680992e-09 -1.183098360073658e-08 1782.3049999999887
4.5506432969328845 -1.504635094745374 1.8280934704912042 -1.894254702575522 -1.5707963267761107 2.979846970140156 -1.191095840045751e-08 0.17466822903347962 0.28487608548414994 -0.4595443165215787 1.0066479026809922e-09 -1.183098360073658e-08 1782.3549999999886
4.550830163306041 -1.5046831085921006 1.8281555170964943 -1.8942687353203431 -1.5707963267763128 2.9800338365131154 -1.107536820654787e-08 0.16241471806812086 0.2648911560177875 -0.4273058759492744 9.360284707327089e-10 -1.100100388384818e-08 1782.4049999999886
4.550830163306041 -1.5046831085921004 1.8281555170964943 -1.8942687353203431 -1.5707963267763128 2.9800338365131154 -9.495343112609636e-09 0.1392444427881697 0.22710147120866583 -0.3663459155943712 8.024935448668635e-10 -9.431587691913738e-09 1782.4549999999886
4.550830163288899 -1.5044317259580535 1.8285655109525163 -1.8949301118132962 -1.570796326774864 2.980033836496088 -7.353193706404907e-09 0.10783089649515863 0.17586737930399055 -0.28369827703628103 6.214510011448984e-10 -7.303821508618006e-09 1782.5049999999885
4.55083016318288 -1.5028770153395092 1.8311011745790515 -1.8990204860762125 -1.570796326765904 2.9800338363907812 -4.922385869576825e-09 0.07218431914138694 0.11772940267457178 -0.18991372264412124 4.1601265365898e-10 -4.889335059488068e-09 1782.5549999999885
4.550830162934811 -1.4992392078568542 1.8370342762148681 -1.9085913952364206 -1.5707963267449385 2.980033836144378 -2.5675407776496115e-09 0.03765169732992059 0.061408237814822325 -0.09905993557671657 2.1699425453199762e-10 -2.5503013118934396e-09 1782.6049999999884
4.550830162524941 -1.4932286750690886 1.8468371869200806 -1.9244048387983568 -1.5707963267102987 2.9800338357372604 -7.444349000285916e-10 0.010916764314592388 0.01780475534275906 -0.028721519782597835 6.29154939175613e-11 -7.394364750460167e-10 1782.6549999999884
4.550830161960867 -1.484956812530443 1.8603282255177218 -1.9461677400295456 -1.5707963266626261 2.980033835176974 0.0 0.0 0.0 0.0 0.0 0.0 1782.7049999999883
4.550830161271455 -1.4748469233469939 1.8768170035353173 -1.97276640734658 -1.570796326604361 2.98003383449219 0.0 0.0 0.0 0.0 0.0 0.0 1782.7549999999883
4.550830160500762 -1.4635451017332777 1.8952497701464592 -2.0025009957011024 -1.5707963265392262 2.9800338337266723 0.0 0.0 0.0 0.0 0.0 0.0 1782.8049999999882
4.550830159701963 -1.4518311165689088 1.9143547571123785 -2.033319967965784 -1.5707963264717162 2.9800338329332368 0.0 0.0 0.0 0.0 0.0 0.0 1782.8549999999882
4.55083015893127 -1.4405292949551927 1.9327875237235201 -2.0630545563203064 -1.5707963264065814 2.980033832167719 0.0 0.0 0.0 0.0 0.0 0.0 1782.9049999999881
4.550830158241858 -1.4304194057717434 1.9492763017411159 -2.089653223637341 -1.5707963263483162 2.980033831482935 0.0 0.0 0.0 0.0 0.0 0.0 1782.954999999988
4.550830157677784 -1.4221475432330979 1.9627673403387569 -2.1114161248685295 -1.5707963263006437 2.9800338309226486 0.0 0.0 0.0 0.0 0.0 0.0 1783.004999999988
4.550830157267915 -1.4161370104453324 1.9725702510439695 -2.127229568430466 -1.5707963262660039 2.980033830515531 0.0 0.0 0.0 0.0 0.0 0.0 1783.054999999988
4.5508301570198455 -1.412499202962677 1.9785033526797864 -2.136800477590674 -1.5707963262450384 2.980033830269128 0.0 0.0 0.0 0.0 0.0 0.0 1783.104999999988
4.550830156913826 -1.410944492344133 1.9810390163063216 -2.1408908518535905 -1.5707963262360785 2.980033830163821 0.0 0.0 0.0 0.0 0.0 0.0 1783.154999999988
4.5508301568966845 -1.410693109710086 1.9814490101623434 -2.1415522283465434 -1.5707963262346296 2.9800338301467937 0.0 0.0 0.0 0.0 0.0 0.0 1783.2049999999879
4.5508301568966845 -1.410693109710086 1.9814490101623434 -2.1415522283465434 -1.5707963262346296 2.9800338301467937 0.0 0.0 0.0 0.0 0.0 0.0 1783.2549999999878
4.5508301568966845 -1.410693109710086 1.9814490101623434 -2.1415522283465434 -1.5707963262346296 2.9800338301467937 0.0 0.0 0.0 0.0 0.0 0.0 1783.3049999999878
4.5508301568966845 -1.410693109710086 1.9814490101623434 -2.1415522283465434 -1.5707963262346296 2.9800338301467937 0.0 0.0 0.0 0.0 0.0 0.0 1783.3549999999877
4.5508301568966845 -1.410693109710086 1.9814490101623434 -2.1415522283465434 -1.5707963262346296 2.9800338301467937 0.0 0.0 0.0 0.0 0.0 0.0 1783.4049999999877
4.5508301568966845 -1.410693109710086 1.9814490101623434 -2.1415522283465434 -1.5707963262346296 2.9800338301467937 7.444349000285945e-10 -0.010916764314592478 -0.017804755342759368 0.028721519782598664 -6.2915493917562e-11 7.394364750460361e-10 1783.4549999999876
4.5508301568966845 -1.410693109710086 1.9814490101623434 -2.1415522283465434 -1.5707963262346296 2.9800338301467937 2.567540777649642e-09 -0.03765169732992099 -0.06140823781482313 0.09905993557671784 -2.1699425453199956e-10 2.550301311893472e-09 1783.5049999999876
4.5508301568966845 -1.410693109710086 1.9814490101623434 -2.1415522283465434 -1.5707963262346296 2.9800338301467937 4.92238586957683e-09 -0.07218431914138701 -0.11772940267457219 0.18991372264412182 -4.160126536589815e-10 4.889335059488077e-09 1783.5549999999876
4.5508301568966845 -1.410693109710086 1.9814490101623434 -2.1415522283465434 -1.5707963262346296 2.9800338301467937 7.353193706404892e-09 -0.10783089649515835 -0.17586737930399052 0.28369827703628064 -6.214510011448982e-10 7.30382150861799e-09 1783.6049999999875
4.5508301568966845 -1.410693109710086 1.9814490101623434 -2.1415522283465434 -1.5707963262346296 2.9800338301467937 9.495343112609624e-09 -0.1392444427881694 -0.22710147120866547 0.36634591559437074 -8.024935448668623e-10 9.431587691913728e-09 1783.6549999999875
4.5508301568966845 -1.410693109710086 1.9814490101623434 -2.1415522283465434 -1.5707963262346296 2.9800338301467937 1.1075368206547866e-08 -0.16241471806812074 -0.2648911560177874 0.42730587594927405 -9.360284707327082e-10 1.1001003883848172e-08 1783.7049999999874
4.5508301568966845 -1.410693109710086 1.9814490101623434 -2.1415522283465434 -1.5707963262346296 2.9800338301467937 1.1910958400457513e-08 -0.17466822903347967 -0.28487608548414994 0.45954431652157857 -1.006647902680992e-09 1.183098360073658e-08 1783.7549999999874
4.5508301568966845 -1.410693109710086 1.9814490101623434 -2.1415522283465434 -1.5707963262346296 2.9800338301467937 1.191095840045751e-08 -0.17466822903347962 -0.28487608548414994 0.4595443165215787 -1.0066479026809922e-09 1.183098360073658e-08 1783.8049999999873
4.5508301568966845 -1.410693109710086 1.9814490101623434 -2.1415522283465434 -1.5707963262346296 2.9800338301467937 1.107536820654787e-08 -0.16241471806812086 -0.2648911560177875 0.4273058759492744 -9.360284707327089e-10 1.100100388384818e-08 1783.8549999999873
4.5508301568966845 -1.410693109710086 1.9814490101623434 -2.1415522283465434 -1.5707963262346296 2.9800338301467937 9.495343112609636e-09 -0.1392444427881697 -0.22710147120866583 0.3663459155943712 -8.024935448668635e-10 9.431587691913738e-09 1783.9049999999872
4.550830156913826 -1.410944492344133 1.9810390163063214 -2.1408908518535905 -1.5707963262360785 2.980033830163821 7.353193706404907e-09 -0.10783089649515863 -0.17586737930399055 0.28369827703628103 -6.214510011448984e-10 7.303821508618006e-09 1783.9549999999872
4.5508301570198455 -1.4124992029626773 1.9785033526797862 -2.136800477590674 -1.5707963262450384 2.980033830269128 4.922385869576825e-09 -0.07218431914138694 -0.11772940267457178 0.18991372264412124 -4.1601265365898e-10 4.889335059488068e-09 1784.0049999999871
4.550830157267915 -1.4161370104453324 1.9725702510439695 -2.1272295684304656 -1.5707963262660039 2.980033830515531 2.5675407776496115e-09 -0.03765169732992059 -0.061408237814822325 0.09905993557671657 -2.1699425453199762e-10 2.5503013118934396e-09 1784.054999999987
4.550830157677784 -1.4221475432330979 1.962767340338757 -2.1114161248685295 -1.5707963263006437 2.9800338309226486 7.444349000285916e-10 -0.010916764314592388 -0.01780475534275906 0.028721519782597835 -6.29154939175613e-11 7.394364750460167e-10 1784.104999999987
4.550830158241858 -1.4304194057717434 1.9492763017411159 -2.089653223637341 -1.5707963263483162 2.980033831482935 0.0 0.0 0.0 0.0 0.0 0.0 1784.154999999987
4.55083015893127 -1.4405292949551927 1.9327875237235204 -2.0630545563203064 -1.5707963264065814 2.980033832167719 0.0 0.0 0.0 0.0 0.0 0.0 1784.204999999987
4.550830159701963 -1.4518311165689088 1.9143547571123785 -2.033319967965784 -1.5707963264717162 2.9800338329332368 -0.021982610918080393 0.0022905768088872995 -0.0026924317017163676 0.0004018549065279528 -2.2512643364805177e-11 -0.021982610914856645 1784.254999999987
4.550830160500762 -1.4635451017332777 1.8952497701464592 -2.0025009957011024 -1.5707963265392262 2.9800338337266723 -0.08397902394117902 0.008750571321554993 -0.010285756645606537 0.0015351853763846792 -8.600387930067101e-11 -0.0839790239288635 1784.3049999999869
4.550830161271455 -1.4748469233469939 1.8768170035353176 -1.9727664073465803 -1.570796326604361 2.98003383449219 -0.1802664932517791 0.01878367635221837 -0.022079052529157567 0.003295376289275712 -1.846129783365945e-10 -0.18026649322534302 1784.3549999999868
4.550830161960867 -1.484956812530443 1.8603282255177218 -1.9461677400295458 -1.5707963266626261 2.980033835176974 -0.30539478473795983 0.03182198029536818 -0.03740477430235714 0.005582794197301559 -3.127582933573347e-10 -0.3053947846931737 1784.4049999999868
4.550830162524941 -1.4932286750690884 1.8468371869200808 -1.924404838798357 -1.5707963267102987 2.9800338357372604 -0.4541861759933966 0.04732596712577065 -0.05562875416769355 0.008302787324957702 -4.651372596034127e-10 -0.4541861759267902 1784.4549999999867
4.550830162934811 -1.4992392078568542 1.8370342762148681 -1.9085913952364204 -1.5707963267449385 2.980033836144378 -0.6217354563173606 0.06478451639846744 -0.07615020158015569 0.0113656855691346 -6.367263946711116e-10 -0.6217354562261831 1784.5049999999867
4.55083016318288 -1.5028770153395095 1.8311011745790513 -1.8990204860762123 -1.570796326765904 2.9800338363907812 -0.8034099267147192 0.0837149032487757 -0.09840170324723312 0.01468680049911768 -8.227812985124768e-10 -0.8034099265968991 1784.5549999999866
4.550830163288899 -1.5044317259580535 1.828565510952516 -1.894930111813296 -1.570796326774864 2.980033836496088 -0.9948493998959358 0.10366279839228802 -0.12184922312891594 0.01818642535658735 -1.0188366534353151e-09 -0.9948493997500412 1784.6049999999866
4.550830163306041 -1.5046831085921004 1.8281555170964943 -1.8942687353203431 -1.5707963267763128 2.9800338365131154 -1.1919662002770701 0.1242022681248725 -0.14599210243769498 0.021789835055619 -1.2207062241031965e-09 -1.1919662001022684 1784.6549999999866
4.550830163306041 -1.5046831085921004 1.8281555170964943 -1.8942687353203431 -1.5707963267763128 2.9800338365131154 -1.390945163979777 0.1449357743226726 -0.1703630596385615 0.025427286182682963 -1.4244828575354513e-09 -1.390945163775795 1784.7049999999865
4.550665470352113 -1.5046659476705766 1.8281353454921359 -1.894265724637406 -1.5707963267764815 2.979869143559211 -1.5882436388313088 0.1654941744421074 -0.1945281904490076 0.029034016996644596 -1.6265384831071742e-09 -1.5882436385983927 1784.7549999999865
4.549556827129078 -1.504550427614043 1.8279995587936988 -1.8942454579948116 -1.5707963267776168 2.9787605003363393 -1.7805914843645119 0.18553672151987124 -0.21808696783902576 0.03255024742876418 -1.823524112549219e-09 -1.7805914841033883 1784.8049999999864
4.546679128750549 -1.5042505729155544 1.8276470980977786 -1.8941928519955866 -1.5707963267805638 2.9758828019582326 -1.964991071817831 0.20475106417293415 -0.24067224203110937 0.035921179082697006 -2.0123698399482047e-09 -1.964991071529665 1784.8549999999864
4.541331414551577 -1.5036933438325137 1.8269921096937765 -1.8940950926712927 -1.5707963267860405 2.9705350877600436 -2.1387172841353053 0.2228532465985414 -0.2619502405002521 0.03909699523449332 -2.19028484174651e-09 -2.1387172838216624 1784.9049999999863
4.532930812272968 -1.5028180053737759 1.825963203347177 -1.8939415247781963 -1.5707963267946436 2.9621344854826672 -2.29931751596657 0.23958770857421394 -0.2816205679739486 0.04203286083259837 -2.3547573767422767e-09 -2.2993175156293755 1784.9549999999863
4.52100648224561 -1.5015754962867538 1.8245027105828269 -1.893723541093437 -1.5707963268068554 2.9502101554570586 -2.444611673666857 0.25472728545774787 -0.2994162064321937 0.044688922497852335 -2.503554786089408e-09 -2.444611673308355 1785.0049999999862
4.50519356157479 -1.4999277980445234 1.8225659429682108 -1.8934344717111973 -1.5707963268230498 2.9343972347885567 -2.5726921752969956 0.26807320818721525 -0.3151035151074833 0.047030308523490404 -2.6347234932975702e-09 -2.5726921749197103 1785.0549999999862
4.485227108324509 -1.4978473038329279 1.8201204503967312 -1.8930694733388709 -1.5707963268434977 2.9144307815412045 -2.6819239506234074 0.2794551032809631 -0.3284822304848136 0.04902712887514274 -2.7465890042321917e-09 -2.6819239502301038 1785.1049999999861
4.460936045701812 -1.495316187537683 1.8171452793709848 -1.8926254185932319 -1.5707963268683744 2.8901397189220694 -2.7709444411181128 0.2887309928376141 -0.3393854663016815 0.050654475190834436 -2.83775590711446e-09 -2.770944440711754 1785.154999999986
4.432237106241098 -1.4923257727314825 1.8136302312860408 -1.892100785296604 -1.5707963268977652 2.8614407794655645 -2.838663599958728 0.2957872945360665 -0.3476797135480845 0.051892420780985625 -2.907107872521329e-09 -2.8386635995424374 1785.204999999986
4.39912877598845 -1.4888759016611028 1.809575120712719 -1.89149554577303 -1.5707963269316718 2.8283324492177706 -2.884263892028465 0.30053882163549395 -0.35326484046652107 0.052726020628411405 -2.9538076533855115e-09 -2.884263891605488 1785.254999999986
4.3616852386859435 -1.4849743042345074 1.8049890336808667 -1.8908110561444391 -1.5707963269700183 2.7908889119207556 -2.9072002939161328 0.3029287829753455 -0.35607409255198974 0.05314531138832176 -2.977297084995486e-09 -2.9072002934897925 1785.304999999986
4.320050319955977 -1.4806359670079532 1.7998895859626367 -1.8900499456268178 -1.570796327012657 2.749253993196896 -2.907200293916132 0.30292878297534537 -0.3560740925519895 0.05314531138832174 -2.977297084995484e-09 -2.907200293489792 1785.354999999986
4.27443143148559 -1.4758825021730941 1.7943021813557656 -1.8892160058263776 -1.5707963270593759 2.7036351047331983 -2.8842638920284656 0.30053882163549384 -0.3532648404665211 0.05272602062841139 -2.953807653385512e-09 -2.8842638916054884 1785.4049999999859
4.2250935152107765 -1.4707415165440867 1.7882592699668516 -1.888314080035725 -1.5707963271099035 2.6542971884656206 -2.8386635999587275 0.29578729453606656 -0.3476797135480844 0.05189242078098562 -2.9071078725213273e-09 -2.838663599542437 1785.4549999999858
4.172352987500813 -1.4652459805446956 1.781799606494631 -1.8873499525300295 -1.5707963271639156 2.601556660763391 -2.770944441118112 0.28873099283761405 -0.3393854663016815 0.050654475190834436 -2.8377559071144604e-09 -2.7709444407117547 1785.5049999999858
4.116571683342573 -1.4594335971953973 1.7749675085132581 -1.8863302378631934 -1.570796327221042 2.5457753566133317 -2.681923950623409 0.2794551032809634 -0.32848223048481373 0.0490271288751428 -2.7465890042321937e-09 -2.681923950230105 1785.5549999999857
4.058150800524852 -1.4533461711004865 1.7678121147555803 -1.8852622701640207 -1.5707963272808714 2.487354473804178 -2.5726921752969942 0.2680732081872153 -0.3151035151074833 0.04703030852349038 -2.634723493297571e-09 -2.5726921749197094 1785.6049999999857
3.997524843822683 -1.4470289774351799 1.7603866433964186 -1.884153992432385 -1.570796327342959 2.4267285171108997 -2.4446116736668593 0.2547272854577481 -0.2994162064321938 0.04468892249785235 -2.5035547860894124e-09 -2.4446116733083585 1785.6549999999856
3.935155569181659 -1.4405301309327223 1.752747650335843 -1.8830138458354004 -1.5707963274068322 2.3643592424790216 -2.2993175159665697 0.23958770857421385 -0.2816205679739486 0.042032860832598364 -2.354757376742275e-09 -2.2993175156293746 1785.7049999999856
3.8715259279022534 -1.4338999548714908 1.7449542874824522 -1.881850659003589 -1.570796327471996 2.3007296012089475 -2.1387172841353053 0.22285324659854144 -0.2619502405002519 0.03909699523449331 -2.190284841746511e-09 -2.1387172838216633 1785.7549999999856
3.807134010824139 -1.4271903500621 1.73706756103665 -1.8806735373270507 -1.5707963275379404 2.2363376841402762 -1.9649910718178274 0.20475106417293376 -0.24067224203110907 0.03592117908269692 -2.012369839948202e-09 -1.9649910715296637 1785.8049999999855
3.7424869925105084 -1.4204541638345065 1.7291495897739233 -1.8794917522516315 -1.5707963276041463 2.1716906658361257 -1.780591484364512 0.18553672151987113 -0.21808696783902587 0.032550247428764174 -1.8235241125492201e-09 -1.780591484103389 1785.8549999999855
3.678095075432394 -1.4137445590251156 1.721262863328121 -1.8783146305750933 -1.5707963276700907 2.1072987487674544 -1.5882436388313077 0.1654941744421073 -0.19452819044900746 0.02903401699664461 -1.6265384831071707e-09 -1.5882436385983931 1785.9049999999854
3.614465434152988 -1.407114382963884 1.7134695004747302 -1.877151443743282 -1.5707963277352546 2.04366910749738 -1.3909451639797739 0.14493577432267257 -0.1703630596385614 0.0254272861826829 -1.4244828575354496e-09 -1.3909451637757921 1785.9549999999854
3.5520961595119642 -1.4006155364614263 1.7058305074141547 -1.8760112971462972 -1.5707963277991277 1.9812998328655027 -1.1919662002770663 0.12420226812487226 -0.14599210243769498 0.021789835055618996 -1.2207062241031944e-09 -1.1919662001022648 1786.0049999999853
3.4914702028097957 -1.39429834279612 1.698405036054993 -1.8749030194146616 -1.5707963278612154 1.9206738761722248 -0.9948493998959338 0.1036627983922881 -0.12184922312891562 0.018186425356587363 -1.0188366534353143e-09 -0.9948493997500383 1786.0549999999853
3.433049319992074 -1.388210916701209 1.6912496422973151 -1.873835051715489 -1.5707963279210448 1.8622529933630703 -0.8034099267147182 0.08371490324877572 -0.0984017032472331 0.014686800499117632 -8.2278129851248e-10 -0.8034099265968966 1786.1049999999852
3.3772680158338346 -1.3823985333519109 1.6844175443159422 -1.8728153370486529 -1.5707963279781711 1.8064716892130115 -0.6217354563173545 0.06478451639846715 -0.07615020158015469 0.011365685569134504 -6.367263946711054e-10 -0.6217354562261775 1786.1549999999852
3.324527488123871 -1.3769029973525198 1.6779578808437217 -1.8718512095429574 -1.5707963280321833 1.7537311615107818 -0.45418617599338706 0.047325967125770266 -0.05562875416769259 0.00830278732495761 -4.6513725960340557e-10 -0.4541861759267864 1786.2049999999851
3.275189571849057 -1.3717620117235123 1.6719149694548077 -1.8709492837523047 -1.5707963280827109 1.704393245243204 -0.30539478473796133 0.03182198029536877 -0.03740477430235745 0.005582794197301695 -3.1275829335733404e-10 -0.30539478469317916 1786.254999999985
3.2295706833786695 -1.3670085468886533 1.6663275648479365 -1.8701153439518645 -1.5707963281294297 1.658774356779506 -0.18026649325177904 0.018783676352218122 -0.022079052529157272 0.0032953762892757323 -1.8461297833659093e-10 -0.18026649322533997 1786.304999999985
3.187935764648704 -1.3626702096620988 1.6612281171297065 -1.8693542334342432 -1.5707963281720685 1.6171394380556465 -0.08397902394118129 0.008750571321554296 -0.010285756645606011 0.001535185376384694 -8.600387930067042e-11 -0.08397902392886383 1786.354999999985
3.1504922273461986 -1.3587686122355036 1.6566420300978542 -1.8686697438056523 -1.570796328210415 1.5796959007586313 -0.021982610918083106 0.002290576808887874 -0.002692431701717152 0.0004018549065279743 -2.2512643364810608e-11 -0.02198261091485579 1786.404999999985
3.117383897093549 -1.355318741165124 1.6525869195245324 -1.8680645042820783 -1.5707963282443216 1.5465875705108374 0.0 0.0 0.0 0.0 0.0 0.0 1786.454999999985
3.0886849576328346 -1.3523283263589234 1.6490718714395884 -1.8675398709854505 -1.5707963282737123 1.5178886310543316 0.0 0.0 0.0 0.0 0.0 0.0 1786.5049999999849
3.064393895010138 -1.3497972100636786 1.646096700413842 -1.8670958162398115 -1.570796328298589 1.4935975684351974 -1.0627542941518994e-07 0.009591150555908087 0.016986798713865346 -0.026577954424518324 5.278932248500125e-09 -1.0594943922081223e-07 1786.5549999999848
3.044427441759858 -1.347716715852083 1.6436512078423626 -1.866730817867485 -1.570796328319037 1.4736311151878454 -3.665417871666755e-07 0.03307968252956055 0.05858712209476008 -0.09166682240293055 1.8206929591765738e-08 -3.654174536391279e-07 1786.6049999999848
3.028614521089036 -1.3460690176098524 1.6417144402277462 -1.8664417484852451 -1.5707963283352313 1.4578181945193422 -7.027191659290111e-07 0.06341903632886164 0.1123208731284158 -0.17573994354171302 3.490559282681716e-08 -7.005636389294524e-07 1786.6549999999847
3.016690191061678 -1.3448265085228306 1.640253947463396 -1.866223764800486 -1.570796328347443 1.4458938644937331 -1.0497409762643252e-06 0.09473707896039825 0.16778797096960874 -0.2625251008462626 5.2142922617837975e-08 -1.0465209914872064e-06 1786.7049999999847
3.0082895887830725 -1.3439511700640927 1.6392250411167968 -1.8660701969073896 -1.5707963283560462 1.4374932622163572 -1.3555539466223208e-06 0.1223361040294399 0.21666835094216008 -0.3390045207208971 6.733331949617508e-08 -1.3513959084287277e-06 1786.7549999999846
3.0029418745840983 -1.343393940981052 1.6385700527127944 -1.8659724375830957 -1.570796328361523 1.4321455480181686 -1.581118123340275e-06 0.14269283173993869 0.25272196453893553 -0.3954148729688543 7.85375838603386e-08 -1.5762681875912677e-06 1786.8049999999846
3.000064176205571 -1.3430940862825633 1.6382175920168744 -1.8659198315838708 -1.57079632836447 1.4292678496400635 -1.7004068706430388e-06 0.1534584088945294 0.2717887794218455 -0.42524727079229324 8.446291597600199e-08 -1.6951910275329957e-06 1786.8549999999846
2.998955532982537 -1.34297856622603 1.6380818053184376 -1.8658995649412764 -1.5707963283656052 1.4281592064171917 -1.7004068706430395e-06 0.15345840889452939 0.27178877942184554 -0.42524727079229313 8.446291597600203e-08 -1.6951910275329953e-06 1786.9049999999845
2.998790840028607 -1.342961405304506 1.638061633714079 -1.8658965542583392 -1.570796328365774 1.427994513463286 -1.5811181233402768e-06 0.14269283173993874 0.25272196453893564 -0.3954148729688544 7.853758386033864e-08 -1.5762681875912685e-06 1786.9549999999845
2.9987908400286063 -1.342961405304506 1.638061633714079 -1.8658965542583392 -1.570796328365774 1.427994513463287 -1.3555539466223227e-06 0.12233610402944008 0.21666835094216033 -0.33900452072089776 6.733331949617514e-08 -1.3513959084287292e-06 1787.0049999999844
2.9987908375813794 -1.3427405478580317 1.6384527923103132 -1.8665085704197473 -1.570796328244215 1.427994511023567 -1.0497409762643281e-06 0.0947370789603985 0.16778797096960896 -0.26252510084626285 5.2142922617838075e-08 -1.0465209914872075e-06 1787.0549999999844
2.998790822446168 -1.3413746244778415 1.640871966671366 -1.870293668895103 -1.570796327492416 1.4279944959347812 -7.027191659290074e-07 0.06341903632886155 0.11232087312841552 -0.17573994354171302 3.490559282681706e-08 -7.005636389294505e-07 1787.1049999999843
2.998790787031869 -1.338178552981371 1.6465324995625137 -1.8791502750004434 -1.5707963257333106 1.4279944606291126 -3.665417871666709e-07 0.03307968252956038 0.05858712209475943 -0.09166682240292927 1.8206929591765718e-08 -3.654174536391248e-07 1787.1549999999843
2.998790728518931 -1.3328978742722388 1.6558850611537157 -1.8937835181388678 -1.5707963228268453 1.4279944022956577 -1.0627542941519125e-07 0.009591150555907998 0.016986798713864864 -0.02657795442451785 5.278932248499876e-09 -1.0594943922081034e-07 1787.2049999999842
2.998790647991797 -1.3256304572336688 1.6687563167642183 -1.9139221946937996 -1.570796318826887 1.4279943220155333 0.0 0.0 0.0 0.0 0.0 0.0 1787.2549999999842
2.998790549571351 -1.3167482036219098 1.6844875946071576 -1.9385357309222473 -1.570796313938129 1.427994223896983 0.0 0.0 0.0 0.0 0.0 0.0 1787.3049999999841
2.998790439547363 -1.306818752959659 1.7020735535341616 -1.9660511458480658 -1.5707963084729977 1.4279941142104835 0.0 0.0 0.0 0.0 0.0 0.0 1787.354999999984
2.9987903255109356 -1.296527187429481 1.7203008507799544 -1.994570014155218 -1.5707963028085596 1.4279940005238523 0.0 0.0 0.0 0.0 0.0 0.0 1787.404999999984
2.9987902154869475 -1.2865977367672303 1.7378868097069584 -2.0220854290810366 -1.5707962973434284 1.4279938908373528 0.0 0.0 0.0 0.0 0.0 0.0 1787.454999999984
2.9987901170665014 -1.2777154831554713 1.7536180875498977 -2.046698965309484 -1.5707962924546703 1.4279937927188024 0.0 0.0 0.0 0.0 0.0 0.0 1787.504999999984
2.9987900365393676 -1.2704480661169013 1.7664893431604003 -2.066837641864416 -1.570796288454712 1.4279937124386781 0.0 0.0 0.0 0.0 0.0 0.0 1787.554999999984
2.9987899780264295 -1.2651673874077691 1.7758419047516023 -2.0814708850028403 -1.5707962855482467 1.4279936541052232 1.0627542941518994e-07 -0.009591150555908087 -0.016986798713865346 0.026577954424518324 -5.278932248500125e-09 1.0594943922081223e-07 1787.6049999999839
2.9987899426121305 -1.2619713159112986 1.78150243764275 -2.090327491108181 -1.5707962837891414 1.4279936187995546 3.665417871666755e-07 -0.03307968252956055 -0.05858712209476008 0.09166682240293055 -1.8206929591765738e-08 3.654174536391279e-07 1787.6549999999838
2.998789927476919 -1.2606053925311085 1.7839216120038028 -2.094112589583536 -1.5707962830373423 1.4279936037107688 7.027191659290111e-07 -0.06341903632886164 -0.1123208731284158 0.17573994354171302 -3.490559282681716e-08 7.005636389294524e-07 1787.7049999999838
2.9987899250296923 -1.260384535084634 1.784312770600037 -2.0947246057449442 -1.5707962829157833 1.4279936012710488 1.0497409762643252e-06 -0.09473707896039825 -0.16778797096960874 0.2625251008462626 -5.2142922617837975e-08 1.0465209914872064e-06 1787.7549999999837
2.9987899250296923 -1.260384535084634 1.784312770600037 -2.0947246057449442 -1.5707962829157833 1.4279936012710488 1.3555539466223208e-06 -0.1223361040294399 -0.21666835094216008 0.3390045207208971 -6.733331949617508e-08 1.3513959084287277e-06 1787.8049999999837
2.9987899250296923 -1.260384535084634 1.784312770600037 -2.0947246057449442 -1.5707962829157833 1.4279936012710488 1.581118123340275e-06 -0.14269283173993869 -0.25272196453893553 0.3954148729688543 -7.85375838603386e-08 1.5762681875912677e-06 1787.8549999999836
2.9987899250296923 -1.260384535084634 1.784312770600037 -2.0947246057449442 -1.5707962829157833 1.4279936012710488 1.7004068706430388e-06 -0.1534584088945294 -0.2717887794218455 0.42524727079229324 -8.446291597600199e-08 1.6951910275329957e-06 1787.9049999999836
2.9987899250296923 -1.260384535084634 1.784312770600037 -2.0947246057449442 -1.5707962829157833 1.4279936012710488 1.7004068706430395e-06 -0.15345840889452939 -0.27178877942184554 0.42524727079229313 -8.446291597600203e-08 1.6951910275329953e-06 1787.9549999999836
2.9987899250296923 -1.260384535084634 1.784312770600037 -2.0947246057449442 -1.5707962829157833 1.4279936012710488 1.5811181233402768e-06 -0.14269283173993874 -0.25272196453893564 0.3954148729688544 -7.853758386033864e-08 1.5762681875912685e-06 1788.0049999999835
2.9987899250296923 -1.260384535084634 1.784312770600037 -2.0947246057449447 -1.5707962829157833 1.4279936012710488 1.3555539466223227e-06 -0.12233610402944008 -0.21666835094216033 0.33900452072089776 -6.733331949617514e-08 1.3513959084287292e-06 1788.0549999999835
2.998789927476919 -1.2606053925311085 1.7839216120038028 -2.0941125895835366 -1.5707962830373423 1.4279936037107688 1.0497409762643281e-06 -0.0947370789603985 -0.16778797096960896 0.26252510084626285 -5.2142922617838075e-08 1.0465209914872075e-06 1788.1049999999834
2.9987899426121305 -1.2619713159112986 1.78150243764275 -2.0903274911081806 -1.5707962837891414 1.4279936187995546 7.027191659290074e-07 -0.06341903632886155 -0.11232087312841552 0.17573994354171302 -3.490559282681706e-08 7.005636389294505e-07 1788.1549999999834
2.9987899780264295 -1.2651673874077691 1.7758419047516023 -2.0814708850028403 -1.5707962855482467 1.4279936541052232 3.665417871666709e-07 -0.03307968252956038 -0.05858712209475943 0.09166682240292927 -1.8206929591765718e-08 3.654174536391248e-07 1788.2049999999833
2.9987900365393676 -1.2704480661169013 1.7664893431604003 -2.066837641864416 -1.570796288454712 1.4279937124386781 1.0627542941519125e-07 -0.009591150555907998 -0.016986798713864864 0.02657795442451785 -5.278932248499876e-09 1.0594943922081034e-07 1788.2549999999833
2.9987901170665014 -1.2777154831554713 1.7536180875498977 -2.0466989653094845 -1.5707962924546703 1.4279937927188024 0.0 0.0 0.0 0.0 0.0 0.0 1788.3049999999832
2.9987902154869475 -1.2865977367672303 1.7378868097069584 -2.0220854290810366 -1.5707962973434284 1.4279938908373528 0.0 0.0 0.0 0.0 0.0 0.0 1788.3549999999832
2.9987903255109356 -1.296527187429481 1.7203008507799544 -1.994570014155218 -1.5707963028085596 1.4279940005238523 0.0 0.0 0.0 0.0 0.0 0.0 1788.4049999999831
2.998790439547363 -1.306818752959659 1.7020735535341616 -1.9660511458480658 -1.5707963084729977 1.4279941142104835 0.0 0.0 0.0 0.0 0.0 0.0 1788.454999999983
2.998790549571351 -1.3167482036219098 1.6844875946071576 -1.9385357309222473 -1.570796313938129 1.427994223896983 0.0 0.0 0.0 0.0 0.0 0.0 1788.504999999983
2.998790647991797 -1.3256304572336686 1.6687563167642183 -1.9139221946937996 -1.570796318826887 1.4279943220155333 0.0 0.0 0.0 0.0 0.0 0.0 1788.554999999983
2.998790728518931 -1.3328978742722388 1.6558850611537157 -1.893783518138868 -1.5707963228268453 1.4279944022956577 0.0 0.0 0.0 0.0 0.0 0.0 1788.604999999983
2.998790787031869 -1.338178552981371 1.6465324995625137 -1.8791502750004434 -1.5707963257333106 1.4279944606291126 0.0 0.0 0.0 0.0 0.0 0.0 1788.654999999983
2.998790822446168 -1.3413746244778415 1.640871966671366 -1.8702936688951028 -1.570796327492416 1.4279944959347812 0.0 0.0 0.0 0.0 0.0 0.0 1788.7049999999829
2.9987908375813794 -1.3427405478580317 1.6384527923103132 -1.8665085704197475 -1.570796328244215 1.427994511023567 0.0 0.0 0.0 0.0 0.0 0.0 1788.7549999999828
2.9987908400286063 -1.342961405304506 1.638061633714079 -1.8658965542583394 -1.570796328365774 1.427994513463287 0.0 0.0 0.0 0.0 0.0 0.0 1788.8049999999828
2.9987908400286063 -1.342961405304506 1.638061633714079 -1.8658965542583394 -1.570796328365774 1.427994513463287 0.0 0.0 0.0 0.0 0.0 0.0 1788.8549999999827
2.9987908400286063 -1.342961405304506 1.638061633714079 -1.8658965542583394 -1.570796328365774 1.427994513463287 0.0 0.0 0.0 0.0 0.0 0.0 1788.9049999999827
2.9987908400286063 -1.342961405304506 1.638061633714079 -1.8658965542583394 -1.570796328365774 1.427994513463287 0.0 0.0 0.0 0.0 0.0 0.0 1788.9549999999826
2.9987908400286063 -1.342961405304506 1.638061633714079 -1.8658965542583394 -1.570796328365774 1.427994513463287 0.0 0.0 0.0 0.0 0.0 0.0 1789.0049999999826
2.9987908400286063 -1.342961405304506 1.638061633714079 -1.8658965542583394 -1.570796328365774 1.427994513463287 0.0 0.0 0.0 0.0 0.0 0.0 1789.0549999999826
2.9987908400286063 -1.342961405304506 1.638061633714079 -1.8658965542583394 -1.570796328365774 1.427994513463287 0.0 0.0 0.0 0.0 0.0 0.0 1789.1049999999825
2.9987908400286063 -1.342961405304506 1.638061633714079 -1.8658965542583394 -1.570796328365774 1.427994513463287 0.0 0.0 0.0 0.0 0.0 0.0 1789.1549999999825
2.9987908400286063 -1.342961405304506 1.638061633714079 -1.8658965542583394 -1.570796328365774 1.427994513463287 0.0 0.0 0.0 0.0 0.0 0.0 1789.2049999999824
2.9987908400286063 -1.342961405304506 1.638061633714079 -1.8658965542583394 -1.570796328365774 1.427994513463287 0.0 0.0 0.0 0.0 0.0 0.0 1789.2549999999824
2.9987908400286063 -1.342961405304506 1.638061633714079 -1.8658965542583394 -1.570796328365774 1.427994513463287 0.0 0.0 0.0 0.0 0.0 0.0 1789.3049999999823
2.9987908400286063 -1.342961405304506 1.638061633714079 -1.8658965542583394 -1.570796328365774 1.427994513463287 0.0 0.0 0.0 0.0 0.0 0.0 1789.3549999999823
2.9987908400286063 -1.342961405304506 1.638061633714079 -1.8658965542583394 -1.570796328365774 1.427994513463287 0.0 0.0 0.0 0.0 0.0 0.0 1789.4049999999822
2.9987908400286063 -1.342961405304506 1.638061633714079 -1.8658965542583394 -1.570796328365774 1.427994513463287 0.0 0.0 0.0 0.0 0.0 0.0 1789.4549999999822
2.9987908400286063 -1.342961405304506 1.638061633714079 -1.8658965542583394 -1.570796328365774 1.427994513463287 0.0 0.0 0.0 0.0 0.0 0.0 1789.5049999999821
2.9987908400286063 -1.342961405304506 1.638061633714079 -1.8658965542583394 -1.570796328365774 1.427994513463287 0.0 0.0 0.0 0.0 0.0 0.0 1789.554999999982
2.9987908400286063 -1.342961405304506 1.638061633714079 -1.8658965542583394 -1.570796328365774 1.427994513463287 0.0 0.0 0.0 0.0 0.0 0.0 1789.604999999982
2.9987908400286063 -1.342961405304506 1.638061633714079 -1.8658965542583394 -1.570796328365774 1.427994513463287 0.0 0.0 0.0 0.0 0.0 0.0 1789.654999999982
2.9987908400286063 -1.342961405304506 1.638061633714079 -1.8658965542583394 -1.570796328365774 1.427994513463287 0.0 0.0 0.0 0.0 0.0 0.0 1789.704999999982
2.9987908400286063 -1.342961405304506 1.638061633714079 -1.8658965542583394 -1.570796328365774 1.427994513463287 0.0 0.0 0.0 0.0 0.0 0.0 1789.754999999982
2.9987908400286063 -1.342961405304506 1.638061633714079 -1.8658965542583394 -1.570796328365774 1.427994513463287 0.0 0.0 0.0 0.0 0.0 0.0 1789.8049999999819
2.9987908400286063 -1.342961405304506 1.638061633714079 -1.8658965542583394 -1.570796328365774 1.427994513463287 0.0 0.0 0.0 0.0 0.0 0.0 1789.8549999999818
2.9987908400286063 -1.342961405304506 1.638061633714079 -1.8658965542583394 -1.570796328365774 1.427994513463287 0.0 0.0 0.0 0.0 0.0 0.0 1789.9049999999818
2.9987908400286063 -1.342961405304506 1.638061633714079 -1.8658965542583394 -1.570796328365774 1.427994513463287 0.0 0.0 0.0 0.0 0.0 0.0 1789.9549999999817
2.9987908400286063 -1.342961405304506 1.638061633714079 -1.8658965542583394 -1.570796328365774 1.427994513463287 0.023068858038991405 -0.003667251634826676 0.004214657653766974 -0.0005474060372243363 3.120402915744725e-11 0.023068858035073872 1790.0049999999817
2.9987908400286063 -1.342961405304506 1.638061633714079 -1.8658965542583394 -1.570796328365774 1.427994513463287 0.08760402632032502 -0.013926394110952582 0.016005169367625274 -0.0020787753261063556 1.1849735201407975e-10 0.08760402630544818 1790.0549999999816
2.9987908400286063 -1.342961405304506 1.638061633714079 -1.8658965542583394 -1.570796328365774 1.427994513463287 0.18687140032768776 -0.02970690821347763 0.03414122087578099 -0.004434312810414891 2.527711000979011e-10 0.18687140029595345 1790.1049999999816
2.9987908400286063 -1.342961405304506 1.638061633714079 -1.8658965542583394 -1.570796328365774 1.427994513463287 0.314500881194297 -0.04999614063100983 0.05745900138626691 -0.0074628610045258635 4.254087762056714e-10 0.31450088114088876 1790.1549999999816
2.9987908400286063 -1.342961405304506 1.638061633714079 -1.8658965542583394 -1.570796328365774 1.427994513463287 0.46448637570290047 -0.07383930395566529 0.08486120358094251 -0.011021899993422287 6.282862544029072e-10 0.46448637562402184 1790.2049999999815
2.9987908400286063 -1.342961405304506 1.638061633714079 -1.8658965542583394 -1.570796328365774 1.427994513463287 0.6311857962857766 -0.10033947668306833 0.11531702361549401 -0.014977547432694268 8.537717800238822e-10 0.6311857961785893 1790.2549999999815
2.9987908400286063 -1.342961405304506 1.638061633714079 -1.8658965542583394 -1.570796328365774 1.427994513463287 0.8093210610247339 -0.12865760321235126 0.14786216111943426 -0.019204558548538996 1.0947259696716257e-09 0.8093210608872958 1790.3049999999814
2.9987908400286063 -1.342961405304506 1.638061633714079 -1.8658965542583394 -1.570796328365774 1.427994513463287 0.9939780936511114 -0.1580124938461545 0.18159881919610282 -0.023586326137760752 1.3445018112179245e-09 0.993978093482315 1790.3549999999814
2.9987908400286063 -1.342961405304506 1.638061633714079 -1.8658965542583394 -1.570796328365774 1.427994513463287 1.1806068235457787 -0.1876808247906267 0.21569570442266597 -0.028014880567770913 1.5969446638033208e-09 1.1806068233452893 1790.4049999999813
2.9987908400286063 -1.342961405304506 1.638061633714079 -1.8658965542583392 -1.570796328365774 1.427994513463287 1.3650211857391361 -0.21699713815542454 0.24938802685011674 -0.032390889776587946 1.846392257837115e-09 1.3650211855073295 1790.4549999999813
2.998985557772935 -1.3429923595444173 1.6380972084542795 -1.8659011747587828 -1.5707963283655106 1.4281892312075826 1.5433991209111138 -0.24535384195371288 0.28197750000327476 -0.036623659272837394 2.087674694997363e-09 1.5433991206490152 1790.5049999999812
3.0002897344032284 -1.3431996842360627 1.6383354802407475 -1.8659321218546392 -1.5707963283637465 1.4294934078376544 1.7122825753911723 -0.2722012101021646 0.3128323408807865 -0.04063113213575192 2.3161144482308773e-09 1.7122825751003943 1790.5549999999812
3.003655093023988 -1.3437346746063228 1.6389503279477593 -1.8660119791940581 -1.5707963283591944 1.4328587664578423 1.868577501158304 -0.29704738242096074 0.3413872699551249 -0.04433988901517125 2.5275263617532273e-09 1.868577500840984 1790.6049999999811
3.009869554197426 -1.3447225862254997 1.640085703886369 -1.8661594435184163 -1.5707963283507884 1.4390732276302254 2.0095538558410286 -0.3194583646337904 0.36714351117258975 -0.04768514813154219 2.7182176510487383e-09 2.0095538554997683 1790.654999999981
3.0195663360847056 -1.346264081654904 1.6418572963912539 -1.8663895406015825 -1.570796328337672 1.448770009515858 2.1328456027174 -0.33905802836785087 0.38966879195330745 -0.05061076527591866 2.8849879028704922e-09 2.1328456023552027 1790.704999999981
3.033233054587176 -1.3484366770944436 1.644354192407561 -1.8667138411891822 -1.570796328319186 1.462436728016008 2.2364507107150007 -0.3555281111538477 0.4085973431912313 -0.053069233809961695 3.0251290752403295e-09 2.236450710335209 1790.754999999981
3.0512208234876144 -1.351296189030211 1.647640540077753 -1.8671406769378633 -1.5707963282948547 1.4804244969133915 2.3187311544109437 -0.3686082164259942 0.4236298992541412 -0.05502168466593937 3.1364254974488446e-09 2.3187311540171787 1790.804999999981
3.073753354591461 -1.3548781808820702 1.6517572113284518 -1.867675356354562 -1.5707963282643762 1.5029570280134117 2.3784129140318706 -0.3780958135220116 0.4345336979836434 -0.05643788634672684 3.2171538700553887e-09 2.37841291362797 1790.854999999981
3.1009360578680587 -1.3591994096512456 1.6567234644572866 -1.8683203807357662 -1.5707963282276076 1.5301397312853933 2.414585975453957 -0.3838462376831303 0.4411424806951714 -0.057296244925806386 3.2660832648880725e-09 2.4145859750439143 1790.9049999999809
3.132765141591892 -1.3642592725679088 1.6625386067197385 -1.8690756601067822 -1.570796328184554 1.5619688150038211 2.4267043302029085 -0.3857726900540881 0.44335649217798534 -0.057583804047267456 3.28247512504376e-09 2.426704329790808 1790.9549999999808
3.1691367124838234 -1.3700412537387672 1.6691836569159861 -1.869938729160999 -1.570796328135356 1.5983403858895764 2.414585975453958 -0.3838462376831305 0.4411424806951716 -0.05729624492580641 3.2660832648880733e-09 2.4145859750439147 1791.0049999999808
3.2098558758523343 -1.3765143707946503 1.6766230079777515 -1.8709049631991543 -1.5707963280802775 1.6390595492511724 2.3784129140318693 -0.3780958135220115 0.43453369798364316 -0.056437886346726814 3.2171538700553875e-09 2.3784129136279697 1791.0549999999807
3.2546458357347605 -1.3836346215380995 1.6848060895551453 -1.871967794068599 -1.5707963280196924 1.6838495091259924 2.3187311544109432 -0.36860821642599406 0.42362989925414113 -0.05502168466593936 3.1364254974488434e-09 2.318731154017179 1791.1049999999807
3.3031569950385324 -1.3913464305909533 1.6936690306035131 -1.8731189261025623 -1.570796327954074 1.732360668421526 2.2364507107149985 -0.3555281111538474 0.40859734319123076 -0.05306923380996166 3.0251290752403257e-09 2.236450710335208 1791.1549999999806
3.354976055682412 -1.399584096041937 1.7031363219702813 -1.8743485520594176 -1.570796327883981 1.7841797290566057 2.132845602717399 -0.33905802836785087 0.38966879195330734 -0.0506107652759187 2.8849879028704922e-09 2.132845602355202 1791.2049999999806
3.4096351187377323 -1.4082732360942498 1.7131224789818016 -1.875645569061947 -1.5707963278100465 1.838838792102644 2.0095538558410317 -0.31945836463379096 0.3671435111725902 -0.04768514813154222 2.718217651048742e-09 2.0095538554997705 1791.2549999999806
3.4666207845696344 -1.417332235713152 1.7235337040301972 -1.8769977945366068 -1.570796327732965 1.8958244579248689 1.8685775011583037 -0.2970473824209605 0.341387269955125 -0.04433988901517126 2.5275263617532273e-09 1.8685775008409828 1791.3049999999805
3.5253832529783073 -1.426673693273553 1.7342695491602096 -1.8783921821527922 -1.5707963276534802 1.9545869263235627 1.7122825753911721 -0.27220121010216447 0.31283234088078665 -0.04063113213575193 2.31611444823088e-09 1.7122825751003945 1791.3549999999805
3.5853454233402244 -1.4362058672075997 1.7452245786560425 -1.8798150377621037 -1.5707963275723724 2.014549096675297 1.5433991209111118 -0.24535384195371276 0.2819775000032744 -0.036623659272837394 2.0876746949973605e-09 1.5433991206490125 1791.4049999999804
3.645911994749382 -1.4458341226522629 1.7562900316282084 -1.8812522353376107 -1.5707963274904473 2.075115668074169 1.365021185739134 -0.21699713815542476 0.24938802685011674 -0.03239088977658797 1.846392257837115e-09 1.36502118550733 1791.4549999999804
