Andreas691667/Digital_Twin_UR/src/dt/dt_trajectories/demo_square_dt_trajectory.csv
actual_q_0 actual_q_1 actual_q_2 actual_q_3 actual_q_4 actual_q_5 actual_qd_0 actual_qd_1 actual_qd_2 actual_qd_3 actual_qd_4 actual_qd_5 timestamp
3.71207804710797 -0.8254843255005873 0.8429764792549035 -1.5882884806323445 -1.570796326807946 2.141281720311417 0.0 0.0 0.0 0.0 0.0 0.0 2899.421
3.71207804710797 -0.8254843255005873 0.8429764792549035 -1.5882884806323445 -1.570796326807946 2.141281720311417 0.0 0.0 0.0 0.0 0.0 0.0 2899.471
3.71207804710797 -0.8254843255005873 0.8429764792549035 -1.5882884806323445 -1.570796326807946 2.141281720311417 0.0 0.0 0.0 0.0 0.0 0.0 2899.521
3.71207804710797 -0.8254843255005873 0.8429764792549035 -1.5882884806323445 -1.570796326807946 2.141281720311417 0.023855026961953952 -0.012228570222165724 0.01852545001703213 -0.006296880079673455 -5.860726155913123e-09 0.023855026931807584 2899.5710000000004
3.71207804710797 -0.8254843255005873 0.8429764792549035 -1.5882884806323445 -1.570796326807946 2.141281720311417 0.0900454242221021 -0.04615910914881168 0.06992790275816863 -0.02376879468441637 -2.212244713872839e-08 0.09004542410830879 2899.6210000000005
3.71207804710797 -0.8254843255005873 0.8429764792549035 -1.5882884806323445 -1.570796326807946 2.141281720311417 0.1908596891870291 -0.0978385442836296 0.14821872295259747 -0.050380180947656755 -4.689059351355471e-08 0.19085968894583358 2899.6710000000007
3.71207804710797 -0.8254843255005873 0.8429764792549035 -1.5882884806323445 -1.570796326807946 2.141281720311417 0.31905368305686005 -0.16355338328160263 0.24777222292167708 -0.08421884344928154 -7.838541823549437e-08 0.31905368265366163 2899.721000000001
3.71207804710797 -0.8254843255005873 0.8429764792549035 -1.5882884806323445 -1.570796326807946 2.141281720311417 0.46785063082526024 -0.23982971394900535 0.36332566257893634 -0.12349595421563654 -1.149419966496431e-07 0.4678506302340223 2899.771000000001
3.71207804710797 -0.8254843255005873 0.8429764792549035 -1.5882884806323445 -1.570796326807946 2.141281720311417 0.6309411212794351 -0.3234332042434036 0.48997924943007437 -0.1665460527195265 -1.5501022649108997e-07 0.6309411204820945 2899.8210000000013
3.71207804710797 -0.8254843255005873 0.8429764792549035 -1.5882884806323445 -1.570796326807946 2.141281720311417 0.8024831070001307 -0.4113691022736548 0.6231961385729607 -0.21182704588021495 -1.971548278849174e-07 0.8024831059860069 2899.8710000000015
3.71207804710797 -0.8254843255005873 0.8429764792549035 -1.5882884806323445 -1.570796326807946 2.141281720311417 0.9771019043616339 -0.5008822362999081 0.7588024326976361 -0.25792020806342475 -2.400553433462015e-07 0.9771019031268388 2899.9210000000016
3.71207804710797 -0.8254843255005873 0.8429764792549035 -1.5882884806323445 -1.570796326807946 2.141281720311417 1.1498901935317707 -0.5894570147336031 0.8929871820863104 -0.303530181081337 -2.8250613778001143e-07 1.149890192078617 2899.971000000002
3.71207804710797 -0.8254843255005873 0.8429764792549035 -1.5882884806323445 -1.570796326807946 2.141281720311417 1.316408018471908 -0.6748174261374718 1.022302384613365 -0.3474849741925923 -3.234163984814099e-07 1.3164080168083205 2900.021000000002
3.712302100445105 -0.8255991797814494 0.8431504756584648 -1.5883476227577187 -1.5707963268629916 2.1415057736482686 1.472682786936953 -0.7549270392255368 1.1436629857453509 -0.3887359641022898 -3.6181013513545295e-07 1.4726827850758764 2900.071000000002
3.7137951763049775 -0.8263645607231098 0.8443099755935445 -1.588741741768964 -1.5707963272298118 2.142998849506254 1.6152092704753542 -0.8279890028631134 1.2543468785409906 -0.42635789496198784 -3.968261798171904e-07 1.6152092684341623 2900.1210000000024
3.717625071132552 -0.8283278424212271 0.8472842134894762 -1.5897526980125036 -1.5707963281707442 2.146828744328989 1.740949604429098 -0.8924460460668061 1.351994903651175 -0.45954887836970326 -4.277181869916645e-07 1.7409496022290039 2900.1710000000026
3.724651864131218 -0.8319299189042199 0.8527411137346294 -1.5916075218585575 -1.5707963298970935 2.153855537318775 1.8473332879337134 -0.9469804780045131 1.4346108493189675 -0.4876303933699122 -4.538546335139122e-07 1.8473332855991786 2900.2210000000027
3.7355408995903905 -0.837511859137468 0.8611973725539686 -1.5944818405746537 -1.5707963325723222 2.164744572764187 1.9322571839182703 -0.9905141879954236 1.5005614513796028 -0.5100472864535499 -4.7471881862896305e-07 1.9322571814764145 2900.271000000003
3.7507757692131087 -0.845321562027516 0.8730285398866147 -1.5985033051991422 -1.5707963363152397 2.179979442367652 1.9940855191053761 -1.0222086455100163 1.5485763932604824 -0.5263677715580098 -4.8990886397184e-07 1.9940855165853857 2900.321000000003
3.7706712944436314 -0.8555204114262757 0.8884791012634048 -1.6037550174147068 -1.5707963412031918 2.1998749675730322 2.0316498840111787 -1.0414649001700633 1.57774830598118 -0.5362834300671445 -4.991377135675594e-07 2.0316498814437174 2900.3710000000033
3.795386508795039 -0.8681899311352279 0.9076725596844525 -1.6102789564218791 -1.5707963472752495 2.2245901818932063 2.0442492329453703 -1.047923581748627 1.5875327681534408 -0.5396092108112658 -5.022331338311314e-07 2.044249230361986 2900.4210000000035
3.824937640176829 -0.8833384399096261 0.9306215174967081 -1.6180794058125498 -1.5707963545354002 2.2541413132376515 2.0316498840111787 -1.0414649001700629 1.5777483059811797 -0.5362834300671443 -4.991377135675594e-07 2.0316498814437174 2900.4710000000036
3.859211093222516 -0.9009077064626979 0.9572377582715189 -1.6271263804434823 -1.5707963629557353 2.288414766240026 1.9940855191053752 -1.022208645510015 1.548576393260481 -0.5263677715580095 -4.899088639718398e-07 1.9940855165853837 2900.521000000004
3.8979764316172294 -0.9207796044698482 0.9873423286821899 -1.6373590533098255 -1.5707963724796412 2.3271801045857505 1.93225718391827 -0.9905141879954228 1.5005614513796024 -0.5100472864535496 -4.7471881862896284e-07 1.9322571814764147 2900.571000000004
3.9408993604253117 -0.9427827675728616 1.0206756203815437 -1.648689182418626 -1.570796383024988 2.37010303333959 1.847333287933714 -0.9469804780045132 1.434610849318969 -0.4876303933699126 -4.538546335139122e-07 1.8473332855991806 2900.621000000004
3.987554708417918 -0.9666992443841051 1.0569074518794808 -1.6610045376623415 -1.5707963944873191 2.416758381273236 1.7409496044290982 -0.8924460460668051 1.3519949036511745 -0.459548878369703 -4.2771818699166425e-07 1.7409496022290025 2900.6710000000044
4.037439410400611 -0.9922711534907303 1.0956471504205398 -1.6741723276923528 -1.570796406743041 2.4666430831928885 1.6152092704753565 -0.8279890028631129 1.2543468785409924 -0.42635789496198845 -3.9682617981719086e-07 1.6152092684341646 2900.7210000000046
4.089985489540965 -1.0192073384588758 1.1364536338614584 -1.6880426267924775 -1.5707964196526127 2.519189162266838 1.4726827869369519 -0.754927039225535 1.1436629857453502 -0.38873596410228994 -3.6181013513545295e-07 1.472682785075875 2900.7710000000047
4.144573039696158 -1.0471900228378708 1.1788454925487324 -1.7024518017524817 -1.570796433063735 2.5737767123530473 1.3164080184719056 -0.6748174261374696 1.022302384613363 -0.3474849741925921 -3.2341639848140956e-07 1.3164080168083183 2900.821000000005
4.200543207740575 -1.0758814651644362 1.222311071196177 -1.7172259387415933 -1.5707964468145401 2.6297468803267323 1.149890193531769 -0.5894570147336013 0.8929871820863102 -0.3035301810813369 -2.8250613778001143e-07 1.149890192078617 2900.871000000005
4.257211175893402 -1.104930613966888 1.2663185507624877 -1.7321842701820154 -1.5707964607367817 2.6864148484079466 0.9771019043616311 -0.500882236299905 0.7588024326976346 -0.25792020806342425 -2.400553433462015e-07 0.9771019031268355 2900.9210000000053
4.313879144046229 -1.1339797627693398 1.310326030328798 -1.7471426016224372 -1.570796474659023 2.743082816489161 0.8024831070001325 -0.41136910227365375 0.6231961385729613 -0.21182704588021573 -1.9715482788491798e-07 0.8024831059860078 2900.9710000000055
4.369849312090646 -1.1626712050959052 1.353791608976243 -1.761916738611549 -1.5707964884098282 2.799052984462847 0.6309411212794366 -0.32343320424340394 0.4899792494300768 -0.16654605271952724 -1.5501022649109065e-07 0.6309411204820976 2901.0210000000056
4.424436862245839 -1.1906538894749001 1.3961834676635165 -1.776325913571553 -1.5707965018209504 2.853640534549055 0.46785063082526435 -0.23982971394900335 0.3633256625789371 -0.12349595421563694 -1.149419966496436e-07 0.4678506302340229 2901.071000000006
4.476982941386193 -1.2175900744430457 1.4369899511044353 -1.7901962126716777 -1.570796514730522 2.906186613623005 0.3190536830568661 -0.16355338328160324 0.24777222292168313 -0.08421884344928322 -7.83854182354961e-08 0.319053682653669 2901.121000000006
4.526867643368886 -1.2431619835496708 1.4757296496454944 -1.803364002701689 -1.570796526986244 2.956071315542658 0.19085968918702817 -0.09783854428362641 0.14821872295259736 -0.05038018094765664 -4.689059351355486e-08 0.19085968894583213 2901.171000000006
4.573522991361491 -1.267078460360914 1.5119614811434312 -1.8156793579454045 -1.5707965384485751 3.0027266634763032 0.09004542422210522 -0.04615910914881005 0.06992790275817184 -0.023768794684417095 -2.2122447138728622e-08 0.0900454241083121 2901.2210000000064
4.616445920169575 -1.289081623463928 1.5452947728427855 -1.8270094870542053 -1.570796548993922 3.0456495922301436 0.023855026961955853 -0.01222857022216262 0.018525450017031635 -0.0062968800796737905 -5.860726155913487e-09 0.023855026931808583 2901.2710000000066
4.655211258564289 -1.3089535214710786 1.575399343253457 -1.8372421599205484 -1.5707965585178278 3.0844149305758686 0.0 3.552713678800501e-15 0.0 0.0 0.0 0.0 2901.3210000000067
4.689484711609975 -1.3265227880241497 1.602015584028267 -1.8462891345514807 -1.570796566938163 3.118688383578242 0.0 0.0 0.0 0.0 0.0 0.0 2901.371000000007
4.719035842991765 -1.3416712967985478 1.6249645418405225 -1.8540895839421516 -1.5707965741983136 3.1482395149226874 1.175851356686474e-07 0.009951559092265838 0.017136165030307775 -0.027087722603038517 3.111292235389471e-08 1.1774543002974058e-07 2901.421000000007
4.743751057343172 -1.3543408165075 1.6441580002615697 -1.8606135229493235 -1.5707965802703714 3.1729547292428615 4.0554873322451856e-07 0.034322724216182175 0.059102283471877834 -0.09342500244721448 1.073078342409838e-07 4.0610158520461547e-07 2901.4710000000073
4.7636465825736956 -1.3645396659062594 1.65960856163836 -1.8658652351648883 -1.5707965851583234 3.192850254448242 7.775017134008522e-07 0.06580214583457411 0.11330851979223919 -0.1791106555792751 2.057262620951406e-07 7.785616189721624e-07 2901.5210000000075
4.778881452196413 -1.3723493687963073 1.6714397289710057 -1.8698866997893768 -1.570796588901241 3.2080851240517068 1.1614531768086803e-06 0.09829703266646254 0.16926334438099924 -0.26756036203817635 3.0731947794459265e-07 1.163036492538662e-06 2901.5710000000076
4.789770487655584 -1.3779313090295555 1.6798959877903443 -1.8727610185054726 -1.5707965915764697 3.218974159497118 1.4998104039368294e-06 0.1269331516870643 0.2185735335498441 -0.3455066658550832 3.968484994119224e-07 1.5018549748691404e-06 2901.621000000008
4.7967972806542525 -1.3815333855125485 1.6853528880354989 -1.8746158423515267 -1.570796593302819 3.2260009524869053 1.7493788551519177e-06 0.14805482812779175 0.2549441695325381 -0.402998975053369 4.628840897140663e-07 1.7517636426873653e-06 2901.671000000008
4.800627175481825 -1.383496667210665 1.688327125931429 -1.875626798595066 -1.5707965942437514 3.229830847309638 1.881362170698358e-06 0.15922494547625338 0.2741786404849244 -0.4334035616486164 4.978067576623154e-07 1.8839268804758495e-06 2901.721000000008
4.802120251341698 -1.3842620481523258 1.6894866258665089 -1.8760209176063116 -1.5707965946105715 3.2313239231676256 1.8813621706983582e-06 0.15922494547625346 0.27417864048492446 -0.43340356164861626 4.978067576623155e-07 1.883926880475849e-06 2901.7710000000084
4.802344304678834 -1.3843769024331887 1.689660622270071 -1.8760800597316858 -1.5707965946656173 3.231547976504478 1.7493788551519179e-06 0.1480548281277918 0.25494416953253835 -0.40299897505336935 4.6288408971406676e-07 1.751763642687367e-06 2901.8210000000086
4.802344304678834 -1.384376902433189 1.6896606222700719 -1.8760800597316862 -1.5707965946656173 3.2315479765044763 1.499810403936832e-06 0.1269331516870645 0.2185735335498444 -0.3455066658550835 3.968484994119231e-07 1.5018549748691423e-06 2901.8710000000087
4.802344307386492 -1.384147745783343 1.6900552203559738 -1.8767038144324433 -1.5707965939491735 3.2315479792158253 1.1614531768086823e-06 0.09829703266646278 0.16926334438099966 -0.267560362038177 3.0731947794459286e-07 1.163036492538664e-06 2901.921000000009
4.802344324132375 -1.3827304948337065 1.6924956667159023 -1.8805615115256038 -1.5707965895182276 3.2315479959845366 7.775017134008516e-07 0.06580214583457385 0.11330851979223901 -0.1791106555792753 2.057262620951401e-07 7.785616189721627e-07 2901.971000000009
4.802344363315421 -1.3794143239348313 1.6982059731377366 -1.8895879883399567 -1.5707965791504284 3.2315480352209986 4.0554873322451576e-07 0.03432272421618183 0.059102283471877334 -0.09342500244721406 1.0730783424098302e-07 4.061015852046111e-07 2902.0210000000093
4.802344428055237 -1.3739352121312087 1.7076407725712601 -1.9045018987404798 -1.5707965620203306 3.231548100049069 1.1758513566864437e-07 0.009951559092265624 0.017136165030307658 -0.02708772260303806 3.1112922353894273e-08 1.1774543002974056e-07 2902.0710000000095
4.802344517151974 -1.366394705944188 1.720625206189633 -1.9250268373944897 -1.5707965384454132 3.2315481892672646 0.0 0.0 0.0 0.0 0.0 0.0 2902.1210000000096
4.802344626046208 -1.3571786821548983 1.736494810450864 -1.9501124640377867 -1.5707965096320957 3.2315482983099457 0.0 0.0 0.0 0.0 0.0 0.0 2902.17100000001
4.80234474777882 -1.3468761105871672 1.7542354041592816 -1.978155627740803 -1.5707964774217549 3.231548420208505 0.0 0.0 0.0 0.0 0.0 0.0 2902.22100000001
4.8023448739508705 -1.3361978168904423 1.7726229755270069 -2.0072214911747506 -1.5707964440367426 3.2315485465525557 0.0 0.0 0.0 0.0 0.0 0.0 2902.27100000001
4.802344995683482 -1.325895245322711 1.7903635692354243 -2.035264654877767 -1.5707964118264017 3.231548668451115 0.0 0.0 0.0 0.0 0.0 0.0 2902.3210000000104
4.802345104577716 -1.3166792215334213 1.8062331734966552 -2.060350281521064 -1.5707963830130842 3.231548777493796 0.0 0.0 0.0 0.0 0.0 0.0 2902.3710000000106
4.802345193674453 -1.3091387153464007 1.8192176071150283 -2.0808752201750735 -1.5707963594381669 3.2315488667119916 0.0 0.0 0.0 0.0 0.0 0.0 2902.4210000000107
4.802345258414269 -1.3036596035427779 1.8286524065485519 -2.0957891305755973 -1.570796342308069 3.231548931540062 0.0 0.0 0.0 0.0 0.0 0.0 2902.471000000011
4.8023452975973155 -1.3003434326439027 1.8343627129703863 -2.1048156073899498 -1.5707963319402698 3.231548970776524 0.0 0.0 0.0 0.0 0.0 0.0 2902.521000000011
4.8023453143431984 -1.2989261816942663 1.8368031593303147 -2.1086733044831103 -1.570796327509324 3.2315489875452355 0.0 0.0 0.0 0.0 0.0 0.0 2902.5710000000113
4.8023453170508565 -1.2986970250444205 1.8371977574162166 -2.1092970591838673 -1.5707963267928802 3.2315489902565844 0.0 0.0 0.0 0.0 0.0 0.0 2902.6210000000115
4.8023453170508565 -1.2986970250444205 1.8371977574162166 -2.1092970591838673 -1.5707963267928802 3.2315489902565844 0.0 0.0 0.0 0.0 0.0 0.0 2902.6710000000116
4.8023453170508565 -1.2986970250444205 1.8371977574162166 -2.1092970591838673 -1.5707963267928802 3.2315489902565844 0.0 0.0 0.0 0.0 0.0 0.0 2902.721000000012
4.8023453170508565 -1.2986970250444205 1.8371977574162166 -2.1092970591838673 -1.5707963267928802 3.2315489902565844 0.0 0.0 0.0 0.0 0.0 0.0 2902.771000000012
4.8023453170508565 -1.2986970250444205 1.8371977574162166 -2.1092970591838673 -1.5707963267928802 3.2315489902565844 0.0 0.0 0.0 0.0 0.0 0.0 2902.821000000012
4.8023453170508565 -1.2986970250444205 1.8371977574162166 -2.1092970591838673 -1.5707963267928802 3.2315489902565844 -1.175851356686474e-07 -0.009951559092265838 -0.017136165030307775 0.027087722603038517 -3.111292235389471e-08 -1.1774543002974058e-07 2902.8710000000124
4.8023453170508565 -1.2986970250444205 1.8371977574162166 -2.1092970591838673 -1.5707963267928802 3.2315489902565844 -4.0554873322451856e-07 -0.034322724216182175 -0.059102283471877834 0.09342500244721448 -1.073078342409838e-07 -4.0610158520461547e-07 2902.9210000000126
4.8023453170508565 -1.2986970250444205 1.8371977574162166 -2.1092970591838673 -1.5707963267928802 3.2315489902565844 -7.775017134008522e-07 -0.06580214583457411 -0.11330851979223919 0.1791106555792751 -2.057262620951406e-07 -7.785616189721624e-07 2902.9710000000127
4.8023453170508565 -1.2986970250444205 1.8371977574162166 -2.1092970591838673 -1.5707963267928802 3.2315489902565844 -1.1614531768086803e-06 -0.09829703266646254 -0.16926334438099924 0.26756036203817635 -3.0731947794459265e-07 -1.163036492538662e-06 2903.021000000013
4.8023453170508565 -1.2986970250444205 1.8371977574162166 -2.1092970591838673 -1.5707963267928802 3.2315489902565844 -1.4998104039368294e-06 -0.1269331516870643 -0.2185735335498441 0.3455066658550832 -3.968484994119224e-07 -1.5018549748691404e-06 2903.071000000013
4.8023453170508565 -1.2986970250444205 1.8371977574162166 -2.1092970591838673 -1.5707963267928802 3.2315489902565844 -1.7493788551519177e-06 -0.14805482812779175 -0.2549441695325381 0.402998975053369 -4.628840897140663e-07 -1.7517636426873653e-06 2903.1210000000133
4.8023453170508565 -1.2986970250444205 1.8371977574162166 -2.1092970591838673 -1.5707963267928802 3.2315489902565844 -1.881362170698358e-06 -0.15922494547625338 -0.2741786404849244 0.4334035616486164 -4.978067576623154e-07 -1.8839268804758495e-06 2903.1710000000135
4.8023453170508565 -1.2986970250444205 1.8371977574162166 -2.1092970591838673 -1.5707963267928802 3.2315489902565844 -1.8813621706983582e-06 -0.15922494547625346 -0.27417864048492446 0.43340356164861626 -4.978067576623155e-07 -1.883926880475849e-06 2903.2210000000136
4.8023453170508565 -1.2986970250444205 1.8371977574162166 -2.1092970591838673 -1.5707963267928802 3.2315489902565844 -1.7493788551519179e-06 -0.1480548281277918 -0.25494416953253835 0.40299897505336935 -4.6288408971406676e-07 -1.751763642687367e-06 2903.271000000014
4.8023453170508565 -1.2986970250444205 1.8371977574162166 -2.1092970591838673 -1.5707963267928802 3.2315489902565844 -1.499810403936832e-06 -0.1269331516870645 -0.2185735335498444 0.3455066658550835 -3.968484994119231e-07 -1.5018549748691423e-06 2903.321000000014
4.8023453143431984 -1.2989261816942663 1.8368031593303147 -2.1086733044831103 -1.570796327509324 3.2315489875452355 -1.1614531768086823e-06 -0.09829703266646278 -0.16926334438099966 0.267560362038177 -3.0731947794459286e-07 -1.163036492538664e-06 2903.371000000014
4.8023452975973155 -1.300343432643903 1.8343627129703861 -2.1048156073899498 -1.5707963319402698 3.231548970776524 -7.775017134008516e-07 -0.06580214583457385 -0.11330851979223901 0.1791106555792753 -2.057262620951401e-07 -7.785616189721627e-07 2903.4210000000144
4.802345258414269 -1.303659603542778 1.8286524065485519 -2.095789130575597 -1.570796342308069 3.231548931540062 -4.0554873322451576e-07 -0.03432272421618183 -0.059102283471877334 0.09342500244721406 -1.0730783424098302e-07 -4.061015852046111e-07 2903.4710000000146
4.802345193674453 -1.3091387153464007 1.8192176071150283 -2.0808752201750735 -1.5707963594381669 3.2315488667119916 -1.1758513566864437e-07 -0.009951559092265624 -0.017136165030307658 0.02708772260303806 -3.1112922353894273e-08 -1.1774543002974056e-07 2903.5210000000147
4.802345104577716 -1.3166792215334213 1.8062331734966555 -2.060350281521064 -1.5707963830130842 3.231548777493796 0.0 0.0 0.0 0.0 0.0 0.0 2903.571000000015
4.802344995683482 -1.325895245322711 1.7903635692354245 -2.035264654877767 -1.5707964118264017 3.231548668451115 0.0 0.0 0.0 0.0 0.0 0.0 2903.621000000015
4.8023448739508705 -1.3361978168904423 1.7726229755270069 -2.0072214911747506 -1.5707964440367426 3.2315485465525557 -0.020137445579242703 3.5991056116828274e-05 -4.405207396457415e-05 8.061147453759416e-06 2.65412905919844e-09 -0.020137445565577547 2903.6710000000153
4.80234474777882 -1.3468761105871672 1.7542354041592816 -1.978155627740803 -1.5707964774217549 3.231548420208505 -0.07753884349771771 0.00013858286328216968 -0.00016962165610567249 3.103929186894334e-05 1.0219672447237568e-08 -0.07753884344510031 2903.7210000000155
4.802344626046208 -1.3571786821548981 1.7364948104508642 -1.9501124640377867 -1.5707965096320957 3.2315482983099457 -0.16781682576165624 0.00029993400948338664 -0.0003671110713551856 6.717814195267147e-05 2.2118372070764073e-08 -0.16781682564777672 2903.7710000000156
4.802344517151974 -1.366394705944188 1.7206252061896332 -1.9250268373944899 -1.5707965384454132 3.2315481892672646 -0.28675607802410397 0.0005125105890612784 -0.0006272990240594397 0.00011479028058041176 3.7794646624399285e-08 -0.28675607782951296 2903.821000000016
4.802344428055237 -1.3739352121312087 1.7076407725712601 -1.90450189874048 -1.5707965620203306 3.231548100049069 -0.43031333958492096 0.0007690862027100807 -0.0009413405979791966 0.00017225716479598037 5.6715591590739176e-08 -0.4303133392929129 2903.871000000016
4.802344363315421 -1.3794143239348315 1.6982059731377366 -1.8895879883399564 -1.5707965791504284 3.2315480352209986 -0.5946174033907821 0.0010627419574774667 -0.0013007672562896542 0.00023802912581154183 7.837097924035437e-08 -0.5946174029872782 2903.921000000016
4.802344324132375 -1.3827304948337067 1.6924956667159021 -1.8805615115256038 -1.5707965895182276 3.2315479959845366 -0.7759691160351759 0.0013868664667645457 -0.001697486841580445 0.00031062536900760873 1.0227325863179007e-07 -0.7759691155086078 2903.9710000000164
4.802344307386492 -1.384147745783343 1.6900552203559738 -1.876703814432443 -1.5707965939491735 3.2315479792158253 -0.9708413777584065 0.0017351558503258641 -0.002123783575855639 0.00038863397393304206 1.2795755561156622e-07 -0.9708413770995992 2904.0210000000166
4.802344304678834 -1.384376902433189 1.6896606222700719 -1.8760800597316862 -1.5707965946656173 3.2315479765044763 -1.1758791424475916 0.002101613734269405 -0.00257231806053374 0.000470711894305051 1.5498167281417734e-07 -1.1758791416496468 2904.0710000000167
4.802344304678834 -1.384376902433189 1.6896606222700719 -1.8760800597316862 -1.5707965946656173 3.2315479765044763 -1.387899417636663 0.0024805512510565867 -0.0030361272764476877 0.0005555849580091928 1.8292608966209253e-07 -1.3878994166948426 2904.121000000017
4.802218822343209 -1.3843766781623514 1.6896603477686656 -1.8760800095003098 -1.5707965946490787 3.231422494168937 -1.603891264506369 0.0028665870395022685 -0.0035086245838448593 0.0006420478670993735 2.113939623657557e-07 -1.6038912634179776 2904.171000000017
4.801368484365914 -1.3843751583786361 1.6896584875947263 -1.8760796691046129 -1.5707965945370035 3.230572156192218 -1.8210157978842703 0.0032546472447747424 -0.003983599722387066 0.0007289641977978469 2.400111239235853e-07 -1.8210157966485394 2904.2210000000173
4.799144106848085 -1.384371182815015 1.6896536216129634 -1.876078778672155 -1.5707965942438291 3.228347778675899 -2.0366061862447418 0.0036399655183957376 -0.004455218811150553 0.0008152664004952148 2.684260841219742e-07 -2.0366061848627126 2904.2710000000175
4.794976160356982 -1.3843637335685124 1.6896445039378152 -1.8760771102166842 -1.5707965936944908 3.2241798321876245 -2.2481676517089753 0.004018083018240423 -0.0049180243486260065 0.0008999557997504281 2.963100295352904e-07 -2.248167650183382 2904.3210000000176
4.7883715837473355 -1.3843519294056432 1.6896300559634596 -1.8760744663626903 -1.570796592824003 3.2175752555824597 -2.453377470044975 0.0043848484085373994 -0.005366935212718544 0.0009821025942907855 3.233568235258762e-07 -2.4533774683801273 2904.371000000018
4.778910597982704 -1.3843350200678508 1.6896093593938257 -1.8760706790699573 -1.5707965915770388 3.2081142698242484 -2.65008497066756 0.004736417859868711 -0.0057972466607477185 0.0010608458570119336 3.4928300624404847e-07 -2.6500849688692276 2904.421000000018
4.766243519956832 -1.3843123805769446 1.6895816492726032 -1.8760656083581149 -1.5707965899075091 3.1954471918069713 -2.836311536638363 0.0050692550491698305 -0.006204630329447519 0.001135393534977867 3.738277946280989e-07 -2.836311534713658 2904.471000000018
4.750087576314998 -1.3842835055405383 1.6895463070132548 -1.876059141031192 -1.570796587778145 3.179291248176102 -3.010250604665835 0.005380131159729677 -0.006585134234966376 0.0012050224494209308 3.96753082404294e-07 -3.0102506026230964 2904.5210000000184
4.730223717275382 -1.384248003457487 1.6895028534290257 -1.8760511894021688 -1.5707965851600747 3.1594273891499647 -3.1702676651052353 0.005666124881190596 -0.006935182772867143 0.0012690782957418148 4.178434400868744e-07 -3.1702676629539095 2904.5710000000186
4.706493430450407 -1.3842055910233269 1.6894509417629557 -1.8760416900175292 -1.5707965820324068 3.135697102341093 -3.3149002619586416 0.005924622409548376 -0.00725157671812712 0.0013269756435095594 4.3690611497805565e-07 -3.3149002597091695 2904.6210000000187
4.6787955546681035 -1.3841560874357106 1.689390350717889 -1.8760306023818132 -1.5707965783818079 3.1079992265775855 -3.442857992874947 0.006153317447152245 -0.007531493225138044 0.0013781979364615538 4.537710311680282e-07 -3.4428579905386436 2904.671000000019
4.647083093793463 -1.3840994086998475 1.689320977486485 -1.8760179076821688 -1.5707965742020837 3.076286765724465 -3.5530225091498586 0.006350211202704862 -0.007772485827706081 0.0014222974925035337 4.682907895349569e-07 -3.5530225067387975 2904.721000000019
4.611360030549791 -1.3840355619339404 1.689242830781231 -1.8760036075129058 -1.5707965694937598 3.0405637025050343 -3.6444475157258927 0.006513612391262325 -0.007972484439051832 0.0014588955037095836 4.803406677449809e-07 -3.644447513252792 2904.7710000000193
4.571678140340064 -1.383964639674623 1.6891560238644503 -1.875987722600047 -1.5707965642636594 3.000881812322235 -3.716358771192389 0.0066421372342341705 -0.008129795351810343 0.001487682036322137 4.89818620252215e-07 -3.71635876867049 2904.8210000000195
4.5281338050682844 -1.383886814182399 1.689060767578315 -1.8759702915258811 -1.5707965585244865 2.9573374770800043 -3.768154087785493 0.006734709459383363 -0.008243101238031078 0.0015084160307519742 4.966452782987472e-07 -3.7681540852284456 2904.8710000000196
4.480864826960836 -1.3838023317470793 1.688957363374856 -1.8759513694535155 -1.570796552294403 2.910068499004633 -3.799403331388168 0.006790560300826314 -0.008311461149177952 0.0015209253015782233 5.007639499146407e-07 -3.799403328809914 2904.92100000002
4.43004724238784 -1.3837115069932202 1.6888461963459744 -1.8759310268514275 -1.5707965455966106 2.859250914466121 -3.809848421530198 0.006809228499032871 -0.008334310516129317 0.0015251065375483652 5.021406199179346e-07 -3.8098484189448563 2904.97100000002
4.3758921356845075 -1.3836147171855606 1.6887277282534516 -1.8759093482180182 -1.5707965384589306 2.805095807799538 -3.799403331388169 0.0067905603008263146 -0.008311461149177954 0.0015209253015782238 5.007639499146409e-07 -3.7994033288099156 2905.02100000002
4.318642452972498 -1.3835123965344605 1.688602490558961 -1.8758864308061645 -1.5707965309133833 2.7478461251263777 -3.7681540877854935 0.006734709459383361 -0.008243101238031077 0.0015084160307519742 4.96645278298747e-07 -3.7681540852284456 2905.0710000000204
4.258569815981273 -1.3834050305013394 1.6884710774540777 -1.8758623833477708 -1.5707965229957688 2.6877734881759183 -3.7163587711923887 0.006642137234234168 -0.008129795351810336 0.0014876820363221364 4.898186202522147e-07 -3.7163587686704864 2905.1210000000206
4.195971335869454 -1.3832931501041128 1.6883341388902908 -1.8758373247783222 -1.5707965147452465 2.6251750081065772 -3.6444475157258944 0.006513612391262325 -0.007972484439051833 0.0014588955037095831 4.803406677449809e-07 -3.6444475132527927 2905.1710000000207
4.13116642704617 -1.3831773262226317 1.6881923736090134 -1.8758113829614371 -1.5707965062039153 2.56037009932727 -3.5530225091498613 0.006350211202704865 -0.00777248582770609 0.0014222974925035346 4.6829078953495723e-07 -3.5530225067387984 2905.221000000021
4.064493620992424 -1.3830581639041188 1.6880465221715932 -1.8757846934134188 -1.570796497416394 2.493697293318768 -3.44285799287495 0.006153317447152251 -0.007531493225138051 0.001378197936461555 4.5377103116802836e-07 -3.442857990538645 2905.271000000021
3.996307380082441 -1.3829362966686083 1.6878973599893237 -1.8757573980278084 -1.570796488429401 2.4255110524550547 -3.314900261958645 0.005924622409548378 -0.007251576718127125 0.0013269756435095596 4.369061149780556e-07 -3.314900259709171 2905.3210000000213
3.926974911405021 -1.382812380814382 1.6877456903534551 -1.8757296437999376 -1.5707964792913343 2.3561785838246845 -3.1702676651052384 0.0056661248811905925 -0.0069351827728671425 0.0012690782957418144 4.178434400868744e-07 -3.1702676629539077 2905.3710000000215
3.8568729805849036 -1.3826870897234085 1.6875923374652055 -1.8757015815514806 -1.570796470051852 2.2860766530521373 -3.0102506046658406 0.005380131159729684 -0.006585134234966388 0.0012050224494209328 3.967530824042947e-07 -3.0102506026231017 2905.4210000000216
3.7863847256041145 -1.3825611081667801 1.6874381394657707 -1.8756733646550066 -1.570796460761452 2.2155883981191815 -2.8363115366383678 0.005069255049169834 -0.006204630329447521 0.001135393534977869 3.738277946280992e-07 -2.836311534713662 2905.471000000022
3.7158964706233264 -1.3824351266101518 1.6872839414663359 -1.8756451477585327 -1.570796451471052 2.1451001431862258 -2.6500849706675615 0.0047364178598687115 -0.005797246660747719 0.001060845857011933 3.492830062440486e-07 -2.650084968869227 2905.521000000022
3.645794539803209 -1.3823098355191783 1.6871305885780863 -1.8756170855100758 -1.5707964422315697 2.074998212413679 -2.453377470044975 0.00438484840853739 -0.005366935212718536 0.0009821025942907838 3.2335682352587545e-07 -2.453377468380125 2905.571000000022
3.576462071125788 -1.382185919664952 1.6869789189422177 -1.875589331282205 -1.570796433093503 2.0056657437833074 -2.248167651708971 0.004018083018240413 -0.004918024348625999 0.0008999557997504261 2.9631002953528955e-07 -2.248167650183375 2905.6210000000224
3.508275830215805 -1.3820640524294414 1.6868297567599482 -1.8755620358965945 -1.57079642410651 1.9374795029195948 -2.0366061862447538 0.0036399655183957467 -0.00445521881115057 0.0008152664004952175 2.6842608412197556e-07 -2.0366061848627193 2905.6710000000226
3.4416030241620597 -1.3819448901109286 1.686683905322528 -1.8755353463485762 -1.5707964153189886 1.870806696911093 -1.821015797884273 0.0032546472447747437 -0.0039835997223870556 0.0007289641977978454 2.4001112392358486e-07 -1.8210157966485396 2905.7210000000227
3.3767981153387763 -1.3818290662294475 1.6865421400412506 -1.8755094045316911 -1.5707964067776574 1.806001788131786 -1.6038912645063752 0.0028665870395022802 -0.0035086245838448797 0.0006420478670993762 2.113939623657569e-07 -1.603891263417981 2905.771000000023
3.314199635226956 -1.3817171858322208 1.6864052014774638 -1.8754843459622426 -1.5707963985271352 1.7434033080624447 -1.3878994176366641 0.002480551251056579 -0.0030361272764476864 0.0005555849580091915 1.8292608966209194e-07 -1.3878994166948422 2905.821000000023
3.254126998235731 -1.3816098197990998 1.6862737883725805 -1.8754602985038489 -1.5707963906095206 1.683330671111985 -1.1758791424475976 0.0021016137342694196 -0.002572318060533749 0.0004707118943050548 1.5498167281417834e-07 -1.1758791416496552 2905.8710000000233
3.196877315523723 -1.3815074991479996 1.6861485506780898 -1.875437381091995 -1.5707963830639733 1.6260809884388259 -0.9708413777584048 0.001735155850325852 -0.0021237835758556294 0.0003886339739330392 1.2795755561156577e-07 -0.9708413770995966 2905.9210000000235
3.1427222088203894 -1.38141070934034 1.686030082585567 -1.8754157024585858 -1.5707963759262933 1.5719258817722421 -0.7759691160351738 0.0013868664667645366 -0.0016974868415804351 0.0003106253690076077 1.0227325863178963e-07 -0.7759691155086008 2905.9710000000237
3.091904624247393 -1.381319884586481 1.6859189155566854 -1.8753953598564979 -1.570796369228501 1.5211082972337298 -0.5946174033907983 0.0010627419574774945 -0.0013007672562896776 0.00023802912581154703 7.837097924035624e-08 -0.594617402987288 2906.021000000024
3.0446356461399438 -1.3812354021511613 1.6858155113532265 -1.8753764377841322 -1.5707963629984174 1.4738393191583563 -0.43031333958492934 0.0007690862027101016 -0.0009413405979792103 0.00017225716479598547 5.671559159074001e-08 -0.43031333929291476 2906.071000000024
3.001091310868164 -1.3811575766589372 1.6857202550670911 -1.8753590067099664 -1.5707963572592445 1.4302949839161272 -0.28675607802411773 0.0005125105890612947 -0.0006272990240594665 0.00011479028058041635 3.7794646624400463e-08 -0.2867560778295165 2906.121000000024
2.9614094206584394 -1.3810866543996199 1.6856334481503104 -1.8753431217971075 -1.5707963520291441 1.39061309373333 -0.16781682576166368 0.0002999340094833882 -0.000367111071355197 6.71781419526723e-05 2.211837207076538e-08 -0.16781682564777864 2906.1710000000244
2.925686357414766 -1.3810228076337128 1.6855553014450564 -1.8753288216278445 -1.5707963473208202 1.3548900305138978 -0.07753884349771914 0.00013858286328217117 -0.00016962165610567083 3.103929186894168e-05 1.0219672447237214e-08 -0.07753884344509623 2906.2210000000246
2.8939738965401256 -1.3809661288978496 1.6854859282136525 -1.8753161269282002 -1.570796343141096 1.323177569660778 -0.020137445579240753 3.59910561168149e-05 -4.4052073964576574e-05 8.061147453758736e-06 2.654129059197902e-09 -0.020137445565569557 2906.2710000000247
2.866276020757823 -1.3809166253102334 1.6854253371685857 -1.8753050392924842 -1.5707963394904971 1.2954796938972692 -7.105427357601002e-15 0.0 0.0 0.0 0.0 0.0 2906.321000000025
2.8425457339328464 -1.3808742128760731 1.6853734255025157 -1.8752955399078446 -1.5707963363628292 1.2717494070883972 0.0 0.0 0.0 0.0 0.0 0.0 2906.371000000025
2.8226818748932283 -1.380838710793022 1.6853299719182866 -1.8752875882788214 -1.570796333744759 1.2518855480622577 2.9669134446690066e-09 0.009920145809876602 0.017121653489155952 -0.027041799300624652 -1.7277580058008525e-10 2.966708258874725e-09 2906.4210000000253
2.8065259312513966 -1.3808098357566156 1.6852946296589382 -1.8752811209518985 -1.5707963316153948 1.2357296044313903 1.0232823921409431e-08 0.034214380446309096 0.0590522334625991 -0.0932666139143993 -5.959002101639676e-10 1.023211623979242e-08 2906.4710000000255
2.7938588532255273 -1.3807871962657094 1.6852669195377157 -1.875276050240056 -1.5707963299458652 1.223062526414116 1.9617958287199147e-08 0.06559443351836775 0.11321256592829651 -0.17880699945719158 -1.1424359058764823e-09 1.9616601548477777e-08 2906.5210000000257
2.7843978674608927 -1.380770286927917 1.6852462229680818 -1.875272262947323 -1.5707963286989008 1.213601540655902 2.9305838922853043e-08 0.0979867463669444 0.1691200058928874 -0.26710675227555775 -1.7066017853216586e-09 2.930381218970137e-08 2906.571000000026
2.7777932908512466 -1.3807584827650479 1.6852317749937262 -1.8752696190933291 -1.5707963278284132 1.206996964050738 3.784328373302305e-08 0.1265324720647526 0.21838843736168306 -0.34492090944674303 -2.2037729665827204e-09 3.784066656727967e-08 2906.621000000026
2.7736253443601444 -1.3807510335185453 1.685222657318578 -1.8752679506378584 -1.5707963272790748 1.2028290175624634 4.414040614619807e-08 0.14758747541632738 0.25472827333866715 -0.4023157487786811 -2.5704807882220853e-09 4.413735348407499e-08 2906.671000000026
2.7714009668423145 -1.3807470579549241 1.6852177913368152 -1.8752670602054005 -1.5707963269859004 1.2006046400461425 4.747061511470409e-08 0.15872233295802565 0.27394645582649524 -0.4326687888099945 -2.7644128092813644e-09 4.746733214199561e-08 2906.7210000000264
2.7705506288650183 -1.3807455381712088 1.6852159311628758 -1.8752667198097035 -1.5707963268738252 1.1997543020694224 4.7470615114704105e-08 0.15872233295802562 0.2739464558264953 -0.4326687888099944 -2.7644128092813636e-09 4.746733214199563e-08 2906.7710000000266
2.7704251465293916 -1.3807453139003714 1.6852156566614696 -1.875266669578327 -1.5707963268572867 1.199628819733885 4.414040614619809e-08 0.14758747541632755 0.2547282733386674 -0.4023157487786812 -2.570480788222086e-09 4.413735348407504e-08 2906.8210000000267
2.770425146529396 -1.3807453139003714 1.6852156566614696 -1.875266669578327 -1.5707963268572867 1.1996288197338867 3.784328373302309e-08 0.1265324720647528 0.21838843736168337 -0.3449209094467434 -2.203772966582724e-09 3.7840666567279743e-08 2906.871000000027
2.7704251465977157 -1.3805168806108037 1.6856099205870532 -1.875889366793515 -1.5707963268612652 1.1996288198022016 2.9305838922853132e-08 0.09798674636694456 0.16912000589288773 -0.26710675227555836 -1.7066017853216617e-09 2.930381218970143e-08 2906.921000000027
2.770425147020249 -1.37910410338271 1.6880483002863422 -1.8797405237211244 -1.5707963268858711 1.1996288202247054 1.9617958287199085e-08 0.06559443351836763 0.11321256592829655 -0.17880699945719117 -1.1424359058764815e-09 1.9616601548477737e-08 2906.9710000000273
2.770425148008917 -1.3757984003725279 1.693753771008562 -1.888751697454057 -1.5707963269434453 1.1996288212133055 1.023282392140934e-08 0.03421438044630891 0.0590522334625988 -0.09326661391439883 -5.959002101639602e-10 1.0232116239792332e-08 2907.0210000000275
2.7704251496424352 -1.3703365840383621 1.7031805807034248 -1.903640323483962 -1.5707963270385719 1.1996288228467105 2.9669134446689722e-09 0.009920145809876444 0.017121653489155668 -0.027041799300624468 -1.727758005800835e-10 2.96670825887477e-09 2907.0710000000277
2.770425151890528 -1.3628198803578648 1.7161540186210413 -1.9241304650832824 -1.5707963271694878 1.1996288250946479 0.0 0.0 0.0 0.0 0.0 0.0 2907.121000000028
2.770425154638152 -1.3536329480461127 1.732010183911832 -1.9491735626872997 -1.5707963273294936 1.199628827842082 0.0 0.0 0.0 0.0 0.0 0.0 2907.171000000028
2.770425157709715 -1.3433628977734864 1.749735754226439 -1.977169183276181 -1.5707963275083634 1.1996288309134322 0.0 0.0 0.0 0.0 0.0 0.0 2907.221000000028
2.7704251608932937 -1.3327183113835483 1.7681077543156363 -2.0061857697570247 -1.5707963276937567 1.199628834096791 0.0 0.0 0.0 0.0 0.0 0.0 2907.2710000000284
2.7704251639648567 -1.322448261110922 1.7858333246302431 -2.034181390345906 -1.5707963278726265 1.1996288371681414 0.0 0.0 0.0 0.0 0.0 0.0 2907.3210000000286
2.7704251667124806 -1.3132613287991701 1.8016894899210338 -2.0592244879499235 -1.5707963280326322 1.1996288399155755 0.0 0.0 0.0 0.0 0.0 0.0 2907.3710000000287
2.7704251689605734 -1.3057446251186726 1.8146629278386504 -2.0797146295492435 -1.5707963281635482 1.1996288421635128 0.0 0.0 0.0 0.0 0.0 0.0 2907.421000000029
2.7704251705940917 -1.3002828087845069 1.8240897375335132 -2.094603255579149 -1.5707963282586748 1.1996288437969178 -2.9669134446690066e-09 -0.009920145809876602 -0.017121653489155952 0.027041799300624652 1.7277580058008525e-10 -2.966708258874725e-09 2907.471000000029
2.77042517158276 -1.2969771057743245 1.8297952082557332 -2.1036144293120818 -1.570796328316249 1.199628844785518 -1.0232823921409431e-08 -0.034214380446309096 -0.0590522334625991 0.0932666139143993 5.959002101639676e-10 -1.023211623979242e-08 2907.5210000000293
2.770425172005293 -1.2955643285462308 1.832233587955022 -2.107465586239691 -1.5707963283408548 1.1996288452080217 -1.9617958287199147e-08 -0.06559443351836775 -0.11321256592829651 0.17880699945719158 1.1424359058764823e-09 -1.9616601548477777e-08 2907.5710000000295
2.7704251720736126 -1.2953358952566634 1.8326278518806056 -2.1080882834548786 -1.5707963283448334 1.1996288452763366 -2.9305838922853043e-08 -0.0979867463669444 -0.1691200058928874 0.26710675227555775 1.7066017853216586e-09 -2.930381218970137e-08 2907.6210000000297
2.7704251720736126 -1.2953358952566634 1.8326278518806056 -2.1080882834548786 -1.5707963283448334 1.1996288452763366 -3.784328373302305e-08 -0.1265324720647526 -0.21838843736168306 0.34492090944674303 2.2037729665827204e-09 -3.784066656727967e-08 2907.67100000003
2.7704251720736126 -1.2953358952566634 1.8326278518806056 -2.1080882834548786 -1.5707963283448334 1.1996288452763366 -4.414040614619807e-08 -0.14758747541632738 -0.25472827333866715 0.4023157487786811 2.5704807882220853e-09 -4.413735348407499e-08 2907.72100000003
2.7704251720736126 -1.2953358952566634 1.8326278518806056 -2.1080882834548786 -1.5707963283448334 1.1996288452763366 -4.747061511470409e-08 -0.15872233295802565 -0.27394645582649524 0.4326687888099945 2.7644128092813644e-09 -4.746733214199561e-08 2907.77100000003
2.7704251720736126 -1.2953358952566634 1.8326278518806056 -2.1080882834548786 -1.5707963283448334 1.1996288452763366 -4.7470615114704105e-08 -0.15872233295802562 -0.2739464558264953 0.4326687888099944 2.7644128092813636e-09 -4.746733214199563e-08 2907.8210000000304
2.7704251720736126 -1.2953358952566634 1.8326278518806056 -2.1080882834548786 -1.5707963283448334 1.1996288452763366 -4.414040614619809e-08 -0.14758747541632755 -0.2547282733386674 0.4023157487786812 2.570480788222086e-09 -4.413735348407504e-08 2907.8710000000306
2.7704251720736126 -1.2953358952566634 1.8326278518806056 -2.1080882834548786 -1.5707963283448334 1.1996288452763366 -3.784328373302309e-08 -0.1265324720647528 -0.21838843736168337 0.3449209094467434 2.203772966582724e-09 -3.7840666567279743e-08 2907.9210000000307
2.770425172005293 -1.295564328546231 1.832233587955022 -2.107465586239691 -1.5707963283408548 1.1996288452080217 -2.9305838922853132e-08 -0.09798674636694456 -0.16912000589288773 0.26710675227555836 1.7066017853216617e-09 -2.930381218970143e-08 2907.971000000031
2.77042517158276 -1.2969771057743247 1.829795208255733 -2.1036144293120813 -1.570796328316249 1.199628844785518 -1.9617958287199085e-08 -0.06559443351836763 -0.11321256592829655 0.17880699945719117 1.1424359058764815e-09 -1.9616601548477737e-08 2908.021000000031
2.7704251705940917 -1.3002828087845069 1.8240897375335132 -2.0946032555791487 -1.5707963282586748 1.1996288437969178 -1.023282392140934e-08 -0.03421438044630891 -0.0590522334625988 0.09326661391439883 5.959002101639602e-10 -1.0232116239792332e-08 2908.0710000000313
2.7704251689605734 -1.3057446251186726 1.8146629278386504 -2.0797146295492435 -1.5707963281635482 1.1996288421635128 -2.9669134446689722e-09 -0.009920145809876444 -0.017121653489155668 0.027041799300624468 1.727758005800835e-10 -2.96670825887477e-09 2908.1210000000315
2.7704251667124806 -1.31326132879917 1.8016894899210338 -2.0592244879499235 -1.5707963280326322 1.1996288399155755 0.0 0.0 0.0 0.0 0.0 0.0 2908.1710000000317
2.7704251639648567 -1.322448261110922 1.7858333246302431 -2.034181390345906 -1.5707963278726265 1.1996288371681414 0.0 0.0 0.0 0.0 0.0 0.0 2908.221000000032
2.7704251608932937 -1.3327183113835483 1.7681077543156363 -2.0061857697570247 -1.5707963276937567 1.199628834096791 0.0 0.0 0.0 0.0 0.0 0.0 2908.271000000032
2.770425157709715 -1.3433628977734864 1.749735754226439 -1.977169183276181 -1.5707963275083634 1.1996288309134322 0.0 0.0 0.0 0.0 0.0 0.0 2908.321000000032
2.770425154638152 -1.3536329480461127 1.732010183911832 -1.9491735626872997 -1.5707963273294936 1.199628827842082 0.0 0.0 0.0 0.0 0.0 0.0 2908.3710000000324
2.770425151890528 -1.3628198803578646 1.7161540186210413 -1.9241304650832824 -1.5707963271694878 1.1996288250946479 0.0 0.0 0.0 0.0 0.0 0.0 2908.4210000000326
2.7704251496424352 -1.3703365840383621 1.7031805807034248 -1.9036403234839623 -1.5707963270385719 1.1996288228467105 0.0 0.0 0.0 0.0 0.0 0.0 2908.4710000000327
2.770425148008917 -1.3757984003725279 1.693753771008562 -1.8887516974540568 -1.5707963269434453 1.1996288212133055 0.0 0.0 0.0 0.0 0.0 0.0 2908.521000000033
2.770425147020249 -1.3791041033827103 1.688048300286342 -1.879740523721124 -1.5707963268858711 1.1996288202247054 0.0 0.0 0.0 0.0 0.0 0.0 2908.571000000033
2.7704251465977157 -1.380516880610804 1.6856099205870532 -1.8758893667935146 -1.5707963268612652 1.1996288198022016 0.0 0.0 0.0 0.0 0.0 0.0 2908.6210000000333
2.770425146529396 -1.3807453139003714 1.6852156566614696 -1.8752666695783269 -1.5707963268572867 1.1996288197338867 0.0 0.0 0.0 0.0 0.0 0.0 2908.6710000000335
2.770425146529396 -1.3807453139003714 1.6852156566614696 -1.8752666695783269 -1.5707963268572867 1.1996288197338867 0.0 0.0 0.0 0.0 0.0 0.0 2908.7210000000337
2.770425146529396 -1.3807453139003714 1.6852156566614696 -1.8752666695783269 -1.5707963268572867 1.1996288197338867 0.0 0.0 0.0 0.0 0.0 0.0 2908.771000000034
2.770425146529396 -1.3807453139003714 1.6852156566614696 -1.8752666695783269 -1.5707963268572867 1.1996288197338867 0.0 0.0 0.0 0.0 0.0 0.0 2908.821000000034
2.770425146529396 -1.3807453139003714 1.6852156566614696 -1.8752666695783269 -1.5707963268572867 1.1996288197338867 0.0 0.0 0.0 0.0 0.0 0.0 2908.871000000034
2.770425146529396 -1.3807453139003714 1.6852156566614696 -1.8752666695783269 -1.5707963268572867 1.1996288197338867 0.0 0.0 0.0 0.0 0.0 0.0 2908.9210000000344
2.770425146529396 -1.3807453139003714 1.6852156566614696 -1.8752666695783269 -1.5707963268572867 1.1996288197338867 0.0 0.0 0.0 0.0 0.0 0.0 2908.9710000000346
2.770425146529396 -1.3807453139003714 1.6852156566614696 -1.8752666695783269 -1.5707963268572867 1.1996288197338867 0.0 0.0 0.0 0.0 0.0 0.0 2909.0210000000347
2.770425146529396 -1.3807453139003714 1.6852156566614696 -1.8752666695783269 -1.5707963268572867 1.1996288197338867 0.0 0.0 0.0 0.0 0.0 0.0 2909.071000000035
2.770425146529396 -1.3807453139003714 1.6852156566614696 -1.8752666695783269 -1.5707963268572867 1.1996288197338867 0.0 0.0 0.0 0.0 0.0 0.0 2909.121000000035
2.770425146529396 -1.3807453139003714 1.6852156566614696 -1.8752666695783269 -1.5707963268572867 1.1996288197338867 0.0 0.0 0.0 0.0 0.0 0.0 2909.1710000000353
2.770425146529396 -1.3807453139003714 1.6852156566614696 -1.8752666695783269 -1.5707963268572867 1.1996288197338867 0.0 0.0 0.0 0.0 0.0 0.0 2909.2210000000355
2.770425146529396 -1.3807453139003714 1.6852156566614696 -1.8752666695783269 -1.5707963268572867 1.1996288197338867 0.0 0.0 0.0 0.0 0.0 0.0 2909.2710000000357
2.770425146529396 -1.3807453139003714 1.6852156566614696 -1.8752666695783269 -1.5707963268572867 1.1996288197338867 0.0 0.0 0.0 0.0 0.0 0.0 2909.321000000036
2.770425146529396 -1.3807453139003714 1.6852156566614696 -1.8752666695783269 -1.5707963268572867 1.1996288197338867 0.0 0.0 0.0 0.0 0.0 0.0 2909.371000000036
2.770425146529396 -1.3807453139003714 1.6852156566614696 -1.8752666695783269 -1.5707963268572867 1.1996288197338867 0.0 0.0 0.0 0.0 0.0 0.0 2909.421000000036
2.770425146529396 -1.3807453139003714 1.6852156566614696 -1.8752666695783269 -1.5707963268572867 1.1996288197338867 0.0 0.0 0.0 0.0 0.0 0.0 2909.4710000000364
2.770425146529396 -1.3807453139003714 1.6852156566614696 -1.8752666695783269 -1.5707963268572867 1.1996288197338867 0.0 0.0 0.0 0.0 0.0 0.0 2909.5210000000366
2.770425146529396 -1.3807453139003714 1.6852156566614696 -1.8752666695783269 -1.5707963268572867 1.1996288197338867 0.0 0.0 0.0 0.0 0.0 0.0 2909.5710000000367
2.770425146529396 -1.3807453139003714 1.6852156566614696 -1.8752666695783269 -1.5707963268572867 1.1996288197338867 0.0 0.0 0.0 0.0 0.0 0.0 2909.621000000037
2.770425146529396 -1.3807453139003714 1.6852156566614696 -1.8752666695783269 -1.5707963268572867 1.1996288197338867 0.0 0.0 0.0 0.0 0.0 0.0 2909.671000000037
2.770425146529396 -1.3807453139003714 1.6852156566614696 -1.8752666695783269 -1.5707963268572867 1.1996288197338867 0.0 0.0 0.0 0.0 0.0 0.0 2909.7210000000373
2.770425146529396 -1.3807453139003714 1.6852156566614696 -1.8752666695783269 -1.5707963268572867 1.1996288197338867 0.0 0.0 0.0 0.0 0.0 0.0 2909.7710000000375
2.770425146529396 -1.3807453139003714 1.6852156566614696 -1.8752666695783269 -1.5707963268572867 1.1996288197338867 0.0 0.0 0.0 0.0 0.0 0.0 2909.8210000000377
2.770425146529396 -1.3807453139003714 1.6852156566614696 -1.8752666695783269 -1.5707963268572867 1.1996288197338867 0.018661109969500735 0.001372699711382717 -0.0017989573645746683 0.0004262576499652211 5.76966900684861e-12 0.018661109970231855 2909.871000000038
2.770425146529396 -1.3807453139003714 1.6852156566614696 -1.8752666695783269 -1.5707963268572867 1.1996288197338867 0.07195477245760548 0.0052929485730803345 -0.0069365417191401425 0.0016435931336179633 2.2247080758969317e-11 0.07195477246042459 2909.921000000038
2.770425146529396 -1.3807453139003714 1.6852156566614696 -1.8752666695783269 -1.5707963268572867 1.1996288197338867 0.15595752764923904 0.011472139306931063 -0.015034525994648659 0.003562386660750663 4.8219174268475934e-11 0.15595752765534926 2909.971000000038
2.770425146529396 -1.3807453139003714 1.6852156566614696 -1.8752666695783269 -1.5707963268572867 1.1996288197338867 0.26689397081668753 0.01963255547545847 -0.02572895584163916 0.006096400320031513 8.251866443381761e-11 0.2668939708271441 2910.0210000000384
2.770425146529396 -1.3807453139003714 1.6852156566614696 -1.8752666695783269 -1.5707963268572867 1.1996288197338867 0.4011367523195984 0.02950737148187146 -0.03867014963023729 0.009162778079004463 1.2402404203977878e-10 0.4011367523353145 2910.0710000000386
2.770425146529396 -1.3807453139003714 1.6852156566614696 -1.8752666695783269 -1.5707963268572867 1.1996288197338867 0.5552065776049805 0.040840652570064306 -0.05352269845015542 0.012682045784089224 1.7165957375747928e-10 0.5552065776267329 2910.1210000000387
2.770425146529396 -1.3807453139003714 1.6852156566614696 -1.8752666695783269 -1.5707963268572867 1.1996288197338867 0.7257722072072039 0.05338735482461662 -0.06996546611069263 0.016578111160581256 2.2439530214437425e-10 0.725772207235639 2910.171000000039
2.770425146529396 -1.3807453139003714 1.6852156566614696 -1.8752666695783269 -1.5707963268572867 1.1996288197338867 0.9096504567480002 0.06691332517079336 -0.08769158914073465 0.020778263812651784 2.8124704564425407e-10 0.9096504567836392 2910.221000000039
2.770425146529396 -1.3807453139003714 1.6852156566614696 -1.8752666695783269 -1.5707963268572867 1.1996288197338867 1.1038061969364616 0.08119530137454484 -0.10640847678875398 0.025213175223347782 3.4127639858724456e-10 1.1038061969797075 2910.2710000000393
2.770425146529396 -1.3807453139003714 1.6852156566614696 -1.875266669578327 -1.5707963268572867 1.1996288197338867 1.305352353569043 0.09602091204250675 -0.12583781102280986 0.029816898754591994 4.0359073118980687e-10 1.3053523536201852 2910.3210000000395
2.770537238037253 -1.3807370685183584 1.6852048508817548 -1.8752641091806446 -1.570796326857252 1.199740911241748 1.5115499075295595 0.11118867662200008 -0.14571554653054813 0.03452686964718291 4.673431895547374e-10 1.5115499075887802 2910.3710000000397
2.771297731512527 -1.3806811270885226 1.6851315382363499 -1.875246737965207 -1.5707963268570169 1.200501404717052 1.7198078947891877 0.1265080054010312 -0.16579191071920144 0.039283905020794777 5.317326956711678e-10 1.7198078948565678 2910.42100000004
2.7732898141817746 -1.3805345907190572 1.6849394986527162 -1.8752012347513833 -1.570796326856401 1.2024934873863773 1.9276834064064656 0.14179919950829184 -0.18583140371558907 0.04403220387397761 5.960039474145654e-10 1.9276834064819903 2910.47100000004
2.777027933409561 -1.3802596169799022 1.6845791386781233 -1.8751158485165917 -1.5707963268552452 1.2062316066143102 2.1328815885272934 0.15689345091315907 -0.2056127983661171 0.048719347084157164 6.594474185467325e-10 2.132881588610857 2910.52100000004
2.78296044053931 -1.3798232254234464 1.684007236609656 -1.874980338005606 -1.5707963268534109 1.2121641137442918 2.3332556423849304 0.17163284242569524 -0.22492914023677815 0.05329629740763495 7.213993587158067e-10 2.333255642476345 2910.5710000000404
2.791472234734147 -1.3791971031052297 1.6831866876242219 -1.8747859113398606 -1.5707963268507792 1.2206759079394625 2.5268068243000004 0.18587034769664823 -0.2435877476131518 0.057717399479588295 7.812417934562614e-10 2.5268068243989976 2910.6210000000406
2.8028874068177454 -1.3783574101046445 1.6820862489085593 -1.874525165626757 -1.57079632684725 1.2320910800235079 2.7116844456804854 0.1994698312174511 -0.2614102115004041 0.06194037981407017 8.384025241889046e-10 2.711684445786726 2910.6710000000407
2.8174718831151724 -1.3772845850456386 1.6806802847892437 -1.874192026568969 -1.5707963268427407 1.2466755563215062 2.8861858730217307 0.2123060483202223 -0.2782323956232879 0.06592634680400941 8.923551282208803e-10 2.8861858731348082 2910.721000000041
2.835436069293734 -1.3759631506174164 1.678948511862696 -1.8737816880737495 -1.5707963268371865 1.2646397425007718 3.0487565279064417 0.22426464517776568 -0.29390443642614283 0.06963979072121056 9.426189587456674e-10 3.048756528025889 2910.771000000041
2.856937494203823 -1.3743815190951418 1.6768757441251887 -1.873290551862235 -1.5707963268305387 1.286141167411703 3.197989887004688 0.2352421588035704 -0.3082907430728953 0.07304858371635393 9.88759144843081e-10 3.1979898871299817 2910.8210000000413
2.8820834537197615 -1.3725317978606393 1.6744516381028551 -1.8727161670787518 -1.570796326822764 1.3112871269286268 3.332627482073896 0.24514601705181102 -0.321269997447058 0.07612397981899557 1.0303865914792695e-09 3.3326274822044644 2910.8710000000415
2.9109336545806497 -1.370409594923097 1.6716704379816953 -1.872057169900123 -1.570796326813844 1.3401373277906452 3.451558899958856 0.2538945386173473 -0.3327351541517307 0.07884061493756728 1.0671579795067187e-09 3.451558900094084 2910.9210000000417
2.9435028582312093 -1.368013824439768 1.6685307207375837 -1.8713132231449718 -1.5707963268037741 1.3727065314424807 3.5538217825917187 0.26141693303572455 -0.3425934405095997 0.08117650685937668 1.098775765664249e-09 3.5538217827309535 2910.971000000042
2.9797635246626304 -1.3653465122366724 1.6650351412662765 -1.87048495588303 -1.570796326792563 1.4089671978753227 3.638601826992 0.26765330068317345 -0.3507663565629385 0.08311305525060711 1.124988182577016e-09 3.6386018271345564 2911.021000000042
3.0196484562534174 -1.3624126013293 1.66119017751342 -1.8695739030444425 -1.5707963267802314 1.4488521294676724 3.705232785266571 0.27255463277660974 -0.3571896750736067 0.08463504165631766 1.145589238756511e-09 3.7052327854117375 2911.071000000042
3.063053441610234 -1.3592197574433118 1.657005875604556 -1.868582445029072 -1.5707963267668115 1.4922571148261896 3.7531964646096685 0.27608281137363483 -0.3618134415230507 0.08573062950044318 1.1604187186005602e-09 3.753196464756715 2911.1210000000424
3.1098398994087497 -1.3557781745352422 1.6524955949751314 -1.867513747315807 -1.570796326752346 1.5390435726265383 3.7821227273028875 0.27821060937253506 -0.3646019741123038 0.08639136408579419 1.1693621823933249e-09 3.782122727451068 2911.1710000000426
3.1598375222344846 -1.3521003803132008 1.647675753500504 -1.866371700071866 -1.5707963267368876 1.589041195454232 3.791789490715189 0.27892169051228277 -0.36553386376198604 0.08661217259405718 1.1723509663053022e-09 3.7917894908637457 2911.2210000000427
3.2128469204236563 -1.3482010417575752 1.6425655726259505 -1.8651608577621044 -1.570796326720498 1.6420505936454803 3.782122727302889 0.27821060937253517 -0.3646019741123039 0.0863913640857942 1.1693621823933253e-09 3.7821227274510676 2911.271000000043
3.268642265904024 -1.3440967706417317 1.637186822496674 -1.863886378758319 -1.5707963267032472 1.6978459391280343 3.753196464609666 0.27608281137363444 -0.36181344152305045 0.08573062950044308 1.1604187186005592e-09 3.753196464756712 2911.321000000043
3.3269739360357367 -1.339805929052719 1.6315635670878108 -1.8625539649485547 -1.570796326685212 1.7561776092620323 3.705232785266575 0.2725546327766099 -0.3571896750736071 0.08463504165631772 1.1455892387565123e-09 3.7052327854117415 2911.3710000000433
3.387571157452176 -1.3353484349119689 1.6257219093344386 -1.8611698013464106 -1.5707963266664766 1.816774830680846 3.638601826992 0.2676533006831736 -0.3507663565629387 0.08311305525060715 1.124988182577017e-09 3.6386018271345564 2911.4210000000435
3.450144649900805 -1.3307455674959991 1.6196897362615832 -1.8597404957003445 -1.57079632664713 1.8793483231319263 3.553821782591723 0.26141693303572483 -0.3425934405096 0.08117650685937677 1.0987757656642495e-09 3.5538217827309553 2911.4710000000437
3.5143892700840107 -1.3260197729571153 1.6134964641142258 -1.8582730181029798 -1.5707963266272666 1.9435929433176486 3.451558899958858 0.2538945386173474 -0.33273515415173066 0.07884061493756732 1.067157979506719e-09 3.4515589000940863 2911.521000000044
3.579986655499952 -1.3211944698441123 1.6071727834873115 -1.8567746406004109 -1.5707963266069853 2.0091903287361603 3.332627482073894 0.24514601705181102 -0.321269997447058 0.07612397981899555 1.0303865914792695e-09 3.3326274822044635 2911.571000000044
3.6466078682834056 -1.3162938546229772 1.600750404455755 -1.8552528768015093 -1.5707963265863871 2.075811541522224 3.1979898870046877 0.23524215880357033 -0.3082907430728953 0.07304858371635392 9.887591448430808e-10 3.197989887129983 2911.621000000044
3.71391603904661 -1.3113427071975905 1.5942618017044496 -1.853715421487229 -1.5707963265655767 2.1431197122880654 3.0487565279064484 0.22426464517776598 -0.2939044364261435 0.06963979072121064 9.42618958745669e-10 3.048756528025893 2911.6710000000444
3.781569010720113 -1.3063661964304292 1.5877399596582733 -1.8521700902199119 -1.5707963265446598 2.210772683964219 2.8861858730217276 0.2123060483202221 -0.27823239562328766 0.06592634680400931 8.923551282208802e-10 2.8861858731348047 2911.7210000000446
3.8492219823936153 -1.301389685663268 1.5812181176120972 -1.8506247589525948 -1.5707963265237428 2.2784256556403717 2.7116844456804863 0.19946983121745127 -0.26141021150040444 0.06194037981407022 8.384025241889048e-10 2.7116844457867293 2911.7710000000448
3.916530153156821 -1.2964385382378814 1.5747295148607916 -1.8490873036383144 -1.5707963265029323 2.345733826406214 2.526806824300002 0.1858703476966486 -0.24358774761315216 0.057717399479588316 7.812417934562614e-10 2.5268068243989985 2911.821000000045
3.983151365940274 -1.2915379230167463 1.5683071358292353 -1.8475655398394129 -1.5707963264823341 2.4123550391922777 2.333255642384928 0.1716328424256954 -0.2249291402367782 0.05329629740763497 7.21399358715806e-10 2.3332556424763427 2911.871000000045
4.048748751356215 -1.286712619903743 1.5619834552023208 -1.8460671623368439 -1.5707963264620528 2.477952424610789 2.132881588527293 0.15689345091315887 -0.205612798366117 0.04871934708415715 6.594474185467325e-10 2.1328815886108576 2911.9210000000453
4.112993371539421 -1.2819868253648592 1.5557901830549634 -1.8445996847394792 -1.5707963264421894 2.542197044796512 1.9276834064064698 0.141799199508292 -0.18583140371558926 0.04403220387397771 5.960039474145668e-10 1.9276834064819954 2911.9710000000455
4.17556686398805 -1.2773839579488897 1.549758009982108 -1.843170379093413 -1.5707963264228428 2.604770537247592 1.7198078947891817 0.1265080054010311 -0.16579191071920132 0.03928390502079472 5.317326956711666e-10 1.7198078948565607 2912.0210000000457
4.236164085404489 -1.2729264638081397 1.5439163522287358 -1.841786215491269 -1.5707963264041074 2.6653677586664055 1.5115499075295646 0.1111886766220002 -0.14571554653054858 0.034526869647183 4.673431895547393e-10 1.511549907588785 2912.071000000046
4.294495755536202 -1.2686356222191268 1.5382930968198727 -1.8404538016815046 -1.5707963263860723 2.723699428800403 1.3053523535690355 0.0960209120425062 -0.1258378110228091 0.02981689875459189 4.035907311898046e-10 1.305352353620178 2912.121000000046
4.350291101016569 -1.2645313511032834 1.5329143466905961 -1.8391793226777193 -1.5707963263688214 2.7794947742829565 1.1038061969364572 0.08119530137454455 -0.106408476788754 0.025213175223347727 3.412763985872441e-10 1.1038061969797022 2912.171000000046
4.403300499205742 -1.2606320125476576 1.5278041658160426 -1.8379684803679577 -1.5707963263524318 2.8325041724742066 0.9096504567479988 0.06691332517079314 -0.08769158914073379 0.020778263812651708 2.812470456442522e-10 0.9096504567836325 2912.2210000000464
4.453298122031476 -1.2569542183256164 1.5229843243414152 -1.8368264331240167 -1.5707963263369735 2.8825017953018994 0.7257722072072033 0.053387354824616734 -0.06996546611069263 0.01657811116058122 2.2439530214437425e-10 0.7257722072356404 2912.2710000000466
4.500084579829992 -1.2535126354175465 1.5184740437119906 -1.8357577354107517 -1.570796326322508 2.929288253102249 0.5552065776049713 0.04084065257006405 -0.05352269845015485 0.01268204578408907 1.7165957375747768e-10 0.5552065776267259 2912.3210000000468
4.543489565186809 -1.2503197915315585 1.5142897418031267 -1.8347662773953812 -1.570796326309088 2.9726932384607645 0.40113675231959595 0.029507371481871027 -0.038670149630236954 0.009162778079004237 1.24024042039776e-10 0.40113675233530993 2912.371000000047
4.583374496777596 -1.247385880624186 1.51044477805027 -1.8338552245567934 -1.5707963262967564 3.012578170053115 0.2668939708166942 0.019632555475458748 -0.025728955841639246 0.006096400320031748 8.251866443381637e-11 0.2668939708271445 2912.421000000047
4.619635163209018 -1.2447185684210906 1.5069491985789631 -1.8330269572948519 -1.5707963262855453 3.048838836485957 0.15595752764924 0.011472139306931016 -0.015034525994648197 0.0035623866607505396 4.8219174268473356e-11 0.15595752765534568 2912.4710000000473
4.652204366859578 -1.2423227979377613 1.5038094813348513 -1.8322830105397008 -1.5707963262754754 3.0814080401377932 0.0719547724576022 0.00529294857308031 -0.0069365417191394295 0.0016435931336178059 2.2247080758966797e-11 0.0719547724604244 2912.5210000000475
4.681054567720465 -1.2402005950002193 1.5010282812136915 -1.831624013361072 -1.5707963262665554 3.1102582409998103 0.01866110996949865 0.0013726997113828793 -0.0017989573645740197 0.000426257649965119 5.769669006846917e-12 0.018661109970233507 2912.5710000000477
4.706200527236406 -1.2383508737657167 1.4986041751913577 -1.8310496285775888 -1.5707963262587807 3.135404200516736 0.0 0.0 0.0 0.0 0.0 0.0 2912.621000000048
4.727701952146492 -1.236769242243442 1.4965314074538507 -1.8305584923660743 -1.570796326252133 3.156905625427666 0.0 0.0 0.0 0.0 0.0 0.0 2912.671000000048
4.7456661383250545 -1.23544780781522 1.494799634527303 -1.8301481538708546 -1.5707963262465787 3.1748698116069316 -1.2144946366372345e-07 0.00973906532236925 0.01911219300240032 -0.028851259527886367 -6.997173024422779e-09 -1.2156076998190497e-07 2912.721000000048
4.760250614622481 -1.234374982756214 1.4933936704079873 -1.8298150148130667 -1.5707963262420694 3.1894542879049297 -4.1393426668819354e-07 0.033193500743696376 0.06513978206735258 -0.09833328691161271 -2.384835302998533e-08 -4.143136302341849e-07 2912.7710000000484
4.771665786706082 -1.2335352897556286 1.4922932316923245 -1.829554269099963 -1.5707963262385403 3.2008694599889784 -7.825944729573659e-07 0.06275646234355096 0.12315490047108844 -0.18591137056726778 -4.5088292447316015e-08 -7.833117071615058e-07 2912.8210000000486
4.780177580900919 -1.232909167437412 1.4914726827068907 -1.8293598424342177 -1.5707963262359086 3.209381254184147 -1.1498174074672042e-06 0.09220416873248995 0.18094383907597936 -0.2731480191989242 -6.624542508329259e-08 -1.1508711950949582e-06 2912.8710000000488
4.786110088030668 -1.2324727758809564 1.4909007806384234 -1.829224331923232 -1.5707963262340743 3.215313761314127 -1.4552376563256802e-06 0.11669590105205759 0.22900704633053637 -0.34570296179863846 -8.384186612104218e-08 -1.4565713562920563e-06 2912.921000000049
4.789848207258452 -1.2321978021418014 1.4905404206638304 -1.8291389456884404 -1.5707963262329185 3.2190518805420605 -1.6557370667527741e-06 0.13277400297478548 0.2605591282694102 -0.39333314764645083 -9.539341211994132e-08 -1.6572545209367399e-06 2912.971000000049
4.791840289927702 -1.2320512657723357 1.4903483810801967 -1.8290934424746168 -1.5707963262323026 3.221043963211389 -1.7254447470804735e-06 0.1383638807041927 0.27152884851339154 -0.40989274631038564 -9.940954101561594e-08 -1.7270260871393717e-06 2913.0210000000493
4.792600783402977 -1.2319953243424997 1.4902750684347918 -1.8290760712591791 -1.5707963262320674 3.2218044566866895 -1.655737066752774e-06 0.13277400297478548 0.2605591282694104 -0.393333147646451 -9.539341211994133e-08 -1.6572545209367399e-06 2913.0710000000495
4.792712874910832 -1.231987078960487 1.490264262655077 -1.8290735108614966 -1.5707963262320328 3.2219165481945513 -1.4552376563256804e-06 0.11669590105205761 0.22900704633053634 -0.34570296179863835 -8.384186612104213e-08 -1.4565713562920563e-06 2913.1210000000497
4.79271287491083 -1.2319870789604872 1.490264262655077 -1.8290735108614966 -1.5707963262320328 3.2219165481945513 -1.1498174074672057e-06 0.09220416873249011 0.18094383907597947 -0.27314801919892434 -6.62454250832926e-08 -1.1508711950949586e-06 2913.17100000005
4.7927128719062475 -1.2317461406862398 1.4907370861393292 -1.8297872726497604 -1.5707963264051383 3.221916545187215 -7.825944729573655e-07 0.06275646234355083 0.12315490047108796 -0.18591137056726761 -4.508829244731597e-08 -7.833117071615059e-07 2913.22100000005
4.792712853502325 -1.2302703251521823 1.493633264611206 -1.83415926683801 -1.5707963274654595 3.221916526766426 -4.139342666881914e-07 0.03319350074369634 0.06513978206735259 -0.09833328691161232 -2.3848353029985237e-08 -4.1431363023418343e-07 2913.27100000005
4.792712810972769 -1.2268598685777556 1.500326032563695 -1.8442624917862367 -1.5707963299157517 3.2219164841978922 -1.214494636637235e-07 0.00973906532236947 0.019112193002400742 -0.028851259527886693 -6.997173024422917e-09 -1.2156076998190886e-07 2913.3210000000504
4.792712741751023 -1.2213089580863246 1.5112192824947333 -1.8607066528944387 -1.570796333903884 3.221916414912706 0.0 0.0 0.0 0.0 0.0 0.0 2913.3710000000506
4.79271264819832 -1.2138069415243935 1.525941433306219 -1.8829308211946179 -1.5707963392938167 3.2219163212742634 0.0 0.0 0.0 0.0 0.0 0.0 2913.4210000000508
4.792712536371734 -1.2048395372808212 1.543539298703019 -1.90949609194278 -1.5707963457365788 3.2219162093451894 0.0 0.0 0.0 0.0 0.0 0.0 2913.471000000051
4.792712414792231 -1.1950900441060357 1.5626719555919815 -1.9383782432109329 -1.5707963527412439 3.2219160876542614 0.0 0.0 0.0 0.0 0.0 0.0 2913.521000000051
4.792712293212728 -1.1853405509312505 1.581804612480944 -1.9672603944790856 -1.5707963597459087 3.2219159659633334 0.0 0.0 0.0 0.0 0.0 0.0 2913.5710000000513
4.7927121813861415 -1.1763731466876781 1.599402477877744 -1.9938256652272477 -1.5707963661886708 3.2219158540342594 0.0 0.0 0.0 0.0 0.0 0.0 2913.6210000000515
4.792712087833438 -1.168871130125747 1.6141246286892297 -2.016049833527427 -1.5707963715786035 3.2219157603958166 0.0 0.0 0.0 0.0 0.0 0.0 2913.6710000000517
4.7927120186116925 -1.163320219634316 1.625017878620268 -2.0324939946356286 -1.5707963755667358 3.2219156911106306 0.0 0.0 0.0 0.0 0.0 0.0 2913.721000000052
4.792711976082137 -1.1599097630598894 1.6317106465727569 -2.0425972195838558 -1.570796378017028 3.221915648542097 0.0 0.0 0.0 0.0 0.0 0.0 2913.771000000052
4.792711957678214 -1.1584339475258318 1.6346068250446337 -2.0469692137721047 -1.5707963790773491 3.2219156301213077 0.0 0.0 0.0 0.0 0.0 0.0 2913.821000000052
4.792711954673631 -1.1581930092515844 1.6350796485288859 -2.0476829755603685 -1.5707963792504547 3.2219156271139715 0.0 0.0 0.0 0.0 0.0 0.0 2913.8710000000524
4.792711954673631 -1.1581930092515844 1.6350796485288859 -2.0476829755603685 -1.5707963792504547 3.2219156271139715 0.0 0.0 0.0 0.0 0.0 0.0 2913.9210000000526
4.792711954673631 -1.1581930092515844 1.6350796485288859 -2.0476829755603685 -1.5707963792504547 3.2219156271139715 0.0 0.0 0.0 0.0 0.0 0.0 2913.9710000000528
4.792711954673631 -1.1581930092515844 1.6350796485288859 -2.0476829755603685 -1.5707963792504547 3.2219156271139715 0.0 0.0 0.0 0.0 0.0 0.0 2914.021000000053
4.792711954673631 -1.1581930092515844 1.6350796485288859 -2.0476829755603685 -1.5707963792504547 3.2219156271139715 0.0 0.0 0.0 0.0 0.0 0.0 2914.071000000053
4.792711954673631 -1.1581930092515844 1.6350796485288859 -2.0476829755603685 -1.5707963792504547 3.2219156271139715 1.2144946366372345e-07 -0.00973906532236925 -0.01911219300240032 0.028851259527886367 6.997173024422779e-09 1.2156076998190497e-07 2914.1210000000533
4.792711954673631 -1.1581930092515844 1.6350796485288859 -2.0476829755603685 -1.5707963792504547 3.2219156271139715 4.1393426668819354e-07 -0.033193500743696376 -0.06513978206735258 0.09833328691161271 2.384835302998533e-08 4.143136302341849e-07 2914.1710000000535
4.792711954673631 -1.1581930092515844 1.6350796485288859 -2.0476829755603685 -1.5707963792504547 3.2219156271139715 7.825944729573659e-07 -0.06275646234355096 -0.12315490047108844 0.18591137056726778 4.5088292447316015e-08 7.833117071615058e-07 2914.2210000000537
4.792711954673631 -1.1581930092515844 1.6350796485288859 -2.0476829755603685 -1.5707963792504547 3.2219156271139715 1.1498174074672042e-06 -0.09220416873248995 -0.18094383907597936 0.2731480191989242 6.624542508329259e-08 1.1508711950949582e-06 2914.271000000054
4.792711954673631 -1.1581930092515844 1.6350796485288859 -2.0476829755603685 -1.5707963792504547 3.2219156271139715 1.4552376563256802e-06 -0.11669590105205759 -0.22900704633053637 0.34570296179863846 8.384186612104218e-08 1.4565713562920563e-06 2914.321000000054
4.792711954673631 -1.1581930092515844 1.6350796485288859 -2.0476829755603685 -1.5707963792504547 3.2219156271139715 1.6557370667527741e-06 -0.13277400297478548 -0.2605591282694102 0.39333314764645083 9.539341211994132e-08 1.6572545209367399e-06 2914.371000000054
4.792711954673631 -1.1581930092515844 1.6350796485288859 -2.0476829755603685 -1.5707963792504547 3.2219156271139715 1.7254447470804735e-06 -0.1383638807041927 -0.27152884851339154 0.40989274631038564 9.940954101561594e-08 1.7270260871393717e-06 2914.4210000000544
4.792711954673631 -1.1581930092515844 1.6350796485288859 -2.0476829755603685 -1.5707963792504547 3.2219156271139715 1.655737066752774e-06 -0.13277400297478548 -0.2605591282694104 0.393333147646451 9.539341211994133e-08 1.6572545209367399e-06 2914.4710000000546
4.792711954673631 -1.1581930092515844 1.6350796485288859 -2.0476829755603685 -1.5707963792504547 3.2219156271139715 1.4552376563256804e-06 -0.11669590105205761 -0.22900704633053634 0.34570296179863835 8.384186612104213e-08 1.4565713562920563e-06 2914.5210000000548
4.792711954673631 -1.1581930092515844 1.6350796485288859 -2.047682975560369 -1.5707963792504547 3.2219156271139715 1.1498174074672057e-06 -0.09220416873249011 -0.18094383907597947 0.27314801919892434 6.62454250832926e-08 1.1508711950949586e-06 2914.571000000055
4.792711957678214 -1.1584339475258318 1.6346068250446337 -2.046969213772105 -1.5707963790773491 3.2219156301213077 7.825944729573655e-07 -0.06275646234355083 -0.12315490047108796 0.18591137056726761 4.508829244731597e-08 7.833117071615059e-07 2914.621000000055
4.792711976082137 -1.1599097630598894 1.6317106465727569 -2.0425972195838558 -1.570796378017028 3.221915648542097 4.139342666881914e-07 -0.03319350074369634 -0.06513978206735259 0.09833328691161232 2.3848353029985237e-08 4.1431363023418343e-07 2914.6710000000553
4.7927120186116925 -1.1633202196343162 1.625017878620268 -2.0324939946356286 -1.5707963755667358 3.2219156911106306 1.214494636637235e-07 -0.00973906532236947 -0.019112193002400742 0.028851259527886693 6.997173024422917e-09 1.2156076998190886e-07 2914.7210000000555
4.792712087833438 -1.168871130125747 1.6141246286892297 -2.016049833527427 -1.5707963715786035 3.2219157603958166 0.0 0.0 0.0 0.0 0.0 0.0 2914.7710000000557
4.7927121813861415 -1.1763731466876781 1.599402477877744 -1.9938256652272477 -1.5707963661886708 3.2219158540342594 0.0 0.0 0.0 0.0 0.0 0.0 2914.821000000056
4.792712293212728 -1.1853405509312505 1.581804612480944 -1.9672603944790856 -1.5707963597459087 3.2219159659633334 -0.021163641177441968 -0.0015414269163051754 0.002028651686105463 -0.00048722573225999655 8.2477565858284e-10 -0.021163641115690215 2914.871000000056
4.792712414792231 -1.1950900441060357 1.5626719555919815 -1.9383782432109329 -1.5707963527412439 3.2219160876542614 -0.08130224394726106 -0.005921545641677962 0.007793268317342747 -0.0018717263730500026 3.168458170011838e-09 -0.08130224371003553 2914.921000000056
4.792712536371734 -1.2048395372808212 1.543539298703019 -1.90949609194278 -1.5707963457365788 3.2219162093451894 -0.17553970538217464 -0.012785211414601648 0.01682644854523315 -0.004041245113657315 6.841019222549508e-09 -0.1755397048699809 2914.9710000000564
4.79271264819832 -1.2138069415243935 1.525941433306219 -1.8829308211946179 -1.5707963392938167 3.2219163212742634 -0.2992030935102035 -0.021792077171956047 0.028680266077484595 -0.006888202512398927 1.1660348350780758e-08 -0.299203092637182 2915.0210000000566
4.792712741751023 -1.2213089580863246 1.5112192824947333 -1.8607066528944387 -1.570796333903884 3.221916414912706 -0.447822647314672 -0.03261659354901751 0.04292626967799159 -0.010309696494621526 1.7452252935612894e-08 -0.44782264600800487 2915.0710000000568
4.792712810972769 -1.2268598685777556 1.500326032563695 -1.8442624917862367 -1.5707963299157517 3.2219164841978922 -0.6171317767342077 -0.04494800887945891 0.0591554831668353 -0.014207502352701499 2.4050458204275615e-08 -0.6171317749335267 2915.121000000057
4.792712853502325 -1.2302703251521823 1.493633264611206 -1.83415926683801 -1.5707963274654595 3.221916526766426 -0.8030670626627421 -0.058490369195349674 0.07697840542028347 -0.01848807274604493 3.129660723032102e-08 -0.8030670603195348 2915.171000000057
4.7927128719062475 -1.2317461406862398 1.4907370861393292 -1.8297872726497606 -1.5707963264051383 3.221916545187215 -1.001768256949509 -0.0729625182271557 0.09602501037079043 -0.02306253770108758 3.9040260933623585e-08 -1.001768254026527 2915.2210000000573
4.79271287491083 -1.2319870789604872 1.490264262655077 -1.8290735108614968 -1.5707963262320328 3.2219165481945513 -1.2095782823990469 -0.08809809740373946 0.11594474700699717 -0.027846704611294935 4.7138898080380194e-08 -1.209578278869712 2915.2710000000575
4.79271287491083 -1.2319870789604872 1.490264262655077 -1.8290735108614966 -1.5707963262320328 3.2219165481945513 -1.4230432327711977 -0.10364554585235998 0.13640653937373132 -0.03276105823716216 5.545791528311016e-08 -1.4230432286190098 2915.3210000000577
4.79257316168119 -1.2319972547960594 1.490277654938404 -1.8290767273156052 -1.570796326226588 3.2217768349653193 -1.638912372781106 -0.11936810039867278 0.15709878657200704 -0.03773076070621413 6.387062700065513e-08 -1.6389123679990503 2915.371000000058
4.791628234150752 -1.2320660773921883 1.4903682314517648 -1.8290984812758093 -1.5707963261897628 3.220831907437639 -1.8541381380992197 -0.13504379556672988 0.17772936275902515 -0.04268565151300539 7.225826553817918e-08 -1.8541381326891735 2915.421000000058
4.789162014295678 -1.2322457013819483 1.4906046322216209 -1.829155258168062 -1.570796326093651 3.2183656875897597 -2.0658761353512904 -0.15046546357897989 0.19802561714817304 -0.04756024751912019 8.050998104716876e-08 -2.0658761293234305 2915.471000000058
4.7845520420813346 -1.2325814628511127 1.4910465234740342 -1.8292613881609587 -1.570796325913994 3.2137557153888676 -2.2714851421183755 -0.16544073435626797 0.21773437400902493 -0.05229374295317253 8.85228415254328e-08 -2.271485135490585 2915.5210000000584
4.7772654917180795 -1.233112169489104 1.4917449794985138 -1.8294291378788177 -1.5707963256300275 3.2064691650468733 -2.4685271069368313 -0.17979203551783568 0.2366219326673412 -0.056830009410805994 9.620183281710247e-08 -2.4685270997341067 2915.5710000000586
4.766855187917034 -1.233870390739942 1.4927428645118626 -1.8296688021147585 -1.5707963252243238 3.1960588612762035 -2.6547671492983205 -0.19335659238132122 0.25447406750506935 -0.06111759585469397 1.0345985861263144e-07 -2.6547671415521807 2915.6210000000588
4.752955622145863 -1.234882747953193 1.4940752145220242 -1.8299887955437801 -1.570796324682639 3.1821592955455893 -2.828173559649809 -0.20598642796275932 0.271096027960343 -0.06510972861453948 1.1021774044879583e-07 -2.8281735513977 2915.671000000059
4.735278968884554 -1.2361702045349185 1.4957696191919294 -1.8303957444358416 -1.570796323993756 3.164482642335857 -2.9869177993935656 -0.21754836297658112 0.28631253852748284 -0.06876431138707524 1.1640421770869396e-07 -2.9869177906782687 2915.721000000059
4.713611101881193 -1.2377483560986249 1.4978466037033438 -1.8308945783689399 -1.57079632314933 3.1428147753957187 -3.1293745008871623 -0.22792401583561453 0.2999677987569959 -0.07204392523606375 1.2195594762174678e-07 -3.1293744917562027 2915.7710000000593
4.687807610407745 -1.2396277206162116 1.5003200106207135 -1.8314886219421893 -1.570796322143733 3.117011283997561 -3.2541214674434764 -0.23700980265108373 0.3119254832555759 -0.07491582859229706 1.2681750526369745e-07 -3.2541214579485267 2915.8210000000595
4.657789815515835 -1.2418140285689205 1.503197381755013 -1.8321796864889002 -1.570796320973899 3.0869934891932376 -3.359939673330686 -0.24471693723260962 0.32206874168610333 -0.07735195725359703 1.3094138355661165e-07 -3.359939663526978 2915.8710000000597
4.623540786292518 -1.2443085130982847 1.506480340027591 -1.8329681617896585 -1.570796319639168 3.052744460069854 -3.4458132637722754 -0.25097143108820946 0.3303001987676449 -0.0793289243848152 1.3428799326887742e-07 -3.4458132537180037 2915.92100000006
4.585101356116069 -1.2471082001570772 1.5101649713340177 -1.8338531077854043 -1.5707963181411317 3.014305030005564 -3.5109295549470283 -0.2557140934242973 0.336541954275454 -0.08082802051783275 1.368256630152051e-07 -3.5109295447027584 2915.97100000006
4.5425661389117495 -1.2502061986602606 1.5142422064079322 -1.834832346290511 -1.5707963164834768 2.971769812925355 -3.5546790339890375 -0.25890053114568334 0.34073558304097135 -0.08183521355156065 1.3853063925662753e-07 -3.5546790236171146 2916.02100000006
4.4960795454075955 -1.2535919906359352 1.5186982026848876 -1.8359025527058643 -1.5707963146718316 2.9252832195568406 -3.5766553589876917 -0.2605011488555747 0.34284213495182325 -0.0823411487519394 1.3938708630049997e-07 -3.5766553485516472 2916.0710000000604
4.445831799390189 -1.2572517213762888 1.5235147261661997 -1.8370593477319415 -1.570796312713609 2.8750354736860477 -3.5766553589876904 -0.26050114885557457 0.34284213495182303 -0.08234114875193939 1.3938708630049992e-07 -3.576655348551645 2916.1210000000606
4.39205495396044 -1.2611684895885447 1.5286695332827922 -1.8382973890818897 -1.5707963106178529 2.8212586284132106 -3.5546790339890366 -0.2589005311456833 0.34073558304097123 -0.08183521355156065 1.385306392566275e-07 -3.5546790236171133 2916.1710000000608
4.335018907789366 -1.2653226375459117 1.5341367527590453 -1.839610463194606 -1.570796308395081 2.764222582408557 -3.510929554947028 -0.2557140934242973 0.3365419542754541 -0.08082802051783275 1.368256630152051e-07 -3.5109295447027593 2916.221000000061
4.275027421373864 -1.2696920412385322 1.5398872674766402 -1.8409915769478156 -1.570796306057132 2.7042310961681006 -3.445813263772272 -0.2509714310882093 0.33030019876764455 -0.0793289243848151 1.3428799326887726e-07 -3.4458132537179993 2916.271000000061
4.2124141332925 -1.2742524005244316 1.545889096338408 -1.8424330493711512 -1.5707963036170076 2.64161780826943 -3.3599396733306857 -0.24471693723260965 0.3220687416861033 -0.07735195725359706 1.3094138355661165e-07 -3.3599396635269803 2916.3210000000613
4.147538576461272 -1.2789775292804666 1.5521077761321753 -1.8439266033592314 -1.5707963010887196 2.5767422516274987 -3.254121467443477 -0.23700980265108373 0.31192548325557595 -0.07491582859229702 1.2681750526369745e-07 -3.254121457948527 2916.3710000000615
4.080782194389406 -1.2838396455532755 1.5585067433946111 -1.845463457384741 -1.5707962984871333 2.509985869750415 -3.129374500887164 -0.22792401583561475 0.2999677987569961 -0.07204392523606382 1.219559476217468e-07 -3.129374491756205 2916.4210000000617
4.012544357435118 -1.2888096617102256 1.5650477162750747 -1.847034417211509 -1.5707962958278128 2.4417480329952332 -2.986917799393566 -0.2175483629765813 0.28631253852748306 -0.06876431138707532 1.1640421770869397e-07 -2.98691779067827 2916.471000000062
3.9432383790614045 -1.2938574745903635 1.5716910763994603 -1.8486299676075872 -1.5707962931268653 2.372442054823742 -2.828173559649813 -0.20598642796275957 0.27109602796034327 -0.06510972861453956 1.1021774044879597e-07 -2.828173551397703 2916.521000000062
3.873287532091813 -1.2989522556553628 1.578396250734046 -1.850240364058331 -1.5707962904007864 2.302491208058255 -2.6547671492983196 -0.19335659238132108 0.25447406750506935 -0.061117595854693875 1.0345985861263147e-07 -2.6547671415521785 2916.571000000062
3.8031210649662257 -1.3040627411404742 1.5851220934493395 -1.8518557244794764 -1.5707962876663044 2.232324741137401 -2.4685271069368326 -0.17979203551783568 0.23662193266734105 -0.05683000941080608 9.620183281710246e-08 -2.468527099734107 2916.6210000000624
3.7331702179966344 -1.3091575222054734 1.5918272677839254 -1.8534661209302201 -1.5707962849402255 2.162373894371914 -2.2714851421183764 -0.1654407343562677 0.2177343740090246 -0.05229374295317247 8.852284152543269e-08 -2.2714851354905847 2916.6710000000626
3.66386423962292 -1.3142053350856113 1.598470627908311 -1.8550616713262984 -1.570796282239278 2.0930679162004218 -2.065876135351292 -0.15046546357898 0.19802561714817282 -0.04756024751912022 8.05099810471687e-08 -2.0658761293234287 2916.7210000000628
3.5956264026686324 -1.3191753512425615 1.6050116007887745 -1.8566326311530663 -1.5707962795799575 2.0248300794452403 -1.8541381380992255 -0.1350437955667304 0.17772936275902596 -0.04268565151300558 7.22582655381794e-08 -1.8541381326891837 2916.771000000063
3.5288700205967665 -1.3240374675153703 1.6114105680512103 -1.858169485178576 -1.5707962769783712 1.9580736975681574 -1.6389123727811026 -0.11936810039867263 0.15709878657200668 -0.03773076070621404 6.387062700065509e-08 -1.6389123679990445 2916.821000000063
3.4639944637655393 -1.3287625962714054 1.6176292478449776 -1.8596630391666562 -1.5707962744500832 1.893198140926226 -1.4230432327711944 -0.10364554585235995 0.13640653937373093 -0.03276105823716207 5.545791528311003e-08 -1.4230432286190011 2916.8710000000633
3.4013811756841745 -1.3333229555573047 1.6236310767067454 -1.8611045115899918 -1.5707962720099589 1.8305848530275555 -1.209578282399044 -0.08809809740373976 0.11594474700699738 -0.027846704611294924 4.7138898080380154e-08 -1.2095782788697107 2916.9210000000635
3.3413896892686736 -1.337692359249925 1.6293815914243404 -1.8624856253432014 -1.5707962696720097 1.7705933667870992 -1.0017682569495014 -0.07296251822715506 0.0960250103707896 -0.023062537701087387 3.9040260933623135e-08 -1.0017682540265238 2916.9710000000637
3.2843536430975995 -1.341846507207292 1.6348488109005932 -1.8637986994559177 -1.570796267449238 1.7135573207824462 -0.8030670626627409 -0.05849036919534966 0.07697840542028332 -0.01848807274604494 3.129660723032105e-08 -0.8030670603195321 2917.021000000064
3.230576797667849 -1.345763275419548 1.640003618017186 -1.865036740805866 -1.5707962653534817 1.6597804755096073 -0.6171317767342069 -0.04494800887945838 0.059155483166834937 -0.014207502352701582 2.4050458204275608e-08 -0.6171317749335218 2917.071000000064
3.180329051650443 -1.3494230061599017 1.644820141498498 -1.866193535831943 -1.5707962633952592 1.6095327296388158 -0.4478226473146683 -0.03261659354901748 0.042926269677991374 -0.010309696494621542 1.7452252935612815e-08 -0.44782264600799954 2917.121000000064
3.1338424581462894 -1.3528087981355763 1.6492761377754535 -1.8672637422472964 -1.570796261583614 1.5630461362703012 -0.2992030935101962 -0.021792077171955446 0.0286802660774843 -0.006888202512398837 1.1660348350780434e-08 -0.2992030926371776 2917.1710000000644
3.09130724094197 -1.3559067966387597 1.653353372849368 -1.868242980752403 -1.570796259925959 1.5205109191900918 -0.17553970538217736 -0.012785211414601396 0.016826448545233113 -0.00404124511365745 6.841019222549776e-09 -0.17553970486998688 2917.2210000000646
3.052867810765522 -1.3587064836975522 1.6570380041557944 -1.8691279267481489 -1.5707962584279227 1.4820714891258033 -0.08130224394725927 -0.005921545641677519 0.00779326831734224 -0.001871726373049894 3.1684581700115325e-09 -0.08130224371002932 2917.2710000000648
3.0186187815422043 -1.3612009682269164 1.6603209624283728 -1.8699164020489072 -1.5707962570931917 1.4478224600024183 -0.021163641177444077 -0.0015414269163051915 0.0020286516861052384 -0.0004872257322601399 8.247756585829442e-10 -0.02116364111569309 2917.321000000065
2.988600986650294 -1.3633872761796253 1.663198333562672 -1.870607466595618 -1.5707962559233577 1.4178046651980936 0.0 0.0 0.0 0.0 0.0 0.0 2917.371000000065
2.9627974951768454 -1.365266640697212 1.6656717404800419 -1.8712015101688675 -1.5707962549177608 1.3920011737999365 0.0 0.0 0.0 0.0 0.0 0.0 2917.4210000000653
2.941129628173484 -1.3668447922609186 1.6677487249914562 -1.8717003441019657 -1.570796254073335 1.3703333068597991 2.4841829134756053e-07 0.009836609790679983 0.017082218378016538 -0.026918818043555302 -8.70994514070002e-09 2.4776213864133414e-07 2917.4710000000655
2.923452974912175 -1.368132248842644 1.6694431296613614 -1.8721072929940272 -1.5707962533844517 1.3526566536500677 8.567896170966883e-07 0.03392626642091668 0.05891622256907745 -0.0928424540685887 -3.004042303629191e-08 8.545265598037851e-07 2917.5210000000657
2.9095534091410036 -1.369144606055895 1.6707754796715233 -1.872427286423049 -1.570796252842767 1.3387570879194515 1.6426025795226455e-06 0.06504207290163909 0.11295181131586447 -0.1779938172675902 -5.75922903180981e-08 1.638263937138618e-06 2917.571000000066
2.89914310533996 -1.3699028273067329 1.6717733646848718 -1.8726669506589895 -1.5707962524370633 1.3283467841487842 2.453764347188149e-06 0.097161615075288 0.16873048357061235 -0.26589199863430135 -8.603292751222061e-08 2.447283165355219e-06 2917.621000000066
2.8918565549767035 -1.3704335339447242 1.6724718207093516 -1.8728347003768486 -1.5707962521530967 1.3210602338067876 3.1686006549433746e-06 0.12546696161581614 0.21788543849510894 -0.3433522709637157 -1.1109623903954111e-07 3.1602313602210994e-06 2917.671000000066
2.887246582762363 -1.3707692954138886 1.6729137119617647 -1.8729408303697455 -1.5707962519734397 1.3164502616058968 3.695855803925952e-06 0.14634466402868793 0.25414157546069505 -0.4004860888520779 -1.2958265321572072e-07 3.68609385856189e-06 2917.7210000000664
2.884780362907287 -1.3709489194036486 1.6731501127316208 -1.872997607261998 -1.570796251877328 1.313984041758017 3.9746926615609685e-06 0.15738575665087975 0.2733154940482646 -0.4307010886968847 -1.3935912225120032e-07 3.964194218261347e-06 2917.7710000000666
2.8838354353768474 -1.3710177419997776 1.6732406892449814 -1.8730193612222021 -1.5707962518405028 1.313039114230337 3.974692661560969e-06 0.15738575665087978 0.27331549404826466 -0.4307010886968849 -1.393591222512004e-07 3.964194218261346e-06 2917.8210000000668
2.883695722147209 -1.3710279178353497 1.6732540815283086 -1.8730225776763108 -1.570796251835058 1.312899401001106 3.6958558039259543e-06 0.14634466402868798 0.2541415754606952 -0.40048608885207804 -1.2958265321572083e-07 3.6860938585618917e-06 2917.871000000067
2.883695722147209 -1.3710279178353497 1.6732540815283086 -1.8730225776763108 -1.570796251835058 1.3128994010011041 3.1686006549433784e-06 0.12546696161581633 0.21788543849510925 -0.34335227096371596 -1.1109623903954127e-07 3.160231360221103e-06 2917.921000000067
2.883695727867589 -1.3708014081473126 1.6736474373732717 -1.8736424429761573 -1.5707962520356238 1.312899406706375 2.453764347188154e-06 0.09716161507528803 0.16873048357061268 -0.2658919986343019 -8.603292751222081e-08 2.447283165355224e-06 2917.9710000000673
2.883695763246072 -1.3694005276985515 1.676080200922549 -1.8774760855322241 -1.5707962532760502 1.3128994419914117 1.6426025795226408e-06 0.06504207290163891 0.11295181131586418 -0.17799381726759025 -5.7592290318097946e-08 1.6382639371386148e-06 2918.0210000000675
2.88369584602682 -1.3661226615040178 1.6817725306317133 -1.8864462780619082 -1.5707962561784765 1.3128995245535093 8.567896170966823e-07 0.03392626642091632 0.058916222569076894 -0.09284245406858782 -3.004042303629162e-08 8.545265598037733e-07 2918.0710000000677
2.8836959828005235 -1.3607068382835505 1.6911776282128341 -1.9012671932888139 -1.5707962609739827 1.3128996609659496 2.4841829134756074e-07 0.00983660979068001 0.01708221837801634 -0.026918818043554855 -8.709945140699972e-09 2.477621386413301e-07 2918.121000000068
2.8836961710323017 -1.3532534316064424 1.7041211853151157 -1.9216641493961704 -1.570796267573692 1.3128998487005468 0.0 0.0 0.0 0.0 0.0 0.0 2918.171000000068
2.8836964010896087 -1.3441438610360055 1.7199408302055326 -1.946593355480248 -1.5707962756398712 1.312900078150198 0.0 0.0 0.0 0.0 0.0 0.0 2918.221000000068
2.883696658270137 -1.3339602932741372 1.7376255744494675 -1.974461657003775 -1.5707962846570347 1.3129003346514299 0.0 0.0 0.0 0.0 0.0 0.0 2918.2710000000684
2.883696924829723 -1.3234053433058863 1.7559552595913481 -2.0033462812493545 -1.5707962940030427 1.3129006005069466 0.0 0.0 0.0 0.0 0.0 0.0 2918.3210000000686
2.8836971820102515 -1.313221775544018 1.773640003835283 -2.0312145827728814 -1.5707963030202061 1.3129008570081784 0.0 0.0 0.0 0.0 0.0 0.0 2918.3710000000688
2.8836974120675585 -1.3041122049735812 1.7894596487257 -2.056143788856959 -1.5707963110863854 1.3129010864578297 0.0 0.0 0.0 0.0 0.0 0.0 2918.421000000069
2.8836976002993366 -1.296658798296473 1.8024032058279813 -2.0765407449643156 -1.5707963176860946 1.3129012741924269 0.0 0.0 0.0 0.0 0.0 0.0 2918.471000000069
2.88369773707304 -1.2912429750760057 1.8118083034091024 -2.0913616601912213 -1.5707963224816008 1.312901410604867 -2.4841829134756053e-07 -0.009836609790679983 -0.017082218378016538 0.026918818043555302 8.70994514070002e-09 -2.4776213864133414e-07 2918.5210000000693
2.883697819853788 -1.2879651088814719 1.8175006331182666 -2.1003318527209056 -1.5707963253840271 1.3129014931669647 -8.567896170966883e-07 -0.03392626642091668 -0.05891622256907745 0.0928424540685887 3.004042303629191e-08 -8.545265598037851e-07 2918.5710000000695
2.883697855232271 -1.2865642284327108 1.819933396667544 -2.1041654952769724 -1.5707963266244536 1.3129015284520014 -1.6426025795226455e-06 -0.06504207290163909 -0.11295181131586447 0.1779938172675902 5.75922903180981e-08 -1.638263937138618e-06 2918.6210000000697
2.883697860952651 -1.2863377187446738 1.820326752512507 -2.1047853605768188 -1.5707963268250194 1.3129015341572723 -2.453764347188149e-06 -0.097161615075288 -0.16873048357061235 0.26589199863430135 8.603292751222061e-08 -2.447283165355219e-06 2918.67100000007
2.883697860952651 -1.2863377187446738 1.820326752512507 -2.1047853605768188 -1.5707963268250194 1.3129015341572723 -3.1686006549433746e-06 -0.12546696161581614 -0.21788543849510894 0.3433522709637157 1.1109623903954111e-07 -3.1602313602210994e-06 2918.72100000007
2.883697860952651 -1.2863377187446738 1.820326752512507 -2.1047853605768188 -1.5707963268250194 1.3129015341572723 -3.695855803925952e-06 -0.14634466402868793 -0.25414157546069505 0.4004860888520779 1.2958265321572072e-07 -3.68609385856189e-06 2918.77100000007
2.883697860952651 -1.2863377187446738 1.820326752512507 -2.1047853605768188 -1.5707963268250194 1.3129015341572723 -3.9746926615609685e-06 -0.15738575665087975 -0.2733154940482646 0.4307010886968847 1.3935912225120032e-07 -3.964194218261347e-06 2918.8210000000704
2.883697860952651 -1.2863377187446738 1.820326752512507 -2.1047853605768188 -1.5707963268250194 1.3129015341572723 -3.974692661560969e-06 -0.15738575665087978 -0.27331549404826466 0.4307010886968849 1.393591222512004e-07 -3.964194218261346e-06 2918.8710000000706
2.883697860952651 -1.2863377187446738 1.820326752512507 -2.1047853605768188 -1.5707963268250194 1.3129015341572723 -3.6958558039259543e-06 -0.14634466402868798 -0.2541415754606952 0.40048608885207804 1.2958265321572083e-07 -3.6860938585618917e-06 2918.9210000000708
2.883697860952651 -1.2863377187446738 1.820326752512507 -2.1047853605768188 -1.5707963268250194 1.3129015341572723 -3.1686006549433784e-06 -0.12546696161581633 -0.21788543849510925 0.34335227096371596 1.1109623903954127e-07 -3.160231360221103e-06 2918.971000000071
2.883697855232271 -1.286564228432711 1.819933396667544 -2.1041654952769724 -1.5707963266244536 1.3129015284520014 -2.453764347188154e-06 -0.09716161507528803 -0.16873048357061268 0.2658919986343019 8.603292751222081e-08 -2.447283165355224e-06 2919.021000000071
2.883697819853788 -1.287965108881472 1.8175006331182666 -2.100331852720905 -1.5707963253840271 1.3129014931669647 -1.6426025795226408e-06 -0.06504207290163891 -0.11295181131586418 0.17799381726759025 5.7592290318097946e-08 -1.6382639371386148e-06 2919.0710000000713
2.88369773707304 -1.2912429750760057 1.8118083034091024 -2.0913616601912213 -1.5707963224816008 1.312901410604867 -8.567896170966823e-07 -0.03392626642091632 -0.058916222569076894 0.09284245406858782 3.004042303629162e-08 -8.545265598037733e-07 2919.1210000000715
2.8836976002993366 -1.296658798296473 1.8024032058279815 -2.0765407449643156 -1.5707963176860946 1.3129012741924269 -2.4841829134756074e-07 -0.00983660979068001 -0.01708221837801634 0.026918818043554855 8.709945140699972e-09 -2.477621386413301e-07 2919.1710000000717
2.8836974120675585 -1.3041122049735812 1.7894596487257 -2.056143788856959 -1.5707963110863854 1.3129010864578297 0.0 0.0 0.0 0.0 0.0 0.0 2919.221000000072
2.8836971820102515 -1.313221775544018 1.773640003835283 -2.0312145827728814 -1.5707963030202061 1.3129008570081784 0.0 0.0 0.0 0.0 0.0 0.0 2919.271000000072
2.883696924829723 -1.3234053433058863 1.7559552595913481 -2.0033462812493545 -1.5707962940030427 1.3129006005069466 0.0 0.0 0.0 0.0 0.0 0.0 2919.321000000072
2.883696658270137 -1.3339602932741372 1.7376255744494675 -1.974461657003775 -1.5707962846570347 1.3129003346514299 0.0 0.0 0.0 0.0 0.0 0.0 2919.3710000000724
2.8836964010896087 -1.3441438610360055 1.7199408302055326 -1.9465933554802481 -1.5707962756398712 1.312900078150198 0.0 0.0 0.0 0.0 0.0 0.0 2919.4210000000726
2.8836961710323017 -1.3532534316064424 1.7041211853151157 -1.9216641493961706 -1.570796267573692 1.3128998487005468 0.0 0.0 0.0 0.0 0.0 0.0 2919.4710000000728
2.8836959828005235 -1.3607068382835505 1.6911776282128343 -1.901267193288814 -1.5707962609739827 1.3128996609659496 0.0 0.0 0.0 0.0 0.0 0.0 2919.521000000073
2.88369584602682 -1.3661226615040178 1.6817725306317133 -1.886446278061908 -1.5707962561784765 1.3128995245535093 0.0 0.0 0.0 0.0 0.0 0.0 2919.571000000073
2.883695763246072 -1.3694005276985517 1.676080200922549 -1.8774760855322241 -1.5707962532760502 1.3128994419914117 0.0 0.0 0.0 0.0 0.0 0.0 2919.6210000000733
2.883695727867589 -1.3708014081473126 1.6736474373732717 -1.8736424429761573 -1.5707962520356238 1.312899406706375 0.0 0.0 0.0 0.0 0.0 0.0 2919.6710000000735
2.883695722147209 -1.3710279178353497 1.6732540815283086 -1.873022577676311 -1.570796251835058 1.3128994010011041 0.0 0.0 0.0 0.0 0.0 0.0 2919.7210000000737
2.883695722147209 -1.3710279178353497 1.6732540815283086 -1.873022577676311 -1.570796251835058 1.3128994010011041 0.0 0.0 0.0 0.0 0.0 0.0 2919.771000000074
2.883695722147209 -1.3710279178353497 1.6732540815283086 -1.873022577676311 -1.570796251835058 1.3128994010011041 0.0 0.0 0.0 0.0 0.0 0.0 2919.821000000074
2.883695722147209 -1.3710279178353497 1.6732540815283086 -1.873022577676311 -1.570796251835058 1.3128994010011041 0.0 0.0 0.0 0.0 0.0 0.0 2919.871000000074
2.883695722147209 -1.3710279178353497 1.6732540815283086 -1.873022577676311 -1.570796251835058 1.3128994010011041 0.0 0.0 0.0 0.0 0.0 0.0 2919.9210000000744
2.883695722147209 -1.3710279178353497 1.6732540815283086 -1.873022577676311 -1.570796251835058 1.3128994010011041 0.0 0.0 0.0 0.0 0.0 0.0 2919.9710000000746
2.883695722147209 -1.3710279178353497 1.6732540815283086 -1.873022577676311 -1.570796251835058 1.3128994010011041 0.0 0.0 0.0 0.0 0.0 0.0 2920.0210000000748
2.883695722147209 -1.3710279178353497 1.6732540815283086 -1.873022577676311 -1.570796251835058 1.3128994010011041 0.0 0.0 0.0 0.0 0.0 0.0 2920.071000000075
2.883695722147209 -1.3710279178353497 1.6732540815283086 -1.873022577676311 -1.570796251835058 1.3128994010011041 0.0 0.0 0.0 0.0 0.0 0.0 2920.121000000075
2.883695722147209 -1.3710279178353497 1.6732540815283086 -1.873022577676311 -1.570796251835058 1.3128994010011041 0.0 0.0 0.0 0.0 0.0 0.0 2920.1710000000753
2.883695722147209 -1.3710279178353497 1.6732540815283086 -1.873022577676311 -1.570796251835058 1.3128994010011041 0.0 0.0 0.0 0.0 0.0 0.0 2920.2210000000755
2.883695722147209 -1.3710279178353497 1.6732540815283086 -1.873022577676311 -1.570796251835058 1.3128994010011041 0.0 0.0 0.0 0.0 0.0 0.0 2920.2710000000757
2.883695722147209 -1.3710279178353497 1.6732540815283086 -1.873022577676311 -1.570796251835058 1.3128994010011041 0.0 0.0 0.0 0.0 0.0 0.0 2920.321000000076
2.883695722147209 -1.3710279178353497 1.6732540815283086 -1.873022577676311 -1.570796251835058 1.3128994010011041 0.0 0.0 0.0 0.0 0.0 0.0 2920.371000000076
2.883695722147209 -1.3710279178353497 1.6732540815283086 -1.873022577676311 -1.570796251835058 1.3128994010011041 0.0 0.0 0.0 0.0 0.0 0.0 2920.421000000076
2.883695722147209 -1.3710279178353497 1.6732540815283086 -1.873022577676311 -1.570796251835058 1.3128994010011041 0.0 0.0 0.0 0.0 0.0 0.0 2920.4710000000764
2.883695722147209 -1.3710279178353497 1.6732540815283086 -1.873022577676311 -1.570796251835058 1.3128994010011041 0.0 0.0 0.0 0.0 0.0 0.0 2920.5210000000766
2.883695722147209 -1.3710279178353497 1.6732540815283086 -1.873022577676311 -1.570796251835058 1.3128994010011041 0.0 0.0 0.0 0.0 0.0 0.0 2920.5710000000768
2.883695722147209 -1.3710279178353497 1.6732540815283086 -1.873022577676311 -1.570796251835058 1.3128994010011041 0.0 0.0 0.0 0.0 0.0 0.0 2920.621000000077
2.883695722147209 -1.3710279178353497 1.6732540815283086 -1.873022577676311 -1.570796251835058 1.3128994010011041 0.0 0.0 0.0 0.0 0.0 0.0 2920.671000000077
2.883695722147209 -1.3710279178353497 1.6732540815283086 -1.873022577676311 -1.570796251835058 1.3128994010011041 0.0 0.0 0.0 0.0 0.0 0.0 2920.7210000000773
2.883695722147209 -1.3710279178353497 1.6732540815283086 -1.873022577676311 -1.570796251835058 1.3128994010011041 0.0 0.0 0.0 0.0 0.0 0.0 2920.7710000000775
2.883695722147209 -1.3710279178353497 1.6732540815283086 -1.873022577676311 -1.570796251835058 1.3128994010011041 0.0 0.0 0.0 0.0 0.0 0.0 2920.8210000000777
2.883695722147209 -1.3710279178353497 1.6732540815283086 -1.873022577676311 -1.570796251835058 1.3128994010011041 0.0 0.0 0.0 0.0 0.0 0.0 2920.871000000078
2.883695722147209 -1.3710279178353497 1.6732540815283086 -1.873022577676311 -1.570796251835058 1.3128994010011041 0.02274568967068377 -0.0024615674584371233 0.002804997118039152 -0.00034342837019622166 -1.1080036350954892e-09 0.02274568958717412 2920.921000000078
2.883695722147209 -1.3710279178353497 1.6732540815283086 -1.873022577676311 -1.570796251835058 1.3128994010011041 0.0868002089325823 -0.009393628981466923 0.010704196681927666 -0.0013105627799375557 -4.228271308401175e-09 0.08680020861389974 2920.971000000078
