Andreas691667/Digital_Twin_UR/src/dt/dt_trajectories/DUM_dt_trajectory.csv
actual_q_0 actual_q_1 actual_q_2 actual_q_3 actual_q_4 actual_q_5 timestamp
3.71207804710797 -0.8254843255005873 0.8429764792549035 -1.5882884806323445 -1.570796326807946 2.141281720311417 31748.439
3.71207804710797 -0.8254843255005873 0.8429764792549035 -1.5882884806323445 -1.570796326807946 2.141281720311417 31748.488999999998
3.71207804710797 -0.8254843255005873 0.8429764792549035 -1.5882884806323445 -1.570796326807946 2.141281720311417 31748.538999999997
3.71207804710797 -0.8254843255005873 0.8429764792549035 -1.5882884806323445 -1.570796326807946 2.141281720311417 31748.588999999996
3.71207804710797 -0.8254843255005873 0.8429764792549035 -1.5882884806323445 -1.570796326807946 2.141281720311417 31748.638999999996
3.71207804710797 -0.8254843255005873 0.8429764792549035 -1.5882884806323445 -1.570796326807946 2.141281720311417 31748.688999999995
3.71207804710797 -0.8254843255005873 0.8429764792549035 -1.5882884806323445 -1.570796326807946 2.141281720311417 31748.738999999994
3.71207804710797 -0.8254843255005873 0.8429764792549035 -1.5882884806323445 -1.570796326807946 2.141281720311417 31748.788999999993
3.71207804710797 -0.8254843255005873 0.8429764792549035 -1.5882884806323445 -1.570796326807946 2.141281720311417 31748.838999999993
3.71207804710797 -0.8254843255005873 0.8429764792549035 -1.5882884806323445 -1.570796326807946 2.141281720311417 31748.888999999992
3.71207804710797 -0.8254843255005873 0.8429764792549035 -1.5882884806323445 -1.570796326807946 2.141281720311417 31748.93899999999
3.71207804710797 -0.8254843255005873 0.8429764792549035 -1.5882884806323445 -1.570796326807946 2.141281720311417 31748.98899999999
3.71207804710797 -0.8254843255005873 0.8429764792549035 -1.5882884806323445 -1.570796326807946 2.141281720311417 31749.03899999999
3.7122689791773014 -0.8255822011483995 0.8431247541871719 -1.5883388799190803 -1.5707963268548544 2.1411975678393773 31749.08899999999
3.713544740040671 -0.8262361820191524 0.8441154906112279 -1.5886756354876148 -1.5707963271682845 2.1406352818349363 31749.13899999999
3.7168275167322813 -0.8279189998738993 0.8466648449093596 -1.589542171970193 -1.5707963279748003 2.1391884124079175 31749.188999999988
3.7228710753776704 -0.8310170505030092 0.8513581803555411 -1.591137456859419 -1.5707963294595875 2.1365247404448637 31749.238999999987
3.732270668305987 -0.835835472312677 0.8586577608276864 -1.593618615634119 -1.5707963317688887 2.1323819110927604 31749.288999999986
3.7454729411622654 -0.8426032249114345 0.8689104445199027 -1.5971035468852008 -1.5707963350124359 2.126563067242757 31749.338999999985
3.762785840019699 -0.8514781676966612 0.8823553776547448 -1.601673537441516 -1.5707963392658857 2.118932483013891 31749.388999999985
3.784388518491916 -0.8625521384410955 0.8991316881954681 -1.6073758774957212 -1.5707963445732527 2.109411197236808 31749.438999999984
3.810341244845251 -0.8758560318793451 0.9192861795582831 -1.6142264757301383 -1.5707963509493437 2.0979726469374858 31749.488999999983
3.840595309111022 -0.8913648782943985 0.9427810243246088 -1.6222124744426163 -1.5707963583821913 2.0846383008209557 31749.538999999982
3.8750029301978044 -0.9090029221041348 0.9695014579533265 -1.631294864672393 -1.5707963668354892 2.069473292755027 31749.58899999998
3.913327163003703 -0.9286487004478358 0.9992634724930336 -1.6414111013259551 -1.5707963762510238 2.0525820552540046 31749.63899999998
3.955251805528629 -0.9501401217726961 1.0318215102942974 -1.6524777183029 -1.5707963865511108 2.0341039529624183 31749.68899999998
4.000391305986574 -0.9732795444203346 1.0668761577219086 -1.664392943621797 -1.5707963976410269 2.014208916138738 31749.73899999998
4.048300669917882 -0.9978388552133042 1.1040818388671358 -1.6770393145460483 -1.570796409411446 1.9930930741391024 31749.78899999998
4.098485367301527 -1.023564548041604 1.143054509259978 -1.6902862927097497 -1.570796421740871 1.970974388901036 31749.838999999978
4.150411239667386 -1.0501828024491897 1.18337934958142 -1.7039928792435532 -1.5707964344980696 1.9480882884271746 31749.888999999977
4.203514407208509 -1.077404562220484 1.2246184593756846 -1.7180102299005264 -1.5707964475445073 1.9246833002689874 31749.938999999977
4.257211175893402 -1.104930613966888 1.2663185507624877 -1.7321842701820154 -1.5707964607367817 1.9010166850104984 31749.988999999976
4.310907944578295 -1.132456665713292 1.3080186421492905 -1.7463583104635043 -1.5707964739290559 1.8773500697520094 31750.038999999975
4.364011112119418 -1.1596784254845862 1.3492577519435551 -1.7603756611204775 -1.5707964869754936 1.8539450815938223 31750.088999999974
4.415936984485277 -1.186296679892172 1.3895825922649974 -1.774082247654281 -1.5707964997326922 1.8310589811199607 31750.138999999974
4.4661216818689216 -1.2120223727204718 1.4285552626578395 -1.7873292258179825 -1.5707965120621172 1.808940295881894 31750.188999999973
4.5140310458002295 -1.2365816835134416 1.4657609438030668 -1.7999755967422335 -1.5707965238325363 1.7878244538822583 31750.238999999972
4.559170546258174 -1.2597211061610796 1.5008155912306775 -1.8118908220611303 -1.5707965349224524 1.7679294170585786 31750.28899999997
4.6010951887831 -1.2812125274859398 1.533373629031941 -1.8229574390380754 -1.5707965452225394 1.7494513147669921 31750.33899999997
4.6394194215889994 -1.300858305829641 1.5631356435716484 -1.8330736756916375 -1.570796554638074 1.7325600772659702 31750.38899999997
4.673827042675781 -1.3184963496393776 1.5898560772003665 -1.8421560659214142 -1.5707965630913718 1.7173950692000408 31750.43899999997
4.704081106941552 -1.3340051960544304 1.6133509219666915 -1.850142064633892 -1.5707965705242195 1.7040607230835114 31750.48899999997
4.730033833294889 -1.3473090894926805 1.6335054133295075 -1.8569926628683096 -1.5707965769003105 1.6926221727841884 31750.538999999968
4.751636511767105 -1.3583830602371147 1.6502817238702299 -1.8626950029225142 -1.5707965822076775 1.683100887007106 31750.588999999967
4.768949410624538 -1.367258003022341 1.6637266570050717 -1.8672649934788295 -1.5707965864611273 1.6754703027782398 31750.638999999966
4.782151683480817 -1.3740257556210984 1.6739793406972883 -1.8707499247299113 -1.5707965897046745 1.6696514589282365 31750.688999999966
4.791551276409134 -1.3788441774307665 1.681278921169434 -1.8732310835046113 -1.5707965920139757 1.665508629576133 31750.738999999965
4.7975948350545226 -1.381942228059876 1.6859722566156154 -1.8748263683938375 -1.5707965934987629 1.662844957613079 31750.788999999964
4.800877611746131 -1.383625045914623 1.6885216109137464 -1.8756929048764155 -1.5707965943052786 1.6613980881860604 31750.838999999964
4.802153372609503 -1.384279026785376 1.689512347337803 -1.8760296604449502 -1.5707965946187088 1.6608358021816192 31750.888999999963
4.802344304678834 -1.3843769024331887 1.689660622270071 -1.8760800597316858 -1.5707965946656173 1.6607516497095798 31750.938999999962
4.802344304678834 -1.384376902433189 1.6896606222700719 -1.8760800597316862 -1.5707965946656173 1.6607516497095798 31750.98899999996
4.802344307386492 -1.384147745783343 1.6900552203559738 -1.8767038144324433 -1.5707965939491735 1.6607516524209287 31751.03899999996
4.802344324132375 -1.3827304948337065 1.6924956667159023 -1.8805615115256038 -1.5707965895182276 1.66075166918964 31751.08899999996
4.802344363315421 -1.3794143239348313 1.6982059731377366 -1.8895879883399567 -1.5707965791504284 1.6607517084261019 31751.13899999996
4.802344428055237 -1.3739352121312087 1.7076407725712601 -1.9045018987404798 -1.5707965620203306 1.6607517732541726 31751.18899999996
4.802344517151974 -1.366394705944188 1.720625206189633 -1.9250268373944897 -1.5707965384454132 1.6607518624723678 31751.238999999958
4.802344626046208 -1.3571786821548983 1.736494810450864 -1.9501124640377867 -1.5707965096320957 1.660751971515049 31751.288999999957
4.80234474777882 -1.3468761105871672 1.7542354041592816 -1.978155627740803 -1.5707964774217549 1.6607520934136086 31751.338999999956
4.8023448739508705 -1.3361978168904423 1.7726229755270069 -2.0072214911747506 -1.5707964440367426 1.660752219757659 31751.388999999956
4.802344995683482 -1.325895245322711 1.7903635692354243 -2.035264654877767 -1.5707964118264017 1.6607523416562187 31751.438999999955
4.802345104577716 -1.3166792215334213 1.8062331734966552 -2.060350281521064 -1.5707963830130842 1.6607524506988998 31751.488999999954
4.802345193674453 -1.3091387153464007 1.8192176071150283 -2.0808752201750735 -1.5707963594381669 1.660752539917095 31751.538999999953
4.802345258414269 -1.3036596035427779 1.8286524065485519 -2.0957891305755973 -1.570796342308069 1.6607526047451657 31751.588999999953
4.8023452975973155 -1.3003434326439027 1.8343627129703863 -2.1048156073899498 -1.5707963319402698 1.6607526439816276 31751.638999999952
4.8023453143431984 -1.2989261816942663 1.8368031593303147 -2.1086733044831103 -1.570796327509324 1.660752660750339 31751.68899999995
4.8023453170508565 -1.2986970250444205 1.8371977574162166 -2.1092970591838673 -1.5707963267928802 1.6607526634616878 31751.73899999995
4.8023453170508565 -1.2986970250444205 1.8371977574162166 -2.1092970591838673 -1.5707963267928802 1.6607526634616878 31751.78899999995
4.8023453170508565 -1.2986970250444205 1.8371977574162166 -2.1092970591838673 -1.5707963267928802 1.6607526634616878 31751.83899999995
4.8023453170508565 -1.2986970250444205 1.8371977574162166 -2.1092970591838673 -1.5707963267928802 1.6607526634616878 31751.88899999995
4.8023453170508565 -1.2986970250444205 1.8371977574162166 -2.1092970591838673 -1.5707963267928802 1.6607526634616878 31751.938999999948
4.8023453170508565 -1.2986970250444205 1.8371977574162166 -2.1092970591838673 -1.5707963267928802 1.6607526634616878 31751.988999999947
4.8023453170508565 -1.2986970250444205 1.8371977574162166 -2.1092970591838673 -1.5707963267928802 1.6607526634616878 31752.038999999946
4.8023453170508565 -1.2986970250444205 1.8371977574162166 -2.1092970591838673 -1.5707963267928802 1.6607526634616878 31752.088999999945
4.8023453170508565 -1.2986970250444205 1.8371977574162166 -2.1092970591838673 -1.5707963267928802 1.6607526634616878 31752.138999999945
4.8023453170508565 -1.2986970250444205 1.8371977574162166 -2.1092970591838673 -1.5707963267928802 1.6607526634616878 31752.188999999944
4.8023453170508565 -1.2986970250444205 1.8371977574162166 -2.1092970591838673 -1.5707963267928802 1.6607526634616878 31752.238999999943
4.8023453170508565 -1.2986970250444205 1.8371977574162166 -2.1092970591838673 -1.5707963267928802 1.6607526634616878 31752.288999999942
4.8023453170508565 -1.2986970250444205 1.8371977574162166 -2.1092970591838673 -1.5707963267928802 1.6607526634616878 31752.33899999994
4.8023453170508565 -1.2986970250444205 1.8371977574162166 -2.1092970591838673 -1.5707963267928802 1.6607526634616878 31752.38899999994
4.8023453170508565 -1.2986970250444205 1.8371977574162166 -2.1092970591838673 -1.5707963267928802 1.6607526634616878 31752.43899999994
4.8023453143431984 -1.2989261816942663 1.8368031593303147 -2.1086733044831103 -1.570796327509324 1.660752660750339 31752.48899999994
4.8023452975973155 -1.300343432643903 1.8343627129703861 -2.1048156073899498 -1.5707963319402698 1.6607526439816276 31752.53899999994
4.802345258414269 -1.303659603542778 1.8286524065485519 -2.095789130575597 -1.570796342308069 1.6607526047451657 31752.588999999938
4.802345193674453 -1.3091387153464007 1.8192176071150283 -2.0808752201750735 -1.5707963594381669 1.660752539917095 31752.638999999937
4.802345104577716 -1.3166792215334213 1.8062331734966555 -2.060350281521064 -1.5707963830130842 1.6607524506988998 31752.688999999937
4.802344995683482 -1.325895245322711 1.7903635692354245 -2.035264654877767 -1.5707964118264017 1.6607523416562187 31752.738999999936
4.8023448739508705 -1.3361978168904423 1.7726229755270069 -2.0072214911747506 -1.5707964440367426 1.660752219757659 31752.788999999935
4.80234474777882 -1.3468761105871672 1.7542354041592816 -1.978155627740803 -1.5707964774217549 1.6607520934136086 31752.838999999934
4.802344626046208 -1.3571786821548981 1.7364948104508642 -1.9501124640377867 -1.5707965096320957 1.660751971515049 31752.888999999934
4.802344517151974 -1.366394705944188 1.7206252061896332 -1.9250268373944899 -1.5707965384454132 1.6607518624723678 31752.938999999933
4.802344428055237 -1.3739352121312087 1.7076407725712601 -1.90450189874048 -1.5707965620203306 1.6607517732541726 31752.988999999932
4.802344363315421 -1.3794143239348315 1.6982059731377366 -1.8895879883399564 -1.5707965791504284 1.6607517084261019 31753.03899999993
4.802344324132375 -1.3827304948337067 1.6924956667159021 -1.8805615115256038 -1.5707965895182276 1.66075166918964 31753.08899999993
4.802344307386492 -1.384147745783343 1.6900552203559738 -1.876703814432443 -1.5707965939491735 1.6607516524209287 31753.13899999993
4.802344304678834 -1.384376902433189 1.6896606222700719 -1.8760800597316862 -1.5707965946656173 1.6607516497095798 31753.18899999993
4.802344304678834 -1.384376902433189 1.6896606222700719 -1.8760800597316862 -1.5707965946656173 1.6607516497095798 31753.23899999993
4.802212309909164 -1.384373871400779 1.6896568459491903 -1.8760793144421866 -1.570796594646128 1.6607346151579627 31753.288999999928
4.801319584917722 -1.3843533715098446 1.689631305421826 -1.876074273798804 -1.5707965945143145 1.6606194047599698 31753.338999999927
4.798989611424414 -1.3842998676839735 1.6895646457535802 -1.8760611179382838 -1.5707965941702873 1.6603187106200612 31753.388999999926
4.7946343172108 -1.384199855858134 1.6894400424187244 -1.8760365263953482 -1.5707965935272155 1.6597566392268146 31753.438999999926
4.787750312457899 -1.3840417765526598 1.6892430936232345 -1.8759976568517203 -1.5707965925107725 1.6588682257344527 31753.488999999925
4.77791512608398 -1.383815928447232 1.688961712627827 -1.8759421238851444 -1.570796591058579 1.6575989482443698 31753.538999999924
4.764783442082378 -1.383514381954864 1.688586020070994 -1.8758679777184097 -1.5707965891196483 1.6559042420866585 31753.588999999924
4.748083335859287 -1.3831308927958859 1.6881082362920383 -1.8757736829683724 -1.5707965866538296 1.6537490141016378 31753.638999999923
4.727612510571563 -1.3826608155719262 1.6875225736541093 -1.8756580973949766 -1.5707965836312534 1.6511071569213778 31753.688999999922
4.703234533464529 -1.382101017339898 1.686825128867238 -1.8755204506502783 -1.5707965800317751 1.647961063251229 31753.73899999992
4.674875072209772 -1.3814497911859813 1.686013775311372 -1.8753603230274662 -1.5707965758444193 1.6443011401513474 31753.78899999992
4.642518131242952 -1.3807067697996072 1.6850880553594116 -1.8751776242098848 -1.5707965710668241 1.6401253233182225 31753.83899999992
4.606202288101599 -1.3798728390474417 1.6840490727002448 -1.8749725720200563 -1.5707965657046858 1.6354385913662033 31753.88899999992
4.566016929762916 -1.3789500515473696 1.6828993846617821 -1.874745671168703 -1.5707965597712024 1.6302524801090263 31753.93899999992
4.522098488981579 -1.3779415402424784 1.6816428945339927 -1.874497692003769 -1.5707965532865187 1.6245845968413415 31753.988999999918
4.474626680627545 -1.3768514319750413 1.6802847438919395 -1.8742296492594435 -1.5707965462771698 1.6184581346202391 31754.038999999917
4.4238207380238475 -1.3756847610605023 1.678831204918814 -1.8739427808051814 -1.5707965387755267 1.6119013865467775 31754.088999999916
4.369935649284402 -1.374447382861459 1.6772895727289723 -1.873638526394727 -1.5707965308192389 1.6049472600475096 31754.138999999916
4.3132583936518065 -1.3731458873616467 1.6756680576909702 -1.8733185064151359 -1.5707965224506795 1.597632791156009 31754.188999999915
4.254104177835144 -1.371787512739922 1.673975677750598 -1.8729845006357966 -1.5707965137163897 1.5899986587943984 31754.238999999914
4.192812672347786 -1.3703800589442472 1.672222150753917 -1.8726384269574534 -1.570796504666523 1.5820886990548748 31754.288999999913
4.129744247845192 -1.3689318012656735 1.6704177867702936 -1.8722823201612282 -1.5707964953542892 1.5739494194812382 31754.338999999913
4.065276211462712 -1.3674514039123251 1.668573380415436 -1.871918310657643 -1.5707964858353987 1.5656295133504166 31754.388999999912
3.9997990431533905 -1.365947833583383 1.6667001031744273 -1.8715486032356417 -1.570796476167507 1.5571793739539947 31754.43899999991
3.933712632025766 -1.3644302730430682 1.6648093957247636 -1.8711754558116132 -1.5707964664096588 1.5486506088797394 31754.48899999991
3.867422512681674 -1.3629080346946267 1.6629128602593872 -1.8708011581784123 -1.5707964566217325 1.5400955542931274 31754.53899999991
3.8013361015540488 -1.361390474154312 1.6610221528097235 -1.8704280107543838 -1.5707964468638842 1.531566789218872 31754.58899999991
3.735858933244727 -1.3598869038253698 1.659148875568715 -1.8700583033323825 -1.5707964371959926 1.52311664982245 31754.63899999991
3.6713908968622473 -1.3584065064720214 1.657304469213857 -1.8696942938287973 -1.570796427677102 1.5147967436916285 31754.688999999908
3.608322472359654 -1.3569582487934477 1.6555001052302338 -1.869338187032572 -1.5707964183648682 1.506657464117992 31754.738999999907
3.5470309668722955 -1.355550794997773 1.6537465782335528 -1.8689921133542289 -1.5707964093150015 1.4987475043784684 31754.788999999906
3.4878767510556337 -1.3541924203760485 1.6520541982931807 -1.8686581075748896 -1.5707964005807118 1.4911133720168577 31754.838999999905
3.431199495423038 -1.352890924876236 1.6504326832551786 -1.8683380875952984 -1.5707963922121524 1.4837989031253573 31754.888999999905
3.3773144066835927 -1.3516535466771926 1.6488910510653367 -1.868033833184844 -1.5707963842558645 1.4768447766260893 31754.938999999904
3.3265084640798936 -1.3504868757626536 1.6474375120922113 -1.867746964730582 -1.5707963767542215 1.4702880285526276 31754.988999999903
3.27903665572586 -1.3493967674952165 1.646079361450158 -1.8674789219862564 -1.5707963697448726 1.4641615663315255 31755.038999999902
3.235118214944524 -1.3483882561903253 1.6448228713223687 -1.8672309428213225 -1.570796363260189 1.4584936830638404 31755.0889999999
3.1949328566058393 -1.3474654686902532 1.643673183283906 -1.8670040419699692 -1.5707963573267054 1.4533075718066635 31755.1389999999
3.1586170134644878 -1.3466315379380878 1.6426342006247392 -1.8667989897801407 -1.5707963519645671 1.4486208398546445 31755.1889999999
3.126260072497666 -1.3458885165517136 1.6417084806727789 -1.8666162909625592 -1.570796347186972 1.4444450230215193 31755.2389999999
3.0979006112429097 -1.345237290397797 1.6408971271169128 -1.8664561633397472 -1.5707963429996161 1.4407850999216378 31755.2889999999
4.802400588989258 -1.384418086414673 1.6896846930133265 -1.876108785668844 -1.57084829012026 1.6607897281646729 31755.788999999997
4.8022096470631785 -1.3843202035545463 1.689536413865687 -1.8760583813515 -1.5708482810202236 1.6608738739682511 31755.838999999996
4.800933820339456 -1.383666174492894 1.6885456492755642 -1.8757215921696841 -1.5708482202160303 1.6614361154156838 31755.888999999996
4.797650874176561 -1.3819832326337458 1.685996222500756 -1.8748549691937046 -1.5708480637552122 1.6628828701889986 31755.938999999995
4.791607003536256 -1.378884953713789 1.6813027536257468 -1.8732595250710027 -1.5708477757124308 1.6655463310757443 31755.988999999994
4.78220692535986 -1.374066176841623 1.6740029656307267 -1.8707781186392611 -1.5708473277172925 1.6696888321392533 31756.038999999993
4.769003970944542 -1.3672979255370152 1.6637499904606095 -1.867292839539516 -1.570846698482165 1.6755072148889054 31756.088999999993
4.751690178319584 -1.358422328770157 1.6503046750940507 -1.8627223928292647 -1.570845873329993 1.6831371944503914 31756.138999999992
4.730086384622666 -1.3473475420009178 1.6335278876124668 -1.8570194835955771 -1.5708448437221147 1.6926577257359763 31756.18899999999
4.704132318476142 -1.3340426682181017 1.6133728232690532 -1.8501682015682048 -1.5708436067860767 1.7040953696147632 31756.23899999999
4.673876692363315 -1.3185326789787026 1.5898773105578028 -1.842181405732691 -1.570842164843451 1.7174286590829564 31756.28899999999
4.6394672950047156 -1.30089333544716 1.563156117282524 -1.8330981089434808 -1.5708405249376498 1.7325924654341254 31756.33899999999
4.601141083734381 -1.2812461094346135 1.53339325662586 -1.8229808625370298 -1.5708386983617426 1.7494823644294677 31756.38899999999
4.559214276876131 -1.2597531044381596 1.5008342932183059 -1.8119131409449156 -1.5708367001862713 1.7679590024680731 31756.438999999988
4.51407244611984 -1.236611976680106 1.465778649207228 -1.7999967263069467 -1.570834548787066 1.7878524627571872 31756.488999999987
4.466160608897725 -1.2120508561472279 1.428571910325883 -1.7873490930842726 -1.570832265373062 1.8089666314824735 31756.538999999986
4.415973320760614 -1.1863232676300233 1.3895981319624349 -1.7741007926724934 -1.5708298735141144 1.8310835639782788 31756.588999999985
4.364044767754225 -1.1597030517619675 1.3492721452289738 -1.7603928380147698 -1.5708273986688146 1.8539678508978956 31756.638999999985
4.310938858795447 -1.1324792860587705 1.3080318630305343 -1.746374088214933 -1.570824867712307 1.877370984383826 31756.688999999984
4.257239318048613 -1.10495120595763 1.266330586134115 -1.7321986331505943 -1.5708223084641029 1.901035724238045 31756.738999999983
4.20353977730178 -1.0774231258564897 1.2246293092376956 -1.7180231780862558 -1.570819749215899 1.9247004640922638 31756.788999999982
4.150433868343002 -1.0501993601532926 1.1833890270392569 -1.704004428286419 -1.5708172182593914 1.9481035975781942 31756.83899999998
4.098505315336615 -1.0235791442852369 1.143063040305795 -1.6902964736286952 -1.5708147434140916 1.970987884497811 31756.88899999998
4.048318027199503 -0.9978515557680322 1.104089261942347 -1.677048173216916 -1.570812351555144 1.9931048169936163 31756.93899999998
4.0004061899773875 -0.9732904352351543 1.066882523061002 -1.6644005399942419 -1.5708100681411399 2.0142189857189026 31756.98899999998
3.955264359221098 -0.950149307477101 1.0318268790499245 -1.6524841253562732 -1.5708079167419347 2.034112446008016 31757.03899999998
3.9133375523628464 -0.9286563024806471 0.9992679156423709 -1.641416403764159 -1.5708059185664633 2.052589084046622 31757.088999999978
3.8750113410925118 -0.9090090764681005 0.969505054985706 -1.631299157357708 -1.5708040919905562 2.0694789830419644 31757.138999999977
3.8406019437339127 -0.8913697329365575 0.9427838617104269 -1.6222158605684973 -1.570802452084755 2.0846427893931336 31757.188999999977
3.810346317621086 -0.8758597436971591 0.9192883489991774 -1.614229064732984 -1.5708010101421293 2.0979760788613264 31757.238999999976
3.78439225147456 -0.8625548699143422 0.8991332846557629 -1.6073777827056113 -1.5707997732060912 2.109413722740114 31757.288999999975
3.762788457777643 -0.8514800831451033 0.8823564971741802 -1.601674873471924 -1.570798743598213 2.118934254025698 31757.338999999974
3.7454746651526856 -0.8426044863782449 0.8689111818076212 -1.597104426761673 -1.570797918446041 2.1265642335871844 31757.388999999974
3.7322717107373684 -0.8358362350736379 0.8586582066375037 -1.5936191476619277 -1.5707972892109134 2.1323826163368365 31757.438999999973
3.722871632560971 -0.831017458201472 0.8513584186424845 -1.5911377412301864 -1.5707968412157751 2.1365251174003452 31757.488999999972
3.7168277619206647 -0.8279191792815142 0.8466649497674741 -1.589542297107484 -1.5707965531729937 2.139188578287091 31757.53899999997
3.7135448157577695 -0.8262362374223668 0.8441155229926665 -1.5886756741315047 -1.5707963967121756 2.1406353330604055 31757.58899999997
3.7122689890340492 -0.8255822083607134 0.8431247584025439 -1.5883388849496893 -1.5707963359079824 2.141197574507839 31757.63899999997
3.712078047107969 -0.8254843255005877 0.8429764792549044 -1.588288480632345 -1.570796326807946 2.141281720311417 31757.68899999997
3.712078047107969 -0.8254843255005877 0.8429764792549044 -1.588288480632345 -1.570796326807946 2.141281720311417 31757.73899999997
3.712078047107969 -0.8254843255005877 0.8429764792549044 -1.588288480632345 -1.570796326807946 2.141281720311417 31757.788999999968
3.712078047107969 -0.8254843255005877 0.8429764792549044 -1.588288480632345 -1.570796326807946 2.141281720311417 31757.838999999967
4.550821304321289 -1.4536046993783494 1.9114225546466272 -2.0286432705321253 -1.5708087126361292 1.409283995628357 31758.238999999998
4.550662358601722 -1.4534856676675814 1.9112200791825182 -2.028559821266401 -1.5708087102889576 1.4094227125766854 31758.288999999997
4.549601700425432 -1.4526913590343762 1.9098689433539533 -2.0280029572864424 -1.5708086946260835 1.4103483824584198 31758.338999999996
4.546876593541303 -1.4506505734421287 1.9063975237862492 -2.0265722288017782 -1.5708086543840842 1.4127266692840306 31758.388999999996
4.5418679951118435 -1.4468997203758778 1.9000172431829223 -2.0239426275619126 -1.5708085804214753 1.4170978312846607 31758.438999999995
4.534091847021453 -1.4410762970531161 1.8901114766239788 -2.0198600146417798 -1.570808465590109 1.4238843212623882 31758.488999999994
4.523190367184688 -1.4329123666345986 1.876224457864206 -2.0141365482272 -1.570808304606572 1.4333983869404878 31758.538999999993
4.508923340854524 -1.4222280364351532 1.8580501856314628 -2.0066461114003373 -1.5708080939235824 1.445849671313694 31758.588999999993
4.491159411930631 -1.4089249361344889 1.8354213299249718 -1.9973197399251543 -1.5708078316013883 1.4613528129984625 31758.638999999992
4.46986737426762 -1.3929796959880063 1.8082981383136083 -1.9861410500328691 -1.5708075171791644 1.4799350465832335 31758.68899999999
4.445107462983327 -1.374437425037607 1.7767573422341936 -1.97314166620741 -1.5708071515464106 1.5015438029786923 31758.73899999999
4.4170226457670685 -1.353405189322502 1.7409810632897842 -1.9583966489708728 -1.5708067368143486 1.526054309768034 31758.78899999999
4.385829914187904 -1.3300454900900225 1.7012457195479633 -1.942019922668977 -1.5708062761873205 1.5532771915572232 31758.83899999999
4.351811575002909 -1.3045697420064284 1.6579109318391325 -1.9241597032565207 -1.570805773834186 1.5829660703252582 31758.88899999999
4.315306541465434 -1.2772317513677183 1.6114084300548013 -1.9049939260828384 -1.5708052347597203 1.6148251657744321 31758.938999999988
4.2767016246333736 -1.248321194310439 1.5622309594458794 -1.8847256736772549 -1.5708046646760114 1.6485168956805962 31758.988999999987
4.236422824677427 -1.2181570950224943 1.5109211869209673 -1.8635786035345436 -1.570804069873858 1.6836694762434208 31759.038999999986
4.194926622189367 -1.187081303953955 1.4580606073446463 -1.8417923759003814 -1.5708034570941665 1.7198845224366583 31759.088999999985
4.1526912694903055 -1.1554519760278685 1.4042584498357713 -1.8196180815568044 -1.57080283339935 1.756744648358406 31759.138999999985
4.1102080819389535 -1.123637048851068 1.3501405840657599 -1.7973136696076655 -1.570802206044725 1.7938210675813677 31759.188999999984
4.067972729239892 -1.0920077209249817 1.2963384265568847 -1.7751393752640885 -1.5708015823499086 1.8306811935031155 31759.238999999983
4.026476526751832 -1.0609319298564424 1.2434778469805639 -1.7533531476299262 -1.5708009695702172 1.866896239696353 31759.288999999982
3.9861977267958855 -1.0307678305684975 1.1921680744556515 -1.732206077487215 -1.5708003747680637 1.9020488202591777 31759.33899999998
3.9475928099638247 -1.001857273511218 1.1429906038467292 -1.7119378250816313 -1.5707998046843548 1.9357405501653422 31759.38899999998
3.9110877764263496 -0.974519282872508 1.0964881020623984 -1.6927720479079489 -1.570799265609889 1.9675996456145157 31759.43899999998
3.8770694372413548 -0.9490435347889143 1.0531533143535676 -1.674911828495493 -1.5707987632567546 1.997288524382551 31759.48899999998
3.8458767056621905 -0.9256838355564345 1.013417970611747 -1.6585351021935972 -1.5707983026297265 2.02451140617174 31759.53899999998
3.817791888445931 -0.9046515998413298 0.9776416916673369 -1.6437900849570601 -1.5707978878976645 2.049021912961081 31759.588999999978
3.7930319771616388 -0.8861093288909303 0.9461008955879229 -1.6307907011316012 -1.5707975222649107 2.0706306693565404 31759.638999999977
3.771739939498628 -0.8701640887444477 0.9189777039765588 -1.6196120112393158 -1.5707972078426868 2.089212902941311 31759.688999999977
3.7539760105747333 -0.8568609884437839 0.8963488482700681 -1.610285639764133 -1.5707969455204926 2.10471604462608 31759.738999999976
3.7397089842445714 -0.8461766582443384 0.8781745760373258 -1.60279520293727 -1.5707967348375032 2.117167328999286 31759.788999999975
3.728807504407805 -0.8380127278258209 0.8642875572775539 -1.597071736522691 -1.5707965738539662 2.1266813946773855 31759.838999999974
3.7210313563174138 -0.8321893045030588 0.8543817907186089 -1.5929891236025573 -1.5707964590225998 2.133467884655113 31759.888999999974
3.7160227578879548 -0.8284384514368082 0.8480015101152834 -1.590359522362692 -1.5707963850599909 2.137839046655743 31759.938999999973
3.713297651003826 -0.8263976658445609 0.844530090547579 -1.5889287938780279 -1.5707963448179916 2.1402173334813535 31759.988999999972
3.7122369928275383 -0.8256033572113557 0.8431789547190149 -1.5883719298980692 -1.5707963291551175 2.141143003363087 31760.03899999997
3.712078047107969 -0.8254843255005877 0.8429764792549044 -1.588288480632345 -1.570796326807946 2.141281720311417 31760.08899999997
3.712078047107969 -0.8254843255005877 0.8429764792549044 -1.588288480632345 -1.570796326807946 2.141281720311417 31760.13899999997
3.712078047107969 -0.8254843255005877 0.8429764792549044 -1.588288480632345 -1.570796326807946 2.141281720311417 31760.18899999997
3.712078047107969 -0.8254843255005877 0.8429764792549044 -1.588288480632345 -1.570796326807946 2.141281720311417 31760.23899999997
4.389563083648682 -1.5131114062717934 1.8884261290179651 -1.9460598431029261 -1.5707686583148401 2.2306292057037354 31760.538999999997
4.389434697106432 -1.5129810977653375 1.8882280114826833 -1.9459920437779723 -1.5707686635581473 2.2306122739427523 31760.588999999996
4.388577962894692 -1.5121115381245471 1.886905956480293 -1.9455396131711293 -1.5707686985471778 2.230499286875378 31760.638999999996
4.386376789745348 -1.5098774131102386 1.8835092531231243 -1.9443772012000906 -1.570768788443103 2.230208993695161 31760.688999999995
4.382331153061156 -1.5057712126881364 1.877266296856293 -1.9422407511377326 -1.5707689536669303 2.229675450598196 31760.738999999994
4.376050060572059 -1.499396091380091 1.867573734528442 -1.9389237848633145 -1.5707692101867867 2.228847093086002 31760.788999999993
4.3672445179914865 -1.4904587286152957 1.8539856094624811 -1.9342736881136804 -1.5707695698052004 2.2276858082683977 31760.838999999993
4.355720494672681 -1.4787621890815055 1.836202506526328 -1.9281879957344596 -1.5707700404463845 2.226166007166376 31760.888999999992
4.341371889264995 -1.464198783076254 1.8140606972036475 -1.9206106769312683 -1.5707706264435184 2.224273697014982 31760.93899999999
4.324173495370209 -1.4467429268580707 1.7875212846645916 -1.9115284205209107 -1.570771328826032 2.2220055535661882 31760.98899999999
4.30417396719884 -1.4264440029977008 1.7566593488365405 -1.9009669201825787 -1.570772145606887 2.219367993391769 31761.03899999999
4.281488785226453 -1.4034192207293197 1.721653091474843 -1.8889871597090553 -1.5707730720698598 2.216376246186179 31761.08899999999
4.256293221849972 -1.3778464763017535 1.6827729812335552 -1.8756816982579139 -1.5707741010568248 2.213053427069426 31761.13899999999
4.228815307043988 -1.3499572133296953 1.6403708987361827 -1.8611709556027192 -1.5707752232550365 2.20942960888995 31761.188999999988
4.199328794017075 -1.320029283144923 1.5948692816464187 -1.8455994973842302 -1.5707764274844118 2.205540894527498 31761.238999999987
4.1681461248680955 -1.2883798051475175 1.5467502697388864 -1.8291323203615992 -1.5707777009848138 2.201428489195997 31761.288999999986
4.135611396242515 -1.2553580271570797 1.4965448499698772 -1.8119511376635737 -1.5707790297033333 2.1971377727464354 31761.338999999985
4.1020933249887115 -1.221338185763949 1.4448220015480921 -1.7942506640396978 -1.5707803985815716 2.1927173719697346 31761.388999999985
4.067978213814284 -1.1867123666804198 1.392177841005382 -1.7762349011115126 -1.570781791842924 2.188218232899626 31761.438999999984
4.033662916942367 -1.1518833650919609 1.3392247672674866 -1.758113422623758 -1.570783193279862 2.183692693115527 31761.488999999983
3.9995478057679397 -1.1172575460084317 1.2865806067247765 -1.7400976596955728 -1.5707845865412144 2.1791935540454177 31761.538999999982
3.9660297345141355 -1.0832377046153012 1.2348577583029916 -1.7223971860716971 -1.5707859554194528 2.174773153268717 31761.58899999998
3.9334950058885556 -1.0502159266248632 1.1846523385339824 -1.7052160033736716 -1.5707872841379722 2.1704824368191553 31761.63899999998
3.9023123367395764 -1.0185664486274573 1.1365333266264497 -1.6887488263510404 -1.5707885576383742 2.1663700314876544 31761.68899999998
3.8728258237126636 -0.9886385184426851 1.0910317095366864 -1.6731773681325515 -1.5707897618677495 2.162481317125202 31761.73899999998
3.8453479089066804 -0.9607492554706272 1.0486296270393134 -1.6586666254773568 -1.5707908840659612 2.1588574989457263 31761.78899999998
3.820152345530199 -0.9351765110430614 1.0097495167980264 -1.6453611640262156 -1.5707919130529262 2.155534679828974 31761.838999999978
3.797467163557811 -0.9121517287746799 0.9747432594363281 -1.633381403552692 -1.570792839515899 2.1525429326233834 31761.888999999977
3.7774676353864423 -0.8918528049143104 0.9438813236082777 -1.6228199032143604 -1.570793656296754 2.149905372448964 31761.938999999977
3.760269241491656 -0.8743969486961269 0.9173419110692214 -1.6137376468040023 -1.5707943586792676 2.1476372290001704 31761.988999999976
3.74592063608397 -0.859833542690875 0.8952001017465401 -1.6061603280008112 -1.5707949446764016 2.1457449188487763 31762.038999999975
3.7343966127651647 -0.8481370031570852 0.8774169988103884 -1.6000746356215907 -1.5707954153175856 2.1442251177467546 31762.088999999974
3.725591070184592 -0.8391996403922901 0.8638288737444286 -1.5954245388719566 -1.5707957749359993 2.1430638329291503 31762.138999999974
3.7193099776954934 -0.8328245190842445 0.8541363114165765 -1.5921075725975382 -1.5707960314558558 2.142235475416956 31762.188999999973
3.715264341011302 -0.8287183186621432 0.8478933551497443 -1.5899711225351805 -1.570796196679683 2.1417019323199913 31762.238999999972
3.71306316786196 -0.8264841936478344 0.8444966517925767 -1.588808710564142 -1.5707962865756082 2.1414116391397737 31762.28899999997
3.71220643365022 -0.8256146340070432 0.8431745967901865 -1.5883562799572988 -1.5707963215646388 2.1412986520724 31762.33899999997
3.712078047107969 -0.8254843255005877 0.8429764792549044 -1.588288480632345 -1.570796326807946 2.141281720311417 31762.38899999997
3.712078047107969 -0.8254843255005877 0.8429764792549044 -1.588288480632345 -1.570796326807946 2.141281720311417 31762.43899999997
3.712078047107969 -0.8254843255005877 0.8429764792549044 -1.588288480632345 -1.570796326807946 2.141281720311417 31762.48899999997
3.712078047107969 -0.8254843255005877 0.8429764792549044 -1.588288480632345 -1.570796326807946 2.141281720311417 31762.538999999968
3.712078047107969 -0.8254843255005877 0.8429764792549044 -1.588288480632345 -1.570796326807946 2.141281720311417 31762.588999999967
3.712078047107969 -0.8254843255005877 0.8429764792549044 -1.588288480632345 -1.570796326807946 2.141281720311417 31762.638999999966
3.712078047107969 -0.8254843255005877 0.8429764792549044 -1.588288480632345 -1.570796326807946 2.141281720311417 31762.688999999966
3.712078047107969 -0.8254843255005877 0.8429764792549044 -1.588288480632345 -1.570796326807946 2.141281720311417 31762.738999999965
3.712078047107969 -0.8254843255005877 0.8429764792549044 -1.588288480632345 -1.570796326807946 2.141281720311417 31762.788999999964
3.712078047107969 -0.8254843255005877 0.8429764792549044 -1.588288480632345 -1.570796326807946 2.141281720311417 31762.838999999964
3.712078047107969 -0.8254843255005877 0.8429764792549044 -1.588288480632345 -1.570796326807946 2.141281720311417 31762.888999999963
3.712078047107969 -0.8254843255005877 0.8429764792549044 -1.588288480632345 -1.570796326807946 2.141281720311417 31762.938999999962
3.712078047107969 -0.8254843255005877 0.8429764792549044 -1.588288480632345 -1.570796326807946 2.141281720311417 31762.98899999996
3.71207804710797 -0.8254843255005873 0.8429764792549035 -1.5882884806323445 -1.570796326807946 2.141281720311417 31763.03899999996
3.7122689791773014 -0.8255822011483995 0.8431247541871719 -1.5883388799190803 -1.5707963268548544 2.1411975678393773 31763.08899999996
3.713544740040671 -0.8262361820191524 0.8441154906112279 -1.5886756354876148 -1.5707963271682845 2.1406352818349363 31763.13899999996
3.7168275167322813 -0.8279189998738993 0.8466648449093596 -1.589542171970193 -1.5707963279748003 2.1391884124079175 31763.18899999996
3.7228710753776704 -0.8310170505030092 0.8513581803555411 -1.591137456859419 -1.5707963294595875 2.1365247404448637 31763.238999999958
3.732270668305987 -0.835835472312677 0.8586577608276864 -1.593618615634119 -1.5707963317688887 2.1323819110927604 31763.288999999957
3.7454729411622654 -0.8426032249114345 0.8689104445199027 -1.5971035468852008 -1.5707963350124359 2.126563067242757 31763.338999999956
3.762785840019699 -0.8514781676966612 0.8823553776547448 -1.601673537441516 -1.5707963392658857 2.118932483013891 31763.388999999956
3.784388518491916 -0.8625521384410955 0.8991316881954681 -1.6073758774957212 -1.5707963445732527 2.109411197236808 31763.438999999955
3.810341244845251 -0.8758560318793451 0.9192861795582831 -1.6142264757301383 -1.5707963509493437 2.0979726469374858 31763.488999999954
3.8405953091110225 -0.8913648782943985 0.9427810243246089 -1.6222124744426163 -1.5707963583821913 2.0846383008209557 31763.538999999953
3.8750029301978044 -0.9090029221041348 0.9695014579533265 -1.631294864672393 -1.5707963668354892 2.069473292755027 31763.588999999953
3.913327163003703 -0.9286487004478358 0.9992634724930336 -1.6414111013259551 -1.5707963762510238 2.0525820552540046 31763.638999999952
3.955251805528629 -0.9501401217726961 1.0318215102942974 -1.6524777183029 -1.5707963865511108 2.0341039529624183 31763.68899999995
4.000391305986574 -0.9732795444203345 1.0668761577219086 -1.6643929436217972 -1.5707963976410269 2.014208916138738 31763.73899999995
4.048300669917882 -0.9978388552133042 1.1040818388671358 -1.6770393145460483 -1.570796409411446 1.9930930741391024 31763.78899999995
4.098485367301527 -1.023564548041604 1.143054509259978 -1.6902862927097497 -1.570796421740871 1.970974388901036 31763.83899999995
4.150411239667385 -1.0501828024491897 1.18337934958142 -1.703992879243553 -1.5707964344980696 1.9480882884271746 31763.88899999995
4.203514407208509 -1.077404562220484 1.2246184593756846 -1.7180102299005264 -1.5707964475445073 1.9246833002689874 31763.938999999948
4.257211175893402 -1.104930613966888 1.2663185507624877 -1.7321842701820154 -1.5707964607367817 1.9010166850104984 31763.988999999947
4.310907944578295 -1.132456665713292 1.3080186421492905 -1.746358310463504 -1.5707964739290559 1.8773500697520094 31764.038999999946
4.364011112119418 -1.1596784254845862 1.3492577519435551 -1.7603756611204775 -1.5707964869754936 1.8539450815938223 31764.088999999945
4.415936984485277 -1.186296679892172 1.3895825922649971 -1.774082247654281 -1.5707964997326922 1.831058981119961 31764.138999999945
4.4661216818689216 -1.212022372720472 1.4285552626578395 -1.7873292258179825 -1.5707965120621172 1.8089402958818943 31764.188999999944
4.5140310458002295 -1.2365816835134416 1.4657609438030665 -1.7999755967422337 -1.5707965238325363 1.7878244538822583 31764.238999999943
4.559170546258175 -1.2597211061610796 1.5008155912306778 -1.8118908220611303 -1.5707965349224524 1.7679294170585789 31764.288999999942
4.6010951887831 -1.2812125274859398 1.5333736290319409 -1.8229574390380754 -1.5707965452225394 1.7494513147669921 31764.33899999994
4.639419421588999 -1.3008583058296415 1.5631356435716484 -1.8330736756916375 -1.570796554638074 1.73256007726597 31764.38899999994
4.673827042675782 -1.3184963496393773 1.5898560772003663 -1.8421560659214142 -1.5707965630913718 1.7173950692000408 31764.43899999994
4.704081106941552 -1.33400519605443 1.613350921966691 -1.850142064633892 -1.5707965705242195 1.7040607230835114 31764.48899999994
4.730033833294888 -1.347309089492681 1.633505413329508 -1.8569926628683096 -1.5707965769003105 1.6926221727841888 31764.53899999994
4.751636511767104 -1.3583830602371147 1.6502817238702292 -1.8626950029225142 -1.5707965822076775 1.6831008870071056 31764.588999999938
4.768949410624537 -1.3672580030223411 1.6637266570050722 -1.8672649934788292 -1.5707965864611273 1.67547030277824 31764.638999999937
4.782151683480817 -1.3740257556210982 1.6739793406972883 -1.8707499247299113 -1.5707965897046745 1.6696514589282363 31764.688999999937
4.791551276409133 -1.378844177430766 1.681278921169433 -1.8732310835046113 -1.5707965920139757 1.6655086295761325 31764.738999999936
4.797594835054522 -1.3819422280598759 1.6859722566156154 -1.8748263683938378 -1.5707965934987629 1.6628449576130788 31764.788999999935
4.800877611746134 -1.383625045914623 1.688521610913746 -1.8756929048764155 -1.5707965943052786 1.66139808818606 31764.838999999934
4.802153372609502 -1.3842790267853755 1.6895123473378035 -1.8760296604449502 -1.5707965946187088 1.6608358021816194 31764.888999999934
4.802344304678834 -1.3843769024331887 1.689660622270071 -1.8760800597316858 -1.5707965946656173 1.6607516497095798 31764.938999999933
4.802344304678834 -1.384376902433189 1.6896606222700719 -1.8760800597316862 -1.5707965946656173 1.6607516497095798 31764.988999999932
4.802344307386492 -1.384147745783343 1.6900552203559738 -1.8767038144324433 -1.5707965939491735 1.6607516524209287 31765.03899999993
4.802344324132375 -1.3827304948337065 1.6924956667159023 -1.8805615115256038 -1.5707965895182276 1.66075166918964 31765.08899999993
4.802344363315421 -1.3794143239348313 1.6982059731377366 -1.8895879883399567 -1.5707965791504284 1.6607517084261019 31765.13899999993
4.802344428055237 -1.3739352121312087 1.7076407725712601 -1.9045018987404798 -1.5707965620203306 1.6607517732541726 31765.18899999993
4.802344517151974 -1.366394705944188 1.720625206189633 -1.9250268373944897 -1.5707965384454132 1.6607518624723678 31765.23899999993
4.802344626046208 -1.3571786821548983 1.736494810450864 -1.9501124640377867 -1.5707965096320957 1.660751971515049 31765.288999999928
4.80234474777882 -1.3468761105871672 1.7542354041592816 -1.978155627740803 -1.5707964774217549 1.6607520934136086 31765.338999999927
4.8023448739508705 -1.3361978168904423 1.7726229755270069 -2.0072214911747506 -1.5707964440367426 1.660752219757659 31765.388999999926
4.802344995683482 -1.325895245322711 1.7903635692354245 -2.035264654877767 -1.5707964118264017 1.6607523416562187 31765.438999999926
4.802345104577716 -1.3166792215334213 1.8062331734966552 -2.060350281521064 -1.5707963830130842 1.6607524506988998 31765.488999999925
4.802345193674453 -1.3091387153464007 1.8192176071150283 -2.0808752201750735 -1.5707963594381669 1.660752539917095 31765.538999999924
4.802345258414269 -1.3036596035427779 1.828652406548552 -2.095789130575597 -1.570796342308069 1.6607526047451657 31765.588999999924
4.8023452975973155 -1.3003434326439027 1.8343627129703863 -2.10481560738995 -1.5707963319402698 1.6607526439816276 31765.638999999923
4.8023453143431984 -1.298926181694266 1.8368031593303145 -2.1086733044831103 -1.570796327509324 1.660752660750339 31765.688999999922
4.8023453170508565 -1.2986970250444205 1.8371977574162166 -2.1092970591838673 -1.5707963267928802 1.6607526634616878 31765.73899999992
4.8023453170508565 -1.2986970250444205 1.8371977574162166 -2.1092970591838673 -1.5707963267928802 1.6607526634616878 31765.78899999992
4.8023453170508565 -1.2986970250444205 1.8371977574162166 -2.1092970591838673 -1.5707963267928802 1.6607526634616878 31765.83899999992
4.8023453170508565 -1.2986970250444205 1.8371977574162166 -2.1092970591838673 -1.5707963267928802 1.6607526634616878 31765.88899999992
4.8023453170508565 -1.2986970250444205 1.8371977574162166 -2.1092970591838673 -1.5707963267928802 1.6607526634616878 31765.93899999992
4.8023453170508565 -1.2986970250444205 1.8371977574162166 -2.1092970591838673 -1.5707963267928802 1.6607526634616878 31765.988999999918
4.8023453170508565 -1.2986970250444205 1.8371977574162166 -2.1092970591838673 -1.5707963267928802 1.6607526634616878 31766.038999999917
4.8023453170508565 -1.2986970250444205 1.8371977574162166 -2.1092970591838673 -1.5707963267928802 1.6607526634616878 31766.088999999916
4.8023453170508565 -1.2986970250444205 1.8371977574162166 -2.1092970591838673 -1.5707963267928802 1.6607526634616878 31766.138999999916
4.8023453170508565 -1.2986970250444205 1.8371977574162166 -2.1092970591838673 -1.5707963267928802 1.6607526634616878 31766.188999999915
4.8023453170508565 -1.2986970250444205 1.8371977574162166 -2.1092970591838673 -1.5707963267928802 1.6607526634616878 31766.238999999914
4.8023453170508565 -1.2986970250444205 1.8371977574162166 -2.1092970591838673 -1.5707963267928802 1.6607526634616878 31766.288999999913
4.8023453170508565 -1.2986970250444205 1.8371977574162166 -2.1092970591838673 -1.5707963267928802 1.6607526634616878 31766.338999999913
4.8023453170508565 -1.2986970250444205 1.8371977574162166 -2.1092970591838673 -1.5707963267928802 1.6607526634616878 31766.388999999912
4.8023453170508565 -1.2986970250444205 1.8371977574162166 -2.1092970591838673 -1.5707963267928802 1.6607526634616878 31766.43899999991
4.8023453143431984 -1.2989261816942663 1.8368031593303147 -2.1086733044831103 -1.570796327509324 1.660752660750339 31766.48899999991
4.8023452975973155 -1.300343432643903 1.8343627129703861 -2.1048156073899498 -1.5707963319402698 1.6607526439816276 31766.53899999991
4.802345258414269 -1.303659603542778 1.8286524065485519 -2.095789130575597 -1.570796342308069 1.6607526047451657 31766.58899999991
4.802345193674453 -1.3091387153464007 1.8192176071150283 -2.0808752201750735 -1.5707963594381669 1.660752539917095 31766.63899999991
4.802345104577716 -1.3166792215334213 1.8062331734966555 -2.060350281521064 -1.5707963830130842 1.6607524506988998 31766.688999999908
4.802344995683482 -1.325895245322711 1.7903635692354245 -2.035264654877767 -1.5707964118264017 1.6607523416562187 31766.738999999907
4.8023448739508705 -1.3361978168904423 1.7726229755270069 -2.0072214911747506 -1.5707964440367426 1.660752219757659 31766.788999999906
4.80234474777882 -1.3468761105871672 1.7542354041592816 -1.978155627740803 -1.5707964774217549 1.6607520934136086 31766.838999999905
4.802344626046208 -1.3571786821548981 1.736494810450864 -1.9501124640377867 -1.5707965096320957 1.660751971515049 31766.888999999905
4.802344517151974 -1.366394705944188 1.7206252061896332 -1.9250268373944897 -1.5707965384454132 1.6607518624723678 31766.938999999904
4.802344428055237 -1.3739352121312087 1.7076407725712601 -1.90450189874048 -1.5707965620203306 1.6607517732541726 31766.988999999903
4.802344363315421 -1.3794143239348315 1.6982059731377364 -1.8895879883399567 -1.5707965791504284 1.6607517084261019 31767.038999999902
4.802344324132375 -1.3827304948337067 1.6924956667159021 -1.8805615115256036 -1.5707965895182276 1.66075166918964 31767.0889999999
4.802344307386492 -1.384147745783343 1.690055220355974 -1.876703814432443 -1.5707965939491735 1.6607516524209287 31767.1389999999
4.802344304678834 -1.384376902433189 1.6896606222700719 -1.8760800597316862 -1.5707965946656173 1.6607516497095798 31767.1889999999
4.802344304678834 -1.384376902433189 1.6896606222700719 -1.8760800597316862 -1.5707965946656173 1.6607516497095798 31767.2389999999
4.802212309909164 -1.384373871400779 1.6896568459491903 -1.8760793144421866 -1.570796594646128 1.6607346151579627 31767.2889999999
4.801319584917722 -1.3843533715098446 1.689631305421826 -1.876074273798804 -1.5707965945143145 1.6606194047599698 31767.338999999898
4.798989611424414 -1.3842998676839735 1.6895646457535802 -1.8760611179382838 -1.5707965941702873 1.6603187106200612 31767.388999999897
4.7946343172108 -1.384199855858134 1.6894400424187244 -1.8760365263953482 -1.5707965935272155 1.6597566392268146 31767.438999999897
4.787750312457899 -1.3840417765526598 1.6892430936232345 -1.8759976568517203 -1.5707965925107725 1.6588682257344527 31767.488999999896
4.77791512608398 -1.383815928447232 1.688961712627827 -1.8759421238851444 -1.570796591058579 1.6575989482443698 31767.538999999895
4.764783442082378 -1.383514381954864 1.688586020070994 -1.8758679777184097 -1.5707965891196483 1.6559042420866585 31767.588999999894
4.748083335859287 -1.3831308927958859 1.6881082362920383 -1.8757736829683724 -1.5707965866538296 1.6537490141016378 31767.638999999894
4.727612510571563 -1.3826608155719262 1.6875225736541093 -1.8756580973949766 -1.5707965836312534 1.6511071569213778 31767.688999999893
4.703234533464529 -1.382101017339898 1.686825128867238 -1.8755204506502783 -1.5707965800317751 1.647961063251229 31767.738999999892
4.674875072209772 -1.3814497911859813 1.686013775311372 -1.8753603230274662 -1.5707965758444193 1.6443011401513474 31767.78899999989
4.642518131242952 -1.3807067697996072 1.6850880553594116 -1.8751776242098848 -1.5707965710668241 1.6401253233182225 31767.83899999989
4.606202288101599 -1.3798728390474417 1.6840490727002448 -1.8749725720200563 -1.5707965657046858 1.6354385913662033 31767.88899999989
4.566016929762916 -1.3789500515473696 1.6828993846617821 -1.874745671168703 -1.5707965597712024 1.6302524801090263 31767.93899999989
4.522098488981579 -1.3779415402424784 1.6816428945339927 -1.874497692003769 -1.5707965532865187 1.6245845968413415 31767.98899999989
4.474626680627545 -1.3768514319750413 1.6802847438919395 -1.8742296492594435 -1.5707965462771698 1.6184581346202391 31768.038999999888
4.4238207380238475 -1.3756847610605023 1.678831204918814 -1.8739427808051814 -1.5707965387755267 1.6119013865467775 31768.088999999887
4.369935649284402 -1.374447382861459 1.6772895727289723 -1.873638526394727 -1.5707965308192389 1.6049472600475096 31768.138999999886
4.3132583936518065 -1.3731458873616467 1.6756680576909702 -1.8733185064151359 -1.5707965224506795 1.597632791156009 31768.188999999886
4.254104177835144 -1.371787512739922 1.673975677750598 -1.8729845006357966 -1.5707965137163897 1.5899986587943984 31768.238999999885
4.192812672347786 -1.3703800589442472 1.672222150753917 -1.8726384269574534 -1.570796504666523 1.5820886990548748 31768.288999999884
4.129744247845192 -1.3689318012656735 1.6704177867702936 -1.8722823201612282 -1.5707964953542892 1.5739494194812382 31768.338999999884
4.065276211462712 -1.3674514039123251 1.668573380415436 -1.871918310657643 -1.5707964858353987 1.5656295133504166 31768.388999999883
3.9997990431533905 -1.365947833583383 1.6667001031744273 -1.8715486032356417 -1.570796476167507 1.5571793739539947 31768.438999999882
3.933712632025766 -1.3644302730430682 1.6648093957247636 -1.8711754558116132 -1.5707964664096588 1.5486506088797394 31768.48899999988
3.867422512681674 -1.3629080346946267 1.6629128602593874 -1.8708011581784123 -1.5707964566217325 1.5400955542931274 31768.53899999988
3.8013361015540488 -1.361390474154312 1.6610221528097235 -1.8704280107543838 -1.5707964468638842 1.531566789218872 31768.58899999988
3.7358589332447267 -1.3598869038253698 1.659148875568715 -1.8700583033323825 -1.5707964371959926 1.52311664982245 31768.63899999988
3.6713908968622477 -1.3584065064720214 1.657304469213857 -1.8696942938287973 -1.570796427677102 1.5147967436916285 31768.68899999988
3.6083224723596534 -1.3569582487934477 1.6555001052302338 -1.869338187032572 -1.5707964183648682 1.506657464117992 31768.738999999878
3.5470309668722964 -1.355550794997773 1.6537465782335528 -1.8689921133542289 -1.5707964093150015 1.4987475043784684 31768.788999999877
3.4878767510556345 -1.3541924203760485 1.6520541982931807 -1.8686581075748896 -1.5707964005807118 1.4911133720168577 31768.838999999876
3.4311994954230376 -1.352890924876236 1.6504326832551786 -1.8683380875952984 -1.5707963922121524 1.4837989031253571 31768.888999999876
3.377314406683592 -1.3516535466771926 1.6488910510653367 -1.868033833184844 -1.5707963842558645 1.4768447766260893 31768.938999999875
3.326508464079894 -1.3504868757626536 1.6474375120922113 -1.867746964730582 -1.5707963767542215 1.4702880285526276 31768.988999999874
3.27903665572586 -1.3493967674952165 1.6460793614501579 -1.8674789219862564 -1.5707963697448726 1.4641615663315255 31769.038999999873
3.2351182149445226 -1.3483882561903253 1.6448228713223687 -1.8672309428213225 -1.570796363260189 1.4584936830638404 31769.088999999873
3.1949328566058393 -1.3474654686902532 1.643673183283906 -1.8670040419699692 -1.5707963573267054 1.4533075718066633 31769.138999999872
3.1586170134644878 -1.3466315379380878 1.6426342006247392 -1.8667989897801407 -1.5707963519645671 1.4486208398546445 31769.18899999987
3.126260072497666 -1.3458885165517136 1.6417084806727789 -1.8666162909625592 -1.570796347186972 1.4444450230215193 31769.23899999987
3.097900611242909 -1.345237290397797 1.6408971271169128 -1.8664561633397472 -1.5707963429996161 1.4407850999216378 31769.28899999987
3.073522634135874 -1.3446774921657687 1.6401996823300415 -1.8663185165950489 -1.5707963394001379 1.4376390062514892 31769.33899999987
3.05305180884815 -1.344207414941809 1.6396140196921125 -1.866202931021653 -1.5707963363775617 1.4349971490712288 31769.38899999987
3.036351702625061 -1.3438239257828308 1.639136235913157 -1.8661086362716155 -1.570796333911743 1.432841921086208 31769.438999999868
3.0232200186234577 -1.343522379290463 1.6387605433563237 -1.866034490104881 -1.5707963319728122 1.4311472149284967 31769.488999999867
3.01338483224954 -1.3432965311850351 1.6384791623609165 -1.8659789571383052 -1.5707963305206187 1.4298779374384138 31769.538999999866
3.0065008274966365 -1.3431384518795608 1.6382822135654265 -1.8659400875946772 -1.5707963295041758 1.428989523946052 31769.588999999865
3.0021455332830227 -1.3430384400537214 1.6381576102305706 -1.8659154960517417 -1.570796328861104 1.4284274525528056 31769.638999999865
2.999815559789716 -1.3429849362278503 1.638090950562325 -1.8659023401912214 -1.5707963285170767 1.428126758412897 31769.688999999864
2.9989228347982744 -1.3429644363369158 1.6380654100349605 -1.865897299547839 -1.5707963283852633 1.428011548014904 31769.738999999863
2.9987908400286054 -1.342961405304506 1.638061633714079 -1.8658965542583392 -1.570796328365774 1.427994513463287 31769.788999999862
2.9987908400286063 -1.342961405304506 1.638061633714079 -1.8658965542583392 -1.570796328365774 1.427994513463287 31769.83899999986
2.9987908375813794 -1.3427405478580317 1.6384527923103132 -1.8665085704197473 -1.570796328244215 1.427994511023567 31769.88899999986
2.998790822446168 -1.3413746244778415 1.640871966671366 -1.870293668895103 -1.570796327492416 1.4279944959347812 31769.93899999986
2.998790787031869 -1.338178552981371 1.6465324995625137 -1.8791502750004434 -1.5707963257333106 1.4279944606291126 31769.98899999986
2.998790728518931 -1.3328978742722388 1.6558850611537157 -1.8937835181388678 -1.5707963228268453 1.4279944022956577 31770.03899999986
2.998790647991797 -1.3256304572336688 1.6687563167642183 -1.9139221946937996 -1.570796318826887 1.4279943220155333 31770.088999999858
2.998790549571351 -1.3167482036219098 1.6844875946071576 -1.9385357309222473 -1.570796313938129 1.427994223896983 31770.138999999857
2.998790439547363 -1.306818752959659 1.7020735535341616 -1.9660511458480658 -1.5707963084729977 1.4279941142104835 31770.188999999857
2.9987903255109356 -1.296527187429481 1.7203008507799544 -1.994570014155218 -1.5707963028085596 1.4279940005238523 31770.238999999856
2.9987902154869475 -1.2865977367672303 1.7378868097069584 -2.0220854290810366 -1.5707962973434284 1.4279938908373528 31770.288999999855
2.9987901170665014 -1.2777154831554716 1.7536180875498977 -2.046698965309484 -1.5707962924546703 1.4279937927188024 31770.338999999854
2.9987900365393676 -1.2704480661169013 1.7664893431604003 -2.066837641864416 -1.570796288454712 1.4279937124386781 31770.388999999854
2.9987899780264295 -1.265167387407769 1.7758419047516023 -2.0814708850028403 -1.5707962855482467 1.4279936541052232 31770.438999999853
2.9987899426121305 -1.2619713159112986 1.7815024376427502 -2.090327491108181 -1.5707962837891414 1.4279936187995546 31770.488999999852
2.998789927476919 -1.2606053925311085 1.7839216120038028 -2.0941125895835366 -1.5707962830373423 1.4279936037107688 31770.53899999985
2.9987899250296923 -1.260384535084634 1.784312770600037 -2.0947246057449442 -1.5707962829157833 1.4279936012710488 31770.58899999985
2.9987899250296923 -1.260384535084634 1.784312770600037 -2.0947246057449442 -1.5707962829157833 1.4279936012710488 31770.63899999985
2.9987899250296923 -1.260384535084634 1.784312770600037 -2.0947246057449442 -1.5707962829157833 1.4279936012710488 31770.68899999985
2.9987899250296923 -1.260384535084634 1.784312770600037 -2.0947246057449442 -1.5707962829157833 1.4279936012710488 31770.73899999985
2.9987899250296923 -1.260384535084634 1.784312770600037 -2.0947246057449442 -1.5707962829157833 1.4279936012710488 31770.788999999848
2.9987899250296923 -1.260384535084634 1.784312770600037 -2.0947246057449442 -1.5707962829157833 1.4279936012710488 31770.838999999847
2.9987899250296923 -1.260384535084634 1.784312770600037 -2.0947246057449447 -1.5707962829157833 1.4279936012710488 31770.888999999846
2.998789927476919 -1.2606053925311085 1.7839216120038028 -2.0941125895835366 -1.5707962830373423 1.4279936037107688 31770.938999999846
2.9987899426121305 -1.2619713159112986 1.78150243764275 -2.0903274911081806 -1.5707962837891414 1.4279936187995546 31770.988999999845
2.9987899780264295 -1.2651673874077691 1.7758419047516023 -2.0814708850028403 -1.5707962855482467 1.4279936541052232 31771.038999999844
2.9987900365393676 -1.2704480661169013 1.7664893431604003 -2.066837641864416 -1.570796288454712 1.4279937124386781 31771.088999999844
2.9987901170665014 -1.2777154831554713 1.7536180875498977 -2.0466989653094845 -1.5707962924546703 1.4279937927188024 31771.138999999843
2.9987902154869475 -1.2865977367672303 1.7378868097069584 -2.0220854290810366 -1.5707962973434284 1.4279938908373528 31771.188999999842
2.9987903255109356 -1.296527187429481 1.7203008507799544 -1.994570014155218 -1.5707963028085596 1.4279940005238523 31771.23899999984
2.998790439547363 -1.306818752959659 1.7020735535341616 -1.9660511458480658 -1.5707963084729977 1.4279941142104835 31771.28899999984
2.998790549571351 -1.3167482036219098 1.6844875946071576 -1.9385357309222475 -1.570796313938129 1.427994223896983 31771.33899999984
2.998790647991797 -1.3256304572336686 1.6687563167642183 -1.9139221946937996 -1.570796318826887 1.4279943220155333 31771.38899999984
2.998790728518931 -1.3328978742722388 1.6558850611537157 -1.893783518138868 -1.5707963228268453 1.4279944022956577 31771.43899999984
2.998790787031869 -1.338178552981371 1.6465324995625137 -1.8791502750004436 -1.5707963257333106 1.4279944606291126 31771.488999999838
2.998790822446168 -1.3413746244778415 1.6408719666713658 -1.8702936688951028 -1.570796327492416 1.4279944959347812 31771.538999999837
2.9987908375813794 -1.3427405478580314 1.6384527923103132 -1.8665085704197473 -1.570796328244215 1.427994511023567 31771.588999999836
2.9987908400286063 -1.342961405304506 1.638061633714079 -1.8658965542583394 -1.570796328365774 1.427994513463287 31771.638999999836
2.9987908400286063 -1.342961405304506 1.638061633714079 -1.8658965542583394 -1.570796328365774 1.427994513463287 31771.688999999835
2.9987908400286063 -1.342961405304506 1.638061633714079 -1.8658965542583394 -1.570796328365774 1.427994513463287 31771.738999999834
2.9987908400286063 -1.342961405304506 1.638061633714079 -1.8658965542583394 -1.570796328365774 1.427994513463287 31771.788999999833
2.9987908400286063 -1.342961405304506 1.638061633714079 -1.8658965542583394 -1.570796328365774 1.427994513463287 31771.838999999833
2.9987908400286063 -1.342961405304506 1.638061633714079 -1.8658965542583394 -1.570796328365774 1.427994513463287 31771.888999999832
2.9987908400286063 -1.342961405304506 1.638061633714079 -1.8658965542583394 -1.570796328365774 1.427994513463287 31771.93899999983
2.9987908400286063 -1.342961405304506 1.638061633714079 -1.8658965542583394 -1.570796328365774 1.427994513463287 31771.98899999983
2.9987908400286063 -1.342961405304506 1.638061633714079 -1.8658965542583394 -1.570796328365774 1.427994513463287 31772.03899999983
2.9987908400286063 -1.342961405304506 1.638061633714079 -1.8658965542583394 -1.570796328365774 1.427994513463287 31772.08899999983
2.9987908400286063 -1.342961405304506 1.638061633714079 -1.8658965542583394 -1.570796328365774 1.427994513463287 31772.13899999983
2.9987908400286063 -1.342961405304506 1.638061633714079 -1.8658965542583394 -1.570796328365774 1.427994513463287 31772.188999999828
2.9987908400286063 -1.342961405304506 1.638061633714079 -1.8658965542583394 -1.570796328365774 1.427994513463287 31772.238999999827
2.9987908400286063 -1.342961405304506 1.638061633714079 -1.8658965542583394 -1.570796328365774 1.427994513463287 31772.288999999826
2.9987908400286063 -1.342961405304506 1.638061633714079 -1.8658965542583394 -1.570796328365774 1.427994513463287 31772.338999999825
2.9987908400286063 -1.342961405304506 1.638061633714079 -1.8658965542583394 -1.570796328365774 1.427994513463287 31772.388999999825
2.9987908400286063 -1.342961405304506 1.638061633714079 -1.8658965542583394 -1.570796328365774 1.427994513463287 31772.438999999824
2.9987908400286063 -1.342961405304506 1.638061633714079 -1.8658965542583394 -1.570796328365774 1.427994513463287 31772.488999999823
2.9987908400286063 -1.342961405304506 1.638061633714079 -1.8658965542583394 -1.570796328365774 1.427994513463287 31772.538999999822
2.9987908400286063 -1.342961405304506 1.638061633714079 -1.8658965542583394 -1.570796328365774 1.427994513463287 31772.58899999982
2.9987908400286063 -1.342961405304506 1.638061633714079 -1.8658965542583394 -1.570796328365774 1.427994513463287 31772.63899999982
2.9987908400286063 -1.342961405304506 1.638061633714079 -1.8658965542583394 -1.570796328365774 1.427994513463287 31772.68899999982
2.9987908400286063 -1.342961405304506 1.638061633714079 -1.8658965542583394 -1.570796328365774 1.427994513463287 31772.73899999982
2.9987908400286063 -1.342961405304506 1.638061633714079 -1.8658965542583394 -1.570796328365774 1.427994513463287 31772.78899999982
2.9987908400286063 -1.342961405304506 1.638061633714079 -1.8658965542583394 -1.570796328365774 1.427994513463287 31772.838999999818
2.9987908400286063 -1.342961405304506 1.638061633714079 -1.8658965542583394 -1.570796328365774 1.427994513463287 31772.888999999817
2.9987908400286063 -1.342961405304506 1.638061633714079 -1.8658965542583394 -1.570796328365774 1.427994513463287 31772.938999999817
2.9987908400286063 -1.342961405304506 1.638061633714079 -1.8658965542583394 -1.570796328365774 1.427994513463287 31772.988999999816
2.9987908400286063 -1.342961405304506 1.638061633714079 -1.8658965542583394 -1.570796328365774 1.427994513463287 31773.038999999815
2.9987908400286063 -1.342961405304506 1.638061633714079 -1.8658965542583394 -1.570796328365774 1.427994513463287 31773.088999999814
2.9987908400286063 -1.342961405304506 1.638061633714079 -1.8658965542583394 -1.570796328365774 1.427994513463287 31773.138999999814
2.9987908400286063 -1.342961405304506 1.638061633714079 -1.8658965542583394 -1.570796328365774 1.427994513463287 31773.188999999813
2.9987908400286063 -1.342961405304506 1.638061633714079 -1.8658965542583394 -1.570796328365774 1.427994513463287 31773.238999999812
2.9987908400286063 -1.342961405304506 1.638061633714079 -1.8658965542583392 -1.570796328365774 1.427994513463287 31773.28899999981
2.9989293451024603 -1.3429704590962062 1.6380725530469444 -1.8658984198377797 -1.5707963284533968 1.428003556894504 31773.33899999981
2.999864755577403 -1.3430316049543225 1.6381462980590036 -1.8659110192502193 -1.570796329045168 1.4280646327818654 31773.38899999981
3.0023020605540616 -1.3431909265658304 1.6383384480185248 -1.8659438482717714 -1.570796330587087 1.4282237720776159 31773.43899999981
3.0068498708762683 -1.3434882075693588 1.638696984015329 -1.866005104521815 -1.5707963334641803 1.4285207128949589 31773.48899999981
3.0140247026091416 -1.3439572115573397 1.63926262665761 -1.866101745158849 -1.5707963380032135 1.4289891801897918 31773.538999999808
3.024255260517163 -1.3446259620781567 1.6400691737687558 -1.8662395445763484 -1.570796344475399 1.4296571654424415 31773.588999999807
3.037886721542261 -1.345517022638293 1.6411438380841659 -1.8664231520986179 -1.5707963530991067 1.4305472063393991 31773.638999999806
3.0551850182818865 -1.346647776704481 1.642507584948073 -1.8666561496766467 -1.5707963640425748 1.431676666455056 31773.688999999806
3.0763411224670962 -1.3480307077058513 1.6441754700103626 -1.8669411095839645 -1.570796377426618 1.4330580149334375 31773.738999999805
3.101475328440629 -1.3496736790360795 1.646156976923392 -1.8672796521124955 -1.5707963933273383 1.4346991061699395 31773.788999999804
3.13064153663499 -1.351580214055537 1.6484563550388112 -1.8676725032684134 -1.5707964117788353 1.4366034594930623 31773.838999999803
3.163831537050525 -1.353749776093439 1.651072957104382 -1.8681195524679963 -1.5707964327759145 1.4387705388461471 31773.888999999803
3.200979292733505 -1.3561780484499926 1.6540015769607987 -1.8686199102334817 -1.5707964562767993 1.4411960324691104 31773.938999999802
3.241965223254203 -1.3588572143985467 1.6572327872385066 -1.8691719658889212 -1.570796482205839 1.443872132580179 31773.9889999998
3.286620488184975 -1.3617762371877393 1.6607532770545232 -1.8697734452560357 -1.5707965104562194 1.4467878150576254 31774.0389999998
3.334731270578341 -1.3649211400436474 1.6645461897092573 -1.8704214683500695 -1.5707965408926732 1.4499291191215034 31774.0889999998
3.3860430604450604 -1.3682752861719352 1.6685914603833294 -1.8711126070756463 -1.570796573354189 1.453279427015382 31774.1389999998
3.440264938232217 -1.3718196587600027 1.6728661538343905 -1.8718429429226227 -1.5707966076567215 1.4568197436880819 31774.1889999998
3.497073858301295 -1.3755331409791347 1.6773448020939439 -1.8726081246619446 -1.5707966435959015 1.4605289764754106 31774.238999999798
3.5561189324062608 -1.3793927959866497 1.6819997421641624 -1.8734034260415005 -1.5707966809497458 1.4643842147818962 31774.288999999797
3.6170257131716426 -1.3833741469280476 1.6868014537147105 -1.8742238034819776 -1.5707967194813666 1.4683610097625237 31774.338999999796
3.6794004775706086 -1.3874514569391596 1.6917188967795633 -1.8750639537727163 -1.5707967589416818 1.4724336540044705 31774.388999999795
3.742834510403049 -1.3915980091482965 1.6967198494538265 -1.8759183717675647 -1.5707967990721248 1.47657546120884 31774.438999999795
3.806908387773653 -1.3957863866783968 1.7017712455905551 -1.8767814080807337 -1.5707968396073544 1.4807590458723985 31774.488999999794
3.871196260569992 -1.3999887526491763 1.7068395124975762 -1.8776473267826521 -1.5707968802779644 1.4849566029693093 31774.538999999793
3.935270137940596 -1.4041771301792767 1.7118909086343048 -1.878510363095821 -1.570796920813194 1.4891401876328678 31774.588999999793
3.998704170773036 -1.4083236823884135 1.716891861308568 -1.8793647810906695 -1.570796960943637 1.4932819948372373 31774.638999999792
4.061078935172002 -1.4124009923995255 1.7218093043734206 -1.8802049313814082 -1.5707970004039522 1.497354639079184 31774.68899999979
4.1219857159373845 -1.4163823433409235 1.726611015923969 -1.8810253088218853 -1.570797038935573 1.5013314340598116 31774.73899999979
4.18103079004235 -1.4202419983484385 1.7312659559941874 -1.8818206102014412 -1.5707970762894172 1.5051866723662972 31774.78899999979
4.2378397101114285 -1.4239554805675705 1.7357446042537408 -1.8825857919407631 -1.5707971122285973 1.508895905153626 31774.83899999979
4.292061587898584 -1.427499853155638 1.740019297704802 -1.8833161277877395 -1.5707971465311297 1.5124362218263259 31774.88899999979
4.343373377765303 -1.4308539992839258 1.744064568378874 -1.8840072665133163 -1.5707971789926456 1.5157865297202044 31774.938999999787
4.39148416015867 -1.4339989021398338 1.747857481033608 -1.88465528960735 -1.5707972094290994 1.5189278337840824 31774.988999999787
4.436139425089443 -1.4369179249290265 1.7513779708496249 -1.8852567689744646 -1.5707972376794799 1.5218435162615287 31775.038999999786
4.477125355610141 -1.4395970908775806 1.7546091811273326 -1.885808824629904 -1.5707972636085195 1.5245196163725974 31775.088999999785
4.51427311129312 -1.4420253632341342 1.7575378009837492 -1.8863091823953895 -1.5707972871094042 1.5269451099955607 31775.138999999785
4.547463111708655 -1.444194925272036 1.7601544030493201 -1.8867562315949724 -1.5707973081064834 1.5291121893486457 31775.188999999784
4.576629319903017 -1.4461014602914937 1.7624537811647394 -1.8871490827508903 -1.5707973265579804 1.5310165426717686 31775.238999999783
4.601763525876548 -1.447744431621722 1.764435288077769 -1.8874876252794213 -1.5707973424587007 1.5326576339082703 31775.288999999782
4.622919630061759 -1.4491273626230918 1.7661031731400585 -1.887772585186739 -1.570797355842744 1.5340389823866518 31775.33899999978
4.640217926801382 -1.4502581166892803 1.7674669200039654 -1.888005582764768 -1.570797366786212 1.5351684425023087 31775.38899999978
4.6538493878264795 -1.4511491772494165 1.7685415843193755 -1.8881891902870374 -1.5707973754099198 1.5360584833992665 31775.43899999978
4.664079945734503 -1.4518179277702332 1.7693481314305213 -1.8883269897045367 -1.5707973818821053 1.5367264686519162 31775.48899999978
4.671254777467372 -1.4522869317582143 1.7699137740728024 -1.888423630341571 -1.5707973864211384 1.537194935946749 31775.53899999978
4.6758025877895815 -1.4525842127617428 1.7702723100696067 -1.8884848865916144 -1.5707973892982319 1.5374918767640917 31775.588999999778
4.678239892766243 -1.4527435343732507 1.7704644600291277 -1.8885177156131665 -1.5707973908401507 1.5376510160598424 31775.638999999777
4.679175303241182 -1.452804680231367 1.7705382050411869 -1.888530315025606 -1.570797391431922 1.5377120919472038 31775.688999999777
4.679313808315037 -1.4528137340230671 1.7705491243740523 -1.8885321806050466 -1.5707973915195448 1.5377211353784208 31775.738999999776
4.679313808315039 -1.4528137340230671 1.7705491243740523 -1.8885321806050466 -1.5707973915195448 1.5377211353784208 31775.788999999775
4.679313805721838 -1.4525715252642073 1.7709515278660957 -1.8891767916170832 -1.5707973886716573 1.537721132836989 31775.838999999774
4.679313789683828 -1.4510735517437556 1.7734402478383051 -1.893163477447803 -1.5707973710585041 1.5377211171191536 31775.888999999774
4.679313752157106 -1.4475685012111865 1.7792635078258228 -1.9024917700400081 -1.5707973298461655 1.5377210803415962 31775.938999999773
4.679313690153936 -1.441777314830591 1.7888849337131296 -1.9179043526867392 -1.5707972617534711 1.5377210195762268 31775.988999999772
4.679313604823449 -1.4338073229234727 1.8021262078523486 -1.939115577967596 -1.57079716804241 1.5377209359492339 31776.03899999977
4.6793135005323325 -1.424066380711545 1.8183097231815455 -1.9650399856850573 -1.5707970535085378 1.5377208337401334 31776.08899999977
4.679313383945535 -1.4131770040595288 1.8364012373430307 -1.9940208208008015 -1.5707969254713885 1.5377207194808173 31776.13899999977
4.6793132631069625 -1.4018905052179493 1.8551525268016624 -2.024058551372027 -1.5707967927648818 1.5377206010546045 31776.18899999977
4.679313146520165 -1.3910011285659332 1.8732440409631477 -2.053039386487771 -1.5707966647277325 1.5377204867952885 31776.23899999977
4.679313042229049 -1.3812601863540055 1.8894275562923444 -2.078963794205232 -1.5707965501938603 1.537720384586188 31776.288999999768
4.679312956898562 -1.3732901944468872 1.9026688304315633 -2.1001750194860893 -1.5707964564827992 1.537720300959195 31776.338999999767
4.679312894895392 -1.3674990080662917 1.9122902563188706 -2.11558760213282 -1.5707963883901048 1.5377202401938257 31776.388999999766
4.67931285736867 -1.3639939575337225 1.918113516306388 -2.1249158947250253 -1.5707963471777662 1.5377202034162682 31776.438999999766
4.67931284133066 -1.3624959840132709 1.9206022362785973 -2.1289025805557453 -1.570796329564613 1.5377201876984328 31776.488999999765
4.6793128387374585 -1.362253775254411 1.9210046397706408 -2.1295471915677817 -1.5707963267167255 1.537720185157001 31776.538999999764
4.6793128387374585 -1.362253775254411 1.9210046397706408 -2.1295471915677817 -1.5707963267167255 1.537720185157001 31776.588999999763
4.6793128387374585 -1.362253775254411 1.9210046397706408 -2.1295471915677817 -1.5707963267167255 1.537720185157001 31776.638999999763
4.6793128387374585 -1.362253775254411 1.9210046397706408 -2.1295471915677817 -1.5707963267167255 1.537720185157001 31776.688999999762
4.6793128387374585 -1.362253775254411 1.9210046397706408 -2.1295471915677817 -1.5707963267167255 1.537720185157001 31776.73899999976
4.6793128387374585 -1.362253775254411 1.9210046397706408 -2.1295471915677817 -1.5707963267167255 1.537720185157001 31776.78899999976
4.6793128387374585 -1.362253775254411 1.9210046397706408 -2.1295471915677817 -1.5707963267167255 1.537720185157001 31776.83899999976
4.6793128387374585 -1.362253775254411 1.9210046397706408 -2.1295471915677817 -1.5707963267167255 1.537720185157001 31776.88899999976
4.6793128387374585 -1.362253775254411 1.9210046397706408 -2.1295471915677817 -1.5707963267167255 1.537720185157001 31776.93899999976
4.6793128387374585 -1.362253775254411 1.9210046397706408 -2.1295471915677817 -1.5707963267167255 1.537720185157001 31776.988999999758
4.6793128387374585 -1.362253775254411 1.9210046397706408 -2.1295471915677817 -1.5707963267167255 1.537720185157001 31777.038999999757
4.6793128387374585 -1.362253775254411 1.9210046397706408 -2.1295471915677817 -1.5707963267167255 1.537720185157001 31777.088999999756
4.6793128387374585 -1.362253775254411 1.9210046397706408 -2.1295471915677817 -1.5707963267167255 1.537720185157001 31777.138999999755
4.6793128387374585 -1.362253775254411 1.9210046397706408 -2.1295471915677817 -1.5707963267167255 1.537720185157001 31777.188999999755
4.6793128387374585 -1.362253775254411 1.9210046397706408 -2.1295471915677817 -1.5707963267167255 1.537720185157001 31777.238999999754
4.67931284133066 -1.3624959840132709 1.9206022362785975 -2.128902580555745 -1.570796329564613 1.5377201876984328 31777.288999999753
4.67931285736867 -1.3639939575337225 1.918113516306388 -2.1249158947250253 -1.5707963471777662 1.5377202034162682 31777.338999999753
4.679312894895392 -1.3674990080662917 1.9122902563188704 -2.11558760213282 -1.5707963883901048 1.5377202401938257 31777.388999999752
4.679312956898562 -1.3732901944468872 1.9026688304315635 -2.100175019486089 -1.5707964564827992 1.537720300959195 31777.43899999975
4.679313042229049 -1.3812601863540055 1.8894275562923446 -2.0789637942052326 -1.5707965501938603 1.537720384586188 31777.48899999975
4.679313146520165 -1.3910011285659332 1.8732440409631477 -2.053039386487771 -1.5707966647277325 1.5377204867952885 31777.53899999975
4.6793132631069625 -1.4018905052179493 1.8551525268016624 -2.024058551372027 -1.5707967927648818 1.5377206010546045 31777.58899999975
4.679313383945535 -1.4131770040595288 1.8364012373430307 -1.9940208208008015 -1.5707969254713885 1.5377207194808173 31777.63899999975
4.6793135005323325 -1.4240663807115448 1.8183097231815455 -1.9650399856850571 -1.5707970535085378 1.5377208337401334 31777.688999999747
4.679313604823449 -1.4338073229234727 1.8021262078523488 -1.9391155779675961 -1.57079716804241 1.5377209359492339 31777.738999999747
4.679313690153936 -1.441777314830591 1.7888849337131298 -1.9179043526867392 -1.5707972617534711 1.5377210195762268 31777.788999999746
4.679313752157106 -1.4475685012111865 1.7792635078258225 -1.9024917700400081 -1.5707973298461655 1.5377210803415962 31777.838999999745
4.679313789683828 -1.4510735517437556 1.7734402478383051 -1.8931634774478028 -1.5707973710585041 1.5377211171191536 31777.888999999745
4.679313805721838 -1.4525715252642075 1.7709515278660959 -1.889176791617083 -1.5707973886716573 1.537721132836989 31777.938999999744
4.679313808315039 -1.4528137340230671 1.7705491243740523 -1.8885321806050466 -1.5707973915195448 1.5377211353784208 31777.988999999743
4.679313808315039 -1.4528137340230671 1.7705491243740523 -1.8885321806050466 -1.5707973915195448 1.5377211353784208 31778.038999999742
4.679173757451438 -1.4528184193051188 1.7705543144394804 -1.8885326853580306 -1.570797391421642 1.5375810845170481 31778.08899999974
4.6782279073017525 -1.4528500619142104 1.7705893661630885 -1.8885360942672886 -1.570797390760444 1.5366352343824106 31778.13899999974
4.675763400714797 -1.452932509877623 1.7706806969132551 -1.8885449765192217 -1.5707973890376266 1.5341707278346657 31778.18899999974
4.671164834428413 -1.453086350985996 1.7708511125700241 -1.8885615500696855 -1.5707973858229916 1.5295721616214435 31778.23899999974
4.663909927785502 -1.4533290576927345 1.771119968035696 -1.8885876972542357 -1.5707973807514373 1.522317255093958 31778.28899999974
4.653565191450081 -1.4536751320134154 1.7715033277454215 -1.888624980398375 -1.5707973735199328 1.5119725189231206 31778.338999999738
4.639781596123315 -1.4541362504251936 1.7720141261777944 -1.8886746574277997 -1.5707973638844883 1.4981889238156512 31778.388999999737
4.62229024125957 -1.4547214087662073 1.7726623283654435 -1.888737697478646 -1.5707973516571285 1.4806975692301916 31778.438999999737
4.600898023782447 -1.455437067134986 1.7734550904056257 -1.8888147965077366 -1.5707973367028645 1.4593053520934174 31778.488999999736
4.575483306800835 -1.456287294789856 1.774396919970819 -1.8889063929028271 -1.5707973189366657 1.4338906355161505 31778.538999999735
4.545991588324944 -1.4572739150483454 1.7754898368193144 -1.8890126830928522 -1.5707972983204326 1.4043989175094713 31778.588999999734
4.512431169982361 -1.4583966501865924 1.7767335333058094 -1.889133637158173 -1.5707972748599681 1.3708384997008312 31778.638999999734
4.47486882573408 -1.4596532663387507 1.7781255348920002 -1.889269014440823 -1.5707972486019508 1.3332761560501647 31778.688999999733
4.433425470590557 -1.4610397183963952 1.7796613606571745 -1.889418379154754 -1.5707972196309068 1.2918328015660019 31778.738999999732
4.388271829327746 -1.4625502949079292 1.781334683808804 -1.889581115996084 -1.5707971880661813 1.2466791610215813 31778.78899999973
4.339624105203145 -1.4641777629779902 1.7831374921931376 -1.889756445753342 -1.5707971540589114 1.198031437670961 31778.83899999973
4.287739648671838 -1.4659135131668557 1.7850602488057932 -1.8899434409177158 -1.5707971177889988 1.1461469819651326 31778.88899999973
4.232912626102545 -1.467747704389851 1.7870920523023515 -1.8901410412932982 -1.5707970794620805 1.0913199602681325 31778.93899999973
4.175469688493653 -1.4696694088167532 1.7892207975089474 -1.8903480696073331 -1.5707970393065025 1.0338770235731536 31778.98899999973
4.115765640189273 -1.4716667567711998 1.7914333359328642 -1.8905632471204623 -1.5707969975702916 0.9741729762186594 31779.038999999728
4.054179107595272 -1.4737270816300931 1.793715636273125 -1.8907852092369717 -1.5707969545181268 0.9125864446044956 31779.088999999727
3.9911082078953255 -1.4758370647230077 1.7960529449310858 -1.8910125211150384 -1.5707969104283128 0.8495155459080018 31779.138999999726
3.9269662177669544 -1.4779828802315957 1.7984299465210283 -1.8912436932769765 -1.5707968655897515 0.7853735568001246 31779.188999999726
3.862177242097572 -1.4801503400889944 1.8008309243807525 -1.8914771972194837 -1.570796820298914 0.72058458216153 31779.238999999725
3.797171882700527 -1.4823250388792306 1.8032399210821695 -1.8917114810238886 -1.5707967748568128 0.6555792237987144 31779.288999999724
3.732382907031145 -1.4844924987366293 1.8056408989418937 -1.8919449849663958 -1.5707967295659753 0.59079024916012 31779.338999999723
3.668240916902774 -1.4866383142452173 1.8080179005318362 -1.892176157128334 -1.570796684727414 0.5266482600522422 31779.388999999723
3.6051700172028274 -1.4887482973381319 1.810355209189797 -1.8924034690064007 -1.5707966406376 0.4635773613557488 31779.438999999722
3.5435834846088268 -1.4908086221970251 1.8126375095300578 -1.89262543112291 -1.5707965975854352 0.4019908297415844 31779.48899999972
3.4838794363044463 -1.4928059701514718 1.8148500479539746 -1.8928406086360392 -1.5707965558492243 0.34228678238709076 31779.53899999972
3.426436498695555 -1.4947276745783742 1.8169787931605708 -1.8930476369500742 -1.5707965156936463 0.2848438456921114 31779.58899999972
3.3716094761262614 -1.496561865801369 1.8190105966571288 -1.8932452373256565 -1.570796477366728 0.23001682399511125 31779.63899999972
3.319725019594955 -1.4982976159902348 1.8209333532697844 -1.8934322324900306 -1.5707964410968154 0.17813236828928236 31779.68899999972
3.271077295470354 -1.4999250840602958 1.822736161654118 -1.8936075622472883 -1.5707964070895455 0.12948464493866307 31779.738999999718
3.2259236542075422 -1.5014356605718298 1.8244094848057475 -1.8937702990886183 -1.57079637552482 0.08433100439424202 31779.788999999717
3.1844802990640195 -1.5028221126294743 1.8259453105709218 -1.8939196638025493 -1.570796346553776 0.042887649910078984 31779.838999999716
3.1469179548157395 -1.5040787287816326 1.8273373121571126 -1.8940550410851993 -1.5707963202957587 0.005325306259412521 31779.888999999715
3.1133575364731554 -1.5052014639198796 1.8285810086436076 -1.8941759951505202 -1.5707962968352942 -0.02823511154922631 31779.938999999715
3.083865817997265 -1.506188084178369 1.829673925492103 -1.8942822853405452 -1.570796276219061 -0.057726829555907244 31779.988999999714
3.0584511010156534 -1.5070383118332389 1.8306157550572963 -1.8943738817356357 -1.5707962584528623 -0.08314154613317548 31780.038999999713
3.0370588835385286 -1.5077539702020177 1.8314085170974788 -1.8944509807647263 -1.5707962434985983 -0.10453376326994857 31780.088999999713
3.019567528674785 -1.5083391285430316 1.8320567192851276 -1.8945140208155726 -1.5707962312712385 -0.12202511785540793 31780.13899999971
3.005783933348021 -1.5088002469548094 1.8325675177175005 -1.8945636978449973 -1.570796221635794 -0.1358087129628771 31780.18899999971
2.9954391970125984 -1.5091463212754905 1.8329508774272258 -1.8946009809891367 -1.5707962144042895 -0.14615344913371686 31780.23899999971
2.9881842903696887 -1.509389027982229 1.8332197328928979 -1.8946271281736868 -1.5707962093327352 -0.15340835566119715 31780.28899999971
2.9835857240833024 -1.509542869090602 1.8333901485496669 -1.8946437017241506 -1.5707962061181002 -0.15800692187442422 31780.33899999971
2.981121217496347 -1.5096253170540144 1.8334814792998335 -1.8946525839760837 -1.5707962043952828 -0.16047142842216822 31780.388999999708
2.9801753673466616 -1.5096569596631062 1.8335165310234416 -1.8946559928853417 -1.5707962037340848 -0.16141727855680266 31780.438999999707
2.980035316483062 -1.5096616449451579 1.8335217210888697 -1.8946564976383258 -1.570796203636182 -0.16155732941817824 31780.488999999707
2.9800353164830593 -1.5096616449451579 1.8335217210888697 -1.8946564976383258 -1.570796203636182 -0.16155732941817647 31780.538999999706
2.9800353227011427 -1.5094094136401337 1.8339324893587425 -1.8953194969600284 -1.5707962039657037 -0.16155732322065963 31780.588999999705
2.980035361157738 -1.5078494542987209 1.8364729424546922 -1.8994199078314742 -1.5707962060036773 -0.16155728489126092 31780.638999999705
2.9800354511408442 -1.5041993655316275 1.8424172507854824 -1.9090143012653298 -1.5707962107722526 -0.16155719520577747 31780.688999999704
2.9800355998145744 -1.4981685411085448 1.8522386776457964 -1.9248665464948718 -1.5707962186510858 -0.16155704702379106 31780.738999999703
2.980035804423501 -1.4898687526565144 1.865755198691526 -1.9466828476611477 -1.5707962294941555 -0.16155684309161641 31780.788999999702
2.9800360544969955 -1.4797247323582954 1.8822751214150557 -1.9733467805001381 -1.5707962427465798 -0.16155659384524934 31780.8389999997
2.980036334053574 -1.4683847556507295 1.900742704620553 -2.0031543290299196 -1.5707962575614343 -0.16155631521331507 31780.8889999997
2.9800366238052374 -1.4566312239231092 1.9198837778992541 -2.0340489222378246 -1.5707962729165683 -0.1615560264200164 31780.9389999997
2.9800369033618157 -1.4452912472155433 1.9383513611047514 -2.0638564707676057 -1.5707962877314228 -0.16155574778808213 31780.9889999997
2.98003715343531 -1.4351472269173242 1.9548712838282811 -2.0905204036065963 -1.570796300983847 -0.16155549854171505 31781.0389999997
2.9800373580442368 -1.4268474384652938 1.9683878048740104 -2.112336704772872 -1.5707963118269168 -0.1615552946095404 31781.088999999698
2.980037506717967 -1.4208166140422112 1.978209231734325 -2.1281889500024143 -1.57079631970575 -0.161555146427554 31781.138999999697
2.9800375967010733 -1.4171665252751176 1.9841535400651151 -2.1377833434362703 -1.5707963244743253 -0.16155505674207055 31781.188999999697
2.9800376351576685 -1.415606565933705 1.9866939931610643 -2.141883754307716 -1.5707963265122988 -0.16155501841267184 31781.238999999696
2.980037641375752 -1.4153543346286808 1.9871047614309374 -2.142546753629418 -1.5707963268418206 -0.161555012215155 31781.288999999695
2.980037641375752 -1.4153543346286808 1.9871047614309374 -2.142546753629418 -1.5707963268418206 -0.161555012215155 31781.338999999694
2.980037641375752 -1.4153543346286808 1.9871047614309374 -2.142546753629418 -1.5707963268418206 -0.161555012215155 31781.388999999694
2.980037641375752 -1.4153543346286808 1.9871047614309374 -2.142546753629418 -1.5707963268418206 -0.161555012215155 31781.438999999693
2.980037641375752 -1.4153543346286808 1.9871047614309374 -2.142546753629418 -1.5707963268418206 -0.161555012215155 31781.488999999692
2.980037641375752 -1.4153543346286808 1.9871047614309374 -2.142546753629418 -1.5707963268418206 -0.161555012215155 31781.53899999969
2.980037641375752 -1.4153543346286808 1.9871047614309374 -2.1425467536294183 -1.5707963268418206 -0.161555012215155 31781.58899999969
2.9800376351576685 -1.415606565933705 1.9866939931610645 -2.141883754307716 -1.5707963265122988 -0.16155501841267184 31781.63899999969
2.9800375967010733 -1.4171665252751178 1.984153540065115 -2.13778334343627 -1.5707963244743253 -0.16155505674207055 31781.68899999969
2.980037506717967 -1.4208166140422112 1.9782092317343247 -2.1281889500024143 -1.57079631970575 -0.161555146427554 31781.73899999969
2.9800373580442368 -1.4268474384652938 1.9683878048740107 -2.112336704772872 -1.5707963118269168 -0.1615552946095404 31781.788999999688
2.98003715343531 -1.4351472269173242 1.9548712838282811 -2.0905204036065963 -1.570796300983847 -0.16155549854171505 31781.838999999687
2.9800369033618157 -1.4452912472155433 1.9383513611047514 -2.0638564707676057 -1.5707962877314228 -0.16155574778808213 31781.888999999686
2.9800366238052374 -1.4566312239231092 1.9198837778992541 -2.0340489222378246 -1.5707962729165683 -0.1615560264200164 31781.938999999686
2.980036334053574 -1.4683847556507295 1.900742704620553 -2.0031543290299196 -1.5707962575614343 -0.16155631521331507 31781.988999999685
2.9800360544969955 -1.4797247323582954 1.8822751214150557 -1.9733467805001383 -1.5707962427465798 -0.16155659384524934 31782.038999999684
2.980035804423501 -1.4898687526565144 1.865755198691526 -1.9466828476611477 -1.5707962294941555 -0.16155684309161641 31782.088999999683
2.9800355998145744 -1.4981685411085448 1.8522386776457966 -1.924866546494872 -1.5707962186510858 -0.16155704702379106 31782.138999999683
2.9800354511408442 -1.5041993655316275 1.8424172507854821 -1.9090143012653296 -1.5707962107722526 -0.16155719520577747 31782.188999999682
2.980035361157738 -1.507849454298721 1.836472942454692 -1.899419907831474 -1.5707962060036773 -0.16155728489126092 31782.23899999968
2.9800353227011427 -1.5094094136401337 1.8339324893587428 -1.8953194969600284 -1.5707962039657037 -0.16155732322065963 31782.28899999968
2.9800353164830593 -1.5096616449451579 1.8335217210888697 -1.894656497638326 -1.570796203636182 -0.16155732941817647 31782.33899999968
2.9800353164830593 -1.5096616449451579 1.8335217210888697 -1.894656497638326 -1.570796203636182 -0.16155732941817647 31782.38899999968
2.9800353164830593 -1.5096616449451579 1.8335217210888697 -1.894656497638326 -1.570796203636182 -0.16155732941817647 31782.43899999968
2.9800353164830593 -1.5096616449451579 1.8335217210888697 -1.894656497638326 -1.570796203636182 -0.16155732941817647 31782.488999999678
2.9800353164830593 -1.5096616449451579 1.8335217210888697 -1.894656497638326 -1.570796203636182 -0.16155732941817647 31782.538999999677
2.9800353164830593 -1.5096616449451579 1.8335217210888697 -1.894656497638326 -1.570796203636182 -0.16155732941817647 31782.588999999676
2.9800353164830593 -1.5096616449451579 1.8335217210888697 -1.894656497638326 -1.570796203636182 -0.16155732941817647 31782.638999999675
2.9800353164830593 -1.5096616449451579 1.8335217210888697 -1.894656497638326 -1.570796203636182 -0.16155732941817647 31782.688999999675
2.9800353164830593 -1.5096616449451579 1.8335217210888697 -1.894656497638326 -1.570796203636182 -0.16155732941817647 31782.738999999674
2.9800353164830593 -1.5096616449451579 1.8335217210888697 -1.894656497638326 -1.570796203636182 -0.16155732941817647 31782.788999999673
2.9800353164830593 -1.5096616449451579 1.8335217210888697 -1.894656497638326 -1.570796203636182 -0.16155732941817647 31782.838999999673
2.9800353164830593 -1.5096616449451579 1.8335217210888697 -1.894656497638326 -1.570796203636182 -0.16155732941817647 31782.88899999967
2.9800353164830593 -1.5096616449451579 1.8335217210888697 -1.894656497638326 -1.570796203636182 -0.16155732941817647 31782.93899999967
2.9800353164830593 -1.5096616449451579 1.8335217210888697 -1.894656497638326 -1.570796203636182 -0.16155732941817647 31782.98899999967
2.9800353164830593 -1.5096616449451579 1.8335217210888697 -1.894656497638326 -1.570796203636182 -0.16155732941817647 31783.03899999967
2.9800353164830593 -1.5096616449451579 1.8335217210888697 -1.894656497638326 -1.570796203636182 -0.16155732941817647 31783.08899999967
2.9800353164830593 -1.5096616449451579 1.8335217210888697 -1.894656497638326 -1.570796203636182 -0.16155732941817647 31783.138999999668
2.9800353164830593 -1.5096616449451579 1.8335217210888697 -1.894656497638326 -1.570796203636182 -0.16155732941817647 31783.188999999667
2.9800353164830593 -1.5096616449451579 1.8335217210888697 -1.894656497638326 -1.570796203636182 -0.16155732941817647 31783.238999999667
2.9800353164830593 -1.5096616449451579 1.8335217210888697 -1.894656497638326 -1.570796203636182 -0.16155732941817647 31783.288999999666
2.9800353164830593 -1.5096616449451579 1.8335217210888697 -1.894656497638326 -1.570796203636182 -0.16155732941817647 31783.338999999665
2.9800353164830593 -1.5096616449451579 1.8335217210888697 -1.894656497638326 -1.570796203636182 -0.16155732941817647 31783.388999999665
2.9800353164830593 -1.5096616449451579 1.8335217210888697 -1.894656497638326 -1.570796203636182 -0.16155732941817647 31783.438999999664
2.9800353164830593 -1.5096616449451579 1.8335217210888697 -1.894656497638326 -1.570796203636182 -0.16155732941817647 31783.488999999663
2.9800353164830593 -1.5096616449451579 1.8335217210888697 -1.894656497638326 -1.570796203636182 -0.16155732941817647 31783.538999999662
2.9800353164830593 -1.5096616449451579 1.8335217210888697 -1.894656497638326 -1.570796203636182 -0.16155732941817647 31783.58899999966
2.9800353164830593 -1.5096616449451579 1.8335217210888697 -1.894656497638326 -1.570796203636182 -0.16155732941817647 31783.63899999966
2.9800353164830593 -1.5096616449451579 1.8335217210888697 -1.894656497638326 -1.570796203636182 -0.16155732941817647 31783.68899999966
2.9800353164830593 -1.5096616449451579 1.8335217210888697 -1.894656497638326 -1.570796203636182 -0.16155732941817647 31783.73899999966
2.9800353164830593 -1.5096616449451579 1.8335217210888697 -1.894656497638326 -1.570796203636182 -0.16155732941817647 31783.78899999966
2.9800353164830593 -1.5096616449451579 1.8335217210888697 -1.894656497638326 -1.570796203636182 -0.16155732941817647 31783.838999999658
2.9800353164830593 -1.5096616449451579 1.8335217210888697 -1.894656497638326 -1.570796203636182 -0.16155732941817647 31783.888999999657
2.9800353164830593 -1.5096616449451579 1.8335217210888697 -1.894656497638326 -1.570796203636182 -0.16155732941817647 31783.938999999657
2.9800353164830593 -1.5096616449451579 1.8335217210888697 -1.8946564976383258 -1.570796203636182 -0.16155732941817647 31783.988999999656
2.980181824458131 -1.5096611805972633 1.8335212205832292 -1.8946564614717492 -1.5707962036476673 -0.16141082144382163 31784.038999999655
2.9811697379185738 -1.509658049467131 1.8335178456389034 -1.8946562175980097 -1.5707962037251133 -0.16042290798821335 31784.088999999654
2.983739164937233 -1.5096499058283581 1.8335090678729502 -1.894655583315959 -1.5707962039265397 -0.15785348098212704 31784.138999999654
2.988524190331657 -1.5096347399886403 1.8334927211027612 -1.8946544020970733 -1.5707962043016546 -0.15306845561111868 31784.188999999653
2.9960578069782917 -1.5096108626602793 1.8334669844995326 -1.8946525423681218 -1.5707962048922413 -0.14553483900134911 31784.238999999652
3.0067768471266856 -1.5095768893306898 1.8334303657417395 -1.8946498962938347 -1.5707962057325446 -0.13481579890540812 31784.28899999965
3.021026913713687 -1.509531724632906 1.8333816841686075 -1.8946463785595726 -1.5707962068496575 -0.12056573238813867 31784.33899999965
3.0390673116776443 -1.50947454671609 1.8333200539335872 -1.8946419251539952 -1.5707962082639078 -0.10252533451246089 31784.38899999965
3.0610759792726068 -1.5094047916160362 1.833244867157826 -1.8946364921517291 -1.5707962099892445 -0.08051666702519641 31784.43899999965
3.0871544193825238 -1.5093221376256816 1.833155777083641 -1.8946300544960373 -1.5707962120336252 -0.05443822704289247 31784.48899999965
3.1173326308354454 -1.5092264896656107 1.8330526812279926 -1.8946226047814871 -1.5707962143994012 -0.024260015737645996 31784.538999999648
3.151574039717722 -1.5091179636545629 1.8329357045359567 -1.8946141520366198 -1.5707962170837055 0.009981392977072123 31784.588999999647
3.1897804306882036 -1.5089968708799395 1.8328051825341976 -1.894604720506618 -1.570796220078839 0.04818778376059313 31784.638999999646
3.231796878292441 -1.5088637023683118 1.832661644484442 -1.8945943484359753 -1.570796223372656 0.09020423115922577 31784.688999999646
3.2774166782768854 -1.5087191132559263 1.8325057965369502 -1.8945830868511646 -1.5707962269489526 0.1358240309204326 31784.738999999645
3.3263862789030885 -1.5085639071592134 1.8323385048839906 -1.8945709983433063 -1.5707962307878516 0.1847936313070057 31784.788999999644
3.3784102122619006 -1.508399020545293 1.8321607789133116 -1.894558155850838 -1.5707962348661908 0.2368175644112423 31784.838999999643
3.4331560255876745 -1.5082255071024835 1.831973754361615 -1.8945446414421816 -1.5707962391579076 0.2915633774691211 31784.888999999643
3.4902592125724614 -1.508044522110806 1.8317786764680282 -1.894530545098414 -1.5707962436344272 0.3486665641744773 31784.938999999642
3.549328144680214 -1.507857306812494 1.8315768831275783 -1.8945159634959334 -1.5707962482650484 0.4077354959931794 31784.98899999964
3.6099490024609837 -1.5076651727824995 1.8313697880446638 -1.89450099878913 -1.5707962530173305 0.46835635347730464 31785.03899999964
3.6716907068651223 -1.5074694862989988 1.8311588638865284 -1.894485757393053 -1.57079625785748 0.5300980575793143 31785.08899999964
3.734109850557483 -1.5072716527139016 1.8309456254367333 -1.8944703487660808 -1.570796262750736 0.5925172009662305 31785.13899999964
3.796755629231617 -1.5070731008233567 1.8307316127486306 -1.8944548841925881 -1.5707962676617588 0.6551629793338116 31785.18899999964
3.8591747729239776 -1.5068752672382595 1.8305183742988356 -1.894439475565616 -1.5707962725550149 0.717582122720728 31785.238999999638
3.920916477328116 -1.5066795807547588 1.8303074501407002 -1.894424234169539 -1.5707962773951643 0.779323826822738 31785.288999999637
3.9815373351088863 -1.5064874467247642 1.8301003550577857 -1.8944092694627355 -1.5707962821474464 0.8399446843068632 31785.338999999636
4.0406062672166385 -1.5063002314264522 1.8298985617173358 -1.8943946878602549 -1.5707962867780676 0.8990136161255653 31785.388999999635
4.097709454201425 -1.5061192464347748 1.829703483823749 -1.8943805915164873 -1.5707962912545872 0.9561168028309215 31785.438999999635
4.1524552675272 -1.5059457329919652 1.8295164592720523 -1.894367077107831 -1.570796295546304 1.0108626158888003 31785.488999999634
4.204479200886013 -1.5057808463780449 1.8293387333013733 -1.8943542346153626 -1.5707962996246432 1.0628865489930375 31785.538999999633
4.2534488015122145 -1.505625640281332 1.8291714416484137 -1.8943421461075043 -1.5707963034635422 1.1118561493796104 31785.588999999633
4.29906860149666 -1.5054810511689465 1.829015593700922 -1.8943308845226936 -1.5707963070398387 1.1574759491408173 31785.63899999963
4.341085049100897 -1.5053478826573188 1.8288720556511664 -1.8943205124520508 -1.5707963103336557 1.1994923965394504 31785.68899999963
4.379291440071379 -1.5052267898826954 1.8287415336494073 -1.8943110809220491 -1.5707963133287892 1.2376987873229703 31785.73899999963
4.413532848953656 -1.5051182638716476 1.8286245569573714 -1.8943026281771818 -1.5707963160130936 1.27194019603769 31785.78899999963
4.443711060406575 -1.5050226159115767 1.8285214611017229 -1.8942951784626316 -1.5707963183788696 1.3021184073429355 31785.83899999963
4.469789500516493 -1.504939961921222 1.8284323710275379 -1.8942887408069398 -1.5707963204232502 1.3281968473252412 31785.888999999628
4.491798168111456 -1.5048702068211683 1.8283571842517767 -1.8942833078046737 -1.570796322148587 1.3502055148125045 31785.938999999627
4.509838566075413 -1.5048130289043522 1.8282955540167565 -1.8942788543990963 -1.5707963235628373 1.3682459126881827 31785.988999999627
4.524088632662416 -1.5047678642065685 1.8282468724436245 -1.8942753366648342 -1.5707963246799501 1.3824959792054532 31786.038999999626
4.534807672810809 -1.504733890876979 1.8282102536858313 -1.8942726905905471 -1.5707963255202535 1.393215019301394 31786.088999999625
4.542341289457443 -1.504710013548618 1.8281845170826028 -1.8942708308615956 -1.5707963261108402 1.400748635911162 31786.138999999625
4.547126314851864 -1.5046948477089002 1.8281681703124137 -1.8942696496427098 -1.570796326485955 1.4055336612821705 31786.188999999624
4.5496957418705275 -1.5046867040701273 1.8281593925464605 -1.8942690153606592 -1.5707963266873815 1.4081030882882573 31786.238999999623
4.550683655330969 -1.504683572939995 1.8281560176021348 -1.8942687714869197 -1.5707963267648275 1.4090910017438656 31786.288999999622
4.55083016330604 -1.5046831085921004 1.8281555170964943 -1.8942687353203431 -1.5707963267763128 1.4092375097182206 31786.33899999962
4.550830163306041 -1.5046831085921004 1.8281555170964943 -1.8942687353203431 -1.5707963267763128 1.4092375097182188 31786.38899999962
4.550830163288899 -1.5044317259580535 1.8285655109525163 -1.8949301118132962 -1.570796326774864 1.4092375097011915 31786.43899999962
4.55083016318288 -1.5028770153395092 1.8311011745790515 -1.8990204860762125 -1.570796326765904 1.409237509595885 31786.48899999962
