Andreas691667/Digital_Twin_UR/src/dt/dt_trajectories/E2_WORK_dt_trajectory.csv
actual_q_0 actual_q_1 actual_q_2 actual_q_3 actual_q_4 actual_q_5 timestamp
3.71207804710797 -0.8254843255005873 0.8429764792549035 -1.5882884806323445 -1.570796326807946 2.141281720311417 12734.519999999999
3.71207804710797 -0.8254843255005873 0.8429764792549035 -1.5882884806323445 -1.570796326807946 2.141281720311417 12734.569999999998
3.71207804710797 -0.8254843255005873 0.8429764792549035 -1.5882884806323445 -1.570796326807946 2.141281720311417 12734.619999999997
3.71207804710797 -0.8254843255005873 0.8429764792549035 -1.5882884806323445 -1.570796326807946 2.141281720311417 12734.669999999996
3.71207804710797 -0.8254843255005873 0.8429764792549035 -1.5882884806323445 -1.570796326807946 2.141281720311417 12734.719999999996
3.71207804710797 -0.8254843255005873 0.8429764792549035 -1.5882884806323445 -1.570796326807946 2.141281720311417 12734.769999999995
3.71207804710797 -0.8254843255005873 0.8429764792549035 -1.5882884806323445 -1.570796326807946 2.141281720311417 12734.819999999994
3.71207804710797 -0.8254843255005873 0.8429764792549035 -1.5882884806323445 -1.570796326807946 2.141281720311417 12734.869999999994
3.71207804710797 -0.8254843255005873 0.8429764792549035 -1.5882884806323445 -1.570796326807946 2.141281720311417 12734.919999999993
3.71207804710797 -0.8254843255005873 0.8429764792549035 -1.5882884806323445 -1.570796326807946 2.141281720311417 12734.969999999992
3.71207804710797 -0.8254843255005873 0.8429764792549035 -1.5882884806323445 -1.570796326807946 2.141281720311417 12735.019999999991
3.71207804710797 -0.8254843255005873 0.8429764792549035 -1.5882884806323445 -1.570796326807946 2.141281720311417 12735.06999999999
3.71207804710797 -0.8254843255005873 0.8429764792549035 -1.5882884806323445 -1.570796326807946 2.141281720311417 12735.11999999999
3.712302100445105 -0.8255991797814494 0.8431504756584648 -1.5883476227577187 -1.5707963268629916 2.1415057736482686 12735.16999999999
3.7137951763049775 -0.8263645607231098 0.8443099755935445 -1.588741741768964 -1.5707963272298118 2.142998849506254 12735.219999999988
3.717625071132552 -0.8283278424212271 0.8472842134894762 -1.5897526980125036 -1.5707963281707442 2.146828744328989 12735.269999999988
3.724651864131218 -0.8319299189042199 0.8527411137346294 -1.5916075218585575 -1.5707963298970935 2.153855537318775 12735.319999999987
3.7355408995903905 -0.837511859137468 0.8611973725539686 -1.5944818405746537 -1.5707963325723222 2.164744572764187 12735.369999999986
3.7507757692131087 -0.845321562027516 0.8730285398866147 -1.5985033051991422 -1.5707963363152397 2.179979442367652 12735.419999999986
3.7706712944436314 -0.8555204114262757 0.8884791012634048 -1.6037550174147068 -1.5707963412031918 2.1998749675730322 12735.469999999985
3.795386508795039 -0.8681899311352279 0.9076725596844525 -1.6102789564218791 -1.5707963472752495 2.2245901818932063 12735.519999999984
3.824937640176829 -0.8833384399096261 0.9306215174967081 -1.6180794058125498 -1.5707963545354002 2.2541413132376515 12735.569999999983
3.859211093222516 -0.9009077064626979 0.9572377582715189 -1.6271263804434823 -1.5707963629557353 2.288414766240026 12735.619999999983
3.8979764316172294 -0.9207796044698482 0.9873423286821899 -1.6373590533098255 -1.5707963724796412 2.3271801045857505 12735.669999999982
3.9408993604253117 -0.9427827675728616 1.0206756203815437 -1.648689182418626 -1.570796383024988 2.37010303333959 12735.719999999981
3.987554708417918 -0.9666992443841051 1.0569074518794808 -1.6610045376623415 -1.5707963944873191 2.416758381273236 12735.76999999998
4.037439410400611 -0.9922711534907303 1.0956471504205398 -1.6741723276923528 -1.570796406743041 2.4666430831928885 12735.81999999998
4.089985489540965 -1.0192073384588758 1.1364536338614584 -1.6880426267924775 -1.5707964196526127 2.519189162266838 12735.869999999979
4.144573039696158 -1.0471900228378708 1.1788454925487324 -1.7024518017524817 -1.570796433063735 2.5737767123530473 12735.919999999978
4.200543207740575 -1.0758814651644362 1.222311071196177 -1.7172259387415933 -1.5707964468145401 2.6297468803267323 12735.969999999978
4.257211175893402 -1.104930613966888 1.2663185507624877 -1.7321842701820154 -1.5707964607367817 2.6864148484079466 12736.019999999977
4.313879144046229 -1.1339797627693398 1.310326030328798 -1.7471426016224372 -1.570796474659023 2.743082816489161 12736.069999999976
4.369849312090646 -1.1626712050959052 1.353791608976243 -1.761916738611549 -1.5707964884098282 2.799052984462847 12736.119999999975
4.424436862245839 -1.1906538894749001 1.3961834676635165 -1.776325913571553 -1.5707965018209504 2.853640534549055 12736.169999999975
4.476982941386193 -1.2175900744430457 1.4369899511044353 -1.7901962126716777 -1.570796514730522 2.906186613623005 12736.219999999974
4.526867643368886 -1.2431619835496708 1.4757296496454944 -1.803364002701689 -1.570796526986244 2.956071315542658 12736.269999999973
4.573522991361491 -1.267078460360914 1.5119614811434312 -1.8156793579454045 -1.5707965384485751 3.0027266634763032 12736.319999999972
4.616445920169575 -1.289081623463928 1.5452947728427855 -1.8270094870542053 -1.570796548993922 3.0456495922301436 12736.369999999972
4.655211258564289 -1.3089535214710786 1.575399343253457 -1.8372421599205484 -1.5707965585178278 3.0844149305758686 12736.419999999971
4.689484711609975 -1.3265227880241497 1.602015584028267 -1.8462891345514807 -1.570796566938163 3.118688383578242 12736.46999999997
4.719035842991765 -1.3416712967985478 1.6249645418405225 -1.8540895839421516 -1.5707965741983136 3.1482395149226874 12736.51999999997
4.743751057343172 -1.3543408165075 1.6441580002615697 -1.8606135229493235 -1.5707965802703714 3.1729547292428615 12736.569999999969
4.7636465825736956 -1.3645396659062594 1.65960856163836 -1.8658652351648883 -1.5707965851583234 3.192850254448242 12736.619999999968
4.778881452196413 -1.3723493687963073 1.6714397289710057 -1.8698866997893768 -1.570796588901241 3.2080851240517068 12736.669999999967
4.789770487655584 -1.3779313090295555 1.6798959877903443 -1.8727610185054726 -1.5707965915764697 3.218974159497118 12736.719999999967
4.7967972806542525 -1.3815333855125485 1.6853528880354989 -1.8746158423515267 -1.570796593302819 3.2260009524869053 12736.769999999966
4.800627175481825 -1.383496667210665 1.688327125931429 -1.875626798595066 -1.5707965942437514 3.229830847309638 12736.819999999965
4.802120251341698 -1.3842620481523258 1.6894866258665089 -1.8760209176063116 -1.5707965946105715 3.2313239231676256 12736.869999999964
4.802344304678834 -1.3843769024331887 1.689660622270071 -1.8760800597316858 -1.5707965946656173 3.231547976504478 12736.919999999964
4.802344304678834 -1.384376902433189 1.6896606222700719 -1.8760800597316862 -1.5707965946656173 3.2315479765044763 12736.969999999963
4.802344307386492 -1.384147745783343 1.6900552203559738 -1.8767038144324433 -1.5707965939491735 3.2315479792158253 12737.019999999962
4.802344324132375 -1.3827304948337065 1.6924956667159023 -1.8805615115256038 -1.5707965895182276 3.2315479959845366 12737.069999999962
4.802344363315421 -1.3794143239348313 1.6982059731377366 -1.8895879883399567 -1.5707965791504284 3.2315480352209986 12737.11999999996
4.802344428055237 -1.3739352121312087 1.7076407725712601 -1.9045018987404798 -1.5707965620203306 3.231548100049069 12737.16999999996
4.802344517151974 -1.366394705944188 1.720625206189633 -1.9250268373944897 -1.5707965384454132 3.2315481892672646 12737.21999999996
4.802344626046208 -1.3571786821548983 1.736494810450864 -1.9501124640377867 -1.5707965096320957 3.2315482983099457 12737.269999999959
4.80234474777882 -1.3468761105871672 1.7542354041592816 -1.978155627740803 -1.5707964774217549 3.231548420208505 12737.319999999958
4.8023448739508705 -1.3361978168904423 1.7726229755270069 -2.0072214911747506 -1.5707964440367426 3.2315485465525557 12737.369999999957
4.802344995683482 -1.325895245322711 1.7903635692354243 -2.035264654877767 -1.5707964118264017 3.231548668451115 12737.419999999956
4.802345104577716 -1.3166792215334213 1.8062331734966552 -2.060350281521064 -1.5707963830130842 3.231548777493796 12737.469999999956
4.802345193674453 -1.3091387153464007 1.8192176071150283 -2.0808752201750735 -1.5707963594381669 3.2315488667119916 12737.519999999955
4.802345258414269 -1.3036596035427779 1.8286524065485519 -2.0957891305755973 -1.570796342308069 3.231548931540062 12737.569999999954
4.8023452975973155 -1.3003434326439027 1.8343627129703863 -2.1048156073899498 -1.5707963319402698 3.231548970776524 12737.619999999954
4.8023453143431984 -1.2989261816942663 1.8368031593303147 -2.1086733044831103 -1.570796327509324 3.2315489875452355 12737.669999999953
4.8023453170508565 -1.2986970250444205 1.8371977574162166 -2.1092970591838673 -1.5707963267928802 3.2315489902565844 12737.719999999952
4.8023453170508565 -1.2986970250444205 1.8371977574162166 -2.1092970591838673 -1.5707963267928802 3.2315489902565844 12737.769999999951
4.8023453170508565 -1.2986970250444205 1.8371977574162166 -2.1092970591838673 -1.5707963267928802 3.2315489902565844 12737.81999999995
4.8023453170508565 -1.2986970250444205 1.8371977574162166 -2.1092970591838673 -1.5707963267928802 3.2315489902565844 12737.86999999995
4.8023453170508565 -1.2986970250444205 1.8371977574162166 -2.1092970591838673 -1.5707963267928802 3.2315489902565844 12737.91999999995
4.8023453170508565 -1.2986970250444205 1.8371977574162166 -2.1092970591838673 -1.5707963267928802 3.2315489902565844 12737.969999999948
4.8023453170508565 -1.2986970250444205 1.8371977574162166 -2.1092970591838673 -1.5707963267928802 3.2315489902565844 12738.019999999948
4.8023453170508565 -1.2986970250444205 1.8371977574162166 -2.1092970591838673 -1.5707963267928802 3.2315489902565844 12738.069999999947
4.8023453170508565 -1.2986970250444205 1.8371977574162166 -2.1092970591838673 -1.5707963267928802 3.2315489902565844 12738.119999999946
4.8023453170508565 -1.2986970250444205 1.8371977574162166 -2.1092970591838673 -1.5707963267928802 3.2315489902565844 12738.169999999946
4.8023453170508565 -1.2986970250444205 1.8371977574162166 -2.1092970591838673 -1.5707963267928802 3.2315489902565844 12738.219999999945
4.8023453170508565 -1.2986970250444205 1.8371977574162166 -2.1092970591838673 -1.5707963267928802 3.2315489902565844 12738.269999999944
4.8023453170508565 -1.2986970250444205 1.8371977574162166 -2.1092970591838673 -1.5707963267928802 3.2315489902565844 12738.319999999943
4.8023453170508565 -1.2986970250444205 1.8371977574162166 -2.1092970591838673 -1.5707963267928802 3.2315489902565844 12738.369999999943
4.8023453170508565 -1.2986970250444205 1.8371977574162166 -2.1092970591838673 -1.5707963267928802 3.2315489902565844 12738.419999999942
4.8023453143431984 -1.2989261816942663 1.8368031593303147 -2.1086733044831103 -1.570796327509324 3.2315489875452355 12738.469999999941
4.8023452975973155 -1.300343432643903 1.8343627129703861 -2.1048156073899498 -1.5707963319402698 3.231548970776524 12738.51999999994
4.802345258414269 -1.303659603542778 1.8286524065485519 -2.095789130575597 -1.570796342308069 3.231548931540062 12738.56999999994
4.802345193674453 -1.3091387153464007 1.8192176071150283 -2.0808752201750735 -1.5707963594381669 3.2315488667119916 12738.619999999939
4.802345104577716 -1.3166792215334213 1.8062331734966555 -2.060350281521064 -1.5707963830130842 3.231548777493796 12738.669999999938
4.802344995683482 -1.325895245322711 1.7903635692354245 -2.035264654877767 -1.5707964118264017 3.231548668451115 12738.719999999937
4.8023448739508705 -1.3361978168904423 1.7726229755270069 -2.0072214911747506 -1.5707964440367426 3.2315485465525557 12738.769999999937
4.80234474777882 -1.3468761105871672 1.7542354041592816 -1.978155627740803 -1.5707964774217549 3.231548420208505 12738.819999999936
4.802344626046208 -1.3571786821548981 1.7364948104508642 -1.9501124640377867 -1.5707965096320957 3.2315482983099457 12738.869999999935
4.802344517151974 -1.366394705944188 1.7206252061896332 -1.9250268373944899 -1.5707965384454132 3.2315481892672646 12738.919999999935
4.802344428055237 -1.3739352121312087 1.7076407725712601 -1.90450189874048 -1.5707965620203306 3.231548100049069 12738.969999999934
4.802344363315421 -1.3794143239348315 1.6982059731377366 -1.8895879883399564 -1.5707965791504284 3.2315480352209986 12739.019999999933
4.802344324132375 -1.3827304948337067 1.6924956667159021 -1.8805615115256038 -1.5707965895182276 3.2315479959845366 12739.069999999932
4.802344307386492 -1.384147745783343 1.6900552203559738 -1.876703814432443 -1.5707965939491735 3.2315479792158253 12739.119999999932
4.802344304678834 -1.384376902433189 1.6896606222700719 -1.8760800597316862 -1.5707965946656173 3.2315479765044763 12739.169999999931
4.802344304678834 -1.384376902433189 1.6896606222700719 -1.8760800597316862 -1.5707965946656173 3.2315479765044763 12739.21999999993
4.802218822343209 -1.3843766781623514 1.6896603477686656 -1.8760800095003098 -1.5707965946490787 3.231422494168937 12739.26999999993
4.801368484365914 -1.3843751583786361 1.6896584875947263 -1.8760796691046129 -1.5707965945370035 3.230572156192218 12739.319999999929
4.799144106848085 -1.384371182815015 1.6896536216129634 -1.876078778672155 -1.5707965942438291 3.228347778675899 12739.369999999928
4.794976160356982 -1.3843637335685124 1.6896445039378152 -1.8760771102166842 -1.5707965936944908 3.2241798321876245 12739.419999999927
4.7883715837473355 -1.3843519294056432 1.6896300559634596 -1.8760744663626903 -1.570796592824003 3.2175752555824597 12739.469999999927
4.778910597982704 -1.3843350200678508 1.6896093593938257 -1.8760706790699573 -1.5707965915770388 3.2081142698242484 12739.519999999926
4.766243519956832 -1.3843123805769446 1.6895816492726032 -1.8760656083581149 -1.5707965899075091 3.1954471918069713 12739.569999999925
4.750087576314998 -1.3842835055405383 1.6895463070132548 -1.876059141031192 -1.570796587778145 3.179291248176102 12739.619999999924
4.730223717275382 -1.384248003457487 1.6895028534290257 -1.8760511894021688 -1.5707965851600747 3.1594273891499647 12739.669999999924
4.706493430450407 -1.3842055910233269 1.6894509417629557 -1.8760416900175292 -1.5707965820324068 3.135697102341093 12739.719999999923
4.6787955546681035 -1.3841560874357106 1.689390350717889 -1.8760306023818132 -1.5707965783818079 3.1079992265775855 12739.769999999922
4.647083093793463 -1.3840994086998475 1.689320977486485 -1.8760179076821688 -1.5707965742020837 3.076286765724465 12739.819999999921
4.611360030549791 -1.3840355619339404 1.689242830781231 -1.8760036075129058 -1.5707965694937598 3.0405637025050343 12739.86999999992
4.571678140340064 -1.383964639674623 1.6891560238644503 -1.875987722600047 -1.5707965642636594 3.000881812322235 12739.91999999992
4.5281338050682844 -1.383886814182399 1.689060767578315 -1.8759702915258811 -1.5707965585244865 2.9573374770800043 12739.96999999992
4.480864826960836 -1.3838023317470793 1.688957363374856 -1.8759513694535155 -1.570796552294403 2.910068499004633 12740.019999999919
4.43004724238784 -1.3837115069932202 1.6888461963459744 -1.8759310268514275 -1.5707965455966106 2.859250914466121 12740.069999999918
4.3758921356845075 -1.3836147171855606 1.6887277282534516 -1.8759093482180182 -1.5707965384589306 2.805095807799538 12740.119999999917
4.318642452972498 -1.3835123965344605 1.688602490558961 -1.8758864308061645 -1.5707965309133833 2.7478461251263777 12740.169999999916
4.258569815981273 -1.3834050305013394 1.6884710774540777 -1.8758623833477708 -1.5707965229957688 2.6877734881759183 12740.219999999916
4.195971335869454 -1.3832931501041128 1.6883341388902908 -1.8758373247783222 -1.5707965147452465 2.6251750081065772 12740.269999999915
4.13116642704617 -1.3831773262226317 1.6881923736090134 -1.8758113829614371 -1.5707965062039153 2.56037009932727 12740.319999999914
4.064493620992424 -1.3830581639041188 1.6880465221715932 -1.8757846934134188 -1.570796497416394 2.493697293318768 12740.369999999913
3.996307380082441 -1.3829362966686083 1.6878973599893237 -1.8757573980278084 -1.570796488429401 2.4255110524550547 12740.419999999913
3.926974911405021 -1.382812380814382 1.6877456903534551 -1.8757296437999376 -1.5707964792913343 2.3561785838246845 12740.469999999912
3.8568729805849036 -1.3826870897234085 1.6875923374652055 -1.8757015815514806 -1.570796470051852 2.2860766530521373 12740.519999999911
3.7863847256041145 -1.3825611081667801 1.6874381394657707 -1.8756733646550066 -1.570796460761452 2.2155883981191815 12740.56999999991
3.7158964706233264 -1.3824351266101518 1.6872839414663359 -1.8756451477585327 -1.570796451471052 2.1451001431862258 12740.61999999991
3.645794539803209 -1.3823098355191783 1.6871305885780863 -1.8756170855100758 -1.5707964422315697 2.074998212413679 12740.66999999991
3.576462071125788 -1.382185919664952 1.6869789189422177 -1.875589331282205 -1.570796433093503 2.0056657437833074 12740.719999999908
3.508275830215805 -1.3820640524294414 1.6868297567599482 -1.8755620358965945 -1.57079642410651 1.9374795029195948 12740.769999999908
3.4416030241620597 -1.3819448901109286 1.686683905322528 -1.8755353463485762 -1.5707964153189886 1.870806696911093 12740.819999999907
3.3767981153387763 -1.3818290662294475 1.6865421400412506 -1.8755094045316911 -1.5707964067776574 1.806001788131786 12740.869999999906
3.314199635226956 -1.3817171858322208 1.6864052014774638 -1.8754843459622426 -1.5707963985271352 1.7434033080624447 12740.919999999905
3.254126998235731 -1.3816098197990998 1.6862737883725805 -1.8754602985038489 -1.5707963906095206 1.683330671111985 12740.969999999905
3.196877315523723 -1.3815074991479996 1.6861485506780898 -1.875437381091995 -1.5707963830639733 1.6260809884388259 12741.019999999904
3.1427222088203894 -1.38141070934034 1.686030082585567 -1.8754157024585858 -1.5707963759262933 1.5719258817722421 12741.069999999903
3.091904624247393 -1.381319884586481 1.6859189155566854 -1.8753953598564979 -1.570796369228501 1.5211082972337298 12741.119999999903
3.0446356461399438 -1.3812354021511613 1.6858155113532265 -1.8753764377841322 -1.5707963629984174 1.4738393191583563 12741.169999999902
3.001091310868164 -1.3811575766589372 1.6857202550670911 -1.8753590067099664 -1.5707963572592445 1.4302949839161272 12741.219999999901
2.9614094206584394 -1.3810866543996199 1.6856334481503104 -1.8753431217971075 -1.5707963520291441 1.39061309373333 12741.2699999999
2.925686357414766 -1.3810228076337128 1.6855553014450564 -1.8753288216278445 -1.5707963473208202 1.3548900305138978 12741.3199999999
2.8939738965401256 -1.3809661288978496 1.6854859282136525 -1.8753161269282002 -1.570796343141096 1.323177569660778 12741.369999999899
2.866276020757823 -1.3809166253102334 1.6854253371685857 -1.8753050392924842 -1.5707963394904971 1.2954796938972692 12741.419999999898
2.8425457339328464 -1.3808742128760731 1.6853734255025157 -1.8752955399078446 -1.5707963363628292 1.2717494070883972 12741.469999999897
2.8226818748932283 -1.380838710793022 1.6853299719182866 -1.8752875882788214 -1.570796333744759 1.2518855480622577 12741.519999999897
2.8065259312513966 -1.3808098357566156 1.6852946296589382 -1.8752811209518985 -1.5707963316153948 1.2357296044313903 12741.569999999896
2.7938588532255273 -1.3807871962657094 1.6852669195377157 -1.875276050240056 -1.5707963299458652 1.223062526414116 12741.619999999895
2.7843978674608927 -1.380770286927917 1.6852462229680818 -1.875272262947323 -1.5707963286989008 1.213601540655902 12741.669999999895
2.7777932908512466 -1.3807584827650479 1.6852317749937262 -1.8752696190933291 -1.5707963278284132 1.206996964050738 12741.719999999894
2.7736253443601444 -1.3807510335185453 1.685222657318578 -1.8752679506378584 -1.5707963272790748 1.2028290175624634 12741.769999999893
2.7714009668423145 -1.3807470579549241 1.6852177913368152 -1.8752670602054005 -1.5707963269859004 1.2006046400461425 12741.819999999892
2.7705506288650183 -1.3807455381712088 1.6852159311628758 -1.8752667198097035 -1.5707963268738252 1.1997543020694224 12741.869999999892
2.7704251465293916 -1.3807453139003714 1.6852156566614696 -1.875266669578327 -1.5707963268572867 1.199628819733885 12741.919999999891
2.770425146529396 -1.3807453139003714 1.6852156566614696 -1.875266669578327 -1.5707963268572867 1.1996288197338867 12741.96999999989
2.7704251465977157 -1.3805168806108037 1.6856099205870532 -1.875889366793515 -1.5707963268612652 1.1996288198022016 12742.01999999989
2.770425147020249 -1.37910410338271 1.6880483002863422 -1.8797405237211244 -1.5707963268858711 1.1996288202247054 12742.069999999889
2.770425148008917 -1.3757984003725279 1.693753771008562 -1.888751697454057 -1.5707963269434453 1.1996288212133055 12742.119999999888
2.7704251496424352 -1.3703365840383621 1.7031805807034248 -1.903640323483962 -1.5707963270385719 1.1996288228467105 12742.169999999887
2.770425151890528 -1.3628198803578648 1.7161540186210413 -1.9241304650832824 -1.5707963271694878 1.1996288250946479 12742.219999999887
2.770425154638152 -1.3536329480461127 1.732010183911832 -1.9491735626872997 -1.5707963273294936 1.199628827842082 12742.269999999886
2.770425157709715 -1.3433628977734864 1.749735754226439 -1.977169183276181 -1.5707963275083634 1.1996288309134322 12742.319999999885
2.7704251608932937 -1.3327183113835483 1.7681077543156363 -2.0061857697570247 -1.5707963276937567 1.199628834096791 12742.369999999884
2.7704251639648567 -1.322448261110922 1.7858333246302431 -2.034181390345906 -1.5707963278726265 1.1996288371681414 12742.419999999884
2.7704251667124806 -1.3132613287991701 1.8016894899210338 -2.0592244879499235 -1.5707963280326322 1.1996288399155755 12742.469999999883
2.7704251689605734 -1.3057446251186726 1.8146629278386504 -2.0797146295492435 -1.5707963281635482 1.1996288421635128 12742.519999999882
2.7704251705940917 -1.3002828087845069 1.8240897375335132 -2.094603255579149 -1.5707963282586748 1.1996288437969178 12742.569999999881
2.77042517158276 -1.2969771057743245 1.8297952082557332 -2.1036144293120818 -1.570796328316249 1.199628844785518 12742.61999999988
2.770425172005293 -1.2955643285462308 1.832233587955022 -2.107465586239691 -1.5707963283408548 1.1996288452080217 12742.66999999988
2.7704251720736126 -1.2953358952566634 1.8326278518806056 -2.1080882834548786 -1.5707963283448334 1.1996288452763366 12742.71999999988
2.7704251720736126 -1.2953358952566634 1.8326278518806056 -2.1080882834548786 -1.5707963283448334 1.1996288452763366 12742.769999999879
2.7704251720736126 -1.2953358952566634 1.8326278518806056 -2.1080882834548786 -1.5707963283448334 1.1996288452763366 12742.819999999878
2.7704251720736126 -1.2953358952566634 1.8326278518806056 -2.1080882834548786 -1.5707963283448334 1.1996288452763366 12742.869999999877
2.7704251720736126 -1.2953358952566634 1.8326278518806056 -2.1080882834548786 -1.5707963283448334 1.1996288452763366 12742.919999999876
2.7704251720736126 -1.2953358952566634 1.8326278518806056 -2.1080882834548786 -1.5707963283448334 1.1996288452763366 12742.969999999876
2.7704251720736126 -1.2953358952566634 1.8326278518806056 -2.1080882834548786 -1.5707963283448334 1.1996288452763366 12743.019999999875
2.770425172005293 -1.295564328546231 1.832233587955022 -2.107465586239691 -1.5707963283408548 1.1996288452080217 12743.069999999874
2.77042517158276 -1.2969771057743247 1.829795208255733 -2.1036144293120813 -1.570796328316249 1.199628844785518 12743.119999999873
2.7704251705940917 -1.3002828087845069 1.8240897375335132 -2.0946032555791487 -1.5707963282586748 1.1996288437969178 12743.169999999873
2.7704251689605734 -1.3057446251186726 1.8146629278386504 -2.0797146295492435 -1.5707963281635482 1.1996288421635128 12743.219999999872
2.7704251667124806 -1.31326132879917 1.8016894899210338 -2.0592244879499235 -1.5707963280326322 1.1996288399155755 12743.269999999871
2.7704251639648567 -1.322448261110922 1.7858333246302431 -2.034181390345906 -1.5707963278726265 1.1996288371681414 12743.31999999987
2.7704251608932937 -1.3327183113835483 1.7681077543156363 -2.0061857697570247 -1.5707963276937567 1.199628834096791 12743.36999999987
2.770425157709715 -1.3433628977734864 1.749735754226439 -1.977169183276181 -1.5707963275083634 1.1996288309134322 12743.41999999987
2.770425154638152 -1.3536329480461127 1.732010183911832 -1.9491735626872997 -1.5707963273294936 1.199628827842082 12743.469999999868
2.770425151890528 -1.3628198803578646 1.7161540186210413 -1.9241304650832824 -1.5707963271694878 1.1996288250946479 12743.519999999868
2.7704251496424352 -1.3703365840383621 1.7031805807034248 -1.9036403234839623 -1.5707963270385719 1.1996288228467105 12743.569999999867
2.770425148008917 -1.3757984003725279 1.693753771008562 -1.8887516974540568 -1.5707963269434453 1.1996288212133055 12743.619999999866
2.770425147020249 -1.3791041033827103 1.688048300286342 -1.879740523721124 -1.5707963268858711 1.1996288202247054 12743.669999999865
2.7704251465977157 -1.380516880610804 1.6856099205870532 -1.8758893667935146 -1.5707963268612652 1.1996288198022016 12743.719999999865
2.770425146529396 -1.3807453139003714 1.6852156566614696 -1.8752666695783269 -1.5707963268572867 1.1996288197338867 12743.769999999864
2.770425146529396 -1.3807453139003714 1.6852156566614696 -1.8752666695783269 -1.5707963268572867 1.1996288197338867 12743.819999999863
2.770425146529396 -1.3807453139003714 1.6852156566614696 -1.8752666695783269 -1.5707963268572867 1.1996288197338867 12743.869999999863
2.770425146529396 -1.3807453139003714 1.6852156566614696 -1.8752666695783269 -1.5707963268572867 1.1996288197338867 12743.919999999862
2.770425146529396 -1.3807453139003714 1.6852156566614696 -1.8752666695783269 -1.5707963268572867 1.1996288197338867 12743.969999999861
2.770425146529396 -1.3807453139003714 1.6852156566614696 -1.8752666695783269 -1.5707963268572867 1.1996288197338867 12744.01999999986
2.770425146529396 -1.3807453139003714 1.6852156566614696 -1.8752666695783269 -1.5707963268572867 1.1996288197338867 12744.06999999986
2.770425146529396 -1.3807453139003714 1.6852156566614696 -1.8752666695783269 -1.5707963268572867 1.1996288197338867 12744.119999999859
2.770425146529396 -1.3807453139003714 1.6852156566614696 -1.8752666695783269 -1.5707963268572867 1.1996288197338867 12744.169999999858
2.770425146529396 -1.3807453139003714 1.6852156566614696 -1.8752666695783269 -1.5707963268572867 1.1996288197338867 12744.219999999857
2.770425146529396 -1.3807453139003714 1.6852156566614696 -1.8752666695783269 -1.5707963268572867 1.1996288197338867 12744.269999999857
2.770425146529396 -1.3807453139003714 1.6852156566614696 -1.8752666695783269 -1.5707963268572867 1.1996288197338867 12744.319999999856
2.770425146529396 -1.3807453139003714 1.6852156566614696 -1.8752666695783269 -1.5707963268572867 1.1996288197338867 12744.369999999855
2.770425146529396 -1.3807453139003714 1.6852156566614696 -1.8752666695783269 -1.5707963268572867 1.1996288197338867 12744.419999999855
2.770425146529396 -1.3807453139003714 1.6852156566614696 -1.8752666695783269 -1.5707963268572867 1.1996288197338867 12744.469999999854
2.770425146529396 -1.3807453139003714 1.6852156566614696 -1.8752666695783269 -1.5707963268572867 1.1996288197338867 12744.519999999853
2.770425146529396 -1.3807453139003714 1.6852156566614696 -1.8752666695783269 -1.5707963268572867 1.1996288197338867 12744.569999999852
2.770425146529396 -1.3807453139003714 1.6852156566614696 -1.8752666695783269 -1.5707963268572867 1.1996288197338867 12744.619999999852
2.770425146529396 -1.3807453139003714 1.6852156566614696 -1.8752666695783269 -1.5707963268572867 1.1996288197338867 12744.669999999851
2.770425146529396 -1.3807453139003714 1.6852156566614696 -1.8752666695783269 -1.5707963268572867 1.1996288197338867 12744.71999999985
2.770425146529396 -1.3807453139003714 1.6852156566614696 -1.8752666695783269 -1.5707963268572867 1.1996288197338867 12744.76999999985
2.770425146529396 -1.3807453139003714 1.6852156566614696 -1.8752666695783269 -1.5707963268572867 1.1996288197338867 12744.819999999849
2.770425146529396 -1.3807453139003714 1.6852156566614696 -1.8752666695783269 -1.5707963268572867 1.1996288197338867 12744.869999999848
2.770425146529396 -1.3807453139003714 1.6852156566614696 -1.8752666695783269 -1.5707963268572867 1.1996288197338867 12744.919999999847
2.770425146529396 -1.3807453139003714 1.6852156566614696 -1.8752666695783269 -1.5707963268572867 1.1996288197338867 12744.969999999847
2.770425146529396 -1.3807453139003714 1.6852156566614696 -1.8752666695783269 -1.5707963268572867 1.1996288197338867 12745.019999999846
2.770425146529396 -1.3807453139003714 1.6852156566614696 -1.8752666695783269 -1.5707963268572867 1.1996288197338867 12745.069999999845
2.770425146529396 -1.3807453139003714 1.6852156566614696 -1.8752666695783269 -1.5707963268572867 1.1996288197338867 12745.119999999844
2.770425146529396 -1.3807453139003714 1.6852156566614696 -1.8752666695783269 -1.5707963268572867 1.1996288197338867 12745.169999999844
2.770425146529396 -1.3807453139003714 1.6852156566614696 -1.8752666695783269 -1.5707963268572867 1.1996288197338867 12745.219999999843
2.770425146529396 -1.3807453139003714 1.6852156566614696 -1.8752666695783269 -1.5707963268572867 1.1996288197338867 12745.269999999842
2.770425146529396 -1.3807453139003714 1.6852156566614696 -1.8752666695783269 -1.5707963268572867 1.1996288197338867 12745.319999999841
2.770425146529396 -1.3807453139003714 1.6852156566614696 -1.8752666695783269 -1.5707963268572867 1.1996288197338867 12745.36999999984
2.770425146529396 -1.3807453139003714 1.6852156566614696 -1.875266669578327 -1.5707963268572867 1.1996288197338867 12745.41999999984
2.7705500340705385 -1.3807361272500616 1.6852036173260683 -1.8752638168932572 -1.570796326857248 1.199753707275034 12745.46999999984
2.7713963413901808 -1.380673873406892 1.6851220321048328 -1.8752444855153376 -1.5707963268569864 1.2006000145947093 12745.519999999839
2.773610175213023 -1.3805110251596744 1.6849086153967132 -1.8751939170548184 -1.5707963268563019 1.2028138484176383 12745.569999999838
2.777758365365029 -1.3802058868568765 1.6845087240056973 -1.8750991639673176 -1.5707963268550194 1.2069620385698068 12745.619999999837
2.784331635849376 -1.379722361144234 1.683875051444607 -1.8749490171200065 -1.570796326852987 1.2135353090544116 12745.669999999836
2.7937477759224048 -1.3790297157023652 1.6829673222388992 -1.8747339333577957 -1.5707963268500758 1.2229514491278088 12745.719999999836
2.806354811169566 -1.3781023499843852 1.6817519862304624 -1.8744459630695187 -1.5707963268461778 1.2355584843754643 12745.769999999835
2.8224341745813746 -1.3769195619535188 1.680201912881416 -1.8740786777541192 -1.5707963268412064 1.2516378477879029 12745.819999999834
2.8422038776293546 -1.375465314820715 1.6782960855779094 -1.8736270975868348 -1.570796326835094 1.2714075508366571 12745.869999999833
2.865821681341991 -1.3737280037822603 1.6760192959339189 -1.8730876189853827 -1.5707963268277918 1.2950253545502188 12745.919999999833
2.893388267380679 -1.3717002227573931 1.6733618380950481 -1.8724579421761458 -1.5707963268192688 1.3225919405899869 12745.969999999832
2.9249504091156724 -1.369378531125917 1.6703192030423255 -1.8717369987603567 -1.5707963268095102 1.354154082326217 12746.019999999831
2.9605041427020353 -1.3667632204658147 1.6668917728960024 -1.8709248792802837 -1.5707963267985177 1.3897078159139729 12746.06999999983
2.999997938155589 -1.3638580812908616 1.6630845152193534 -1.8700227607854165 -1.570796326786307 1.4292016113690735 12746.11999999983
3.043335870428862 -1.3606701697882406 1.6589066773224725 -1.8690328343986502 -1.5707963267729077 1.4725395436440447 12746.169999999829
3.090380790487041 -1.3572095745561548 1.6543714805660732 -1.8679582328824715 -1.5707963267583622 1.519584463704067 12746.219999999828
3.140957496383919 -1.3534891833414413 1.6494958146652872 -1.8668029582051442 -1.570796326742725 1.5701611696029265 12746.269999999828
3.194855904337845 -1.3495244497771859 1.6442999319934613 -1.8655718091068936 -1.5707963267260605 1.6240595775589644 12746.319999999827
3.251834219807674 -1.345333160120336 1.6388071418859578 -1.8642703086660923 -1.570796326708444 1.6810378930310255 12746.369999999826
3.3116221085687143 -1.3409351999893149 1.6330435049439522 -1.8629046318654456 -1.5707963266899585 1.7408257817944084 12746.419999999825
3.3739238677886805 -1.3363523211016357 1.6270375273382314 -1.8614815331581767 -1.5707963266706961 1.8031275410168153 12746.469999999825
3.4384215971036403 -1.3316079080115149 1.6208198551129926 -1.8600082740342112 -1.5707963266507545 1.8676252703343021 12746.519999999824
3.5047783696939647 -1.3267267448474855 1.614422968489642 -1.858492550586364 -1.5707963266302383 1.9339820429272265 12746.569999999823
3.572641403360277 -1.3217347820500125 1.6078808761705936 -1.8569424210765229 -1.5707963266092562 2.0018450765961973 12746.619999999823
3.641645231599404 -1.3166589031091047 1.6012288096430662 -1.8553662335018348 -1.5707963265879215 2.070848904838028 12746.669999999822
3.7114148746803233 -1.3115266913019301 1.5945029174828838 -1.853772553160891 -1.57079632656635 2.1406185479216804 12746.719999999821
3.781569010720113 -1.3063661964304292 1.5877399596582733 -1.8521700902199119 -1.5707963265446598 2.210772683964219 12746.76999999982
3.8517231467599027 -1.3012057015589285 1.5809770018336629 -1.8505676272789326 -1.5707963265229694 2.2809268200067567 12746.81999999982
3.921492789840822 -1.2960734897517538 1.5742511096734804 -1.8489739469379889 -1.570796326501398 2.3506964630904097 12746.869999999819
3.9904966180799493 -1.290997610810846 1.567599043145953 -1.8473977593633009 -1.5707963264800633 2.4197002913322407 12746.919999999818
4.058359651746262 -1.286005648013373 1.5610569508269045 -1.8458476298534596 -1.5707963264590812 2.487563325001212 12746.969999999817
4.124716424336586 -1.2811244848493437 1.5546600642035542 -1.8443319064056125 -1.570796326438565 2.5539200975941356 12747.019999999817
4.1892141536515455 -1.2763800717592229 1.5484423919783152 -1.842858647281647 -1.5707963264186233 2.6184178269116223 12747.069999999816
4.251515912871511 -1.2717971928715437 1.5424364143725944 -1.841435548574378 -1.570796326399361 2.680719586134029 12747.119999999815
4.311303801632553 -1.2673992327405226 1.5366727774305888 -1.8400698717737314 -1.5707963263808755 2.7405074748974125 12747.169999999815
4.368282117102381 -1.2632079430836727 1.5311799873230854 -1.8387683713329301 -1.570796326363259 2.797485790369473 12747.219999999814
4.422180525056307 -1.2592432095194173 1.5259841046512597 -1.8375372222346795 -1.5707963263465945 2.851384198325511 12747.269999999813
4.472757230953186 -1.2555228183047036 1.5211084387504732 -1.8363819475573522 -1.5707963263309572 2.901960904224371 12747.319999999812
4.5198021510113655 -1.2520622230726177 1.516573241994074 -1.8353073460411735 -1.5707963263164118 2.949005824284394 12747.369999999812
4.5631400832846385 -1.2488743115699967 1.5123954040971932 -1.8343174196544072 -1.5707963263030125 2.9923437565593654 12747.41999999981
4.60263387873819 -1.2459691723950441 1.5085881464205442 -1.83341530115954 -1.5707963262908018 3.0318375520144634 12747.46999999981
4.638187612324554 -1.2433538617349416 1.505160716274221 -1.832603181679467 -1.5707963262798093 3.067391285602221 12747.51999999981
4.669749754059548 -1.2410321701034652 1.5021180812214985 -1.831882238263678 -1.5707963262700506 3.0989534273384503 12747.569999999809
4.697316340098236 -1.239004389078598 1.4994606233826278 -1.831252561454441 -1.5707963262615277 3.1265200133782196 12747.619999999808
4.720934143810872 -1.2372670780401436 1.4971838337386374 -1.8307130828529892 -1.5707963262542255 3.150137817091781 12747.669999999807
4.740703846858853 -1.2358128309073395 1.4952780064351303 -1.8302615026857045 -1.570796326248113 3.169907520140538 12747.719999999807
4.756783210270661 -1.2346300428764732 1.493727933086084 -1.829894217370305 -1.5707963262431417 3.1859868835529745 12747.769999999806
4.76939024551782 -1.2337026771584934 1.4925125970776476 -1.8296062470820282 -1.5707963262392437 3.1985939188006265 12747.819999999805
4.778806385590851 -1.2330100317166244 1.4916048678719394 -1.8293911633198172 -1.5707963262363325 3.2080100588740263 12747.869999999804
4.785379656075199 -1.2325265060039818 1.4909711953108493 -1.8292410164725061 -1.5707963262343 3.2145833293586312 12747.919999999804
4.789527846227203 -1.232221367701184 1.4905713039198336 -1.8291462633850053 -1.5707963262330176 3.218731519510798 12747.969999999803
4.791741680050048 -1.2320585194539664 1.4903578872117138 -1.829095694924486 -1.570796326232333 3.2209453533337284 12748.019999999802
4.792587987369691 -1.2319962656107966 1.4902763019904783 -1.8290763635465666 -1.5707963262320714 3.2217916606534054 12748.069999999801
4.792712874910832 -1.231987078960487 1.490264262655077 -1.8290735108614966 -1.5707963262320328 3.2219165481945513 12748.1199999998
4.79271287491083 -1.2319870789604872 1.490264262655077 -1.8290735108614966 -1.5707963262320328 3.2219165481945513 12748.1699999998
4.7927128719062475 -1.2317461406862398 1.4907370861393292 -1.8297872726497604 -1.5707963264051383 3.221916545187215 12748.2199999998
4.792712853502325 -1.2302703251521823 1.493633264611206 -1.83415926683801 -1.5707963274654595 3.221916526766426 12748.269999999799
4.792712810972769 -1.2268598685777556 1.500326032563695 -1.8442624917862367 -1.5707963299157517 3.2219164841978922 12748.319999999798
4.792712741751023 -1.2213089580863246 1.5112192824947333 -1.8607066528944387 -1.570796333903884 3.221916414912706 12748.369999999797
4.79271264819832 -1.2138069415243935 1.525941433306219 -1.8829308211946179 -1.5707963392938167 3.2219163212742634 12748.419999999796
4.792712536371734 -1.2048395372808212 1.543539298703019 -1.90949609194278 -1.5707963457365788 3.2219162093451894 12748.469999999796
4.792712414792231 -1.1950900441060357 1.5626719555919815 -1.9383782432109329 -1.5707963527412439 3.2219160876542614 12748.519999999795
4.792712293212728 -1.1853405509312505 1.581804612480944 -1.9672603944790856 -1.5707963597459087 3.2219159659633334 12748.569999999794
4.7927121813861415 -1.1763731466876781 1.599402477877744 -1.9938256652272477 -1.5707963661886708 3.2219158540342594 12748.619999999793
4.792712087833438 -1.168871130125747 1.6141246286892297 -2.016049833527427 -1.5707963715786035 3.2219157603958166 12748.669999999793
4.7927120186116925 -1.163320219634316 1.625017878620268 -2.0324939946356286 -1.5707963755667358 3.2219156911106306 12748.719999999792
4.792711976082137 -1.1599097630598894 1.6317106465727569 -2.0425972195838558 -1.570796378017028 3.221915648542097 12748.769999999791
4.792711957678214 -1.1584339475258318 1.6346068250446337 -2.0469692137721047 -1.5707963790773491 3.2219156301213077 12748.81999999979
4.792711954673631 -1.1581930092515844 1.6350796485288859 -2.0476829755603685 -1.5707963792504547 3.2219156271139715 12748.86999999979
4.792711954673631 -1.1581930092515844 1.6350796485288859 -2.0476829755603685 -1.5707963792504547 3.2219156271139715 12748.919999999789
4.792711954673631 -1.1581930092515844 1.6350796485288859 -2.0476829755603685 -1.5707963792504547 3.2219156271139715 12748.969999999788
4.792711954673631 -1.1581930092515844 1.6350796485288859 -2.0476829755603685 -1.5707963792504547 3.2219156271139715 12749.019999999788
4.792711954673631 -1.1581930092515844 1.6350796485288859 -2.0476829755603685 -1.5707963792504547 3.2219156271139715 12749.069999999787
4.792711954673631 -1.1581930092515844 1.6350796485288859 -2.0476829755603685 -1.5707963792504547 3.2219156271139715 12749.119999999786
4.792711954673631 -1.1581930092515844 1.6350796485288859 -2.0476829755603685 -1.5707963792504547 3.2219156271139715 12749.169999999785
4.792711954673631 -1.1581930092515844 1.6350796485288859 -2.0476829755603685 -1.5707963792504547 3.2219156271139715 12749.219999999785
4.792711954673631 -1.1581930092515844 1.6350796485288859 -2.0476829755603685 -1.5707963792504547 3.2219156271139715 12749.269999999784
4.792711954673631 -1.1581930092515844 1.6350796485288859 -2.0476829755603685 -1.5707963792504547 3.2219156271139715 12749.319999999783
4.792711954673631 -1.1581930092515844 1.6350796485288859 -2.0476829755603685 -1.5707963792504547 3.2219156271139715 12749.369999999783
4.792711954673631 -1.1581930092515844 1.6350796485288859 -2.0476829755603685 -1.5707963792504547 3.2219156271139715 12749.419999999782
4.792711954673631 -1.1581930092515844 1.6350796485288859 -2.0476829755603685 -1.5707963792504547 3.2219156271139715 12749.469999999781
4.792711954673631 -1.1581930092515844 1.6350796485288859 -2.0476829755603685 -1.5707963792504547 3.2219156271139715 12749.51999999978
4.792711954673631 -1.1581930092515844 1.6350796485288859 -2.047682975560369 -1.5707963792504547 3.2219156271139715 12749.56999999978
4.792711957678214 -1.1584339475258318 1.6346068250446337 -2.046969213772105 -1.5707963790773491 3.2219156301213077 12749.619999999779
4.792711976082137 -1.1599097630598894 1.6317106465727569 -2.0425972195838558 -1.570796378017028 3.221915648542097 12749.669999999778
4.7927120186116925 -1.1633202196343162 1.625017878620268 -2.0324939946356286 -1.5707963755667358 3.2219156911106306 12749.719999999777
4.792712087833438 -1.168871130125747 1.6141246286892297 -2.016049833527427 -1.5707963715786035 3.2219157603958166 12749.769999999777
4.7927121813861415 -1.1763731466876781 1.599402477877744 -1.9938256652272477 -1.5707963661886708 3.2219158540342594 12749.819999999776
4.792712293212728 -1.1853405509312505 1.581804612480944 -1.9672603944790856 -1.5707963597459087 3.2219159659633334 12749.869999999775
4.792712414792231 -1.1950900441060357 1.5626719555919815 -1.9383782432109329 -1.5707963527412439 3.2219160876542614 12749.919999999775
4.792712536371734 -1.2048395372808212 1.543539298703019 -1.90949609194278 -1.5707963457365788 3.2219162093451894 12749.969999999774
4.79271264819832 -1.2138069415243935 1.525941433306219 -1.8829308211946179 -1.5707963392938167 3.2219163212742634 12750.019999999773
4.792712741751023 -1.2213089580863246 1.5112192824947333 -1.8607066528944387 -1.570796333903884 3.221916414912706 12750.069999999772
4.792712810972769 -1.2268598685777556 1.500326032563695 -1.8442624917862367 -1.5707963299157517 3.2219164841978922 12750.119999999772
4.792712853502325 -1.2302703251521823 1.493633264611206 -1.83415926683801 -1.5707963274654595 3.221916526766426 12750.16999999977
4.7927128719062475 -1.2317461406862398 1.4907370861393292 -1.8297872726497606 -1.5707963264051383 3.221916545187215 12750.21999999977
4.79271287491083 -1.2319870789604872 1.490264262655077 -1.8290735108614968 -1.5707963262320328 3.2219165481945513 12750.26999999977
4.79271287491083 -1.2319870789604872 1.490264262655077 -1.8290735108614966 -1.5707963262320328 3.2219165481945513 12750.319999999769
4.792580992446904 -1.2319966844521877 1.4902769043163377 -1.8290765470370545 -1.5707963262268931 3.2217846657310107 12750.369999999768
4.791688423419183 -1.232061693583294 1.4903624619785507 -1.8290970956087524 -1.5707963261921085 3.220892096705893 12750.419999999767
4.789357027053365 -1.23223149787551 1.4905859391736536 -1.8291507686176642 -1.570796326101251 3.218560700346878 12750.469999999767
4.784995426032725 -1.232549169544342 1.4910040226778318 -1.8292511806513634 -1.5707963259312734 3.2141990993389644 12750.519999999766
4.778095391354046 -1.2330517248035235 1.4916654290430091 -1.8294100320711524 -1.5707963256623698 3.2072990646804183 12750.569999999765
4.768228227183552 -1.2337703871694408 1.4926112511283358 -1.8296371922392913 -1.570796325277833 3.1974319005387146 12750.619999999764
4.755041155712844 -1.2347308507655563 1.493875304631679 -1.8299407827462277 -1.5707963247639152 3.1842448291064844 12750.669999999764
4.738253702014836 -1.2359535436268356 1.4954844746211127 -1.8303272606378256 -1.5707963241096854 3.1674573754574595 12750.719999999763
4.717654078899686 -1.2374538910041706 1.4974590620664068 -1.8308015016425945 -1.5707963233068902 3.1468577524024166 12750.769999999762
4.693095571770735 -1.239242578668805 1.4998131303705171 -1.8313668833989185 -1.570796322349812 3.1222992453451224 12750.819999999761
4.664492923480435 -1.2413258162167593 1.5025548519010752 -1.832025368682286 -1.5707963212351284 3.0936965971382797 12750.86999999976
4.631818719186289 -1.2437056003732558 1.5056868545218778 -1.8327775886325184 -1.5707963199617705 3.061022392939471 12750.91999999976
4.595099771206783 -1.246379978297143 1.5092065681243765 -1.8336229259809989 -1.5707963185307834 3.0243034450671047 12750.96999999976
4.554413503877322 -1.249343310885321 1.5131065711591674 -1.8345595982779026 -1.5707963169451846 2.9836171778563587 12751.019999999759
4.509884338406162 -1.2525865360771662 1.5173749371674807 -1.8355847411194255 -1.570796315209823 2.939088012515127 12751.069999999758
4.461680077730347 -1.2560974321589562 1.5219955813126713 -1.836694491375013 -1.570796313331238 2.8908837519799637 12751.119999999757
4.410008291371641 -1.259860881068295 1.5269486069117066 -1.8378840704145893 -1.5707963113175187 2.839211965772027 12751.169999999756
4.355112700292466 -1.263859131698537 1.532210651966658 -1.8391478673357877 -1.5707963091781634 2.784316374853027 12751.219999999756
4.29726956175183 -1.268072063203213 1.5377552356961899 -1.8404795221911778 -1.5707963069239383 2.726473236481167 12751.269999999755
4.236784054161269 -1.2724774483004546 1.5435531050670486 -1.8418720092154968 -1.5707963045667364 2.665987729067093 12751.319999999754
4.173986661940779 -1.2770512165774188 1.5495725813255534 -1.8433177200528768 -1.5707963021194373 2.6031903370298335 12751.369999999753
4.109229560374744 -1.2817677177947135 1.5557799065290852 -1.844808546984075 -1.5707962995957656 2.538433235652749 12751.419999999753
4.0428830004678815 -1.286599985190822 1.5621395900775765 -1.8463359661537029 -1.5707962970101506 2.4720866759394737 12751.469999999752
3.975331693801169 -1.291519998786528 1.5686147552450016 -1.8478911207974553 -1.570796294377585 2.4045353694698637 12751.519999999751
3.9069711973877794 -1.2964989486893403 1.575167485710865 -1.8494649044693392 -1.5707962917134843 2.3361748732559384 12751.56999999975
3.8382042985290195 -1.3015074983979185 1.5817591720916928 -1.8510480442689037 -1.5707962890335454 2.2674079745978277 12751.61999999975
3.7694373996702595 -1.3065160481064966 1.5883508584725206 -1.8526311840684682 -1.5707962863536065 2.1986410759397175 12751.669999999749
3.7010769032568698 -1.311494998009309 1.594903588938384 -1.854204967740352 -1.5707962836895057 2.1302805797257918 12751.719999999748
3.6335255965901574 -1.3164150116050148 1.601378754105809 -1.8557601223841045 -1.5707962810569402 2.0627292732561817 12751.769999999748
3.5671790366832945 -1.3212472790011234 1.6077384376543005 -1.8572875415537324 -1.5707962784713252 1.9963827135429069 12751.819999999747
3.502421935117261 -1.325963780218418 1.6139457628578322 -1.8587783684849306 -1.5707962759476535 1.9316256121658228 12751.869999999746
3.4396245428967696 -1.3305375484953823 1.619965239116337 -1.8602240793223106 -1.5707962735003544 1.8688282201285629 12751.919999999745
3.379139035306209 -1.334942933592624 1.6257631084871957 -1.8616165663466295 -1.5707962711431525 1.8083427127144893 12751.969999999745
3.321295896765573 -1.3391558650973001 1.6313076922167276 -1.8629482212020196 -1.5707962688889274 1.7504995743426286 12752.019999999744
3.266400305686397 -1.343154115727542 1.636569737271679 -1.864212018123218 -1.570796266749572 1.6956039834236283 12752.069999999743
3.2147285193276915 -1.3469175646368807 1.6415227628707143 -1.8654015971627944 -1.5707962647358529 1.6439321972156917 12752.119999999743
3.1665242586518776 -1.3504284607186707 1.646143407015905 -1.8665113474183819 -1.5707962628572678 1.5957279366805288 12752.169999999742
3.1219950931807157 -1.353671685910516 1.6504117730242185 -1.8675364902599048 -1.5707962611219062 1.5511987713392967 12752.219999999741
3.0813088258512558 -1.356635018498694 1.6543117760590094 -1.8684731625568085 -1.5707962595363074 1.510512504128551 12752.26999999974
3.0445898778717515 -1.359309396422581 1.6578314896615078 -1.869318499905289 -1.5707962581053203 1.4737935562561864 12752.31999999974
3.011915673577605 -1.3616891805790774 1.6609634922823104 -1.870070719855521 -1.5707962568319624 1.4411193520573773 12752.369999999739
2.983313025287304 -1.3637724181270319 1.6637052138128685 -1.8707292051388886 -1.5707962557172788 1.4125167038505337 12752.419999999738
2.9587545181583517 -1.3655611057916661 1.666059282116979 -1.8712945868952129 -1.5707962547602006 1.3879581967932393 12752.469999999737
2.9381548950432035 -1.367061453169001 1.6680338695622727 -1.8717688278999818 -1.5707962539574054 1.3673585737381972 12752.519999999737
2.921367441345197 -1.3682841460302804 1.6696430395517063 -1.8721553057915796 -1.5707962533031756 1.350571120089174 12752.569999999736
2.908180369874487 -1.3692446096263962 1.6709070930550498 -1.872458896298516 -1.5707962527892578 1.3373840486569422 12752.619999999735
2.8983132057039915 -1.3699632719923134 1.6718529151403765 -1.872686056466655 -1.570796252404721 1.3275168845152374 12752.669999999735
2.891413171025315 -1.370465827251495 1.6725143215055536 -1.8728449078864438 -1.5707962521358174 1.3206168498566946 12752.719999999734
2.8870515700046724 -1.3707834989203271 1.6729324050097323 -1.8729453199201431 -1.5707962519658398 1.3162552488487769 12752.769999999733
2.884720173638856 -1.370953303212543 1.673155882204835 -1.872998992929055 -1.5707962518749823 1.3139238524897627 12752.819999999732
2.883827604611133 -1.371018312343649 1.6732414398670479 -1.873019541500753 -1.5707962518401977 1.313031283464647 12752.869999999732
2.883695722147209 -1.3710279178353497 1.6732540815283086 -1.8730225776763108 -1.570796251835058 1.312899401001106 12752.91999999973
2.883695722147209 -1.3710279178353497 1.6732540815283086 -1.8730225776763108 -1.570796251835058 1.3128994010011041 12752.96999999973
2.883695727867589 -1.3708014081473126 1.6736474373732717 -1.8736424429761573 -1.5707962520356238 1.312899406706375 12753.01999999973
2.883695763246072 -1.3694005276985515 1.676080200922549 -1.8774760855322241 -1.5707962532760502 1.3128994419914117 12753.069999999729
2.88369584602682 -1.3661226615040178 1.6817725306317133 -1.8864462780619082 -1.5707962561784765 1.3128995245535093 12753.119999999728
2.8836959828005235 -1.3607068382835505 1.6911776282128341 -1.9012671932888139 -1.5707962609739827 1.3128996609659496 12753.169999999727
2.8836961710323017 -1.3532534316064424 1.7041211853151157 -1.9216641493961704 -1.570796267573692 1.3128998487005468 12753.219999999726
2.8836964010896087 -1.3441438610360055 1.7199408302055326 -1.946593355480248 -1.5707962756398712 1.312900078150198 12753.269999999726
2.883696658270137 -1.3339602932741372 1.7376255744494675 -1.974461657003775 -1.5707962846570347 1.3129003346514299 12753.319999999725
2.883696924829723 -1.3234053433058863 1.7559552595913481 -2.0033462812493545 -1.5707962940030427 1.3129006005069466 12753.369999999724
2.8836971820102515 -1.313221775544018 1.773640003835283 -2.0312145827728814 -1.5707963030202061 1.3129008570081784 12753.419999999724
2.8836974120675585 -1.3041122049735812 1.7894596487257 -2.056143788856959 -1.5707963110863854 1.3129010864578297 12753.469999999723
2.8836976002993366 -1.296658798296473 1.8024032058279813 -2.0765407449643156 -1.5707963176860946 1.3129012741924269 12753.519999999722
2.88369773707304 -1.2912429750760057 1.8118083034091024 -2.0913616601912213 -1.5707963224816008 1.312901410604867 12753.569999999721
2.883697819853788 -1.2879651088814719 1.8175006331182666 -2.1003318527209056 -1.5707963253840271 1.3129014931669647 12753.61999999972
2.883697855232271 -1.2865642284327108 1.819933396667544 -2.1041654952769724 -1.5707963266244536 1.3129015284520014 12753.66999999972
2.883697860952651 -1.2863377187446738 1.820326752512507 -2.1047853605768188 -1.5707963268250194 1.3129015341572723 12753.71999999972
2.883697860952651 -1.2863377187446738 1.820326752512507 -2.1047853605768188 -1.5707963268250194 1.3129015341572723 12753.769999999718
2.883697860952651 -1.2863377187446738 1.820326752512507 -2.1047853605768188 -1.5707963268250194 1.3129015341572723 12753.819999999718
2.883697860952651 -1.2863377187446738 1.820326752512507 -2.1047853605768188 -1.5707963268250194 1.3129015341572723 12753.869999999717
2.883697860952651 -1.2863377187446738 1.820326752512507 -2.1047853605768188 -1.5707963268250194 1.3129015341572723 12753.919999999716
2.883697860952651 -1.2863377187446738 1.820326752512507 -2.1047853605768188 -1.5707963268250194 1.3129015341572723 12753.969999999716
2.883697860952651 -1.2863377187446738 1.820326752512507 -2.1047853605768188 -1.5707963268250194 1.3129015341572723 12754.019999999715
2.883697855232271 -1.286564228432711 1.819933396667544 -2.1041654952769724 -1.5707963266244536 1.3129015284520014 12754.069999999714
2.883697819853788 -1.287965108881472 1.8175006331182666 -2.100331852720905 -1.5707963253840271 1.3129014931669647 12754.119999999713
2.88369773707304 -1.2912429750760057 1.8118083034091024 -2.0913616601912213 -1.5707963224816008 1.312901410604867 12754.169999999713
2.8836976002993366 -1.296658798296473 1.8024032058279815 -2.0765407449643156 -1.5707963176860946 1.3129012741924269 12754.219999999712
2.8836974120675585 -1.3041122049735812 1.7894596487257 -2.056143788856959 -1.5707963110863854 1.3129010864578297 12754.269999999711
2.8836971820102515 -1.313221775544018 1.773640003835283 -2.0312145827728814 -1.5707963030202061 1.3129008570081784 12754.31999999971
2.883696924829723 -1.3234053433058863 1.7559552595913481 -2.0033462812493545 -1.5707962940030427 1.3129006005069466 12754.36999999971
2.883696658270137 -1.3339602932741372 1.7376255744494675 -1.974461657003775 -1.5707962846570347 1.3129003346514299 12754.419999999709
2.8836964010896087 -1.3441438610360055 1.7199408302055326 -1.9465933554802481 -1.5707962756398712 1.312900078150198 12754.469999999708
2.8836961710323017 -1.3532534316064424 1.7041211853151157 -1.9216641493961706 -1.570796267573692 1.3128998487005468 12754.519999999708
2.8836959828005235 -1.3607068382835505 1.6911776282128343 -1.901267193288814 -1.5707962609739827 1.3128996609659496 12754.569999999707
2.88369584602682 -1.3661226615040178 1.6817725306317133 -1.886446278061908 -1.5707962561784765 1.3128995245535093 12754.619999999706
2.883695763246072 -1.3694005276985517 1.676080200922549 -1.8774760855322241 -1.5707962532760502 1.3128994419914117 12754.669999999705
2.883695727867589 -1.3708014081473126 1.6736474373732717 -1.8736424429761573 -1.5707962520356238 1.312899406706375 12754.719999999705
2.883695722147209 -1.3710279178353497 1.6732540815283086 -1.873022577676311 -1.570796251835058 1.3128994010011041 12754.769999999704
2.883695722147209 -1.3710279178353497 1.6732540815283086 -1.873022577676311 -1.570796251835058 1.3128994010011041 12754.819999999703
2.883695722147209 -1.3710279178353497 1.6732540815283086 -1.873022577676311 -1.570796251835058 1.3128994010011041 12754.869999999702
2.883695722147209 -1.3710279178353497 1.6732540815283086 -1.873022577676311 -1.570796251835058 1.3128994010011041 12754.919999999702
2.883695722147209 -1.3710279178353497 1.6732540815283086 -1.873022577676311 -1.570796251835058 1.3128994010011041 12754.969999999701
2.883695722147209 -1.3710279178353497 1.6732540815283086 -1.873022577676311 -1.570796251835058 1.3128994010011041 12755.0199999997
2.883695722147209 -1.3710279178353497 1.6732540815283086 -1.873022577676311 -1.570796251835058 1.3128994010011041 12755.0699999997
2.883695722147209 -1.3710279178353497 1.6732540815283086 -1.873022577676311 -1.570796251835058 1.3128994010011041 12755.119999999699
2.883695722147209 -1.3710279178353497 1.6732540815283086 -1.873022577676311 -1.570796251835058 1.3128994010011041 12755.169999999698
2.883695722147209 -1.3710279178353497 1.6732540815283086 -1.873022577676311 -1.570796251835058 1.3128994010011041 12755.219999999697
2.883695722147209 -1.3710279178353497 1.6732540815283086 -1.873022577676311 -1.570796251835058 1.3128994010011041 12755.269999999697
2.883695722147209 -1.3710279178353497 1.6732540815283086 -1.873022577676311 -1.570796251835058 1.3128994010011041 12755.319999999696
2.883695722147209 -1.3710279178353497 1.6732540815283086 -1.873022577676311 -1.570796251835058 1.3128994010011041 12755.369999999695
2.883695722147209 -1.3710279178353497 1.6732540815283086 -1.873022577676311 -1.570796251835058 1.3128994010011041 12755.419999999694
2.883695722147209 -1.3710279178353497 1.6732540815283086 -1.873022577676311 -1.570796251835058 1.3128994010011041 12755.469999999694
2.883695722147209 -1.3710279178353497 1.6732540815283086 -1.873022577676311 -1.570796251835058 1.3128994010011041 12755.519999999693
2.883695722147209 -1.3710279178353497 1.6732540815283086 -1.873022577676311 -1.570796251835058 1.3128994010011041 12755.569999999692
2.883695722147209 -1.3710279178353497 1.6732540815283086 -1.873022577676311 -1.570796251835058 1.3128994010011041 12755.619999999692
2.883695722147209 -1.3710279178353497 1.6732540815283086 -1.873022577676311 -1.570796251835058 1.3128994010011041 12755.66999999969
2.883695722147209 -1.3710279178353497 1.6732540815283086 -1.873022577676311 -1.570796251835058 1.3128994010011041 12755.71999999969
2.883695722147209 -1.3710279178353497 1.6732540815283086 -1.873022577676311 -1.570796251835058 1.3128994010011041 12755.76999999969
2.883695722147209 -1.3710279178353497 1.6732540815283086 -1.873022577676311 -1.570796251835058 1.3128994010011041 12755.819999999689
2.883695722147209 -1.3710279178353497 1.6732540815283086 -1.873022577676311 -1.570796251835058 1.3128994010011041 12755.869999999688
2.883695722147209 -1.3710279178353497 1.6732540815283086 -1.873022577676311 -1.570796251835058 1.3128994010011041 12755.919999999687
2.883695722147209 -1.3710279178353497 1.6732540815283086 -1.873022577676311 -1.570796251835058 1.3128994010011041 12755.969999999686
2.883695722147209 -1.3710279178353497 1.6732540815283086 -1.873022577676311 -1.570796251835058 1.3128994010011041 12756.019999999686
2.883695722147209 -1.3710279178353497 1.6732540815283086 -1.873022577676311 -1.570796251835058 1.3128994010011041 12756.069999999685
2.883695722147209 -1.3710279178353497 1.6732540815283086 -1.873022577676311 -1.570796251835058 1.3128994010011041 12756.119999999684
2.883695722147209 -1.3710279178353497 1.6732540815283086 -1.873022577676311 -1.570796251835058 1.3128994010011041 12756.169999999684
2.883695722147209 -1.3710279178353497 1.6732540815283086 -1.873022577676311 -1.570796251835058 1.3128994010011041 12756.219999999683
2.883695722147209 -1.3710279178353497 1.6732540815283086 -1.873022577676311 -1.570796251835058 1.3128994010011041 12756.269999999682
2.883695722147209 -1.3710279178353497 1.6732540815283086 -1.873022577676311 -1.570796251835058 1.3128994010011041 12756.319999999681
2.883695722147209 -1.3710279178353497 1.6732540815283086 -1.873022577676311 -1.570796251835058 1.3128994010011041 12756.36999999968
2.883695722147209 -1.3710279178353497 1.6732540815283086 -1.8730225776763108 -1.570796251835058 1.3128994010011041 12756.41999999968
2.8838588108762226 -1.371045567504979 1.6732741936208189 -1.8730250400899466 -1.5707962518430025 1.313062489729519 12756.46999999968
2.8849566551364756 -1.3711643776067872 1.6734095797106958 -1.8730416160157808 -1.5707962518964815 1.3141603339857413 12756.519999999678
2.887806322713895 -1.3714727722555096 1.6737610005494463 -1.8730846420442673 -1.5707962520352965 1.3170100015526982 12756.569999999678
2.893101946424782 -1.3720458713871506 1.6744140565553234 -1.8731645986183054 -1.5707962522932604 1.3223056252441423 12756.619999999677
2.901420720943598 -1.3729461397433125 1.675439927341777 -1.8732902005770231 -1.5707962526984902 1.3306243997324168 12756.669999999676
2.913228899630754 -1.374224035855523 1.6768961112459062 -1.8734684876995606 -1.5707962532736983 1.3424325783762194 12756.719999999676
2.9288877913603932 -1.3759186610295642 1.678827164856909 -1.8737049152488523 -1.570796254036485 1.3580914700483677 12756.769999999675
2.94865975734818 -1.3780584083298006 1.6812654425445357 -1.874003444515411 -1.5707962549996306 1.3778634359635629 12756.819999999674
2.9727142079790867 -1.3806616115635078 1.6842318359875392 -1.8743666333611106 -1.5707962561713875 1.401917886506155 12756.869999999673
3.001133599635179 -1.3837371942652001 1.6877365137021265 -1.8747957267629696 -1.5707962575557723 1.4303372780579071 12756.919999999673
3.033919431523404 -1.3872853186809597 1.6917796605704107 -1.8752907473569334 -1.5707962591528584 1.4631231098257607 12756.969999999672
3.070998242503376 -1.3912980347527646 1.6963522173688617 -1.8758505859816588 -1.5707962609590669 1.5002019206695991 12757.019999999671
3.1122276079151616 -1.3957599291028169 1.7014366202967577 -1.8764730922222959 -1.5707962629674599 1.5414312859300134 12757.06999999967
3.15740213640707 -1.400648774017871 1.7070075405046379 -1.8771551649542717 -1.5707962651680325 1.5866058142560655 12757.11999999967
3.2062594667634357 -1.4059361764335625 1.7130326236227515 -1.8778928428870736 -1.5707962675480043 1.6354631444330545 12757.169999999669
3.258486264732409 -1.411588226918736 1.719473229289512 -1.8786813951080323 -1.5707962700921119 1.6876899422102793 12757.219999999668
3.313724219853738 -1.4175661486597735 1.7262851706799465 -1.8795154116261044 -1.570796272782901 1.7429278971288054 12757.269999999668
3.3715760422865606 -1.4238269464449234 1.7334194540341474 -1.8803888939156561 -1.5707962756010188 1.8007797193492279 12757.319999999667
3.431611459637186 -1.430324055648627 1.740823018185725 -1.881295345460247 -1.5707962785255052 1.8608151364794359 12757.369999999666
3.4933732137868843 -1.4370079912158498 1.7484394740902576 -1.8822278622964117 -1.5707962815340861 1.9225768904023794 12757.419999999665
3.556383057719673 -1.4438269966464066 1.756209844353744 -1.8831792235574443 -1.5707962846034649 1.9855867341038307 12757.469999999665
3.6201477523501024 -1.4507276929792923 1.7640733027610538 -1.8841419820171805 -1.5707962877096144 2.049351428500151 12757.519999999664
3.684165063351043 -1.4576557277770092 1.7719679138043802 -1.885108554633782 -1.5707962908280695 2.1133687392660554 12757.569999999663
3.7479297579814723 -1.464556424109895 1.77983137221169 -1.8860713130935183 -1.570796293934219 2.1771334336623758 12757.619999999662
3.8109396019142614 -1.4713754295404518 1.7876017424751764 -1.8870226743545508 -1.5707962970035978 2.2401432773638277 12757.669999999662
3.87270135606396 -1.4780593651076745 1.795218198379709 -1.8879551911907155 -1.5707963000121787 2.3019050312867706 12757.719999999661
3.932736773414584 -1.4845564743113782 1.8026217625312866 -1.8888616427353064 -1.5707963029366652 2.361940448416978 12757.76999999966
3.9905885958474068 -1.4908172720965278 1.8097560458854876 -1.8897351250248584 -1.570796305754783 2.419792270637401 12757.81999999966
4.045826550968736 -1.4967951938375654 1.816567987275922 -1.8905691415429302 -1.570796308445572 2.475030225555927 12757.869999999659
4.098053348937709 -1.502447244322739 1.8230085929426825 -1.891357693763889 -1.5707963109896796 2.527257023333152 12757.919999999658
4.146910679294075 -1.5077346467384305 1.8290336760607961 -1.8920953716966908 -1.5707963133696514 2.5761143535101407 12757.969999999657
4.1920852077859845 -1.5126234916534846 1.8346045962686763 -1.8927774444286667 -1.570796315570224 2.6212888818361932 12758.019999999657
4.23331457319777 -1.517085386003537 1.8396889991965726 -1.8933999506693038 -1.570796317578617 2.662518247096607 12758.069999999656
4.270393384177741 -1.5210981020753418 1.8442615559950233 -1.8939597892940292 -1.5707963193848256 2.699597057940446 12758.119999999655
4.303179216065967 -1.5246462264911014 1.8483047028633075 -1.894454809887993 -1.5707963209819116 2.7323828897083002 12758.169999999654
4.33159860772206 -1.5277218091927938 1.8518093805778948 -1.894883903289852 -1.5707963223662964 2.7608022812600526 12758.219999999654
4.355653058352965 -1.5303250124265009 1.8547757740208983 -1.8952470921355515 -1.5707963235380533 2.7848567318026434 12758.269999999653
4.375425024340752 -1.5324647597267373 1.857214051708525 -1.8955456214021102 -1.5707963245011989 2.8046286977178383 12758.319999999652
4.391083916070393 -1.5341593849007786 1.859145105319528 -1.895782048951402 -1.5707963252639856 2.8202875893899875 12758.369999999652
4.402892094757549 -1.5354372810129893 1.8606012892236572 -1.8959603360739394 -1.5707963258391937 2.832095768033791 12758.41999999965
4.4112108692763625 -1.536337549369151 1.8616271600101109 -1.8960859380326571 -1.5707963262444236 2.8404145425220637 12758.46999999965
4.41650649298725 -1.536910648500792 1.862280216015988 -1.8961658946066953 -1.5707963265023874 2.8457101662135083 12758.51999999965
4.4193561605646705 -1.537219043149514 1.8626316368547382 -1.8962089206351818 -1.5707963266412024 2.8485598337804645 12758.569999999649
4.420454004824922 -1.5373378532513222 1.862767022944615 -1.896225496561016 -1.5707963266946814 2.849657678036687 12758.619999999648
4.420617093553936 -1.5373555029209518 1.8627871350371255 -1.8962279589746518 -1.570796326702626 2.8498207667651023 12758.669999999647
4.420617093553936 -1.5373555029209518 1.8627871350371255 -1.8962279589746518 -1.570796326702626 2.8498207667651023 12758.719999999646
4.420617093508544 -1.5370986896781664 1.8632025402836998 -1.8969001774701757 -1.5707963266981555 2.849820766720002 12758.769999999646
4.420617093227808 -1.5355103927098617 1.8657716714024684 -1.9010576055953725 -1.5707963266705074 2.8498207664410713 12758.819999999645
4.420617092570923 -1.5317939978212822 1.8717830823340607 -1.910785411504748 -1.5707963266058145 2.849820765788412 12758.869999999644
4.4206170914855925 -1.5256536197400903 1.881715378827853 -1.926858086227118 -1.5707963264989264 2.849820764710062 12758.919999999644
4.42061708999193 -1.5172030604941085 1.8953844817494696 -1.9489777485975532 -1.5707963263518239 2.8498207632260075 12758.969999999643
4.420617088166373 -1.5068747677890606 1.9120908903882836 -1.9760124501893226 -1.570796326172035 2.849820761412192 12759.019999999642
4.420617086125587 -1.4953287933863155 1.9307669457649166 -2.0062344802458356 -1.5707963259710493 2.849820759384532 12759.069999999641
4.420617084010376 -1.4833617514806283 1.950124093938739 -2.037558670612587 -1.570796325762734 2.849820757282926 12759.11999999964
4.420617081969589 -1.4718157770778832 1.968800149315372 -2.0677807006691 -1.5707963255617483 2.8498207552552657 12759.16999999964
4.420617080144032 -1.4614874843728354 1.985506557954186 -2.094815402260869 -1.5707963253819595 2.8498207534414504 12759.21999999964
4.42061707865037 -1.4530369251268536 1.9991756608758027 -2.1169350646313045 -1.570796325234857 2.8498207519573957 12759.269999999638
4.420617077565039 -1.4468965470456616 2.0091079573695954 -2.133007739353675 -1.5707963251279689 2.849820750879046 12759.319999999638
4.4206170769081545 -1.4431801521570822 2.015119368301187 -2.1427355452630503 -1.570796325063276 2.8498207502263866 12759.369999999637
4.420617076627418 -1.4415918551887774 2.0176884994199558 -2.146892973388247 -1.5707963250356278 2.849820749947456 12759.419999999636
4.420617076582026 -1.441335041945992 2.01810390466653 -2.147565191883771 -1.5707963250311574 2.8498207499023556 12759.469999999636
4.420617076582026 -1.441335041945992 2.01810390466653 -2.147565191883771 -1.5707963250311574 2.8498207499023556 12759.519999999635
4.420617076582026 -1.441335041945992 2.01810390466653 -2.147565191883771 -1.5707963250311574 2.8498207499023556 12759.569999999634
4.420617076582026 -1.441335041945992 2.01810390466653 -2.147565191883771 -1.5707963250311574 2.8498207499023556 12759.619999999633
4.420617076582026 -1.441335041945992 2.01810390466653 -2.147565191883771 -1.5707963250311574 2.8498207499023556 12759.669999999633
4.420617076582026 -1.441335041945992 2.01810390466653 -2.147565191883771 -1.5707963250311574 2.8498207499023556 12759.719999999632
4.420617076582026 -1.441335041945992 2.01810390466653 -2.147565191883771 -1.5707963250311574 2.8498207499023556 12759.769999999631
4.420617076582026 -1.441335041945992 2.01810390466653 -2.147565191883771 -1.5707963250311574 2.8498207499023556 12759.81999999963
4.420617076582026 -1.441335041945992 2.01810390466653 -2.147565191883771 -1.5707963250311574 2.8498207499023556 12759.86999999963
4.420617076582026 -1.441335041945992 2.01810390466653 -2.147565191883771 -1.5707963250311574 2.8498207499023556 12759.919999999629
4.420617076582026 -1.441335041945992 2.01810390466653 -2.147565191883771 -1.5707963250311574 2.8498207499023556 12759.969999999628
4.420617076582026 -1.441335041945992 2.01810390466653 -2.147565191883771 -1.5707963250311574 2.8498207499023556 12760.019999999628
4.420617076582026 -1.441335041945992 2.01810390466653 -2.147565191883771 -1.5707963250311574 2.8498207499023556 12760.069999999627
4.420617076582026 -1.441335041945992 2.01810390466653 -2.147565191883771 -1.5707963250311574 2.8498207499023556 12760.119999999626
4.420617076582026 -1.441335041945992 2.01810390466653 -2.147565191883771 -1.5707963250311574 2.8498207499023556 12760.169999999625
4.420617076627418 -1.4415918551887774 2.0176884994199558 -2.146892973388247 -1.5707963250356278 2.849820749947456 12760.219999999625
4.4206170769081545 -1.4431801521570822 2.015119368301187 -2.14273554526305 -1.570796325063276 2.8498207502263866 12760.269999999624
4.420617077565039 -1.4468965470456616 2.009107957369595 -2.133007739353675 -1.5707963251279689 2.849820750879046 12760.319999999623
4.42061707865037 -1.4530369251268536 1.9991756608758027 -2.1169350646313045 -1.570796325234857 2.8498207519573957 12760.369999999622
4.420617080144032 -1.4614874843728354 1.985506557954186 -2.094815402260869 -1.5707963253819595 2.8498207534414504 12760.419999999622
4.420617081969589 -1.4718157770778832 1.968800149315372 -2.0677807006691 -1.5707963255617483 2.8498207552552657 12760.469999999621
4.420617084010376 -1.4833617514806283 1.950124093938739 -2.037558670612587 -1.570796325762734 2.849820757282926 12760.51999999962
4.420617086125587 -1.4953287933863155 1.9307669457649166 -2.0062344802458356 -1.5707963259710493 2.849820759384532 12760.56999999962
4.420617088166373 -1.5068747677890606 1.9120908903882836 -1.9760124501893226 -1.570796326172035 2.849820761412192 12760.619999999619
4.42061708999193 -1.5172030604941085 1.8953844817494696 -1.9489777485975535 -1.5707963263518239 2.8498207632260075 12760.669999999618
4.4206170914855925 -1.5256536197400903 1.881715378827853 -1.926858086227118 -1.5707963264989264 2.849820764710062 12760.719999999617
4.420617092570923 -1.5317939978212822 1.8717830823340604 -1.9107854115047478 -1.5707963266058145 2.849820765788412 12760.769999999617
4.420617093227808 -1.5355103927098617 1.8657716714024681 -1.9010576055953723 -1.5707963266705074 2.8498207664410713 12760.819999999616
4.420617093508544 -1.5370986896781664 1.8632025402836996 -1.8969001774701757 -1.5707963266981555 2.849820766720002 12760.869999999615
4.420617093553936 -1.5373555029209518 1.8627871350371255 -1.8962279589746518 -1.570796326702626 2.8498207667651023 12760.919999999614
4.420617093553936 -1.5373555029209518 1.8627871350371255 -1.8962279589746518 -1.570796326702626 2.8498207667651023 12760.969999999614
4.42043197175839 -1.5373301928070717 1.862757875774113 -1.896224009825388 -1.5707963267028424 2.849635644969585 12761.019999999613
4.41918938413497 -1.5371603044686302 1.8625614796772492 -1.8961975020660833 -1.570796326704296 2.848393057346361 12761.069999999612
4.415974818569572 -1.5367208045151266 1.8620534043365184 -1.896128926676573 -1.570796326708056 2.845178491781468 12761.119999999612
4.410022591472013 -1.5359070076024806 1.861112630303706 -1.8960019495521798 -1.5707963267150187 2.839226264684845 12761.16999999961
4.4007080146958275 -1.5346335054832194 1.8596404230417778 -1.895803244402898 -1.5707963267259142 2.8299116879101236 12761.21999999961
4.387539562458059 -1.5328330960566672 1.8575590948742582 -1.895522325652579 -1.5707963267413176 2.816743235674425 12761.26999999961
4.370151038259055 -1.5304557124191336 1.85481076693461 -1.895151381338116 -1.5707963267616574 2.799354711478155 12761.319999999609
4.348293741802261 -1.5274673519141009 1.8513561311156126 -1.8946851060086292 -1.5707963267872245 2.777497415024797 12761.369999999608
4.321828635914012 -1.523849005182414 1.847173212018741 -1.8941205336246503 -1.5707963268181815 2.751032309140708 12761.419999999607
4.290718513463327 -1.519595585212468 1.842256128903545 -1.8934568704573076 -1.5707963268545717 2.7199221866949133 12761.469999999606
4.255020164281702 -1.5147148563903967 1.836613857637028 -1.8926953279875105 -1.570796326896329 2.6842238375189003 12761.519999999606
4.214876542082906 -1.5092263635502612 1.830268992643025 -1.8918389558051347 -1.570796326943286 2.644080215326415 12761.569999999605
4.170508931382772 -1.5031603610242383 1.8232565088515826 -1.8908924745082079 -1.5707963269951841 2.5997126046332557 12761.619999999604
4.1222091144189905 -1.496556741692809 1.8156225236483379 -1.8898621086020924 -1.5707963270516816 2.551412787677067 12761.669999999604
4.070331538070905 -1.4894639660349462 1.8074230588238964 -1.8887554193986726 -1.5707963271123642 2.499535211337136 12761.719999999603
4.015285480779301 -1.4819379911783048 1.7987228025232118 -1.8875811379155385 -1.570796327176753 2.4444891540541867 12761.769999999602
3.9575272194662086 -1.4740411999494083 1.7895938711949642 -1.8863489977751702 -1.5707963272443144 2.3867308927501734 12761.819999999601
3.897552196454685 -1.4658413299238384 1.7801145715409397 -1.885069568104124 -1.570796327314469 2.3267558697480784 12761.8699999996
3.835887186388616 -1.4574104024764232 1.7703681624654082 -1.8837540864322166 -1.5707963273866001 2.2650908596917034 12761.9199999996
3.7730824631525057 -1.4488236518314246 1.7604416170245036 -1.8824142915917097 -1.5707963274600645 2.2022861364654656 12761.9699999996
3.7097039667912712 -1.440158454112729 1.7504243843756022 -1.8810622566164956 -1.5707963275341998 2.1389076401141947 12762.019999999598
3.646325470430037 -1.4314932563940332 1.7404071517267008 -1.8797102216412813 -1.5707963276083354 2.0755291437629237 12762.069999999598
3.5835207471939263 -1.4229065057490349 1.7304806062857963 -1.8783704268007746 -1.5707963276817998 2.0127244205366863 12762.119999999597
3.5218557371278574 -1.4144755783016194 1.7207341972102648 -1.877054945128867 -1.570796327753931 1.951059410480311 12762.169999999596
3.461880714116334 -1.4062757082760495 1.7112548975562403 -1.8757755154578208 -1.5707963278240855 1.8910843874782162 12762.219999999596
3.4041224528032408 -1.398378917047153 1.7021259662279926 -1.8745433753174527 -1.5707963278916468 1.8333261261742024 12762.269999999595
3.3490763955116387 -1.3908529421905116 1.693425709927308 -1.8733690938343184 -1.5707963279560357 1.778280068891253 12762.319999999594
3.2971988191635524 -1.383760166532649 1.6852262451028666 -1.8722624046308987 -1.5707963280167183 1.7264024925513224 12762.369999999593
3.2488990021997703 -1.3771565472012197 1.6775922598996218 -1.8712320387247832 -1.5707963280732158 1.6781026755951336 12762.419999999593
3.2045313914996356 -1.3710905446751966 1.6705797761081795 -1.8702855574278563 -1.5707963281251138 1.6337350649019737 12762.469999999592
3.1643877693008395 -1.3656020518350611 1.6642349111141765 -1.8694291852454805 -1.570796328172071 1.5935914427094884 12762.519999999591
3.1286894201192155 -1.36072132301299 1.6585926398476594 -1.8686676427756834 -1.5707963282138282 1.5578930935334765 12762.56999999959
3.0975792976685295 -1.356467903043044 1.6536755567324635 -1.8680039796083407 -1.5707963282502184 1.5267829710876808 12762.61999999959
3.071114191780281 -1.352849556311357 1.649492637635592 -1.8674394072243619 -1.5707963282811754 1.500317865203592 12762.669999999589
3.0492568953234866 -1.3498611958063245 1.6460380018165943 -1.866973131894875 -1.5707963283067425 1.478460568750234 12762.719999999588
3.0318683711244825 -1.3474838121687907 1.6432896738769462 -1.866602187580412 -1.5707963283270823 1.4610720445539631 12762.769999999588
3.018699918886714 -1.3456834027422386 1.6412083457094266 -1.866321268830093 -1.5707963283424857 1.4479035923182657 12762.819999999587
3.009385342110529 -1.3444099006229777 1.6397361384474989 -1.8661225636808112 -1.5707963283533812 1.4385890155435455 12762.869999999586
3.0034331150129683 -1.3435961037103312 1.6387953644146862 -1.865995586556418 -1.5707963283603439 1.4326367884469204 12762.919999999585
3.000218549447572 -1.3431566037568279 1.6382872890739553 -1.8659270111669077 -1.570796328364104 1.4294222228820284 12762.969999999585
2.99897596182415 -1.3429867154183863 1.6380908929770914 -1.865900503407603 -1.5707963283655575 1.4281796352588032 12763.019999999584
2.9987908400286045 -1.3429614053045063 1.638061633714079 -1.8658965542583392 -1.570796328365774 1.427994513463286 12763.069999999583
2.9987908400286063 -1.342961405304506 1.638061633714079 -1.8658965542583392 -1.570796328365774 1.427994513463287 12763.119999999582
2.9987908375813794 -1.3427405478580317 1.6384527923103132 -1.8665085704197473 -1.570796328244215 1.427994511023567 12763.169999999582
2.998790822446168 -1.3413746244778415 1.640871966671366 -1.870293668895103 -1.570796327492416 1.4279944959347812 12763.219999999581
2.998790787031869 -1.338178552981371 1.6465324995625137 -1.8791502750004434 -1.5707963257333106 1.4279944606291126 12763.26999999958
2.998790728518931 -1.3328978742722388 1.6558850611537157 -1.8937835181388678 -1.5707963228268453 1.4279944022956577 12763.31999999958
2.998790647991797 -1.3256304572336688 1.6687563167642183 -1.9139221946937996 -1.570796318826887 1.4279943220155333 12763.369999999579
2.998790549571351 -1.3167482036219098 1.6844875946071576 -1.9385357309222473 -1.570796313938129 1.427994223896983 12763.419999999578
2.998790439547363 -1.306818752959659 1.7020735535341616 -1.9660511458480658 -1.5707963084729977 1.4279941142104835 12763.469999999577
2.9987903255109356 -1.296527187429481 1.7203008507799544 -1.994570014155218 -1.5707963028085596 1.4279940005238523 12763.519999999577
2.9987902154869475 -1.2865977367672303 1.7378868097069584 -2.0220854290810366 -1.5707962973434284 1.4279938908373528 12763.569999999576
2.9987901170665014 -1.2777154831554713 1.7536180875498977 -2.046698965309484 -1.5707962924546703 1.4279937927188024 12763.619999999575
2.9987900365393676 -1.2704480661169013 1.7664893431604003 -2.066837641864416 -1.570796288454712 1.4279937124386781 12763.669999999574
2.9987899780264295 -1.2651673874077691 1.7758419047516023 -2.0814708850028403 -1.5707962855482467 1.4279936541052232 12763.719999999574
2.9987899426121305 -1.2619713159112986 1.78150243764275 -2.090327491108181 -1.5707962837891414 1.4279936187995546 12763.769999999573
2.998789927476919 -1.2606053925311085 1.7839216120038028 -2.094112589583536 -1.5707962830373423 1.4279936037107688 12763.819999999572
2.9987899250296923 -1.260384535084634 1.784312770600037 -2.0947246057449442 -1.5707962829157833 1.4279936012710488 12763.869999999572
2.9987899250296923 -1.260384535084634 1.784312770600037 -2.0947246057449442 -1.5707962829157833 1.4279936012710488 12763.91999999957
2.9987899250296923 -1.260384535084634 1.784312770600037 -2.0947246057449442 -1.5707962829157833 1.4279936012710488 12763.96999999957
2.9987899250296923 -1.260384535084634 1.784312770600037 -2.0947246057449442 -1.5707962829157833 1.4279936012710488 12764.01999999957
2.9987899250296923 -1.260384535084634 1.784312770600037 -2.0947246057449442 -1.5707962829157833 1.4279936012710488 12764.069999999569
2.9987899250296923 -1.260384535084634 1.784312770600037 -2.0947246057449442 -1.5707962829157833 1.4279936012710488 12764.119999999568
2.9987899250296923 -1.260384535084634 1.784312770600037 -2.0947246057449447 -1.5707962829157833 1.4279936012710488 12764.169999999567
2.998789927476919 -1.2606053925311085 1.7839216120038028 -2.0941125895835366 -1.5707962830373423 1.4279936037107688 12764.219999999566
2.9987899426121305 -1.2619713159112986 1.78150243764275 -2.0903274911081806 -1.5707962837891414 1.4279936187995546 12764.269999999566
2.9987899780264295 -1.2651673874077691 1.7758419047516023 -2.0814708850028403 -1.5707962855482467 1.4279936541052232 12764.319999999565
2.9987900365393676 -1.2704480661169013 1.7664893431604003 -2.066837641864416 -1.570796288454712 1.4279937124386781 12764.369999999564
2.9987901170665014 -1.2777154831554713 1.7536180875498977 -2.0466989653094845 -1.5707962924546703 1.4279937927188024 12764.419999999564
2.9987902154869475 -1.2865977367672303 1.7378868097069584 -2.0220854290810366 -1.5707962973434284 1.4279938908373528 12764.469999999563
2.9987903255109356 -1.296527187429481 1.7203008507799544 -1.994570014155218 -1.5707963028085596 1.4279940005238523 12764.519999999562
2.998790439547363 -1.306818752959659 1.7020735535341616 -1.9660511458480658 -1.5707963084729977 1.4279941142104835 12764.569999999561
2.998790549571351 -1.3167482036219098 1.6844875946071576 -1.9385357309222473 -1.570796313938129 1.427994223896983 12764.61999999956
2.998790647991797 -1.3256304572336686 1.6687563167642183 -1.9139221946937996 -1.570796318826887 1.4279943220155333 12764.66999999956
2.998790728518931 -1.3328978742722388 1.6558850611537157 -1.893783518138868 -1.5707963228268453 1.4279944022956577 12764.71999999956
2.998790787031869 -1.338178552981371 1.6465324995625137 -1.8791502750004434 -1.5707963257333106 1.4279944606291126 12764.769999999558
2.998790822446168 -1.3413746244778415 1.640871966671366 -1.8702936688951028 -1.570796327492416 1.4279944959347812 12764.819999999558
2.9987908375813794 -1.3427405478580317 1.6384527923103132 -1.8665085704197475 -1.570796328244215 1.427994511023567 12764.869999999557
2.9987908400286063 -1.342961405304506 1.638061633714079 -1.8658965542583394 -1.570796328365774 1.427994513463287 12764.919999999556
2.9987908400286063 -1.342961405304506 1.638061633714079 -1.8658965542583394 -1.570796328365774 1.427994513463287 12764.969999999556
2.9987908400286063 -1.342961405304506 1.638061633714079 -1.8658965542583394 -1.570796328365774 1.427994513463287 12765.019999999555
2.9987908400286063 -1.342961405304506 1.638061633714079 -1.8658965542583394 -1.570796328365774 1.427994513463287 12765.069999999554
2.9987908400286063 -1.342961405304506 1.638061633714079 -1.8658965542583394 -1.570796328365774 1.427994513463287 12765.119999999553
2.9987908400286063 -1.342961405304506 1.638061633714079 -1.8658965542583394 -1.570796328365774 1.427994513463287 12765.169999999553
2.9987908400286063 -1.342961405304506 1.638061633714079 -1.8658965542583394 -1.570796328365774 1.427994513463287 12765.219999999552
2.9987908400286063 -1.342961405304506 1.638061633714079 -1.8658965542583394 -1.570796328365774 1.427994513463287 12765.269999999551
2.9987908400286063 -1.342961405304506 1.638061633714079 -1.8658965542583394 -1.570796328365774 1.427994513463287 12765.31999999955
2.9987908400286063 -1.342961405304506 1.638061633714079 -1.8658965542583394 -1.570796328365774 1.427994513463287 12765.36999999955
2.9987908400286063 -1.342961405304506 1.638061633714079 -1.8658965542583394 -1.570796328365774 1.427994513463287 12765.419999999549
2.9987908400286063 -1.342961405304506 1.638061633714079 -1.8658965542583394 -1.570796328365774 1.427994513463287 12765.469999999548
2.9987908400286063 -1.342961405304506 1.638061633714079 -1.8658965542583394 -1.570796328365774 1.427994513463287 12765.519999999548
2.9987908400286063 -1.342961405304506 1.638061633714079 -1.8658965542583394 -1.570796328365774 1.427994513463287 12765.569999999547
2.9987908400286063 -1.342961405304506 1.638061633714079 -1.8658965542583394 -1.570796328365774 1.427994513463287 12765.619999999546
2.9987908400286063 -1.342961405304506 1.638061633714079 -1.8658965542583394 -1.570796328365774 1.427994513463287 12765.669999999545
2.9987908400286063 -1.342961405304506 1.638061633714079 -1.8658965542583394 -1.570796328365774 1.427994513463287 12765.719999999545
2.9987908400286063 -1.342961405304506 1.638061633714079 -1.8658965542583394 -1.570796328365774 1.427994513463287 12765.769999999544
2.9987908400286063 -1.342961405304506 1.638061633714079 -1.8658965542583394 -1.570796328365774 1.427994513463287 12765.819999999543
2.9987908400286063 -1.342961405304506 1.638061633714079 -1.8658965542583394 -1.570796328365774 1.427994513463287 12765.869999999542
2.9987908400286063 -1.342961405304506 1.638061633714079 -1.8658965542583394 -1.570796328365774 1.427994513463287 12765.919999999542
2.9987908400286063 -1.342961405304506 1.638061633714079 -1.8658965542583394 -1.570796328365774 1.427994513463287 12765.969999999541
2.9987908400286063 -1.342961405304506 1.638061633714079 -1.8658965542583394 -1.570796328365774 1.427994513463287 12766.01999999954
2.9987908400286063 -1.342961405304506 1.638061633714079 -1.8658965542583394 -1.570796328365774 1.427994513463287 12766.06999999954
2.9987908400286063 -1.342961405304506 1.638061633714079 -1.8658965542583394 -1.570796328365774 1.427994513463287 12766.119999999539
2.9987908400286063 -1.342961405304506 1.638061633714079 -1.8658965542583394 -1.570796328365774 1.427994513463287 12766.169999999538
2.9987908400286063 -1.342961405304506 1.638061633714079 -1.8658965542583394 -1.570796328365774 1.427994513463287 12766.219999999537
2.9987908400286063 -1.342961405304506 1.638061633714079 -1.8658965542583394 -1.570796328365774 1.427994513463287 12766.269999999537
2.9987908400286063 -1.342961405304506 1.638061633714079 -1.8658965542583394 -1.570796328365774 1.427994513463287 12766.319999999536
2.9987908400286063 -1.342961405304506 1.638061633714079 -1.8658965542583394 -1.570796328365774 1.427994513463287 12766.369999999535
2.9987908400286063 -1.342961405304506 1.638061633714079 -1.8658965542583394 -1.570796328365774 1.427994513463287 12766.419999999534
2.9987908400286063 -1.342961405304506 1.638061633714079 -1.8658965542583394 -1.570796328365774 1.427994513463287 12766.469999999534
2.9987908400286063 -1.342961405304506 1.638061633714079 -1.8658965542583394 -1.570796328365774 1.427994513463287 12766.519999999533
2.9987908400286063 -1.342961405304506 1.638061633714079 -1.8658965542583392 -1.570796328365774 1.427994513463287 12766.569999999532
2.9989676459312133 -1.3429642029643736 1.638065148851731 -1.8658972717513087 -1.5707963283666861 1.4281713193658485 12766.619999999532
3.000155606088324 -1.3429830004615542 1.6380887670874102 -1.8659020925918357 -1.5707963283728157 1.429359279522654 12766.66999999953
3.0032324606315295 -1.343031686576366 1.6381499390680678 -1.865914578721938 -1.5707963283886914 1.4324361340650686 12766.71999999953
3.008936889983015 -1.3431219497000997 1.6382633507477724 -1.8659377277678355 -1.5707963284181246 1.4381405634150883 12766.76999999953
3.0178756461227088 -1.3432633906754796 1.638441065166833 -1.865974001979224 -1.5707963284642459 1.4470793195524851 12766.819999999529
3.030530683855432 -1.343463635637129 1.6386926642309214 -1.8660253571685446 -1.570796328529542 1.459734357281956 12766.869999999528
3.0472662920780462 -1.3437284488520318 1.639025390490194 -1.8660932716502567 -1.5707963286158926 1.4764699655002698 12766.919999999527
3.0683362250466044 -1.3440618455599955 1.6394442889184133 -1.8661787751801098 -1.5707963287246072 1.4975398984634132 12766.969999999526
3.093890833643498 -1.3444662048141145 1.6399523486920715 -1.8662824778944143 -1.5707963288564613 1.5230945070537396 12767.019999999526
3.1239841966446065 -1.3449423823212332 1.6405506449695115 -1.8664045992493128 -1.570796329011734 1.553187870047115 12767.069999999525
3.158581251986448 -1.3454898232824084 1.6412384806700495 -1.8665449969600538 -1.5707963291902443 1.5877849253800658 12767.119999999524
3.1975649280333256 -1.346106675233373 1.6420135282530968 -1.866703195940261 -1.5707963293913882 1.6267686014169256 12767.169999999523
3.2407432748444793 -1.3467899008849986 1.6428719714972826 -1.8668784172412058 -1.5707963296141756 1.6699469482169829 12767.219999999523
3.2878565954412315 -1.3475353909637584 1.643808647279575 -1.8670696069910802 -1.570796329857266 1.717060268801628 12767.269999999522
3.3385845770741396 -1.3483380770521902 1.6448171873544049 -1.8672754653342656 -1.570796330119007 1.7677882504215001 12767.319999999521
3.392553422490143 -1.3491920444293597 1.645890160132786 -1.8674944753706075 -1.5707963303974701 1.8217570958236342 12767.36999999952
3.4493429811997114 -1.3500906449113228 1.6470192124614387 -1.867724932094685 -1.570796330690487 1.8785466545186094 12767.41999999952
3.5084938807439974 -1.3510266096915897 1.6481952114019118 -1.8679649713350837 -1.5707963309956878 1.9376975540476944 12767.46999999952
3.5695146579619803 -1.3519921621815867 1.649408386009704 -1.8682125986936664 -1.5707963313105366 1.9987183312499963 12767.519999999518
3.63188889025762 -1.3529791308511196 1.6506484691133867 -1.8684657184848452 -1.5707963316323688 2.061092563529607 12767.569999999518
3.695082326867002 -1.353979062068837 1.6519048390937257 -1.8687221626748536 -1.570796331958428 2.1242860001227495 12767.619999999517
3.75855002012549 -1.3549833329426935 1.6531666616628038 -1.8689797198210167 -1.570796332285902 2.187753693364928 12767.669999999516
3.8217434567348723 -1.3559832641604108 1.6544230316431427 -1.869236164011025 -1.5707963326119612 2.2509471299580706 12767.719999999515
3.884117689030512 -1.3569702328299438 1.6556631147468255 -1.869489283802204 -1.5707963329337933 2.3133213622376814 12767.769999999515
3.945138466248495 -1.3579357853199407 1.6568762893546176 -1.8697369111607867 -1.570796333248642 2.374342139439983 12767.819999999514
4.00428936579278 -1.3588717501002077 1.6580522882950905 -1.8699769504011854 -1.5707963335538428 2.4334930389690674 12767.869999999513
4.06107892450235 -1.3597703505821708 1.6591813406237435 -1.8702074071252628 -1.5707963338468598 2.4902825976640433 12767.919999999513
4.115047769918353 -1.3606243179593402 1.6602543134021246 -1.8704264171616047 -1.5707963341253228 2.5442514430661776 12767.969999999512
4.16577575155126 -1.361427004047772 1.6612628534769545 -1.8706322755047902 -1.570796334387064 2.594979424686049 12768.019999999511
4.212889072148013 -1.3621724941265319 1.6621995292592469 -1.8708234652546645 -1.5707963346301543 2.642092745270695 12768.06999999951
4.256067418959167 -1.3628557197781574 1.6630579725034327 -1.8709986865556094 -1.5707963348529417 2.685271092070753 12768.11999999951
4.295051095006044 -1.363472571729122 1.66383302008648 -1.8711568855358165 -1.5707963350540857 2.7242547681076115 12768.169999999509
4.329648150347886 -1.3640200126902973 1.664520855787018 -1.8712972832465575 -1.570796335232596 2.758851823440563 12768.219999999508
4.359741513348995 -1.364496190197416 1.665119152064458 -1.8714194046014563 -1.5707963353878687 2.7889451864339385 12768.269999999507
4.385296121945887 -1.364900549451535 1.6656272118381161 -1.8715231073157605 -1.5707963355197228 2.814499795024264 12768.319999999507
4.406366054914446 -1.3652339461594987 1.6660461102663355 -1.8716086108456136 -1.5707963356284373 2.835569727987407 12768.369999999506
4.423101663137061 -1.3654987593744015 1.666378836525608 -1.8716765253273258 -1.5707963357147878 2.8523053362057222 12768.419999999505
4.435756700869781 -1.3656990043360508 1.6666304355896964 -1.8717278805166464 -1.570796335780084 2.864960373935191 12768.469999999505
4.444695457009477 -1.3658404453114308 1.666808150008757 -1.8717641547280348 -1.5707963358262054 2.8738991300725902 12768.519999999504
4.450399886360962 -1.3659307084351644 1.6669215616884616 -1.8717873037739323 -1.5707963358556385 2.8796035594226095 12768.569999999503
4.453476740904168 -1.3659793945499763 1.6669827336691192 -1.8717997899040346 -1.5707963358715142 2.8826804139650246 12768.619999999502
4.4546647010612785 -1.365998192047157 1.6670063519047984 -1.8718046107445616 -1.5707963358776438 2.8838683741218274 12768.669999999502
4.454841506963886 -1.3660009897070244 1.6670098670424505 -1.871805328237531 -1.570796335878556 2.8840451800243914 12768.719999999501
4.454841506963886 -1.3660009897070244 1.6670098670424505 -1.871805328237531 -1.570796335878556 2.8840451800243905 12768.7699999995
4.454841496852375 -1.3657755005395669 1.667402839112156 -1.8724237909570693 -1.570796336647581 2.8840451698929104 12768.8199999995
4.45484143431634 -1.3643809316412725 1.6698332291503502 -1.87624875906151 -1.5707963414037223 2.8840451072333737 12768.869999999499
4.454841287990682 -1.3611178336005298 1.6755200051723673 -1.8851986545760087 -1.5707963525324342 2.884044960618737 12768.919999999498
4.454841046225505 -1.3557264109215972 1.684915926726761 -1.8999860342527655 -1.5707963709197423 2.884044718376099 12768.969999999497
4.4548407135015395 -1.348306584948991 1.6978468555256259 -1.920336837802473 -1.5707963962248679 2.8840443849950375 12769.019999999497
4.454840306845552 -1.3392380567918714 1.7136510660749231 -1.9452096361257611 -1.5707964271528496 2.8840439775359465 12769.069999999496
4.45483985224577 -1.329100370248431 1.7313185563048037 -1.9730148795446438 -1.5707964617271686 2.884043522038376 12769.119999999495
4.454839381067291 -1.3185929747302818 1.7496303581999328 -2.0018341460339655 -1.5707964975623705 2.884043049929369 12769.169999999494
4.454838926467509 -1.3084552881868414 1.7672978484298134 -2.029639389452848 -1.5707965321366895 2.884042594431799 12769.219999999494
4.4548385198115215 -1.299386760029722 1.7831020589791107 -2.0545121877761363 -1.5707965630646712 2.884042186972708 12769.269999999493
4.454838187087556 -1.2919669340571156 1.7960329877779755 -2.0748629913258436 -1.5707965883697967 2.8840418535916466 12769.319999999492
4.454837945322379 -1.286575511378183 1.8054289093323692 -2.089650371002601 -1.5707966067571049 2.8840416113490086 12769.369999999491
4.454837798996721 -1.2833124133374403 1.8111156853543866 -2.0986002665170993 -1.5707966178858168 2.8840414647343717 12769.41999999949
4.454837736460686 -1.281917844439146 1.8135460753925805 -2.10242523462154 -1.570796622641958 2.884041402074835 12769.46999999949
4.454837726349175 -1.2816923552716883 1.813939047462286 -2.103043697341078 -1.5707966234109831 2.884041391943355 12769.51999999949
4.454837726349175 -1.2816923552716883 1.813939047462286 -2.103043697341078 -1.5707966234109831 2.884041391943355 12769.569999999489
4.454837726349175 -1.2816923552716883 1.813939047462286 -2.103043697341078 -1.5707966234109831 2.884041391943355 12769.619999999488
4.454837726349175 -1.2816923552716883 1.813939047462286 -2.103043697341078 -1.5707966234109831 2.884041391943355 12769.669999999487
4.454837726349175 -1.2816923552716883 1.813939047462286 -2.103043697341078 -1.5707966234109831 2.884041391943355 12769.719999999486
4.454837726349175 -1.2816923552716883 1.813939047462286 -2.103043697341078 -1.5707966234109831 2.884041391943355 12769.769999999486
4.454837726349175 -1.2816923552716883 1.813939047462286 -2.103043697341078 -1.5707966234109831 2.884041391943355 12769.819999999485
4.454837726349175 -1.2816923552716883 1.813939047462286 -2.103043697341078 -1.5707966234109831 2.884041391943355 12769.869999999484
4.454837726349175 -1.2816923552716883 1.813939047462286 -2.103043697341078 -1.5707966234109831 2.884041391943355 12769.919999999483
4.454837726349175 -1.2816923552716883 1.813939047462286 -2.103043697341078 -1.5707966234109831 2.884041391943355 12769.969999999483
4.454837726349175 -1.2816923552716883 1.813939047462286 -2.103043697341078 -1.5707966234109831 2.884041391943355 12770.019999999482
4.454837726349175 -1.2816923552716883 1.813939047462286 -2.103043697341078 -1.5707966234109831 2.884041391943355 12770.069999999481
4.454837726349175 -1.2816923552716883 1.813939047462286 -2.103043697341078 -1.5707966234109831 2.884041391943355 12770.11999999948
4.454837726349175 -1.2816923552716883 1.813939047462286 -2.103043697341078 -1.5707966234109831 2.884041391943355 12770.16999999948
4.454837726349175 -1.2816923552716883 1.813939047462286 -2.103043697341078 -1.5707966234109831 2.884041391943355 12770.21999999948
4.454837736460686 -1.281917844439146 1.8135460753925805 -2.10242523462154 -1.570796622641958 2.884041402074835 12770.269999999478
4.454837798996721 -1.2833124133374403 1.8111156853543864 -2.0986002665170993 -1.5707966178858168 2.8840414647343717 12770.319999999478
4.454837945322379 -1.286575511378183 1.8054289093323692 -2.089650371002601 -1.5707966067571049 2.8840416113490086 12770.369999999477
4.454838187087556 -1.2919669340571156 1.7960329877779755 -2.0748629913258436 -1.5707965883697967 2.8840418535916466 12770.419999999476
4.4548385198115215 -1.2993867600297218 1.7831020589791107 -2.0545121877761363 -1.5707965630646712 2.884042186972708 12770.469999999475
4.454838926467509 -1.3084552881868414 1.7672978484298134 -2.029639389452848 -1.5707965321366895 2.884042594431799 12770.519999999475
4.454839381067291 -1.3185929747302818 1.7496303581999328 -2.0018341460339655 -1.5707964975623705 2.884043049929369 12770.569999999474
4.45483985224577 -1.329100370248431 1.7313185563048037 -1.9730148795446438 -1.5707964617271686 2.884043522038376 12770.619999999473
4.454840306845552 -1.3392380567918714 1.7136510660749231 -1.9452096361257611 -1.5707964271528496 2.8840439775359465 12770.669999999473
4.4548407135015395 -1.3483065849489908 1.6978468555256259 -1.9203368378024732 -1.5707963962248679 2.8840443849950375 12770.719999999472
4.454841046225505 -1.3557264109215972 1.684915926726761 -1.8999860342527657 -1.5707963709197423 2.884044718376099 12770.769999999471
4.454841287990682 -1.3611178336005298 1.6755200051723673 -1.8851986545760084 -1.5707963525324342 2.884044960618737 12770.81999999947
4.45484143431634 -1.3643809316412725 1.66983322915035 -1.8762487590615098 -1.5707963414037223 2.8840451072333737 12770.86999999947
4.454841496852375 -1.3657755005395669 1.667402839112156 -1.8724237909570691 -1.570796336647581 2.8840451698929104 12770.919999999469
4.454841506963886 -1.3660009897070244 1.6670098670424505 -1.871805328237531 -1.570796335878556 2.8840451800243905 12770.969999999468
4.454841506963886 -1.3660009897070244 1.6670098670424505 -1.871805328237531 -1.570796335878556 2.8840451800243905 12771.019999999467
4.4548052152518345 -1.3659962527709888 1.6670034799511149 -1.8718036780791052 -1.5707963358783288 2.883969334859711 12771.069999999467
4.4545571633709375 -1.3659638760704458 1.6669598245287136 -1.871792399335883 -1.5707963358767765 2.883450937278225 12771.119999999466
4.453901838682296 -1.3658783405319688 1.6668444918975356 -1.8717626021867393 -1.5707963358726758 2.882081390180046 12771.169999999465
4.45266099806536 -1.3657163811671331 1.6666261124961421 -1.8717061820433096 -1.5707963358649106 2.8794881876108724 12771.219999999465
4.450673167352178 -1.3654569217367165 1.666276267983244 -1.8716157967896185 -1.5707963358524712 2.8753338686418237 12771.269999999464
4.447793140761653 -1.365081009414904 1.6657694031415777 -1.8714848440217118 -1.5707963358344486 2.8693149712492816 12771.319999999463
4.443891480333786 -1.3645717494534895 1.6650827377817814 -1.8713074382872847 -1.5707963358100328 2.861160986194724 12771.369999999462
4.438854015363933 -1.3639142398460795 1.6641961786462711 -1.8710783883253135 -1.570796335778509 2.850633310904568 12771.419999999462
4.432581341837054 -1.3630955059922953 1.6630922313131162 -1.870793174305685 -1.5707963357392558 2.8375242033500037 12771.469999999461
4.42498832186196 -1.362104435361977 1.661755912099917 -1.8704479250688266 -1.5707963356917403 2.821655735926835 12771.51999999946
4.416003583105569 -1.3609317121593838 1.660174659967679 -1.8700393953653371 -1.5707963356355155 2.8028787493353167 12771.56999999946
