Andreas691667/Digital_Twin_UR/src/dt/dt_trajectories/e3_dt_trajectory.csv
actual_q_0 actual_q_1 actual_q_2 actual_q_3 actual_q_4 actual_q_5 actual_qd_0 actual_qd_1 actual_qd_2 actual_qd_3 actual_qd_4 actual_qd_5 timestamp
3.71207804710797 -0.8254843255005873 0.8429764792549035 -1.5882884806323445 -1.570796326807946 2.141281720311417 0.0 0.0 0.0 0.0 0.0 0.0 2987.462
3.71207804710797 -0.8254843255005873 0.8429764792549035 -1.5882884806323445 -1.570796326807946 2.141281720311417 0.0 0.0 0.0 0.0 0.0 0.0 2987.512
3.71207804710797 -0.8254843255005873 0.8429764792549035 -1.5882884806323445 -1.570796326807946 2.141281720311417 0.0 0.0 0.0 0.0 0.0 0.0 2987.5620000000004
3.71207804710797 -0.8254843255005873 0.8429764792549035 -1.5882884806323445 -1.570796326807946 2.141281720311417 0.023855026961953952 -0.012228570222165724 0.01852545001703213 -0.006296880079673455 -5.860726155913123e-09 0.023855026931807584 2987.6120000000005
3.71207804710797 -0.8254843255005873 0.8429764792549035 -1.5882884806323445 -1.570796326807946 2.141281720311417 0.0900454242221021 -0.04615910914881168 0.06992790275816863 -0.02376879468441637 -2.212244713872839e-08 0.09004542410830879 2987.6620000000007
3.71207804710797 -0.8254843255005873 0.8429764792549035 -1.5882884806323445 -1.570796326807946 2.141281720311417 0.1908596891870291 -0.0978385442836296 0.14821872295259747 -0.050380180947656755 -4.689059351355471e-08 0.19085968894583358 2987.712000000001
3.71207804710797 -0.8254843255005873 0.8429764792549035 -1.5882884806323445 -1.570796326807946 2.141281720311417 0.31905368305686005 -0.16355338328160263 0.24777222292167708 -0.08421884344928154 -7.838541823549437e-08 0.31905368265366163 2987.762000000001
3.71207804710797 -0.8254843255005873 0.8429764792549035 -1.5882884806323445 -1.570796326807946 2.141281720311417 0.46785063082526024 -0.23982971394900535 0.36332566257893634 -0.12349595421563654 -1.149419966496431e-07 0.4678506302340223 2987.8120000000013
3.71207804710797 -0.8254843255005873 0.8429764792549035 -1.5882884806323445 -1.570796326807946 2.141281720311417 0.6309411212794351 -0.3234332042434036 0.48997924943007437 -0.1665460527195265 -1.5501022649108997e-07 0.6309411204820945 2987.8620000000014
3.71207804710797 -0.8254843255005873 0.8429764792549035 -1.5882884806323445 -1.570796326807946 2.141281720311417 0.8024831070001307 -0.4113691022736548 0.6231961385729607 -0.21182704588021495 -1.971548278849174e-07 0.8024831059860069 2987.9120000000016
3.71207804710797 -0.8254843255005873 0.8429764792549035 -1.5882884806323445 -1.570796326807946 2.141281720311417 0.9771019043616339 -0.5008822362999081 0.7588024326976361 -0.25792020806342475 -2.400553433462015e-07 0.9771019031268388 2987.962000000002
3.71207804710797 -0.8254843255005873 0.8429764792549035 -1.5882884806323445 -1.570796326807946 2.141281720311417 1.1498901935317707 -0.5894570147336031 0.8929871820863104 -0.303530181081337 -2.8250613778001143e-07 1.149890192078617 2988.012000000002
3.71207804710797 -0.8254843255005873 0.8429764792549035 -1.5882884806323445 -1.570796326807946 2.141281720311417 1.316408018471908 -0.6748174261374718 1.022302384613365 -0.3474849741925923 -3.234163984814099e-07 1.3164080168083205 2988.062000000002
3.712302100445105 -0.8255991797814494 0.8431504756584648 -1.5883476227577187 -1.5707963268629916 2.1415057736482686 1.472682786936953 -0.7549270392255368 1.1436629857453509 -0.3887359641022898 -3.6181013513545295e-07 1.4726827850758764 2988.1120000000024
3.7137951763049775 -0.8263645607231098 0.8443099755935445 -1.588741741768964 -1.5707963272298118 2.142998849506254 1.6152092704753542 -0.8279890028631134 1.2543468785409906 -0.42635789496198784 -3.968261798171904e-07 1.6152092684341623 2988.1620000000025
3.717625071132552 -0.8283278424212271 0.8472842134894762 -1.5897526980125036 -1.5707963281707442 2.146828744328989 1.740949604429098 -0.8924460460668061 1.351994903651175 -0.45954887836970326 -4.277181869916645e-07 1.7409496022290039 2988.2120000000027
3.724651864131218 -0.8319299189042199 0.8527411137346294 -1.5916075218585575 -1.5707963298970935 2.153855537318775 1.8473332879337134 -0.9469804780045131 1.4346108493189675 -0.4876303933699122 -4.538546335139122e-07 1.8473332855991786 2988.262000000003
3.7355408995903905 -0.837511859137468 0.8611973725539686 -1.5944818405746537 -1.5707963325723222 2.164744572764187 1.9322571839182703 -0.9905141879954236 1.5005614513796028 -0.5100472864535499 -4.7471881862896305e-07 1.9322571814764145 2988.312000000003
3.7507757692131087 -0.845321562027516 0.8730285398866147 -1.5985033051991422 -1.5707963363152397 2.179979442367652 1.9940855191053761 -1.0222086455100163 1.5485763932604824 -0.5263677715580098 -4.8990886397184e-07 1.9940855165853857 2988.3620000000033
3.7706712944436314 -0.8555204114262757 0.8884791012634048 -1.6037550174147068 -1.5707963412031918 2.1998749675730322 2.0316498840111787 -1.0414649001700633 1.57774830598118 -0.5362834300671445 -4.991377135675594e-07 2.0316498814437174 2988.4120000000034
3.795386508795039 -0.8681899311352279 0.9076725596844525 -1.6102789564218791 -1.5707963472752495 2.2245901818932063 2.0442492329453703 -1.047923581748627 1.5875327681534408 -0.5396092108112658 -5.022331338311314e-07 2.044249230361986 2988.4620000000036
3.824937640176829 -0.8833384399096261 0.9306215174967081 -1.6180794058125498 -1.5707963545354002 2.2541413132376515 2.0316498840111787 -1.0414649001700629 1.5777483059811797 -0.5362834300671443 -4.991377135675594e-07 2.0316498814437174 2988.512000000004
3.859211093222516 -0.9009077064626979 0.9572377582715189 -1.6271263804434823 -1.5707963629557353 2.288414766240026 1.9940855191053752 -1.022208645510015 1.548576393260481 -0.5263677715580095 -4.899088639718398e-07 1.9940855165853837 2988.562000000004
3.8979764316172294 -0.9207796044698482 0.9873423286821899 -1.6373590533098255 -1.5707963724796412 2.3271801045857505 1.93225718391827 -0.9905141879954228 1.5005614513796024 -0.5100472864535496 -4.7471881862896284e-07 1.9322571814764147 2988.612000000004
3.9408993604253117 -0.9427827675728616 1.0206756203815437 -1.648689182418626 -1.570796383024988 2.37010303333959 1.847333287933714 -0.9469804780045132 1.434610849318969 -0.4876303933699126 -4.538546335139122e-07 1.8473332855991806 2988.6620000000044
3.987554708417918 -0.9666992443841051 1.0569074518794808 -1.6610045376623415 -1.5707963944873191 2.416758381273236 1.7409496044290982 -0.8924460460668051 1.3519949036511745 -0.459548878369703 -4.2771818699166425e-07 1.7409496022290025 2988.7120000000045
4.037439410400611 -0.9922711534907303 1.0956471504205398 -1.6741723276923528 -1.570796406743041 2.4666430831928885 1.6152092704753565 -0.8279890028631129 1.2543468785409924 -0.42635789496198845 -3.9682617981719086e-07 1.6152092684341646 2988.7620000000047
4.089985489540965 -1.0192073384588758 1.1364536338614584 -1.6880426267924775 -1.5707964196526127 2.519189162266838 1.4726827869369519 -0.754927039225535 1.1436629857453502 -0.38873596410228994 -3.6181013513545295e-07 1.472682785075875 2988.812000000005
4.144573039696158 -1.0471900228378708 1.1788454925487324 -1.7024518017524817 -1.570796433063735 2.5737767123530473 1.3164080184719056 -0.6748174261374696 1.022302384613363 -0.3474849741925921 -3.2341639848140956e-07 1.3164080168083183 2988.862000000005
4.200543207740575 -1.0758814651644362 1.222311071196177 -1.7172259387415933 -1.5707964468145401 2.6297468803267323 1.149890193531769 -0.5894570147336013 0.8929871820863102 -0.3035301810813369 -2.8250613778001143e-07 1.149890192078617 2988.9120000000053
4.257211175893402 -1.104930613966888 1.2663185507624877 -1.7321842701820154 -1.5707964607367817 2.6864148484079466 0.9771019043616311 -0.500882236299905 0.7588024326976346 -0.25792020806342425 -2.400553433462015e-07 0.9771019031268355 2988.9620000000054
4.313879144046229 -1.1339797627693398 1.310326030328798 -1.7471426016224372 -1.570796474659023 2.743082816489161 0.8024831070001325 -0.41136910227365375 0.6231961385729613 -0.21182704588021573 -1.9715482788491798e-07 0.8024831059860078 2989.0120000000056
4.369849312090646 -1.1626712050959052 1.353791608976243 -1.761916738611549 -1.5707964884098282 2.799052984462847 0.6309411212794366 -0.32343320424340394 0.4899792494300768 -0.16654605271952724 -1.5501022649109065e-07 0.6309411204820976 2989.062000000006
4.424436862245839 -1.1906538894749001 1.3961834676635165 -1.776325913571553 -1.5707965018209504 2.853640534549055 0.46785063082526435 -0.23982971394900335 0.3633256625789371 -0.12349595421563694 -1.149419966496436e-07 0.4678506302340229 2989.112000000006
4.476982941386193 -1.2175900744430457 1.4369899511044353 -1.7901962126716777 -1.570796514730522 2.906186613623005 0.3190536830568661 -0.16355338328160324 0.24777222292168313 -0.08421884344928322 -7.83854182354961e-08 0.319053682653669 2989.162000000006
4.526867643368886 -1.2431619835496708 1.4757296496454944 -1.803364002701689 -1.570796526986244 2.956071315542658 0.19085968918702817 -0.09783854428362641 0.14821872295259736 -0.05038018094765664 -4.689059351355486e-08 0.19085968894583213 2989.2120000000064
4.573522991361491 -1.267078460360914 1.5119614811434312 -1.8156793579454045 -1.5707965384485751 3.0027266634763032 0.09004542422210522 -0.04615910914881005 0.06992790275817184 -0.023768794684417095 -2.2122447138728622e-08 0.0900454241083121 2989.2620000000065
4.616445920169575 -1.289081623463928 1.5452947728427855 -1.8270094870542053 -1.570796548993922 3.0456495922301436 0.023855026961955853 -0.01222857022216262 0.018525450017031635 -0.0062968800796737905 -5.860726155913487e-09 0.023855026931808583 2989.3120000000067
4.655211258564289 -1.3089535214710786 1.575399343253457 -1.8372421599205484 -1.5707965585178278 3.0844149305758686 0.0 3.552713678800501e-15 0.0 0.0 0.0 0.0 2989.362000000007
4.689484711609975 -1.3265227880241497 1.602015584028267 -1.8462891345514807 -1.570796566938163 3.118688383578242 0.0 0.0 0.0 0.0 0.0 0.0 2989.412000000007
4.719035842991765 -1.3416712967985478 1.6249645418405225 -1.8540895839421516 -1.5707965741983136 3.1482395149226874 1.175851356686474e-07 0.009951559092265838 0.017136165030307775 -0.027087722603038517 3.111292235389471e-08 1.1774543002974058e-07 2989.4620000000073
4.743751057343172 -1.3543408165075 1.6441580002615697 -1.8606135229493235 -1.5707965802703714 3.1729547292428615 4.0554873322451856e-07 0.034322724216182175 0.059102283471877834 -0.09342500244721448 1.073078342409838e-07 4.0610158520461547e-07 2989.5120000000074
4.7636465825736956 -1.3645396659062594 1.65960856163836 -1.8658652351648883 -1.5707965851583234 3.192850254448242 7.775017134008522e-07 0.06580214583457411 0.11330851979223919 -0.1791106555792751 2.057262620951406e-07 7.785616189721624e-07 2989.5620000000076
4.778881452196413 -1.3723493687963073 1.6714397289710057 -1.8698866997893768 -1.570796588901241 3.2080851240517068 1.1614531768086803e-06 0.09829703266646254 0.16926334438099924 -0.26756036203817635 3.0731947794459265e-07 1.163036492538662e-06 2989.612000000008
4.789770487655584 -1.3779313090295555 1.6798959877903443 -1.8727610185054726 -1.5707965915764697 3.218974159497118 1.4998104039368294e-06 0.1269331516870643 0.2185735335498441 -0.3455066658550832 3.968484994119224e-07 1.5018549748691404e-06 2989.662000000008
4.7967972806542525 -1.3815333855125485 1.6853528880354989 -1.8746158423515267 -1.570796593302819 3.2260009524869053 1.7493788551519177e-06 0.14805482812779175 0.2549441695325381 -0.402998975053369 4.628840897140663e-07 1.7517636426873653e-06 2989.712000000008
4.800627175481825 -1.383496667210665 1.688327125931429 -1.875626798595066 -1.5707965942437514 3.229830847309638 1.881362170698358e-06 0.15922494547625338 0.2741786404849244 -0.4334035616486164 4.978067576623154e-07 1.8839268804758495e-06 2989.7620000000084
4.802120251341698 -1.3842620481523258 1.6894866258665089 -1.8760209176063116 -1.5707965946105715 3.2313239231676256 1.8813621706983582e-06 0.15922494547625346 0.27417864048492446 -0.43340356164861626 4.978067576623155e-07 1.883926880475849e-06 2989.8120000000085
4.802344304678834 -1.3843769024331887 1.689660622270071 -1.8760800597316858 -1.5707965946656173 3.231547976504478 1.7493788551519179e-06 0.1480548281277918 0.25494416953253835 -0.40299897505336935 4.6288408971406676e-07 1.751763642687367e-06 2989.8620000000087
4.802344304678834 -1.384376902433189 1.6896606222700719 -1.8760800597316862 -1.5707965946656173 3.2315479765044763 1.499810403936832e-06 0.1269331516870645 0.2185735335498444 -0.3455066658550835 3.968484994119231e-07 1.5018549748691423e-06 2989.912000000009
4.802344307386492 -1.384147745783343 1.6900552203559738 -1.8767038144324433 -1.5707965939491735 3.2315479792158253 1.1614531768086823e-06 0.09829703266646278 0.16926334438099966 -0.267560362038177 3.0731947794459286e-07 1.163036492538664e-06 2989.962000000009
4.802344324132375 -1.3827304948337065 1.6924956667159023 -1.8805615115256038 -1.5707965895182276 3.2315479959845366 7.775017134008516e-07 0.06580214583457385 0.11330851979223901 -0.1791106555792753 2.057262620951401e-07 7.785616189721627e-07 2990.0120000000093
4.802344363315421 -1.3794143239348313 1.6982059731377366 -1.8895879883399567 -1.5707965791504284 3.2315480352209986 4.0554873322451576e-07 0.03432272421618183 0.059102283471877334 -0.09342500244721406 1.0730783424098302e-07 4.061015852046111e-07 2990.0620000000094
4.802344428055237 -1.3739352121312087 1.7076407725712601 -1.9045018987404798 -1.5707965620203306 3.231548100049069 1.1758513566864437e-07 0.009951559092265624 0.017136165030307658 -0.02708772260303806 3.1112922353894273e-08 1.1774543002974056e-07 2990.1120000000096
4.802344517151974 -1.366394705944188 1.720625206189633 -1.9250268373944897 -1.5707965384454132 3.2315481892672646 0.0 0.0 0.0 0.0 0.0 0.0 2990.16200000001
4.802344626046208 -1.3571786821548983 1.736494810450864 -1.9501124640377867 -1.5707965096320957 3.2315482983099457 0.0 0.0 0.0 0.0 0.0 0.0 2990.21200000001
4.80234474777882 -1.3468761105871672 1.7542354041592816 -1.978155627740803 -1.5707964774217549 3.231548420208505 0.0 0.0 0.0 0.0 0.0 0.0 2990.26200000001
4.8023448739508705 -1.3361978168904423 1.7726229755270069 -2.0072214911747506 -1.5707964440367426 3.2315485465525557 0.0 0.0 0.0 0.0 0.0 0.0 2990.3120000000104
4.802344995683482 -1.325895245322711 1.7903635692354243 -2.035264654877767 -1.5707964118264017 3.231548668451115 0.0 0.0 0.0 0.0 0.0 0.0 2990.3620000000105
4.802345104577716 -1.3166792215334213 1.8062331734966552 -2.060350281521064 -1.5707963830130842 3.231548777493796 0.0 0.0 0.0 0.0 0.0 0.0 2990.4120000000107
4.802345193674453 -1.3091387153464007 1.8192176071150283 -2.0808752201750735 -1.5707963594381669 3.2315488667119916 0.0 0.0 0.0 0.0 0.0 0.0 2990.462000000011
4.802345258414269 -1.3036596035427779 1.8286524065485519 -2.0957891305755973 -1.570796342308069 3.231548931540062 0.0 0.0 0.0 0.0 0.0 0.0 2990.512000000011
4.8023452975973155 -1.3003434326439027 1.8343627129703863 -2.1048156073899498 -1.5707963319402698 3.231548970776524 0.0 0.0 0.0 0.0 0.0 0.0 2990.5620000000113
4.8023453143431984 -1.2989261816942663 1.8368031593303147 -2.1086733044831103 -1.570796327509324 3.2315489875452355 0.0 0.0 0.0 0.0 0.0 0.0 2990.6120000000114
4.8023453170508565 -1.2986970250444205 1.8371977574162166 -2.1092970591838673 -1.5707963267928802 3.2315489902565844 0.0 0.0 0.0 0.0 0.0 0.0 2990.6620000000116
4.8023453170508565 -1.2986970250444205 1.8371977574162166 -2.1092970591838673 -1.5707963267928802 3.2315489902565844 0.0 0.0 0.0 0.0 0.0 0.0 2990.712000000012
4.8023453170508565 -1.2986970250444205 1.8371977574162166 -2.1092970591838673 -1.5707963267928802 3.2315489902565844 0.0 0.0 0.0 0.0 0.0 0.0 2990.762000000012
4.8023453170508565 -1.2986970250444205 1.8371977574162166 -2.1092970591838673 -1.5707963267928802 3.2315489902565844 0.0 0.0 0.0 0.0 0.0 0.0 2990.812000000012
4.8023453170508565 -1.2986970250444205 1.8371977574162166 -2.1092970591838673 -1.5707963267928802 3.2315489902565844 0.0 0.0 0.0 0.0 0.0 0.0 2990.8620000000124
4.8023453170508565 -1.2986970250444205 1.8371977574162166 -2.1092970591838673 -1.5707963267928802 3.2315489902565844 -1.175851356686474e-07 -0.009951559092265838 -0.017136165030307775 0.027087722603038517 -3.111292235389471e-08 -1.1774543002974058e-07 2990.9120000000125
4.8023453170508565 -1.2986970250444205 1.8371977574162166 -2.1092970591838673 -1.5707963267928802 3.2315489902565844 -4.0554873322451856e-07 -0.034322724216182175 -0.059102283471877834 0.09342500244721448 -1.073078342409838e-07 -4.0610158520461547e-07 2990.9620000000127
4.8023453170508565 -1.2986970250444205 1.8371977574162166 -2.1092970591838673 -1.5707963267928802 3.2315489902565844 -7.775017134008522e-07 -0.06580214583457411 -0.11330851979223919 0.1791106555792751 -2.057262620951406e-07 -7.785616189721624e-07 2991.012000000013
4.8023453170508565 -1.2986970250444205 1.8371977574162166 -2.1092970591838673 -1.5707963267928802 3.2315489902565844 -1.1614531768086803e-06 -0.09829703266646254 -0.16926334438099924 0.26756036203817635 -3.0731947794459265e-07 -1.163036492538662e-06 2991.062000000013
4.8023453170508565 -1.2986970250444205 1.8371977574162166 -2.1092970591838673 -1.5707963267928802 3.2315489902565844 -1.4998104039368294e-06 -0.1269331516870643 -0.2185735335498441 0.3455066658550832 -3.968484994119224e-07 -1.5018549748691404e-06 2991.1120000000133
4.8023453170508565 -1.2986970250444205 1.8371977574162166 -2.1092970591838673 -1.5707963267928802 3.2315489902565844 -1.7493788551519177e-06 -0.14805482812779175 -0.2549441695325381 0.402998975053369 -4.628840897140663e-07 -1.7517636426873653e-06 2991.1620000000134
4.8023453170508565 -1.2986970250444205 1.8371977574162166 -2.1092970591838673 -1.5707963267928802 3.2315489902565844 -1.881362170698358e-06 -0.15922494547625338 -0.2741786404849244 0.4334035616486164 -4.978067576623154e-07 -1.8839268804758495e-06 2991.2120000000136
4.8023453170508565 -1.2986970250444205 1.8371977574162166 -2.1092970591838673 -1.5707963267928802 3.2315489902565844 -1.8813621706983582e-06 -0.15922494547625346 -0.27417864048492446 0.43340356164861626 -4.978067576623155e-07 -1.883926880475849e-06 2991.262000000014
4.8023453170508565 -1.2986970250444205 1.8371977574162166 -2.1092970591838673 -1.5707963267928802 3.2315489902565844 -1.7493788551519179e-06 -0.1480548281277918 -0.25494416953253835 0.40299897505336935 -4.6288408971406676e-07 -1.751763642687367e-06 2991.312000000014
4.8023453170508565 -1.2986970250444205 1.8371977574162166 -2.1092970591838673 -1.5707963267928802 3.2315489902565844 -1.499810403936832e-06 -0.1269331516870645 -0.2185735335498444 0.3455066658550835 -3.968484994119231e-07 -1.5018549748691423e-06 2991.362000000014
4.8023453143431984 -1.2989261816942663 1.8368031593303147 -2.1086733044831103 -1.570796327509324 3.2315489875452355 -1.1614531768086823e-06 -0.09829703266646278 -0.16926334438099966 0.267560362038177 -3.0731947794459286e-07 -1.163036492538664e-06 2991.4120000000144
4.8023452975973155 -1.300343432643903 1.8343627129703861 -2.1048156073899498 -1.5707963319402698 3.231548970776524 -7.775017134008516e-07 -0.06580214583457385 -0.11330851979223901 0.1791106555792753 -2.057262620951401e-07 -7.785616189721627e-07 2991.4620000000145
4.802345258414269 -1.303659603542778 1.8286524065485519 -2.095789130575597 -1.570796342308069 3.231548931540062 -4.0554873322451576e-07 -0.03432272421618183 -0.059102283471877334 0.09342500244721406 -1.0730783424098302e-07 -4.061015852046111e-07 2991.5120000000147
4.802345193674453 -1.3091387153464007 1.8192176071150283 -2.0808752201750735 -1.5707963594381669 3.2315488667119916 -1.1758513566864437e-07 -0.009951559092265624 -0.017136165030307658 0.02708772260303806 -3.1112922353894273e-08 -1.1774543002974056e-07 2991.562000000015
4.802345104577716 -1.3166792215334213 1.8062331734966555 -2.060350281521064 -1.5707963830130842 3.231548777493796 0.0 0.0 0.0 0.0 0.0 0.0 2991.612000000015
4.802344995683482 -1.325895245322711 1.7903635692354245 -2.035264654877767 -1.5707964118264017 3.231548668451115 0.0 0.0 0.0 0.0 0.0 0.0 2991.6620000000153
4.8023448739508705 -1.3361978168904423 1.7726229755270069 -2.0072214911747506 -1.5707964440367426 3.2315485465525557 -0.020137445579242703 3.5991056116828274e-05 -4.405207396457415e-05 8.061147453759416e-06 2.65412905919844e-09 -0.020137445565577547 2991.7120000000155
4.80234474777882 -1.3468761105871672 1.7542354041592816 -1.978155627740803 -1.5707964774217549 3.231548420208505 -0.07753884349771771 0.00013858286328216968 -0.00016962165610567249 3.103929186894334e-05 1.0219672447237568e-08 -0.07753884344510031 2991.7620000000156
4.802344626046208 -1.3571786821548981 1.7364948104508642 -1.9501124640377867 -1.5707965096320957 3.2315482983099457 -0.16781682576165624 0.00029993400948338664 -0.0003671110713551856 6.717814195267147e-05 2.2118372070764073e-08 -0.16781682564777672 2991.812000000016
4.802344517151974 -1.366394705944188 1.7206252061896332 -1.9250268373944899 -1.5707965384454132 3.2315481892672646 -0.28675607802410397 0.0005125105890612784 -0.0006272990240594397 0.00011479028058041176 3.7794646624399285e-08 -0.28675607782951296 2991.862000000016
4.802344428055237 -1.3739352121312087 1.7076407725712601 -1.90450189874048 -1.5707965620203306 3.231548100049069 -0.43031333958492096 0.0007690862027100807 -0.0009413405979791966 0.00017225716479598037 5.6715591590739176e-08 -0.4303133392929129 2991.912000000016
4.802344363315421 -1.3794143239348315 1.6982059731377366 -1.8895879883399564 -1.5707965791504284 3.2315480352209986 -0.5946174033907821 0.0010627419574774667 -0.0013007672562896542 0.00023802912581154183 7.837097924035437e-08 -0.5946174029872782 2991.9620000000164
4.802344324132375 -1.3827304948337067 1.6924956667159021 -1.8805615115256038 -1.5707965895182276 3.2315479959845366 -0.7759691160351759 0.0013868664667645457 -0.001697486841580445 0.00031062536900760873 1.0227325863179007e-07 -0.7759691155086078 2992.0120000000165
4.802344307386492 -1.384147745783343 1.6900552203559738 -1.876703814432443 -1.5707965939491735 3.2315479792158253 -0.9708413777584065 0.0017351558503258641 -0.002123783575855639 0.00038863397393304206 1.2795755561156622e-07 -0.9708413770995992 2992.0620000000167
4.802344304678834 -1.384376902433189 1.6896606222700719 -1.8760800597316862 -1.5707965946656173 3.2315479765044763 -1.1758791424475916 0.002101613734269405 -0.00257231806053374 0.000470711894305051 1.5498167281417734e-07 -1.1758791416496468 2992.112000000017
4.802344304678834 -1.384376902433189 1.6896606222700719 -1.8760800597316862 -1.5707965946656173 3.2315479765044763 -1.387899417636663 0.0024805512510565867 -0.0030361272764476877 0.0005555849580091928 1.8292608966209253e-07 -1.3878994166948426 2992.162000000017
4.802218822343209 -1.3843766781623514 1.6896603477686656 -1.8760800095003098 -1.5707965946490787 3.231422494168937 -1.603891264506369 0.0028665870395022685 -0.0035086245838448593 0.0006420478670993735 2.113939623657557e-07 -1.6038912634179776 2992.2120000000173
4.801368484365914 -1.3843751583786361 1.6896584875947263 -1.8760796691046129 -1.5707965945370035 3.230572156192218 -1.8210157978842703 0.0032546472447747424 -0.003983599722387066 0.0007289641977978469 2.400111239235853e-07 -1.8210157966485394 2992.2620000000175
4.799144106848085 -1.384371182815015 1.6896536216129634 -1.876078778672155 -1.5707965942438291 3.228347778675899 -2.0366061862447418 0.0036399655183957376 -0.004455218811150553 0.0008152664004952148 2.684260841219742e-07 -2.0366061848627126 2992.3120000000176
4.794976160356982 -1.3843637335685124 1.6896445039378152 -1.8760771102166842 -1.5707965936944908 3.2241798321876245 -2.2481676517089753 0.004018083018240423 -0.0049180243486260065 0.0008999557997504281 2.963100295352904e-07 -2.248167650183382 2992.362000000018
4.7883715837473355 -1.3843519294056432 1.6896300559634596 -1.8760744663626903 -1.570796592824003 3.2175752555824597 -2.453377470044975 0.0043848484085373994 -0.005366935212718544 0.0009821025942907855 3.233568235258762e-07 -2.4533774683801273 2992.412000000018
4.778910597982704 -1.3843350200678508 1.6896093593938257 -1.8760706790699573 -1.5707965915770388 3.2081142698242484 -2.65008497066756 0.004736417859868711 -0.0057972466607477185 0.0010608458570119336 3.4928300624404847e-07 -2.6500849688692276 2992.462000000018
4.766243519956832 -1.3843123805769446 1.6895816492726032 -1.8760656083581149 -1.5707965899075091 3.1954471918069713 -2.836311536638363 0.0050692550491698305 -0.006204630329447519 0.001135393534977867 3.738277946280989e-07 -2.836311534713658 2992.5120000000184
4.750087576314998 -1.3842835055405383 1.6895463070132548 -1.876059141031192 -1.570796587778145 3.179291248176102 -3.010250604665835 0.005380131159729677 -0.006585134234966376 0.0012050224494209308 3.96753082404294e-07 -3.0102506026230964 2992.5620000000185
4.730223717275382 -1.384248003457487 1.6895028534290257 -1.8760511894021688 -1.5707965851600747 3.1594273891499647 -3.1702676651052353 0.005666124881190596 -0.006935182772867143 0.0012690782957418148 4.178434400868744e-07 -3.1702676629539095 2992.6120000000187
4.706493430450407 -1.3842055910233269 1.6894509417629557 -1.8760416900175292 -1.5707965820324068 3.135697102341093 -3.3149002619586416 0.005924622409548376 -0.00725157671812712 0.0013269756435095594 4.3690611497805565e-07 -3.3149002597091695 2992.662000000019
4.6787955546681035 -1.3841560874357106 1.689390350717889 -1.8760306023818132 -1.5707965783818079 3.1079992265775855 -3.442857992874947 0.006153317447152245 -0.007531493225138044 0.0013781979364615538 4.537710311680282e-07 -3.4428579905386436 2992.712000000019
4.647083093793463 -1.3840994086998475 1.689320977486485 -1.8760179076821688 -1.5707965742020837 3.076286765724465 -3.5530225091498586 0.006350211202704862 -0.007772485827706081 0.0014222974925035337 4.682907895349569e-07 -3.5530225067387975 2992.7620000000193
4.611360030549791 -1.3840355619339404 1.689242830781231 -1.8760036075129058 -1.5707965694937598 3.0405637025050343 -3.6444475157258927 0.006513612391262325 -0.007972484439051832 0.0014588955037095836 4.803406677449809e-07 -3.644447513252792 2992.8120000000195
4.571678140340064 -1.383964639674623 1.6891560238644503 -1.875987722600047 -1.5707965642636594 3.000881812322235 -3.716358771192389 0.0066421372342341705 -0.008129795351810343 0.001487682036322137 4.89818620252215e-07 -3.71635876867049 2992.8620000000196
4.5281338050682844 -1.383886814182399 1.689060767578315 -1.8759702915258811 -1.5707965585244865 2.9573374770800043 -3.768154087785493 0.006734709459383363 -0.008243101238031078 0.0015084160307519742 4.966452782987472e-07 -3.7681540852284456 2992.91200000002
4.480864826960836 -1.3838023317470793 1.688957363374856 -1.8759513694535155 -1.570796552294403 2.910068499004633 -3.799403331388168 0.006790560300826314 -0.008311461149177952 0.0015209253015782233 5.007639499146407e-07 -3.799403328809914 2992.96200000002
4.43004724238784 -1.3837115069932202 1.6888461963459744 -1.8759310268514275 -1.5707965455966106 2.859250914466121 -3.809848421530198 0.006809228499032871 -0.008334310516129317 0.0015251065375483652 5.021406199179346e-07 -3.8098484189448563 2993.01200000002
4.3758921356845075 -1.3836147171855606 1.6887277282534516 -1.8759093482180182 -1.5707965384589306 2.805095807799538 -3.799403331388169 0.0067905603008263146 -0.008311461149177954 0.0015209253015782238 5.007639499146409e-07 -3.7994033288099156 2993.0620000000204
4.318642452972498 -1.3835123965344605 1.688602490558961 -1.8758864308061645 -1.5707965309133833 2.7478461251263777 -3.7681540877854935 0.006734709459383361 -0.008243101238031077 0.0015084160307519742 4.96645278298747e-07 -3.7681540852284456 2993.1120000000205
4.258569815981273 -1.3834050305013394 1.6884710774540777 -1.8758623833477708 -1.5707965229957688 2.6877734881759183 -3.7163587711923887 0.006642137234234168 -0.008129795351810336 0.0014876820363221364 4.898186202522147e-07 -3.7163587686704864 2993.1620000000207
4.195971335869454 -1.3832931501041128 1.6883341388902908 -1.8758373247783222 -1.5707965147452465 2.6251750081065772 -3.6444475157258944 0.006513612391262325 -0.007972484439051833 0.0014588955037095831 4.803406677449809e-07 -3.6444475132527927 2993.212000000021
4.13116642704617 -1.3831773262226317 1.6881923736090134 -1.8758113829614371 -1.5707965062039153 2.56037009932727 -3.5530225091498613 0.006350211202704865 -0.00777248582770609 0.0014222974925035346 4.6829078953495723e-07 -3.5530225067387984 2993.262000000021
4.064493620992424 -1.3830581639041188 1.6880465221715932 -1.8757846934134188 -1.570796497416394 2.493697293318768 -3.44285799287495 0.006153317447152251 -0.007531493225138051 0.001378197936461555 4.5377103116802836e-07 -3.442857990538645 2993.3120000000213
3.996307380082441 -1.3829362966686083 1.6878973599893237 -1.8757573980278084 -1.570796488429401 2.4255110524550547 -3.314900261958645 0.005924622409548378 -0.007251576718127125 0.0013269756435095596 4.369061149780556e-07 -3.314900259709171 2993.3620000000215
3.926974911405021 -1.382812380814382 1.6877456903534551 -1.8757296437999376 -1.5707964792913343 2.3561785838246845 -3.1702676651052384 0.0056661248811905925 -0.0069351827728671425 0.0012690782957418144 4.178434400868744e-07 -3.1702676629539077 2993.4120000000216
3.8568729805849036 -1.3826870897234085 1.6875923374652055 -1.8757015815514806 -1.570796470051852 2.2860766530521373 -3.0102506046658406 0.005380131159729684 -0.006585134234966388 0.0012050224494209328 3.967530824042947e-07 -3.0102506026231017 2993.462000000022
3.7863847256041145 -1.3825611081667801 1.6874381394657707 -1.8756733646550066 -1.570796460761452 2.2155883981191815 -2.8363115366383678 0.005069255049169834 -0.006204630329447521 0.001135393534977869 3.738277946280992e-07 -2.836311534713662 2993.512000000022
3.7158964706233264 -1.3824351266101518 1.6872839414663359 -1.8756451477585327 -1.570796451471052 2.1451001431862258 -2.6500849706675615 0.0047364178598687115 -0.005797246660747719 0.001060845857011933 3.492830062440486e-07 -2.650084968869227 2993.562000000022
3.645794539803209 -1.3823098355191783 1.6871305885780863 -1.8756170855100758 -1.5707964422315697 2.074998212413679 -2.453377470044975 0.00438484840853739 -0.005366935212718536 0.0009821025942907838 3.2335682352587545e-07 -2.453377468380125 2993.6120000000224
3.576462071125788 -1.382185919664952 1.6869789189422177 -1.875589331282205 -1.570796433093503 2.0056657437833074 -2.248167651708971 0.004018083018240413 -0.004918024348625999 0.0008999557997504261 2.9631002953528955e-07 -2.248167650183375 2993.6620000000225
3.508275830215805 -1.3820640524294414 1.6868297567599482 -1.8755620358965945 -1.57079642410651 1.9374795029195948 -2.0366061862447538 0.0036399655183957467 -0.00445521881115057 0.0008152664004952175 2.6842608412197556e-07 -2.0366061848627193 2993.7120000000227
3.4416030241620597 -1.3819448901109286 1.686683905322528 -1.8755353463485762 -1.5707964153189886 1.870806696911093 -1.821015797884273 0.0032546472447747437 -0.0039835997223870556 0.0007289641977978454 2.4001112392358486e-07 -1.8210157966485396 2993.762000000023
3.3767981153387763 -1.3818290662294475 1.6865421400412506 -1.8755094045316911 -1.5707964067776574 1.806001788131786 -1.6038912645063752 0.0028665870395022802 -0.0035086245838448797 0.0006420478670993762 2.113939623657569e-07 -1.603891263417981 2993.812000000023
3.314199635226956 -1.3817171858322208 1.6864052014774638 -1.8754843459622426 -1.5707963985271352 1.7434033080624447 -1.3878994176366641 0.002480551251056579 -0.0030361272764476864 0.0005555849580091915 1.8292608966209194e-07 -1.3878994166948422 2993.8620000000233
3.254126998235731 -1.3816098197990998 1.6862737883725805 -1.8754602985038489 -1.5707963906095206 1.683330671111985 -1.1758791424475976 0.0021016137342694196 -0.002572318060533749 0.0004707118943050548 1.5498167281417834e-07 -1.1758791416496552 2993.9120000000235
3.196877315523723 -1.3815074991479996 1.6861485506780898 -1.875437381091995 -1.5707963830639733 1.6260809884388259 -0.9708413777584048 0.001735155850325852 -0.0021237835758556294 0.0003886339739330392 1.2795755561156577e-07 -0.9708413770995966 2993.9620000000236
3.1427222088203894 -1.38141070934034 1.686030082585567 -1.8754157024585858 -1.5707963759262933 1.5719258817722421 -0.7759691160351738 0.0013868664667645366 -0.0016974868415804351 0.0003106253690076077 1.0227325863178963e-07 -0.7759691155086008 2994.012000000024
3.091904624247393 -1.381319884586481 1.6859189155566854 -1.8753953598564979 -1.570796369228501 1.5211082972337298 -0.5946174033907983 0.0010627419574774945 -0.0013007672562896776 0.00023802912581154703 7.837097924035624e-08 -0.594617402987288 2994.062000000024
3.0446356461399438 -1.3812354021511613 1.6858155113532265 -1.8753764377841322 -1.5707963629984174 1.4738393191583563 -0.43031333958492934 0.0007690862027101016 -0.0009413405979792103 0.00017225716479598547 5.671559159074001e-08 -0.43031333929291476 2994.112000000024
3.001091310868164 -1.3811575766589372 1.6857202550670911 -1.8753590067099664 -1.5707963572592445 1.4302949839161272 -0.28675607802411773 0.0005125105890612947 -0.0006272990240594665 0.00011479028058041635 3.7794646624400463e-08 -0.2867560778295165 2994.1620000000244
2.9614094206584394 -1.3810866543996199 1.6856334481503104 -1.8753431217971075 -1.5707963520291441 1.39061309373333 -0.16781682576166368 0.0002999340094833882 -0.000367111071355197 6.71781419526723e-05 2.211837207076538e-08 -0.16781682564777864 2994.2120000000245
2.925686357414766 -1.3810228076337128 1.6855553014450564 -1.8753288216278445 -1.5707963473208202 1.3548900305138978 -0.07753884349771914 0.00013858286328217117 -0.00016962165610567083 3.103929186894168e-05 1.0219672447237214e-08 -0.07753884344509623 2994.2620000000247
2.8939738965401256 -1.3809661288978496 1.6854859282136525 -1.8753161269282002 -1.570796343141096 1.323177569660778 -0.020137445579240753 3.59910561168149e-05 -4.4052073964576574e-05 8.061147453758736e-06 2.654129059197902e-09 -0.020137445565569557 2994.312000000025
2.866276020757823 -1.3809166253102334 1.6854253371685857 -1.8753050392924842 -1.5707963394904971 1.2954796938972692 -7.105427357601002e-15 0.0 0.0 0.0 0.0 0.0 2994.362000000025
2.8425457339328464 -1.3808742128760731 1.6853734255025157 -1.8752955399078446 -1.5707963363628292 1.2717494070883972 0.0 0.0 0.0 0.0 0.0 0.0 2994.4120000000253
2.8226818748932283 -1.380838710793022 1.6853299719182866 -1.8752875882788214 -1.570796333744759 1.2518855480622577 2.9669134446690066e-09 0.009920145809876602 0.017121653489155952 -0.027041799300624652 -1.7277580058008525e-10 2.966708258874725e-09 2994.4620000000255
2.8065259312513966 -1.3808098357566156 1.6852946296589382 -1.8752811209518985 -1.5707963316153948 1.2357296044313903 1.0232823921409431e-08 0.034214380446309096 0.0590522334625991 -0.0932666139143993 -5.959002101639676e-10 1.023211623979242e-08 2994.5120000000256
2.7938588532255273 -1.3807871962657094 1.6852669195377157 -1.875276050240056 -1.5707963299458652 1.223062526414116 1.9617958287199147e-08 0.06559443351836775 0.11321256592829651 -0.17880699945719158 -1.1424359058764823e-09 1.9616601548477777e-08 2994.562000000026
2.7843978674608927 -1.380770286927917 1.6852462229680818 -1.875272262947323 -1.5707963286989008 1.213601540655902 2.9305838922853043e-08 0.0979867463669444 0.1691200058928874 -0.26710675227555775 -1.7066017853216586e-09 2.930381218970137e-08 2994.612000000026
2.7777932908512466 -1.3807584827650479 1.6852317749937262 -1.8752696190933291 -1.5707963278284132 1.206996964050738 3.784328373302305e-08 0.1265324720647526 0.21838843736168306 -0.34492090944674303 -2.2037729665827204e-09 3.784066656727967e-08 2994.662000000026
2.7736253443601444 -1.3807510335185453 1.685222657318578 -1.8752679506378584 -1.5707963272790748 1.2028290175624634 4.414040614619807e-08 0.14758747541632738 0.25472827333866715 -0.4023157487786811 -2.5704807882220853e-09 4.413735348407499e-08 2994.7120000000264
2.7714009668423145 -1.3807470579549241 1.6852177913368152 -1.8752670602054005 -1.5707963269859004 1.2006046400461425 4.747061511470409e-08 0.15872233295802565 0.27394645582649524 -0.4326687888099945 -2.7644128092813644e-09 4.746733214199561e-08 2994.7620000000265
2.7705506288650183 -1.3807455381712088 1.6852159311628758 -1.8752667198097035 -1.5707963268738252 1.1997543020694224 4.7470615114704105e-08 0.15872233295802562 0.2739464558264953 -0.4326687888099944 -2.7644128092813636e-09 4.746733214199563e-08 2994.8120000000267
2.7704251465293916 -1.3807453139003714 1.6852156566614696 -1.875266669578327 -1.5707963268572867 1.199628819733885 4.414040614619809e-08 0.14758747541632755 0.2547282733386674 -0.4023157487786812 -2.570480788222086e-09 4.413735348407504e-08 2994.862000000027
2.770425146529396 -1.3807453139003714 1.6852156566614696 -1.875266669578327 -1.5707963268572867 1.1996288197338867 3.784328373302309e-08 0.1265324720647528 0.21838843736168337 -0.3449209094467434 -2.203772966582724e-09 3.7840666567279743e-08 2994.912000000027
2.7704251465977157 -1.3805168806108037 1.6856099205870532 -1.875889366793515 -1.5707963268612652 1.1996288198022016 2.9305838922853132e-08 0.09798674636694456 0.16912000589288773 -0.26710675227555836 -1.7066017853216617e-09 2.930381218970143e-08 2994.9620000000273
2.770425147020249 -1.37910410338271 1.6880483002863422 -1.8797405237211244 -1.5707963268858711 1.1996288202247054 1.9617958287199085e-08 0.06559443351836763 0.11321256592829655 -0.17880699945719117 -1.1424359058764815e-09 1.9616601548477737e-08 2995.0120000000275
2.770425148008917 -1.3757984003725279 1.693753771008562 -1.888751697454057 -1.5707963269434453 1.1996288212133055 1.023282392140934e-08 0.03421438044630891 0.0590522334625988 -0.09326661391439883 -5.959002101639602e-10 1.0232116239792332e-08 2995.0620000000276
2.7704251496424352 -1.3703365840383621 1.7031805807034248 -1.903640323483962 -1.5707963270385719 1.1996288228467105 2.9669134446689722e-09 0.009920145809876444 0.017121653489155668 -0.027041799300624468 -1.727758005800835e-10 2.96670825887477e-09 2995.112000000028
2.770425151890528 -1.3628198803578648 1.7161540186210413 -1.9241304650832824 -1.5707963271694878 1.1996288250946479 0.0 0.0 0.0 0.0 0.0 0.0 2995.162000000028
2.770425154638152 -1.3536329480461127 1.732010183911832 -1.9491735626872997 -1.5707963273294936 1.199628827842082 0.0 0.0 0.0 0.0 0.0 0.0 2995.212000000028
2.770425157709715 -1.3433628977734864 1.749735754226439 -1.977169183276181 -1.5707963275083634 1.1996288309134322 0.0 0.0 0.0 0.0 0.0 0.0 2995.2620000000284
2.7704251608932937 -1.3327183113835483 1.7681077543156363 -2.0061857697570247 -1.5707963276937567 1.199628834096791 0.0 0.0 0.0 0.0 0.0 0.0 2995.3120000000285
2.7704251639648567 -1.322448261110922 1.7858333246302431 -2.034181390345906 -1.5707963278726265 1.1996288371681414 0.0 0.0 0.0 0.0 0.0 0.0 2995.3620000000287
2.7704251667124806 -1.3132613287991701 1.8016894899210338 -2.0592244879499235 -1.5707963280326322 1.1996288399155755 0.0 0.0 0.0 0.0 0.0 0.0 2995.412000000029
2.7704251689605734 -1.3057446251186726 1.8146629278386504 -2.0797146295492435 -1.5707963281635482 1.1996288421635128 0.0 0.0 0.0 0.0 0.0 0.0 2995.462000000029
2.7704251705940917 -1.3002828087845069 1.8240897375335132 -2.094603255579149 -1.5707963282586748 1.1996288437969178 -2.9669134446690066e-09 -0.009920145809876602 -0.017121653489155952 0.027041799300624652 1.7277580058008525e-10 -2.966708258874725e-09 2995.5120000000293
2.77042517158276 -1.2969771057743245 1.8297952082557332 -2.1036144293120818 -1.570796328316249 1.199628844785518 -1.0232823921409431e-08 -0.034214380446309096 -0.0590522334625991 0.0932666139143993 5.959002101639676e-10 -1.023211623979242e-08 2995.5620000000295
2.770425172005293 -1.2955643285462308 1.832233587955022 -2.107465586239691 -1.5707963283408548 1.1996288452080217 -1.9617958287199147e-08 -0.06559443351836775 -0.11321256592829651 0.17880699945719158 1.1424359058764823e-09 -1.9616601548477777e-08 2995.6120000000296
2.7704251720736126 -1.2953358952566634 1.8326278518806056 -2.1080882834548786 -1.5707963283448334 1.1996288452763366 -2.9305838922853043e-08 -0.0979867463669444 -0.1691200058928874 0.26710675227555775 1.7066017853216586e-09 -2.930381218970137e-08 2995.66200000003
2.7704251720736126 -1.2953358952566634 1.8326278518806056 -2.1080882834548786 -1.5707963283448334 1.1996288452763366 -3.784328373302305e-08 -0.1265324720647526 -0.21838843736168306 0.34492090944674303 2.2037729665827204e-09 -3.784066656727967e-08 2995.71200000003
2.7704251720736126 -1.2953358952566634 1.8326278518806056 -2.1080882834548786 -1.5707963283448334 1.1996288452763366 -4.414040614619807e-08 -0.14758747541632738 -0.25472827333866715 0.4023157487786811 2.5704807882220853e-09 -4.413735348407499e-08 2995.76200000003
2.7704251720736126 -1.2953358952566634 1.8326278518806056 -2.1080882834548786 -1.5707963283448334 1.1996288452763366 -4.747061511470409e-08 -0.15872233295802565 -0.27394645582649524 0.4326687888099945 2.7644128092813644e-09 -4.746733214199561e-08 2995.8120000000304
2.7704251720736126 -1.2953358952566634 1.8326278518806056 -2.1080882834548786 -1.5707963283448334 1.1996288452763366 -4.7470615114704105e-08 -0.15872233295802562 -0.2739464558264953 0.4326687888099944 2.7644128092813636e-09 -4.746733214199563e-08 2995.8620000000305
2.7704251720736126 -1.2953358952566634 1.8326278518806056 -2.1080882834548786 -1.5707963283448334 1.1996288452763366 -4.414040614619809e-08 -0.14758747541632755 -0.2547282733386674 0.4023157487786812 2.570480788222086e-09 -4.413735348407504e-08 2995.9120000000307
2.7704251720736126 -1.2953358952566634 1.8326278518806056 -2.1080882834548786 -1.5707963283448334 1.1996288452763366 -3.784328373302309e-08 -0.1265324720647528 -0.21838843736168337 0.3449209094467434 2.203772966582724e-09 -3.7840666567279743e-08 2995.962000000031
2.770425172005293 -1.295564328546231 1.832233587955022 -2.107465586239691 -1.5707963283408548 1.1996288452080217 -2.9305838922853132e-08 -0.09798674636694456 -0.16912000589288773 0.26710675227555836 1.7066017853216617e-09 -2.930381218970143e-08 2996.012000000031
2.77042517158276 -1.2969771057743247 1.829795208255733 -2.1036144293120813 -1.570796328316249 1.199628844785518 -1.9617958287199085e-08 -0.06559443351836763 -0.11321256592829655 0.17880699945719117 1.1424359058764815e-09 -1.9616601548477737e-08 2996.0620000000313
2.7704251705940917 -1.3002828087845069 1.8240897375335132 -2.0946032555791487 -1.5707963282586748 1.1996288437969178 -1.023282392140934e-08 -0.03421438044630891 -0.0590522334625988 0.09326661391439883 5.959002101639602e-10 -1.0232116239792332e-08 2996.1120000000315
2.7704251689605734 -1.3057446251186726 1.8146629278386504 -2.0797146295492435 -1.5707963281635482 1.1996288421635128 -2.9669134446689722e-09 -0.009920145809876444 -0.017121653489155668 0.027041799300624468 1.727758005800835e-10 -2.96670825887477e-09 2996.1620000000316
2.7704251667124806 -1.31326132879917 1.8016894899210338 -2.0592244879499235 -1.5707963280326322 1.1996288399155755 0.0 0.0 0.0 0.0 0.0 0.0 2996.212000000032
2.7704251639648567 -1.322448261110922 1.7858333246302431 -2.034181390345906 -1.5707963278726265 1.1996288371681414 0.0 0.0 0.0 0.0 0.0 0.0 2996.262000000032
2.7704251608932937 -1.3327183113835483 1.7681077543156363 -2.0061857697570247 -1.5707963276937567 1.199628834096791 0.0 0.0 0.0 0.0 0.0 0.0 2996.312000000032
2.770425157709715 -1.3433628977734864 1.749735754226439 -1.977169183276181 -1.5707963275083634 1.1996288309134322 0.0 0.0 0.0 0.0 0.0 0.0 2996.3620000000324
2.770425154638152 -1.3536329480461127 1.732010183911832 -1.9491735626872997 -1.5707963273294936 1.199628827842082 0.0 0.0 0.0 0.0 0.0 0.0 2996.4120000000325
2.770425151890528 -1.3628198803578646 1.7161540186210413 -1.9241304650832824 -1.5707963271694878 1.1996288250946479 0.0 0.0 0.0 0.0 0.0 0.0 2996.4620000000327
2.7704251496424352 -1.3703365840383621 1.7031805807034248 -1.9036403234839623 -1.5707963270385719 1.1996288228467105 0.0 0.0 0.0 0.0 0.0 0.0 2996.512000000033
2.770425148008917 -1.3757984003725279 1.693753771008562 -1.8887516974540568 -1.5707963269434453 1.1996288212133055 0.0 0.0 0.0 0.0 0.0 0.0 2996.562000000033
2.770425147020249 -1.3791041033827103 1.688048300286342 -1.879740523721124 -1.5707963268858711 1.1996288202247054 0.0 0.0 0.0 0.0 0.0 0.0 2996.6120000000333
2.7704251465977157 -1.380516880610804 1.6856099205870532 -1.8758893667935146 -1.5707963268612652 1.1996288198022016 0.0 0.0 0.0 0.0 0.0 0.0 2996.6620000000335
2.770425146529396 -1.3807453139003714 1.6852156566614696 -1.8752666695783269 -1.5707963268572867 1.1996288197338867 0.0 0.0 0.0 0.0 0.0 0.0 2996.7120000000336
2.770425146529396 -1.3807453139003714 1.6852156566614696 -1.8752666695783269 -1.5707963268572867 1.1996288197338867 0.0 0.0 0.0 0.0 0.0 0.0 2996.762000000034
2.770425146529396 -1.3807453139003714 1.6852156566614696 -1.8752666695783269 -1.5707963268572867 1.1996288197338867 0.0 0.0 0.0 0.0 0.0 0.0 2996.812000000034
2.770425146529396 -1.3807453139003714 1.6852156566614696 -1.8752666695783269 -1.5707963268572867 1.1996288197338867 0.0 0.0 0.0 0.0 0.0 0.0 2996.862000000034
2.770425146529396 -1.3807453139003714 1.6852156566614696 -1.8752666695783269 -1.5707963268572867 1.1996288197338867 0.0 0.0 0.0 0.0 0.0 0.0 2996.9120000000344
2.770425146529396 -1.3807453139003714 1.6852156566614696 -1.8752666695783269 -1.5707963268572867 1.1996288197338867 0.0 0.0 0.0 0.0 0.0 0.0 2996.9620000000345
2.770425146529396 -1.3807453139003714 1.6852156566614696 -1.8752666695783269 -1.5707963268572867 1.1996288197338867 0.0 0.0 0.0 0.0 0.0 0.0 2997.0120000000347
2.770425146529396 -1.3807453139003714 1.6852156566614696 -1.8752666695783269 -1.5707963268572867 1.1996288197338867 0.0 0.0 0.0 0.0 0.0 0.0 2997.062000000035
2.770425146529396 -1.3807453139003714 1.6852156566614696 -1.8752666695783269 -1.5707963268572867 1.1996288197338867 0.0 0.0 0.0 0.0 0.0 0.0 2997.112000000035
2.770425146529396 -1.3807453139003714 1.6852156566614696 -1.8752666695783269 -1.5707963268572867 1.1996288197338867 0.0 0.0 0.0 0.0 0.0 0.0 2997.1620000000353
2.770425146529396 -1.3807453139003714 1.6852156566614696 -1.8752666695783269 -1.5707963268572867 1.1996288197338867 0.0 0.0 0.0 0.0 0.0 0.0 2997.2120000000355
2.770425146529396 -1.3807453139003714 1.6852156566614696 -1.8752666695783269 -1.5707963268572867 1.1996288197338867 0.0 0.0 0.0 0.0 0.0 0.0 2997.2620000000356
2.770425146529396 -1.3807453139003714 1.6852156566614696 -1.8752666695783269 -1.5707963268572867 1.1996288197338867 0.0 0.0 0.0 0.0 0.0 0.0 2997.312000000036
2.770425146529396 -1.3807453139003714 1.6852156566614696 -1.8752666695783269 -1.5707963268572867 1.1996288197338867 0.0 0.0 0.0 0.0 0.0 0.0 2997.362000000036
2.770425146529396 -1.3807453139003714 1.6852156566614696 -1.8752666695783269 -1.5707963268572867 1.1996288197338867 0.0 0.0 0.0 0.0 0.0 0.0 2997.412000000036
2.770425146529396 -1.3807453139003714 1.6852156566614696 -1.8752666695783269 -1.5707963268572867 1.1996288197338867 0.0 0.0 0.0 0.0 0.0 0.0 2997.4620000000364
2.770425146529396 -1.3807453139003714 1.6852156566614696 -1.8752666695783269 -1.5707963268572867 1.1996288197338867 0.0 0.0 0.0 0.0 0.0 0.0 2997.5120000000366
2.770425146529396 -1.3807453139003714 1.6852156566614696 -1.8752666695783269 -1.5707963268572867 1.1996288197338867 0.0 0.0 0.0 0.0 0.0 0.0 2997.5620000000367
2.770425146529396 -1.3807453139003714 1.6852156566614696 -1.8752666695783269 -1.5707963268572867 1.1996288197338867 0.0 0.0 0.0 0.0 0.0 0.0 2997.612000000037
2.770425146529396 -1.3807453139003714 1.6852156566614696 -1.8752666695783269 -1.5707963268572867 1.1996288197338867 0.0 0.0 0.0 0.0 0.0 0.0 2997.662000000037
2.770425146529396 -1.3807453139003714 1.6852156566614696 -1.8752666695783269 -1.5707963268572867 1.1996288197338867 0.0 0.0 0.0 0.0 0.0 0.0 2997.7120000000373
2.770425146529396 -1.3807453139003714 1.6852156566614696 -1.8752666695783269 -1.5707963268572867 1.1996288197338867 0.0 0.0 0.0 0.0 0.0 0.0 2997.7620000000375
2.770425146529396 -1.3807453139003714 1.6852156566614696 -1.8752666695783269 -1.5707963268572867 1.1996288197338867 0.0 0.0 0.0 0.0 0.0 0.0 2997.8120000000376
2.770425146529396 -1.3807453139003714 1.6852156566614696 -1.8752666695783269 -1.5707963268572867 1.1996288197338867 0.0 0.0 0.0 0.0 0.0 0.0 2997.862000000038
2.770425146529396 -1.3807453139003714 1.6852156566614696 -1.8752666695783269 -1.5707963268572867 1.1996288197338867 0.018661109969500735 0.001372699711382717 -0.0017989573645746683 0.0004262576499652211 5.76966900684861e-12 0.018661109970231855 2997.912000000038
2.770425146529396 -1.3807453139003714 1.6852156566614696 -1.8752666695783269 -1.5707963268572867 1.1996288197338867 0.07195477245760548 0.0052929485730803345 -0.0069365417191401425 0.0016435931336179633 2.2247080758969317e-11 0.07195477246042459 2997.962000000038
2.770425146529396 -1.3807453139003714 1.6852156566614696 -1.8752666695783269 -1.5707963268572867 1.1996288197338867 0.15595752764923904 0.011472139306931063 -0.015034525994648659 0.003562386660750663 4.8219174268475934e-11 0.15595752765534926 2998.0120000000384
2.770425146529396 -1.3807453139003714 1.6852156566614696 -1.8752666695783269 -1.5707963268572867 1.1996288197338867 0.26689397081668753 0.01963255547545847 -0.02572895584163916 0.006096400320031513 8.251866443381761e-11 0.2668939708271441 2998.0620000000386
2.770425146529396 -1.3807453139003714 1.6852156566614696 -1.8752666695783269 -1.5707963268572867 1.1996288197338867 0.4011367523195984 0.02950737148187146 -0.03867014963023729 0.009162778079004463 1.2402404203977878e-10 0.4011367523353145 2998.1120000000387
2.770425146529396 -1.3807453139003714 1.6852156566614696 -1.8752666695783269 -1.5707963268572867 1.1996288197338867 0.5552065776049805 0.040840652570064306 -0.05352269845015542 0.012682045784089224 1.7165957375747928e-10 0.5552065776267329 2998.162000000039
2.770425146529396 -1.3807453139003714 1.6852156566614696 -1.8752666695783269 -1.5707963268572867 1.1996288197338867 0.7257722072072039 0.05338735482461662 -0.06996546611069263 0.016578111160581256 2.2439530214437425e-10 0.725772207235639 2998.212000000039
2.770425146529396 -1.3807453139003714 1.6852156566614696 -1.8752666695783269 -1.5707963268572867 1.1996288197338867 0.9096504567480002 0.06691332517079336 -0.08769158914073465 0.020778263812651784 2.8124704564425407e-10 0.9096504567836392 2998.2620000000393
2.770425146529396 -1.3807453139003714 1.6852156566614696 -1.8752666695783269 -1.5707963268572867 1.1996288197338867 1.1038061969364616 0.08119530137454484 -0.10640847678875398 0.025213175223347782 3.4127639858724456e-10 1.1038061969797075 2998.3120000000395
2.770425146529396 -1.3807453139003714 1.6852156566614696 -1.875266669578327 -1.5707963268572867 1.1996288197338867 1.305352353569043 0.09602091204250675 -0.12583781102280986 0.029816898754591994 4.0359073118980687e-10 1.3053523536201852 2998.3620000000396
2.770537238037253 -1.3807370685183584 1.6852048508817548 -1.8752641091806446 -1.570796326857252 1.199740911241748 1.5115499075295595 0.11118867662200008 -0.14571554653054813 0.03452686964718291 4.673431895547374e-10 1.5115499075887802 2998.41200000004
2.771297731512527 -1.3806811270885226 1.6851315382363499 -1.875246737965207 -1.5707963268570169 1.200501404717052 1.7198078947891877 0.1265080054010312 -0.16579191071920144 0.039283905020794777 5.317326956711678e-10 1.7198078948565678 2998.46200000004
2.7732898141817746 -1.3805345907190572 1.6849394986527162 -1.8752012347513833 -1.570796326856401 1.2024934873863773 1.9276834064064656 0.14179919950829184 -0.18583140371558907 0.04403220387397761 5.960039474145654e-10 1.9276834064819903 2998.51200000004
2.777027933409561 -1.3802596169799022 1.6845791386781233 -1.8751158485165917 -1.5707963268552452 1.2062316066143102 2.1328815885272934 0.15689345091315907 -0.2056127983661171 0.048719347084157164 6.594474185467325e-10 2.132881588610857 2998.5620000000404
2.78296044053931 -1.3798232254234464 1.684007236609656 -1.874980338005606 -1.5707963268534109 1.2121641137442918 2.3332556423849304 0.17163284242569524 -0.22492914023677815 0.05329629740763495 7.213993587158067e-10 2.333255642476345 2998.6120000000406
2.791472234734147 -1.3791971031052297 1.6831866876242219 -1.8747859113398606 -1.5707963268507792 1.2206759079394625 2.5268068243000004 0.18587034769664823 -0.2435877476131518 0.057717399479588295 7.812417934562614e-10 2.5268068243989976 2998.6620000000407
2.8028874068177454 -1.3783574101046445 1.6820862489085593 -1.874525165626757 -1.57079632684725 1.2320910800235079 2.7116844456804854 0.1994698312174511 -0.2614102115004041 0.06194037981407017 8.384025241889046e-10 2.711684445786726 2998.712000000041
2.8174718831151724 -1.3772845850456386 1.6806802847892437 -1.874192026568969 -1.5707963268427407 1.2466755563215062 2.8861858730217307 0.2123060483202223 -0.2782323956232879 0.06592634680400941 8.923551282208803e-10 2.8861858731348082 2998.762000000041
2.835436069293734 -1.3759631506174164 1.678948511862696 -1.8737816880737495 -1.5707963268371865 1.2646397425007718 3.0487565279064417 0.22426464517776568 -0.29390443642614283 0.06963979072121056 9.426189587456674e-10 3.048756528025889 2998.8120000000413
2.856937494203823 -1.3743815190951418 1.6768757441251887 -1.873290551862235 -1.5707963268305387 1.286141167411703 3.197989887004688 0.2352421588035704 -0.3082907430728953 0.07304858371635393 9.88759144843081e-10 3.1979898871299817 2998.8620000000415
2.8820834537197615 -1.3725317978606393 1.6744516381028551 -1.8727161670787518 -1.570796326822764 1.3112871269286268 3.332627482073896 0.24514601705181102 -0.321269997447058 0.07612397981899557 1.0303865914792695e-09 3.3326274822044644 2998.9120000000416
2.9109336545806497 -1.370409594923097 1.6716704379816953 -1.872057169900123 -1.570796326813844 1.3401373277906452 3.451558899958856 0.2538945386173473 -0.3327351541517307 0.07884061493756728 1.0671579795067187e-09 3.451558900094084 2998.962000000042
2.9435028582312093 -1.368013824439768 1.6685307207375837 -1.8713132231449718 -1.5707963268037741 1.3727065314424807 3.5538217825917187 0.26141693303572455 -0.3425934405095997 0.08117650685937668 1.098775765664249e-09 3.5538217827309535 2999.012000000042
2.9797635246626304 -1.3653465122366724 1.6650351412662765 -1.87048495588303 -1.570796326792563 1.4089671978753227 3.638601826992 0.26765330068317345 -0.3507663565629385 0.08311305525060711 1.124988182577016e-09 3.6386018271345564 2999.062000000042
3.0196484562534174 -1.3624126013293 1.66119017751342 -1.8695739030444425 -1.5707963267802314 1.4488521294676724 3.705232785266571 0.27255463277660974 -0.3571896750736067 0.08463504165631766 1.145589238756511e-09 3.7052327854117375 2999.1120000000424
3.063053441610234 -1.3592197574433118 1.657005875604556 -1.868582445029072 -1.5707963267668115 1.4922571148261896 3.7531964646096685 0.27608281137363483 -0.3618134415230507 0.08573062950044318 1.1604187186005602e-09 3.753196464756715 2999.1620000000426
3.1098398994087497 -1.3557781745352422 1.6524955949751314 -1.867513747315807 -1.570796326752346 1.5390435726265383 3.7821227273028875 0.27821060937253506 -0.3646019741123038 0.08639136408579419 1.1693621823933249e-09 3.782122727451068 2999.2120000000427
3.1598375222344846 -1.3521003803132008 1.647675753500504 -1.866371700071866 -1.5707963267368876 1.589041195454232 3.791789490715189 0.27892169051228277 -0.36553386376198604 0.08661217259405718 1.1723509663053022e-09 3.7917894908637457 2999.262000000043
3.2128469204236563 -1.3482010417575752 1.6425655726259505 -1.8651608577621044 -1.570796326720498 1.6420505936454803 3.782122727302889 0.27821060937253517 -0.3646019741123039 0.0863913640857942 1.1693621823933253e-09 3.7821227274510676 2999.312000000043
3.268642265904024 -1.3440967706417317 1.637186822496674 -1.863886378758319 -1.5707963267032472 1.6978459391280343 3.753196464609666 0.27608281137363444 -0.36181344152305045 0.08573062950044308 1.1604187186005592e-09 3.753196464756712 2999.3620000000433
3.3269739360357367 -1.339805929052719 1.6315635670878108 -1.8625539649485547 -1.570796326685212 1.7561776092620323 3.705232785266575 0.2725546327766099 -0.3571896750736071 0.08463504165631772 1.1455892387565123e-09 3.7052327854117415 2999.4120000000435
3.387571157452176 -1.3353484349119689 1.6257219093344386 -1.8611698013464106 -1.5707963266664766 1.816774830680846 3.638601826992 0.2676533006831736 -0.3507663565629387 0.08311305525060715 1.124988182577017e-09 3.6386018271345564 2999.4620000000436
3.450144649900805 -1.3307455674959991 1.6196897362615832 -1.8597404957003445 -1.57079632664713 1.8793483231319263 3.553821782591723 0.26141693303572483 -0.3425934405096 0.08117650685937677 1.0987757656642495e-09 3.5538217827309553 2999.512000000044
3.5143892700840107 -1.3260197729571153 1.6134964641142258 -1.8582730181029798 -1.5707963266272666 1.9435929433176486 3.451558899958858 0.2538945386173474 -0.33273515415173066 0.07884061493756732 1.067157979506719e-09 3.4515589000940863 2999.562000000044
3.579986655499952 -1.3211944698441123 1.6071727834873115 -1.8567746406004109 -1.5707963266069853 2.0091903287361603 3.332627482073894 0.24514601705181102 -0.321269997447058 0.07612397981899555 1.0303865914792695e-09 3.3326274822044635 2999.612000000044
3.6466078682834056 -1.3162938546229772 1.600750404455755 -1.8552528768015093 -1.5707963265863871 2.075811541522224 3.1979898870046877 0.23524215880357033 -0.3082907430728953 0.07304858371635392 9.887591448430808e-10 3.197989887129983 2999.6620000000444
3.71391603904661 -1.3113427071975905 1.5942618017044496 -1.853715421487229 -1.5707963265655767 2.1431197122880654 3.0487565279064484 0.22426464517776598 -0.2939044364261435 0.06963979072121064 9.42618958745669e-10 3.048756528025893 2999.7120000000446
3.781569010720113 -1.3063661964304292 1.5877399596582733 -1.8521700902199119 -1.5707963265446598 2.210772683964219 2.8861858730217276 0.2123060483202221 -0.27823239562328766 0.06592634680400931 8.923551282208802e-10 2.8861858731348047 2999.7620000000447
3.8492219823936153 -1.301389685663268 1.5812181176120972 -1.8506247589525948 -1.5707963265237428 2.2784256556403717 2.7116844456804863 0.19946983121745127 -0.26141021150040444 0.06194037981407022 8.384025241889048e-10 2.7116844457867293 2999.812000000045
3.916530153156821 -1.2964385382378814 1.5747295148607916 -1.8490873036383144 -1.5707963265029323 2.345733826406214 2.526806824300002 0.1858703476966486 -0.24358774761315216 0.057717399479588316 7.812417934562614e-10 2.5268068243989985 2999.862000000045
3.983151365940274 -1.2915379230167463 1.5683071358292353 -1.8475655398394129 -1.5707963264823341 2.4123550391922777 2.333255642384928 0.1716328424256954 -0.2249291402367782 0.05329629740763497 7.21399358715806e-10 2.3332556424763427 2999.9120000000453
4.048748751356215 -1.286712619903743 1.5619834552023208 -1.8460671623368439 -1.5707963264620528 2.477952424610789 2.132881588527293 0.15689345091315887 -0.205612798366117 0.04871934708415715 6.594474185467325e-10 2.1328815886108576 2999.9620000000455
4.112993371539421 -1.2819868253648592 1.5557901830549634 -1.8445996847394792 -1.5707963264421894 2.542197044796512 1.9276834064064698 0.141799199508292 -0.18583140371558926 0.04403220387397771 5.960039474145668e-10 1.9276834064819954 3000.0120000000456
4.17556686398805 -1.2773839579488897 1.549758009982108 -1.843170379093413 -1.5707963264228428 2.604770537247592 1.7198078947891817 0.1265080054010311 -0.16579191071920132 0.03928390502079472 5.317326956711666e-10 1.7198078948565607 3000.062000000046
4.236164085404489 -1.2729264638081397 1.5439163522287358 -1.841786215491269 -1.5707963264041074 2.6653677586664055 1.5115499075295646 0.1111886766220002 -0.14571554653054858 0.034526869647183 4.673431895547393e-10 1.511549907588785 3000.112000000046
4.294495755536202 -1.2686356222191268 1.5382930968198727 -1.8404538016815046 -1.5707963263860723 2.723699428800403 1.3053523535690355 0.0960209120425062 -0.1258378110228091 0.02981689875459189 4.035907311898046e-10 1.305352353620178 3000.162000000046
4.350291101016569 -1.2645313511032834 1.5329143466905961 -1.8391793226777193 -1.5707963263688214 2.7794947742829565 1.1038061969364572 0.08119530137454455 -0.106408476788754 0.025213175223347727 3.412763985872441e-10 1.1038061969797022 3000.2120000000464
4.403300499205742 -1.2606320125476576 1.5278041658160426 -1.8379684803679577 -1.5707963263524318 2.8325041724742066 0.9096504567479988 0.06691332517079314 -0.08769158914073379 0.020778263812651708 2.812470456442522e-10 0.9096504567836325 3000.2620000000466
4.453298122031476 -1.2569542183256164 1.5229843243414152 -1.8368264331240167 -1.5707963263369735 2.8825017953018994 0.7257722072072033 0.053387354824616734 -0.06996546611069263 0.01657811116058122 2.2439530214437425e-10 0.7257722072356404 3000.3120000000467
4.500084579829992 -1.2535126354175465 1.5184740437119906 -1.8357577354107517 -1.570796326322508 2.929288253102249 0.5552065776049713 0.04084065257006405 -0.05352269845015485 0.01268204578408907 1.7165957375747768e-10 0.5552065776267259 3000.362000000047
4.543489565186809 -1.2503197915315585 1.5142897418031267 -1.8347662773953812 -1.570796326309088 2.9726932384607645 0.40113675231959595 0.029507371481871027 -0.038670149630236954 0.009162778079004237 1.24024042039776e-10 0.40113675233530993 3000.412000000047
4.583374496777596 -1.247385880624186 1.51044477805027 -1.8338552245567934 -1.5707963262967564 3.012578170053115 0.2668939708166942 0.019632555475458748 -0.025728955841639246 0.006096400320031748 8.251866443381637e-11 0.2668939708271445 3000.4620000000473
4.619635163209018 -1.2447185684210906 1.5069491985789631 -1.8330269572948519 -1.5707963262855453 3.048838836485957 0.15595752764924 0.011472139306931016 -0.015034525994648197 0.0035623866607505396 4.8219174268473356e-11 0.15595752765534568 3000.5120000000475
4.652204366859578 -1.2423227979377613 1.5038094813348513 -1.8322830105397008 -1.5707963262754754 3.0814080401377932 0.0719547724576022 0.00529294857308031 -0.0069365417191394295 0.0016435931336178059 2.2247080758966797e-11 0.0719547724604244 3000.5620000000476
4.681054567720465 -1.2402005950002193 1.5010282812136915 -1.831624013361072 -1.5707963262665554 3.1102582409998103 0.01866110996949865 0.0013726997113828793 -0.0017989573645740197 0.000426257649965119 5.769669006846917e-12 0.018661109970233507 3000.612000000048
4.706200527236406 -1.2383508737657167 1.4986041751913577 -1.8310496285775888 -1.5707963262587807 3.135404200516736 0.0 0.0 0.0 0.0 0.0 0.0 3000.662000000048
4.727701952146492 -1.236769242243442 1.4965314074538507 -1.8305584923660743 -1.570796326252133 3.156905625427666 0.0 0.0 0.0 0.0 0.0 0.0 3000.712000000048
4.7456661383250545 -1.23544780781522 1.494799634527303 -1.8301481538708546 -1.5707963262465787 3.1748698116069316 -1.2144946366372345e-07 0.00973906532236925 0.01911219300240032 -0.028851259527886367 -6.997173024422779e-09 -1.2156076998190497e-07 3000.7620000000484
4.760250614622481 -1.234374982756214 1.4933936704079873 -1.8298150148130667 -1.5707963262420694 3.1894542879049297 -4.1393426668819354e-07 0.033193500743696376 0.06513978206735258 -0.09833328691161271 -2.384835302998533e-08 -4.143136302341849e-07 3000.8120000000486
4.771665786706082 -1.2335352897556286 1.4922932316923245 -1.829554269099963 -1.5707963262385403 3.2008694599889784 -7.825944729573659e-07 0.06275646234355096 0.12315490047108844 -0.18591137056726778 -4.5088292447316015e-08 -7.833117071615058e-07 3000.8620000000487
4.780177580900919 -1.232909167437412 1.4914726827068907 -1.8293598424342177 -1.5707963262359086 3.209381254184147 -1.1498174074672042e-06 0.09220416873248995 0.18094383907597936 -0.2731480191989242 -6.624542508329259e-08 -1.1508711950949582e-06 3000.912000000049
4.786110088030668 -1.2324727758809564 1.4909007806384234 -1.829224331923232 -1.5707963262340743 3.215313761314127 -1.4552376563256802e-06 0.11669590105205759 0.22900704633053637 -0.34570296179863846 -8.384186612104218e-08 -1.4565713562920563e-06 3000.962000000049
4.789848207258452 -1.2321978021418014 1.4905404206638304 -1.8291389456884404 -1.5707963262329185 3.2190518805420605 -1.6557370667527741e-06 0.13277400297478548 0.2605591282694102 -0.39333314764645083 -9.539341211994132e-08 -1.6572545209367399e-06 3001.0120000000493
4.791840289927702 -1.2320512657723357 1.4903483810801967 -1.8290934424746168 -1.5707963262323026 3.221043963211389 -1.7254447470804735e-06 0.1383638807041927 0.27152884851339154 -0.40989274631038564 -9.940954101561594e-08 -1.7270260871393717e-06 3001.0620000000495
4.792600783402977 -1.2319953243424997 1.4902750684347918 -1.8290760712591791 -1.5707963262320674 3.2218044566866895 -1.655737066752774e-06 0.13277400297478548 0.2605591282694104 -0.393333147646451 -9.539341211994133e-08 -1.6572545209367399e-06 3001.1120000000496
4.792712874910832 -1.231987078960487 1.490264262655077 -1.8290735108614966 -1.5707963262320328 3.2219165481945513 -1.4552376563256804e-06 0.11669590105205761 0.22900704633053634 -0.34570296179863835 -8.384186612104213e-08 -1.4565713562920563e-06 3001.16200000005
4.79271287491083 -1.2319870789604872 1.490264262655077 -1.8290735108614966 -1.5707963262320328 3.2219165481945513 -1.1498174074672057e-06 0.09220416873249011 0.18094383907597947 -0.27314801919892434 -6.62454250832926e-08 -1.1508711950949586e-06 3001.21200000005
4.7927128719062475 -1.2317461406862398 1.4907370861393292 -1.8297872726497604 -1.5707963264051383 3.221916545187215 -7.825944729573655e-07 0.06275646234355083 0.12315490047108796 -0.18591137056726761 -4.508829244731597e-08 -7.833117071615059e-07 3001.26200000005
4.792712853502325 -1.2302703251521823 1.493633264611206 -1.83415926683801 -1.5707963274654595 3.221916526766426 -4.139342666881914e-07 0.03319350074369634 0.06513978206735259 -0.09833328691161232 -2.3848353029985237e-08 -4.1431363023418343e-07 3001.3120000000504
4.792712810972769 -1.2268598685777556 1.500326032563695 -1.8442624917862367 -1.5707963299157517 3.2219164841978922 -1.214494636637235e-07 0.00973906532236947 0.019112193002400742 -0.028851259527886693 -6.997173024422917e-09 -1.2156076998190886e-07 3001.3620000000506
4.792712741751023 -1.2213089580863246 1.5112192824947333 -1.8607066528944387 -1.570796333903884 3.221916414912706 0.0 0.0 0.0 0.0 0.0 0.0 3001.4120000000507
4.79271264819832 -1.2138069415243935 1.525941433306219 -1.8829308211946179 -1.5707963392938167 3.2219163212742634 0.0 0.0 0.0 0.0 0.0 0.0 3001.462000000051
4.792712536371734 -1.2048395372808212 1.543539298703019 -1.90949609194278 -1.5707963457365788 3.2219162093451894 0.0 0.0 0.0 0.0 0.0 0.0 3001.512000000051
4.792712414792231 -1.1950900441060357 1.5626719555919815 -1.9383782432109329 -1.5707963527412439 3.2219160876542614 0.0 0.0 0.0 0.0 0.0 0.0 3001.5620000000513
4.792712293212728 -1.1853405509312505 1.581804612480944 -1.9672603944790856 -1.5707963597459087 3.2219159659633334 0.0 0.0 0.0 0.0 0.0 0.0 3001.6120000000515
4.7927121813861415 -1.1763731466876781 1.599402477877744 -1.9938256652272477 -1.5707963661886708 3.2219158540342594 0.0 0.0 0.0 0.0 0.0 0.0 3001.6620000000516
4.792712087833438 -1.168871130125747 1.6141246286892297 -2.016049833527427 -1.5707963715786035 3.2219157603958166 0.0 0.0 0.0 0.0 0.0 0.0 3001.712000000052
4.7927120186116925 -1.163320219634316 1.625017878620268 -2.0324939946356286 -1.5707963755667358 3.2219156911106306 0.0 0.0 0.0 0.0 0.0 0.0 3001.762000000052
4.792711976082137 -1.1599097630598894 1.6317106465727569 -2.0425972195838558 -1.570796378017028 3.221915648542097 0.0 0.0 0.0 0.0 0.0 0.0 3001.812000000052
4.792711957678214 -1.1584339475258318 1.6346068250446337 -2.0469692137721047 -1.5707963790773491 3.2219156301213077 0.0 0.0 0.0 0.0 0.0 0.0 3001.8620000000524
4.792711954673631 -1.1581930092515844 1.6350796485288859 -2.0476829755603685 -1.5707963792504547 3.2219156271139715 0.0 0.0 0.0 0.0 0.0 0.0 3001.9120000000526
4.792711954673631 -1.1581930092515844 1.6350796485288859 -2.0476829755603685 -1.5707963792504547 3.2219156271139715 0.0 0.0 0.0 0.0 0.0 0.0 3001.9620000000527
4.792711954673631 -1.1581930092515844 1.6350796485288859 -2.0476829755603685 -1.5707963792504547 3.2219156271139715 0.0 0.0 0.0 0.0 0.0 0.0 3002.012000000053
4.792711954673631 -1.1581930092515844 1.6350796485288859 -2.0476829755603685 -1.5707963792504547 3.2219156271139715 0.0 0.0 0.0 0.0 0.0 0.0 3002.062000000053
4.792711954673631 -1.1581930092515844 1.6350796485288859 -2.0476829755603685 -1.5707963792504547 3.2219156271139715 0.0 0.0 0.0 0.0 0.0 0.0 3002.1120000000533
4.792711954673631 -1.1581930092515844 1.6350796485288859 -2.0476829755603685 -1.5707963792504547 3.2219156271139715 1.2144946366372345e-07 -0.00973906532236925 -0.01911219300240032 0.028851259527886367 6.997173024422779e-09 1.2156076998190497e-07 3002.1620000000535
4.792711954673631 -1.1581930092515844 1.6350796485288859 -2.0476829755603685 -1.5707963792504547 3.2219156271139715 4.1393426668819354e-07 -0.033193500743696376 -0.06513978206735258 0.09833328691161271 2.384835302998533e-08 4.143136302341849e-07 3002.2120000000536
4.792711954673631 -1.1581930092515844 1.6350796485288859 -2.0476829755603685 -1.5707963792504547 3.2219156271139715 7.825944729573659e-07 -0.06275646234355096 -0.12315490047108844 0.18591137056726778 4.5088292447316015e-08 7.833117071615058e-07 3002.262000000054
4.792711954673631 -1.1581930092515844 1.6350796485288859 -2.0476829755603685 -1.5707963792504547 3.2219156271139715 1.1498174074672042e-06 -0.09220416873248995 -0.18094383907597936 0.2731480191989242 6.624542508329259e-08 1.1508711950949582e-06 3002.312000000054
4.792711954673631 -1.1581930092515844 1.6350796485288859 -2.0476829755603685 -1.5707963792504547 3.2219156271139715 1.4552376563256802e-06 -0.11669590105205759 -0.22900704633053637 0.34570296179863846 8.384186612104218e-08 1.4565713562920563e-06 3002.362000000054
4.792711954673631 -1.1581930092515844 1.6350796485288859 -2.0476829755603685 -1.5707963792504547 3.2219156271139715 1.6557370667527741e-06 -0.13277400297478548 -0.2605591282694102 0.39333314764645083 9.539341211994132e-08 1.6572545209367399e-06 3002.4120000000544
4.792711954673631 -1.1581930092515844 1.6350796485288859 -2.0476829755603685 -1.5707963792504547 3.2219156271139715 1.7254447470804735e-06 -0.1383638807041927 -0.27152884851339154 0.40989274631038564 9.940954101561594e-08 1.7270260871393717e-06 3002.4620000000546
4.792711954673631 -1.1581930092515844 1.6350796485288859 -2.0476829755603685 -1.5707963792504547 3.2219156271139715 1.655737066752774e-06 -0.13277400297478548 -0.2605591282694104 0.393333147646451 9.539341211994133e-08 1.6572545209367399e-06 3002.5120000000547
4.792711954673631 -1.1581930092515844 1.6350796485288859 -2.0476829755603685 -1.5707963792504547 3.2219156271139715 1.4552376563256804e-06 -0.11669590105205761 -0.22900704633053634 0.34570296179863835 8.384186612104213e-08 1.4565713562920563e-06 3002.562000000055
4.792711954673631 -1.1581930092515844 1.6350796485288859 -2.047682975560369 -1.5707963792504547 3.2219156271139715 1.1498174074672057e-06 -0.09220416873249011 -0.18094383907597947 0.27314801919892434 6.62454250832926e-08 1.1508711950949586e-06 3002.612000000055
4.792711957678214 -1.1584339475258318 1.6346068250446337 -2.046969213772105 -1.5707963790773491 3.2219156301213077 7.825944729573655e-07 -0.06275646234355083 -0.12315490047108796 0.18591137056726761 4.508829244731597e-08 7.833117071615059e-07 3002.6620000000553
4.792711976082137 -1.1599097630598894 1.6317106465727569 -2.0425972195838558 -1.570796378017028 3.221915648542097 4.139342666881914e-07 -0.03319350074369634 -0.06513978206735259 0.09833328691161232 2.3848353029985237e-08 4.1431363023418343e-07 3002.7120000000555
4.7927120186116925 -1.1633202196343162 1.625017878620268 -2.0324939946356286 -1.5707963755667358 3.2219156911106306 1.214494636637235e-07 -0.00973906532236947 -0.019112193002400742 0.028851259527886693 6.997173024422917e-09 1.2156076998190886e-07 3002.7620000000557
4.792712087833438 -1.168871130125747 1.6141246286892297 -2.016049833527427 -1.5707963715786035 3.2219157603958166 0.0 0.0 0.0 0.0 0.0 0.0 3002.812000000056
4.7927121813861415 -1.1763731466876781 1.599402477877744 -1.9938256652272477 -1.5707963661886708 3.2219158540342594 0.0 0.0 0.0 0.0 0.0 0.0 3002.862000000056
4.792712293212728 -1.1853405509312505 1.581804612480944 -1.9672603944790856 -1.5707963597459087 3.2219159659633334 -0.020373144381508185 -0.0014838520865162398 0.0019528782100534624 -0.00046902705004747897 7.939689316114506e-10 -0.020373144322062962 3002.912000000056
4.792712414792231 -1.1950900441060357 1.5626719555919815 -1.9383782432109329 -1.5707963527412439 3.2219160876542614 -0.07832812142063893 -0.005704929206137023 0.0075081822762532195 -0.0018032566322471316 3.0525526013512134e-09 -0.07832812119209136 3002.9620000000564
4.792712536371734 -1.2048395372808212 1.543539298703019 -1.90949609194278 -1.5707963457365788 3.2219162093451894 -0.16925923757785866 -0.012327781521541495 0.016224431080755584 -0.003896657256622827 6.596260916259837e-09 -0.16925923708399024 3003.0120000000566
4.79271264819832 -1.2138069415243935 1.525941433306219 -1.8829308211946179 -1.5707963392938167 3.2219163212742634 -0.28874878680504334 -0.021030651025503524 0.02767816314317987 -0.0066475252491158265 1.1252929909621112e-08 -0.28874878596252557 3003.0620000000567
4.792712741751023 -1.2213089580863246 1.5112192824947333 -1.8607066528944387 -1.570796333903884 3.221916414912706 -0.43256705054547845 -0.03150547154089171 0.0414639366206084 -0.009958484751584784 1.6857721740962073e-08 -0.4325670492833245 3003.112000000057
4.792712810972769 -1.2268598685777556 1.500326032563695 -1.8442624917862367 -1.5707963299157517 3.2219164841978922 -0.5966722977338591 -0.04345786872066939 0.05719432930758653 -0.013736487721805751 2.3253124696053003e-08 -0.5966722959928752 3003.162000000057
4.792712853502325 -1.2302703251521823 1.493633264611206 -1.83415926683801 -1.5707963274654595 3.221916526766426 -0.7772107847962899 -0.05660716004789462 0.07449993863612259 -0.017892813933472168 3.028895318690742e-08 -0.7772107825285266 3003.2120000000573
4.7927128719062475 -1.2317461406862398 1.4907370861393292 -1.8297872726497606 -1.5707963264051383 3.221916545187215 -0.9705167556502846 -0.07068635483572018 0.09302938167568789 -0.02234307097619486 3.7822347751782075e-08 -0.9705167528184888 3003.2620000000575
4.79271287491083 -1.2319870789604872 1.490264262655077 -1.8290735108614968 -1.5707963262320328 3.2219165481945513 -1.173112441704767 -0.08544215422739357 0.11244929513321682 -0.027007194255502062 4.5717775055176974e-08 -1.1731124382818328 3003.3120000000577
4.79271287491083 -1.2319870789604872 1.490264262655077 -1.8290735108614966 -1.5707963262320328 3.2219165481945513 -1.3817080618600706 -0.10063495119625708 0.13244433535310676 -0.0318094469928394 5.3847027887835396e-08 -1.3817080578284915 3003.362000000058
4.792580992446904 -1.2319966844521877 1.4902769043163377 -1.8290765470370545 -1.5707963262268931 3.2217846657310107 -1.593201822507938 -0.11603883054574768 0.15271717831721815 -0.036678420225569885 6.208922516674383e-08 -1.5932018178592577 3003.412000000058
4.791688423419183 -1.232061693583294 1.4903624619785507 -1.8290970956087524 -1.5707963261921085 3.220892096705893 -1.804679917531521 -0.13144156890939704 0.1729885196448742 -0.041547032806973916 7.033081193513196e-08 -1.804679912265785 3003.462000000058
4.789357027053365 -1.23223149787551 1.4905859391736536 -1.8291507686176642 -1.570796326101251 3.218560700346878 -2.013416528305381 -0.14664463475083156 0.19299707459286136 -0.04635253140624929 7.846555936247279e-08 -2.013416522430589 3003.5120000000584
4.784995426032725 -1.232549169544342 1.4910040226778318 -1.8292511806513634 -1.5707963259312734 3.2141990993389644 -2.2168738236954915 -0.1614631883637725 0.21249957805542913 -0.05103649050851122 8.639456474448258e-08 -2.2168738172270466 3003.5620000000586
4.778095391354046 -1.2330517248035235 1.4916654290430091 -1.8294100320711524 -1.5707963256623698 3.2072990646804183 -2.4127019600592305 -0.1757260818720357 0.23127078456428982 -0.05554481241479228 9.402625150312076e-08 -2.4127019530193947 3003.6120000000587
4.768228227183552 -1.2337703871694408 1.4926112511283358 -1.8296371922392913 -1.570796325277833 3.1974319005387146 -2.59873908124539 -0.18927585922953172 0.24910346828861882 -0.05982772724204243 1.0127636918659002e-07 -2.5987390736627303 3003.662000000059
4.755041155712844 -1.2347308507655563 1.493875304631679 -1.8299407827462277 -1.5707963247639152 3.1842448291064844 -2.773011318594169 -0.20196875622026594 0.2658084230350546 -0.06383979292312907 1.0806799346933631e-07 -2.773011310503014 3003.712000000059
4.738253702014836 -1.2359535436268356 1.4954844746211127 -1.8303272606378256 -1.5707963241096854 3.1674573754574595 -2.9337327909371775 -0.2136747004583385 0.2812144622476985 -0.06753989520683695 1.1433152615204884e-07 -2.933732782377066 3003.7620000000593
4.717654078899686 -1.2374538910041706 1.4974590620664068 -1.8308015016425945 -1.5707963233068902 3.1468577524024166 -3.079305604597436 -0.2242773113879442 0.2951684190081152 -0.07089124765786825 1.200046951616601e-07 -3.079305595612568 3003.8120000000595
4.693095571770735 -1.239242578668805 1.4998131303705171 -1.8313668833989185 -1.570796322349812 3.1222992453451224 -3.20831985338937 -0.23367390028337245 0.3075351460353319 -0.0738613916568425 1.2503255455134569e-07 -3.2083198440280616 3003.8620000000597
4.664492923480435 -1.2413258162167593 1.5025548519010752 -1.832025368682286 -1.5707963212351284 3.0936965971382797 -3.31955361861882 -0.24177547024900772 0.3181975156858391 -0.07642219640029668 1.2936748450052458e-07 -3.3195536089329516 3003.91200000006
4.631818719186289 -1.2437056003732558 1.5056868545218778 -1.8327775886325184 -1.5707963199617705 3.061022392939471 -3.411972969083032 -0.24850671621932877 0.32705641995359025 -0.07854985890068507 1.3296919131485888e-07 -3.4119729591275 3003.96200000006
4.595099771206783 -1.246379978297143 1.5092065681243765 -1.8336229259809989 -1.5707963185307834 3.0243034450671047 -3.484731961070663 -0.2538060249589094 0.33403077047000196 -0.08022490398637942 1.3580470742625404e-07 -3.4847319509028343 3004.01200000006
4.554413503877322 -1.249343310885321 1.5131065711591674 -1.8345595982779026 -1.5707963169451846 2.9836171778563587 -3.537172638361781 -0.25762547506241823 0.33905749850395345 -0.0814321843016689 1.3784839139285867e-07 -3.537172628040939 3004.0620000000604
4.509884338406162 -1.2525865360771662 1.5173749371674807 -1.8355847411194255 -1.570796315209823 2.939088012515127 -3.56882503222786 -0.259930836954618 0.34209155496178717 -0.08216088030675991 1.390819278990646e-07 -3.5688250218146615 3004.1120000000606
4.461680077730347 -1.2560974321589562 1.5219955813126713 -1.836694491375013 -1.570796313331238 2.8908837519799637 -3.5794071614317886 -0.2607015728903672 0.3431059103873091 -0.08240450027777652 1.3949432775550719e-07 -3.579407150987713 3004.1620000000607
4.410008291371641 -1.259860881068295 1.5269486069117066 -1.8378840704145893 -1.5707963113175187 2.839211965772027 -3.5688250322278634 -0.2599308369546183 0.34209155496178756 -0.08216088030675996 1.390819278990647e-07 -3.5688250218146638 3004.212000000061
4.355112700292466 -1.263859131698537 1.532210651966658 -1.8391478673357877 -1.5707963091781634 2.784316374853027 -3.5371726383617803 -0.25762547506241806 0.33905749850395317 -0.08143218430166883 1.3784839139285853e-07 -3.537172628040937 3004.262000000061
4.29726956175183 -1.268072063203213 1.5377552356961899 -1.8404795221911778 -1.5707963069239383 2.726473236481167 -3.4847319610706626 -0.2538060249589094 0.33403077047000174 -0.0802249039863794 1.3580470742625397e-07 -3.484731950902833 3004.3120000000613
4.236784054161269 -1.2724774483004546 1.5435531050670486 -1.8418720092154968 -1.5707963045667364 2.665987729067093 -3.411972969083032 -0.24850671621932874 0.32705641995359025 -0.07854985890068507 1.3296919131485886e-07 -3.411972959127501 3004.3620000000615
4.173986661940779 -1.2770512165774188 1.5495725813255534 -1.8433177200528768 -1.5707963021194373 2.6031903370298335 -3.3195536186188215 -0.24177547024900778 0.3181975156858391 -0.07642219640029668 1.2936748450052464e-07 -3.319553608932951 3004.4120000000617
4.109229560374744 -1.2817677177947135 1.5557799065290852 -1.844808546984075 -1.5707962995957656 2.538433235652749 -3.2083198533893706 -0.23367390028337248 0.30753514603533183 -0.07386139165684255 1.250325545513457e-07 -3.2083198440280634 3004.462000000062
4.0428830004678815 -1.286599985190822 1.5621395900775765 -1.8463359661537029 -1.5707962970101506 2.4720866759394737 -3.0793056045974376 -0.22427731138794435 0.29516841900811536 -0.07089124765786829 1.2000469516166013e-07 -3.079305595612571 3004.512000000062
3.975331693801169 -1.291519998786528 1.5686147552450016 -1.8478911207974553 -1.570796294377585 2.4045353694698637 -2.933732790937176 -0.21367470045833845 0.2812144622476986 -0.06753989520683693 1.1433152615204876e-07 -2.933732782377063 3004.562000000062
4.792712211608887 -1.2320082944682618 1.4902342001544397 -1.8290864429869593 -1.5707886854754847 3.2218902111053467 0.0 0.0 0.0 0.0 0.0 0.0 3006.2619999999997
4.793327635727735 -1.2319396248509238 1.4901378041039286 -1.8290585450383448 -1.5707887055617225 3.222505703905639 0.026725951394584096 0.0029821074589924347 -0.004186180036966949 0.0012115209590361237 -8.722827049162426e-07 0.026728934015657416 3006.312
4.797133811186549 -1.2315149281185835 1.489541629416351 -1.828886006322172 -1.5707888297878343 3.2263123041343316 0.09217726093234106 0.01028522776672901 -0.014438049515253355 0.0041785110627980595 -3.008485247568265e-06 0.09218754793155312 3006.362
4.806039734513512 -1.2305211965955989 1.4881466632319236 -1.8284822896270807 -1.5707891204597275 3.235219221363971 0.17671853575194388 0.019718424830888752 -0.027680047591373304 0.008010873280157229 -5.767746865160462e-06 0.17673825757291847 3006.4120000000003
4.820754461561952 -1.2288793131453026 1.4858418436312983 -1.8278152525602809 -1.5707896007195963 3.249935590578646 0.2639869484689531 0.029455918574537516 -0.04134920689575517 0.01196686008517314 -8.616016922029824e-06 0.26401640946077937 3006.4620000000004
4.841005278542127 -1.2266197074356437 1.4826698867373014 -1.8268972575805378 -1.570790261666597 3.270188667553707 0.3408922371758176 0.038037084936128 -0.0533951535327417 0.015453073457093416 -1.1126054909645954e-05 0.3409302808119569 3006.5120000000006
4.865755873053024 -1.2238580122048277 1.4787931138166721 -1.825775282031161 -1.5707910694775222 3.2949420242354863 0.3976167054418738 0.044366455869499694 -0.062280107080589925 0.018024464880353766 -1.2977430446611038e-05 0.3976610795390666 3006.562000000001
4.893424505114145 -1.2207707195269586 1.4744592783818027 -1.8245210281729916 -1.5707919725274777 3.322613744121016 0.4276152223133456 0.04771371934387894 -0.0669788805914712 0.019384335344577966 -1.3956523278659884e-05 0.42766294425051865 3006.612000000001
4.9221021781973056 -1.2175708370776785 1.4699673932924762 -1.823221033217389 -1.5707929085105556 3.3512946176377483 0.4276152223133458 0.04771371934387897 -0.06697888059147117 0.01938433534457798 -1.3956523278659878e-05 0.42766294425051865 3006.662000000001
4.949770810258427 -1.2144835443998094 1.4656335578576067 -1.8219667793592196 -1.5707938115605111 3.378966337523278 0.397616705441874 0.04436645586949972 -0.06228010708058995 0.018024464880353766 -1.2977430446611048e-05 0.39766107953906715 3006.7120000000014
4.974521404769323 -1.2117218491689936 1.4617567849369775 -1.8208448038098428 -1.5707946193714364 3.4037196942050567 0.34089223717581785 0.03803708493612806 -0.05339515353274177 0.01545307345709343 -1.1126054909645978e-05 0.3409302808119574 3006.7620000000015
4.994772221749498 -1.2094622434593345 1.4585848280429805 -1.8199268088300997 -1.570795280318437 3.423972771180118 0.26398694846895365 0.02945591857453761 -0.041349206895755164 0.011966860085173142 -8.616016922029845e-06 0.2640164094607793 3006.8120000000017
5.009486948797938 -1.2078203600090383 1.456280008442355 -1.8192597717632997 -1.5707957605783058 3.4386891403947932 0.1767185357519443 0.019718424830888703 -0.027680047591373214 0.008010873280157205 -5.76774686516043e-06 0.17673825757291883 3006.862000000002
5.018392872124902 -1.2068266284860536 1.4548850422579278 -1.8188560550682087 -1.570796051250199 3.447596057624433 0.09217726093234013 0.010285227766729022 -0.014438049515253404 0.00417851106279804 -3.0084852475682376e-06 0.0921875479315526 3006.912000000002
5.022199047583715 -1.2064019317537134 1.4542888675703503 -1.8186835163520358 -1.570796175476311 3.4514026578531247 0.026725951394583447 0.0029821074589924113 -0.004186180036966913 0.0012115209590360387 -8.722827049162136e-07 0.026728934015657124 3006.9620000000023
5.022814471702564 -1.2063332621363754 1.454192471519839 -1.8186556184034213 -1.5707961955625487 3.4520181506534175 0.0 0.0 0.0 0.0 0.0 0.0 3007.0120000000024
5.022814471702564 -1.2063332621363754 1.454192471519839 -1.8186556184034213 -1.5707961955625487 3.4520181506534175 0.0 0.0 0.0 0.0 0.0 0.0 3007.0620000000026
5.0228144646695245 -1.2060992651767715 1.4546656975756227 -1.8193628413239213 -1.570796195181164 3.4520181436701725 -2.8428535284553115e-07 0.009458487581256537 0.01912846551225085 -0.02858694925802406 1.5416104588219235e-08 -2.822726276223359e-07 3007.112000000003
5.022814421590161 -1.2046659671713615 1.4575643419127566 -1.8236947830852528 -1.5707961928450747 3.452018100895808 -9.689252262664257e-07 0.03223721211126489 0.06519524340270112 -0.09743244244154947 5.254246297523243e-08 -9.620652870441745e-07 3007.162000000003
5.02281432203822 -1.201353764194189 1.4642628082240063 -1.8337054510305535 -1.5707961874466148 3.4520180020486904 -1.831874255909961e-06 0.06094847914786017 0.1232597570582318 -0.18420821149105443 9.93380940625488e-08 -1.8189046833178927e-06 3007.212000000003
5.022814160005983 -1.1959627727376192 1.4751653328895968 -1.8499989649666286 -1.5707961786599998 3.452017841163632 -2.6914589618511826e-06 0.08954781142018024 0.18109789834083648 -0.2706456734487485 1.4595128604231233e-07 -2.672403575122707e-06 3007.2620000000034
5.022813941020551 -1.1886768856286762 1.4899000184397213 -1.8720195346712176 -1.5707961667849513 3.4520176237286053 -3.406377748592903e-06 0.11333394882866563 0.2292020275876212 -0.34253593045857234 1.8471959639730148e-07 -3.382260774764677e-06 3007.3120000000035
5.022813679260146 -1.1799678279453767 1.5075128670170483 -1.8983414374002598 -1.57079615259032 3.452017363821451 -3.875700905065703e-06 0.1289488484450595 0.26078097361080443 -0.3897297697661978 2.1016985190092968e-07 -3.8482611481767e-06 3007.3620000000037
5.022813394670402 -1.1704992129330667 1.5266618138392305 -1.9269589953951622 -1.570796137157709 3.452017081246587 -4.038870604627931e-06 0.13437768451240795 0.27176003369771773 -0.4061376637190284 2.190181486172449e-07 -4.010275614918513e-06 3007.412000000004
5.022813110080659 -1.1610305979207567 1.5458107606614129 -1.9555765533900642 -1.570796121725098 3.452016798671723 -3.875700905065703e-06 0.1289488484450595 0.26078097361080466 -0.3897297697661979 2.101698519009299e-07 -3.8482611481767e-06 3007.462000000004
5.022812848320254 -1.1523215402374571 1.5634236092387397 -1.9818984561191066 -1.5707961075304668 3.4520165387645685 -3.4063777485929013e-06 0.11333394882866576 0.2292020275876212 -0.3425359304585722 1.8471959639730148e-07 -3.382260774764676e-06 3007.5120000000043
5.022812629334822 -1.145035653128514 1.5781582947888642 -2.0039190258236954 -1.5707960956554183 3.4520163213295416 -2.691458961851182e-06 0.0895478114201802 0.18109789834083667 -0.2706456734487488 1.4595128604231211e-07 -2.6724035751227096e-06 3007.5620000000044
5.022812467302584 -1.1396446616719442 1.5890608194544547 -2.020212539759771 -1.5707960868688033 3.4520161604444835 -1.831874255909952e-06 0.0609484791478605 0.12325975705823122 -0.18420821149105437 9.93380940625491e-08 -1.8189046833178921e-06 3007.6120000000046
5.022812367750643 -1.1363324586947716 1.5957592857657044 -2.0302232077050713 -1.5707960814703434 3.452016061597366 -9.68925226266419e-07 0.032237212111264846 0.06519524340270078 -0.0974324424415487 5.2542462975232234e-08 -9.620652870441783e-07 3007.662000000005
5.02281232467128 -1.1348991606893617 1.5986579301028383 -2.034555149466403 -1.5707960791342541 3.4520160188230014 -2.8428535284552543e-07 0.009458487581256447 0.01912846551225078 -0.028586949258023964 1.5416104588219347e-08 -2.8227262762232924e-07 3007.712000000005
5.022812317638241 -1.1346651637297578 1.599131156158622 -2.035262372386903 -1.5707960787528694 3.4520160118397563 0.0 0.0 0.0 0.0 0.0 0.0 3007.762000000005
5.022812317638241 -1.1346651637297578 1.599131156158622 -2.035262372386903 -1.5707960787528694 3.4520160118397563 0.0 0.0 0.0 0.0 0.0 0.0 3007.8120000000054
5.022812317638241 -1.1346651637297578 1.599131156158622 -2.035262372386903 -1.5707960787528694 3.4520160118397563 0.0 0.0 0.0 0.0 0.0 0.0 3007.8620000000055
5.022812317638241 -1.1346651637297578 1.599131156158622 -2.035262372386903 -1.5707960787528694 3.4520160118397563 0.0 0.0 0.0 0.0 0.0 0.0 3007.9120000000057
5.022812317638241 -1.1346651637297578 1.599131156158622 -2.035262372386903 -1.5707960787528694 3.4520160118397563 0.0 0.0 0.0 0.0 0.0 0.0 3007.962000000006
5.022812317638241 -1.1346651637297578 1.599131156158622 -2.035262372386903 -1.5707960787528694 3.4520160118397563 0.0 0.0 0.0 0.0 0.0 0.0 3008.012000000006
5.022812317638241 -1.1346651637297578 1.599131156158622 -2.035262372386903 -1.5707960787528694 3.4520160118397563 0.0 0.0 0.0 0.0 0.0 0.0 3008.0620000000063
5.022812317638241 -1.1346651637297578 1.599131156158622 -2.035262372386903 -1.5707960787528694 3.4520160118397563 0.0 0.0 0.0 0.0 0.0 0.0 3008.1120000000064
5.022812317638241 -1.1346651637297578 1.599131156158622 -2.035262372386903 -1.5707960787528694 3.4520160118397563 0.0 0.0 0.0 0.0 0.0 0.0 3008.1620000000066
5.022812317638241 -1.1346651637297578 1.599131156158622 -2.035262372386903 -1.5707960787528694 3.4520160118397563 0.0 0.0 0.0 0.0 0.0 0.0 3008.212000000007
5.022812317638241 -1.1346651637297578 1.599131156158622 -2.035262372386903 -1.5707960787528694 3.4520160118397563 0.0 0.0 0.0 0.0 0.0 0.0 3008.262000000007
5.022812317638241 -1.1346651637297578 1.599131156158622 -2.035262372386903 -1.5707960787528694 3.4520160118397563 0.0 0.0 0.0 0.0 0.0 0.0 3008.312000000007
5.022812317638241 -1.1346651637297578 1.599131156158622 -2.035262372386903 -1.5707960787528694 3.4520160118397563 0.0 0.0 0.0 0.0 0.0 0.0 3008.3620000000074
5.022812317638241 -1.1346651637297578 1.599131156158622 -2.035262372386903 -1.5707960787528694 3.4520160118397563 0.0 0.0 0.0 0.0 0.0 0.0 3008.4120000000075
5.022812317638241 -1.1346651637297578 1.599131156158622 -2.035262372386903 -1.5707960787528694 3.4520160118397563 0.0 0.0 0.0 0.0 0.0 0.0 3008.4620000000077
5.02281232467128 -1.1348991606893617 1.5986579301028383 -2.034555149466403 -1.5707960791342541 3.4520160188230014 2.8428535284553115e-07 -0.009458487581256537 -0.01912846551225085 0.02858694925802406 -1.5416104588219235e-08 2.822726276223359e-07 3008.512000000008
5.022812367750643 -1.1363324586947716 1.5957592857657044 -2.0302232077050717 -1.5707960814703434 3.452016061597366 9.689252262664257e-07 -0.03223721211126489 -0.06519524340270112 0.09743244244154947 -5.254246297523243e-08 9.620652870441745e-07 3008.562000000008
5.022812467302584 -1.1396446616719442 1.5890608194544547 -2.020212539759771 -1.5707960868688033 3.4520161604444835 1.831874255909961e-06 -0.06094847914786017 -0.1232597570582318 0.18420821149105443 -9.93380940625488e-08 1.8189046833178927e-06 3008.6120000000083
5.022812629334822 -1.145035653128514 1.5781582947888642 -2.0039190258236954 -1.5707960956554183 3.4520163213295416 2.6914589618511826e-06 -0.08954781142018024 -0.18109789834083648 0.2706456734487485 -1.4595128604231233e-07 2.672403575122707e-06 3008.6620000000084
5.022812848320254 -1.152321540237457 1.5634236092387397 -1.9818984561191066 -1.5707961075304668 3.4520165387645685 3.406377748592903e-06 -0.11333394882866563 -0.2292020275876212 0.34253593045857234 -1.8471959639730148e-07 3.382260774764677e-06 3008.7120000000086
5.022813110080659 -1.1610305979207565 1.5458107606614127 -1.9555765533900644 -1.570796121725098 3.452016798671723 3.875700905065703e-06 -0.1289488484450595 -0.26078097361080443 0.3897297697661978 -2.1016985190092968e-07 3.8482611481767e-06 3008.762000000009
5.022813394670402 -1.1704992129330667 1.5266618138392305 -1.9269589953951622 -1.570796137157709 3.452017081246587 4.038870604627931e-06 -0.13437768451240795 -0.27176003369771773 0.4061376637190284 -2.190181486172449e-07 4.010275614918513e-06 3008.812000000009
5.022813679260146 -1.1799678279453767 1.5075128670170481 -1.8983414374002598 -1.57079615259032 3.452017363821451 3.875700905065703e-06 -0.1289488484450595 -0.26078097361080466 0.3897297697661979 -2.101698519009299e-07 3.8482611481767e-06 3008.862000000009
5.022813941020551 -1.1886768856286762 1.4899000184397213 -1.8720195346712178 -1.5707961667849513 3.4520176237286053 3.4063777485929013e-06 -0.11333394882866576 -0.2292020275876212 0.3425359304585722 -1.8471959639730148e-07 3.382260774764676e-06 3008.9120000000094
5.022814160005983 -1.1959627727376192 1.4751653328895968 -1.8499989649666289 -1.5707961786599998 3.452017841163632 2.691458961851182e-06 -0.0895478114201802 -0.18109789834083667 0.2706456734487488 -1.4595128604231211e-07 2.6724035751227096e-06 3008.9620000000095
5.02281432203822 -1.201353764194189 1.4642628082240063 -1.8337054510305535 -1.5707961874466148 3.4520180020486904 1.831874255909952e-06 -0.0609484791478605 -0.12325975705823122 0.18420821149105437 -9.93380940625491e-08 1.8189046833178921e-06 3009.0120000000097
5.022814421590161 -1.2046659671713615 1.4575643419127566 -1.8236947830852528 -1.5707961928450747 3.452018100895808 9.68925226266419e-07 -0.032237212111264846 -0.06519524340270078 0.0974324424415487 -5.2542462975232234e-08 9.620652870441783e-07 3009.06200000001
5.0228144646695245 -1.2060992651767715 1.4546656975756227 -1.8193628413239211 -1.570796195181164 3.4520181436701725 2.8428535284552543e-07 -0.009458487581256447 -0.01912846551225078 0.028586949258023964 -1.5416104588219347e-08 2.8227262762232924e-07 3009.11200000001
5.022814471702564 -1.2063332621363754 1.454192471519839 -1.8186556184034215 -1.5707961955625487 3.4520181506534175 0.0 0.0 0.0 0.0 0.0 0.0 3009.1620000000103
5.022814471702564 -1.2063332621363754 1.454192471519839 -1.8186556184034213 -1.5707961955625487 3.4520181506534175 0.0 0.0 0.0 0.0 0.0 0.0 3009.2120000000104
5.022707652119749 -1.206341486370966 1.4542034106366117 -1.818658333285851 -1.5707961955653587 3.451911331070598 -0.018424422587977798 -0.0014185299134095069 0.0018867973909525986 -0.00046826752029325484 -4.846801945865128e-10 -0.01842442258881291 3009.2620000000106
5.0219821289244875 -1.2063973457256045 1.4542777095876567 -1.818676772883941 -1.5707961955844447 3.4511858078753033 -0.07113448967177394 -0.0054767741562969695 0.007284698821824991 -0.0018079248305812833 -1.8712922009520517e-09 -0.0711344896749982 3009.312000000011
5.020079230744857 -1.2065438533286021 1.4544725804610006 -1.8187251361587025 -1.5707961956345031 3.4492829096955866 -0.15438747459455082 -0.011886573374137835 0.015810421350780084 -0.003923848334867302 -4.061378361839893e-09 -0.15438747460154867 3009.362000000011
5.016503642710337 -1.2068191443756227 1.4548387471694788 -1.8188160118284566 -1.5707961957285639 3.445707321660904 -0.26457674985062857 -0.02037024673439026 0.027094619597502135 -0.006724373477008956 -6.96006129843901e-09 -0.26457674986262086 3009.412000000011
5.010821059914718 -1.2072566567938556 1.4554206857535212 -1.8189604380074513 -1.570796195878052 3.440024738865028 -0.3982317870854851 -0.030660591926495114 0.04078188574319675 -0.010121294740718321 -1.0476043910384078e-08 -0.3982317871035356 3009.4620000000114
5.002655840879015 -1.207885311906187 1.4562568646839358 -1.8191679618444803 -1.5707961960928496 3.4318595198289548 -0.552018157095756 -0.04250088516187597 0.05653074953059087 -0.014029865649561896 -1.4521609375755466e-08 -0.552018157120777 3009.5120000000115
4.9916886610143765 -1.208729695095372 1.4573799851646942 -1.8194466991615008 -1.5707961963813566 3.4208923399638196 -0.7227375298292344 -0.05564488117393913 0.07401367826393282 -0.018368798766960615 -1.9012621151079246e-08 -0.7227375298619936 3009.5620000000117
4.977654166084997 -1.209810236468208 1.458817221435717 -1.819803394092252 -1.5707961967505537 3.4068578450338034 -0.9073276743848715 -0.06985681321807359 0.09291707680899224 -0.02306026569618984 -2.3868522971327194e-08 -0.9073276744259975 3009.612000000012
4.960338625671025 -1.2111433915197045 1.4605904610756573 -1.820243478720873 -1.5707961972060631 3.3895423046190474 -1.1028624590127762 -0.08491139307165106 0.1129412875930601 -0.028029897080379347 -2.9012338849916777e-08 -1.1028624590627654 3009.662000000012
4.93957758663148 -1.2127418217972576 1.462716545304687 -1.8207711327205214 -1.5707961977522114 3.368781265578561 -1.3065518511142153 -0.10059381103402598 0.13380059060494884 -0.03320678260251337 -3.437067307871116e-08 -1.3065518511734366 3009.7120000000123
4.915253526567158 -1.2146145755648208 1.4652075092872807 -1.821389342991991 -1.5707961983920897 3.3444572055131365 -1.515741917241612 -0.11669973592653544 0.15522320339499202 -0.038523470985430526 -3.98737102280192e-08 -1.5157419173103153 3009.7620000000124
4.887293507283545 -1.2167672684670772 1.4680708224350008 -1.8220999633023303 -1.5707961991276171 3.3164971862282555 -1.7279148230985497 -0.13303531509249936 0.1769512810750448 -0.04391596999182393 -4.5455215146595514e-08 -1.72791482317687 3009.8120000000126
4.855666828253725 -1.219202264193612 1.4713096287092822 -1.8229037739234601 -1.5707961999596012 3.2848705071970032 -1.940688833539767 -0.14941717439722024 0.19874091631848356 -0.04932374642424104 -5.105253296164031e-08 -1.9406888336277315 3009.862000000013
4.820382680081301 -1.2219188551430846 1.474922986924218 -1.8238005412707932 -1.5707962008878 3.249586359022979 -2.151818312571162 -0.16567241822798331 0.22036213936020596 -0.05468972612508382 -5.660658907879958e-08 -2.151818312668696 3009.912000000013
4.78148779796329 -1.2249134430874002 1.4789061110493429 -1.8247890775418503 -1.5707962019109842 3.2106914769032056 -2.3591937233497897 -0.1816386294940567 0.24159891799663127 -0.059960293976608604 -6.206188918216498e-08 -2.3591937234567233 3009.962000000013
4.739064115153049 -1.2281797198358824 1.4832506105124192 -1.82586730035488 -1.5707962030269984 3.1682677940910415 -2.5608416281838613 -0.1971638696266909 0.26224915758569967 -0.0650852939009262 -6.736651923427388e-08 -2.560841628299935 3010.0120000000134
4.693226416423177 -1.2317088478994453 1.4879447305022218 -1.8270322923874767 -1.5707962042328232 3.122430095359092 -2.75492468853275 -0.2121066785791194 0.28212470104687315 -0.0700180288600018 -7.247214547610932e-08 -2.7549246886576215 3010.0620000000135
4.644119991528431 -1.2354896411547656 1.4929735922713214 -1.8282803610151976 -1.5707962055246365 3.0733236704621203 -2.9397416650069834 -0.2263360748265584 0.3010513288611348 -0.07471526085565507 -7.73340144271001e-08 -2.939741665140232 3010.1120000000137
4.591918288668634 -1.239508745508454 1.4983194334388712 -1.8296070979501826 -1.5707962068978751 3.0211219675999565 -3.1137274173682474 -0.2397315553662066 0.31886875907098916 -0.07913721092956008 -8.191095288512065e-08 -3.113727417509382 3010.162000000014
4.536820567951587 -1.2437508195612286 1.5039618482933912 -1.8310074388797712 -1.5707962083472977 2.966024246880412 -3.275452904529387 -0.2521830957172456 0.33543064728046196 -0.08324755916324532 -8.616536792649116e-08 -3.2754529046778513 3010.212000000014
4.47904955485598 -1.248198715272086 1.5098780280955526 -1.8324757231051212 -1.570796209867045 2.9082532337821867 -3.4236251845544015 -0.2635911499208397 0.3506045866551004 -0.08701344467809374 -9.006324690597749e-08 -3.423625184709583 3010.2620000000143
