Andreas691667/Digital_Twin_UR/src/dt/dt_trajectories/E5_dt_trajectory.csv
actual_q_0 actual_q_1 actual_q_2 actual_q_3 actual_q_4 actual_q_5 timestamp
3.71207804710797 -0.8254843255005873 0.8429764792549035 -1.5882884806323445 -1.570796326807946 2.141281720311417 4625.831999999999
3.71207804710797 -0.8254843255005873 0.8429764792549035 -1.5882884806323445 -1.570796326807946 2.141281720311417 4625.882
3.71207804710797 -0.8254843255005873 0.8429764792549035 -1.5882884806323445 -1.570796326807946 2.141281720311417 4625.932
3.71207804710797 -0.8254843255005873 0.8429764792549035 -1.5882884806323445 -1.570796326807946 2.141281720311417 4625.982
3.71207804710797 -0.8254843255005873 0.8429764792549035 -1.5882884806323445 -1.570796326807946 2.141281720311417 4626.032
3.71207804710797 -0.8254843255005873 0.8429764792549035 -1.5882884806323445 -1.570796326807946 2.141281720311417 4626.082
3.71207804710797 -0.8254843255005873 0.8429764792549035 -1.5882884806323445 -1.570796326807946 2.141281720311417 4626.1320000000005
3.71207804710797 -0.8254843255005873 0.8429764792549035 -1.5882884806323445 -1.570796326807946 2.141281720311417 4626.182000000001
3.71207804710797 -0.8254843255005873 0.8429764792549035 -1.5882884806323445 -1.570796326807946 2.141281720311417 4626.232000000001
3.71207804710797 -0.8254843255005873 0.8429764792549035 -1.5882884806323445 -1.570796326807946 2.141281720311417 4626.282000000001
3.71207804710797 -0.8254843255005873 0.8429764792549035 -1.5882884806323445 -1.570796326807946 2.141281720311417 4626.332000000001
3.71207804710797 -0.8254843255005873 0.8429764792549035 -1.5882884806323445 -1.570796326807946 2.141281720311417 4626.382000000001
3.71207804710797 -0.8254843255005873 0.8429764792549035 -1.5882884806323445 -1.570796326807946 2.141281720311417 4626.432000000002
3.712302100445105 -0.8255991797814494 0.8431504756584648 -1.5883476227577187 -1.5707963268629916 2.1415057736482686 4626.482000000002
3.7137951763049775 -0.8263645607231098 0.8443099755935445 -1.588741741768964 -1.5707963272298118 2.142998849506254 4626.532000000002
3.717625071132552 -0.8283278424212271 0.8472842134894762 -1.5897526980125036 -1.5707963281707442 2.146828744328989 4626.582000000002
3.724651864131218 -0.8319299189042199 0.8527411137346294 -1.5916075218585575 -1.5707963298970935 2.153855537318775 4626.632000000002
3.7355408995903905 -0.837511859137468 0.8611973725539686 -1.5944818405746537 -1.5707963325723222 2.164744572764187 4626.6820000000025
3.7507757692131087 -0.845321562027516 0.8730285398866147 -1.5985033051991422 -1.5707963363152397 2.179979442367652 4626.732000000003
3.7706712944436314 -0.8555204114262757 0.8884791012634048 -1.6037550174147068 -1.5707963412031918 2.1998749675730322 4626.782000000003
3.795386508795039 -0.8681899311352279 0.9076725596844525 -1.6102789564218791 -1.5707963472752495 2.2245901818932063 4626.832000000003
3.824937640176829 -0.8833384399096261 0.9306215174967081 -1.6180794058125498 -1.5707963545354002 2.2541413132376515 4626.882000000003
3.859211093222516 -0.9009077064626979 0.9572377582715189 -1.6271263804434823 -1.5707963629557353 2.288414766240026 4626.932000000003
3.8979764316172294 -0.9207796044698482 0.9873423286821899 -1.6373590533098255 -1.5707963724796412 2.3271801045857505 4626.982000000004
3.9408993604253117 -0.9427827675728616 1.0206756203815437 -1.648689182418626 -1.570796383024988 2.37010303333959 4627.032000000004
3.987554708417918 -0.9666992443841051 1.0569074518794808 -1.6610045376623415 -1.5707963944873191 2.416758381273236 4627.082000000004
4.037439410400611 -0.9922711534907303 1.0956471504205398 -1.6741723276923528 -1.570796406743041 2.4666430831928885 4627.132000000004
4.089985489540965 -1.0192073384588758 1.1364536338614584 -1.6880426267924775 -1.5707964196526127 2.519189162266838 4627.182000000004
4.144573039696158 -1.0471900228378708 1.1788454925487324 -1.7024518017524817 -1.570796433063735 2.5737767123530473 4627.2320000000045
4.200543207740575 -1.0758814651644362 1.222311071196177 -1.7172259387415933 -1.5707964468145401 2.6297468803267323 4627.282000000005
4.257211175893402 -1.104930613966888 1.2663185507624877 -1.7321842701820154 -1.5707964607367817 2.6864148484079466 4627.332000000005
4.313879144046229 -1.1339797627693398 1.310326030328798 -1.7471426016224372 -1.570796474659023 2.743082816489161 4627.382000000005
4.369849312090646 -1.1626712050959052 1.353791608976243 -1.761916738611549 -1.5707964884098282 2.799052984462847 4627.432000000005
4.424436862245839 -1.1906538894749001 1.3961834676635165 -1.776325913571553 -1.5707965018209504 2.853640534549055 4627.482000000005
4.476982941386193 -1.2175900744430457 1.4369899511044353 -1.7901962126716777 -1.570796514730522 2.906186613623005 4627.532000000006
4.526867643368886 -1.2431619835496708 1.4757296496454944 -1.803364002701689 -1.570796526986244 2.956071315542658 4627.582000000006
4.573522991361491 -1.267078460360914 1.5119614811434312 -1.8156793579454045 -1.5707965384485751 3.0027266634763032 4627.632000000006
4.616445920169575 -1.289081623463928 1.5452947728427855 -1.8270094870542053 -1.570796548993922 3.0456495922301436 4627.682000000006
4.655211258564289 -1.3089535214710786 1.575399343253457 -1.8372421599205484 -1.5707965585178278 3.0844149305758686 4627.732000000006
4.689484711609975 -1.3265227880241497 1.602015584028267 -1.8462891345514807 -1.570796566938163 3.118688383578242 4627.7820000000065
4.719035842991765 -1.3416712967985478 1.6249645418405225 -1.8540895839421516 -1.5707965741983136 3.1482395149226874 4627.832000000007
4.743751057343172 -1.3543408165075 1.6441580002615697 -1.8606135229493235 -1.5707965802703714 3.1729547292428615 4627.882000000007
4.7636465825736956 -1.3645396659062594 1.65960856163836 -1.8658652351648883 -1.5707965851583234 3.192850254448242 4627.932000000007
4.778881452196413 -1.3723493687963073 1.6714397289710057 -1.8698866997893768 -1.570796588901241 3.2080851240517068 4627.982000000007
4.789770487655584 -1.3779313090295555 1.6798959877903443 -1.8727610185054726 -1.5707965915764697 3.218974159497118 4628.032000000007
4.7967972806542525 -1.3815333855125485 1.6853528880354989 -1.8746158423515267 -1.570796593302819 3.2260009524869053 4628.082000000008
4.800627175481825 -1.383496667210665 1.688327125931429 -1.875626798595066 -1.5707965942437514 3.229830847309638 4628.132000000008
4.802120251341698 -1.3842620481523258 1.6894866258665089 -1.8760209176063116 -1.5707965946105715 3.2313239231676256 4628.182000000008
4.802344304678834 -1.3843769024331887 1.689660622270071 -1.8760800597316858 -1.5707965946656173 3.231547976504478 4628.232000000008
4.802344304678834 -1.384376902433189 1.6896606222700719 -1.8760800597316862 -1.5707965946656173 3.2315479765044763 4628.282000000008
4.802344307386492 -1.384147745783343 1.6900552203559738 -1.8767038144324433 -1.5707965939491735 3.2315479792158253 4628.3320000000085
4.802344324132375 -1.3827304948337065 1.6924956667159023 -1.8805615115256038 -1.5707965895182276 3.2315479959845366 4628.382000000009
4.802344363315421 -1.3794143239348313 1.6982059731377366 -1.8895879883399567 -1.5707965791504284 3.2315480352209986 4628.432000000009
4.802344428055237 -1.3739352121312087 1.7076407725712601 -1.9045018987404798 -1.5707965620203306 3.231548100049069 4628.482000000009
4.802344517151974 -1.366394705944188 1.720625206189633 -1.9250268373944897 -1.5707965384454132 3.2315481892672646 4628.532000000009
4.802344626046208 -1.3571786821548983 1.736494810450864 -1.9501124640377867 -1.5707965096320957 3.2315482983099457 4628.582000000009
4.80234474777882 -1.3468761105871672 1.7542354041592816 -1.978155627740803 -1.5707964774217549 3.231548420208505 4628.63200000001
4.8023448739508705 -1.3361978168904423 1.7726229755270069 -2.0072214911747506 -1.5707964440367426 3.2315485465525557 4628.68200000001
4.802344995683482 -1.325895245322711 1.7903635692354243 -2.035264654877767 -1.5707964118264017 3.231548668451115 4628.73200000001
4.802345104577716 -1.3166792215334213 1.8062331734966552 -2.060350281521064 -1.5707963830130842 3.231548777493796 4628.78200000001
4.802345193674453 -1.3091387153464007 1.8192176071150283 -2.0808752201750735 -1.5707963594381669 3.2315488667119916 4628.83200000001
4.802345258414269 -1.3036596035427779 1.8286524065485519 -2.0957891305755973 -1.570796342308069 3.231548931540062 4628.8820000000105
4.8023452975973155 -1.3003434326439027 1.8343627129703863 -2.1048156073899498 -1.5707963319402698 3.231548970776524 4628.932000000011
4.8023453143431984 -1.2989261816942663 1.8368031593303147 -2.1086733044831103 -1.570796327509324 3.2315489875452355 4628.982000000011
4.8023453170508565 -1.2986970250444205 1.8371977574162166 -2.1092970591838673 -1.5707963267928802 3.2315489902565844 4629.032000000011
4.8023453170508565 -1.2986970250444205 1.8371977574162166 -2.1092970591838673 -1.5707963267928802 3.2315489902565844 4629.082000000011
4.8023453170508565 -1.2986970250444205 1.8371977574162166 -2.1092970591838673 -1.5707963267928802 3.2315489902565844 4629.132000000011
4.8023453170508565 -1.2986970250444205 1.8371977574162166 -2.1092970591838673 -1.5707963267928802 3.2315489902565844 4629.182000000012
4.8023453170508565 -1.2986970250444205 1.8371977574162166 -2.1092970591838673 -1.5707963267928802 3.2315489902565844 4629.232000000012
4.8023453170508565 -1.2986970250444205 1.8371977574162166 -2.1092970591838673 -1.5707963267928802 3.2315489902565844 4629.282000000012
4.8023453170508565 -1.2986970250444205 1.8371977574162166 -2.1092970591838673 -1.5707963267928802 3.2315489902565844 4629.332000000012
4.8023453170508565 -1.2986970250444205 1.8371977574162166 -2.1092970591838673 -1.5707963267928802 3.2315489902565844 4629.382000000012
4.8023453170508565 -1.2986970250444205 1.8371977574162166 -2.1092970591838673 -1.5707963267928802 3.2315489902565844 4629.4320000000125
4.8023453170508565 -1.2986970250444205 1.8371977574162166 -2.1092970591838673 -1.5707963267928802 3.2315489902565844 4629.482000000013
4.8023453170508565 -1.2986970250444205 1.8371977574162166 -2.1092970591838673 -1.5707963267928802 3.2315489902565844 4629.532000000013
4.8023453170508565 -1.2986970250444205 1.8371977574162166 -2.1092970591838673 -1.5707963267928802 3.2315489902565844 4629.582000000013
4.8023453170508565 -1.2986970250444205 1.8371977574162166 -2.1092970591838673 -1.5707963267928802 3.2315489902565844 4629.632000000013
4.8023453170508565 -1.2986970250444205 1.8371977574162166 -2.1092970591838673 -1.5707963267928802 3.2315489902565844 4629.682000000013
4.8023453170508565 -1.2986970250444205 1.8371977574162166 -2.1092970591838673 -1.5707963267928802 3.2315489902565844 4629.732000000014
4.8023453143431984 -1.2989261816942663 1.8368031593303147 -2.1086733044831103 -1.570796327509324 3.2315489875452355 4629.782000000014
4.8023452975973155 -1.300343432643903 1.8343627129703861 -2.1048156073899498 -1.5707963319402698 3.231548970776524 4629.832000000014
4.802345258414269 -1.303659603542778 1.8286524065485519 -2.095789130575597 -1.570796342308069 3.231548931540062 4629.882000000014
4.802345193674453 -1.3091387153464007 1.8192176071150283 -2.0808752201750735 -1.5707963594381669 3.2315488667119916 4629.932000000014
4.802345104577716 -1.3166792215334213 1.8062331734966555 -2.060350281521064 -1.5707963830130842 3.231548777493796 4629.9820000000145
4.802344995683482 -1.325895245322711 1.7903635692354245 -2.035264654877767 -1.5707964118264017 3.231548668451115 4630.032000000015
4.8023448739508705 -1.3361978168904423 1.7726229755270069 -2.0072214911747506 -1.5707964440367426 3.2315485465525557 4630.082000000015
4.80234474777882 -1.3468761105871672 1.7542354041592816 -1.978155627740803 -1.5707964774217549 3.231548420208505 4630.132000000015
4.802344626046208 -1.3571786821548981 1.7364948104508642 -1.9501124640377867 -1.5707965096320957 3.2315482983099457 4630.182000000015
4.802344517151974 -1.366394705944188 1.7206252061896332 -1.9250268373944899 -1.5707965384454132 3.2315481892672646 4630.232000000015
4.802344428055237 -1.3739352121312087 1.7076407725712601 -1.90450189874048 -1.5707965620203306 3.231548100049069 4630.282000000016
4.802344363315421 -1.3794143239348315 1.6982059731377366 -1.8895879883399564 -1.5707965791504284 3.2315480352209986 4630.332000000016
4.802344324132375 -1.3827304948337067 1.6924956667159021 -1.8805615115256038 -1.5707965895182276 3.2315479959845366 4630.382000000016
4.802344307386492 -1.384147745783343 1.6900552203559738 -1.876703814432443 -1.5707965939491735 3.2315479792158253 4630.432000000016
4.802344304678834 -1.384376902433189 1.6896606222700719 -1.8760800597316862 -1.5707965946656173 3.2315479765044763 4630.482000000016
4.802344304678834 -1.384376902433189 1.6896606222700719 -1.8760800597316862 -1.5707965946656173 3.2315479765044763 4630.5320000000165
4.802218822343209 -1.3843766781623514 1.6896603477686656 -1.8760800095003098 -1.5707965946490787 3.231422494168937 4630.582000000017
4.801368484365914 -1.3843751583786361 1.6896584875947263 -1.8760796691046129 -1.5707965945370035 3.230572156192218 4630.632000000017
4.799144106848085 -1.384371182815015 1.6896536216129634 -1.876078778672155 -1.5707965942438291 3.228347778675899 4630.682000000017
4.794976160356982 -1.3843637335685124 1.6896445039378152 -1.8760771102166842 -1.5707965936944908 3.2241798321876245 4630.732000000017
4.7883715837473355 -1.3843519294056432 1.6896300559634596 -1.8760744663626903 -1.570796592824003 3.2175752555824597 4630.782000000017
4.778910597982704 -1.3843350200678508 1.6896093593938257 -1.8760706790699573 -1.5707965915770388 3.2081142698242484 4630.832000000018
4.766243519956832 -1.3843123805769446 1.6895816492726032 -1.8760656083581149 -1.5707965899075091 3.1954471918069713 4630.882000000018
4.750087576314998 -1.3842835055405383 1.6895463070132548 -1.876059141031192 -1.570796587778145 3.179291248176102 4630.932000000018
4.730223717275382 -1.384248003457487 1.6895028534290257 -1.8760511894021688 -1.5707965851600747 3.1594273891499647 4630.982000000018
4.706493430450407 -1.3842055910233269 1.6894509417629557 -1.8760416900175292 -1.5707965820324068 3.135697102341093 4631.032000000018
4.6787955546681035 -1.3841560874357106 1.689390350717889 -1.8760306023818132 -1.5707965783818079 3.1079992265775855 4631.0820000000185
4.647083093793463 -1.3840994086998475 1.689320977486485 -1.8760179076821688 -1.5707965742020837 3.076286765724465 4631.132000000019
4.611360030549791 -1.3840355619339404 1.689242830781231 -1.8760036075129058 -1.5707965694937598 3.0405637025050343 4631.182000000019
4.571678140340064 -1.383964639674623 1.6891560238644503 -1.875987722600047 -1.5707965642636594 3.000881812322235 4631.232000000019
4.5281338050682844 -1.383886814182399 1.689060767578315 -1.8759702915258811 -1.5707965585244865 2.9573374770800043 4631.282000000019
4.480864826960836 -1.3838023317470793 1.688957363374856 -1.8759513694535155 -1.570796552294403 2.910068499004633 4631.332000000019
4.43004724238784 -1.3837115069932202 1.6888461963459744 -1.8759310268514275 -1.5707965455966106 2.859250914466121 4631.38200000002
4.3758921356845075 -1.3836147171855606 1.6887277282534516 -1.8759093482180182 -1.5707965384589306 2.805095807799538 4631.43200000002
4.318642452972498 -1.3835123965344605 1.688602490558961 -1.8758864308061645 -1.5707965309133833 2.7478461251263777 4631.48200000002
4.258569815981273 -1.3834050305013394 1.6884710774540777 -1.8758623833477708 -1.5707965229957688 2.6877734881759183 4631.53200000002
4.195971335869454 -1.3832931501041128 1.6883341388902908 -1.8758373247783222 -1.5707965147452465 2.6251750081065772 4631.58200000002
4.13116642704617 -1.3831773262226317 1.6881923736090134 -1.8758113829614371 -1.5707965062039153 2.56037009932727 4631.6320000000205
4.064493620992424 -1.3830581639041188 1.6880465221715932 -1.8757846934134188 -1.570796497416394 2.493697293318768 4631.682000000021
3.996307380082441 -1.3829362966686083 1.6878973599893237 -1.8757573980278084 -1.570796488429401 2.4255110524550547 4631.732000000021
3.926974911405021 -1.382812380814382 1.6877456903534551 -1.8757296437999376 -1.5707964792913343 2.3561785838246845 4631.782000000021
3.8568729805849036 -1.3826870897234085 1.6875923374652055 -1.8757015815514806 -1.570796470051852 2.2860766530521373 4631.832000000021
3.7863847256041145 -1.3825611081667801 1.6874381394657707 -1.8756733646550066 -1.570796460761452 2.2155883981191815 4631.882000000021
3.7158964706233264 -1.3824351266101518 1.6872839414663359 -1.8756451477585327 -1.570796451471052 2.1451001431862258 4631.932000000022
3.645794539803209 -1.3823098355191783 1.6871305885780863 -1.8756170855100758 -1.5707964422315697 2.074998212413679 4631.982000000022
3.576462071125788 -1.382185919664952 1.6869789189422177 -1.875589331282205 -1.570796433093503 2.0056657437833074 4632.032000000022
3.508275830215805 -1.3820640524294414 1.6868297567599482 -1.8755620358965945 -1.57079642410651 1.9374795029195948 4632.082000000022
3.4416030241620597 -1.3819448901109286 1.686683905322528 -1.8755353463485762 -1.5707964153189886 1.870806696911093 4632.132000000022
3.3767981153387763 -1.3818290662294475 1.6865421400412506 -1.8755094045316911 -1.5707964067776574 1.806001788131786 4632.1820000000225
3.314199635226956 -1.3817171858322208 1.6864052014774638 -1.8754843459622426 -1.5707963985271352 1.7434033080624447 4632.232000000023
3.254126998235731 -1.3816098197990998 1.6862737883725805 -1.8754602985038489 -1.5707963906095206 1.683330671111985 4632.282000000023
3.196877315523723 -1.3815074991479996 1.6861485506780898 -1.875437381091995 -1.5707963830639733 1.6260809884388259 4632.332000000023
3.1427222088203894 -1.38141070934034 1.686030082585567 -1.8754157024585858 -1.5707963759262933 1.5719258817722421 4632.382000000023
3.091904624247393 -1.381319884586481 1.6859189155566854 -1.8753953598564979 -1.570796369228501 1.5211082972337298 4632.432000000023
3.0446356461399438 -1.3812354021511613 1.6858155113532265 -1.8753764377841322 -1.5707963629984174 1.4738393191583563 4632.482000000024
3.001091310868164 -1.3811575766589372 1.6857202550670911 -1.8753590067099664 -1.5707963572592445 1.4302949839161272 4632.532000000024
2.9614094206584394 -1.3810866543996199 1.6856334481503104 -1.8753431217971075 -1.5707963520291441 1.39061309373333 4632.582000000024
2.925686357414766 -1.3810228076337128 1.6855553014450564 -1.8753288216278445 -1.5707963473208202 1.3548900305138978 4632.632000000024
2.8939738965401256 -1.3809661288978496 1.6854859282136525 -1.8753161269282002 -1.570796343141096 1.323177569660778 4632.682000000024
2.866276020757823 -1.3809166253102334 1.6854253371685857 -1.8753050392924842 -1.5707963394904971 1.2954796938972692 4632.7320000000245
2.8425457339328464 -1.3808742128760731 1.6853734255025157 -1.8752955399078446 -1.5707963363628292 1.2717494070883972 4632.782000000025
2.8226818748932283 -1.380838710793022 1.6853299719182866 -1.8752875882788214 -1.570796333744759 1.2518855480622577 4632.832000000025
2.8065259312513966 -1.3808098357566156 1.6852946296589382 -1.8752811209518985 -1.5707963316153948 1.2357296044313903 4632.882000000025
2.7938588532255273 -1.3807871962657094 1.6852669195377157 -1.875276050240056 -1.5707963299458652 1.223062526414116 4632.932000000025
2.7843978674608927 -1.380770286927917 1.6852462229680818 -1.875272262947323 -1.5707963286989008 1.213601540655902 4632.982000000025
2.7777932908512466 -1.3807584827650479 1.6852317749937262 -1.8752696190933291 -1.5707963278284132 1.206996964050738 4633.032000000026
2.7736253443601444 -1.3807510335185453 1.685222657318578 -1.8752679506378584 -1.5707963272790748 1.2028290175624634 4633.082000000026
2.7714009668423145 -1.3807470579549241 1.6852177913368152 -1.8752670602054005 -1.5707963269859004 1.2006046400461425 4633.132000000026
2.7705506288650183 -1.3807455381712088 1.6852159311628758 -1.8752667198097035 -1.5707963268738252 1.1997543020694224 4633.182000000026
2.7704251465293916 -1.3807453139003714 1.6852156566614696 -1.875266669578327 -1.5707963268572867 1.199628819733885 4633.232000000026
2.770425146529396 -1.3807453139003714 1.6852156566614696 -1.875266669578327 -1.5707963268572867 1.1996288197338867 4633.2820000000265
2.7704251465977157 -1.3805168806108037 1.6856099205870532 -1.875889366793515 -1.5707963268612652 1.1996288198022016 4633.332000000027
2.770425147020249 -1.37910410338271 1.6880483002863422 -1.8797405237211244 -1.5707963268858711 1.1996288202247054 4633.382000000027
2.770425148008917 -1.3757984003725279 1.693753771008562 -1.888751697454057 -1.5707963269434453 1.1996288212133055 4633.432000000027
2.7704251496424352 -1.3703365840383621 1.7031805807034248 -1.903640323483962 -1.5707963270385719 1.1996288228467105 4633.482000000027
2.770425151890528 -1.3628198803578648 1.7161540186210413 -1.9241304650832824 -1.5707963271694878 1.1996288250946479 4633.532000000027
2.770425154638152 -1.3536329480461127 1.732010183911832 -1.9491735626872997 -1.5707963273294936 1.199628827842082 4633.582000000028
2.770425157709715 -1.3433628977734864 1.749735754226439 -1.977169183276181 -1.5707963275083634 1.1996288309134322 4633.632000000028
2.7704251608932937 -1.3327183113835483 1.7681077543156363 -2.0061857697570247 -1.5707963276937567 1.199628834096791 4633.682000000028
2.7704251639648567 -1.322448261110922 1.7858333246302431 -2.034181390345906 -1.5707963278726265 1.1996288371681414 4633.732000000028
2.7704251667124806 -1.3132613287991701 1.8016894899210338 -2.0592244879499235 -1.5707963280326322 1.1996288399155755 4633.782000000028
2.7704251689605734 -1.3057446251186726 1.8146629278386504 -2.0797146295492435 -1.5707963281635482 1.1996288421635128 4633.8320000000285
2.7704251705940917 -1.3002828087845069 1.8240897375335132 -2.094603255579149 -1.5707963282586748 1.1996288437969178 4633.882000000029
2.77042517158276 -1.2969771057743245 1.8297952082557332 -2.1036144293120818 -1.570796328316249 1.199628844785518 4633.932000000029
2.770425172005293 -1.2955643285462308 1.832233587955022 -2.107465586239691 -1.5707963283408548 1.1996288452080217 4633.982000000029
2.7704251720736126 -1.2953358952566634 1.8326278518806056 -2.1080882834548786 -1.5707963283448334 1.1996288452763366 4634.032000000029
2.7704251720736126 -1.2953358952566634 1.8326278518806056 -2.1080882834548786 -1.5707963283448334 1.1996288452763366 4634.082000000029
2.7704251720736126 -1.2953358952566634 1.8326278518806056 -2.1080882834548786 -1.5707963283448334 1.1996288452763366 4634.13200000003
2.7704251720736126 -1.2953358952566634 1.8326278518806056 -2.1080882834548786 -1.5707963283448334 1.1996288452763366 4634.18200000003
2.7704251720736126 -1.2953358952566634 1.8326278518806056 -2.1080882834548786 -1.5707963283448334 1.1996288452763366 4634.23200000003
2.7704251720736126 -1.2953358952566634 1.8326278518806056 -2.1080882834548786 -1.5707963283448334 1.1996288452763366 4634.28200000003
2.7704251720736126 -1.2953358952566634 1.8326278518806056 -2.1080882834548786 -1.5707963283448334 1.1996288452763366 4634.33200000003
2.770425172005293 -1.295564328546231 1.832233587955022 -2.107465586239691 -1.5707963283408548 1.1996288452080217 4634.3820000000305
2.77042517158276 -1.2969771057743247 1.829795208255733 -2.1036144293120813 -1.570796328316249 1.199628844785518 4634.432000000031
2.7704251705940917 -1.3002828087845069 1.8240897375335132 -2.0946032555791487 -1.5707963282586748 1.1996288437969178 4634.482000000031
2.7704251689605734 -1.3057446251186726 1.8146629278386504 -2.0797146295492435 -1.5707963281635482 1.1996288421635128 4634.532000000031
2.7704251667124806 -1.31326132879917 1.8016894899210338 -2.0592244879499235 -1.5707963280326322 1.1996288399155755 4634.582000000031
2.7704251639648567 -1.322448261110922 1.7858333246302431 -2.034181390345906 -1.5707963278726265 1.1996288371681414 4634.632000000031
2.7704251608932937 -1.3327183113835483 1.7681077543156363 -2.0061857697570247 -1.5707963276937567 1.199628834096791 4634.682000000032
2.770425157709715 -1.3433628977734864 1.749735754226439 -1.977169183276181 -1.5707963275083634 1.1996288309134322 4634.732000000032
2.770425154638152 -1.3536329480461127 1.732010183911832 -1.9491735626872997 -1.5707963273294936 1.199628827842082 4634.782000000032
2.770425151890528 -1.3628198803578646 1.7161540186210413 -1.9241304650832824 -1.5707963271694878 1.1996288250946479 4634.832000000032
2.7704251496424352 -1.3703365840383621 1.7031805807034248 -1.9036403234839623 -1.5707963270385719 1.1996288228467105 4634.882000000032
2.770425148008917 -1.3757984003725279 1.693753771008562 -1.8887516974540568 -1.5707963269434453 1.1996288212133055 4634.9320000000325
2.770425147020249 -1.3791041033827103 1.688048300286342 -1.879740523721124 -1.5707963268858711 1.1996288202247054 4634.982000000033
2.7704251465977157 -1.380516880610804 1.6856099205870532 -1.8758893667935146 -1.5707963268612652 1.1996288198022016 4635.032000000033
2.770425146529396 -1.3807453139003714 1.6852156566614696 -1.8752666695783269 -1.5707963268572867 1.1996288197338867 4635.082000000033
2.770425146529396 -1.3807453139003714 1.6852156566614696 -1.8752666695783269 -1.5707963268572867 1.1996288197338867 4635.132000000033
2.770425146529396 -1.3807453139003714 1.6852156566614696 -1.8752666695783269 -1.5707963268572867 1.1996288197338867 4635.182000000033
2.770425146529396 -1.3807453139003714 1.6852156566614696 -1.8752666695783269 -1.5707963268572867 1.1996288197338867 4635.232000000034
2.770425146529396 -1.3807453139003714 1.6852156566614696 -1.8752666695783269 -1.5707963268572867 1.1996288197338867 4635.282000000034
2.770425146529396 -1.3807453139003714 1.6852156566614696 -1.8752666695783269 -1.5707963268572867 1.1996288197338867 4635.332000000034
2.770425146529396 -1.3807453139003714 1.6852156566614696 -1.8752666695783269 -1.5707963268572867 1.1996288197338867 4635.382000000034
2.770425146529396 -1.3807453139003714 1.6852156566614696 -1.8752666695783269 -1.5707963268572867 1.1996288197338867 4635.432000000034
2.770425146529396 -1.3807453139003714 1.6852156566614696 -1.8752666695783269 -1.5707963268572867 1.1996288197338867 4635.4820000000345
2.770425146529396 -1.3807453139003714 1.6852156566614696 -1.8752666695783269 -1.5707963268572867 1.1996288197338867 4635.532000000035
2.770425146529396 -1.3807453139003714 1.6852156566614696 -1.8752666695783269 -1.5707963268572867 1.1996288197338867 4635.582000000035
2.770425146529396 -1.3807453139003714 1.6852156566614696 -1.8752666695783269 -1.5707963268572867 1.1996288197338867 4635.632000000035
2.770425146529396 -1.3807453139003714 1.6852156566614696 -1.8752666695783269 -1.5707963268572867 1.1996288197338867 4635.682000000035
2.770425146529396 -1.3807453139003714 1.6852156566614696 -1.8752666695783269 -1.5707963268572867 1.1996288197338867 4635.732000000035
2.770425146529396 -1.3807453139003714 1.6852156566614696 -1.8752666695783269 -1.5707963268572867 1.1996288197338867 4635.782000000036
2.770425146529396 -1.3807453139003714 1.6852156566614696 -1.8752666695783269 -1.5707963268572867 1.1996288197338867 4635.832000000036
2.770425146529396 -1.3807453139003714 1.6852156566614696 -1.8752666695783269 -1.5707963268572867 1.1996288197338867 4635.882000000036
2.770425146529396 -1.3807453139003714 1.6852156566614696 -1.8752666695783269 -1.5707963268572867 1.1996288197338867 4635.932000000036
2.770425146529396 -1.3807453139003714 1.6852156566614696 -1.8752666695783269 -1.5707963268572867 1.1996288197338867 4635.982000000036
2.770425146529396 -1.3807453139003714 1.6852156566614696 -1.8752666695783269 -1.5707963268572867 1.1996288197338867 4636.0320000000365
2.770425146529396 -1.3807453139003714 1.6852156566614696 -1.8752666695783269 -1.5707963268572867 1.1996288197338867 4636.082000000037
2.770425146529396 -1.3807453139003714 1.6852156566614696 -1.8752666695783269 -1.5707963268572867 1.1996288197338867 4636.132000000037
2.770425146529396 -1.3807453139003714 1.6852156566614696 -1.8752666695783269 -1.5707963268572867 1.1996288197338867 4636.182000000037
2.770425146529396 -1.3807453139003714 1.6852156566614696 -1.8752666695783269 -1.5707963268572867 1.1996288197338867 4636.232000000037
2.770425146529396 -1.3807453139003714 1.6852156566614696 -1.8752666695783269 -1.5707963268572867 1.1996288197338867 4636.282000000037
2.770425146529396 -1.3807453139003714 1.6852156566614696 -1.8752666695783269 -1.5707963268572867 1.1996288197338867 4636.332000000038
2.770425146529396 -1.3807453139003714 1.6852156566614696 -1.8752666695783269 -1.5707963268572867 1.1996288197338867 4636.382000000038
2.770425146529396 -1.3807453139003714 1.6852156566614696 -1.8752666695783269 -1.5707963268572867 1.1996288197338867 4636.432000000038
2.770425146529396 -1.3807453139003714 1.6852156566614696 -1.8752666695783269 -1.5707963268572867 1.1996288197338867 4636.482000000038
2.770425146529396 -1.3807453139003714 1.6852156566614696 -1.8752666695783269 -1.5707963268572867 1.1996288197338867 4636.532000000038
2.770425146529396 -1.3807453139003714 1.6852156566614696 -1.8752666695783269 -1.5707963268572867 1.1996288197338867 4636.5820000000385
2.770425146529396 -1.3807453139003714 1.6852156566614696 -1.8752666695783269 -1.5707963268572867 1.1996288197338867 4636.632000000039
2.770425146529396 -1.3807453139003714 1.6852156566614696 -1.8752666695783269 -1.5707963268572867 1.1996288197338867 4636.682000000039
2.770425146529396 -1.3807453139003714 1.6852156566614696 -1.875266669578327 -1.5707963268572867 1.1996288197338867 4636.732000000039
2.770537238037253 -1.3807370685183584 1.6852048508817548 -1.8752641091806446 -1.570796326857252 1.199740911241748 4636.782000000039
2.771297731512527 -1.3806811270885226 1.6851315382363499 -1.875246737965207 -1.5707963268570169 1.200501404717052 4636.832000000039
2.7732898141817746 -1.3805345907190572 1.6849394986527162 -1.8752012347513833 -1.570796326856401 1.2024934873863773 4636.88200000004
2.777027933409561 -1.3802596169799022 1.6845791386781233 -1.8751158485165917 -1.5707963268552452 1.2062316066143102 4636.93200000004
2.78296044053931 -1.3798232254234464 1.684007236609656 -1.874980338005606 -1.5707963268534109 1.2121641137442918 4636.98200000004
2.791472234734147 -1.3791971031052297 1.6831866876242219 -1.8747859113398606 -1.5707963268507792 1.2206759079394625 4637.03200000004
2.8028874068177454 -1.3783574101046445 1.6820862489085593 -1.874525165626757 -1.57079632684725 1.2320910800235079 4637.08200000004
2.8174718831151724 -1.3772845850456386 1.6806802847892437 -1.874192026568969 -1.5707963268427407 1.2466755563215062 4637.1320000000405
2.835436069293734 -1.3759631506174164 1.678948511862696 -1.8737816880737495 -1.5707963268371865 1.2646397425007718 4637.182000000041
2.856937494203823 -1.3743815190951418 1.6768757441251887 -1.873290551862235 -1.5707963268305387 1.286141167411703 4637.232000000041
2.8820834537197615 -1.3725317978606393 1.6744516381028551 -1.8727161670787518 -1.570796326822764 1.3112871269286268 4637.282000000041
2.9109336545806497 -1.370409594923097 1.6716704379816953 -1.872057169900123 -1.570796326813844 1.3401373277906452 4637.332000000041
2.9435028582312093 -1.368013824439768 1.6685307207375837 -1.8713132231449718 -1.5707963268037741 1.3727065314424807 4637.382000000041
2.9797635246626304 -1.3653465122366724 1.6650351412662765 -1.87048495588303 -1.570796326792563 1.4089671978753227 4637.432000000042
3.0196484562534174 -1.3624126013293 1.66119017751342 -1.8695739030444425 -1.5707963267802314 1.4488521294676724 4637.482000000042
3.063053441610234 -1.3592197574433118 1.657005875604556 -1.868582445029072 -1.5707963267668115 1.4922571148261896 4637.532000000042
3.1098398994087497 -1.3557781745352422 1.6524955949751314 -1.867513747315807 -1.570796326752346 1.5390435726265383 4637.582000000042
3.1598375222344846 -1.3521003803132008 1.647675753500504 -1.866371700071866 -1.5707963267368876 1.589041195454232 4637.632000000042
3.2128469204236563 -1.3482010417575752 1.6425655726259505 -1.8651608577621044 -1.570796326720498 1.6420505936454803 4637.6820000000425
3.268642265904024 -1.3440967706417317 1.637186822496674 -1.863886378758319 -1.5707963267032472 1.6978459391280343 4637.732000000043
3.3269739360357367 -1.339805929052719 1.6315635670878108 -1.8625539649485547 -1.570796326685212 1.7561776092620323 4637.782000000043
3.387571157452176 -1.3353484349119689 1.6257219093344386 -1.8611698013464106 -1.5707963266664766 1.816774830680846 4637.832000000043
3.450144649900805 -1.3307455674959991 1.6196897362615832 -1.8597404957003445 -1.57079632664713 1.8793483231319263 4637.882000000043
3.5143892700840107 -1.3260197729571153 1.6134964641142258 -1.8582730181029798 -1.5707963266272666 1.9435929433176486 4637.932000000043
3.579986655499952 -1.3211944698441123 1.6071727834873115 -1.8567746406004109 -1.5707963266069853 2.0091903287361603 4637.982000000044
3.6466078682834056 -1.3162938546229772 1.600750404455755 -1.8552528768015093 -1.5707963265863871 2.075811541522224 4638.032000000044
3.71391603904661 -1.3113427071975905 1.5942618017044496 -1.853715421487229 -1.5707963265655767 2.1431197122880654 4638.082000000044
3.781569010720113 -1.3063661964304292 1.5877399596582733 -1.8521700902199119 -1.5707963265446598 2.210772683964219 4638.132000000044
3.8492219823936153 -1.301389685663268 1.5812181176120972 -1.8506247589525948 -1.5707963265237428 2.2784256556403717 4638.182000000044
3.916530153156821 -1.2964385382378814 1.5747295148607916 -1.8490873036383144 -1.5707963265029323 2.345733826406214 4638.2320000000445
3.983151365940274 -1.2915379230167463 1.5683071358292353 -1.8475655398394129 -1.5707963264823341 2.4123550391922777 4638.282000000045
4.048748751356215 -1.286712619903743 1.5619834552023208 -1.8460671623368439 -1.5707963264620528 2.477952424610789 4638.332000000045
4.112993371539421 -1.2819868253648592 1.5557901830549634 -1.8445996847394792 -1.5707963264421894 2.542197044796512 4638.382000000045
4.17556686398805 -1.2773839579488897 1.549758009982108 -1.843170379093413 -1.5707963264228428 2.604770537247592 4638.432000000045
4.236164085404489 -1.2729264638081397 1.5439163522287358 -1.841786215491269 -1.5707963264041074 2.6653677586664055 4638.482000000045
4.294495755536202 -1.2686356222191268 1.5382930968198727 -1.8404538016815046 -1.5707963263860723 2.723699428800403 4638.532000000046
4.350291101016569 -1.2645313511032834 1.5329143466905961 -1.8391793226777193 -1.5707963263688214 2.7794947742829565 4638.582000000046
4.403300499205742 -1.2606320125476576 1.5278041658160426 -1.8379684803679577 -1.5707963263524318 2.8325041724742066 4638.632000000046
4.453298122031476 -1.2569542183256164 1.5229843243414152 -1.8368264331240167 -1.5707963263369735 2.8825017953018994 4638.682000000046
4.500084579829992 -1.2535126354175465 1.5184740437119906 -1.8357577354107517 -1.570796326322508 2.929288253102249 4638.732000000046
4.543489565186809 -1.2503197915315585 1.5142897418031267 -1.8347662773953812 -1.570796326309088 2.9726932384607645 4638.7820000000465
4.583374496777596 -1.247385880624186 1.51044477805027 -1.8338552245567934 -1.5707963262967564 3.012578170053115 4638.832000000047
4.619635163209018 -1.2447185684210906 1.5069491985789631 -1.8330269572948519 -1.5707963262855453 3.048838836485957 4638.882000000047
4.652204366859578 -1.2423227979377613 1.5038094813348513 -1.8322830105397008 -1.5707963262754754 3.0814080401377932 4638.932000000047
4.681054567720465 -1.2402005950002193 1.5010282812136915 -1.831624013361072 -1.5707963262665554 3.1102582409998103 4638.982000000047
4.706200527236406 -1.2383508737657167 1.4986041751913577 -1.8310496285775888 -1.5707963262587807 3.135404200516736 4639.032000000047
4.727701952146492 -1.236769242243442 1.4965314074538507 -1.8305584923660743 -1.570796326252133 3.156905625427666 4639.082000000048
4.7456661383250545 -1.23544780781522 1.494799634527303 -1.8301481538708546 -1.5707963262465787 3.1748698116069316 4639.132000000048
4.760250614622481 -1.234374982756214 1.4933936704079873 -1.8298150148130667 -1.5707963262420694 3.1894542879049297 4639.182000000048
4.771665786706082 -1.2335352897556286 1.4922932316923245 -1.829554269099963 -1.5707963262385403 3.2008694599889784 4639.232000000048
4.780177580900919 -1.232909167437412 1.4914726827068907 -1.8293598424342177 -1.5707963262359086 3.209381254184147 4639.282000000048
4.786110088030668 -1.2324727758809564 1.4909007806384234 -1.829224331923232 -1.5707963262340743 3.215313761314127 4639.3320000000485
4.789848207258452 -1.2321978021418014 1.4905404206638304 -1.8291389456884404 -1.5707963262329185 3.2190518805420605 4639.382000000049
4.791840289927702 -1.2320512657723357 1.4903483810801967 -1.8290934424746168 -1.5707963262323026 3.221043963211389 4639.432000000049
4.792600783402977 -1.2319953243424997 1.4902750684347918 -1.8290760712591791 -1.5707963262320674 3.2218044566866895 4639.482000000049
4.792712874910832 -1.231987078960487 1.490264262655077 -1.8290735108614966 -1.5707963262320328 3.2219165481945513 4639.532000000049
4.79271287491083 -1.2319870789604872 1.490264262655077 -1.8290735108614966 -1.5707963262320328 3.2219165481945513 4639.582000000049
4.7927128719062475 -1.2317461406862398 1.4907370861393292 -1.8297872726497604 -1.5707963264051383 3.221916545187215 4639.63200000005
4.792712853502325 -1.2302703251521823 1.493633264611206 -1.83415926683801 -1.5707963274654595 3.221916526766426 4639.68200000005
4.792712810972769 -1.2268598685777556 1.500326032563695 -1.8442624917862367 -1.5707963299157517 3.2219164841978922 4639.73200000005
4.792712741751023 -1.2213089580863246 1.5112192824947333 -1.8607066528944387 -1.570796333903884 3.221916414912706 4639.78200000005
4.79271264819832 -1.2138069415243935 1.525941433306219 -1.8829308211946179 -1.5707963392938167 3.2219163212742634 4639.83200000005
4.792712536371734 -1.2048395372808212 1.543539298703019 -1.90949609194278 -1.5707963457365788 3.2219162093451894 4639.8820000000505
4.792712414792231 -1.1950900441060357 1.5626719555919815 -1.9383782432109329 -1.5707963527412439 3.2219160876542614 4639.932000000051
4.792712293212728 -1.1853405509312505 1.581804612480944 -1.9672603944790856 -1.5707963597459087 3.2219159659633334 4639.982000000051
4.7927121813861415 -1.1763731466876781 1.599402477877744 -1.9938256652272477 -1.5707963661886708 3.2219158540342594 4640.032000000051
4.792712087833438 -1.168871130125747 1.6141246286892297 -2.016049833527427 -1.5707963715786035 3.2219157603958166 4640.082000000051
4.7927120186116925 -1.163320219634316 1.625017878620268 -2.0324939946356286 -1.5707963755667358 3.2219156911106306 4640.132000000051
4.792711976082137 -1.1599097630598894 1.6317106465727569 -2.0425972195838558 -1.570796378017028 3.221915648542097 4640.182000000052
4.792711957678214 -1.1584339475258318 1.6346068250446337 -2.0469692137721047 -1.5707963790773491 3.2219156301213077 4640.232000000052
4.792711954673631 -1.1581930092515844 1.6350796485288859 -2.0476829755603685 -1.5707963792504547 3.2219156271139715 4640.282000000052
4.792711954673631 -1.1581930092515844 1.6350796485288859 -2.0476829755603685 -1.5707963792504547 3.2219156271139715 4640.332000000052
4.792711954673631 -1.1581930092515844 1.6350796485288859 -2.0476829755603685 -1.5707963792504547 3.2219156271139715 4640.382000000052
4.792711954673631 -1.1581930092515844 1.6350796485288859 -2.0476829755603685 -1.5707963792504547 3.2219156271139715 4640.4320000000525
4.792711954673631 -1.1581930092515844 1.6350796485288859 -2.0476829755603685 -1.5707963792504547 3.2219156271139715 4640.482000000053
4.792711954673631 -1.1581930092515844 1.6350796485288859 -2.0476829755603685 -1.5707963792504547 3.2219156271139715 4640.532000000053
4.792711954673631 -1.1581930092515844 1.6350796485288859 -2.0476829755603685 -1.5707963792504547 3.2219156271139715 4640.582000000053
4.792711954673631 -1.1581930092515844 1.6350796485288859 -2.0476829755603685 -1.5707963792504547 3.2219156271139715 4640.632000000053
4.792711954673631 -1.1581930092515844 1.6350796485288859 -2.0476829755603685 -1.5707963792504547 3.2219156271139715 4640.682000000053
4.792711954673631 -1.1581930092515844 1.6350796485288859 -2.0476829755603685 -1.5707963792504547 3.2219156271139715 4640.732000000054
4.792711954673631 -1.1581930092515844 1.6350796485288859 -2.0476829755603685 -1.5707963792504547 3.2219156271139715 4640.782000000054
4.792711954673631 -1.1581930092515844 1.6350796485288859 -2.0476829755603685 -1.5707963792504547 3.2219156271139715 4640.832000000054
4.792711954673631 -1.1581930092515844 1.6350796485288859 -2.0476829755603685 -1.5707963792504547 3.2219156271139715 4640.882000000054
4.792711954673631 -1.1581930092515844 1.6350796485288859 -2.0476829755603685 -1.5707963792504547 3.2219156271139715 4640.932000000054
4.792711954673631 -1.1581930092515844 1.6350796485288859 -2.047682975560369 -1.5707963792504547 3.2219156271139715 4640.9820000000545
4.792711957678214 -1.1584339475258318 1.6346068250446337 -2.046969213772105 -1.5707963790773491 3.2219156301213077 4641.032000000055
4.792711976082137 -1.1599097630598894 1.6317106465727569 -2.0425972195838558 -1.570796378017028 3.221915648542097 4641.082000000055
4.7927120186116925 -1.1633202196343162 1.625017878620268 -2.0324939946356286 -1.5707963755667358 3.2219156911106306 4641.132000000055
4.792712087833438 -1.168871130125747 1.6141246286892297 -2.016049833527427 -1.5707963715786035 3.2219157603958166 4641.182000000055
4.7927121813861415 -1.1763731466876781 1.599402477877744 -1.9938256652272477 -1.5707963661886708 3.2219158540342594 4641.232000000055
4.792712293212728 -1.1853405509312505 1.581804612480944 -1.9672603944790856 -1.5707963597459087 3.2219159659633334 4641.282000000056
4.792712414792231 -1.1950900441060357 1.5626719555919815 -1.9383782432109329 -1.5707963527412439 3.2219160876542614 4641.332000000056
4.792712536371734 -1.2048395372808212 1.543539298703019 -1.90949609194278 -1.5707963457365788 3.2219162093451894 4641.382000000056
4.79271264819832 -1.2138069415243935 1.525941433306219 -1.8829308211946179 -1.5707963392938167 3.2219163212742634 4641.432000000056
4.792712741751023 -1.2213089580863246 1.5112192824947333 -1.8607066528944387 -1.570796333903884 3.221916414912706 4641.482000000056
4.792712810972769 -1.2268598685777556 1.500326032563695 -1.8442624917862367 -1.5707963299157517 3.2219164841978922 4641.5320000000565
4.792712853502325 -1.2302703251521823 1.493633264611206 -1.83415926683801 -1.5707963274654595 3.221916526766426 4641.582000000057
4.7927128719062475 -1.2317461406862398 1.4907370861393292 -1.8297872726497606 -1.5707963264051383 3.221916545187215 4641.632000000057
4.79271287491083 -1.2319870789604872 1.490264262655077 -1.8290735108614968 -1.5707963262320328 3.2219165481945513 4641.682000000057
4.79271287491083 -1.2319870789604872 1.490264262655077 -1.8290735108614966 -1.5707963262320328 3.2219165481945513 4641.732000000057
4.792580992446904 -1.2319966844521877 1.4902769043163377 -1.8290765470370545 -1.5707963262268931 3.2217846657310107 4641.782000000057
4.791688423419183 -1.232061693583294 1.4903624619785507 -1.8290970956087524 -1.5707963261921085 3.220892096705893 4641.832000000058
4.789357027053365 -1.23223149787551 1.4905859391736536 -1.8291507686176642 -1.570796326101251 3.218560700346878 4641.882000000058
4.784995426032725 -1.232549169544342 1.4910040226778318 -1.8292511806513634 -1.5707963259312734 3.2141990993389644 4641.932000000058
4.778095391354046 -1.2330517248035235 1.4916654290430091 -1.8294100320711524 -1.5707963256623698 3.2072990646804183 4641.982000000058
4.768228227183552 -1.2337703871694408 1.4926112511283358 -1.8296371922392913 -1.570796325277833 3.1974319005387146 4642.032000000058
4.755041155712844 -1.2347308507655563 1.493875304631679 -1.8299407827462277 -1.5707963247639152 3.1842448291064844 4642.0820000000585
4.738253702014836 -1.2359535436268356 1.4954844746211127 -1.8303272606378256 -1.5707963241096854 3.1674573754574595 4642.132000000059
4.717654078899686 -1.2374538910041706 1.4974590620664068 -1.8308015016425945 -1.5707963233068902 3.1468577524024166 4642.182000000059
4.693095571770735 -1.239242578668805 1.4998131303705171 -1.8313668833989185 -1.570796322349812 3.1222992453451224 4642.232000000059
4.664492923480435 -1.2413258162167593 1.5025548519010752 -1.832025368682286 -1.5707963212351284 3.0936965971382797 4642.282000000059
4.631818719186289 -1.2437056003732558 1.5056868545218778 -1.8327775886325184 -1.5707963199617705 3.061022392939471 4642.332000000059
4.595099771206783 -1.246379978297143 1.5092065681243765 -1.8336229259809989 -1.5707963185307834 3.0243034450671047 4642.38200000006
4.554413503877322 -1.249343310885321 1.5131065711591674 -1.8345595982779026 -1.5707963169451846 2.9836171778563587 4642.43200000006
4.509884338406162 -1.2525865360771662 1.5173749371674807 -1.8355847411194255 -1.570796315209823 2.939088012515127 4642.48200000006
4.461680077730347 -1.2560974321589562 1.5219955813126713 -1.836694491375013 -1.570796313331238 2.8908837519799637 4642.53200000006
4.410008291371641 -1.259860881068295 1.5269486069117066 -1.8378840704145893 -1.5707963113175187 2.839211965772027 4642.58200000006
4.355112700292466 -1.263859131698537 1.532210651966658 -1.8391478673357877 -1.5707963091781634 2.784316374853027 4642.6320000000605
4.29726956175183 -1.268072063203213 1.5377552356961899 -1.8404795221911778 -1.5707963069239383 2.726473236481167 4642.682000000061
4.236784054161269 -1.2724774483004546 1.5435531050670486 -1.8418720092154968 -1.5707963045667364 2.665987729067093 4642.732000000061
4.173986661940779 -1.2770512165774188 1.5495725813255534 -1.8433177200528768 -1.5707963021194373 2.6031903370298335 4642.782000000061
4.109229560374744 -1.2817677177947135 1.5557799065290852 -1.844808546984075 -1.5707962995957656 2.538433235652749 4642.832000000061
4.0428830004678815 -1.286599985190822 1.5621395900775765 -1.8463359661537029 -1.5707962970101506 2.4720866759394737 4642.882000000061
3.975331693801169 -1.291519998786528 1.5686147552450016 -1.8478911207974553 -1.570796294377585 2.4045353694698637 4642.932000000062
3.9069711973877794 -1.2964989486893403 1.575167485710865 -1.8494649044693392 -1.5707962917134843 2.3361748732559384 4642.982000000062
3.8382042985290195 -1.3015074983979185 1.5817591720916928 -1.8510480442689037 -1.5707962890335454 2.2674079745978277 4643.032000000062
3.7694373996702595 -1.3065160481064966 1.5883508584725206 -1.8526311840684682 -1.5707962863536065 2.1986410759397175 4643.082000000062
3.7010769032568698 -1.311494998009309 1.594903588938384 -1.854204967740352 -1.5707962836895057 2.1302805797257918 4643.132000000062
3.6335255965901574 -1.3164150116050148 1.601378754105809 -1.8557601223841045 -1.5707962810569402 2.0627292732561817 4643.1820000000625
3.5671790366832945 -1.3212472790011234 1.6077384376543005 -1.8572875415537324 -1.5707962784713252 1.9963827135429069 4643.232000000063
3.502421935117261 -1.325963780218418 1.6139457628578322 -1.8587783684849306 -1.5707962759476535 1.9316256121658228 4643.282000000063
3.4396245428967696 -1.3305375484953823 1.619965239116337 -1.8602240793223106 -1.5707962735003544 1.8688282201285629 4643.332000000063
3.379139035306209 -1.334942933592624 1.6257631084871957 -1.8616165663466295 -1.5707962711431525 1.8083427127144893 4643.382000000063
3.321295896765573 -1.3391558650973001 1.6313076922167276 -1.8629482212020196 -1.5707962688889274 1.7504995743426286 4643.432000000063
3.266400305686397 -1.343154115727542 1.636569737271679 -1.864212018123218 -1.570796266749572 1.6956039834236283 4643.482000000064
3.2147285193276915 -1.3469175646368807 1.6415227628707143 -1.8654015971627944 -1.5707962647358529 1.6439321972156917 4643.532000000064
3.1665242586518776 -1.3504284607186707 1.646143407015905 -1.8665113474183819 -1.5707962628572678 1.5957279366805288 4643.582000000064
3.1219950931807157 -1.353671685910516 1.6504117730242185 -1.8675364902599048 -1.5707962611219062 1.5511987713392967 4643.632000000064
3.0813088258512558 -1.356635018498694 1.6543117760590094 -1.8684731625568085 -1.5707962595363074 1.510512504128551 4643.682000000064
3.0445898778717515 -1.359309396422581 1.6578314896615078 -1.869318499905289 -1.5707962581053203 1.4737935562561864 4643.7320000000645
3.011915673577605 -1.3616891805790774 1.6609634922823104 -1.870070719855521 -1.5707962568319624 1.4411193520573773 4643.782000000065
2.983313025287304 -1.3637724181270319 1.6637052138128685 -1.8707292051388886 -1.5707962557172788 1.4125167038505337 4643.832000000065
2.9587545181583517 -1.3655611057916661 1.666059282116979 -1.8712945868952129 -1.5707962547602006 1.3879581967932393 4643.882000000065
2.9381548950432035 -1.367061453169001 1.6680338695622727 -1.8717688278999818 -1.5707962539574054 1.3673585737381972 4643.932000000065
4.792703151702881 -1.2319635611823578 1.4902294317828577 -1.8291102848448695 -1.5707648436175745 3.2219109535217285 4645.581999999999
4.792202598752577 -1.2323743931232178 1.4907306192190386 -1.8292005756500942 -1.5707648859705483 3.2214103950173687 4645.632
4.789019707116316 -1.2349867711896703 1.4939175453930844 -1.8297747124094657 -1.5707651552825688 3.2182274680642493 4645.682
4.781306142573524 -1.2413177271657374 1.501640887418482 -1.8311661015787823 -1.5707658079455837 3.2105138179329726 4645.732
4.76802503470778 -1.25221827888148 1.5149388300174311 -1.8335617760478826 -1.5707669316916617 3.197232562702169 4645.782
4.748842781732931 -1.2679622320735267 1.534145397839683 -1.8370219116161053 -1.5707685547476422 3.178050096884094 4645.832
4.724020855319205 -1.2883349822456007 1.5589987877813791 -1.8414993434677525 -1.570770654989786 3.153227895050223 4645.8820000000005
4.694307605419322 -1.3127223165290498 1.5887497013038874 -1.8468590826475493 -1.5707731690984263 3.1235143154568488 4645.932000000001
4.6608300650946095 -1.3401992155433726 1.6222696767526432 -1.8528978325361067 -1.5707760017126193 3.090036403670677 4645.982000000001
4.624985755341112 -1.3696186552567478 1.658159421675986 -1.8593635053253816 -1.5707790345847947 3.054191696194423 4646.032000000001
4.588334489915705 -1.3997004088465619 1.694857145143997 -1.8659747384941396 -1.5707821357354057 3.0175400240924075 4646.082000000001
4.5524901801622075 -1.429119848559937 1.73074689006734 -1.8724404112834145 -1.570785168607581 2.981695316616154 4646.132000000001
4.519012639837495 -1.4565967475742596 1.7642668655160958 -1.878479161171972 -1.570788001221774 2.948217404829982 4646.182000000002
4.489299389937612 -1.4809840818577087 1.794017779038604 -1.8838389003517688 -1.5707905153304145 2.9185038252366082 4646.232000000002
4.464477463523886 -1.5013568320297832 1.8188711689803 -1.888316332203416 -1.5707926155725582 2.8936816234027365 4646.282000000002
4.445295210549037 -1.5171007852218297 1.8380777368025525 -1.8917764677716389 -1.5707942386285387 2.8744991575846615 4646.332000000002
4.432014102683293 -1.528001336937572 1.8513756794015008 -1.894172142240739 -1.5707953623746167 2.861217902353858 4646.382000000002
4.4243005381405 -1.5343322929136394 1.8590990214268985 -1.8955635314100556 -1.5707960150376317 2.8535042522225815 4646.4320000000025
4.421117646504239 -1.5369446709800916 1.8622859476009448 -1.8961376681694269 -1.5707962843496521 2.8503213252694617 4646.482000000003
4.420617093553936 -1.5373555029209518 1.8627871350371255 -1.8962279589746518 -1.570796326702626 2.8498207667651023 4646.532000000003
4.420617093553936 -1.5373555029209518 1.8627871350371255 -1.8962279589746518 -1.570796326702626 2.8498207667651023 4646.582000000003
4.420617093508544 -1.5370986896781664 1.8632025402836998 -1.8969001774701757 -1.5707963266981555 2.849820766720002 4646.632000000003
4.420617093227808 -1.5355103927098617 1.8657716714024684 -1.9010576055953725 -1.5707963266705074 2.8498207664410713 4646.682000000003
4.420617092570923 -1.5317939978212822 1.8717830823340607 -1.910785411504748 -1.5707963266058145 2.849820765788412 4646.732000000004
4.4206170914855925 -1.5256536197400903 1.881715378827853 -1.926858086227118 -1.5707963264989264 2.849820764710062 4646.782000000004
4.42061708999193 -1.5172030604941085 1.8953844817494696 -1.9489777485975532 -1.5707963263518239 2.8498207632260075 4646.832000000004
4.420617088166373 -1.5068747677890606 1.9120908903882836 -1.9760124501893226 -1.570796326172035 2.849820761412192 4646.882000000004
4.420617086125587 -1.4953287933863155 1.9307669457649166 -2.0062344802458356 -1.5707963259710493 2.849820759384532 4646.932000000004
4.420617084010376 -1.4833617514806283 1.950124093938739 -2.037558670612587 -1.570796325762734 2.849820757282926 4646.9820000000045
4.420617081969589 -1.4718157770778832 1.968800149315372 -2.0677807006691 -1.5707963255617483 2.8498207552552657 4647.032000000005
4.420617080144032 -1.4614874843728356 1.985506557954186 -2.094815402260869 -1.5707963253819595 2.8498207534414504 4647.082000000005
4.42061707865037 -1.4530369251268536 1.9991756608758027 -2.1169350646313045 -1.570796325234857 2.8498207519573957 4647.132000000005
4.420617077565039 -1.4468965470456616 2.0091079573695954 -2.133007739353675 -1.5707963251279689 2.849820750879046 4647.182000000005
4.4206170769081545 -1.4431801521570822 2.015119368301187 -2.1427355452630503 -1.570796325063276 2.8498207502263866 4647.232000000005
4.420617076627418 -1.4415918551887774 2.0176884994199558 -2.1468929733882476 -1.5707963250356278 2.849820749947456 4647.282000000006
4.420617076582026 -1.441335041945992 2.01810390466653 -2.147565191883771 -1.5707963250311574 2.8498207499023556 4647.332000000006
4.420617076582026 -1.441335041945992 2.01810390466653 -2.147565191883771 -1.5707963250311574 2.8498207499023556 4647.382000000006
4.420617076582026 -1.441335041945992 2.01810390466653 -2.147565191883771 -1.5707963250311574 2.8498207499023556 4647.432000000006
4.420617076582026 -1.441335041945992 2.01810390466653 -2.147565191883771 -1.5707963250311574 2.8498207499023556 4647.482000000006
4.420617076582026 -1.441335041945992 2.01810390466653 -2.147565191883771 -1.5707963250311574 2.8498207499023556 4647.5320000000065
4.420617076582026 -1.441335041945992 2.01810390466653 -2.147565191883771 -1.5707963250311574 2.8498207499023556 4647.582000000007
4.420617076582026 -1.441335041945992 2.01810390466653 -2.147565191883771 -1.5707963250311574 2.8498207499023556 4647.632000000007
4.420617076582026 -1.441335041945992 2.01810390466653 -2.147565191883771 -1.5707963250311574 2.8498207499023556 4647.682000000007
4.420617076582026 -1.441335041945992 2.01810390466653 -2.147565191883771 -1.5707963250311574 2.8498207499023556 4647.732000000007
4.420617076582026 -1.441335041945992 2.01810390466653 -2.147565191883771 -1.5707963250311574 2.8498207499023556 4647.782000000007
4.420617076582026 -1.441335041945992 2.01810390466653 -2.147565191883771 -1.5707963250311574 2.8498207499023556 4647.832000000008
4.420617076582026 -1.441335041945992 2.01810390466653 -2.147565191883771 -1.5707963250311574 2.8498207499023556 4647.882000000008
4.420617076582026 -1.441335041945992 2.01810390466653 -2.147565191883771 -1.5707963250311574 2.8498207499023556 4647.932000000008
4.420617076582026 -1.441335041945992 2.01810390466653 -2.147565191883771 -1.5707963250311574 2.8498207499023556 4647.982000000008
4.420617076582026 -1.441335041945992 2.01810390466653 -2.147565191883771 -1.5707963250311574 2.8498207499023556 4648.032000000008
4.420617076627418 -1.4415918551887774 2.0176884994199558 -2.146892973388247 -1.5707963250356278 2.849820749947456 4648.0820000000085
4.4206170769081545 -1.4431801521570822 2.015119368301187 -2.14273554526305 -1.570796325063276 2.8498207502263866 4648.132000000009
4.420617077565039 -1.4468965470456616 2.009107957369595 -2.133007739353675 -1.5707963251279689 2.849820750879046 4648.182000000009
4.42061707865037 -1.4530369251268536 1.9991756608758027 -2.1169350646313045 -1.570796325234857 2.8498207519573957 4648.232000000009
4.420617080144032 -1.4614874843728354 1.985506557954186 -2.094815402260869 -1.5707963253819595 2.8498207534414504 4648.282000000009
4.420617081969589 -1.4718157770778832 1.968800149315372 -2.0677807006691 -1.5707963255617483 2.8498207552552657 4648.332000000009
4.420617084010376 -1.4833617514806283 1.950124093938739 -2.037558670612587 -1.570796325762734 2.849820757282926 4648.38200000001
4.420617086125587 -1.4953287933863155 1.9307669457649166 -2.0062344802458356 -1.5707963259710493 2.849820759384532 4648.43200000001
4.420617088166373 -1.5068747677890606 1.9120908903882836 -1.9760124501893226 -1.570796326172035 2.849820761412192 4648.48200000001
4.42061708999193 -1.5172030604941082 1.8953844817494696 -1.9489777485975535 -1.5707963263518239 2.8498207632260075 4648.53200000001
4.4206170914855925 -1.5256536197400903 1.881715378827853 -1.926858086227118 -1.5707963264989264 2.849820764710062 4648.58200000001
4.420617092570923 -1.5317939978212822 1.8717830823340604 -1.9107854115047478 -1.5707963266058145 2.849820765788412 4648.6320000000105
4.420617093227808 -1.5355103927098617 1.8657716714024681 -1.9010576055953723 -1.5707963266705074 2.8498207664410713 4648.682000000011
4.420617093508544 -1.5370986896781664 1.8632025402836996 -1.8969001774701753 -1.5707963266981555 2.849820766720002 4648.732000000011
4.420617093553936 -1.5373555029209518 1.8627871350371255 -1.8962279589746518 -1.570796326702626 2.8498207667651023 4648.782000000011
4.420617093553936 -1.5373555029209518 1.8627871350371255 -1.8962279589746518 -1.570796326702626 2.8498207667651023 4648.832000000011
4.420454004824922 -1.5373378532513224 1.8627670229446152 -1.896225496561016 -1.5707963266946814 2.8496576780366873 4648.882000000011
4.41935616056467 -1.5372190431495143 1.8626316368547382 -1.8962089206351818 -1.5707963266412024 2.8485598337804654 4648.932000000012
4.41650649298725 -1.536910648500792 1.8622802160159877 -1.8961658946066953 -1.5707963265023874 2.8457101662135083 4648.982000000012
4.411210869276363 -1.536337549369151 1.8616271600101106 -1.8960859380326571 -1.5707963262444236 2.840414542522064 4649.032000000012
4.402892094757547 -1.535437281012989 1.860601289223657 -1.8959603360739394 -1.5707963258391937 2.8320957680337897 4649.082000000012
4.391083916070391 -1.5341593849007784 1.8591451053195278 -1.895782048951402 -1.5707963252639856 2.820287589389987 4649.132000000012
4.375425024340752 -1.5324647597267373 1.857214051708525 -1.8955456214021102 -1.5707963245011989 2.8046286977178387 4649.1820000000125
4.355653058352965 -1.5303250124265009 1.8547757740208983 -1.8952470921355515 -1.5707963235380533 2.7848567318026434 4649.232000000013
4.331598607722059 -1.5277218091927938 1.8518093805778948 -1.894883903289852 -1.5707963223662964 2.7608022812600517 4649.282000000013
4.303179216065966 -1.5246462264911014 1.8483047028633075 -1.894454809887993 -1.5707963209819116 2.7323828897082993 4649.332000000013
4.270393384177741 -1.5210981020753418 1.8442615559950233 -1.8939597892940292 -1.5707963193848256 2.6995970579404456 4649.382000000013
4.233314573197769 -1.517085386003537 1.8396889991965724 -1.8933999506693038 -1.570796317578617 2.662518247096607 4649.432000000013
4.192085207785984 -1.5126234916534846 1.8346045962686763 -1.8927774444286667 -1.570796315570224 2.621288881836193 4649.482000000014
4.146910679294075 -1.5077346467384305 1.8290336760607961 -1.8920953716966908 -1.5707963133696514 2.5761143535101407 4649.532000000014
4.098053348937709 -1.502447244322739 1.8230085929426825 -1.891357693763889 -1.5707963109896796 2.527257023333152 4649.582000000014
4.045826550968736 -1.4967951938375654 1.816567987275922 -1.8905691415429302 -1.570796308445572 2.475030225555927 4649.632000000014
3.990588595847407 -1.490817272096528 1.8097560458854876 -1.8897351250248582 -1.570796305754783 2.419792270637401 4649.682000000014
3.9327367734145846 -1.4845564743113782 1.8026217625312866 -1.8888616427353064 -1.5707963029366652 2.361940448416979 4649.7320000000145
3.8727013560639594 -1.4780593651076743 1.795218198379709 -1.8879551911907155 -1.5707963000121787 2.30190503128677 4649.782000000015
3.810939601914261 -1.4713754295404518 1.7876017424751764 -1.8870226743545508 -1.5707962970035978 2.2401432773638272 4649.832000000015
3.7479297579814723 -1.464556424109895 1.77983137221169 -1.8860713130935183 -1.570796293934219 2.1771334336623758 4649.882000000015
3.6841650633510428 -1.4576557277770092 1.7719679138043802 -1.885108554633782 -1.5707962908280695 2.1133687392660554 4649.932000000015
3.6201477523501024 -1.4507276929792923 1.7640733027610538 -1.8841419820171805 -1.5707962877096144 2.049351428500151 4649.982000000015
3.556383057719673 -1.4438269966464066 1.756209844353744 -1.8831792235574443 -1.5707962846034649 1.9855867341038307 4650.032000000016
3.4933732137868834 -1.4370079912158498 1.7484394740902576 -1.8822278622964117 -1.5707962815340861 1.922576890402379 4650.082000000016
3.4316114596371854 -1.430324055648627 1.740823018185725 -1.881295345460247 -1.5707962785255052 1.8608151364794359 4650.132000000016
3.371576042286561 -1.4238269464449234 1.7334194540341474 -1.8803888939156561 -1.5707962756010188 1.800779719349228 4650.182000000016
3.3137242198537384 -1.4175661486597735 1.7262851706799465 -1.8795154116261044 -1.570796272782901 1.7429278971288054 4650.232000000016
3.258486264732409 -1.411588226918736 1.719473229289512 -1.8786813951080323 -1.5707962700921119 1.6876899422102793 4650.2820000000165
3.206259466763436 -1.4059361764335625 1.7130326236227518 -1.8778928428870736 -1.5707962675480043 1.6354631444330545 4650.332000000017
3.15740213640707 -1.400648774017871 1.7070075405046379 -1.8771551649542717 -1.5707962651680325 1.5866058142560657 4650.382000000017
3.1122276079151616 -1.3957599291028169 1.7014366202967577 -1.8764730922222959 -1.5707962629674599 1.5414312859300132 4650.432000000017
3.070998242503375 -1.3912980347527646 1.6963522173688617 -1.8758505859816588 -1.5707962609590669 1.500201920669599 4650.482000000017
3.0339194315234055 -1.3872853186809597 1.6917796605704107 -1.8752907473569334 -1.5707962591528584 1.4631231098257604 4650.532000000017
3.00113359963518 -1.3837371942652001 1.6877365137021265 -1.8747957267629696 -1.5707962575557723 1.4303372780579071 4650.582000000018
2.9727142079790863 -1.3806616115635078 1.6842318359875392 -1.8743666333611106 -1.5707962561713875 1.401917886506154 4650.632000000018
2.94865975734818 -1.3780584083298009 1.6812654425445357 -1.874003444515411 -1.5707962549996306 1.3778634359635635 4650.682000000018
2.928887791360392 -1.3759186610295642 1.678827164856909 -1.8737049152488523 -1.570796254036485 1.3580914700483673 4650.732000000018
2.9132288996307523 -1.3742240358555227 1.6768961112459058 -1.8734684876995606 -1.5707962532736983 1.3424325783762168 4650.782000000018
2.9014207209435963 -1.3729461397433125 1.6754399273417768 -1.8732902005770231 -1.5707962526984902 1.3306243997324163 4650.8320000000185
2.89310194642478 -1.3720458713871508 1.6744140565553232 -1.8731645986183052 -1.5707962522932604 1.3223056252441427 4650.882000000019
2.887806322713896 -1.3714727722555096 1.6737610005494459 -1.873084642044267 -1.5707962520352965 1.3170100015526973 4650.932000000019
2.8849566551364774 -1.3711643776067872 1.6734095797106958 -1.8730416160157808 -1.5707962518964815 1.3141603339857397 4650.982000000019
2.883858810876225 -1.371045567504979 1.6732741936208189 -1.8730250400899466 -1.5707962518430025 1.3130624897295196 4651.032000000019
2.883695722147209 -1.3710279178353497 1.6732540815283086 -1.8730225776763108 -1.570796251835058 1.3128994010011041 4651.082000000019
2.883695722147209 -1.3710279178353497 1.6732540815283086 -1.8730225776763108 -1.570796251835058 1.3128994010011041 4651.13200000002
2.883695727867589 -1.3708014081473126 1.6736474373732717 -1.8736424429761573 -1.5707962520356238 1.312899406706375 4651.18200000002
2.883695763246072 -1.3694005276985515 1.676080200922549 -1.8774760855322241 -1.5707962532760502 1.3128994419914117 4651.23200000002
2.88369584602682 -1.3661226615040178 1.6817725306317133 -1.8864462780619082 -1.5707962561784765 1.3128995245535093 4651.28200000002
2.8836959828005235 -1.3607068382835505 1.6911776282128341 -1.9012671932888139 -1.5707962609739827 1.3128996609659496 4651.33200000002
2.8836961710323017 -1.3532534316064424 1.7041211853151157 -1.9216641493961704 -1.570796267573692 1.3128998487005468 4651.3820000000205
2.8836964010896087 -1.3441438610360055 1.7199408302055326 -1.946593355480248 -1.5707962756398712 1.312900078150198 4651.432000000021
2.883696658270137 -1.3339602932741372 1.7376255744494675 -1.974461657003775 -1.5707962846570347 1.3129003346514299 4651.482000000021
2.883696924829723 -1.3234053433058863 1.7559552595913481 -2.0033462812493545 -1.5707962940030427 1.3129006005069466 4651.532000000021
2.8836971820102515 -1.313221775544018 1.773640003835283 -2.0312145827728814 -1.5707963030202061 1.3129008570081784 4651.582000000021
2.8836974120675585 -1.3041122049735812 1.7894596487257 -2.056143788856959 -1.5707963110863854 1.3129010864578297 4651.632000000021
2.8836976002993366 -1.296658798296473 1.8024032058279813 -2.076540744964315 -1.5707963176860946 1.3129012741924269 4651.682000000022
2.88369773707304 -1.2912429750760057 1.8118083034091024 -2.0913616601912213 -1.5707963224816008 1.312901410604867 4651.732000000022
2.883697819853788 -1.2879651088814719 1.8175006331182666 -2.100331852720905 -1.5707963253840271 1.3129014931669647 4651.782000000022
2.883697855232271 -1.2865642284327108 1.819933396667544 -2.1041654952769724 -1.5707963266244536 1.3129015284520014 4651.832000000022
2.883697860952651 -1.2863377187446738 1.820326752512507 -2.1047853605768188 -1.5707963268250194 1.3129015341572723 4651.882000000022
2.883697860952651 -1.2863377187446738 1.820326752512507 -2.1047853605768188 -1.5707963268250194 1.3129015341572723 4651.9320000000225
2.883697860952651 -1.2863377187446738 1.820326752512507 -2.1047853605768188 -1.5707963268250194 1.3129015341572723 4651.982000000023
2.883697860952651 -1.2863377187446738 1.820326752512507 -2.1047853605768188 -1.5707963268250194 1.3129015341572723 4652.032000000023
2.883697860952651 -1.2863377187446738 1.820326752512507 -2.1047853605768188 -1.5707963268250194 1.3129015341572723 4652.082000000023
2.883697860952651 -1.2863377187446738 1.820326752512507 -2.1047853605768188 -1.5707963268250194 1.3129015341572723 4652.132000000023
2.883697860952651 -1.2863377187446738 1.820326752512507 -2.1047853605768188 -1.5707963268250194 1.3129015341572723 4652.182000000023
2.883697855232271 -1.286564228432711 1.819933396667544 -2.1041654952769724 -1.5707963266244536 1.3129015284520014 4652.232000000024
2.883697819853788 -1.287965108881472 1.8175006331182666 -2.100331852720905 -1.5707963253840271 1.3129014931669647 4652.282000000024
2.88369773707304 -1.2912429750760057 1.8118083034091024 -2.0913616601912213 -1.5707963224816008 1.312901410604867 4652.332000000024
2.8836976002993366 -1.296658798296473 1.8024032058279815 -2.0765407449643156 -1.5707963176860946 1.3129012741924269 4652.382000000024
2.8836974120675585 -1.3041122049735812 1.7894596487257 -2.056143788856959 -1.5707963110863854 1.3129010864578297 4652.432000000024
2.8836971820102515 -1.313221775544018 1.773640003835283 -2.0312145827728814 -1.5707963030202061 1.3129008570081784 4652.4820000000245
2.883696924829723 -1.3234053433058863 1.7559552595913481 -2.0033462812493545 -1.5707962940030427 1.3129006005069466 4652.532000000025
2.883696658270137 -1.3339602932741372 1.7376255744494675 -1.974461657003775 -1.5707962846570347 1.3129003346514299 4652.582000000025
2.8836964010896087 -1.3441438610360055 1.7199408302055326 -1.9465933554802481 -1.5707962756398712 1.312900078150198 4652.632000000025
2.8836961710323017 -1.3532534316064424 1.7041211853151157 -1.9216641493961706 -1.570796267573692 1.3128998487005468 4652.682000000025
2.8836959828005235 -1.3607068382835505 1.6911776282128343 -1.901267193288814 -1.5707962609739827 1.3128996609659496 4652.732000000025
2.88369584602682 -1.3661226615040178 1.6817725306317133 -1.886446278061908 -1.5707962561784765 1.3128995245535093 4652.782000000026
2.883695763246072 -1.3694005276985517 1.676080200922549 -1.8774760855322241 -1.5707962532760502 1.3128994419914117 4652.832000000026
2.883695727867589 -1.3708014081473126 1.6736474373732717 -1.8736424429761571 -1.5707962520356238 1.312899406706375 4652.882000000026
2.883695722147209 -1.3710279178353497 1.6732540815283086 -1.873022577676311 -1.570796251835058 1.3128994010011041 4652.932000000026
2.883695722147209 -1.3710279178353497 1.6732540815283086 -1.873022577676311 -1.570796251835058 1.3128994010011041 4652.982000000026
2.883695722147209 -1.3710279178353497 1.6732540815283086 -1.873022577676311 -1.570796251835058 1.3128994010011041 4653.0320000000265
2.883695722147209 -1.3710279178353497 1.6732540815283086 -1.873022577676311 -1.570796251835058 1.3128994010011041 4653.082000000027
2.883695722147209 -1.3710279178353497 1.6732540815283086 -1.873022577676311 -1.570796251835058 1.3128994010011041 4653.132000000027
2.883695722147209 -1.3710279178353497 1.6732540815283086 -1.873022577676311 -1.570796251835058 1.3128994010011041 4653.182000000027
2.883695722147209 -1.3710279178353497 1.6732540815283086 -1.873022577676311 -1.570796251835058 1.3128994010011041 4653.232000000027
2.883695722147209 -1.3710279178353497 1.6732540815283086 -1.873022577676311 -1.570796251835058 1.3128994010011041 4653.282000000027
2.883695722147209 -1.3710279178353497 1.6732540815283086 -1.873022577676311 -1.570796251835058 1.3128994010011041 4653.332000000028
2.883695722147209 -1.3710279178353497 1.6732540815283086 -1.873022577676311 -1.570796251835058 1.3128994010011041 4653.382000000028
2.883695722147209 -1.3710279178353497 1.6732540815283086 -1.873022577676311 -1.570796251835058 1.3128994010011041 4653.432000000028
2.883695722147209 -1.3710279178353497 1.6732540815283086 -1.873022577676311 -1.570796251835058 1.3128994010011041 4653.482000000028
2.883695722147209 -1.3710279178353497 1.6732540815283086 -1.873022577676311 -1.570796251835058 1.3128994010011041 4653.532000000028
2.883695722147209 -1.3710279178353497 1.6732540815283086 -1.873022577676311 -1.570796251835058 1.3128994010011041 4653.5820000000285
2.883695722147209 -1.3710279178353497 1.6732540815283086 -1.873022577676311 -1.570796251835058 1.3128994010011041 4653.632000000029
2.883695722147209 -1.3710279178353497 1.6732540815283086 -1.873022577676311 -1.570796251835058 1.3128994010011041 4653.682000000029
2.883695722147209 -1.3710279178353497 1.6732540815283086 -1.873022577676311 -1.570796251835058 1.3128994010011041 4653.732000000029
2.883695722147209 -1.3710279178353497 1.6732540815283086 -1.873022577676311 -1.570796251835058 1.3128994010011041 4653.782000000029
2.883695722147209 -1.3710279178353497 1.6732540815283086 -1.873022577676311 -1.570796251835058 1.3128994010011041 4653.832000000029
2.883695722147209 -1.3710279178353497 1.6732540815283086 -1.873022577676311 -1.570796251835058 1.3128994010011041 4653.88200000003
2.883695722147209 -1.3710279178353497 1.6732540815283086 -1.873022577676311 -1.570796251835058 1.3128994010011041 4653.93200000003
2.883695722147209 -1.3710279178353497 1.6732540815283086 -1.873022577676311 -1.570796251835058 1.3128994010011041 4653.98200000003
2.883695722147209 -1.3710279178353497 1.6732540815283086 -1.873022577676311 -1.570796251835058 1.3128994010011041 4654.03200000003
2.883695722147209 -1.3710279178353497 1.6732540815283086 -1.873022577676311 -1.570796251835058 1.3128994010011041 4654.08200000003
2.883695722147209 -1.3710279178353497 1.6732540815283086 -1.873022577676311 -1.570796251835058 1.3128994010011041 4654.1320000000305
2.883695722147209 -1.3710279178353497 1.6732540815283086 -1.873022577676311 -1.570796251835058 1.3128994010011041 4654.182000000031
2.883695722147209 -1.3710279178353497 1.6732540815283086 -1.873022577676311 -1.570796251835058 1.3128994010011041 4654.232000000031
2.883695722147209 -1.3710279178353497 1.6732540815283086 -1.873022577676311 -1.570796251835058 1.3128994010011041 4654.282000000031
2.883695722147209 -1.3710279178353497 1.6732540815283086 -1.873022577676311 -1.570796251835058 1.3128994010011041 4654.332000000031
2.883695722147209 -1.3710279178353497 1.6732540815283086 -1.873022577676311 -1.570796251835058 1.3128994010011041 4654.382000000031
2.883695722147209 -1.3710279178353497 1.6732540815283086 -1.873022577676311 -1.570796251835058 1.3128994010011041 4654.432000000032
2.883695722147209 -1.3710279178353497 1.6732540815283086 -1.873022577676311 -1.570796251835058 1.3128994010011041 4654.482000000032
2.883695722147209 -1.3710279178353497 1.6732540815283086 -1.873022577676311 -1.570796251835058 1.3128994010011041 4654.532000000032
2.883695722147209 -1.3710279178353497 1.6732540815283086 -1.8730225776763108 -1.570796251835058 1.3128994010011041 4654.582000000032
2.8838624425623895 -1.3710273844083738 1.6732534189303234 -1.873022448509219 -1.5707962518439762 1.31306612141567 4654.632000000032
2.8849847337960024 -1.3710237936038636 1.6732489586012782 -1.8730215790110556 -1.5707962519040095 1.3141884126451442 4654.6820000000325
2.88789785823144 -1.3710144729747358 1.6732373809526764 -1.873019322060034 -1.570796252059838 1.31710153706984 4654.732000000033
2.8933114057467035 -1.3709971521668634 1.6732158658570426 -1.8730151278994802 -1.5707962523494188 1.3225150845651423 4654.782000000033
2.9018154240805214 -1.3709699433047837 1.6731820682839713 -1.8730085393883158 -1.5707962528043145 1.3310191028676024 4654.832000000033
2.9138865491984616 -1.3709313213774093 1.6731340939361734 -1.8729991872515395 -1.5707962534500213 1.3430902279410322 4654.882000000033
2.9298941356590524 -1.3708801046237362 1.6730704748855247 -1.8729867853307096 -1.5707962543062968 1.3590978143425971 4654.932000000033
2.9501063869798974 -1.3708154349185546 1.6729901452091132 -1.872971125834427 -1.5707962553874875 1.379310065588912 4654.982000000034
2.9746964860037908 -1.370736758158157 1.6728924166252876 -1.8729520745888166 -1.5707962567028575 1.403900164522133 4655.032000000034
3.0037487252648374 -1.3706438046460492 1.6727769541297042 -1.8729295662880099 -1.5707962582569155 1.4329524036760533 4655.082000000034
3.0372646373545664 -1.3705365694786584 1.6726437516313746 -1.8729035997446277 -1.5707962600497436 1.4664683156421965 4655.132000000034
3.0751691252880478 -1.3704152929310431 1.6724931075887144 -1.8728742331402615 -1.570796262077325 1.5043728034359103 4655.182000000034
3.117316592870013 -1.3702804408426037 1.67232560064559 -1.872841579275957 -1.5707962643318711 1.546520270862462 4655.2320000000345
3.163497075060965 -1.37013268500279 1.6721420652673664 -1.872805800822695 -1.5707962668021507 1.5927007528831298 4655.282000000035
3.2134423683433018 -1.3699728835368123 1.6719435673769556 -1.8727671055718755 -1.570796269473817 1.6426460459813002 4655.332000000035
3.2668321610874287 -1.3698020612913502 1.6717313799908635 -1.872725741685798 -1.5707962723297357 1.6960358385285592 4655.382000000035
3.3233001639178754 -1.3696213902202619 1.6715069588552383 -1.872681992948145 -1.5707962753503137 1.7525038411507876 4655.432000000035
3.3824402400794154 -1.3694321697702942 1.6712719180819178 -1.8726361740144646 -1.570796278513826 1.8116439170942562 4655.482000000035
3.443812535803178 -1.3692358072667918 1.6710280057844773 -1.8725886256626514 -1.5707962817967438 1.873016212591717 4655.532000000036
3.5069496106727702 -1.3690337982994067 1.6707770797142771 -1.87253971004343 -1.570796285174063 1.9361532872284997 4655.582000000036
3.571362567990389 -1.3688277071078079 1.6705210828965111 -1.8724898059308372 -1.5707962886196312 2.000566244308604 4655.632000000036
3.6365471851429403 -1.36861914696739 1.6702620192662532 -1.872439303972704 -1.570796292106477 2.0657508612207955 4655.682000000036
3.7019900439681557 -1.368409760574984 1.6700019293045059 -1.8723886019411378 -1.5707962956071368 2.131193719804699 4655.732000000036
3.7671746611207064 -1.3682012004345663 1.669742865674248 -1.8723380999830046 -1.5707962990939828 2.196378336716891 4655.7820000000365
3.8315876184383257 -1.3679951092429674 1.669486868856482 -1.8722881958704118 -1.570796302539551 2.260791293796996 4655.832000000037
3.894724693307918 -1.3677931002755823 1.6692359427862817 -1.8722392802511905 -1.5707963059168701 2.3239283684337777 4655.882000000037
3.9560969890316797 -1.36759673777208 1.6689920304888413 -1.8721917318993773 -1.5707963091997879 2.385300663931238 4655.932000000037
4.0152370651932205 -1.3674075173221123 1.6687569897155208 -1.8721459129656968 -1.5707963123633002 2.444440739874707 4655.982000000037
4.071705068023666 -1.367226846251024 1.6685325685798955 -1.8721021642280438 -1.5707963153838782 2.500908742496935 4656.032000000037
4.125094860767793 -1.3670560240055618 1.6683203811938034 -1.8720608003419663 -1.570796318239797 2.554298535044194 4656.082000000038
4.175040154050131 -1.3668962225395842 1.6681218833033926 -1.8720221050911467 -1.5707963209114633 2.6042438281423648 4656.132000000038
4.221220636241084 -1.3667484666997705 1.667938347925169 -1.871986326637885 -1.5707963233817428 2.650424310163033 4656.182000000038
4.263368103823049 -1.366613614611331 1.6677708409820446 -1.8719536727735804 -1.570796325636289 2.6925717775895848 4656.232000000038
4.301272591756529 -1.3664923380637157 1.6676201969393845 -1.8719243061692141 -1.5707963276638703 2.730476265383297 4656.282000000038
4.334788503846259 -1.366385102896325 1.6674869944410549 -1.871898339625832 -1.5707963294566984 2.763992177349442 4656.3320000000385
4.363840743107305 -1.366292149384217 1.6673715319454714 -1.8718758313250252 -1.5707963310107564 2.7930444165033625 4656.382000000039
4.3884308421312 -1.3662134726238195 1.6672738033616459 -1.8718567800794148 -1.5707963323261265 2.817634515436583 4656.432000000039
4.408643093452044 -1.366148802918638 1.6671934736852343 -1.8718411205831322 -1.5707963334073172 2.8378467666828966 4656.482000000039
4.424650679912636 -1.366097586164965 1.6671298546345856 -1.8718287186623024 -1.5707963342635927 2.853854353084463 4656.532000000039
4.436721805030576 -1.3660589642375904 1.6670818802867877 -1.871819366525526 -1.5707963349092995 2.8659254781578944 4656.582000000039
4.445225823364394 -1.3660317553755108 1.6670480827137164 -1.8718127780143616 -1.5707963353641952 2.874429496460351 4656.63200000004
4.45063937087966 -1.3660144345676382 1.6670265676180829 -1.8718085838538079 -1.570796335653776 2.879843043955656 4656.68200000004
4.453552495315094 -1.3660051139385105 1.6670149899694808 -1.8718063269027863 -1.5707963358096044 2.88275616838035 4656.73200000004
4.454674786548708 -1.3660015231340004 1.6670105296404358 -1.8718054574046228 -1.5707963358696377 2.8838784596098233 4656.78200000004
4.454841506963888 -1.3660009897070244 1.6670098670424505 -1.871805328237531 -1.570796335878556 2.8840451800243905 4656.83200000004
4.454841506963886 -1.3660009897070244 1.6670098670424505 -1.871805328237531 -1.570796335878556 2.8840451800243905 4656.8820000000405
4.454841496852375 -1.3657755005395669 1.667402839112156 -1.8724237909570693 -1.570796336647581 2.8840451698929104 4656.932000000041
4.45484143431634 -1.3643809316412725 1.6698332291503502 -1.87624875906151 -1.5707963414037223 2.8840451072333737 4656.982000000041
4.454841287990682 -1.3611178336005298 1.6755200051723673 -1.8851986545760087 -1.5707963525324342 2.884044960618737 4657.032000000041
4.454841046225505 -1.3557264109215972 1.6849159267267608 -1.8999860342527655 -1.5707963709197423 2.884044718376099 4657.082000000041
4.4548407135015395 -1.348306584948991 1.6978468555256259 -1.920336837802473 -1.5707963962248679 2.8840443849950375 4657.132000000041
4.454840306845552 -1.3392380567918714 1.7136510660749231 -1.9452096361257611 -1.5707964271528496 2.8840439775359465 4657.182000000042
4.45483985224577 -1.329100370248431 1.7313185563048037 -1.9730148795446438 -1.5707964617271686 2.884043522038376 4657.232000000042
4.454839381067291 -1.3185929747302818 1.7496303581999328 -2.0018341460339655 -1.5707964975623705 2.884043049929369 4657.282000000042
4.454838926467509 -1.3084552881868414 1.7672978484298134 -2.029639389452848 -1.5707965321366895 2.884042594431799 4657.332000000042
4.4548385198115215 -1.299386760029722 1.7831020589791107 -2.0545121877761363 -1.5707965630646712 2.884042186972708 4657.382000000042
4.454838187087556 -1.2919669340571156 1.7960329877779757 -2.0748629913258436 -1.5707965883697967 2.8840418535916466 4657.4320000000425
4.454837945322379 -1.286575511378183 1.8054289093323694 -2.089650371002601 -1.5707966067571049 2.8840416113490086 4657.482000000043
4.454837798996721 -1.2833124133374403 1.8111156853543866 -2.0986002665170993 -1.5707966178858168 2.8840414647343717 4657.532000000043
4.454837736460686 -1.281917844439146 1.8135460753925805 -2.10242523462154 -1.570796622641958 2.884041402074835 4657.582000000043
4.454837726349175 -1.2816923552716883 1.813939047462286 -2.103043697341078 -1.5707966234109831 2.884041391943355 4657.632000000043
4.454837726349175 -1.2816923552716883 1.813939047462286 -2.103043697341078 -1.5707966234109831 2.884041391943355 4657.682000000043
4.454837726349175 -1.2816923552716883 1.813939047462286 -2.103043697341078 -1.5707966234109831 2.884041391943355 4657.732000000044
4.454837726349175 -1.2816923552716883 1.813939047462286 -2.103043697341078 -1.5707966234109831 2.884041391943355 4657.782000000044
4.454837726349175 -1.2816923552716883 1.813939047462286 -2.103043697341078 -1.5707966234109831 2.884041391943355 4657.832000000044
4.454837726349175 -1.2816923552716883 1.813939047462286 -2.103043697341078 -1.5707966234109831 2.884041391943355 4657.882000000044
4.454837726349175 -1.2816923552716883 1.813939047462286 -2.103043697341078 -1.5707966234109831 2.884041391943355 4657.932000000044
4.454837726349175 -1.2816923552716883 1.813939047462286 -2.103043697341078 -1.5707966234109831 2.884041391943355 4657.9820000000445
4.454837726349175 -1.2816923552716883 1.813939047462286 -2.103043697341078 -1.5707966234109831 2.884041391943355 4658.032000000045
4.454837726349175 -1.2816923552716883 1.813939047462286 -2.103043697341078 -1.5707966234109831 2.884041391943355 4658.082000000045
4.454837726349175 -1.2816923552716883 1.813939047462286 -2.103043697341078 -1.5707966234109831 2.884041391943355 4658.132000000045
4.454837726349175 -1.2816923552716883 1.813939047462286 -2.103043697341078 -1.5707966234109831 2.884041391943355 4658.182000000045
4.454837726349175 -1.2816923552716883 1.813939047462286 -2.103043697341078 -1.5707966234109831 2.884041391943355 4658.232000000045
4.454837726349175 -1.2816923552716883 1.813939047462286 -2.103043697341078 -1.5707966234109831 2.884041391943355 4658.282000000046
4.454837726349175 -1.2816923552716883 1.813939047462286 -2.103043697341078 -1.5707966234109831 2.884041391943355 4658.332000000046
4.454837736460686 -1.281917844439146 1.8135460753925805 -2.10242523462154 -1.570796622641958 2.884041402074835 4658.382000000046
4.454837798996721 -1.2833124133374403 1.8111156853543864 -2.0986002665170993 -1.5707966178858168 2.8840414647343717 4658.432000000046
4.454837945322379 -1.286575511378183 1.8054289093323692 -2.089650371002601 -1.5707966067571049 2.8840416113490086 4658.482000000046
4.454838187087556 -1.2919669340571156 1.7960329877779757 -2.0748629913258436 -1.5707965883697967 2.8840418535916466 4658.5320000000465
4.4548385198115215 -1.2993867600297218 1.7831020589791107 -2.0545121877761363 -1.5707965630646712 2.884042186972708 4658.582000000047
4.454838926467509 -1.3084552881868414 1.7672978484298134 -2.029639389452848 -1.5707965321366895 2.884042594431799 4658.632000000047
4.454839381067291 -1.3185929747302818 1.7496303581999328 -2.0018341460339655 -1.5707964975623705 2.884043049929369 4658.682000000047
4.45483985224577 -1.329100370248431 1.7313185563048037 -1.9730148795446438 -1.5707964617271686 2.884043522038376 4658.732000000047
4.454840306845552 -1.3392380567918714 1.7136510660749231 -1.9452096361257611 -1.5707964271528496 2.8840439775359465 4658.782000000047
4.4548407135015395 -1.348306584948991 1.6978468555256259 -1.920336837802473 -1.5707963962248679 2.8840443849950375 4658.832000000048
4.454841046225505 -1.3557264109215972 1.6849159267267608 -1.8999860342527657 -1.5707963709197423 2.884044718376099 4658.882000000048
4.454841287990682 -1.3611178336005298 1.675520005172367 -1.8851986545760084 -1.5707963525324342 2.884044960618737 4658.932000000048
4.45484143431634 -1.3643809316412725 1.66983322915035 -1.8762487590615098 -1.5707963414037223 2.8840451072333737 4658.982000000048
4.454841496852375 -1.3657755005395669 1.667402839112156 -1.8724237909570691 -1.570796336647581 2.8840451698929104 4659.032000000048
4.454841506963886 -1.3660009897070244 1.6670098670424505 -1.871805328237531 -1.570796335878556 2.8840451800243905 4659.0820000000485
4.454841506963886 -1.3660009897070244 1.6670098670424505 -1.871805328237531 -1.570796335878556 2.8840451800243905 4659.132000000049
4.454664701061279 -1.365998192047157 1.6670063519047984 -1.8718046107445616 -1.5707963358776438 2.8838683741218287 4659.182000000049
4.4534767409041685 -1.3659793945499763 1.6669827336691192 -1.8717997899040346 -1.5707963358715142 2.8826804139650233 4659.232000000049
4.450399886360963 -1.3659307084351644 1.6669215616884616 -1.8717873037739323 -1.5707963358556385 2.8796035594226086 4659.282000000049
4.444695457009478 -1.3658404453114308 1.666808150008757 -1.8717641547280348 -1.5707963358262054 2.8738991300725893 4659.332000000049
4.435756700869783 -1.3656990043360508 1.6666304355896964 -1.8717278805166464 -1.570796335780084 2.8649603739351925 4659.38200000005
4.423101663137061 -1.3654987593744015 1.666378836525608 -1.8716765253273258 -1.5707963357147878 2.8523053362057214 4659.43200000005
4.406366054914446 -1.3652339461594987 1.6660461102663355 -1.8716086108456136 -1.5707963356284373 2.8355697279874077 4659.48200000005
4.385296121945888 -1.364900549451535 1.6656272118381161 -1.8715231073157605 -1.5707963355197228 2.8144997950242643 4659.53200000005
4.359741513348995 -1.364496190197416 1.665119152064458 -1.871419404601456 -1.5707963353878687 2.788945186433938 4659.58200000005
4.329648150347886 -1.3640200126902973 1.664520855787018 -1.8712972832465575 -1.570796335232596 2.7588518234405623 4659.6320000000505
4.295051095006045 -1.363472571729122 1.66383302008648 -1.8711568855358165 -1.5707963350540857 2.724254768107612 4659.682000000051
4.256067418959167 -1.3628557197781574 1.6630579725034327 -1.8709986865556094 -1.5707963348529417 2.685271092070752 4659.732000000051
4.2128890721480134 -1.3621724941265319 1.6621995292592469 -1.8708234652546645 -1.5707963346301543 2.642092745270695 4659.782000000051
4.165775751551261 -1.361427004047772 1.6612628534769545 -1.8706322755047902 -1.570796334387064 2.5949794246860494 4659.832000000051
4.115047769918353 -1.3606243179593402 1.6602543134021246 -1.8704264171616047 -1.5707963341253228 2.5442514430661776 4659.882000000051
4.0610789245023495 -1.3597703505821708 1.6591813406237435 -1.8702074071252628 -1.5707963338468598 2.4902825976640433 4659.932000000052
4.004289365792781 -1.3588717501002077 1.6580522882950908 -1.8699769504011854 -1.5707963335538428 2.4334930389690683 4659.982000000052
3.945138466248495 -1.3579357853199407 1.6568762893546176 -1.8697369111607867 -1.570796333248642 2.3743421394399835 4660.032000000052
3.884117689030512 -1.3569702328299438 1.6556631147468255 -1.869489283802204 -1.5707963329337933 2.313321362237681 4660.082000000052
3.8217434567348727 -1.3559832641604108 1.6544230316431427 -1.869236164011025 -1.5707963326119612 2.2509471299580706 4660.132000000052
3.75855002012549 -1.3549833329426935 1.6531666616628038 -1.8689797198210167 -1.570796332285902 2.187753693364928 4660.1820000000525
3.695082326867002 -1.353979062068837 1.6519048390937257 -1.8687221626748536 -1.570796331958428 2.1242860001227495 4660.232000000053
3.63188889025762 -1.3529791308511196 1.6506484691133867 -1.8684657184848452 -1.5707963316323688 2.0610925635296073 4660.282000000053
3.5695146579619803 -1.3519921621815867 1.649408386009704 -1.8682125986936664 -1.5707963313105366 1.9987183312499963 4660.332000000053
3.5084938807439974 -1.3510266096915897 1.6481952114019118 -1.8679649713350837 -1.5707963309956878 1.9376975540476944 4660.382000000053
3.4493429811997123 -1.3500906449113228 1.6470192124614387 -1.8677249320946852 -1.570796330690487 1.8785466545186091 4660.432000000053
3.3925534224901424 -1.3491920444293597 1.645890160132786 -1.8674944753706075 -1.5707963303974701 1.8217570958236338 4660.482000000054
3.33858457707414 -1.3483380770521902 1.6448171873544049 -1.8672754653342656 -1.570796330119007 1.7677882504215003 4660.532000000054
3.287856595441233 -1.3475353909637584 1.643808647279575 -1.8670696069910802 -1.570796329857266 1.717060268801628 4660.582000000054
3.2407432748444798 -1.3467899008849988 1.6428719714972826 -1.8668784172412058 -1.5707963296141756 1.6699469482169826 4660.632000000054
3.1975649280333256 -1.346106675233373 1.6420135282530968 -1.866703195940261 -1.5707963293913882 1.6267686014169245 4660.682000000054
3.1585812519864493 -1.3454898232824084 1.6412384806700495 -1.8665449969600538 -1.5707963291902443 1.587784925380066 4660.7320000000545
3.1239841966446056 -1.3449423823212332 1.6405506449695115 -1.8664045992493128 -1.570796329011734 1.5531878700471147 4660.782000000055
3.0938908336434983 -1.3444662048141145 1.6399523486920715 -1.8662824778944143 -1.5707963288564613 1.5230945070537398 4660.832000000055
3.068336225046605 -1.3440618455599955 1.6394442889184133 -1.8661787751801098 -1.5707963287246072 1.4975398984634136 4660.882000000055
3.0472662920780476 -1.3437284488520318 1.639025390490194 -1.8660932716502567 -1.5707963286158926 1.4764699655002715 4660.932000000055
3.0305306838554316 -1.343463635637129 1.6386926642309214 -1.8660253571685446 -1.570796328529542 1.4597343572819543 4660.982000000055
3.017875646122711 -1.3432633906754796 1.638441065166833 -1.865974001979224 -1.5707963284642459 1.4470793195524863 4661.032000000056
3.0089368899830156 -1.3431219497000997 1.6382633507477724 -1.8659377277678355 -1.5707963284181246 1.4381405634150877 4661.082000000056
3.00323246063153 -1.3430316865763663 1.6381499390680678 -1.865914578721938 -1.5707963283886914 1.4324361340650693 4661.132000000056
3.000155606088324 -1.3429830004615542 1.6380887670874102 -1.8659020925918357 -1.5707963283728157 1.4293592795226555 4661.182000000056
4.454820156097412 -1.3659646970084687 1.667030159627096 -1.8717996082701625 -1.5708335081683558 2.8840792179107666 4662.682
4.454364750296336 -1.3661266041256865 1.66721811578407 -1.8718257293234595 -1.5708334651076519 2.883623747962765 4662.732
4.451454134590919 -1.3671613941900214 1.6684193919670396 -1.8719926756991727 -1.5708331898956092 2.880712722277831 4662.782
4.44435565334296 -1.3696850656776667 1.6713490939000557 -1.8723998286308388 -1.5708325187017032 2.873613241161732 4662.832
4.432044459174972 -1.3740619751341154 1.6764301990113866 -1.873105971060848 -1.5708313546219215 2.8613003128804344 4662.8820000000005
4.414115036937589 -1.3804362924154983 1.6838300724704913 -1.8741343624268365 -1.5708296593129498 2.8433683651650745 4662.932000000001
4.390692727676979 -1.3887634559299202 1.6934969832249918 -1.8754778134480803 -1.570827444626358 2.8199427567169373 4662.982000000001
4.362345252602252 -1.3988416278787987 1.7051966200376454 -1.8771037609118886 -1.5708247642427862 2.7915912887124312 4663.032000000001
4.329994237052879 -1.410343149498201 1.718548607523319 -1.878959342459997 -1.5708217053061302 2.7592357163080616 4663.082000000001
4.294826734466092 -1.422845996300182 1.7330630221859602 -1.8809764713749613 -1.570818380057728 2.7240632601454093 4663.132000000001
4.2582067503443035 -1.4358652333141209 1.748176908455572 -1.8830769113665502 -1.5708149174705457 2.687438117856103 4663.182000000002
4.221586766222516 -1.4488844703280597 1.763290794725184 -1.885177351358139 -1.5708114548833634 2.6508129755667964 4663.232000000002
4.186419263635729 -1.4613873171300407 1.7778052093878254 -1.887194480273103 -1.5708081296349612 2.615640519404144 4663.282000000002
4.1540682480863556 -1.472888838749443 1.7911571968734987 -1.8890500618212116 -1.5708050706983052 2.5832849469997745 4663.332000000002
4.125720773011629 -1.4829670106983215 1.8028568336861523 -1.8906760092850199 -1.5708023903147335 2.5549334789952685 4663.382000000002
4.102298463751019 -1.4912941742127435 1.8125237444406526 -1.8920194603062637 -1.5708001756281416 2.5315078705471312 4663.4320000000025
4.084369041513636 -1.4976684914941263 1.8199236178997575 -1.8930478516722522 -1.57079848031917 2.5135759228317713 4663.482000000003
4.072057847345648 -1.502045400950575 1.8250047230110882 -1.8937539941022614 -1.5707973162393882 2.501262994550474 4663.532000000003
4.064959366097689 -1.5045690724382204 1.827934424944105 -1.8941611470339277 -1.5707966450454822 2.4941635134343745 4663.582000000003
4.062048750392272 -1.5056038625025552 1.8291357011270744 -1.8943280934096407 -1.5707963698334395 2.49125248774944 4663.632000000003
4.061593344591196 -1.505765769619773 1.829323657284048 -1.8943542144629377 -1.5707963267727356 2.490797017801439 4663.682000000003
4.061593344591196 -1.505765769619773 1.829323657284048 -1.8943542144629377 -1.5707963267727356 2.490797017801439 4663.732000000004
4.061593344542003 -1.5055142021740613 1.8297338226538542 -1.8950159472814936 -1.5707963267676823 2.490797017752642 4663.782000000004
4.061593344237762 -1.503958348562251 1.8322705470310752 -1.899108525289313 -1.5707963267364298 2.49079701745085 4663.832000000004
4.061593343525883 -1.5003178666336852 1.8382061306765567 -1.9086845909073227 -1.570796326663303 2.490797016744698 4663.882000000004
4.061593342349685 -1.4943029150181197 1.848013142258614 -1.9245065541775812 -1.5707963265424798 2.4907970155779644 4663.932000000004
4.061593340730969 -1.4860249711656488 1.861509824597125 -1.9462811804685274 -1.5707963263761997 2.490797013972274 4663.9820000000045
4.061593338752571 -1.4759076493866286 1.8780055004076317 -1.97289417818023 -1.5707963261729716 2.4907970120097955 4664.032000000005
4.061593336540924 -1.464597518891604 1.8964459780454317 -2.002644786449635 -1.5707963259457836 2.490797009815945 4664.082000000005
4.061593334248622 -1.452874921831232 1.915558957249679 -2.0334803628558156 -1.5707963257103104 2.4907970075420875 4664.132000000005
4.061593332036975 -1.4415647913362075 1.933999434887479 -2.06323097112522 -1.5707963254831223 2.490797005348237 4664.182000000005
4.061593330058577 -1.4314474695571873 1.9504951106979853 -2.089843968836923 -1.5707963252798942 2.4907970033857585 4664.232000000005
4.061593328439861 -1.4231695257047163 1.9639917930364967 -2.1116185951278688 -1.5707963251136141 2.4907970017800682 4664.282000000006
4.0615933272636635 -1.417154574089151 1.973798804618554 -2.1274405583981277 -1.570796324992791 2.490797000613335 4664.332000000006
4.061593326551784 -1.413514092160585 1.9797343882640357 -2.1370166240161375 -1.5707963249196641 2.490796999907183 4664.382000000006
4.061593326247543 -1.4119582385487748 1.9822711126412564 -2.141109202023957 -1.5707963248884116 2.4907969996053905 4664.432000000006
4.06159332619835 -1.411706671103063 1.9826812780110625 -2.141770934842513 -1.5707963248833583 2.4907969995565935 4664.482000000006
4.06159332619835 -1.411706671103063 1.9826812780110625 -2.141770934842513 -1.5707963248833583 2.4907969995565935 4664.5320000000065
4.06159332619835 -1.411706671103063 1.9826812780110625 -2.141770934842513 -1.5707963248833583 2.4907969995565935 4664.582000000007
4.06159332619835 -1.411706671103063 1.9826812780110625 -2.141770934842513 -1.5707963248833583 2.4907969995565935 4664.632000000007
4.06159332619835 -1.411706671103063 1.9826812780110625 -2.141770934842513 -1.5707963248833583 2.4907969995565935 4664.682000000007
4.06159332619835 -1.411706671103063 1.9826812780110625 -2.141770934842513 -1.5707963248833583 2.4907969995565935 4664.732000000007
4.06159332619835 -1.411706671103063 1.9826812780110625 -2.141770934842513 -1.5707963248833583 2.4907969995565935 4664.782000000007
4.06159332619835 -1.411706671103063 1.9826812780110625 -2.141770934842513 -1.5707963248833583 2.4907969995565935 4664.832000000008
4.06159332619835 -1.411706671103063 1.9826812780110625 -2.141770934842513 -1.5707963248833583 2.4907969995565935 4664.882000000008
4.06159332619835 -1.411706671103063 1.9826812780110625 -2.141770934842513 -1.5707963248833583 2.4907969995565935 4664.932000000008
4.06159332619835 -1.411706671103063 1.9826812780110625 -2.141770934842513 -1.5707963248833583 2.4907969995565935 4664.982000000008
4.06159332619835 -1.411706671103063 1.9826812780110625 -2.141770934842513 -1.5707963248833583 2.4907969995565935 4665.032000000008
4.06159332619835 -1.411706671103063 1.9826812780110625 -2.141770934842513 -1.5707963248833583 2.4907969995565935 4665.0820000000085
4.06159332619835 -1.411706671103063 1.9826812780110625 -2.141770934842513 -1.5707963248833583 2.4907969995565935 4665.132000000009
4.06159332619835 -1.411706671103063 1.9826812780110625 -2.1417709348425125 -1.5707963248833583 2.4907969995565935 4665.182000000009
4.061593326247543 -1.4119582385487748 1.9822711126412564 -2.1411092020239564 -1.5707963248884116 2.4907969996053905 4665.232000000009
4.061593326551784 -1.413514092160585 1.9797343882640355 -2.137016624016137 -1.5707963249196641 2.490796999907183 4665.282000000009
4.0615933272636635 -1.417154574089151 1.973798804618554 -2.1274405583981273 -1.570796324992791 2.490797000613335 4665.332000000009
4.061593328439861 -1.4231695257047163 1.9639917930364967 -2.111618595127869 -1.5707963251136141 2.4907970017800682 4665.38200000001
4.061593330058577 -1.4314474695571873 1.9504951106979855 -2.089843968836923 -1.5707963252798942 2.4907970033857585 4665.43200000001
4.061593332036975 -1.4415647913362075 1.933999434887479 -2.06323097112522 -1.5707963254831223 2.490797005348237 4665.48200000001
4.061593334248622 -1.452874921831232 1.915558957249679 -2.0334803628558156 -1.5707963257103104 2.4907970075420875 4665.53200000001
4.061593336540924 -1.464597518891604 1.8964459780454317 -2.002644786449635 -1.5707963259457836 2.490797009815945 4665.58200000001
4.061593338752571 -1.4759076493866286 1.8780055004076317 -1.9728941781802298 -1.5707963261729716 2.4907970120097955 4665.6320000000105
4.061593340730969 -1.4860249711656488 1.8615098245971253 -1.9462811804685276 -1.5707963263761997 2.490797013972274 4665.682000000011
4.061593342349685 -1.4943029150181197 1.848013142258614 -1.9245065541775812 -1.5707963265424798 2.4907970155779644 4665.732000000011
4.061593343525883 -1.5003178666336852 1.8382061306765567 -1.9086845909073225 -1.570796326663303 2.490797016744698 4665.782000000011
4.061593344237762 -1.503958348562251 1.832270547031075 -1.8991085252893127 -1.5707963267364298 2.49079701745085 4665.832000000011
4.061593344542003 -1.5055142021740613 1.8297338226538542 -1.8950159472814936 -1.5707963267676823 2.490797017752642 4665.882000000011
4.061593344591196 -1.505765769619773 1.829323657284048 -1.8943542144629375 -1.5707963267727356 2.490797017801439 4665.932000000012
4.061593344591196 -1.505765769619773 1.829323657284048 -1.8943542144629377 -1.5707963267727356 2.490797017801439 4665.982000000012
4.061374935146522 -1.505732312782169 1.8292843523029478 -1.8943483663192466 -1.570796326773063 2.4905786083568118 4666.032000000012
4.059919469793582 -1.5055093587426824 1.8290224266418356 -1.8943093946963196 -1.5707963267752445 2.4891231430041785 4666.082000000012
4.056186049826953 -1.504937458449091 1.8283505600865833 -1.894209428431322 -1.5707963267808407 2.4853897230383377 4666.132000000012
4.049336261395763 -1.503888180293981 1.8271178716136531 -1.89402601810738 -1.5707963267911078 2.4785399346085946 4666.1820000000125
