Andreas691667/Digital_Twin_UR/src/dt/dt_trajectories/E6_dt_trajectory.csv
actual_q_0 actual_q_1 actual_q_2 actual_q_3 actual_q_4 actual_q_5 timestamp
3.71207804710797 -0.8254843255005873 0.8429764792549035 -1.5882884806323445 -1.570796326807946 2.141281720311417 6787.21
3.71207804710797 -0.8254843255005873 0.8429764792549035 -1.5882884806323445 -1.570796326807946 2.141281720311417 6787.26
3.71207804710797 -0.8254843255005873 0.8429764792549035 -1.5882884806323445 -1.570796326807946 2.141281720311417 6787.31
3.71207804710797 -0.8254843255005873 0.8429764792549035 -1.5882884806323445 -1.570796326807946 2.141281720311417 6787.360000000001
3.71207804710797 -0.8254843255005873 0.8429764792549035 -1.5882884806323445 -1.570796326807946 2.141281720311417 6787.410000000001
3.71207804710797 -0.8254843255005873 0.8429764792549035 -1.5882884806323445 -1.570796326807946 2.141281720311417 6787.460000000001
3.71207804710797 -0.8254843255005873 0.8429764792549035 -1.5882884806323445 -1.570796326807946 2.141281720311417 6787.510000000001
3.71207804710797 -0.8254843255005873 0.8429764792549035 -1.5882884806323445 -1.570796326807946 2.141281720311417 6787.560000000001
3.71207804710797 -0.8254843255005873 0.8429764792549035 -1.5882884806323445 -1.570796326807946 2.141281720311417 6787.6100000000015
3.71207804710797 -0.8254843255005873 0.8429764792549035 -1.5882884806323445 -1.570796326807946 2.141281720311417 6787.660000000002
3.71207804710797 -0.8254843255005873 0.8429764792549035 -1.5882884806323445 -1.570796326807946 2.141281720311417 6787.710000000002
3.71207804710797 -0.8254843255005873 0.8429764792549035 -1.5882884806323445 -1.570796326807946 2.141281720311417 6787.760000000002
3.71207804710797 -0.8254843255005873 0.8429764792549035 -1.5882884806323445 -1.570796326807946 2.141281720311417 6787.810000000002
3.712302100445105 -0.8255991797814494 0.8431504756584648 -1.5883476227577187 -1.5707963268629916 2.1415057736482686 6787.860000000002
3.7137951763049775 -0.8263645607231098 0.8443099755935445 -1.588741741768964 -1.5707963272298118 2.142998849506254 6787.910000000003
3.717625071132552 -0.8283278424212271 0.8472842134894762 -1.5897526980125036 -1.5707963281707442 2.146828744328989 6787.960000000003
3.724651864131218 -0.8319299189042199 0.8527411137346294 -1.5916075218585575 -1.5707963298970935 2.153855537318775 6788.010000000003
3.7355408995903905 -0.837511859137468 0.8611973725539686 -1.5944818405746537 -1.5707963325723222 2.164744572764187 6788.060000000003
3.7507757692131087 -0.845321562027516 0.8730285398866147 -1.5985033051991422 -1.5707963363152397 2.179979442367652 6788.110000000003
3.7706712944436314 -0.8555204114262757 0.8884791012634048 -1.6037550174147068 -1.5707963412031918 2.1998749675730322 6788.1600000000035
3.795386508795039 -0.8681899311352279 0.9076725596844525 -1.6102789564218791 -1.5707963472752495 2.2245901818932063 6788.210000000004
3.824937640176829 -0.8833384399096261 0.9306215174967081 -1.6180794058125498 -1.5707963545354002 2.2541413132376515 6788.260000000004
3.859211093222516 -0.9009077064626979 0.9572377582715189 -1.6271263804434823 -1.5707963629557353 2.288414766240026 6788.310000000004
3.8979764316172294 -0.9207796044698482 0.9873423286821899 -1.6373590533098255 -1.5707963724796412 2.3271801045857505 6788.360000000004
3.9408993604253117 -0.9427827675728616 1.0206756203815437 -1.648689182418626 -1.570796383024988 2.37010303333959 6788.410000000004
3.987554708417918 -0.9666992443841051 1.0569074518794808 -1.6610045376623415 -1.5707963944873191 2.416758381273236 6788.460000000005
4.037439410400611 -0.9922711534907303 1.0956471504205398 -1.6741723276923528 -1.570796406743041 2.4666430831928885 6788.510000000005
4.089985489540965 -1.0192073384588758 1.1364536338614584 -1.6880426267924775 -1.5707964196526127 2.519189162266838 6788.560000000005
4.144573039696158 -1.0471900228378708 1.1788454925487324 -1.7024518017524817 -1.570796433063735 2.5737767123530473 6788.610000000005
4.200543207740575 -1.0758814651644362 1.222311071196177 -1.7172259387415933 -1.5707964468145401 2.6297468803267323 6788.660000000005
4.257211175893402 -1.104930613966888 1.2663185507624877 -1.7321842701820154 -1.5707964607367817 2.6864148484079466 6788.7100000000055
4.313879144046229 -1.1339797627693398 1.310326030328798 -1.7471426016224372 -1.570796474659023 2.743082816489161 6788.760000000006
4.369849312090646 -1.1626712050959052 1.353791608976243 -1.761916738611549 -1.5707964884098282 2.799052984462847 6788.810000000006
4.424436862245839 -1.1906538894749001 1.3961834676635165 -1.776325913571553 -1.5707965018209504 2.853640534549055 6788.860000000006
4.476982941386193 -1.2175900744430457 1.4369899511044353 -1.7901962126716777 -1.570796514730522 2.906186613623005 6788.910000000006
4.526867643368886 -1.2431619835496708 1.4757296496454944 -1.803364002701689 -1.570796526986244 2.956071315542658 6788.960000000006
4.573522991361491 -1.267078460360914 1.5119614811434312 -1.8156793579454045 -1.5707965384485751 3.0027266634763032 6789.010000000007
4.616445920169575 -1.289081623463928 1.5452947728427855 -1.8270094870542053 -1.570796548993922 3.0456495922301436 6789.060000000007
4.655211258564289 -1.3089535214710786 1.575399343253457 -1.8372421599205484 -1.5707965585178278 3.0844149305758686 6789.110000000007
4.689484711609975 -1.3265227880241497 1.602015584028267 -1.8462891345514807 -1.570796566938163 3.118688383578242 6789.160000000007
4.719035842991765 -1.3416712967985478 1.6249645418405225 -1.8540895839421516 -1.5707965741983136 3.1482395149226874 6789.210000000007
4.743751057343172 -1.3543408165075 1.6441580002615697 -1.8606135229493235 -1.5707965802703714 3.1729547292428615 6789.2600000000075
4.7636465825736956 -1.3645396659062594 1.65960856163836 -1.8658652351648883 -1.5707965851583234 3.192850254448242 6789.310000000008
4.778881452196413 -1.3723493687963073 1.6714397289710057 -1.8698866997893768 -1.570796588901241 3.2080851240517068 6789.360000000008
4.789770487655584 -1.3779313090295555 1.6798959877903443 -1.8727610185054726 -1.5707965915764697 3.218974159497118 6789.410000000008
4.7967972806542525 -1.3815333855125485 1.6853528880354989 -1.8746158423515267 -1.570796593302819 3.2260009524869053 6789.460000000008
4.800627175481825 -1.383496667210665 1.688327125931429 -1.875626798595066 -1.5707965942437514 3.229830847309638 6789.510000000008
4.802120251341698 -1.3842620481523258 1.6894866258665089 -1.8760209176063116 -1.5707965946105715 3.2313239231676256 6789.560000000009
4.802344304678834 -1.3843769024331887 1.689660622270071 -1.8760800597316858 -1.5707965946656173 3.231547976504478 6789.610000000009
4.802344304678834 -1.384376902433189 1.6896606222700719 -1.8760800597316862 -1.5707965946656173 3.2315479765044763 6789.660000000009
4.802344307386492 -1.384147745783343 1.6900552203559738 -1.8767038144324433 -1.5707965939491735 3.2315479792158253 6789.710000000009
4.802344324132375 -1.3827304948337065 1.6924956667159023 -1.8805615115256038 -1.5707965895182276 3.2315479959845366 6789.760000000009
4.802344363315421 -1.3794143239348313 1.6982059731377366 -1.8895879883399567 -1.5707965791504284 3.2315480352209986 6789.8100000000095
4.802344428055237 -1.3739352121312087 1.7076407725712601 -1.9045018987404798 -1.5707965620203306 3.231548100049069 6789.86000000001
4.802344517151974 -1.366394705944188 1.720625206189633 -1.9250268373944897 -1.5707965384454132 3.2315481892672646 6789.91000000001
4.802344626046208 -1.3571786821548983 1.736494810450864 -1.9501124640377867 -1.5707965096320957 3.2315482983099457 6789.96000000001
4.80234474777882 -1.3468761105871672 1.7542354041592816 -1.978155627740803 -1.5707964774217549 3.231548420208505 6790.01000000001
4.8023448739508705 -1.3361978168904423 1.7726229755270069 -2.0072214911747506 -1.5707964440367426 3.2315485465525557 6790.06000000001
4.802344995683482 -1.325895245322711 1.7903635692354243 -2.035264654877767 -1.5707964118264017 3.231548668451115 6790.110000000011
4.802345104577716 -1.3166792215334213 1.8062331734966552 -2.060350281521064 -1.5707963830130842 3.231548777493796 6790.160000000011
4.802345193674453 -1.3091387153464007 1.8192176071150283 -2.0808752201750735 -1.5707963594381669 3.2315488667119916 6790.210000000011
4.802345258414269 -1.3036596035427779 1.8286524065485519 -2.0957891305755973 -1.570796342308069 3.231548931540062 6790.260000000011
4.8023452975973155 -1.3003434326439027 1.8343627129703863 -2.1048156073899498 -1.5707963319402698 3.231548970776524 6790.310000000011
4.8023453143431984 -1.2989261816942663 1.8368031593303147 -2.1086733044831103 -1.570796327509324 3.2315489875452355 6790.3600000000115
4.8023453170508565 -1.2986970250444205 1.8371977574162166 -2.1092970591838673 -1.5707963267928802 3.2315489902565844 6790.410000000012
4.8023453170508565 -1.2986970250444205 1.8371977574162166 -2.1092970591838673 -1.5707963267928802 3.2315489902565844 6790.460000000012
4.8023453170508565 -1.2986970250444205 1.8371977574162166 -2.1092970591838673 -1.5707963267928802 3.2315489902565844 6790.510000000012
4.8023453170508565 -1.2986970250444205 1.8371977574162166 -2.1092970591838673 -1.5707963267928802 3.2315489902565844 6790.560000000012
4.8023453170508565 -1.2986970250444205 1.8371977574162166 -2.1092970591838673 -1.5707963267928802 3.2315489902565844 6790.610000000012
4.8023453170508565 -1.2986970250444205 1.8371977574162166 -2.1092970591838673 -1.5707963267928802 3.2315489902565844 6790.660000000013
4.8023453170508565 -1.2986970250444205 1.8371977574162166 -2.1092970591838673 -1.5707963267928802 3.2315489902565844 6790.710000000013
4.8023453170508565 -1.2986970250444205 1.8371977574162166 -2.1092970591838673 -1.5707963267928802 3.2315489902565844 6790.760000000013
4.8023453170508565 -1.2986970250444205 1.8371977574162166 -2.1092970591838673 -1.5707963267928802 3.2315489902565844 6790.810000000013
4.8023453170508565 -1.2986970250444205 1.8371977574162166 -2.1092970591838673 -1.5707963267928802 3.2315489902565844 6790.860000000013
4.8023453170508565 -1.2986970250444205 1.8371977574162166 -2.1092970591838673 -1.5707963267928802 3.2315489902565844 6790.9100000000135
4.8023453170508565 -1.2986970250444205 1.8371977574162166 -2.1092970591838673 -1.5707963267928802 3.2315489902565844 6790.960000000014
4.8023453170508565 -1.2986970250444205 1.8371977574162166 -2.1092970591838673 -1.5707963267928802 3.2315489902565844 6791.010000000014
4.8023453170508565 -1.2986970250444205 1.8371977574162166 -2.1092970591838673 -1.5707963267928802 3.2315489902565844 6791.060000000014
4.8023453170508565 -1.2986970250444205 1.8371977574162166 -2.1092970591838673 -1.5707963267928802 3.2315489902565844 6791.110000000014
4.8023453143431984 -1.2989261816942663 1.8368031593303147 -2.1086733044831103 -1.570796327509324 3.2315489875452355 6791.160000000014
4.8023452975973155 -1.300343432643903 1.8343627129703861 -2.1048156073899498 -1.5707963319402698 3.231548970776524 6791.210000000015
4.802345258414269 -1.303659603542778 1.8286524065485519 -2.095789130575597 -1.570796342308069 3.231548931540062 6791.260000000015
4.802345193674453 -1.3091387153464007 1.8192176071150283 -2.0808752201750735 -1.5707963594381669 3.2315488667119916 6791.310000000015
4.802345104577716 -1.3166792215334213 1.8062331734966555 -2.060350281521064 -1.5707963830130842 3.231548777493796 6791.360000000015
4.802344995683482 -1.325895245322711 1.7903635692354245 -2.035264654877767 -1.5707964118264017 3.231548668451115 6791.410000000015
4.8023448739508705 -1.3361978168904423 1.7726229755270069 -2.0072214911747506 -1.5707964440367426 3.2315485465525557 6791.4600000000155
4.80234474777882 -1.3468761105871672 1.7542354041592816 -1.978155627740803 -1.5707964774217549 3.231548420208505 6791.510000000016
4.802344626046208 -1.3571786821548981 1.7364948104508642 -1.9501124640377867 -1.5707965096320957 3.2315482983099457 6791.560000000016
4.802344517151974 -1.366394705944188 1.7206252061896332 -1.9250268373944899 -1.5707965384454132 3.2315481892672646 6791.610000000016
4.802344428055237 -1.3739352121312087 1.7076407725712601 -1.90450189874048 -1.5707965620203306 3.231548100049069 6791.660000000016
4.802344363315421 -1.3794143239348315 1.6982059731377366 -1.8895879883399564 -1.5707965791504284 3.2315480352209986 6791.710000000016
4.802344324132375 -1.3827304948337067 1.6924956667159021 -1.8805615115256038 -1.5707965895182276 3.2315479959845366 6791.760000000017
4.802344307386492 -1.384147745783343 1.6900552203559738 -1.876703814432443 -1.5707965939491735 3.2315479792158253 6791.810000000017
4.802344304678834 -1.384376902433189 1.6896606222700719 -1.8760800597316862 -1.5707965946656173 3.2315479765044763 6791.860000000017
4.802344304678834 -1.384376902433189 1.6896606222700719 -1.8760800597316862 -1.5707965946656173 3.2315479765044763 6791.910000000017
4.802218822343209 -1.3843766781623514 1.6896603477686656 -1.8760800095003098 -1.5707965946490787 3.231422494168937 6791.960000000017
4.801368484365914 -1.3843751583786361 1.6896584875947263 -1.8760796691046129 -1.5707965945370035 3.230572156192218 6792.0100000000175
4.799144106848085 -1.384371182815015 1.6896536216129634 -1.876078778672155 -1.5707965942438291 3.228347778675899 6792.060000000018
4.794976160356982 -1.3843637335685124 1.6896445039378152 -1.8760771102166842 -1.5707965936944908 3.2241798321876245 6792.110000000018
4.7883715837473355 -1.3843519294056432 1.6896300559634596 -1.8760744663626903 -1.570796592824003 3.2175752555824597 6792.160000000018
4.778910597982704 -1.3843350200678508 1.6896093593938257 -1.8760706790699573 -1.5707965915770388 3.2081142698242484 6792.210000000018
4.766243519956832 -1.3843123805769446 1.6895816492726032 -1.8760656083581149 -1.5707965899075091 3.1954471918069713 6792.260000000018
4.750087576314998 -1.3842835055405383 1.6895463070132548 -1.876059141031192 -1.570796587778145 3.179291248176102 6792.310000000019
4.730223717275382 -1.384248003457487 1.6895028534290257 -1.8760511894021688 -1.5707965851600747 3.1594273891499647 6792.360000000019
4.706493430450407 -1.3842055910233269 1.6894509417629557 -1.8760416900175292 -1.5707965820324068 3.135697102341093 6792.410000000019
4.6787955546681035 -1.3841560874357106 1.689390350717889 -1.8760306023818132 -1.5707965783818079 3.1079992265775855 6792.460000000019
4.647083093793463 -1.3840994086998475 1.689320977486485 -1.8760179076821688 -1.5707965742020837 3.076286765724465 6792.510000000019
4.611360030549791 -1.3840355619339404 1.689242830781231 -1.8760036075129058 -1.5707965694937598 3.0405637025050343 6792.5600000000195
4.571678140340064 -1.383964639674623 1.6891560238644503 -1.875987722600047 -1.5707965642636594 3.000881812322235 6792.61000000002
4.5281338050682844 -1.383886814182399 1.689060767578315 -1.8759702915258811 -1.5707965585244865 2.9573374770800043 6792.66000000002
4.480864826960836 -1.3838023317470793 1.688957363374856 -1.8759513694535155 -1.570796552294403 2.910068499004633 6792.71000000002
4.43004724238784 -1.3837115069932202 1.6888461963459744 -1.8759310268514275 -1.5707965455966106 2.859250914466121 6792.76000000002
4.3758921356845075 -1.3836147171855606 1.6887277282534516 -1.8759093482180182 -1.5707965384589306 2.805095807799538 6792.81000000002
4.318642452972498 -1.3835123965344605 1.688602490558961 -1.8758864308061645 -1.5707965309133833 2.7478461251263777 6792.860000000021
4.258569815981273 -1.3834050305013394 1.6884710774540777 -1.8758623833477708 -1.5707965229957688 2.6877734881759183 6792.910000000021
4.195971335869454 -1.3832931501041128 1.6883341388902908 -1.8758373247783222 -1.5707965147452465 2.6251750081065772 6792.960000000021
4.13116642704617 -1.3831773262226317 1.6881923736090134 -1.8758113829614371 -1.5707965062039153 2.56037009932727 6793.010000000021
4.064493620992424 -1.3830581639041188 1.6880465221715932 -1.8757846934134188 -1.570796497416394 2.493697293318768 6793.060000000021
3.996307380082441 -1.3829362966686083 1.6878973599893237 -1.8757573980278084 -1.570796488429401 2.4255110524550547 6793.1100000000215
3.926974911405021 -1.382812380814382 1.6877456903534551 -1.8757296437999376 -1.5707964792913343 2.3561785838246845 6793.160000000022
3.8568729805849036 -1.3826870897234085 1.6875923374652055 -1.8757015815514806 -1.570796470051852 2.2860766530521373 6793.210000000022
3.7863847256041145 -1.3825611081667801 1.6874381394657707 -1.8756733646550066 -1.570796460761452 2.2155883981191815 6793.260000000022
3.7158964706233264 -1.3824351266101518 1.6872839414663359 -1.8756451477585327 -1.570796451471052 2.1451001431862258 6793.310000000022
3.645794539803209 -1.3823098355191783 1.6871305885780863 -1.8756170855100758 -1.5707964422315697 2.074998212413679 6793.360000000022
3.576462071125788 -1.382185919664952 1.6869789189422177 -1.875589331282205 -1.570796433093503 2.0056657437833074 6793.410000000023
3.508275830215805 -1.3820640524294414 1.6868297567599482 -1.8755620358965945 -1.57079642410651 1.9374795029195948 6793.460000000023
3.4416030241620597 -1.3819448901109286 1.686683905322528 -1.8755353463485762 -1.5707964153189886 1.870806696911093 6793.510000000023
3.3767981153387763 -1.3818290662294475 1.6865421400412506 -1.8755094045316911 -1.5707964067776574 1.806001788131786 6793.560000000023
3.314199635226956 -1.3817171858322208 1.6864052014774638 -1.8754843459622426 -1.5707963985271352 1.7434033080624447 6793.610000000023
3.254126998235731 -1.3816098197990998 1.6862737883725805 -1.8754602985038489 -1.5707963906095206 1.683330671111985 6793.6600000000235
3.196877315523723 -1.3815074991479996 1.6861485506780898 -1.875437381091995 -1.5707963830639733 1.6260809884388259 6793.710000000024
3.1427222088203894 -1.38141070934034 1.686030082585567 -1.8754157024585858 -1.5707963759262933 1.5719258817722421 6793.760000000024
3.091904624247393 -1.381319884586481 1.6859189155566854 -1.8753953598564979 -1.570796369228501 1.5211082972337298 6793.810000000024
3.0446356461399438 -1.3812354021511613 1.6858155113532265 -1.8753764377841322 -1.5707963629984174 1.4738393191583563 6793.860000000024
3.001091310868164 -1.3811575766589372 1.6857202550670911 -1.8753590067099664 -1.5707963572592445 1.4302949839161272 6793.910000000024
2.9614094206584394 -1.3810866543996199 1.6856334481503104 -1.8753431217971075 -1.5707963520291441 1.39061309373333 6793.960000000025
2.925686357414766 -1.3810228076337128 1.6855553014450564 -1.8753288216278445 -1.5707963473208202 1.3548900305138978 6794.010000000025
2.8939738965401256 -1.3809661288978496 1.6854859282136525 -1.8753161269282002 -1.570796343141096 1.323177569660778 6794.060000000025
2.866276020757823 -1.3809166253102334 1.6854253371685857 -1.8753050392924842 -1.5707963394904971 1.2954796938972692 6794.110000000025
2.8425457339328464 -1.3808742128760731 1.6853734255025157 -1.8752955399078446 -1.5707963363628292 1.2717494070883972 6794.160000000025
2.8226818748932283 -1.380838710793022 1.6853299719182866 -1.8752875882788214 -1.570796333744759 1.2518855480622577 6794.2100000000255
2.8065259312513966 -1.3808098357566156 1.6852946296589382 -1.8752811209518985 -1.5707963316153948 1.2357296044313903 6794.260000000026
2.7938588532255273 -1.3807871962657094 1.6852669195377157 -1.875276050240056 -1.5707963299458652 1.223062526414116 6794.310000000026
2.7843978674608927 -1.380770286927917 1.6852462229680818 -1.875272262947323 -1.5707963286989008 1.213601540655902 6794.360000000026
2.7777932908512466 -1.3807584827650479 1.6852317749937262 -1.8752696190933291 -1.5707963278284132 1.206996964050738 6794.410000000026
2.7736253443601444 -1.3807510335185453 1.685222657318578 -1.8752679506378584 -1.5707963272790748 1.2028290175624634 6794.460000000026
2.7714009668423145 -1.3807470579549241 1.6852177913368152 -1.8752670602054005 -1.5707963269859004 1.2006046400461425 6794.510000000027
2.7705506288650183 -1.3807455381712088 1.6852159311628758 -1.8752667198097035 -1.5707963268738252 1.1997543020694224 6794.560000000027
2.7704251465293916 -1.3807453139003714 1.6852156566614696 -1.875266669578327 -1.5707963268572867 1.199628819733885 6794.610000000027
2.770425146529396 -1.3807453139003714 1.6852156566614696 -1.875266669578327 -1.5707963268572867 1.1996288197338867 6794.660000000027
2.7704251465977157 -1.3805168806108037 1.6856099205870532 -1.875889366793515 -1.5707963268612652 1.1996288198022016 6794.710000000027
2.770425147020249 -1.37910410338271 1.6880483002863422 -1.8797405237211244 -1.5707963268858711 1.1996288202247054 6794.7600000000275
2.770425148008917 -1.3757984003725279 1.693753771008562 -1.888751697454057 -1.5707963269434453 1.1996288212133055 6794.810000000028
2.7704251496424352 -1.3703365840383621 1.7031805807034248 -1.903640323483962 -1.5707963270385719 1.1996288228467105 6794.860000000028
2.770425151890528 -1.3628198803578648 1.7161540186210413 -1.9241304650832824 -1.5707963271694878 1.1996288250946479 6794.910000000028
2.770425154638152 -1.3536329480461127 1.732010183911832 -1.9491735626872997 -1.5707963273294936 1.199628827842082 6794.960000000028
2.770425157709715 -1.3433628977734864 1.749735754226439 -1.977169183276181 -1.5707963275083634 1.1996288309134322 6795.010000000028
2.7704251608932937 -1.3327183113835483 1.7681077543156363 -2.0061857697570247 -1.5707963276937567 1.199628834096791 6795.060000000029
2.7704251639648567 -1.322448261110922 1.7858333246302431 -2.034181390345906 -1.5707963278726265 1.1996288371681414 6795.110000000029
2.7704251667124806 -1.3132613287991701 1.8016894899210338 -2.0592244879499235 -1.5707963280326322 1.1996288399155755 6795.160000000029
2.7704251689605734 -1.3057446251186726 1.8146629278386504 -2.0797146295492435 -1.5707963281635482 1.1996288421635128 6795.210000000029
2.7704251705940917 -1.3002828087845069 1.8240897375335132 -2.094603255579149 -1.5707963282586748 1.1996288437969178 6795.260000000029
2.77042517158276 -1.2969771057743245 1.8297952082557332 -2.1036144293120818 -1.570796328316249 1.199628844785518 6795.3100000000295
2.770425172005293 -1.2955643285462308 1.832233587955022 -2.107465586239691 -1.5707963283408548 1.1996288452080217 6795.36000000003
2.7704251720736126 -1.2953358952566634 1.8326278518806056 -2.1080882834548786 -1.5707963283448334 1.1996288452763366 6795.41000000003
2.7704251720736126 -1.2953358952566634 1.8326278518806056 -2.1080882834548786 -1.5707963283448334 1.1996288452763366 6795.46000000003
2.7704251720736126 -1.2953358952566634 1.8326278518806056 -2.1080882834548786 -1.5707963283448334 1.1996288452763366 6795.51000000003
2.7704251720736126 -1.2953358952566634 1.8326278518806056 -2.1080882834548786 -1.5707963283448334 1.1996288452763366 6795.56000000003
2.7704251720736126 -1.2953358952566634 1.8326278518806056 -2.1080882834548786 -1.5707963283448334 1.1996288452763366 6795.610000000031
2.7704251720736126 -1.2953358952566634 1.8326278518806056 -2.1080882834548786 -1.5707963283448334 1.1996288452763366 6795.660000000031
2.7704251720736126 -1.2953358952566634 1.8326278518806056 -2.1080882834548786 -1.5707963283448334 1.1996288452763366 6795.710000000031
2.770425172005293 -1.295564328546231 1.832233587955022 -2.107465586239691 -1.5707963283408548 1.1996288452080217 6795.760000000031
2.77042517158276 -1.2969771057743247 1.829795208255733 -2.1036144293120813 -1.570796328316249 1.199628844785518 6795.810000000031
2.7704251705940917 -1.3002828087845069 1.8240897375335132 -2.0946032555791487 -1.5707963282586748 1.1996288437969178 6795.8600000000315
2.7704251689605734 -1.3057446251186726 1.8146629278386504 -2.0797146295492435 -1.5707963281635482 1.1996288421635128 6795.910000000032
2.7704251667124806 -1.31326132879917 1.8016894899210338 -2.0592244879499235 -1.5707963280326322 1.1996288399155755 6795.960000000032
2.7704251639648567 -1.322448261110922 1.7858333246302431 -2.034181390345906 -1.5707963278726265 1.1996288371681414 6796.010000000032
2.7704251608932937 -1.3327183113835483 1.7681077543156363 -2.0061857697570247 -1.5707963276937567 1.199628834096791 6796.060000000032
2.770425157709715 -1.3433628977734864 1.749735754226439 -1.977169183276181 -1.5707963275083634 1.1996288309134322 6796.110000000032
2.770425154638152 -1.3536329480461127 1.732010183911832 -1.9491735626872997 -1.5707963273294936 1.199628827842082 6796.160000000033
2.770425151890528 -1.3628198803578646 1.7161540186210413 -1.9241304650832824 -1.5707963271694878 1.1996288250946479 6796.210000000033
2.7704251496424352 -1.3703365840383621 1.7031805807034248 -1.9036403234839623 -1.5707963270385719 1.1996288228467105 6796.260000000033
2.770425148008917 -1.3757984003725279 1.693753771008562 -1.8887516974540568 -1.5707963269434453 1.1996288212133055 6796.310000000033
2.770425147020249 -1.3791041033827103 1.688048300286342 -1.879740523721124 -1.5707963268858711 1.1996288202247054 6796.360000000033
2.7704251465977157 -1.380516880610804 1.6856099205870532 -1.8758893667935146 -1.5707963268612652 1.1996288198022016 6796.4100000000335
2.770425146529396 -1.3807453139003714 1.6852156566614696 -1.8752666695783269 -1.5707963268572867 1.1996288197338867 6796.460000000034
2.770425146529396 -1.3807453139003714 1.6852156566614696 -1.8752666695783269 -1.5707963268572867 1.1996288197338867 6796.510000000034
2.770425146529396 -1.3807453139003714 1.6852156566614696 -1.8752666695783269 -1.5707963268572867 1.1996288197338867 6796.560000000034
2.770425146529396 -1.3807453139003714 1.6852156566614696 -1.8752666695783269 -1.5707963268572867 1.1996288197338867 6796.610000000034
2.770425146529396 -1.3807453139003714 1.6852156566614696 -1.8752666695783269 -1.5707963268572867 1.1996288197338867 6796.660000000034
2.770425146529396 -1.3807453139003714 1.6852156566614696 -1.8752666695783269 -1.5707963268572867 1.1996288197338867 6796.710000000035
2.770425146529396 -1.3807453139003714 1.6852156566614696 -1.8752666695783269 -1.5707963268572867 1.1996288197338867 6796.760000000035
2.770425146529396 -1.3807453139003714 1.6852156566614696 -1.8752666695783269 -1.5707963268572867 1.1996288197338867 6796.810000000035
2.770425146529396 -1.3807453139003714 1.6852156566614696 -1.8752666695783269 -1.5707963268572867 1.1996288197338867 6796.860000000035
2.770425146529396 -1.3807453139003714 1.6852156566614696 -1.8752666695783269 -1.5707963268572867 1.1996288197338867 6796.910000000035
2.770425146529396 -1.3807453139003714 1.6852156566614696 -1.8752666695783269 -1.5707963268572867 1.1996288197338867 6796.9600000000355
2.770425146529396 -1.3807453139003714 1.6852156566614696 -1.8752666695783269 -1.5707963268572867 1.1996288197338867 6797.010000000036
2.770425146529396 -1.3807453139003714 1.6852156566614696 -1.8752666695783269 -1.5707963268572867 1.1996288197338867 6797.060000000036
2.770425146529396 -1.3807453139003714 1.6852156566614696 -1.8752666695783269 -1.5707963268572867 1.1996288197338867 6797.110000000036
2.770425146529396 -1.3807453139003714 1.6852156566614696 -1.8752666695783269 -1.5707963268572867 1.1996288197338867 6797.160000000036
2.770425146529396 -1.3807453139003714 1.6852156566614696 -1.8752666695783269 -1.5707963268572867 1.1996288197338867 6797.210000000036
2.770425146529396 -1.3807453139003714 1.6852156566614696 -1.8752666695783269 -1.5707963268572867 1.1996288197338867 6797.260000000037
2.770425146529396 -1.3807453139003714 1.6852156566614696 -1.8752666695783269 -1.5707963268572867 1.1996288197338867 6797.310000000037
2.770425146529396 -1.3807453139003714 1.6852156566614696 -1.8752666695783269 -1.5707963268572867 1.1996288197338867 6797.360000000037
2.770425146529396 -1.3807453139003714 1.6852156566614696 -1.8752666695783269 -1.5707963268572867 1.1996288197338867 6797.410000000037
2.770425146529396 -1.3807453139003714 1.6852156566614696 -1.8752666695783269 -1.5707963268572867 1.1996288197338867 6797.460000000037
2.770425146529396 -1.3807453139003714 1.6852156566614696 -1.8752666695783269 -1.5707963268572867 1.1996288197338867 6797.5100000000375
2.770425146529396 -1.3807453139003714 1.6852156566614696 -1.8752666695783269 -1.5707963268572867 1.1996288197338867 6797.560000000038
2.770425146529396 -1.3807453139003714 1.6852156566614696 -1.8752666695783269 -1.5707963268572867 1.1996288197338867 6797.610000000038
2.770425146529396 -1.3807453139003714 1.6852156566614696 -1.8752666695783269 -1.5707963268572867 1.1996288197338867 6797.660000000038
2.770425146529396 -1.3807453139003714 1.6852156566614696 -1.8752666695783269 -1.5707963268572867 1.1996288197338867 6797.710000000038
2.770425146529396 -1.3807453139003714 1.6852156566614696 -1.8752666695783269 -1.5707963268572867 1.1996288197338867 6797.760000000038
2.770425146529396 -1.3807453139003714 1.6852156566614696 -1.8752666695783269 -1.5707963268572867 1.1996288197338867 6797.810000000039
2.770425146529396 -1.3807453139003714 1.6852156566614696 -1.8752666695783269 -1.5707963268572867 1.1996288197338867 6797.860000000039
2.770425146529396 -1.3807453139003714 1.6852156566614696 -1.8752666695783269 -1.5707963268572867 1.1996288197338867 6797.910000000039
2.770425146529396 -1.3807453139003714 1.6852156566614696 -1.8752666695783269 -1.5707963268572867 1.1996288197338867 6797.960000000039
2.770425146529396 -1.3807453139003714 1.6852156566614696 -1.8752666695783269 -1.5707963268572867 1.1996288197338867 6798.010000000039
2.770425146529396 -1.3807453139003714 1.6852156566614696 -1.8752666695783269 -1.5707963268572867 1.1996288197338867 6798.0600000000395
2.770425146529396 -1.3807453139003714 1.6852156566614696 -1.875266669578327 -1.5707963268572867 1.1996288197338867 6798.11000000004
2.770537238037253 -1.3807370685183584 1.6852048508817548 -1.8752641091806446 -1.570796326857252 1.199740911241748 6798.16000000004
2.771297731512527 -1.3806811270885226 1.6851315382363499 -1.875246737965207 -1.5707963268570169 1.200501404717052 6798.21000000004
2.7732898141817746 -1.3805345907190572 1.6849394986527162 -1.8752012347513833 -1.570796326856401 1.2024934873863773 6798.26000000004
2.777027933409561 -1.3802596169799022 1.6845791386781233 -1.8751158485165917 -1.5707963268552452 1.2062316066143102 6798.31000000004
2.78296044053931 -1.3798232254234464 1.684007236609656 -1.874980338005606 -1.5707963268534109 1.2121641137442918 6798.360000000041
2.791472234734147 -1.3791971031052297 1.6831866876242219 -1.8747859113398606 -1.5707963268507792 1.2206759079394625 6798.410000000041
2.8028874068177454 -1.3783574101046445 1.6820862489085593 -1.874525165626757 -1.57079632684725 1.2320910800235079 6798.460000000041
2.8174718831151724 -1.3772845850456386 1.6806802847892437 -1.874192026568969 -1.5707963268427407 1.2466755563215062 6798.510000000041
2.835436069293734 -1.3759631506174164 1.678948511862696 -1.8737816880737495 -1.5707963268371865 1.2646397425007718 6798.560000000041
2.856937494203823 -1.3743815190951418 1.6768757441251887 -1.873290551862235 -1.5707963268305387 1.286141167411703 6798.6100000000415
2.8820834537197615 -1.3725317978606393 1.6744516381028551 -1.8727161670787518 -1.570796326822764 1.3112871269286268 6798.660000000042
2.9109336545806497 -1.370409594923097 1.6716704379816953 -1.872057169900123 -1.570796326813844 1.3401373277906452 6798.710000000042
2.9435028582312093 -1.368013824439768 1.6685307207375837 -1.8713132231449718 -1.5707963268037741 1.3727065314424807 6798.760000000042
2.9797635246626304 -1.3653465122366724 1.6650351412662765 -1.87048495588303 -1.570796326792563 1.4089671978753227 6798.810000000042
3.0196484562534174 -1.3624126013293 1.66119017751342 -1.8695739030444425 -1.5707963267802314 1.4488521294676724 6798.860000000042
3.063053441610234 -1.3592197574433118 1.657005875604556 -1.868582445029072 -1.5707963267668115 1.4922571148261896 6798.910000000043
3.1098398994087497 -1.3557781745352422 1.6524955949751314 -1.867513747315807 -1.570796326752346 1.5390435726265383 6798.960000000043
3.1598375222344846 -1.3521003803132008 1.647675753500504 -1.866371700071866 -1.5707963267368876 1.589041195454232 6799.010000000043
3.2128469204236563 -1.3482010417575752 1.6425655726259505 -1.8651608577621044 -1.570796326720498 1.6420505936454803 6799.060000000043
3.268642265904024 -1.3440967706417317 1.637186822496674 -1.863886378758319 -1.5707963267032472 1.6978459391280343 6799.110000000043
3.3269739360357367 -1.339805929052719 1.6315635670878108 -1.8625539649485547 -1.570796326685212 1.7561776092620323 6799.1600000000435
3.387571157452176 -1.3353484349119689 1.6257219093344386 -1.8611698013464106 -1.5707963266664766 1.816774830680846 6799.210000000044
3.450144649900805 -1.3307455674959991 1.6196897362615832 -1.8597404957003445 -1.57079632664713 1.8793483231319263 6799.260000000044
3.5143892700840107 -1.3260197729571153 1.6134964641142258 -1.8582730181029798 -1.5707963266272666 1.9435929433176486 6799.310000000044
3.579986655499952 -1.3211944698441123 1.6071727834873115 -1.8567746406004109 -1.5707963266069853 2.0091903287361603 6799.360000000044
3.6466078682834056 -1.3162938546229772 1.600750404455755 -1.8552528768015093 -1.5707963265863871 2.075811541522224 6799.410000000044
3.71391603904661 -1.3113427071975905 1.5942618017044496 -1.853715421487229 -1.5707963265655767 2.1431197122880654 6799.460000000045
3.781569010720113 -1.3063661964304292 1.5877399596582733 -1.8521700902199119 -1.5707963265446598 2.210772683964219 6799.510000000045
3.8492219823936153 -1.301389685663268 1.5812181176120972 -1.8506247589525948 -1.5707963265237428 2.2784256556403717 6799.560000000045
3.916530153156821 -1.2964385382378814 1.5747295148607916 -1.8490873036383144 -1.5707963265029323 2.345733826406214 6799.610000000045
3.983151365940274 -1.2915379230167463 1.5683071358292353 -1.8475655398394129 -1.5707963264823341 2.4123550391922777 6799.660000000045
4.048748751356215 -1.286712619903743 1.5619834552023208 -1.8460671623368439 -1.5707963264620528 2.477952424610789 6799.7100000000455
4.112993371539421 -1.2819868253648592 1.5557901830549634 -1.8445996847394792 -1.5707963264421894 2.542197044796512 6799.760000000046
4.17556686398805 -1.2773839579488897 1.549758009982108 -1.843170379093413 -1.5707963264228428 2.604770537247592 6799.810000000046
4.236164085404489 -1.2729264638081397 1.5439163522287358 -1.841786215491269 -1.5707963264041074 2.6653677586664055 6799.860000000046
4.294495755536202 -1.2686356222191268 1.5382930968198727 -1.8404538016815046 -1.5707963263860723 2.723699428800403 6799.910000000046
4.350291101016569 -1.2645313511032834 1.5329143466905961 -1.8391793226777193 -1.5707963263688214 2.7794947742829565 6799.960000000046
4.403300499205742 -1.2606320125476576 1.5278041658160426 -1.8379684803679577 -1.5707963263524318 2.8325041724742066 6800.010000000047
4.453298122031476 -1.2569542183256164 1.5229843243414152 -1.8368264331240167 -1.5707963263369735 2.8825017953018994 6800.060000000047
4.500084579829992 -1.2535126354175465 1.5184740437119906 -1.8357577354107517 -1.570796326322508 2.929288253102249 6800.110000000047
4.543489565186809 -1.2503197915315585 1.5142897418031267 -1.8347662773953812 -1.570796326309088 2.9726932384607645 6800.160000000047
4.583374496777596 -1.247385880624186 1.51044477805027 -1.8338552245567934 -1.5707963262967564 3.012578170053115 6800.210000000047
4.619635163209018 -1.2447185684210906 1.5069491985789631 -1.8330269572948519 -1.5707963262855453 3.048838836485957 6800.2600000000475
4.652204366859578 -1.2423227979377613 1.5038094813348513 -1.8322830105397008 -1.5707963262754754 3.0814080401377932 6800.310000000048
4.681054567720465 -1.2402005950002193 1.5010282812136915 -1.831624013361072 -1.5707963262665554 3.1102582409998103 6800.360000000048
4.706200527236406 -1.2383508737657167 1.4986041751913577 -1.8310496285775888 -1.5707963262587807 3.135404200516736 6800.410000000048
4.727701952146492 -1.236769242243442 1.4965314074538507 -1.8305584923660743 -1.570796326252133 3.156905625427666 6800.460000000048
4.7456661383250545 -1.23544780781522 1.494799634527303 -1.8301481538708546 -1.5707963262465787 3.1748698116069316 6800.510000000048
4.760250614622481 -1.234374982756214 1.4933936704079873 -1.8298150148130667 -1.5707963262420694 3.1894542879049297 6800.560000000049
4.771665786706082 -1.2335352897556286 1.4922932316923245 -1.829554269099963 -1.5707963262385403 3.2008694599889784 6800.610000000049
4.780177580900919 -1.232909167437412 1.4914726827068907 -1.8293598424342177 -1.5707963262359086 3.209381254184147 6800.660000000049
4.786110088030668 -1.2324727758809564 1.4909007806384234 -1.829224331923232 -1.5707963262340743 3.215313761314127 6800.710000000049
4.789848207258452 -1.2321978021418014 1.4905404206638304 -1.8291389456884404 -1.5707963262329185 3.2190518805420605 6800.760000000049
4.791840289927702 -1.2320512657723357 1.4903483810801967 -1.8290934424746168 -1.5707963262323026 3.221043963211389 6800.8100000000495
4.792600783402977 -1.2319953243424997 1.4902750684347918 -1.8290760712591791 -1.5707963262320674 3.2218044566866895 6800.86000000005
4.792712874910832 -1.231987078960487 1.490264262655077 -1.8290735108614966 -1.5707963262320328 3.2219165481945513 6800.91000000005
4.79271287491083 -1.2319870789604872 1.490264262655077 -1.8290735108614966 -1.5707963262320328 3.2219165481945513 6800.96000000005
4.7927128719062475 -1.2317461406862398 1.4907370861393292 -1.8297872726497604 -1.5707963264051383 3.221916545187215 6801.01000000005
4.792712853502325 -1.2302703251521823 1.493633264611206 -1.83415926683801 -1.5707963274654595 3.221916526766426 6801.06000000005
4.792712810972769 -1.2268598685777556 1.500326032563695 -1.8442624917862367 -1.5707963299157517 3.2219164841978922 6801.110000000051
4.792712741751023 -1.2213089580863246 1.5112192824947333 -1.8607066528944387 -1.570796333903884 3.221916414912706 6801.160000000051
4.79271264819832 -1.2138069415243935 1.525941433306219 -1.8829308211946179 -1.5707963392938167 3.2219163212742634 6801.210000000051
4.792712536371734 -1.2048395372808212 1.543539298703019 -1.90949609194278 -1.5707963457365788 3.2219162093451894 6801.260000000051
4.792712414792231 -1.1950900441060357 1.5626719555919815 -1.9383782432109329 -1.5707963527412439 3.2219160876542614 6801.310000000051
4.792712293212728 -1.1853405509312505 1.581804612480944 -1.9672603944790856 -1.5707963597459087 3.2219159659633334 6801.3600000000515
4.7927121813861415 -1.1763731466876781 1.599402477877744 -1.9938256652272477 -1.5707963661886708 3.2219158540342594 6801.410000000052
4.792712087833438 -1.168871130125747 1.6141246286892297 -2.016049833527427 -1.5707963715786035 3.2219157603958166 6801.460000000052
4.7927120186116925 -1.163320219634316 1.625017878620268 -2.0324939946356286 -1.5707963755667358 3.2219156911106306 6801.510000000052
4.792711976082137 -1.1599097630598894 1.6317106465727569 -2.0425972195838558 -1.570796378017028 3.221915648542097 6801.560000000052
4.792711957678214 -1.1584339475258318 1.6346068250446337 -2.0469692137721047 -1.5707963790773491 3.2219156301213077 6801.610000000052
4.792711954673631 -1.1581930092515844 1.6350796485288859 -2.0476829755603685 -1.5707963792504547 3.2219156271139715 6801.660000000053
4.792711954673631 -1.1581930092515844 1.6350796485288859 -2.0476829755603685 -1.5707963792504547 3.2219156271139715 6801.710000000053
4.792711954673631 -1.1581930092515844 1.6350796485288859 -2.0476829755603685 -1.5707963792504547 3.2219156271139715 6801.760000000053
4.792711954673631 -1.1581930092515844 1.6350796485288859 -2.0476829755603685 -1.5707963792504547 3.2219156271139715 6801.810000000053
4.792711954673631 -1.1581930092515844 1.6350796485288859 -2.0476829755603685 -1.5707963792504547 3.2219156271139715 6801.860000000053
4.792711954673631 -1.1581930092515844 1.6350796485288859 -2.0476829755603685 -1.5707963792504547 3.2219156271139715 6801.9100000000535
4.792711954673631 -1.1581930092515844 1.6350796485288859 -2.0476829755603685 -1.5707963792504547 3.2219156271139715 6801.960000000054
4.792711954673631 -1.1581930092515844 1.6350796485288859 -2.0476829755603685 -1.5707963792504547 3.2219156271139715 6802.010000000054
4.792711954673631 -1.1581930092515844 1.6350796485288859 -2.0476829755603685 -1.5707963792504547 3.2219156271139715 6802.060000000054
4.792711954673631 -1.1581930092515844 1.6350796485288859 -2.0476829755603685 -1.5707963792504547 3.2219156271139715 6802.110000000054
4.792711954673631 -1.1581930092515844 1.6350796485288859 -2.0476829755603685 -1.5707963792504547 3.2219156271139715 6802.160000000054
4.792711954673631 -1.1581930092515844 1.6350796485288859 -2.0476829755603685 -1.5707963792504547 3.2219156271139715 6802.210000000055
4.792711954673631 -1.1581930092515844 1.6350796485288859 -2.0476829755603685 -1.5707963792504547 3.2219156271139715 6802.260000000055
4.792711954673631 -1.1581930092515844 1.6350796485288859 -2.0476829755603685 -1.5707963792504547 3.2219156271139715 6802.310000000055
4.792711954673631 -1.1581930092515844 1.6350796485288859 -2.047682975560369 -1.5707963792504547 3.2219156271139715 6802.360000000055
4.792711957678214 -1.1584339475258318 1.6346068250446337 -2.046969213772105 -1.5707963790773491 3.2219156301213077 6802.410000000055
4.792711976082137 -1.1599097630598894 1.6317106465727569 -2.0425972195838558 -1.570796378017028 3.221915648542097 6802.4600000000555
4.7927120186116925 -1.1633202196343162 1.625017878620268 -2.0324939946356286 -1.5707963755667358 3.2219156911106306 6802.510000000056
4.792712087833438 -1.168871130125747 1.6141246286892297 -2.016049833527427 -1.5707963715786035 3.2219157603958166 6802.560000000056
4.7927121813861415 -1.1763731466876781 1.599402477877744 -1.9938256652272477 -1.5707963661886708 3.2219158540342594 6802.610000000056
4.792712293212728 -1.1853405509312505 1.581804612480944 -1.9672603944790856 -1.5707963597459087 3.2219159659633334 6802.660000000056
4.792712414792231 -1.1950900441060357 1.5626719555919815 -1.9383782432109329 -1.5707963527412439 3.2219160876542614 6802.710000000056
4.792712536371734 -1.2048395372808212 1.543539298703019 -1.90949609194278 -1.5707963457365788 3.2219162093451894 6802.760000000057
4.79271264819832 -1.2138069415243935 1.525941433306219 -1.8829308211946179 -1.5707963392938167 3.2219163212742634 6802.810000000057
4.792712741751023 -1.2213089580863246 1.5112192824947333 -1.8607066528944387 -1.570796333903884 3.221916414912706 6802.860000000057
4.792712810972769 -1.2268598685777556 1.500326032563695 -1.8442624917862367 -1.5707963299157517 3.2219164841978922 6802.910000000057
4.792712853502325 -1.2302703251521823 1.493633264611206 -1.83415926683801 -1.5707963274654595 3.221916526766426 6802.960000000057
4.7927128719062475 -1.2317461406862398 1.4907370861393292 -1.8297872726497606 -1.5707963264051383 3.221916545187215 6803.0100000000575
4.79271287491083 -1.2319870789604872 1.490264262655077 -1.8290735108614968 -1.5707963262320328 3.2219165481945513 6803.060000000058
4.79271287491083 -1.2319870789604872 1.490264262655077 -1.8290735108614966 -1.5707963262320328 3.2219165481945513 6803.110000000058
4.792580992446904 -1.2319966844521877 1.4902769043163377 -1.8290765470370545 -1.5707963262268931 3.2217846657310107 6803.160000000058
4.791688423419183 -1.232061693583294 1.4903624619785507 -1.8290970956087524 -1.5707963261921085 3.220892096705893 6803.210000000058
4.789357027053365 -1.23223149787551 1.4905859391736536 -1.8291507686176642 -1.570796326101251 3.218560700346878 6803.260000000058
4.784995426032725 -1.232549169544342 1.4910040226778318 -1.8292511806513634 -1.5707963259312734 3.2141990993389644 6803.310000000059
4.778095391354046 -1.2330517248035235 1.4916654290430091 -1.8294100320711524 -1.5707963256623698 3.2072990646804183 6803.360000000059
4.768228227183552 -1.2337703871694408 1.4926112511283358 -1.8296371922392913 -1.570796325277833 3.1974319005387146 6803.410000000059
4.755041155712844 -1.2347308507655563 1.493875304631679 -1.8299407827462277 -1.5707963247639152 3.1842448291064844 6803.460000000059
4.738253702014836 -1.2359535436268356 1.4954844746211127 -1.8303272606378256 -1.5707963241096854 3.1674573754574595 6803.510000000059
4.717654078899686 -1.2374538910041706 1.4974590620664068 -1.8308015016425945 -1.5707963233068902 3.1468577524024166 6803.5600000000595
4.693095571770735 -1.239242578668805 1.4998131303705171 -1.8313668833989185 -1.570796322349812 3.1222992453451224 6803.61000000006
4.664492923480435 -1.2413258162167593 1.5025548519010752 -1.832025368682286 -1.5707963212351284 3.0936965971382797 6803.66000000006
4.631818719186289 -1.2437056003732558 1.5056868545218778 -1.8327775886325184 -1.5707963199617705 3.061022392939471 6803.71000000006
4.595099771206783 -1.246379978297143 1.5092065681243765 -1.8336229259809989 -1.5707963185307834 3.0243034450671047 6803.76000000006
4.554413503877322 -1.249343310885321 1.5131065711591674 -1.8345595982779026 -1.5707963169451846 2.9836171778563587 6803.81000000006
4.509884338406162 -1.2525865360771662 1.5173749371674807 -1.8355847411194255 -1.570796315209823 2.939088012515127 6803.860000000061
4.461680077730347 -1.2560974321589562 1.5219955813126713 -1.836694491375013 -1.570796313331238 2.8908837519799637 6803.910000000061
4.410008291371641 -1.259860881068295 1.5269486069117066 -1.8378840704145893 -1.5707963113175187 2.839211965772027 6803.960000000061
4.355112700292466 -1.263859131698537 1.532210651966658 -1.8391478673357877 -1.5707963091781634 2.784316374853027 6804.010000000061
4.29726956175183 -1.268072063203213 1.5377552356961899 -1.8404795221911778 -1.5707963069239383 2.726473236481167 6804.060000000061
4.236784054161269 -1.2724774483004546 1.5435531050670486 -1.8418720092154968 -1.5707963045667364 2.665987729067093 6804.1100000000615
4.173986661940779 -1.2770512165774188 1.5495725813255534 -1.8433177200528768 -1.5707963021194373 2.6031903370298335 6804.160000000062
4.109229560374744 -1.2817677177947135 1.5557799065290852 -1.844808546984075 -1.5707962995957656 2.538433235652749 6804.210000000062
4.0428830004678815 -1.286599985190822 1.5621395900775765 -1.8463359661537029 -1.5707962970101506 2.4720866759394737 6804.260000000062
3.975331693801169 -1.291519998786528 1.5686147552450016 -1.8478911207974553 -1.570796294377585 2.4045353694698637 6804.310000000062
3.9069711973877794 -1.2964989486893403 1.575167485710865 -1.8494649044693392 -1.5707962917134843 2.3361748732559384 6804.360000000062
3.8382042985290195 -1.3015074983979185 1.5817591720916928 -1.8510480442689037 -1.5707962890335454 2.2674079745978277 6804.410000000063
3.7694373996702595 -1.3065160481064966 1.5883508584725206 -1.8526311840684682 -1.5707962863536065 2.1986410759397175 6804.460000000063
3.7010769032568698 -1.311494998009309 1.594903588938384 -1.854204967740352 -1.5707962836895057 2.1302805797257918 6804.510000000063
3.6335255965901574 -1.3164150116050148 1.601378754105809 -1.8557601223841045 -1.5707962810569402 2.0627292732561817 6804.560000000063
3.5671790366832945 -1.3212472790011234 1.6077384376543005 -1.8572875415537324 -1.5707962784713252 1.9963827135429069 6804.610000000063
3.502421935117261 -1.325963780218418 1.6139457628578322 -1.8587783684849306 -1.5707962759476535 1.9316256121658228 6804.6600000000635
3.4396245428967696 -1.3305375484953823 1.619965239116337 -1.8602240793223106 -1.5707962735003544 1.8688282201285629 6804.710000000064
3.379139035306209 -1.334942933592624 1.6257631084871957 -1.8616165663466295 -1.5707962711431525 1.8083427127144893 6804.760000000064
3.321295896765573 -1.3391558650973001 1.6313076922167276 -1.8629482212020196 -1.5707962688889274 1.7504995743426286 6804.810000000064
3.266400305686397 -1.343154115727542 1.636569737271679 -1.864212018123218 -1.570796266749572 1.6956039834236283 6804.860000000064
3.2147285193276915 -1.3469175646368807 1.6415227628707143 -1.8654015971627944 -1.5707962647358529 1.6439321972156917 6804.910000000064
3.1665242586518776 -1.3504284607186707 1.646143407015905 -1.8665113474183819 -1.5707962628572678 1.5957279366805288 6804.960000000065
3.1219950931807157 -1.353671685910516 1.6504117730242185 -1.8675364902599048 -1.5707962611219062 1.5511987713392967 6805.010000000065
3.0813088258512558 -1.356635018498694 1.6543117760590094 -1.8684731625568085 -1.5707962595363074 1.510512504128551 6805.060000000065
3.0445898778717515 -1.359309396422581 1.6578314896615078 -1.869318499905289 -1.5707962581053203 1.4737935562561864 6805.110000000065
3.011915673577605 -1.3616891805790774 1.6609634922823104 -1.870070719855521 -1.5707962568319624 1.4411193520573773 6805.160000000065
2.983313025287304 -1.3637724181270319 1.6637052138128685 -1.8707292051388886 -1.5707962557172788 1.4125167038505337 6805.2100000000655
4.792712211608887 -1.231979177599289 1.490274731312887 -1.829074045220846 -1.5708406607257288 3.2219078540802 6807.21
4.793327635727735 -1.231910585856994 1.4901782268590404 -1.8290461804308988 -1.5708405418006306 3.2225232996931585 6807.26
4.797133811186549 -1.2314863707536134 1.4895813817360637 -1.8288738467890833 -1.5708398062919364 3.2263296080852655 6807.31
4.806039734513512 -1.230493766175677 1.4881848468256738 -1.8284706099395809 -1.5708380853034773 3.235235842457721 6807.360000000001
4.820754461561952 -1.2288537447096102 1.485877435312508 -1.8278043656930874 -1.5708352418166769 3.2499510834281136 6807.410000000001
4.841005278542127 -1.2265967015144799 1.4827019113563213 -1.82688746181472 -1.5708313285309874 3.2702026076819863 6807.460000000001
4.865755873053024 -1.2238381381947416 1.4788207787641818 -1.8257668198119228 -1.570826545704329 3.294954066624402 6807.510000000001
4.893424505114145 -1.2207543466729849 1.4744820696626668 -1.8245140567223743 -1.570821198993527 3.3226236650315095 6807.560000000001
4.9221021781973056 -1.2175580930626795 1.4699851331700593 -1.823215606901893 -1.5708156572947505 3.3513023397021082 6807.6100000000015
4.949770810258427 -1.2144743015409227 1.4656464240685443 -1.8219628438123445 -1.5708103105839486 3.3789719381092156 6807.660000000002
4.974521404769323 -1.2117157382211845 1.4617652914764048 -1.8208422018095474 -1.57080552775729 3.403723397051631 6807.710000000002
4.994772221749498 -1.2094586950260542 1.4585897675202182 -1.81992529793118 -1.5708016144716006 3.4239749213055037 6807.760000000002
5.009486948797938 -1.2078186735599874 1.4562823560070524 -1.8192590536846864 -1.5707987709848001 3.438690162275897 6807.810000000002
5.018392872124902 -1.206826068982051 1.4548858210966624 -1.818855816835184 -1.570797049996341 3.4475963966483523 6807.860000000002
5.022199047583715 -1.2064018538786703 1.4542889759736854 -1.8186834831933685 -1.570796314487647 3.451402705040459 6807.910000000003
5.022814471702564 -1.2063332621363754 1.454192471519839 -1.8186556184034213 -1.5707961955625487 3.4520181506534175 6807.960000000003
5.022814471702564 -1.2063332621363754 1.454192471519839 -1.8186556184034213 -1.5707961955625487 3.4520181506534175 6808.010000000003
5.0228144646695245 -1.2060992651767715 1.4546656975756227 -1.8193628413239213 -1.570796195181164 3.4520181436701725 6808.060000000003
5.022814421590161 -1.2046659671713615 1.4575643419127566 -1.8236947830852528 -1.5707961928450747 3.452018100895808 6808.110000000003
5.02281432203822 -1.201353764194189 1.4642628082240063 -1.8337054510305535 -1.5707961874466148 3.4520180020486904 6808.1600000000035
5.022814160005983 -1.1959627727376192 1.4751653328895968 -1.8499989649666286 -1.5707961786599998 3.452017841163632 6808.210000000004
5.022813941020551 -1.1886768856286762 1.4899000184397213 -1.8720195346712176 -1.5707961667849513 3.4520176237286053 6808.260000000004
5.022813679260146 -1.1799678279453767 1.5075128670170483 -1.8983414374002598 -1.57079615259032 3.452017363821451 6808.310000000004
5.022813394670402 -1.1704992129330667 1.5266618138392305 -1.9269589953951622 -1.570796137157709 3.452017081246587 6808.360000000004
5.022813110080659 -1.1610305979207567 1.5458107606614129 -1.9555765533900642 -1.570796121725098 3.452016798671723 6808.410000000004
5.022812848320254 -1.1523215402374571 1.5634236092387397 -1.9818984561191066 -1.5707961075304668 3.4520165387645685 6808.460000000005
5.022812629334822 -1.145035653128514 1.5781582947888642 -2.0039190258236954 -1.5707960956554183 3.4520163213295416 6808.510000000005
5.022812467302584 -1.1396446616719442 1.5890608194544547 -2.020212539759771 -1.5707960868688033 3.4520161604444835 6808.560000000005
5.022812367750643 -1.1363324586947716 1.5957592857657044 -2.0302232077050713 -1.5707960814703434 3.452016061597366 6808.610000000005
5.02281232467128 -1.1348991606893617 1.5986579301028383 -2.034555149466403 -1.5707960791342541 3.4520160188230014 6808.660000000005
5.022812317638241 -1.1346651637297578 1.599131156158622 -2.035262372386903 -1.5707960787528694 3.4520160118397563 6808.7100000000055
5.022812317638241 -1.1346651637297578 1.599131156158622 -2.035262372386903 -1.5707960787528694 3.4520160118397563 6808.760000000006
5.022812317638241 -1.1346651637297578 1.599131156158622 -2.035262372386903 -1.5707960787528694 3.4520160118397563 6808.810000000006
5.022812317638241 -1.1346651637297578 1.599131156158622 -2.035262372386903 -1.5707960787528694 3.4520160118397563 6808.860000000006
5.022812317638241 -1.1346651637297578 1.599131156158622 -2.035262372386903 -1.5707960787528694 3.4520160118397563 6808.910000000006
5.022812317638241 -1.1346651637297578 1.599131156158622 -2.035262372386903 -1.5707960787528694 3.4520160118397563 6808.960000000006
5.022812317638241 -1.1346651637297578 1.599131156158622 -2.035262372386903 -1.5707960787528694 3.4520160118397563 6809.010000000007
5.022812317638241 -1.1346651637297578 1.599131156158622 -2.035262372386903 -1.5707960787528694 3.4520160118397563 6809.060000000007
5.022812317638241 -1.1346651637297578 1.599131156158622 -2.035262372386903 -1.5707960787528694 3.4520160118397563 6809.110000000007
5.022812317638241 -1.1346651637297578 1.599131156158622 -2.035262372386903 -1.5707960787528694 3.4520160118397563 6809.160000000007
5.022812317638241 -1.1346651637297578 1.599131156158622 -2.035262372386903 -1.5707960787528694 3.4520160118397563 6809.210000000007
5.022812317638241 -1.1346651637297578 1.599131156158622 -2.035262372386903 -1.5707960787528694 3.4520160118397563 6809.2600000000075
5.022812317638241 -1.1346651637297578 1.599131156158622 -2.035262372386903 -1.5707960787528694 3.4520160118397563 6809.310000000008
5.022812317638241 -1.1346651637297578 1.599131156158622 -2.035262372386903 -1.5707960787528694 3.4520160118397563 6809.360000000008
5.022812317638241 -1.1346651637297578 1.599131156158622 -2.035262372386903 -1.5707960787528694 3.4520160118397563 6809.410000000008
5.02281232467128 -1.1348991606893617 1.5986579301028383 -2.034555149466403 -1.5707960791342541 3.4520160188230014 6809.460000000008
5.022812367750643 -1.1363324586947716 1.5957592857657044 -2.0302232077050717 -1.5707960814703434 3.452016061597366 6809.510000000008
5.022812467302584 -1.1396446616719442 1.5890608194544547 -2.020212539759771 -1.5707960868688033 3.4520161604444835 6809.560000000009
5.022812629334822 -1.145035653128514 1.5781582947888642 -2.0039190258236954 -1.5707960956554183 3.4520163213295416 6809.610000000009
5.022812848320254 -1.152321540237457 1.5634236092387397 -1.9818984561191066 -1.5707961075304668 3.4520165387645685 6809.660000000009
5.022813110080659 -1.1610305979207565 1.5458107606614127 -1.9555765533900644 -1.570796121725098 3.452016798671723 6809.710000000009
5.022813394670402 -1.1704992129330667 1.5266618138392305 -1.9269589953951622 -1.570796137157709 3.452017081246587 6809.760000000009
5.022813679260146 -1.1799678279453767 1.5075128670170481 -1.8983414374002598 -1.57079615259032 3.452017363821451 6809.8100000000095
5.022813941020551 -1.1886768856286762 1.4899000184397213 -1.8720195346712178 -1.5707961667849513 3.4520176237286053 6809.86000000001
5.022814160005983 -1.1959627727376192 1.4751653328895968 -1.8499989649666289 -1.5707961786599998 3.452017841163632 6809.91000000001
5.02281432203822 -1.201353764194189 1.4642628082240063 -1.8337054510305535 -1.5707961874466148 3.4520180020486904 6809.96000000001
5.022814421590161 -1.2046659671713615 1.4575643419127566 -1.8236947830852528 -1.5707961928450747 3.452018100895808 6810.01000000001
5.0228144646695245 -1.2060992651767715 1.4546656975756227 -1.8193628413239211 -1.570796195181164 3.4520181436701725 6810.06000000001
5.022814471702564 -1.2063332621363754 1.454192471519839 -1.8186556184034215 -1.5707961955625487 3.4520181506534175 6810.110000000011
5.022814471702564 -1.2063332621363754 1.454192471519839 -1.8186556184034213 -1.5707961955625487 3.4520181506534175 6810.160000000011
5.022707652119749 -1.206341486370966 1.4542034106366117 -1.818658333285851 -1.5707961955653587 3.451911331070598 6810.210000000011
5.0219821289244875 -1.2063973457256045 1.4542777095876567 -1.818676772883941 -1.5707961955844447 3.4511858078753033 6810.260000000011
5.020079230744857 -1.2065438533286021 1.4544725804610006 -1.8187251361587025 -1.5707961956345031 3.4492829096955866 6810.310000000011
5.016503642710337 -1.2068191443756227 1.4548387471694788 -1.8188160118284566 -1.5707961957285639 3.445707321660904 6810.3600000000115
5.010821059914718 -1.2072566567938556 1.4554206857535212 -1.8189604380074513 -1.570796195878052 3.440024738865028 6810.410000000012
5.002655840879015 -1.207885311906187 1.4562568646839358 -1.8191679618444803 -1.5707961960928496 3.4318595198289548 6810.460000000012
4.9916886610143765 -1.208729695095372 1.4573799851646942 -1.8194466991615008 -1.5707961963813566 3.4208923399638196 6810.510000000012
4.977654166084997 -1.209810236468208 1.458817221435717 -1.819803394092252 -1.5707961967505537 3.4068578450338034 6810.560000000012
4.960338625671025 -1.2111433915197045 1.4605904610756573 -1.820243478720873 -1.5707961972060631 3.3895423046190474 6810.610000000012
4.93957758663148 -1.2127418217972576 1.462716545304687 -1.8207711327205214 -1.5707961977522114 3.368781265578561 6810.660000000013
4.915253526567158 -1.2146145755648208 1.4652075092872807 -1.821389342991991 -1.5707961983920897 3.3444572055131365 6810.710000000013
4.887293507283545 -1.2167672684670772 1.4680708224350008 -1.8220999633023303 -1.5707961991276171 3.3164971862282555 6810.760000000013
4.855666828253725 -1.219202264193612 1.4713096287092822 -1.8229037739234601 -1.5707961999596012 3.2848705071970032 6810.810000000013
4.820382680081301 -1.2219188551430846 1.474922986924218 -1.8238005412707932 -1.5707962008878 3.249586359022979 6810.860000000013
4.78148779796329 -1.2249134430874002 1.4789061110493429 -1.8247890775418503 -1.5707962019109842 3.2106914769032056 6810.9100000000135
4.739064115153049 -1.2281797198358824 1.4832506105124192 -1.82586730035488 -1.5707962030269984 3.1682677940910415 6810.960000000014
4.693226416423177 -1.2317088478994453 1.4879447305022218 -1.8270322923874767 -1.5707962042328232 3.122430095359092 6811.010000000014
4.644119991528431 -1.2354896411547656 1.4929735922713214 -1.8282803610151976 -1.5707962055246365 3.0733236704621203 6811.060000000014
4.591918288668634 -1.239508745508454 1.4983194334388712 -1.8296070979501826 -1.5707962068978751 3.0211219675999565 6811.110000000014
4.536820567951587 -1.2437508195612286 1.5039618482933912 -1.8310074388797712 -1.5707962083472977 2.966024246880412 6811.160000000014
4.47904955485598 -1.248198715272086 1.5098780280955526 -1.8324757231051212 -1.570796209867045 2.9082532337821867 6811.210000000015
4.418849093694305 -1.2528336586224738 1.516043001380963 -1.8340057531798266 -1.5707962114507024 2.848052772617783 6811.260000000015
4.356481801075763 -1.2576354302804629 1.5224298742629507 -1.8355908545485362 -1.570796213091361 2.785685479996414 6811.310000000015
4.2922267193691805 -1.262582546264919 1.5290100707353511 -1.8372239351855715 -1.570796214781681 2.7214303982869192 6811.360000000015
4.226376970165915 -1.2676524386096755 1.5357535729752898 -1.8388975452335448 -1.5707962165139506 2.6555806490806693 6811.410000000015
4.159237407742769 -1.2728216360277047 1.5426291616459682 -1.8406039366419775 -1.5707962182801507 2.5884410866544805 6811.4600000000155
4.091122272524903 -1.2780659445752913 1.549604656199448 -1.8423351228059186 -1.5707962200720145 2.520325951433527 6811.510000000016
4.022352844548741 -1.2833606283162027 1.5566471551794374 -1.8440829382045623 -1.5707962218810905 2.451556523454248 6811.560000000016
3.9532550969248863 -1.2886805899858624 1.5637232765240738 -1.845839098039866 -1.5707962236988033 2.382458775827261 6811.610000000016
3.884157349301032 -1.2940005516555224 1.5707993978687103 -1.8475952578751698 -1.5707962255165162 2.3133610282002746 6811.660000000016
3.8153879213248705 -1.2992952353964338 1.5778418968486996 -1.8493430732738134 -1.5707962273255922 2.244591600220996 6811.710000000016
3.7472727861070037 -1.3045395439440202 1.5848173914021795 -1.8510742594377545 -1.570796229117456 2.1764764650000417 6811.760000000017
3.6801332236838578 -1.3097087413620496 1.5916929800728579 -1.8527806508461873 -1.570796230883656 2.1093369025738524 6811.810000000017
3.614283474480593 -1.3147786337068061 1.5984364823127966 -1.8544542608941605 -1.5707962326159257 2.0434871533676024 6811.860000000017
3.55002839277401 -1.3197257496912622 1.605016678785197 -1.8560873415311958 -1.5707962343062456 1.9792320716581076 6811.910000000017
3.487661100155468 -1.3245275213492511 1.6114035516671847 -1.8576724428999054 -1.5707962359469043 1.916864779036739 6811.960000000017
3.4274606389937943 -1.329162464699639 1.617568524952595 -1.8592024729746108 -1.5707962375305617 1.8566643178723359 6812.0100000000175
3.3696896258981868 -1.3336103604104965 1.6234847047547565 -1.8606707571999608 -1.570796239050309 1.7988933047741105 6812.060000000018
3.314591905181139 -1.337852434463271 1.6291271196092763 -1.8620710981295494 -1.5707962404997315 1.7437955840545651 6812.110000000018
3.262390202321342 -1.3418715388169595 1.6344729607768262 -1.8633978350645344 -1.5707962418729702 1.691593881192401 6812.160000000018
3.2132837774265957 -1.3456523320722795 1.639501822545926 -1.8646459036922554 -1.5707962431647835 1.64248745629543 6812.210000000018
3.1674460786967256 -1.3491814601358425 1.6441959425357284 -1.865810895724852 -1.5707962443706083 1.5966497575634815 6812.260000000018
3.125022395886484 -1.3524477368843248 1.6485404419988048 -1.8668891185378818 -1.5707962454866224 1.5542260747513152 6812.310000000019
3.0861275137684734 -1.3554423248286405 1.6525235661239297 -1.8678776548089389 -1.5707962465098066 1.5153311926315443 6812.360000000019
3.050843365596048 -1.3581589157781129 1.6561369243388655 -1.8687744221562719 -1.5707962474380055 1.4800470444575193 6812.410000000019
3.019216686566228 -1.360593911504648 1.659375730613147 -1.8695782327774018 -1.5707962482699895 1.448420365426264 6812.460000000019
2.9912566672826166 -1.3627466044069045 1.662239043760867 -1.870288853087741 -1.570796249005517 1.420460346141386 6812.510000000019
2.9669326072182916 -1.3646193581744677 1.6647300077434606 -1.8709070633592106 -1.5707962496453953 1.3961362860759596 6812.5600000000195
2.94617156817875 -1.3662177884520208 1.6668560919724906 -1.871434717358859 -1.5707962501915436 1.375375247035473 6812.61000000002
2.928856027764775 -1.3675509435035171 1.668629331612431 -1.87187480198748 -1.570796250647053 1.3580597066207183 6812.66000000002
2.914821532835397 -1.368631484876353 1.6700665678834536 -1.8722314969182312 -1.57079625101625 1.3440252116907025 6812.71000000002
2.9038543529707592 -1.3694758680655381 1.6711896883642121 -1.8725102342352518 -1.570796251304757 1.3330580318255674 6812.76000000002
2.8956891339350577 -1.3701045231778692 1.6720258672946264 -1.8727177580722807 -1.5707962515195546 1.3248928127894946 6812.81000000002
2.8900065511394395 -1.3705420355961022 1.6726078058786686 -1.8728621842512754 -1.5707962516690428 1.3192102299936188 6812.860000000021
2.8864309631049174 -1.370817326643123 1.6729739725871473 -1.8729530599210296 -1.5707962517631036 1.3156346419589315 6812.910000000021
2.884528064925288 -1.3709638342461203 1.6731688434604908 -1.873001423195791 -1.570796251813162 1.3137317437792237 6812.960000000021
2.8838025417300273 -1.3710196936007586 1.6732431424115355 -1.8730198627938808 -1.570796251832248 1.3130062205839277 6813.010000000021
2.8836957221472126 -1.3710279178353495 1.6732540815283086 -1.8730225776763108 -1.570796251835058 1.312899401001106 6813.060000000021
2.883695722147209 -1.3710279178353497 1.6732540815283086 -1.8730225776763108 -1.570796251835058 1.3128994010011041 6813.1100000000215
2.883695727867589 -1.3708014081473126 1.6736474373732717 -1.8736424429761573 -1.5707962520356238 1.312899406706375 6813.160000000022
2.883695763246072 -1.3694005276985515 1.676080200922549 -1.8774760855322241 -1.5707962532760502 1.3128994419914117 6813.210000000022
2.88369584602682 -1.3661226615040178 1.6817725306317133 -1.8864462780619082 -1.5707962561784765 1.3128995245535093 6813.260000000022
2.8836959828005235 -1.3607068382835505 1.6911776282128341 -1.9012671932888139 -1.5707962609739827 1.3128996609659496 6813.310000000022
2.8836961710323017 -1.3532534316064424 1.7041211853151157 -1.9216641493961704 -1.570796267573692 1.3128998487005468 6813.360000000022
2.8836964010896087 -1.3441438610360055 1.7199408302055326 -1.946593355480248 -1.5707962756398712 1.312900078150198 6813.410000000023
2.883696658270137 -1.3339602932741372 1.7376255744494675 -1.974461657003775 -1.5707962846570347 1.3129003346514299 6813.460000000023
2.883696924829723 -1.3234053433058863 1.7559552595913481 -2.0033462812493545 -1.5707962940030427 1.3129006005069466 6813.510000000023
2.8836971820102515 -1.313221775544018 1.773640003835283 -2.0312145827728814 -1.5707963030202061 1.3129008570081784 6813.560000000023
2.8836974120675585 -1.3041122049735812 1.7894596487257 -2.056143788856959 -1.5707963110863854 1.3129010864578297 6813.610000000023
2.8836976002993366 -1.296658798296473 1.8024032058279813 -2.076540744964315 -1.5707963176860946 1.3129012741924269 6813.6600000000235
2.88369773707304 -1.2912429750760057 1.8118083034091024 -2.0913616601912213 -1.5707963224816008 1.312901410604867 6813.710000000024
2.883697819853788 -1.2879651088814719 1.8175006331182666 -2.100331852720905 -1.5707963253840271 1.3129014931669647 6813.760000000024
2.883697855232271 -1.2865642284327108 1.819933396667544 -2.1041654952769724 -1.5707963266244536 1.3129015284520014 6813.810000000024
2.883697860952651 -1.2863377187446738 1.820326752512507 -2.1047853605768188 -1.5707963268250194 1.3129015341572723 6813.860000000024
2.883697860952651 -1.2863377187446738 1.820326752512507 -2.1047853605768188 -1.5707963268250194 1.3129015341572723 6813.910000000024
2.883697860952651 -1.2863377187446738 1.820326752512507 -2.1047853605768188 -1.5707963268250194 1.3129015341572723 6813.960000000025
2.883697860952651 -1.2863377187446738 1.820326752512507 -2.1047853605768188 -1.5707963268250194 1.3129015341572723 6814.010000000025
2.883697860952651 -1.2863377187446738 1.820326752512507 -2.1047853605768188 -1.5707963268250194 1.3129015341572723 6814.060000000025
2.883697860952651 -1.2863377187446738 1.820326752512507 -2.1047853605768188 -1.5707963268250194 1.3129015341572723 6814.110000000025
2.883697860952651 -1.2863377187446738 1.820326752512507 -2.1047853605768188 -1.5707963268250194 1.3129015341572723 6814.160000000025
2.883697855232271 -1.286564228432711 1.819933396667544 -2.1041654952769724 -1.5707963266244536 1.3129015284520014 6814.2100000000255
2.883697819853788 -1.287965108881472 1.8175006331182666 -2.100331852720905 -1.5707963253840271 1.3129014931669647 6814.260000000026
2.88369773707304 -1.2912429750760057 1.8118083034091024 -2.0913616601912213 -1.5707963224816008 1.312901410604867 6814.310000000026
2.8836976002993366 -1.296658798296473 1.8024032058279815 -2.0765407449643156 -1.5707963176860946 1.3129012741924269 6814.360000000026
2.8836974120675585 -1.3041122049735812 1.7894596487257 -2.056143788856959 -1.5707963110863854 1.3129010864578297 6814.410000000026
2.8836971820102515 -1.313221775544018 1.773640003835283 -2.0312145827728814 -1.5707963030202061 1.3129008570081784 6814.460000000026
2.883696924829723 -1.3234053433058863 1.7559552595913481 -2.0033462812493545 -1.5707962940030427 1.3129006005069466 6814.510000000027
2.883696658270137 -1.3339602932741372 1.7376255744494675 -1.974461657003775 -1.5707962846570347 1.3129003346514299 6814.560000000027
2.8836964010896087 -1.3441438610360055 1.7199408302055326 -1.9465933554802481 -1.5707962756398712 1.312900078150198 6814.610000000027
2.8836961710323017 -1.3532534316064424 1.7041211853151157 -1.9216641493961706 -1.570796267573692 1.3128998487005468 6814.660000000027
2.8836959828005235 -1.3607068382835505 1.6911776282128343 -1.901267193288814 -1.5707962609739827 1.3128996609659496 6814.710000000027
2.88369584602682 -1.3661226615040178 1.6817725306317133 -1.886446278061908 -1.5707962561784765 1.3128995245535093 6814.7600000000275
2.883695763246072 -1.3694005276985517 1.676080200922549 -1.8774760855322241 -1.5707962532760502 1.3128994419914117 6814.810000000028
2.883695727867589 -1.3708014081473126 1.6736474373732717 -1.8736424429761571 -1.5707962520356238 1.312899406706375 6814.860000000028
2.883695722147209 -1.3710279178353497 1.6732540815283086 -1.873022577676311 -1.570796251835058 1.3128994010011041 6814.910000000028
2.883695722147209 -1.3710279178353497 1.6732540815283086 -1.873022577676311 -1.570796251835058 1.3128994010011041 6814.960000000028
2.883695722147209 -1.3710279178353497 1.6732540815283086 -1.873022577676311 -1.570796251835058 1.3128994010011041 6815.010000000028
2.883695722147209 -1.3710279178353497 1.6732540815283086 -1.873022577676311 -1.570796251835058 1.3128994010011041 6815.060000000029
2.883695722147209 -1.3710279178353497 1.6732540815283086 -1.873022577676311 -1.570796251835058 1.3128994010011041 6815.110000000029
2.883695722147209 -1.3710279178353497 1.6732540815283086 -1.873022577676311 -1.570796251835058 1.3128994010011041 6815.160000000029
2.883695722147209 -1.3710279178353497 1.6732540815283086 -1.873022577676311 -1.570796251835058 1.3128994010011041 6815.210000000029
2.883695722147209 -1.3710279178353497 1.6732540815283086 -1.873022577676311 -1.570796251835058 1.3128994010011041 6815.260000000029
2.883695722147209 -1.3710279178353497 1.6732540815283086 -1.873022577676311 -1.570796251835058 1.3128994010011041 6815.3100000000295
2.883695722147209 -1.3710279178353497 1.6732540815283086 -1.873022577676311 -1.570796251835058 1.3128994010011041 6815.36000000003
2.883695722147209 -1.3710279178353497 1.6732540815283086 -1.873022577676311 -1.570796251835058 1.3128994010011041 6815.41000000003
2.883695722147209 -1.3710279178353497 1.6732540815283086 -1.873022577676311 -1.570796251835058 1.3128994010011041 6815.46000000003
2.883695722147209 -1.3710279178353497 1.6732540815283086 -1.873022577676311 -1.570796251835058 1.3128994010011041 6815.51000000003
2.883695722147209 -1.3710279178353497 1.6732540815283086 -1.873022577676311 -1.570796251835058 1.3128994010011041 6815.56000000003
2.883695722147209 -1.3710279178353497 1.6732540815283086 -1.873022577676311 -1.570796251835058 1.3128994010011041 6815.610000000031
2.883695722147209 -1.3710279178353497 1.6732540815283086 -1.873022577676311 -1.570796251835058 1.3128994010011041 6815.660000000031
2.883695722147209 -1.3710279178353497 1.6732540815283086 -1.873022577676311 -1.570796251835058 1.3128994010011041 6815.710000000031
2.883695722147209 -1.3710279178353497 1.6732540815283086 -1.873022577676311 -1.570796251835058 1.3128994010011041 6815.760000000031
2.883695722147209 -1.3710279178353497 1.6732540815283086 -1.873022577676311 -1.570796251835058 1.3128994010011041 6815.810000000031
2.883695722147209 -1.3710279178353497 1.6732540815283086 -1.873022577676311 -1.570796251835058 1.3128994010011041 6815.8600000000315
2.883695722147209 -1.3710279178353497 1.6732540815283086 -1.873022577676311 -1.570796251835058 1.3128994010011041 6815.910000000032
2.883695722147209 -1.3710279178353497 1.6732540815283086 -1.873022577676311 -1.570796251835058 1.3128994010011041 6815.960000000032
2.883695722147209 -1.3710279178353497 1.6732540815283086 -1.873022577676311 -1.570796251835058 1.3128994010011041 6816.010000000032
2.883695722147209 -1.3710279178353497 1.6732540815283086 -1.873022577676311 -1.570796251835058 1.3128994010011041 6816.060000000032
2.883695722147209 -1.3710279178353497 1.6732540815283086 -1.873022577676311 -1.570796251835058 1.3128994010011041 6816.110000000032
2.883695722147209 -1.3710279178353497 1.6732540815283086 -1.873022577676311 -1.570796251835058 1.3128994010011041 6816.160000000033
2.883695722147209 -1.3710279178353497 1.6732540815283086 -1.873022577676311 -1.570796251835058 1.3128994010011041 6816.210000000033
2.883695722147209 -1.3710279178353497 1.6732540815283086 -1.873022577676311 -1.570796251835058 1.3128994010011041 6816.260000000033
2.883695722147209 -1.3710279178353497 1.6732540815283086 -1.873022577676311 -1.570796251835058 1.3128994010011041 6816.310000000033
2.883695722147209 -1.3710279178353497 1.6732540815283086 -1.873022577676311 -1.570796251835058 1.3128994010011041 6816.360000000033
2.883695722147209 -1.3710279178353497 1.6732540815283086 -1.873022577676311 -1.570796251835058 1.3128994010011041 6816.4100000000335
2.883695722147209 -1.3710279178353497 1.6732540815283086 -1.873022577676311 -1.570796251835058 1.3128994010011041 6816.460000000034
2.883695722147209 -1.3710279178353497 1.6732540815283086 -1.873022577676311 -1.570796251835058 1.3128994010011041 6816.510000000034
2.883695722147209 -1.3710279178353497 1.6732540815283086 -1.8730225776763108 -1.570796251835058 1.3128994010011041 6816.560000000034
2.8838588108762226 -1.371045567504979 1.6732741936208189 -1.8730250400899466 -1.5707962518430025 1.313062489729519 6816.610000000034
2.8849566551364756 -1.3711643776067872 1.6734095797106958 -1.8730416160157808 -1.5707962518964815 1.3141603339857413 6816.660000000034
2.887806322713895 -1.3714727722555096 1.6737610005494463 -1.8730846420442673 -1.5707962520352965 1.3170100015526982 6816.710000000035
2.893101946424782 -1.3720458713871506 1.6744140565553234 -1.8731645986183054 -1.5707962522932604 1.3223056252441423 6816.760000000035
2.901420720943598 -1.3729461397433125 1.675439927341777 -1.8732902005770231 -1.5707962526984902 1.3306243997324168 6816.810000000035
2.913228899630754 -1.374224035855523 1.6768961112459062 -1.8734684876995606 -1.5707962532736983 1.3424325783762194 6816.860000000035
2.9288877913603932 -1.3759186610295642 1.678827164856909 -1.8737049152488523 -1.570796254036485 1.3580914700483677 6816.910000000035
2.94865975734818 -1.3780584083298006 1.6812654425445357 -1.874003444515411 -1.5707962549996306 1.3778634359635629 6816.9600000000355
2.9727142079790867 -1.3806616115635078 1.6842318359875392 -1.8743666333611106 -1.5707962561713875 1.401917886506155 6817.010000000036
3.001133599635179 -1.3837371942652001 1.6877365137021265 -1.8747957267629696 -1.5707962575557723 1.4303372780579071 6817.060000000036
3.033919431523404 -1.3872853186809597 1.6917796605704107 -1.8752907473569334 -1.5707962591528584 1.4631231098257607 6817.110000000036
3.070998242503376 -1.3912980347527646 1.6963522173688617 -1.8758505859816588 -1.5707962609590669 1.5002019206695991 6817.160000000036
3.1122276079151616 -1.3957599291028169 1.7014366202967577 -1.8764730922222959 -1.5707962629674599 1.5414312859300134 6817.210000000036
3.15740213640707 -1.400648774017871 1.7070075405046379 -1.8771551649542717 -1.5707962651680325 1.5866058142560657 6817.260000000037
3.2062594667634357 -1.4059361764335625 1.7130326236227515 -1.8778928428870736 -1.5707962675480043 1.6354631444330545 6817.310000000037
3.258486264732409 -1.411588226918736 1.719473229289512 -1.8786813951080323 -1.5707962700921119 1.6876899422102793 6817.360000000037
3.313724219853738 -1.4175661486597735 1.7262851706799465 -1.8795154116261044 -1.570796272782901 1.7429278971288054 6817.410000000037
3.3715760422865606 -1.4238269464449234 1.7334194540341474 -1.8803888939156561 -1.5707962756010188 1.8007797193492279 6817.460000000037
3.431611459637186 -1.4303240556486272 1.740823018185725 -1.881295345460247 -1.5707962785255052 1.860815136479436 6817.5100000000375
3.4933732137868843 -1.4370079912158498 1.7484394740902576 -1.8822278622964117 -1.5707962815340861 1.9225768904023792 6817.560000000038
3.556383057719673 -1.4438269966464066 1.756209844353744 -1.8831792235574443 -1.5707962846034649 1.9855867341038307 6817.610000000038
3.6201477523501024 -1.4507276929792923 1.7640733027610538 -1.8841419820171805 -1.5707962877096144 2.049351428500151 6817.660000000038
3.6841650633510428 -1.4576557277770092 1.7719679138043802 -1.885108554633782 -1.5707962908280695 2.1133687392660554 6817.710000000038
3.7479297579814723 -1.464556424109895 1.77983137221169 -1.8860713130935183 -1.570796293934219 2.1771334336623758 6817.760000000038
3.810939601914262 -1.4713754295404518 1.7876017424751764 -1.8870226743545508 -1.5707962970035978 2.2401432773638277 6817.810000000039
3.87270135606396 -1.4780593651076745 1.795218198379709 -1.8879551911907155 -1.5707963000121787 2.3019050312867706 6817.860000000039
3.932736773414584 -1.4845564743113782 1.8026217625312866 -1.8888616427353064 -1.5707963029366652 2.3619404484169784 6817.910000000039
3.9905885958474068 -1.490817272096528 1.8097560458854876 -1.8897351250248582 -1.570796305754783 2.419792270637401 6817.960000000039
4.045826550968736 -1.4967951938375654 1.816567987275922 -1.8905691415429302 -1.570796308445572 2.475030225555927 6818.010000000039
4.098053348937709 -1.502447244322739 1.8230085929426822 -1.891357693763889 -1.5707963109896796 2.527257023333152 6818.0600000000395
4.146910679294075 -1.5077346467384305 1.8290336760607961 -1.8920953716966908 -1.5707963133696514 2.5761143535101407 6818.11000000004
4.192085207785984 -1.5126234916534846 1.8346045962686763 -1.8927774444286667 -1.570796315570224 2.6212888818361932 6818.16000000004
4.23331457319777 -1.517085386003537 1.8396889991965724 -1.8933999506693038 -1.570796317578617 2.6625182470966076 6818.21000000004
4.27039338417774 -1.5210981020753418 1.8442615559950233 -1.8939597892940292 -1.5707963193848256 2.699597057940446 6818.26000000004
4.303179216065965 -1.5246462264911014 1.8483047028633075 -1.894454809887993 -1.5707963209819116 2.7323828897082993 6818.31000000004
4.331598607722059 -1.5277218091927938 1.8518093805778948 -1.894883903289852 -1.5707963223662964 2.7608022812600526 6818.360000000041
4.355653058352965 -1.5303250124265007 1.8547757740208983 -1.8952470921355515 -1.5707963235380533 2.784856731802643 6818.410000000041
4.375425024340753 -1.5324647597267373 1.857214051708525 -1.8955456214021102 -1.5707963245011989 2.804628697717839 6818.460000000041
4.391083916070393 -1.5341593849007789 1.8591451053195283 -1.895782048951402 -1.5707963252639856 2.8202875893899897 6818.510000000041
4.402892094757549 -1.535437281012989 1.8606012892236572 -1.8959603360739394 -1.5707963258391937 2.83209576803379 6818.560000000041
4.411210869276365 -1.5363375493691507 1.8616271600101109 -1.8960859380326571 -1.5707963262444236 2.8404145425220637 6818.6100000000415
4.416506492987249 -1.536910648500792 1.8622802160159881 -1.8961658946066953 -1.5707963265023874 2.845710166213509 6818.660000000042
4.419356160564668 -1.5372190431495143 1.8626316368547382 -1.8962089206351818 -1.5707963266412024 2.8485598337804667 6818.710000000042
4.42045400482492 -1.5373378532513224 1.8627670229446152 -1.896225496561016 -1.5707963266946814 2.849657678036687 6818.760000000042
4.420617093553936 -1.5373555029209518 1.8627871350371255 -1.8962279589746518 -1.570796326702626 2.8498207667651023 6818.810000000042
4.420617093553936 -1.5373555029209518 1.8627871350371255 -1.8962279589746518 -1.570796326702626 2.8498207667651023 6818.860000000042
4.420617093508544 -1.5370986896781664 1.8632025402836998 -1.8969001774701757 -1.5707963266981555 2.849820766720002 6818.910000000043
4.420617093227808 -1.5355103927098617 1.8657716714024684 -1.9010576055953725 -1.5707963266705074 2.8498207664410713 6818.960000000043
4.420617092570923 -1.5317939978212822 1.8717830823340607 -1.910785411504748 -1.5707963266058145 2.849820765788412 6819.010000000043
4.4206170914855925 -1.5256536197400903 1.881715378827853 -1.926858086227118 -1.5707963264989264 2.849820764710062 6819.060000000043
4.42061708999193 -1.5172030604941085 1.8953844817494696 -1.9489777485975532 -1.5707963263518239 2.8498207632260075 6819.110000000043
4.420617088166373 -1.5068747677890606 1.9120908903882836 -1.9760124501893226 -1.570796326172035 2.849820761412192 6819.1600000000435
4.420617086125587 -1.4953287933863155 1.9307669457649166 -2.0062344802458356 -1.5707963259710493 2.849820759384532 6819.210000000044
4.420617084010376 -1.4833617514806283 1.950124093938739 -2.037558670612587 -1.570796325762734 2.849820757282926 6819.260000000044
4.420617081969589 -1.4718157770778832 1.968800149315372 -2.0677807006691 -1.5707963255617483 2.8498207552552657 6819.310000000044
4.420617080144032 -1.4614874843728356 1.985506557954186 -2.094815402260869 -1.5707963253819595 2.8498207534414504 6819.360000000044
4.42061707865037 -1.4530369251268536 1.9991756608758027 -2.1169350646313045 -1.570796325234857 2.8498207519573957 6819.410000000044
4.420617077565039 -1.4468965470456616 2.0091079573695954 -2.133007739353675 -1.5707963251279689 2.849820750879046 6819.460000000045
4.4206170769081545 -1.4431801521570822 2.015119368301187 -2.1427355452630503 -1.570796325063276 2.8498207502263866 6819.510000000045
4.420617076627418 -1.4415918551887774 2.0176884994199558 -2.1468929733882476 -1.5707963250356278 2.849820749947456 6819.560000000045
4.420617076582026 -1.441335041945992 2.01810390466653 -2.147565191883771 -1.5707963250311574 2.8498207499023556 6819.610000000045
4.420617076582026 -1.441335041945992 2.01810390466653 -2.147565191883771 -1.5707963250311574 2.8498207499023556 6819.660000000045
4.420617076582026 -1.441335041945992 2.01810390466653 -2.147565191883771 -1.5707963250311574 2.8498207499023556 6819.7100000000455
4.420617076582026 -1.441335041945992 2.01810390466653 -2.147565191883771 -1.5707963250311574 2.8498207499023556 6819.760000000046
4.420617076582026 -1.441335041945992 2.01810390466653 -2.147565191883771 -1.5707963250311574 2.8498207499023556 6819.810000000046
4.420617076582026 -1.441335041945992 2.01810390466653 -2.147565191883771 -1.5707963250311574 2.8498207499023556 6819.860000000046
4.420617076582026 -1.441335041945992 2.01810390466653 -2.147565191883771 -1.5707963250311574 2.8498207499023556 6819.910000000046
4.420617076582026 -1.441335041945992 2.01810390466653 -2.147565191883771 -1.5707963250311574 2.8498207499023556 6819.960000000046
4.420617076582026 -1.441335041945992 2.01810390466653 -2.147565191883771 -1.5707963250311574 2.8498207499023556 6820.010000000047
4.420617076582026 -1.441335041945992 2.01810390466653 -2.147565191883771 -1.5707963250311574 2.8498207499023556 6820.060000000047
4.420617076582026 -1.441335041945992 2.01810390466653 -2.147565191883771 -1.5707963250311574 2.8498207499023556 6820.110000000047
4.420617076582026 -1.441335041945992 2.01810390466653 -2.147565191883771 -1.5707963250311574 2.8498207499023556 6820.160000000047
4.420617076582026 -1.441335041945992 2.01810390466653 -2.147565191883771 -1.5707963250311574 2.8498207499023556 6820.210000000047
4.420617076582026 -1.441335041945992 2.01810390466653 -2.147565191883771 -1.5707963250311574 2.8498207499023556 6820.2600000000475
4.420617076582026 -1.441335041945992 2.01810390466653 -2.147565191883771 -1.5707963250311574 2.8498207499023556 6820.310000000048
4.420617076627418 -1.4415918551887774 2.0176884994199558 -2.146892973388247 -1.5707963250356278 2.849820749947456 6820.360000000048
4.4206170769081545 -1.4431801521570822 2.015119368301187 -2.14273554526305 -1.570796325063276 2.8498207502263866 6820.410000000048
4.420617077565039 -1.4468965470456616 2.009107957369595 -2.133007739353675 -1.5707963251279689 2.849820750879046 6820.460000000048
4.42061707865037 -1.4530369251268536 1.9991756608758027 -2.1169350646313045 -1.570796325234857 2.8498207519573957 6820.510000000048
4.420617080144032 -1.4614874843728354 1.985506557954186 -2.094815402260869 -1.5707963253819595 2.8498207534414504 6820.560000000049
4.420617081969589 -1.4718157770778832 1.968800149315372 -2.0677807006691 -1.5707963255617483 2.8498207552552657 6820.610000000049
4.420617084010376 -1.4833617514806283 1.950124093938739 -2.037558670612587 -1.570796325762734 2.849820757282926 6820.660000000049
4.420617086125587 -1.4953287933863155 1.9307669457649166 -2.0062344802458356 -1.5707963259710493 2.849820759384532 6820.710000000049
4.420617088166373 -1.5068747677890606 1.9120908903882836 -1.9760124501893226 -1.570796326172035 2.849820761412192 6820.760000000049
4.42061708999193 -1.5172030604941082 1.8953844817494696 -1.9489777485975535 -1.5707963263518239 2.8498207632260075 6820.8100000000495
4.4206170914855925 -1.5256536197400903 1.881715378827853 -1.926858086227118 -1.5707963264989264 2.849820764710062 6820.86000000005
4.420617092570923 -1.5317939978212822 1.8717830823340604 -1.9107854115047478 -1.5707963266058145 2.849820765788412 6820.91000000005
4.420617093227808 -1.5355103927098617 1.8657716714024681 -1.9010576055953723 -1.5707963266705074 2.8498207664410713 6820.96000000005
4.420617093508544 -1.5370986896781664 1.8632025402836996 -1.8969001774701753 -1.5707963266981555 2.849820766720002 6821.01000000005
4.420617093553936 -1.5373555029209518 1.8627871350371255 -1.8962279589746518 -1.570796326702626 2.8498207667651023 6821.06000000005
4.420617093553936 -1.5373555029209518 1.8627871350371255 -1.8962279589746518 -1.570796326702626 2.8498207667651023 6821.110000000051
4.42043197175839 -1.5373301928070717 1.862757875774113 -1.896224009825388 -1.5707963267028424 2.849635644969585 6821.160000000051
4.41918938413497 -1.5371603044686302 1.8625614796772492 -1.8961975020660833 -1.570796326704296 2.848393057346361 6821.210000000051
4.415974818569572 -1.5367208045151266 1.8620534043365184 -1.896128926676573 -1.570796326708056 2.845178491781468 6821.260000000051
4.410022591472013 -1.5359070076024806 1.861112630303706 -1.8960019495521798 -1.5707963267150187 2.839226264684845 6821.310000000051
4.4007080146958275 -1.5346335054832194 1.8596404230417778 -1.895803244402898 -1.5707963267259142 2.8299116879101236 6821.3600000000515
4.387539562458059 -1.5328330960566672 1.8575590948742582 -1.895522325652579 -1.5707963267413176 2.816743235674425 6821.410000000052
4.370151038259055 -1.5304557124191336 1.85481076693461 -1.895151381338116 -1.5707963267616574 2.799354711478155 6821.460000000052
4.348293741802261 -1.5274673519141009 1.8513561311156126 -1.8946851060086292 -1.5707963267872245 2.777497415024797 6821.510000000052
4.321828635914012 -1.523849005182414 1.847173212018741 -1.8941205336246503 -1.5707963268181815 2.751032309140708 6821.560000000052
4.290718513463327 -1.519595585212468 1.842256128903545 -1.8934568704573076 -1.5707963268545717 2.7199221866949133 6821.610000000052
4.255020164281702 -1.5147148563903967 1.836613857637028 -1.8926953279875105 -1.570796326896329 2.6842238375189003 6821.660000000053
4.214876542082906 -1.5092263635502612 1.830268992643025 -1.8918389558051347 -1.570796326943286 2.644080215326415 6821.710000000053
4.170508931382772 -1.5031603610242383 1.8232565088515826 -1.8908924745082079 -1.5707963269951841 2.5997126046332557 6821.760000000053
4.1222091144189905 -1.496556741692809 1.8156225236483379 -1.8898621086020924 -1.5707963270516816 2.551412787677067 6821.810000000053
4.070331538070905 -1.4894639660349462 1.8074230588238964 -1.8887554193986726 -1.5707963271123642 2.499535211337136 6821.860000000053
4.015285480779301 -1.4819379911783048 1.7987228025232118 -1.8875811379155385 -1.570796327176753 2.4444891540541867 6821.9100000000535
3.9575272194662086 -1.4740411999494083 1.7895938711949642 -1.8863489977751702 -1.5707963272443144 2.3867308927501734 6821.960000000054
3.897552196454685 -1.4658413299238384 1.7801145715409397 -1.885069568104124 -1.570796327314469 2.3267558697480784 6822.010000000054
3.835887186388616 -1.4574104024764232 1.7703681624654082 -1.8837540864322166 -1.5707963273866001 2.2650908596917034 6822.060000000054
3.7730824631525057 -1.4488236518314246 1.7604416170245036 -1.8824142915917097 -1.5707963274600645 2.2022861364654656 6822.110000000054
3.7097039667912712 -1.440158454112729 1.7504243843756022 -1.8810622566164956 -1.5707963275341998 2.1389076401141947 6822.160000000054
3.6463254704300367 -1.4314932563940332 1.7404071517267008 -1.8797102216412813 -1.5707963276083354 2.0755291437629237 6822.210000000055
3.5835207471939268 -1.4229065057490349 1.7304806062857963 -1.8783704268007746 -1.5707963276817998 2.012724420536686 6822.260000000055
3.5218557371278574 -1.4144755783016194 1.7207341972102648 -1.877054945128867 -1.570796327753931 1.9510594104803114 6822.310000000055
3.461880714116335 -1.4062757082760495 1.7112548975562403 -1.8757755154578208 -1.5707963278240855 1.891084387478216 6822.360000000055
3.404122452803241 -1.398378917047153 1.7021259662279926 -1.8745433753174525 -1.5707963278916468 1.8333261261742022 6822.410000000055
3.3490763955116383 -1.3908529421905116 1.693425709927308 -1.8733690938343184 -1.5707963279560357 1.7782800688912532 6822.4600000000555
3.2971988191635515 -1.383760166532649 1.6852262451028666 -1.8722624046308987 -1.5707963280167183 1.7264024925513226 6822.510000000056
3.24889900219977 -1.3771565472012197 1.6775922598996218 -1.8712320387247834 -1.5707963280732158 1.6781026755951345 6822.560000000056
3.2045313914996356 -1.3710905446751966 1.6705797761081795 -1.8702855574278563 -1.5707963281251138 1.6337350649019733 6822.610000000056
3.1643877693008395 -1.3656020518350611 1.6642349111141765 -1.8694291852454805 -1.570796328172071 1.5935914427094886 6822.660000000056
3.1286894201192155 -1.36072132301299 1.6585926398476594 -1.8686676427756834 -1.5707963282138282 1.557893093533477 6822.710000000056
3.0975792976685286 -1.3564679030430438 1.6536755567324635 -1.8680039796083405 -1.5707963282502184 1.5267829710876804 6822.760000000057
3.071114191780281 -1.352849556311357 1.6494926376355918 -1.8674394072243619 -1.5707963282811754 1.5003178652035931 6822.810000000057
3.049256895323486 -1.3498611958063245 1.6460380018165943 -1.866973131894875 -1.5707963283067425 1.4784605687502346 6822.860000000057
3.0318683711244825 -1.3474838121687907 1.643289673876946 -1.866602187580412 -1.5707963283270823 1.4610720445539638 6822.910000000057
3.018699918886714 -1.3456834027422386 1.6412083457094266 -1.866321268830093 -1.5707963283424857 1.4479035923182657 6822.960000000057
3.0093853421105283 -1.3444099006229777 1.6397361384474987 -1.8661225636808112 -1.5707963283533812 1.4385890155435455 6823.0100000000575
3.003433115012969 -1.3435961037103312 1.6387953644146862 -1.865995586556418 -1.5707963283603439 1.4326367884469207 6823.060000000058
3.000218549447572 -1.3431566037568279 1.6382872890739553 -1.8659270111669077 -1.570796328364104 1.42942222288203 6823.110000000058
2.998975961824149 -1.3429867154183863 1.638090892977091 -1.865900503407603 -1.5707963283655575 1.428179635258802 6823.160000000058
2.9987908400286045 -1.3429614053045063 1.638061633714079 -1.8658965542583392 -1.570796328365774 1.427994513463286 6823.210000000058
2.9987908400286063 -1.342961405304506 1.638061633714079 -1.8658965542583392 -1.570796328365774 1.427994513463287 6823.260000000058
2.9987908375813794 -1.3427405478580317 1.6384527923103132 -1.8665085704197473 -1.570796328244215 1.427994511023567 6823.310000000059
2.998790822446168 -1.3413746244778415 1.640871966671366 -1.870293668895103 -1.570796327492416 1.4279944959347812 6823.360000000059
2.998790787031869 -1.338178552981371 1.6465324995625137 -1.8791502750004434 -1.5707963257333106 1.4279944606291126 6823.410000000059
2.998790728518931 -1.3328978742722388 1.6558850611537157 -1.8937835181388678 -1.5707963228268453 1.4279944022956577 6823.460000000059
2.998790647991797 -1.3256304572336688 1.6687563167642183 -1.9139221946937996 -1.570796318826887 1.4279943220155333 6823.510000000059
2.998790549571351 -1.3167482036219098 1.6844875946071576 -1.9385357309222473 -1.570796313938129 1.427994223896983 6823.5600000000595
2.998790439547363 -1.306818752959659 1.7020735535341616 -1.9660511458480658 -1.5707963084729977 1.4279941142104835 6823.61000000006
2.9987903255109356 -1.296527187429481 1.7203008507799544 -1.994570014155218 -1.5707963028085596 1.4279940005238523 6823.66000000006
2.9987902154869475 -1.2865977367672303 1.7378868097069584 -2.0220854290810366 -1.5707962973434284 1.4279938908373528 6823.71000000006
2.9987901170665014 -1.2777154831554716 1.7536180875498977 -2.046698965309484 -1.5707962924546703 1.4279937927188024 6823.76000000006
2.9987900365393676 -1.2704480661169013 1.7664893431604003 -2.066837641864416 -1.570796288454712 1.4279937124386781 6823.81000000006
2.9987899780264295 -1.265167387407769 1.7758419047516023 -2.0814708850028403 -1.5707962855482467 1.4279936541052232 6823.860000000061
2.9987899426121305 -1.2619713159112986 1.7815024376427502 -2.090327491108181 -1.5707962837891414 1.4279936187995546 6823.910000000061
2.998789927476919 -1.2606053925311085 1.7839216120038028 -2.0941125895835366 -1.5707962830373423 1.4279936037107688 6823.960000000061
2.9987899250296923 -1.260384535084634 1.784312770600037 -2.0947246057449442 -1.5707962829157833 1.4279936012710488 6824.010000000061
2.9987899250296923 -1.260384535084634 1.784312770600037 -2.0947246057449442 -1.5707962829157833 1.4279936012710488 6824.060000000061
2.9987899250296923 -1.260384535084634 1.784312770600037 -2.0947246057449442 -1.5707962829157833 1.4279936012710488 6824.1100000000615
2.9987899250296923 -1.260384535084634 1.784312770600037 -2.0947246057449442 -1.5707962829157833 1.4279936012710488 6824.160000000062
2.9987899250296923 -1.260384535084634 1.784312770600037 -2.0947246057449442 -1.5707962829157833 1.4279936012710488 6824.210000000062
2.9987899250296923 -1.260384535084634 1.784312770600037 -2.0947246057449442 -1.5707962829157833 1.4279936012710488 6824.260000000062
2.9987899250296923 -1.260384535084634 1.784312770600037 -2.0947246057449447 -1.5707962829157833 1.4279936012710488 6824.310000000062
2.998789927476919 -1.2606053925311085 1.7839216120038028 -2.0941125895835366 -1.5707962830373423 1.4279936037107688 6824.360000000062
2.9987899426121305 -1.2619713159112986 1.78150243764275 -2.0903274911081806 -1.5707962837891414 1.4279936187995546 6824.410000000063
2.9987899780264295 -1.2651673874077691 1.7758419047516023 -2.0814708850028403 -1.5707962855482467 1.4279936541052232 6824.460000000063
2.9987900365393676 -1.2704480661169013 1.7664893431604003 -2.066837641864416 -1.570796288454712 1.4279937124386781 6824.510000000063
2.9987901170665014 -1.2777154831554713 1.7536180875498977 -2.0466989653094845 -1.5707962924546703 1.4279937927188024 6824.560000000063
2.9987902154869475 -1.2865977367672303 1.7378868097069584 -2.0220854290810366 -1.5707962973434284 1.4279938908373528 6824.610000000063
2.9987903255109356 -1.296527187429481 1.7203008507799544 -1.994570014155218 -1.5707963028085596 1.4279940005238523 6824.6600000000635
2.998790439547363 -1.306818752959659 1.7020735535341616 -1.9660511458480658 -1.5707963084729977 1.4279941142104835 6824.710000000064
2.998790549571351 -1.3167482036219098 1.6844875946071576 -1.9385357309222475 -1.570796313938129 1.427994223896983 6824.760000000064
2.998790647991797 -1.3256304572336686 1.6687563167642183 -1.9139221946937996 -1.570796318826887 1.4279943220155333 6824.810000000064
2.998790728518931 -1.3328978742722388 1.6558850611537157 -1.893783518138868 -1.5707963228268453 1.4279944022956577 6824.860000000064
2.998790787031869 -1.338178552981371 1.6465324995625137 -1.8791502750004436 -1.5707963257333106 1.4279944606291126 6824.910000000064
2.998790822446168 -1.3413746244778415 1.6408719666713658 -1.8702936688951028 -1.570796327492416 1.4279944959347812 6824.960000000065
2.9987908375813794 -1.3427405478580314 1.6384527923103132 -1.8665085704197473 -1.570796328244215 1.427994511023567 6825.010000000065
2.9987908400286063 -1.342961405304506 1.638061633714079 -1.8658965542583394 -1.570796328365774 1.427994513463287 6825.060000000065
2.9987908400286063 -1.342961405304506 1.638061633714079 -1.8658965542583394 -1.570796328365774 1.427994513463287 6825.110000000065
2.9987908400286063 -1.342961405304506 1.638061633714079 -1.8658965542583394 -1.570796328365774 1.427994513463287 6825.160000000065
2.9987908400286063 -1.342961405304506 1.638061633714079 -1.8658965542583394 -1.570796328365774 1.427994513463287 6825.2100000000655
2.9987908400286063 -1.342961405304506 1.638061633714079 -1.8658965542583394 -1.570796328365774 1.427994513463287 6825.260000000066
2.9987908400286063 -1.342961405304506 1.638061633714079 -1.8658965542583394 -1.570796328365774 1.427994513463287 6825.310000000066
2.9987908400286063 -1.342961405304506 1.638061633714079 -1.8658965542583394 -1.570796328365774 1.427994513463287 6825.360000000066
2.9987908400286063 -1.342961405304506 1.638061633714079 -1.8658965542583394 -1.570796328365774 1.427994513463287 6825.410000000066
2.9987908400286063 -1.342961405304506 1.638061633714079 -1.8658965542583394 -1.570796328365774 1.427994513463287 6825.460000000066
2.9987908400286063 -1.342961405304506 1.638061633714079 -1.8658965542583394 -1.570796328365774 1.427994513463287 6825.510000000067
2.9987908400286063 -1.342961405304506 1.638061633714079 -1.8658965542583394 -1.570796328365774 1.427994513463287 6825.560000000067
2.9987908400286063 -1.342961405304506 1.638061633714079 -1.8658965542583394 -1.570796328365774 1.427994513463287 6825.610000000067
2.9987908400286063 -1.342961405304506 1.638061633714079 -1.8658965542583394 -1.570796328365774 1.427994513463287 6825.660000000067
2.9987908400286063 -1.342961405304506 1.638061633714079 -1.8658965542583394 -1.570796328365774 1.427994513463287 6825.710000000067
2.9987908400286063 -1.342961405304506 1.638061633714079 -1.8658965542583394 -1.570796328365774 1.427994513463287 6825.7600000000675
2.9987908400286063 -1.342961405304506 1.638061633714079 -1.8658965542583394 -1.570796328365774 1.427994513463287 6825.810000000068
2.9987908400286063 -1.342961405304506 1.638061633714079 -1.8658965542583394 -1.570796328365774 1.427994513463287 6825.860000000068
2.9987908400286063 -1.342961405304506 1.638061633714079 -1.8658965542583394 -1.570796328365774 1.427994513463287 6825.910000000068
2.9987908400286063 -1.342961405304506 1.638061633714079 -1.8658965542583394 -1.570796328365774 1.427994513463287 6825.960000000068
2.9987908400286063 -1.342961405304506 1.638061633714079 -1.8658965542583394 -1.570796328365774 1.427994513463287 6826.010000000068
2.9987908400286063 -1.342961405304506 1.638061633714079 -1.8658965542583394 -1.570796328365774 1.427994513463287 6826.060000000069
2.9987908400286063 -1.342961405304506 1.638061633714079 -1.8658965542583394 -1.570796328365774 1.427994513463287 6826.110000000069
2.9987908400286063 -1.342961405304506 1.638061633714079 -1.8658965542583394 -1.570796328365774 1.427994513463287 6826.160000000069
2.9987908400286063 -1.342961405304506 1.638061633714079 -1.8658965542583394 -1.570796328365774 1.427994513463287 6826.210000000069
2.9987908400286063 -1.342961405304506 1.638061633714079 -1.8658965542583394 -1.570796328365774 1.427994513463287 6826.260000000069
2.9987908400286063 -1.342961405304506 1.638061633714079 -1.8658965542583394 -1.570796328365774 1.427994513463287 6826.3100000000695
2.9987908400286063 -1.342961405304506 1.638061633714079 -1.8658965542583394 -1.570796328365774 1.427994513463287 6826.36000000007
2.9987908400286063 -1.342961405304506 1.638061633714079 -1.8658965542583394 -1.570796328365774 1.427994513463287 6826.41000000007
2.9987908400286063 -1.342961405304506 1.638061633714079 -1.8658965542583394 -1.570796328365774 1.427994513463287 6826.46000000007
