Andreas691667/Digital_Twin_UR/src/dt/dt_trajectories/E7_dt_trajectory.csv
actual_q_0 actual_q_1 actual_q_2 actual_q_3 actual_q_4 actual_q_5 timestamp
3.71207804710797 -0.8254843255005873 0.8429764792549035 -1.5882884806323445 -1.570796326807946 2.141281720311417 7152.016
3.71207804710797 -0.8254843255005873 0.8429764792549035 -1.5882884806323445 -1.570796326807946 2.141281720311417 7152.066
3.71207804710797 -0.8254843255005873 0.8429764792549035 -1.5882884806323445 -1.570796326807946 2.141281720311417 7152.116
3.71207804710797 -0.8254843255005873 0.8429764792549035 -1.5882884806323445 -1.570796326807946 2.141281720311417 7152.166
3.71207804710797 -0.8254843255005873 0.8429764792549035 -1.5882884806323445 -1.570796326807946 2.141281720311417 7152.216
3.71207804710797 -0.8254843255005873 0.8429764792549035 -1.5882884806323445 -1.570796326807946 2.141281720311417 7152.2660000000005
3.71207804710797 -0.8254843255005873 0.8429764792549035 -1.5882884806323445 -1.570796326807946 2.141281720311417 7152.316000000001
3.71207804710797 -0.8254843255005873 0.8429764792549035 -1.5882884806323445 -1.570796326807946 2.141281720311417 7152.366000000001
3.71207804710797 -0.8254843255005873 0.8429764792549035 -1.5882884806323445 -1.570796326807946 2.141281720311417 7152.416000000001
3.71207804710797 -0.8254843255005873 0.8429764792549035 -1.5882884806323445 -1.570796326807946 2.141281720311417 7152.466000000001
3.71207804710797 -0.8254843255005873 0.8429764792549035 -1.5882884806323445 -1.570796326807946 2.141281720311417 7152.516000000001
3.71207804710797 -0.8254843255005873 0.8429764792549035 -1.5882884806323445 -1.570796326807946 2.141281720311417 7152.566000000002
3.71207804710797 -0.8254843255005873 0.8429764792549035 -1.5882884806323445 -1.570796326807946 2.141281720311417 7152.616000000002
3.712302100445105 -0.8255991797814494 0.8431504756584648 -1.5883476227577187 -1.5707963268629916 2.1415057736482686 7152.666000000002
3.7137951763049775 -0.8263645607231098 0.8443099755935445 -1.588741741768964 -1.5707963272298118 2.142998849506254 7152.716000000002
3.717625071132552 -0.8283278424212271 0.8472842134894762 -1.5897526980125036 -1.5707963281707442 2.146828744328989 7152.766000000002
3.724651864131218 -0.8319299189042199 0.8527411137346294 -1.5916075218585575 -1.5707963298970935 2.153855537318775 7152.8160000000025
3.7355408995903905 -0.837511859137468 0.8611973725539686 -1.5944818405746537 -1.5707963325723222 2.164744572764187 7152.866000000003
3.7507757692131087 -0.845321562027516 0.8730285398866147 -1.5985033051991422 -1.5707963363152397 2.179979442367652 7152.916000000003
3.7706712944436314 -0.8555204114262757 0.8884791012634048 -1.6037550174147068 -1.5707963412031918 2.1998749675730322 7152.966000000003
3.795386508795039 -0.8681899311352279 0.9076725596844525 -1.6102789564218791 -1.5707963472752495 2.2245901818932063 7153.016000000003
3.824937640176829 -0.8833384399096261 0.9306215174967081 -1.6180794058125498 -1.5707963545354002 2.2541413132376515 7153.066000000003
3.859211093222516 -0.9009077064626979 0.9572377582715189 -1.6271263804434823 -1.5707963629557353 2.288414766240026 7153.116000000004
3.8979764316172294 -0.9207796044698482 0.9873423286821899 -1.6373590533098255 -1.5707963724796412 2.3271801045857505 7153.166000000004
3.9408993604253117 -0.9427827675728616 1.0206756203815437 -1.648689182418626 -1.570796383024988 2.37010303333959 7153.216000000004
3.987554708417918 -0.9666992443841051 1.0569074518794808 -1.6610045376623415 -1.5707963944873191 2.416758381273236 7153.266000000004
4.037439410400611 -0.9922711534907303 1.0956471504205398 -1.6741723276923528 -1.570796406743041 2.4666430831928885 7153.316000000004
4.089985489540965 -1.0192073384588758 1.1364536338614584 -1.6880426267924775 -1.5707964196526127 2.519189162266838 7153.3660000000045
4.144573039696158 -1.0471900228378708 1.1788454925487324 -1.7024518017524817 -1.570796433063735 2.5737767123530473 7153.416000000005
4.200543207740575 -1.0758814651644362 1.222311071196177 -1.7172259387415933 -1.5707964468145401 2.6297468803267323 7153.466000000005
4.257211175893402 -1.104930613966888 1.2663185507624877 -1.7321842701820154 -1.5707964607367817 2.6864148484079466 7153.516000000005
4.313879144046229 -1.1339797627693398 1.310326030328798 -1.7471426016224372 -1.570796474659023 2.743082816489161 7153.566000000005
4.369849312090646 -1.1626712050959052 1.353791608976243 -1.761916738611549 -1.5707964884098282 2.799052984462847 7153.616000000005
4.424436862245839 -1.1906538894749001 1.3961834676635165 -1.776325913571553 -1.5707965018209504 2.853640534549055 7153.666000000006
4.476982941386193 -1.2175900744430457 1.4369899511044353 -1.7901962126716777 -1.570796514730522 2.906186613623005 7153.716000000006
4.526867643368886 -1.2431619835496708 1.4757296496454944 -1.803364002701689 -1.570796526986244 2.956071315542658 7153.766000000006
4.573522991361491 -1.267078460360914 1.5119614811434312 -1.8156793579454045 -1.5707965384485751 3.0027266634763032 7153.816000000006
4.616445920169575 -1.289081623463928 1.5452947728427855 -1.8270094870542053 -1.570796548993922 3.0456495922301436 7153.866000000006
4.655211258564289 -1.3089535214710786 1.575399343253457 -1.8372421599205484 -1.5707965585178278 3.0844149305758686 7153.9160000000065
4.689484711609975 -1.3265227880241497 1.602015584028267 -1.8462891345514807 -1.570796566938163 3.118688383578242 7153.966000000007
4.719035842991765 -1.3416712967985478 1.6249645418405225 -1.8540895839421516 -1.5707965741983136 3.1482395149226874 7154.016000000007
4.743751057343172 -1.3543408165075 1.6441580002615697 -1.8606135229493235 -1.5707965802703714 3.1729547292428615 7154.066000000007
4.7636465825736956 -1.3645396659062594 1.65960856163836 -1.8658652351648883 -1.5707965851583234 3.192850254448242 7154.116000000007
4.778881452196413 -1.3723493687963073 1.6714397289710057 -1.8698866997893768 -1.570796588901241 3.2080851240517068 7154.166000000007
4.789770487655584 -1.3779313090295555 1.6798959877903443 -1.8727610185054726 -1.5707965915764697 3.218974159497118 7154.216000000008
4.7967972806542525 -1.3815333855125485 1.6853528880354989 -1.8746158423515267 -1.570796593302819 3.2260009524869053 7154.266000000008
4.800627175481825 -1.383496667210665 1.688327125931429 -1.875626798595066 -1.5707965942437514 3.229830847309638 7154.316000000008
4.802120251341698 -1.3842620481523258 1.6894866258665089 -1.8760209176063116 -1.5707965946105715 3.2313239231676256 7154.366000000008
4.802344304678834 -1.3843769024331887 1.689660622270071 -1.8760800597316858 -1.5707965946656173 3.231547976504478 7154.416000000008
4.802344304678834 -1.384376902433189 1.6896606222700719 -1.8760800597316862 -1.5707965946656173 3.2315479765044763 7154.4660000000085
4.802344307386492 -1.384147745783343 1.6900552203559738 -1.8767038144324433 -1.5707965939491735 3.2315479792158253 7154.516000000009
4.802344324132375 -1.3827304948337065 1.6924956667159023 -1.8805615115256038 -1.5707965895182276 3.2315479959845366 7154.566000000009
4.802344363315421 -1.3794143239348313 1.6982059731377366 -1.8895879883399567 -1.5707965791504284 3.2315480352209986 7154.616000000009
4.802344428055237 -1.3739352121312087 1.7076407725712601 -1.9045018987404798 -1.5707965620203306 3.231548100049069 7154.666000000009
4.802344517151974 -1.366394705944188 1.720625206189633 -1.9250268373944897 -1.5707965384454132 3.2315481892672646 7154.716000000009
4.802344626046208 -1.3571786821548983 1.736494810450864 -1.9501124640377867 -1.5707965096320957 3.2315482983099457 7154.76600000001
4.80234474777882 -1.3468761105871672 1.7542354041592816 -1.978155627740803 -1.5707964774217549 3.231548420208505 7154.81600000001
4.8023448739508705 -1.3361978168904423 1.7726229755270069 -2.0072214911747506 -1.5707964440367426 3.2315485465525557 7154.86600000001
4.802344995683482 -1.325895245322711 1.7903635692354243 -2.035264654877767 -1.5707964118264017 3.231548668451115 7154.91600000001
4.802345104577716 -1.3166792215334213 1.8062331734966552 -2.060350281521064 -1.5707963830130842 3.231548777493796 7154.96600000001
4.802345193674453 -1.3091387153464007 1.8192176071150283 -2.0808752201750735 -1.5707963594381669 3.2315488667119916 7155.0160000000105
4.802345258414269 -1.3036596035427779 1.8286524065485519 -2.0957891305755973 -1.570796342308069 3.231548931540062 7155.066000000011
4.8023452975973155 -1.3003434326439027 1.8343627129703863 -2.1048156073899498 -1.5707963319402698 3.231548970776524 7155.116000000011
4.8023453143431984 -1.2989261816942663 1.8368031593303147 -2.1086733044831103 -1.570796327509324 3.2315489875452355 7155.166000000011
4.8023453170508565 -1.2986970250444205 1.8371977574162166 -2.1092970591838673 -1.5707963267928802 3.2315489902565844 7155.216000000011
4.8023453170508565 -1.2986970250444205 1.8371977574162166 -2.1092970591838673 -1.5707963267928802 3.2315489902565844 7155.266000000011
4.8023453170508565 -1.2986970250444205 1.8371977574162166 -2.1092970591838673 -1.5707963267928802 3.2315489902565844 7155.316000000012
4.8023453170508565 -1.2986970250444205 1.8371977574162166 -2.1092970591838673 -1.5707963267928802 3.2315489902565844 7155.366000000012
4.8023453170508565 -1.2986970250444205 1.8371977574162166 -2.1092970591838673 -1.5707963267928802 3.2315489902565844 7155.416000000012
4.8023453170508565 -1.2986970250444205 1.8371977574162166 -2.1092970591838673 -1.5707963267928802 3.2315489902565844 7155.466000000012
4.8023453170508565 -1.2986970250444205 1.8371977574162166 -2.1092970591838673 -1.5707963267928802 3.2315489902565844 7155.516000000012
4.8023453170508565 -1.2986970250444205 1.8371977574162166 -2.1092970591838673 -1.5707963267928802 3.2315489902565844 7155.5660000000125
4.8023453170508565 -1.2986970250444205 1.8371977574162166 -2.1092970591838673 -1.5707963267928802 3.2315489902565844 7155.616000000013
4.8023453170508565 -1.2986970250444205 1.8371977574162166 -2.1092970591838673 -1.5707963267928802 3.2315489902565844 7155.666000000013
4.8023453170508565 -1.2986970250444205 1.8371977574162166 -2.1092970591838673 -1.5707963267928802 3.2315489902565844 7155.716000000013
4.8023453170508565 -1.2986970250444205 1.8371977574162166 -2.1092970591838673 -1.5707963267928802 3.2315489902565844 7155.766000000013
4.8023453170508565 -1.2986970250444205 1.8371977574162166 -2.1092970591838673 -1.5707963267928802 3.2315489902565844 7155.816000000013
4.8023453170508565 -1.2986970250444205 1.8371977574162166 -2.1092970591838673 -1.5707963267928802 3.2315489902565844 7155.866000000014
4.8023453170508565 -1.2986970250444205 1.8371977574162166 -2.1092970591838673 -1.5707963267928802 3.2315489902565844 7155.916000000014
4.8023453143431984 -1.2989261816942663 1.8368031593303147 -2.1086733044831103 -1.570796327509324 3.2315489875452355 7155.966000000014
4.8023452975973155 -1.300343432643903 1.8343627129703861 -2.1048156073899498 -1.5707963319402698 3.231548970776524 7156.016000000014
4.802345258414269 -1.303659603542778 1.8286524065485519 -2.095789130575597 -1.570796342308069 3.231548931540062 7156.066000000014
4.802345193674453 -1.3091387153464007 1.8192176071150283 -2.0808752201750735 -1.5707963594381669 3.2315488667119916 7156.1160000000145
4.802345104577716 -1.3166792215334213 1.8062331734966555 -2.060350281521064 -1.5707963830130842 3.231548777493796 7156.166000000015
4.802344995683482 -1.325895245322711 1.7903635692354245 -2.035264654877767 -1.5707964118264017 3.231548668451115 7156.216000000015
4.8023448739508705 -1.3361978168904423 1.7726229755270069 -2.0072214911747506 -1.5707964440367426 3.2315485465525557 7156.266000000015
4.80234474777882 -1.3468761105871672 1.7542354041592816 -1.978155627740803 -1.5707964774217549 3.231548420208505 7156.316000000015
4.802344626046208 -1.3571786821548981 1.7364948104508642 -1.9501124640377867 -1.5707965096320957 3.2315482983099457 7156.366000000015
4.802344517151974 -1.366394705944188 1.7206252061896332 -1.9250268373944899 -1.5707965384454132 3.2315481892672646 7156.416000000016
4.802344428055237 -1.3739352121312087 1.7076407725712601 -1.90450189874048 -1.5707965620203306 3.231548100049069 7156.466000000016
4.802344363315421 -1.3794143239348315 1.6982059731377366 -1.8895879883399564 -1.5707965791504284 3.2315480352209986 7156.516000000016
4.802344324132375 -1.3827304948337067 1.6924956667159021 -1.8805615115256038 -1.5707965895182276 3.2315479959845366 7156.566000000016
4.802344307386492 -1.384147745783343 1.6900552203559738 -1.876703814432443 -1.5707965939491735 3.2315479792158253 7156.616000000016
4.802344304678834 -1.384376902433189 1.6896606222700719 -1.8760800597316862 -1.5707965946656173 3.2315479765044763 7156.6660000000165
4.802344304678834 -1.384376902433189 1.6896606222700719 -1.8760800597316862 -1.5707965946656173 3.2315479765044763 7156.716000000017
4.802218822343209 -1.3843766781623514 1.6896603477686656 -1.8760800095003098 -1.5707965946490787 3.231422494168937 7156.766000000017
4.801368484365914 -1.3843751583786361 1.6896584875947263 -1.8760796691046129 -1.5707965945370035 3.230572156192218 7156.816000000017
4.799144106848085 -1.384371182815015 1.6896536216129634 -1.876078778672155 -1.5707965942438291 3.228347778675899 7156.866000000017
4.794976160356982 -1.3843637335685124 1.6896445039378152 -1.8760771102166842 -1.5707965936944908 3.2241798321876245 7156.916000000017
4.7883715837473355 -1.3843519294056432 1.6896300559634596 -1.8760744663626903 -1.570796592824003 3.2175752555824597 7156.966000000018
4.778910597982704 -1.3843350200678508 1.6896093593938257 -1.8760706790699573 -1.5707965915770388 3.2081142698242484 7157.016000000018
4.766243519956832 -1.3843123805769446 1.6895816492726032 -1.8760656083581149 -1.5707965899075091 3.1954471918069713 7157.066000000018
4.750087576314998 -1.3842835055405383 1.6895463070132548 -1.876059141031192 -1.570796587778145 3.179291248176102 7157.116000000018
4.730223717275382 -1.384248003457487 1.6895028534290257 -1.8760511894021688 -1.5707965851600747 3.1594273891499647 7157.166000000018
4.706493430450407 -1.3842055910233269 1.6894509417629557 -1.8760416900175292 -1.5707965820324068 3.135697102341093 7157.2160000000185
4.6787955546681035 -1.3841560874357106 1.689390350717889 -1.8760306023818132 -1.5707965783818079 3.1079992265775855 7157.266000000019
4.647083093793463 -1.3840994086998475 1.689320977486485 -1.8760179076821688 -1.5707965742020837 3.076286765724465 7157.316000000019
4.611360030549791 -1.3840355619339404 1.689242830781231 -1.8760036075129058 -1.5707965694937598 3.0405637025050343 7157.366000000019
4.571678140340064 -1.383964639674623 1.6891560238644503 -1.875987722600047 -1.5707965642636594 3.000881812322235 7157.416000000019
4.5281338050682844 -1.383886814182399 1.689060767578315 -1.8759702915258811 -1.5707965585244865 2.9573374770800043 7157.466000000019
4.480864826960836 -1.3838023317470793 1.688957363374856 -1.8759513694535155 -1.570796552294403 2.910068499004633 7157.51600000002
4.43004724238784 -1.3837115069932202 1.6888461963459744 -1.8759310268514275 -1.5707965455966106 2.859250914466121 7157.56600000002
4.3758921356845075 -1.3836147171855606 1.6887277282534516 -1.8759093482180182 -1.5707965384589306 2.805095807799538 7157.61600000002
4.318642452972498 -1.3835123965344605 1.688602490558961 -1.8758864308061645 -1.5707965309133833 2.7478461251263777 7157.66600000002
4.258569815981273 -1.3834050305013394 1.6884710774540777 -1.8758623833477708 -1.5707965229957688 2.6877734881759183 7157.71600000002
4.195971335869454 -1.3832931501041128 1.6883341388902908 -1.8758373247783222 -1.5707965147452465 2.6251750081065772 7157.7660000000205
4.13116642704617 -1.3831773262226317 1.6881923736090134 -1.8758113829614371 -1.5707965062039153 2.56037009932727 7157.816000000021
4.064493620992424 -1.3830581639041188 1.6880465221715932 -1.8757846934134188 -1.570796497416394 2.493697293318768 7157.866000000021
3.996307380082441 -1.3829362966686083 1.6878973599893237 -1.8757573980278084 -1.570796488429401 2.4255110524550547 7157.916000000021
3.926974911405021 -1.382812380814382 1.6877456903534551 -1.8757296437999376 -1.5707964792913343 2.3561785838246845 7157.966000000021
3.8568729805849036 -1.3826870897234085 1.6875923374652055 -1.8757015815514806 -1.570796470051852 2.2860766530521373 7158.016000000021
3.7863847256041145 -1.3825611081667801 1.6874381394657707 -1.8756733646550066 -1.570796460761452 2.2155883981191815 7158.066000000022
3.7158964706233264 -1.3824351266101518 1.6872839414663359 -1.8756451477585327 -1.570796451471052 2.1451001431862258 7158.116000000022
3.645794539803209 -1.3823098355191783 1.6871305885780863 -1.8756170855100758 -1.5707964422315697 2.074998212413679 7158.166000000022
3.576462071125788 -1.382185919664952 1.6869789189422177 -1.875589331282205 -1.570796433093503 2.0056657437833074 7158.216000000022
3.508275830215805 -1.3820640524294414 1.6868297567599482 -1.8755620358965945 -1.57079642410651 1.9374795029195948 7158.266000000022
3.4416030241620597 -1.3819448901109286 1.686683905322528 -1.8755353463485762 -1.5707964153189886 1.870806696911093 7158.3160000000225
3.3767981153387763 -1.3818290662294475 1.6865421400412506 -1.8755094045316911 -1.5707964067776574 1.806001788131786 7158.366000000023
3.314199635226956 -1.3817171858322208 1.6864052014774638 -1.8754843459622426 -1.5707963985271352 1.7434033080624447 7158.416000000023
3.254126998235731 -1.3816098197990998 1.6862737883725805 -1.8754602985038489 -1.5707963906095206 1.683330671111985 7158.466000000023
3.196877315523723 -1.3815074991479996 1.6861485506780898 -1.875437381091995 -1.5707963830639733 1.6260809884388259 7158.516000000023
3.1427222088203894 -1.38141070934034 1.686030082585567 -1.8754157024585858 -1.5707963759262933 1.5719258817722421 7158.566000000023
3.091904624247393 -1.381319884586481 1.6859189155566854 -1.8753953598564979 -1.570796369228501 1.5211082972337298 7158.616000000024
3.0446356461399438 -1.3812354021511613 1.6858155113532265 -1.8753764377841322 -1.5707963629984174 1.4738393191583563 7158.666000000024
3.001091310868164 -1.3811575766589372 1.6857202550670911 -1.8753590067099664 -1.5707963572592445 1.4302949839161272 7158.716000000024
2.9614094206584394 -1.3810866543996199 1.6856334481503104 -1.8753431217971075 -1.5707963520291441 1.39061309373333 7158.766000000024
2.925686357414766 -1.3810228076337128 1.6855553014450564 -1.8753288216278445 -1.5707963473208202 1.3548900305138978 7158.816000000024
2.8939738965401256 -1.3809661288978496 1.6854859282136525 -1.8753161269282002 -1.570796343141096 1.323177569660778 7158.8660000000245
2.866276020757823 -1.3809166253102334 1.6854253371685857 -1.8753050392924842 -1.5707963394904971 1.2954796938972692 7158.916000000025
2.8425457339328464 -1.3808742128760731 1.6853734255025157 -1.8752955399078446 -1.5707963363628292 1.2717494070883972 7158.966000000025
2.8226818748932283 -1.380838710793022 1.6853299719182866 -1.8752875882788214 -1.570796333744759 1.2518855480622577 7159.016000000025
2.8065259312513966 -1.3808098357566156 1.6852946296589382 -1.8752811209518985 -1.5707963316153948 1.2357296044313903 7159.066000000025
2.7938588532255273 -1.3807871962657094 1.6852669195377157 -1.875276050240056 -1.5707963299458652 1.223062526414116 7159.116000000025
2.7843978674608927 -1.380770286927917 1.6852462229680818 -1.875272262947323 -1.5707963286989008 1.213601540655902 7159.166000000026
2.7777932908512466 -1.3807584827650479 1.6852317749937262 -1.8752696190933291 -1.5707963278284132 1.206996964050738 7159.216000000026
2.7736253443601444 -1.3807510335185453 1.685222657318578 -1.8752679506378584 -1.5707963272790748 1.2028290175624634 7159.266000000026
2.7714009668423145 -1.3807470579549241 1.6852177913368152 -1.8752670602054005 -1.5707963269859004 1.2006046400461425 7159.316000000026
2.7705506288650183 -1.3807455381712088 1.6852159311628758 -1.8752667198097035 -1.5707963268738252 1.1997543020694224 7159.366000000026
2.7704251465293916 -1.3807453139003714 1.6852156566614696 -1.875266669578327 -1.5707963268572867 1.199628819733885 7159.4160000000265
2.770425146529396 -1.3807453139003714 1.6852156566614696 -1.875266669578327 -1.5707963268572867 1.1996288197338867 7159.466000000027
2.7704251465977157 -1.3805168806108037 1.6856099205870532 -1.875889366793515 -1.5707963268612652 1.1996288198022016 7159.516000000027
2.770425147020249 -1.37910410338271 1.6880483002863422 -1.8797405237211244 -1.5707963268858711 1.1996288202247054 7159.566000000027
2.770425148008917 -1.3757984003725279 1.693753771008562 -1.888751697454057 -1.5707963269434453 1.1996288212133055 7159.616000000027
2.7704251496424352 -1.3703365840383621 1.7031805807034248 -1.903640323483962 -1.5707963270385719 1.1996288228467105 7159.666000000027
2.770425151890528 -1.3628198803578648 1.7161540186210413 -1.9241304650832824 -1.5707963271694878 1.1996288250946479 7159.716000000028
2.770425154638152 -1.3536329480461127 1.732010183911832 -1.9491735626872997 -1.5707963273294936 1.199628827842082 7159.766000000028
2.770425157709715 -1.3433628977734864 1.749735754226439 -1.977169183276181 -1.5707963275083634 1.1996288309134322 7159.816000000028
2.7704251608932937 -1.3327183113835483 1.7681077543156363 -2.0061857697570247 -1.5707963276937567 1.199628834096791 7159.866000000028
2.7704251639648567 -1.322448261110922 1.7858333246302431 -2.034181390345906 -1.5707963278726265 1.1996288371681414 7159.916000000028
2.7704251667124806 -1.3132613287991701 1.8016894899210338 -2.0592244879499235 -1.5707963280326322 1.1996288399155755 7159.9660000000285
2.7704251689605734 -1.3057446251186726 1.8146629278386504 -2.0797146295492435 -1.5707963281635482 1.1996288421635128 7160.016000000029
2.7704251705940917 -1.3002828087845069 1.8240897375335132 -2.094603255579149 -1.5707963282586748 1.1996288437969178 7160.066000000029
2.77042517158276 -1.2969771057743245 1.8297952082557332 -2.1036144293120818 -1.570796328316249 1.199628844785518 7160.116000000029
2.770425172005293 -1.2955643285462308 1.832233587955022 -2.107465586239691 -1.5707963283408548 1.1996288452080217 7160.166000000029
2.7704251720736126 -1.2953358952566634 1.8326278518806056 -2.1080882834548786 -1.5707963283448334 1.1996288452763366 7160.216000000029
2.7704251720736126 -1.2953358952566634 1.8326278518806056 -2.1080882834548786 -1.5707963283448334 1.1996288452763366 7160.26600000003
2.7704251720736126 -1.2953358952566634 1.8326278518806056 -2.1080882834548786 -1.5707963283448334 1.1996288452763366 7160.31600000003
2.7704251720736126 -1.2953358952566634 1.8326278518806056 -2.1080882834548786 -1.5707963283448334 1.1996288452763366 7160.36600000003
2.7704251720736126 -1.2953358952566634 1.8326278518806056 -2.1080882834548786 -1.5707963283448334 1.1996288452763366 7160.41600000003
2.7704251720736126 -1.2953358952566634 1.8326278518806056 -2.1080882834548786 -1.5707963283448334 1.1996288452763366 7160.46600000003
2.7704251720736126 -1.2953358952566634 1.8326278518806056 -2.1080882834548786 -1.5707963283448334 1.1996288452763366 7160.5160000000305
2.770425172005293 -1.295564328546231 1.832233587955022 -2.107465586239691 -1.5707963283408548 1.1996288452080217 7160.566000000031
2.77042517158276 -1.2969771057743247 1.829795208255733 -2.1036144293120813 -1.570796328316249 1.199628844785518 7160.616000000031
2.7704251705940917 -1.3002828087845069 1.8240897375335132 -2.0946032555791487 -1.5707963282586748 1.1996288437969178 7160.666000000031
2.7704251689605734 -1.3057446251186726 1.8146629278386504 -2.0797146295492435 -1.5707963281635482 1.1996288421635128 7160.716000000031
2.7704251667124806 -1.31326132879917 1.8016894899210338 -2.0592244879499235 -1.5707963280326322 1.1996288399155755 7160.766000000031
2.7704251639648567 -1.322448261110922 1.7858333246302431 -2.034181390345906 -1.5707963278726265 1.1996288371681414 7160.816000000032
2.7704251608932937 -1.3327183113835483 1.7681077543156363 -2.0061857697570247 -1.5707963276937567 1.199628834096791 7160.866000000032
2.770425157709715 -1.3433628977734864 1.749735754226439 -1.977169183276181 -1.5707963275083634 1.1996288309134322 7160.916000000032
2.770425154638152 -1.3536329480461127 1.732010183911832 -1.9491735626872997 -1.5707963273294936 1.199628827842082 7160.966000000032
2.770425151890528 -1.3628198803578646 1.7161540186210413 -1.9241304650832824 -1.5707963271694878 1.1996288250946479 7161.016000000032
2.7704251496424352 -1.3703365840383621 1.7031805807034248 -1.9036403234839623 -1.5707963270385719 1.1996288228467105 7161.066000000033
2.770425148008917 -1.3757984003725279 1.693753771008562 -1.8887516974540568 -1.5707963269434453 1.1996288212133055 7161.116000000033
2.770425147020249 -1.3791041033827103 1.688048300286342 -1.879740523721124 -1.5707963268858711 1.1996288202247054 7161.166000000033
2.7704251465977157 -1.380516880610804 1.6856099205870532 -1.8758893667935146 -1.5707963268612652 1.1996288198022016 7161.216000000033
2.770425146529396 -1.3807453139003714 1.6852156566614696 -1.8752666695783269 -1.5707963268572867 1.1996288197338867 7161.266000000033
2.770425146529396 -1.3807453139003714 1.6852156566614696 -1.8752666695783269 -1.5707963268572867 1.1996288197338867 7161.3160000000335
2.770425146529396 -1.3807453139003714 1.6852156566614696 -1.8752666695783269 -1.5707963268572867 1.1996288197338867 7161.366000000034
2.770425146529396 -1.3807453139003714 1.6852156566614696 -1.8752666695783269 -1.5707963268572867 1.1996288197338867 7161.416000000034
2.770425146529396 -1.3807453139003714 1.6852156566614696 -1.8752666695783269 -1.5707963268572867 1.1996288197338867 7161.466000000034
2.770425146529396 -1.3807453139003714 1.6852156566614696 -1.8752666695783269 -1.5707963268572867 1.1996288197338867 7161.516000000034
2.770425146529396 -1.3807453139003714 1.6852156566614696 -1.8752666695783269 -1.5707963268572867 1.1996288197338867 7161.566000000034
2.770425146529396 -1.3807453139003714 1.6852156566614696 -1.8752666695783269 -1.5707963268572867 1.1996288197338867 7161.616000000035
2.770425146529396 -1.3807453139003714 1.6852156566614696 -1.8752666695783269 -1.5707963268572867 1.1996288197338867 7161.666000000035
2.770425146529396 -1.3807453139003714 1.6852156566614696 -1.8752666695783269 -1.5707963268572867 1.1996288197338867 7161.716000000035
2.770425146529396 -1.3807453139003714 1.6852156566614696 -1.8752666695783269 -1.5707963268572867 1.1996288197338867 7161.766000000035
2.770425146529396 -1.3807453139003714 1.6852156566614696 -1.8752666695783269 -1.5707963268572867 1.1996288197338867 7161.816000000035
2.770425146529396 -1.3807453139003714 1.6852156566614696 -1.8752666695783269 -1.5707963268572867 1.1996288197338867 7161.8660000000355
2.770425146529396 -1.3807453139003714 1.6852156566614696 -1.8752666695783269 -1.5707963268572867 1.1996288197338867 7161.916000000036
2.770425146529396 -1.3807453139003714 1.6852156566614696 -1.8752666695783269 -1.5707963268572867 1.1996288197338867 7161.966000000036
2.770425146529396 -1.3807453139003714 1.6852156566614696 -1.8752666695783269 -1.5707963268572867 1.1996288197338867 7162.016000000036
2.770425146529396 -1.3807453139003714 1.6852156566614696 -1.8752666695783269 -1.5707963268572867 1.1996288197338867 7162.066000000036
2.770425146529396 -1.3807453139003714 1.6852156566614696 -1.8752666695783269 -1.5707963268572867 1.1996288197338867 7162.116000000036
2.770425146529396 -1.3807453139003714 1.6852156566614696 -1.8752666695783269 -1.5707963268572867 1.1996288197338867 7162.166000000037
2.770425146529396 -1.3807453139003714 1.6852156566614696 -1.8752666695783269 -1.5707963268572867 1.1996288197338867 7162.216000000037
2.770425146529396 -1.3807453139003714 1.6852156566614696 -1.8752666695783269 -1.5707963268572867 1.1996288197338867 7162.266000000037
2.770425146529396 -1.3807453139003714 1.6852156566614696 -1.8752666695783269 -1.5707963268572867 1.1996288197338867 7162.316000000037
2.770425146529396 -1.3807453139003714 1.6852156566614696 -1.8752666695783269 -1.5707963268572867 1.1996288197338867 7162.366000000037
2.770425146529396 -1.3807453139003714 1.6852156566614696 -1.8752666695783269 -1.5707963268572867 1.1996288197338867 7162.4160000000375
2.770425146529396 -1.3807453139003714 1.6852156566614696 -1.8752666695783269 -1.5707963268572867 1.1996288197338867 7162.466000000038
2.770425146529396 -1.3807453139003714 1.6852156566614696 -1.8752666695783269 -1.5707963268572867 1.1996288197338867 7162.516000000038
2.770425146529396 -1.3807453139003714 1.6852156566614696 -1.8752666695783269 -1.5707963268572867 1.1996288197338867 7162.566000000038
2.770425146529396 -1.3807453139003714 1.6852156566614696 -1.8752666695783269 -1.5707963268572867 1.1996288197338867 7162.616000000038
2.770425146529396 -1.3807453139003714 1.6852156566614696 -1.8752666695783269 -1.5707963268572867 1.1996288197338867 7162.666000000038
2.770425146529396 -1.3807453139003714 1.6852156566614696 -1.8752666695783269 -1.5707963268572867 1.1996288197338867 7162.716000000039
2.770425146529396 -1.3807453139003714 1.6852156566614696 -1.8752666695783269 -1.5707963268572867 1.1996288197338867 7162.766000000039
2.770425146529396 -1.3807453139003714 1.6852156566614696 -1.8752666695783269 -1.5707963268572867 1.1996288197338867 7162.816000000039
2.770425146529396 -1.3807453139003714 1.6852156566614696 -1.8752666695783269 -1.5707963268572867 1.1996288197338867 7162.866000000039
2.770425146529396 -1.3807453139003714 1.6852156566614696 -1.875266669578327 -1.5707963268572867 1.1996288197338867 7162.916000000039
2.770537238037253 -1.3807370685183584 1.6852048508817548 -1.8752641091806446 -1.570796326857252 1.199740911241748 7162.9660000000395
2.771297731512527 -1.3806811270885226 1.6851315382363499 -1.875246737965207 -1.5707963268570169 1.200501404717052 7163.01600000004
2.7732898141817746 -1.3805345907190572 1.6849394986527162 -1.8752012347513833 -1.570796326856401 1.2024934873863773 7163.06600000004
2.777027933409561 -1.3802596169799022 1.6845791386781233 -1.8751158485165917 -1.5707963268552452 1.2062316066143102 7163.11600000004
2.78296044053931 -1.3798232254234464 1.684007236609656 -1.874980338005606 -1.5707963268534109 1.2121641137442918 7163.16600000004
2.791472234734147 -1.3791971031052297 1.6831866876242219 -1.8747859113398606 -1.5707963268507792 1.2206759079394625 7163.21600000004
2.8028874068177454 -1.3783574101046445 1.6820862489085593 -1.874525165626757 -1.57079632684725 1.2320910800235079 7163.266000000041
2.8174718831151724 -1.3772845850456386 1.6806802847892437 -1.874192026568969 -1.5707963268427407 1.2466755563215062 7163.316000000041
2.835436069293734 -1.3759631506174164 1.678948511862696 -1.8737816880737495 -1.5707963268371865 1.2646397425007718 7163.366000000041
2.856937494203823 -1.3743815190951418 1.6768757441251887 -1.873290551862235 -1.5707963268305387 1.286141167411703 7163.416000000041
2.8820834537197615 -1.3725317978606393 1.6744516381028551 -1.8727161670787518 -1.570796326822764 1.3112871269286268 7163.466000000041
2.9109336545806497 -1.370409594923097 1.6716704379816953 -1.872057169900123 -1.570796326813844 1.3401373277906452 7163.5160000000415
2.9435028582312093 -1.368013824439768 1.6685307207375837 -1.8713132231449718 -1.5707963268037741 1.3727065314424807 7163.566000000042
2.9797635246626304 -1.3653465122366724 1.6650351412662765 -1.87048495588303 -1.570796326792563 1.4089671978753227 7163.616000000042
3.0196484562534174 -1.3624126013293 1.66119017751342 -1.8695739030444425 -1.5707963267802314 1.4488521294676724 7163.666000000042
3.063053441610234 -1.3592197574433118 1.657005875604556 -1.868582445029072 -1.5707963267668115 1.4922571148261896 7163.716000000042
3.1098398994087497 -1.3557781745352422 1.6524955949751314 -1.867513747315807 -1.570796326752346 1.5390435726265383 7163.766000000042
3.1598375222344846 -1.3521003803132008 1.647675753500504 -1.866371700071866 -1.5707963267368876 1.589041195454232 7163.816000000043
3.2128469204236563 -1.3482010417575752 1.6425655726259505 -1.8651608577621044 -1.570796326720498 1.6420505936454803 7163.866000000043
3.268642265904024 -1.3440967706417317 1.637186822496674 -1.863886378758319 -1.5707963267032472 1.6978459391280343 7163.916000000043
3.3269739360357367 -1.339805929052719 1.6315635670878108 -1.8625539649485547 -1.570796326685212 1.7561776092620323 7163.966000000043
3.387571157452176 -1.3353484349119689 1.6257219093344386 -1.8611698013464106 -1.5707963266664766 1.816774830680846 7164.016000000043
3.450144649900805 -1.3307455674959991 1.6196897362615832 -1.8597404957003445 -1.57079632664713 1.8793483231319263 7164.0660000000435
3.5143892700840107 -1.3260197729571153 1.6134964641142258 -1.8582730181029798 -1.5707963266272666 1.9435929433176486 7164.116000000044
3.579986655499952 -1.3211944698441123 1.6071727834873115 -1.8567746406004109 -1.5707963266069853 2.0091903287361603 7164.166000000044
3.6466078682834056 -1.3162938546229772 1.600750404455755 -1.8552528768015093 -1.5707963265863871 2.075811541522224 7164.216000000044
3.71391603904661 -1.3113427071975905 1.5942618017044496 -1.853715421487229 -1.5707963265655767 2.1431197122880654 7164.266000000044
3.781569010720113 -1.3063661964304292 1.5877399596582733 -1.8521700902199119 -1.5707963265446598 2.210772683964219 7164.316000000044
3.8492219823936153 -1.301389685663268 1.5812181176120972 -1.8506247589525948 -1.5707963265237428 2.2784256556403717 7164.366000000045
3.916530153156821 -1.2964385382378814 1.5747295148607916 -1.8490873036383144 -1.5707963265029323 2.345733826406214 7164.416000000045
3.983151365940274 -1.2915379230167463 1.5683071358292353 -1.8475655398394129 -1.5707963264823341 2.4123550391922777 7164.466000000045
4.048748751356215 -1.286712619903743 1.5619834552023208 -1.8460671623368439 -1.5707963264620528 2.477952424610789 7164.516000000045
4.112993371539421 -1.2819868253648592 1.5557901830549634 -1.8445996847394792 -1.5707963264421894 2.542197044796512 7164.566000000045
4.17556686398805 -1.2773839579488897 1.549758009982108 -1.843170379093413 -1.5707963264228428 2.604770537247592 7164.6160000000455
4.236164085404489 -1.2729264638081397 1.5439163522287358 -1.841786215491269 -1.5707963264041074 2.6653677586664055 7164.666000000046
4.294495755536202 -1.2686356222191268 1.5382930968198727 -1.8404538016815046 -1.5707963263860723 2.723699428800403 7164.716000000046
4.350291101016569 -1.2645313511032834 1.5329143466905961 -1.8391793226777193 -1.5707963263688214 2.7794947742829565 7164.766000000046
4.403300499205742 -1.2606320125476576 1.5278041658160426 -1.8379684803679577 -1.5707963263524318 2.8325041724742066 7164.816000000046
4.453298122031476 -1.2569542183256164 1.5229843243414152 -1.8368264331240167 -1.5707963263369735 2.8825017953018994 7164.866000000046
4.500084579829992 -1.2535126354175465 1.5184740437119906 -1.8357577354107517 -1.570796326322508 2.929288253102249 7164.916000000047
4.543489565186809 -1.2503197915315585 1.5142897418031267 -1.8347662773953812 -1.570796326309088 2.9726932384607645 7164.966000000047
4.583374496777596 -1.247385880624186 1.51044477805027 -1.8338552245567934 -1.5707963262967564 3.012578170053115 7165.016000000047
4.619635163209018 -1.2447185684210906 1.5069491985789631 -1.8330269572948519 -1.5707963262855453 3.048838836485957 7165.066000000047
4.652204366859578 -1.2423227979377613 1.5038094813348513 -1.8322830105397008 -1.5707963262754754 3.0814080401377932 7165.116000000047
4.681054567720465 -1.2402005950002193 1.5010282812136915 -1.831624013361072 -1.5707963262665554 3.1102582409998103 7165.1660000000475
4.706200527236406 -1.2383508737657167 1.4986041751913577 -1.8310496285775888 -1.5707963262587807 3.135404200516736 7165.216000000048
4.727701952146492 -1.236769242243442 1.4965314074538507 -1.8305584923660743 -1.570796326252133 3.156905625427666 7165.266000000048
4.7456661383250545 -1.23544780781522 1.494799634527303 -1.8301481538708546 -1.5707963262465787 3.1748698116069316 7165.316000000048
4.760250614622481 -1.234374982756214 1.4933936704079873 -1.8298150148130667 -1.5707963262420694 3.1894542879049297 7165.366000000048
4.771665786706082 -1.2335352897556286 1.4922932316923245 -1.829554269099963 -1.5707963262385403 3.2008694599889784 7165.416000000048
4.780177580900919 -1.232909167437412 1.4914726827068907 -1.8293598424342177 -1.5707963262359086 3.209381254184147 7165.466000000049
4.786110088030668 -1.2324727758809564 1.4909007806384234 -1.829224331923232 -1.5707963262340743 3.215313761314127 7165.516000000049
4.789848207258452 -1.2321978021418014 1.4905404206638304 -1.8291389456884404 -1.5707963262329185 3.2190518805420605 7165.566000000049
4.791840289927702 -1.2320512657723357 1.4903483810801967 -1.8290934424746168 -1.5707963262323026 3.221043963211389 7165.616000000049
4.792600783402977 -1.2319953243424997 1.4902750684347918 -1.8290760712591791 -1.5707963262320674 3.2218044566866895 7165.666000000049
4.792712874910832 -1.231987078960487 1.490264262655077 -1.8290735108614966 -1.5707963262320328 3.2219165481945513 7165.7160000000495
4.79271287491083 -1.2319870789604872 1.490264262655077 -1.8290735108614966 -1.5707963262320328 3.2219165481945513 7165.76600000005
4.7927128719062475 -1.2317461406862398 1.4907370861393292 -1.8297872726497604 -1.5707963264051383 3.221916545187215 7165.81600000005
4.792712853502325 -1.2302703251521823 1.493633264611206 -1.83415926683801 -1.5707963274654595 3.221916526766426 7165.86600000005
4.792712810972769 -1.2268598685777556 1.500326032563695 -1.8442624917862367 -1.5707963299157517 3.2219164841978922 7165.91600000005
4.792712741751023 -1.2213089580863246 1.5112192824947333 -1.8607066528944387 -1.570796333903884 3.221916414912706 7165.96600000005
4.79271264819832 -1.2138069415243935 1.525941433306219 -1.8829308211946179 -1.5707963392938167 3.2219163212742634 7166.016000000051
4.792712536371734 -1.2048395372808212 1.543539298703019 -1.90949609194278 -1.5707963457365788 3.2219162093451894 7166.066000000051
4.792712414792231 -1.1950900441060357 1.5626719555919815 -1.9383782432109329 -1.5707963527412439 3.2219160876542614 7166.116000000051
4.792712293212728 -1.1853405509312505 1.581804612480944 -1.9672603944790856 -1.5707963597459087 3.2219159659633334 7166.166000000051
4.7927121813861415 -1.1763731466876781 1.599402477877744 -1.9938256652272477 -1.5707963661886708 3.2219158540342594 7166.216000000051
4.792712087833438 -1.168871130125747 1.6141246286892297 -2.016049833527427 -1.5707963715786035 3.2219157603958166 7166.2660000000515
4.7927120186116925 -1.163320219634316 1.625017878620268 -2.0324939946356286 -1.5707963755667358 3.2219156911106306 7166.316000000052
4.792711976082137 -1.1599097630598894 1.6317106465727569 -2.0425972195838558 -1.570796378017028 3.221915648542097 7166.366000000052
4.792711957678214 -1.1584339475258318 1.6346068250446337 -2.0469692137721047 -1.5707963790773491 3.2219156301213077 7166.416000000052
4.792711954673631 -1.1581930092515844 1.6350796485288859 -2.0476829755603685 -1.5707963792504547 3.2219156271139715 7166.466000000052
4.792711954673631 -1.1581930092515844 1.6350796485288859 -2.0476829755603685 -1.5707963792504547 3.2219156271139715 7166.516000000052
4.792711954673631 -1.1581930092515844 1.6350796485288859 -2.0476829755603685 -1.5707963792504547 3.2219156271139715 7166.566000000053
4.792711954673631 -1.1581930092515844 1.6350796485288859 -2.0476829755603685 -1.5707963792504547 3.2219156271139715 7166.616000000053
4.792711954673631 -1.1581930092515844 1.6350796485288859 -2.0476829755603685 -1.5707963792504547 3.2219156271139715 7166.666000000053
4.792711954673631 -1.1581930092515844 1.6350796485288859 -2.0476829755603685 -1.5707963792504547 3.2219156271139715 7166.716000000053
4.792711954673631 -1.1581930092515844 1.6350796485288859 -2.0476829755603685 -1.5707963792504547 3.2219156271139715 7166.766000000053
4.792711954673631 -1.1581930092515844 1.6350796485288859 -2.0476829755603685 -1.5707963792504547 3.2219156271139715 7166.8160000000535
4.792711954673631 -1.1581930092515844 1.6350796485288859 -2.0476829755603685 -1.5707963792504547 3.2219156271139715 7166.866000000054
4.792711954673631 -1.1581930092515844 1.6350796485288859 -2.0476829755603685 -1.5707963792504547 3.2219156271139715 7166.916000000054
4.792711954673631 -1.1581930092515844 1.6350796485288859 -2.0476829755603685 -1.5707963792504547 3.2219156271139715 7166.966000000054
4.792711954673631 -1.1581930092515844 1.6350796485288859 -2.0476829755603685 -1.5707963792504547 3.2219156271139715 7167.016000000054
4.792711954673631 -1.1581930092515844 1.6350796485288859 -2.0476829755603685 -1.5707963792504547 3.2219156271139715 7167.066000000054
4.792711954673631 -1.1581930092515844 1.6350796485288859 -2.0476829755603685 -1.5707963792504547 3.2219156271139715 7167.116000000055
4.792711954673631 -1.1581930092515844 1.6350796485288859 -2.047682975560369 -1.5707963792504547 3.2219156271139715 7167.166000000055
4.792711957678214 -1.1584339475258318 1.6346068250446337 -2.046969213772105 -1.5707963790773491 3.2219156301213077 7167.216000000055
4.792711976082137 -1.1599097630598894 1.6317106465727569 -2.0425972195838558 -1.570796378017028 3.221915648542097 7167.266000000055
4.7927120186116925 -1.1633202196343162 1.625017878620268 -2.0324939946356286 -1.5707963755667358 3.2219156911106306 7167.316000000055
4.792712087833438 -1.168871130125747 1.6141246286892297 -2.016049833527427 -1.5707963715786035 3.2219157603958166 7167.3660000000555
4.7927121813861415 -1.1763731466876781 1.599402477877744 -1.9938256652272477 -1.5707963661886708 3.2219158540342594 7167.416000000056
4.792712293212728 -1.1853405509312505 1.581804612480944 -1.9672603944790856 -1.5707963597459087 3.2219159659633334 7167.466000000056
4.792712414792231 -1.1950900441060357 1.5626719555919815 -1.9383782432109329 -1.5707963527412439 3.2219160876542614 7167.516000000056
4.792712536371734 -1.2048395372808212 1.543539298703019 -1.90949609194278 -1.5707963457365788 3.2219162093451894 7167.566000000056
4.79271264819832 -1.2138069415243935 1.525941433306219 -1.8829308211946179 -1.5707963392938167 3.2219163212742634 7167.616000000056
4.792712741751023 -1.2213089580863246 1.5112192824947333 -1.8607066528944387 -1.570796333903884 3.221916414912706 7167.666000000057
4.792712810972769 -1.2268598685777556 1.500326032563695 -1.8442624917862367 -1.5707963299157517 3.2219164841978922 7167.716000000057
4.792712853502325 -1.2302703251521823 1.493633264611206 -1.83415926683801 -1.5707963274654595 3.221916526766426 7167.766000000057
4.7927128719062475 -1.2317461406862398 1.4907370861393292 -1.8297872726497606 -1.5707963264051383 3.221916545187215 7167.816000000057
4.79271287491083 -1.2319870789604872 1.490264262655077 -1.8290735108614968 -1.5707963262320328 3.2219165481945513 7167.866000000057
4.79271287491083 -1.2319870789604872 1.490264262655077 -1.8290735108614966 -1.5707963262320328 3.2219165481945513 7167.9160000000575
4.792580992446904 -1.2319966844521877 1.4902769043163377 -1.8290765470370545 -1.5707963262268931 3.2217846657310107 7167.966000000058
4.791688423419183 -1.232061693583294 1.4903624619785507 -1.8290970956087524 -1.5707963261921085 3.220892096705893 7168.016000000058
4.789357027053365 -1.23223149787551 1.4905859391736536 -1.8291507686176642 -1.570796326101251 3.218560700346878 7168.066000000058
4.784995426032725 -1.232549169544342 1.4910040226778318 -1.8292511806513634 -1.5707963259312734 3.2141990993389644 7168.116000000058
4.778095391354046 -1.2330517248035235 1.4916654290430091 -1.8294100320711524 -1.5707963256623698 3.2072990646804183 7168.166000000058
4.768228227183552 -1.2337703871694408 1.4926112511283358 -1.8296371922392913 -1.570796325277833 3.1974319005387146 7168.216000000059
4.755041155712844 -1.2347308507655563 1.493875304631679 -1.8299407827462277 -1.5707963247639152 3.1842448291064844 7168.266000000059
4.738253702014836 -1.2359535436268356 1.4954844746211127 -1.8303272606378256 -1.5707963241096854 3.1674573754574595 7168.316000000059
4.717654078899686 -1.2374538910041706 1.4974590620664068 -1.8308015016425945 -1.5707963233068902 3.1468577524024166 7168.366000000059
4.693095571770735 -1.239242578668805 1.4998131303705171 -1.8313668833989185 -1.570796322349812 3.1222992453451224 7168.416000000059
4.664492923480435 -1.2413258162167593 1.5025548519010752 -1.832025368682286 -1.5707963212351284 3.0936965971382797 7168.4660000000595
4.631818719186289 -1.2437056003732558 1.5056868545218778 -1.8327775886325184 -1.5707963199617705 3.061022392939471 7168.51600000006
4.595099771206783 -1.246379978297143 1.5092065681243765 -1.8336229259809989 -1.5707963185307834 3.0243034450671047 7168.56600000006
4.554413503877322 -1.249343310885321 1.5131065711591674 -1.8345595982779026 -1.5707963169451846 2.9836171778563587 7168.61600000006
4.509884338406162 -1.2525865360771662 1.5173749371674807 -1.8355847411194255 -1.570796315209823 2.939088012515127 7168.66600000006
4.461680077730347 -1.2560974321589562 1.5219955813126713 -1.836694491375013 -1.570796313331238 2.8908837519799637 7168.71600000006
4.410008291371641 -1.259860881068295 1.5269486069117066 -1.8378840704145893 -1.5707963113175187 2.839211965772027 7168.766000000061
4.355112700292466 -1.263859131698537 1.532210651966658 -1.8391478673357877 -1.5707963091781634 2.784316374853027 7168.816000000061
4.29726956175183 -1.268072063203213 1.5377552356961899 -1.8404795221911778 -1.5707963069239383 2.726473236481167 7168.866000000061
4.236784054161269 -1.2724774483004546 1.5435531050670486 -1.8418720092154968 -1.5707963045667364 2.665987729067093 7168.916000000061
4.173986661940779 -1.2770512165774188 1.5495725813255534 -1.8433177200528768 -1.5707963021194373 2.6031903370298335 7168.966000000061
4.109229560374744 -1.2817677177947135 1.5557799065290852 -1.844808546984075 -1.5707962995957656 2.538433235652749 7169.0160000000615
4.0428830004678815 -1.286599985190822 1.5621395900775765 -1.8463359661537029 -1.5707962970101506 2.4720866759394737 7169.066000000062
3.975331693801169 -1.291519998786528 1.5686147552450016 -1.8478911207974553 -1.570796294377585 2.4045353694698637 7169.116000000062
3.9069711973877794 -1.2964989486893403 1.575167485710865 -1.8494649044693392 -1.5707962917134843 2.3361748732559384 7169.166000000062
3.8382042985290195 -1.3015074983979185 1.5817591720916928 -1.8510480442689037 -1.5707962890335454 2.2674079745978277 7169.216000000062
3.7694373996702595 -1.3065160481064966 1.5883508584725206 -1.8526311840684682 -1.5707962863536065 2.1986410759397175 7169.266000000062
3.7010769032568698 -1.311494998009309 1.594903588938384 -1.854204967740352 -1.5707962836895057 2.1302805797257918 7169.316000000063
3.6335255965901574 -1.3164150116050148 1.601378754105809 -1.8557601223841045 -1.5707962810569402 2.0627292732561817 7169.366000000063
3.5671790366832945 -1.3212472790011234 1.6077384376543005 -1.8572875415537324 -1.5707962784713252 1.9963827135429069 7169.416000000063
3.502421935117261 -1.325963780218418 1.6139457628578322 -1.8587783684849306 -1.5707962759476535 1.9316256121658228 7169.466000000063
3.4396245428967696 -1.3305375484953823 1.619965239116337 -1.8602240793223106 -1.5707962735003544 1.8688282201285629 7169.516000000063
4.792707920074463 -1.2319935721210022 1.4902837912188929 -1.829038759271139 -1.570829216633932 3.2218947410583496 7171.215999999999
4.793323355671311 -1.2319249418795817 1.4901872625337127 -1.82901098885586 -1.5708291283168343 3.2225102217429753 7171.266
4.797129602117402 -1.231500488673041 1.4895902675487054 -1.8288392388872157 -1.570828582107547 3.2263167470406526 7171.316
4.806035691544762 -1.2305073269666926 1.4881933819819237 -1.8284373677520809 -1.5708273040534775 3.235223488942096 7171.366
4.820750693031001 -1.2288663849905104 1.4858853911000725 -1.827773379994152 -1.5708251924008059 3.249939568472428 7171.416
4.841001887700114 -1.226608074963735 1.482709069800573 -1.8268595815581612 -1.570822286285617 3.270192246775833 7171.466
4.865752943823288 -1.2238479633194823 1.4788269626936252 -1.8257427350340907 -1.570818734425032 3.294945116200208 7171.5160000000005
4.8934220919197 -1.2207624409293505 1.4744871641842718 -1.8244942149013865 -1.5708147638083418 3.3226162913818182 7171.566000000001
4.922100299857326 -1.2175643933280271 1.4699890985544601 -1.8232001627731738 -1.5708106483881388 3.351296600329949 7171.616000000001
4.949769447953739 -1.2144788709378953 1.4656493000451067 -1.8219516426404696 -1.5708066777714487 3.3789677755115592 7171.666000000001
4.974520504076913 -1.2117187592936427 1.461767192938159 -1.820834796116399 -1.5708031259108637 3.403720644935934 7171.716000000001
4.994771698746026 -1.2094604492668672 1.4585908716386595 -1.8199209976804083 -1.5708002197956747 3.4239733232393386 7171.766000000001
5.009486700232264 -1.207819507290685 1.4562828807568082 -1.8192570099224794 -1.5707981081430031 3.438689402769671 7171.816000000002
5.018392789659624 -1.2068263455843367 1.4548859951900266 -1.8188551387873446 -1.5707968300889337 3.447596144671115 7171.866000000002
5.0221990361057145 -1.206401892377796 1.4542890002050193 -1.8186833888187 -1.5707962838796463 3.4514026699687923 7171.916000000002
5.022814471702564 -1.2063332621363754 1.454192471519839 -1.8186556184034213 -1.5707961955625487 3.4520181506534175 7171.966000000002
5.022814471702564 -1.2063332621363754 1.454192471519839 -1.8186556184034213 -1.5707961955625487 3.4520181506534175 7172.016000000002
5.0228144646695245 -1.2060992651767715 1.4546656975756227 -1.8193628413239213 -1.570796195181164 3.4520181436701725 7172.0660000000025
5.022814421590161 -1.2046659671713615 1.4575643419127566 -1.8236947830852528 -1.5707961928450747 3.452018100895808 7172.116000000003
5.02281432203822 -1.201353764194189 1.4642628082240063 -1.8337054510305535 -1.5707961874466148 3.4520180020486904 7172.166000000003
5.022814160005983 -1.1959627727376192 1.4751653328895968 -1.8499989649666286 -1.5707961786599998 3.452017841163632 7172.216000000003
5.022813941020551 -1.1886768856286762 1.4899000184397213 -1.8720195346712176 -1.5707961667849513 3.4520176237286053 7172.266000000003
5.022813679260146 -1.1799678279453767 1.5075128670170483 -1.8983414374002598 -1.57079615259032 3.452017363821451 7172.316000000003
5.022813394670402 -1.1704992129330667 1.5266618138392305 -1.9269589953951622 -1.570796137157709 3.452017081246587 7172.366000000004
5.022813110080659 -1.1610305979207567 1.5458107606614129 -1.9555765533900642 -1.570796121725098 3.452016798671723 7172.416000000004
5.022812848320254 -1.1523215402374571 1.5634236092387397 -1.9818984561191066 -1.5707961075304668 3.4520165387645685 7172.466000000004
5.022812629334822 -1.145035653128514 1.5781582947888642 -2.0039190258236954 -1.5707960956554183 3.4520163213295416 7172.516000000004
5.022812467302584 -1.1396446616719442 1.5890608194544547 -2.020212539759771 -1.5707960868688033 3.4520161604444835 7172.566000000004
5.022812367750643 -1.1363324586947716 1.5957592857657044 -2.0302232077050713 -1.5707960814703434 3.452016061597366 7172.6160000000045
5.02281232467128 -1.1348991606893617 1.5986579301028383 -2.034555149466403 -1.5707960791342541 3.4520160188230014 7172.666000000005
5.022812317638241 -1.1346651637297578 1.599131156158622 -2.035262372386903 -1.5707960787528694 3.4520160118397563 7172.716000000005
5.022812317638241 -1.1346651637297578 1.599131156158622 -2.035262372386903 -1.5707960787528694 3.4520160118397563 7172.766000000005
5.022812317638241 -1.1346651637297578 1.599131156158622 -2.035262372386903 -1.5707960787528694 3.4520160118397563 7172.816000000005
5.022812317638241 -1.1346651637297578 1.599131156158622 -2.035262372386903 -1.5707960787528694 3.4520160118397563 7172.866000000005
5.022812317638241 -1.1346651637297578 1.599131156158622 -2.035262372386903 -1.5707960787528694 3.4520160118397563 7172.916000000006
5.022812317638241 -1.1346651637297578 1.599131156158622 -2.035262372386903 -1.5707960787528694 3.4520160118397563 7172.966000000006
5.022812317638241 -1.1346651637297578 1.599131156158622 -2.035262372386903 -1.5707960787528694 3.4520160118397563 7173.016000000006
5.022812317638241 -1.1346651637297578 1.599131156158622 -2.035262372386903 -1.5707960787528694 3.4520160118397563 7173.066000000006
5.022812317638241 -1.1346651637297578 1.599131156158622 -2.035262372386903 -1.5707960787528694 3.4520160118397563 7173.116000000006
5.022812317638241 -1.1346651637297578 1.599131156158622 -2.035262372386903 -1.5707960787528694 3.4520160118397563 7173.1660000000065
5.022812317638241 -1.1346651637297578 1.599131156158622 -2.035262372386903 -1.5707960787528694 3.4520160118397563 7173.216000000007
5.022812317638241 -1.1346651637297578 1.599131156158622 -2.035262372386903 -1.5707960787528694 3.4520160118397563 7173.266000000007
5.022812317638241 -1.1346651637297578 1.599131156158622 -2.035262372386903 -1.5707960787528694 3.4520160118397563 7173.316000000007
5.022812317638241 -1.1346651637297578 1.599131156158622 -2.035262372386903 -1.5707960787528694 3.4520160118397563 7173.366000000007
5.022812317638241 -1.1346651637297578 1.599131156158622 -2.035262372386903 -1.5707960787528694 3.4520160118397563 7173.416000000007
5.02281232467128 -1.1348991606893617 1.5986579301028383 -2.034555149466403 -1.5707960791342541 3.4520160188230014 7173.466000000008
5.022812367750643 -1.1363324586947716 1.5957592857657044 -2.0302232077050717 -1.5707960814703434 3.452016061597366 7173.516000000008
5.022812467302584 -1.1396446616719442 1.5890608194544547 -2.020212539759771 -1.5707960868688033 3.4520161604444835 7173.566000000008
5.022812629334822 -1.145035653128514 1.5781582947888642 -2.0039190258236954 -1.5707960956554183 3.4520163213295416 7173.616000000008
5.022812848320254 -1.152321540237457 1.5634236092387397 -1.9818984561191066 -1.5707961075304668 3.4520165387645685 7173.666000000008
5.022813110080659 -1.1610305979207565 1.5458107606614127 -1.9555765533900644 -1.570796121725098 3.452016798671723 7173.7160000000085
5.022813394670402 -1.1704992129330667 1.5266618138392305 -1.9269589953951622 -1.570796137157709 3.452017081246587 7173.766000000009
5.022813679260146 -1.1799678279453767 1.5075128670170481 -1.8983414374002598 -1.57079615259032 3.452017363821451 7173.816000000009
5.022813941020551 -1.1886768856286762 1.4899000184397213 -1.8720195346712178 -1.5707961667849513 3.4520176237286053 7173.866000000009
5.022814160005983 -1.1959627727376192 1.4751653328895968 -1.8499989649666289 -1.5707961786599998 3.452017841163632 7173.916000000009
5.02281432203822 -1.201353764194189 1.4642628082240063 -1.8337054510305535 -1.5707961874466148 3.4520180020486904 7173.966000000009
5.022814421590161 -1.2046659671713615 1.4575643419127566 -1.8236947830852528 -1.5707961928450747 3.452018100895808 7174.01600000001
5.0228144646695245 -1.2060992651767715 1.4546656975756227 -1.8193628413239211 -1.570796195181164 3.4520181436701725 7174.06600000001
5.022814471702564 -1.2063332621363754 1.454192471519839 -1.8186556184034215 -1.5707961955625487 3.4520181506534175 7174.11600000001
5.022814471702564 -1.2063332621363754 1.454192471519839 -1.8186556184034213 -1.5707961955625487 3.4520181506534175 7174.16600000001
5.022707652119749 -1.206341486370966 1.4542034106366117 -1.818658333285851 -1.5707961955653587 3.451911331070598 7174.21600000001
5.0219821289244875 -1.2063973457256045 1.4542777095876567 -1.818676772883941 -1.5707961955844447 3.4511858078753033 7174.2660000000105
5.020079230744857 -1.2065438533286021 1.4544725804610006 -1.8187251361587025 -1.5707961956345031 3.4492829096955866 7174.316000000011
5.016503642710337 -1.2068191443756227 1.4548387471694788 -1.8188160118284566 -1.5707961957285639 3.445707321660904 7174.366000000011
5.010821059914718 -1.2072566567938556 1.4554206857535212 -1.8189604380074513 -1.570796195878052 3.440024738865028 7174.416000000011
5.002655840879015 -1.207885311906187 1.4562568646839358 -1.8191679618444803 -1.5707961960928496 3.4318595198289548 7174.466000000011
4.9916886610143765 -1.208729695095372 1.4573799851646942 -1.8194466991615008 -1.5707961963813566 3.4208923399638196 7174.516000000011
4.977654166084997 -1.209810236468208 1.458817221435717 -1.819803394092252 -1.5707961967505537 3.4068578450338034 7174.566000000012
4.960338625671025 -1.2111433915197045 1.4605904610756573 -1.820243478720873 -1.5707961972060631 3.3895423046190474 7174.616000000012
4.93957758663148 -1.2127418217972576 1.462716545304687 -1.8207711327205214 -1.5707961977522114 3.368781265578561 7174.666000000012
4.915253526567158 -1.2146145755648208 1.4652075092872807 -1.821389342991991 -1.5707961983920897 3.3444572055131365 7174.716000000012
4.887293507283545 -1.2167672684670772 1.4680708224350008 -1.8220999633023303 -1.5707961991276171 3.3164971862282555 7174.766000000012
4.855666828253725 -1.219202264193612 1.4713096287092822 -1.8229037739234601 -1.5707961999596012 3.2848705071970032 7174.8160000000125
4.820382680081301 -1.2219188551430846 1.474922986924218 -1.8238005412707932 -1.5707962008878 3.249586359022979 7174.866000000013
4.78148779796329 -1.2249134430874002 1.4789061110493429 -1.8247890775418503 -1.5707962019109842 3.2106914769032056 7174.916000000013
4.739064115153049 -1.2281797198358824 1.4832506105124192 -1.82586730035488 -1.5707962030269984 3.1682677940910415 7174.966000000013
4.693226416423177 -1.2317088478994453 1.4879447305022218 -1.8270322923874767 -1.5707962042328232 3.122430095359092 7175.016000000013
4.644119991528431 -1.2354896411547656 1.4929735922713214 -1.8282803610151976 -1.5707962055246365 3.0733236704621203 7175.066000000013
4.591918288668634 -1.239508745508454 1.4983194334388712 -1.8296070979501826 -1.5707962068978751 3.0211219675999565 7175.116000000014
4.536820567951587 -1.2437508195612286 1.5039618482933912 -1.8310074388797712 -1.5707962083472977 2.966024246880412 7175.166000000014
4.47904955485598 -1.248198715272086 1.5098780280955526 -1.8324757231051212 -1.570796209867045 2.9082532337821867 7175.216000000014
4.418849093694305 -1.2528336586224738 1.516043001380963 -1.8340057531798266 -1.5707962114507024 2.848052772617783 7175.266000000014
4.356481801075763 -1.2576354302804629 1.5224298742629507 -1.8355908545485362 -1.570796213091361 2.785685479996414 7175.316000000014
4.2922267193691805 -1.262582546264919 1.5290100707353511 -1.8372239351855715 -1.570796214781681 2.7214303982869192 7175.3660000000145
4.226376970165915 -1.2676524386096755 1.5357535729752898 -1.8388975452335448 -1.5707962165139506 2.6555806490806693 7175.416000000015
4.159237407742769 -1.2728216360277047 1.5426291616459682 -1.8406039366419775 -1.5707962182801507 2.5884410866544805 7175.466000000015
4.091122272524903 -1.2780659445752913 1.549604656199448 -1.8423351228059186 -1.5707962200720145 2.520325951433527 7175.516000000015
4.022352844548741 -1.2833606283162027 1.5566471551794374 -1.8440829382045623 -1.5707962218810905 2.451556523454248 7175.566000000015
3.9532550969248863 -1.2886805899858624 1.5637232765240738 -1.845839098039866 -1.5707962236988033 2.382458775827261 7175.616000000015
3.884157349301032 -1.2940005516555224 1.5707993978687103 -1.8475952578751698 -1.5707962255165162 2.3133610282002746 7175.666000000016
3.8153879213248705 -1.2992952353964338 1.5778418968486996 -1.8493430732738134 -1.5707962273255922 2.244591600220996 7175.716000000016
3.7472727861070037 -1.3045395439440202 1.5848173914021795 -1.8510742594377545 -1.570796229117456 2.1764764650000417 7175.766000000016
3.6801332236838578 -1.3097087413620496 1.5916929800728579 -1.8527806508461873 -1.570796230883656 2.1093369025738524 7175.816000000016
3.614283474480593 -1.3147786337068061 1.5984364823127966 -1.8544542608941605 -1.5707962326159257 2.0434871533676024 7175.866000000016
3.55002839277401 -1.3197257496912622 1.605016678785197 -1.8560873415311958 -1.5707962343062456 1.9792320716581076 7175.9160000000165
3.487661100155468 -1.3245275213492511 1.6114035516671847 -1.8576724428999054 -1.5707962359469043 1.916864779036739 7175.966000000017
3.4274606389937943 -1.329162464699639 1.617568524952595 -1.8592024729746108 -1.5707962375305617 1.8566643178723359 7176.016000000017
3.3696896258981868 -1.3336103604104965 1.6234847047547565 -1.8606707571999608 -1.570796239050309 1.7988933047741105 7176.066000000017
3.314591905181139 -1.337852434463271 1.6291271196092763 -1.8620710981295494 -1.5707962404997315 1.7437955840545651 7176.116000000017
3.262390202321342 -1.3418715388169595 1.6344729607768262 -1.8633978350645344 -1.5707962418729702 1.691593881192401 7176.166000000017
3.2132837774265957 -1.3456523320722795 1.639501822545926 -1.8646459036922554 -1.5707962431647835 1.64248745629543 7176.216000000018
3.1674460786967256 -1.3491814601358425 1.6441959425357284 -1.865810895724852 -1.5707962443706083 1.5966497575634815 7176.266000000018
3.125022395886484 -1.3524477368843248 1.6485404419988048 -1.8668891185378818 -1.5707962454866224 1.5542260747513152 7176.316000000018
3.0861275137684734 -1.3554423248286405 1.6525235661239297 -1.8678776548089389 -1.5707962465098066 1.5153311926315443 7176.366000000018
3.050843365596048 -1.3581589157781129 1.6561369243388655 -1.8687744221562719 -1.5707962474380055 1.4800470444575193 7176.416000000018
3.019216686566228 -1.360593911504648 1.659375730613147 -1.8695782327774018 -1.5707962482699895 1.448420365426264 7176.4660000000185
2.9912566672826166 -1.3627466044069045 1.662239043760867 -1.870288853087741 -1.570796249005517 1.420460346141386 7176.516000000019
2.9669326072182916 -1.3646193581744677 1.6647300077434606 -1.8709070633592106 -1.5707962496453953 1.3961362860759596 7176.566000000019
2.94617156817875 -1.3662177884520208 1.6668560919724906 -1.871434717358859 -1.5707962501915436 1.375375247035473 7176.616000000019
2.928856027764775 -1.3675509435035171 1.668629331612431 -1.87187480198748 -1.570796250647053 1.3580597066207183 7176.666000000019
2.914821532835397 -1.368631484876353 1.6700665678834536 -1.8722314969182312 -1.57079625101625 1.3440252116907025 7176.716000000019
2.9038543529707592 -1.3694758680655381 1.6711896883642121 -1.8725102342352518 -1.570796251304757 1.3330580318255674 7176.76600000002
2.8956891339350577 -1.3701045231778692 1.6720258672946264 -1.8727177580722807 -1.5707962515195546 1.3248928127894946 7176.81600000002
2.8900065511394395 -1.3705420355961022 1.6726078058786686 -1.8728621842512754 -1.5707962516690428 1.3192102299936188 7176.86600000002
2.8864309631049174 -1.370817326643123 1.6729739725871473 -1.8729530599210296 -1.5707962517631036 1.3156346419589315 7176.91600000002
2.884528064925288 -1.3709638342461203 1.6731688434604908 -1.873001423195791 -1.570796251813162 1.3137317437792237 7176.96600000002
2.8838025417300273 -1.3710196936007586 1.6732431424115355 -1.8730198627938808 -1.570796251832248 1.3130062205839277 7177.0160000000205
2.8836957221472126 -1.3710279178353495 1.6732540815283086 -1.8730225776763108 -1.570796251835058 1.312899401001106 7177.066000000021
2.883695722147209 -1.3710279178353497 1.6732540815283086 -1.8730225776763108 -1.570796251835058 1.3128994010011041 7177.116000000021
2.883695727867589 -1.3708014081473126 1.6736474373732717 -1.8736424429761573 -1.5707962520356238 1.312899406706375 7177.166000000021
2.883695763246072 -1.3694005276985515 1.676080200922549 -1.8774760855322241 -1.5707962532760502 1.3128994419914117 7177.216000000021
2.88369584602682 -1.3661226615040178 1.6817725306317133 -1.8864462780619082 -1.5707962561784765 1.3128995245535093 7177.266000000021
2.8836959828005235 -1.3607068382835505 1.6911776282128341 -1.9012671932888139 -1.5707962609739827 1.3128996609659496 7177.316000000022
2.8836961710323017 -1.3532534316064424 1.7041211853151157 -1.9216641493961704 -1.570796267573692 1.3128998487005468 7177.366000000022
2.8836964010896087 -1.3441438610360055 1.7199408302055326 -1.946593355480248 -1.5707962756398712 1.312900078150198 7177.416000000022
2.883696658270137 -1.3339602932741372 1.7376255744494675 -1.974461657003775 -1.5707962846570347 1.3129003346514299 7177.466000000022
2.883696924829723 -1.3234053433058863 1.7559552595913481 -2.0033462812493545 -1.5707962940030427 1.3129006005069466 7177.516000000022
2.8836971820102515 -1.313221775544018 1.773640003835283 -2.0312145827728814 -1.5707963030202061 1.3129008570081784 7177.5660000000225
2.8836974120675585 -1.3041122049735812 1.7894596487257 -2.056143788856959 -1.5707963110863854 1.3129010864578297 7177.616000000023
2.8836976002993366 -1.296658798296473 1.8024032058279813 -2.076540744964315 -1.5707963176860946 1.3129012741924269 7177.666000000023
2.88369773707304 -1.2912429750760057 1.8118083034091024 -2.0913616601912213 -1.5707963224816008 1.312901410604867 7177.716000000023
2.883697819853788 -1.2879651088814719 1.8175006331182666 -2.100331852720905 -1.5707963253840271 1.3129014931669647 7177.766000000023
2.883697855232271 -1.2865642284327108 1.819933396667544 -2.1041654952769724 -1.5707963266244536 1.3129015284520014 7177.816000000023
2.883697860952651 -1.2863377187446738 1.820326752512507 -2.1047853605768188 -1.5707963268250194 1.3129015341572723 7177.866000000024
2.883697860952651 -1.2863377187446738 1.820326752512507 -2.1047853605768188 -1.5707963268250194 1.3129015341572723 7177.916000000024
2.883697860952651 -1.2863377187446738 1.820326752512507 -2.1047853605768188 -1.5707963268250194 1.3129015341572723 7177.966000000024
2.883697860952651 -1.2863377187446738 1.820326752512507 -2.1047853605768188 -1.5707963268250194 1.3129015341572723 7178.016000000024
2.883697860952651 -1.2863377187446738 1.820326752512507 -2.1047853605768188 -1.5707963268250194 1.3129015341572723 7178.066000000024
2.883697860952651 -1.2863377187446738 1.820326752512507 -2.1047853605768188 -1.5707963268250194 1.3129015341572723 7178.1160000000245
2.883697860952651 -1.2863377187446738 1.820326752512507 -2.1047853605768188 -1.5707963268250194 1.3129015341572723 7178.166000000025
2.883697855232271 -1.286564228432711 1.819933396667544 -2.1041654952769724 -1.5707963266244536 1.3129015284520014 7178.216000000025
2.883697819853788 -1.287965108881472 1.8175006331182666 -2.100331852720905 -1.5707963253840271 1.3129014931669647 7178.266000000025
2.88369773707304 -1.2912429750760057 1.8118083034091024 -2.0913616601912213 -1.5707963224816008 1.312901410604867 7178.316000000025
2.8836976002993366 -1.296658798296473 1.8024032058279815 -2.0765407449643156 -1.5707963176860946 1.3129012741924269 7178.366000000025
2.8836974120675585 -1.3041122049735812 1.7894596487257 -2.056143788856959 -1.5707963110863854 1.3129010864578297 7178.416000000026
2.8836971820102515 -1.313221775544018 1.773640003835283 -2.0312145827728814 -1.5707963030202061 1.3129008570081784 7178.466000000026
2.883696924829723 -1.3234053433058863 1.7559552595913481 -2.0033462812493545 -1.5707962940030427 1.3129006005069466 7178.516000000026
2.883696658270137 -1.3339602932741372 1.7376255744494675 -1.974461657003775 -1.5707962846570347 1.3129003346514299 7178.566000000026
2.8836964010896087 -1.3441438610360055 1.7199408302055326 -1.9465933554802481 -1.5707962756398712 1.312900078150198 7178.616000000026
2.8836961710323017 -1.3532534316064424 1.7041211853151157 -1.9216641493961706 -1.570796267573692 1.3128998487005468 7178.6660000000265
2.8836959828005235 -1.3607068382835505 1.6911776282128343 -1.901267193288814 -1.5707962609739827 1.3128996609659496 7178.716000000027
2.88369584602682 -1.3661226615040178 1.6817725306317133 -1.886446278061908 -1.5707962561784765 1.3128995245535093 7178.766000000027
2.883695763246072 -1.3694005276985517 1.676080200922549 -1.8774760855322241 -1.5707962532760502 1.3128994419914117 7178.816000000027
2.883695727867589 -1.3708014081473126 1.6736474373732717 -1.8736424429761571 -1.5707962520356238 1.312899406706375 7178.866000000027
2.883695722147209 -1.3710279178353497 1.6732540815283086 -1.873022577676311 -1.570796251835058 1.3128994010011041 7178.916000000027
2.883695722147209 -1.3710279178353497 1.6732540815283086 -1.873022577676311 -1.570796251835058 1.3128994010011041 7178.966000000028
2.883695722147209 -1.3710279178353497 1.6732540815283086 -1.873022577676311 -1.570796251835058 1.3128994010011041 7179.016000000028
2.883695722147209 -1.3710279178353497 1.6732540815283086 -1.873022577676311 -1.570796251835058 1.3128994010011041 7179.066000000028
2.883695722147209 -1.3710279178353497 1.6732540815283086 -1.873022577676311 -1.570796251835058 1.3128994010011041 7179.116000000028
2.883695722147209 -1.3710279178353497 1.6732540815283086 -1.873022577676311 -1.570796251835058 1.3128994010011041 7179.166000000028
2.883695722147209 -1.3710279178353497 1.6732540815283086 -1.873022577676311 -1.570796251835058 1.3128994010011041 7179.2160000000285
2.883695722147209 -1.3710279178353497 1.6732540815283086 -1.873022577676311 -1.570796251835058 1.3128994010011041 7179.266000000029
2.883695722147209 -1.3710279178353497 1.6732540815283086 -1.873022577676311 -1.570796251835058 1.3128994010011041 7179.316000000029
2.883695722147209 -1.3710279178353497 1.6732540815283086 -1.873022577676311 -1.570796251835058 1.3128994010011041 7179.366000000029
2.883695722147209 -1.3710279178353497 1.6732540815283086 -1.873022577676311 -1.570796251835058 1.3128994010011041 7179.416000000029
2.883695722147209 -1.3710279178353497 1.6732540815283086 -1.873022577676311 -1.570796251835058 1.3128994010011041 7179.466000000029
2.883695722147209 -1.3710279178353497 1.6732540815283086 -1.873022577676311 -1.570796251835058 1.3128994010011041 7179.51600000003
2.883695722147209 -1.3710279178353497 1.6732540815283086 -1.873022577676311 -1.570796251835058 1.3128994010011041 7179.56600000003
2.883695722147209 -1.3710279178353497 1.6732540815283086 -1.873022577676311 -1.570796251835058 1.3128994010011041 7179.61600000003
2.883695722147209 -1.3710279178353497 1.6732540815283086 -1.873022577676311 -1.570796251835058 1.3128994010011041 7179.66600000003
2.883695722147209 -1.3710279178353497 1.6732540815283086 -1.873022577676311 -1.570796251835058 1.3128994010011041 7179.71600000003
2.883695722147209 -1.3710279178353497 1.6732540815283086 -1.873022577676311 -1.570796251835058 1.3128994010011041 7179.7660000000305
2.883695722147209 -1.3710279178353497 1.6732540815283086 -1.873022577676311 -1.570796251835058 1.3128994010011041 7179.816000000031
2.883695722147209 -1.3710279178353497 1.6732540815283086 -1.873022577676311 -1.570796251835058 1.3128994010011041 7179.866000000031
2.883695722147209 -1.3710279178353497 1.6732540815283086 -1.873022577676311 -1.570796251835058 1.3128994010011041 7179.916000000031
2.883695722147209 -1.3710279178353497 1.6732540815283086 -1.873022577676311 -1.570796251835058 1.3128994010011041 7179.966000000031
2.883695722147209 -1.3710279178353497 1.6732540815283086 -1.873022577676311 -1.570796251835058 1.3128994010011041 7180.016000000031
2.883695722147209 -1.3710279178353497 1.6732540815283086 -1.873022577676311 -1.570796251835058 1.3128994010011041 7180.066000000032
2.883695722147209 -1.3710279178353497 1.6732540815283086 -1.873022577676311 -1.570796251835058 1.3128994010011041 7180.116000000032
2.883695722147209 -1.3710279178353497 1.6732540815283086 -1.873022577676311 -1.570796251835058 1.3128994010011041 7180.166000000032
2.883695722147209 -1.3710279178353497 1.6732540815283086 -1.873022577676311 -1.570796251835058 1.3128994010011041 7180.216000000032
2.883695722147209 -1.3710279178353497 1.6732540815283086 -1.873022577676311 -1.570796251835058 1.3128994010011041 7180.266000000032
2.883695722147209 -1.3710279178353497 1.6732540815283086 -1.873022577676311 -1.570796251835058 1.3128994010011041 7180.316000000033
2.883695722147209 -1.3710279178353497 1.6732540815283086 -1.873022577676311 -1.570796251835058 1.3128994010011041 7180.366000000033
2.883695722147209 -1.3710279178353497 1.6732540815283086 -1.873022577676311 -1.570796251835058 1.3128994010011041 7180.416000000033
2.883695722147209 -1.3710279178353497 1.6732540815283086 -1.873022577676311 -1.570796251835058 1.3128994010011041 7180.466000000033
2.883695722147209 -1.3710279178353497 1.6732540815283086 -1.873022577676311 -1.570796251835058 1.3128994010011041 7180.516000000033
2.883695722147209 -1.3710279178353497 1.6732540815283086 -1.8730225776763108 -1.570796251835058 1.3128994010011041 7180.5660000000335
2.8838588108762226 -1.371045567504979 1.6732741936208189 -1.8730250400899466 -1.5707962518430025 1.313062489729519 7180.616000000034
2.8849566551364756 -1.3711643776067872 1.6734095797106958 -1.8730416160157808 -1.5707962518964815 1.3141603339857413 7180.666000000034
2.887806322713895 -1.3714727722555096 1.6737610005494463 -1.8730846420442673 -1.5707962520352965 1.3170100015526982 7180.716000000034
2.893101946424782 -1.3720458713871506 1.6744140565553234 -1.8731645986183054 -1.5707962522932604 1.3223056252441423 7180.766000000034
2.901420720943598 -1.3729461397433125 1.675439927341777 -1.8732902005770231 -1.5707962526984902 1.3306243997324168 7180.816000000034
2.913228899630754 -1.374224035855523 1.6768961112459062 -1.8734684876995606 -1.5707962532736983 1.3424325783762194 7180.866000000035
2.9288877913603932 -1.3759186610295642 1.678827164856909 -1.8737049152488523 -1.570796254036485 1.3580914700483677 7180.916000000035
2.94865975734818 -1.3780584083298006 1.6812654425445357 -1.874003444515411 -1.5707962549996306 1.3778634359635629 7180.966000000035
2.9727142079790867 -1.3806616115635078 1.6842318359875392 -1.8743666333611106 -1.5707962561713875 1.401917886506155 7181.016000000035
3.001133599635179 -1.3837371942652001 1.6877365137021265 -1.8747957267629696 -1.5707962575557723 1.4303372780579071 7181.066000000035
3.033919431523404 -1.3872853186809597 1.6917796605704107 -1.8752907473569334 -1.5707962591528584 1.4631231098257607 7181.1160000000355
3.070998242503376 -1.3912980347527646 1.6963522173688617 -1.8758505859816588 -1.5707962609590669 1.5002019206695991 7181.166000000036
3.1122276079151616 -1.3957599291028169 1.7014366202967577 -1.8764730922222959 -1.5707962629674599 1.5414312859300134 7181.216000000036
3.15740213640707 -1.400648774017871 1.7070075405046379 -1.8771551649542717 -1.5707962651680325 1.5866058142560657 7181.266000000036
3.2062594667634357 -1.4059361764335625 1.7130326236227515 -1.8778928428870736 -1.5707962675480043 1.6354631444330545 7181.316000000036
3.258486264732409 -1.411588226918736 1.719473229289512 -1.8786813951080323 -1.5707962700921119 1.6876899422102793 7181.366000000036
3.313724219853738 -1.4175661486597735 1.7262851706799465 -1.8795154116261044 -1.570796272782901 1.7429278971288054 7181.416000000037
3.3715760422865606 -1.4238269464449234 1.7334194540341474 -1.8803888939156561 -1.5707962756010188 1.8007797193492279 7181.466000000037
3.431611459637186 -1.4303240556486272 1.740823018185725 -1.881295345460247 -1.5707962785255052 1.860815136479436 7181.516000000037
3.4933732137868843 -1.4370079912158498 1.7484394740902576 -1.8822278622964117 -1.5707962815340861 1.9225768904023792 7181.566000000037
3.556383057719673 -1.4438269966464066 1.756209844353744 -1.8831792235574443 -1.5707962846034649 1.9855867341038307 7181.616000000037
3.6201477523501024 -1.4507276929792923 1.7640733027610538 -1.8841419820171805 -1.5707962877096144 2.049351428500151 7181.6660000000375
3.6841650633510428 -1.4576557277770092 1.7719679138043802 -1.885108554633782 -1.5707962908280695 2.1133687392660554 7181.716000000038
3.7479297579814723 -1.464556424109895 1.77983137221169 -1.8860713130935183 -1.570796293934219 2.1771334336623758 7181.766000000038
3.810939601914262 -1.4713754295404518 1.7876017424751764 -1.8870226743545508 -1.5707962970035978 2.2401432773638277 7181.816000000038
3.87270135606396 -1.4780593651076745 1.795218198379709 -1.8879551911907155 -1.5707963000121787 2.3019050312867706 7181.866000000038
3.932736773414584 -1.4845564743113782 1.8026217625312866 -1.8888616427353064 -1.5707963029366652 2.3619404484169784 7181.916000000038
3.9905885958474068 -1.490817272096528 1.8097560458854876 -1.8897351250248582 -1.570796305754783 2.419792270637401 7181.966000000039
4.045826550968736 -1.4967951938375654 1.816567987275922 -1.8905691415429302 -1.570796308445572 2.475030225555927 7182.016000000039
4.098053348937709 -1.502447244322739 1.8230085929426822 -1.891357693763889 -1.5707963109896796 2.527257023333152 7182.066000000039
4.146910679294075 -1.5077346467384305 1.8290336760607961 -1.8920953716966908 -1.5707963133696514 2.5761143535101407 7182.116000000039
4.192085207785984 -1.5126234916534846 1.8346045962686763 -1.8927774444286667 -1.570796315570224 2.6212888818361932 7182.166000000039
4.23331457319777 -1.517085386003537 1.8396889991965724 -1.8933999506693038 -1.570796317578617 2.6625182470966076 7182.2160000000395
4.27039338417774 -1.5210981020753418 1.8442615559950233 -1.8939597892940292 -1.5707963193848256 2.699597057940446 7182.26600000004
4.303179216065965 -1.5246462264911014 1.8483047028633075 -1.894454809887993 -1.5707963209819116 2.7323828897082993 7182.31600000004
4.331598607722059 -1.5277218091927938 1.8518093805778948 -1.894883903289852 -1.5707963223662964 2.7608022812600526 7182.36600000004
4.355653058352965 -1.5303250124265007 1.8547757740208983 -1.8952470921355515 -1.5707963235380533 2.784856731802643 7182.41600000004
4.375425024340753 -1.5324647597267373 1.857214051708525 -1.8955456214021102 -1.5707963245011989 2.804628697717839 7182.46600000004
4.391083916070393 -1.5341593849007789 1.8591451053195283 -1.895782048951402 -1.5707963252639856 2.8202875893899897 7182.516000000041
4.402892094757549 -1.535437281012989 1.8606012892236572 -1.8959603360739394 -1.5707963258391937 2.83209576803379 7182.566000000041
4.411210869276365 -1.5363375493691507 1.8616271600101109 -1.8960859380326571 -1.5707963262444236 2.8404145425220637 7182.616000000041
4.416506492987249 -1.536910648500792 1.8622802160159881 -1.8961658946066953 -1.5707963265023874 2.845710166213509 7182.666000000041
4.419356160564668 -1.5372190431495143 1.8626316368547382 -1.8962089206351818 -1.5707963266412024 2.8485598337804667 7182.716000000041
4.42045400482492 -1.5373378532513224 1.8627670229446152 -1.896225496561016 -1.5707963266946814 2.849657678036687 7182.7660000000415
4.420617093553936 -1.5373555029209518 1.8627871350371255 -1.8962279589746518 -1.570796326702626 2.8498207667651023 7182.816000000042
4.420617093553936 -1.5373555029209518 1.8627871350371255 -1.8962279589746518 -1.570796326702626 2.8498207667651023 7182.866000000042
4.420617093508544 -1.5370986896781664 1.8632025402836998 -1.8969001774701757 -1.5707963266981555 2.849820766720002 7182.916000000042
4.420617093227808 -1.5355103927098617 1.8657716714024684 -1.9010576055953725 -1.5707963266705074 2.8498207664410713 7182.966000000042
4.420617092570923 -1.5317939978212822 1.8717830823340607 -1.910785411504748 -1.5707963266058145 2.849820765788412 7183.016000000042
4.4206170914855925 -1.5256536197400903 1.881715378827853 -1.926858086227118 -1.5707963264989264 2.849820764710062 7183.066000000043
4.42061708999193 -1.5172030604941085 1.8953844817494696 -1.9489777485975532 -1.5707963263518239 2.8498207632260075 7183.116000000043
4.420617088166373 -1.5068747677890606 1.9120908903882836 -1.9760124501893226 -1.570796326172035 2.849820761412192 7183.166000000043
4.420617086125587 -1.4953287933863155 1.9307669457649166 -2.0062344802458356 -1.5707963259710493 2.849820759384532 7183.216000000043
4.420617084010376 -1.4833617514806283 1.950124093938739 -2.037558670612587 -1.570796325762734 2.849820757282926 7183.266000000043
4.420617081969589 -1.4718157770778832 1.968800149315372 -2.0677807006691 -1.5707963255617483 2.8498207552552657 7183.3160000000435
4.420617080144032 -1.4614874843728356 1.985506557954186 -2.094815402260869 -1.5707963253819595 2.8498207534414504 7183.366000000044
4.42061707865037 -1.4530369251268536 1.9991756608758027 -2.1169350646313045 -1.570796325234857 2.8498207519573957 7183.416000000044
4.420617077565039 -1.4468965470456616 2.0091079573695954 -2.133007739353675 -1.5707963251279689 2.849820750879046 7183.466000000044
4.4206170769081545 -1.4431801521570822 2.015119368301187 -2.1427355452630503 -1.570796325063276 2.8498207502263866 7183.516000000044
4.420617076627418 -1.4415918551887774 2.0176884994199558 -2.1468929733882476 -1.5707963250356278 2.849820749947456 7183.566000000044
4.420617076582026 -1.441335041945992 2.01810390466653 -2.147565191883771 -1.5707963250311574 2.8498207499023556 7183.616000000045
4.420617076582026 -1.441335041945992 2.01810390466653 -2.147565191883771 -1.5707963250311574 2.8498207499023556 7183.666000000045
4.420617076582026 -1.441335041945992 2.01810390466653 -2.147565191883771 -1.5707963250311574 2.8498207499023556 7183.716000000045
4.420617076582026 -1.441335041945992 2.01810390466653 -2.147565191883771 -1.5707963250311574 2.8498207499023556 7183.766000000045
4.420617076582026 -1.441335041945992 2.01810390466653 -2.147565191883771 -1.5707963250311574 2.8498207499023556 7183.816000000045
4.420617076582026 -1.441335041945992 2.01810390466653 -2.147565191883771 -1.5707963250311574 2.8498207499023556 7183.8660000000455
4.420617076582026 -1.441335041945992 2.01810390466653 -2.147565191883771 -1.5707963250311574 2.8498207499023556 7183.916000000046
4.420617076582026 -1.441335041945992 2.01810390466653 -2.147565191883771 -1.5707963250311574 2.8498207499023556 7183.966000000046
4.420617076582026 -1.441335041945992 2.01810390466653 -2.147565191883771 -1.5707963250311574 2.8498207499023556 7184.016000000046
4.420617076582026 -1.441335041945992 2.01810390466653 -2.147565191883771 -1.5707963250311574 2.8498207499023556 7184.066000000046
4.420617076582026 -1.441335041945992 2.01810390466653 -2.147565191883771 -1.5707963250311574 2.8498207499023556 7184.116000000046
4.420617076582026 -1.441335041945992 2.01810390466653 -2.147565191883771 -1.5707963250311574 2.8498207499023556 7184.166000000047
4.420617076582026 -1.441335041945992 2.01810390466653 -2.147565191883771 -1.5707963250311574 2.8498207499023556 7184.216000000047
4.420617076582026 -1.441335041945992 2.01810390466653 -2.147565191883771 -1.5707963250311574 2.8498207499023556 7184.266000000047
4.420617076582026 -1.441335041945992 2.01810390466653 -2.147565191883771 -1.5707963250311574 2.8498207499023556 7184.316000000047
4.420617076627418 -1.4415918551887774 2.0176884994199558 -2.146892973388247 -1.5707963250356278 2.849820749947456 7184.366000000047
4.4206170769081545 -1.4431801521570822 2.015119368301187 -2.14273554526305 -1.570796325063276 2.8498207502263866 7184.4160000000475
4.420617077565039 -1.4468965470456616 2.009107957369595 -2.133007739353675 -1.5707963251279689 2.849820750879046 7184.466000000048
4.42061707865037 -1.4530369251268536 1.9991756608758027 -2.1169350646313045 -1.570796325234857 2.8498207519573957 7184.516000000048
4.420617080144032 -1.4614874843728354 1.985506557954186 -2.094815402260869 -1.5707963253819595 2.8498207534414504 7184.566000000048
4.420617081969589 -1.4718157770778832 1.968800149315372 -2.0677807006691 -1.5707963255617483 2.8498207552552657 7184.616000000048
4.420617084010376 -1.4833617514806283 1.950124093938739 -2.037558670612587 -1.570796325762734 2.849820757282926 7184.666000000048
4.420617086125587 -1.4953287933863155 1.9307669457649166 -2.0062344802458356 -1.5707963259710493 2.849820759384532 7184.716000000049
4.420617088166373 -1.5068747677890606 1.9120908903882836 -1.9760124501893226 -1.570796326172035 2.849820761412192 7184.766000000049
4.42061708999193 -1.5172030604941082 1.8953844817494696 -1.9489777485975535 -1.5707963263518239 2.8498207632260075 7184.816000000049
4.4206170914855925 -1.5256536197400903 1.881715378827853 -1.926858086227118 -1.5707963264989264 2.849820764710062 7184.866000000049
4.420617092570923 -1.5317939978212822 1.8717830823340604 -1.9107854115047478 -1.5707963266058145 2.849820765788412 7184.916000000049
4.420617093227808 -1.5355103927098617 1.8657716714024681 -1.9010576055953723 -1.5707963266705074 2.8498207664410713 7184.9660000000495
4.420617093508544 -1.5370986896781664 1.8632025402836996 -1.8969001774701753 -1.5707963266981555 2.849820766720002 7185.01600000005
4.420617093553936 -1.5373555029209518 1.8627871350371255 -1.8962279589746518 -1.570796326702626 2.8498207667651023 7185.06600000005
4.420617093553936 -1.5373555029209518 1.8627871350371255 -1.8962279589746518 -1.570796326702626 2.8498207667651023 7185.11600000005
4.42043197175839 -1.5373301928070717 1.862757875774113 -1.896224009825388 -1.5707963267028424 2.849635644969585 7185.16600000005
4.41918938413497 -1.5371603044686302 1.8625614796772492 -1.8961975020660833 -1.570796326704296 2.848393057346361 7185.21600000005
4.415974818569572 -1.5367208045151266 1.8620534043365184 -1.896128926676573 -1.570796326708056 2.845178491781468 7185.266000000051
4.410022591472013 -1.5359070076024806 1.861112630303706 -1.8960019495521798 -1.5707963267150187 2.839226264684845 7185.316000000051
4.4007080146958275 -1.5346335054832194 1.8596404230417778 -1.895803244402898 -1.5707963267259142 2.8299116879101236 7185.366000000051
4.387539562458059 -1.5328330960566672 1.8575590948742582 -1.895522325652579 -1.5707963267413176 2.816743235674425 7185.416000000051
4.370151038259055 -1.5304557124191336 1.85481076693461 -1.895151381338116 -1.5707963267616574 2.799354711478155 7185.466000000051
4.348293741802261 -1.5274673519141009 1.8513561311156126 -1.8946851060086292 -1.5707963267872245 2.777497415024797 7185.5160000000515
4.321828635914012 -1.523849005182414 1.847173212018741 -1.8941205336246503 -1.5707963268181815 2.751032309140708 7185.566000000052
4.290718513463327 -1.519595585212468 1.842256128903545 -1.8934568704573076 -1.5707963268545717 2.7199221866949133 7185.616000000052
4.255020164281702 -1.5147148563903967 1.836613857637028 -1.8926953279875105 -1.570796326896329 2.6842238375189003 7185.666000000052
4.214876542082906 -1.5092263635502612 1.830268992643025 -1.8918389558051347 -1.570796326943286 2.644080215326415 7185.716000000052
4.170508931382772 -1.5031603610242383 1.8232565088515826 -1.8908924745082079 -1.5707963269951841 2.5997126046332557 7185.766000000052
4.1222091144189905 -1.496556741692809 1.8156225236483379 -1.8898621086020924 -1.5707963270516816 2.551412787677067 7185.816000000053
4.070331538070905 -1.4894639660349462 1.8074230588238964 -1.8887554193986726 -1.5707963271123642 2.499535211337136 7185.866000000053
4.015285480779301 -1.4819379911783048 1.7987228025232118 -1.8875811379155385 -1.570796327176753 2.4444891540541867 7185.916000000053
3.9575272194662086 -1.4740411999494083 1.7895938711949642 -1.8863489977751702 -1.5707963272443144 2.3867308927501734 7185.966000000053
3.897552196454685 -1.4658413299238384 1.7801145715409397 -1.885069568104124 -1.570796327314469 2.3267558697480784 7186.016000000053
3.835887186388616 -1.4574104024764232 1.7703681624654082 -1.8837540864322166 -1.5707963273866001 2.2650908596917034 7186.0660000000535
3.7730824631525057 -1.4488236518314246 1.7604416170245036 -1.8824142915917097 -1.5707963274600645 2.2022861364654656 7186.116000000054
3.7097039667912712 -1.440158454112729 1.7504243843756022 -1.8810622566164956 -1.5707963275341998 2.1389076401141947 7186.166000000054
3.6463254704300367 -1.4314932563940332 1.7404071517267008 -1.8797102216412813 -1.5707963276083354 2.0755291437629237 7186.216000000054
3.5835207471939268 -1.4229065057490349 1.7304806062857963 -1.8783704268007746 -1.5707963276817998 2.012724420536686 7186.266000000054
3.5218557371278574 -1.4144755783016194 1.7207341972102648 -1.877054945128867 -1.570796327753931 1.9510594104803114 7186.316000000054
3.461880714116335 -1.4062757082760495 1.7112548975562403 -1.8757755154578208 -1.5707963278240855 1.891084387478216 7186.366000000055
3.404122452803241 -1.398378917047153 1.7021259662279926 -1.8745433753174525 -1.5707963278916468 1.8333261261742022 7186.416000000055
3.3490763955116383 -1.3908529421905116 1.693425709927308 -1.8733690938343184 -1.5707963279560357 1.7782800688912532 7186.466000000055
3.2971988191635515 -1.383760166532649 1.6852262451028666 -1.8722624046308987 -1.5707963280167183 1.7264024925513226 7186.516000000055
3.24889900219977 -1.3771565472012197 1.6775922598996218 -1.8712320387247834 -1.5707963280732158 1.6781026755951345 7186.566000000055
3.2045313914996356 -1.3710905446751966 1.6705797761081795 -1.8702855574278563 -1.5707963281251138 1.6337350649019733 7186.6160000000555
3.1643877693008395 -1.3656020518350611 1.6642349111141765 -1.8694291852454805 -1.570796328172071 1.5935914427094886 7186.666000000056
3.1286894201192155 -1.36072132301299 1.6585926398476594 -1.8686676427756834 -1.5707963282138282 1.557893093533477 7186.716000000056
3.0975792976685286 -1.3564679030430438 1.6536755567324635 -1.8680039796083405 -1.5707963282502184 1.5267829710876804 7186.766000000056
3.071114191780281 -1.352849556311357 1.6494926376355918 -1.8674394072243619 -1.5707963282811754 1.5003178652035931 7186.816000000056
3.049256895323486 -1.3498611958063245 1.6460380018165943 -1.866973131894875 -1.5707963283067425 1.4784605687502346 7186.866000000056
3.0318683711244825 -1.3474838121687907 1.643289673876946 -1.866602187580412 -1.5707963283270823 1.4610720445539638 7186.916000000057
3.018699918886714 -1.3456834027422386 1.6412083457094266 -1.866321268830093 -1.5707963283424857 1.4479035923182657 7186.966000000057
3.0093853421105283 -1.3444099006229777 1.6397361384474987 -1.8661225636808112 -1.5707963283533812 1.4385890155435455 7187.016000000057
3.003433115012969 -1.3435961037103312 1.6387953644146862 -1.865995586556418 -1.5707963283603439 1.4326367884469207 7187.066000000057
3.000218549447572 -1.3431566037568279 1.6382872890739553 -1.8659270111669077 -1.570796328364104 1.42942222288203 7187.116000000057
2.998975961824149 -1.3429867154183863 1.638090892977091 -1.865900503407603 -1.5707963283655575 1.428179635258802 7187.1660000000575
2.9987908400286045 -1.3429614053045063 1.638061633714079 -1.8658965542583392 -1.570796328365774 1.427994513463286 7187.216000000058
2.9987908400286063 -1.342961405304506 1.638061633714079 -1.8658965542583392 -1.570796328365774 1.427994513463287 7187.266000000058
2.9987908375813794 -1.3427405478580317 1.6384527923103132 -1.8665085704197473 -1.570796328244215 1.427994511023567 7187.316000000058
2.998790822446168 -1.3413746244778415 1.640871966671366 -1.870293668895103 -1.570796327492416 1.4279944959347812 7187.366000000058
2.998790787031869 -1.338178552981371 1.6465324995625137 -1.8791502750004434 -1.5707963257333106 1.4279944606291126 7187.416000000058
2.998790728518931 -1.3328978742722388 1.6558850611537157 -1.8937835181388678 -1.5707963228268453 1.4279944022956577 7187.466000000059
2.998790647991797 -1.3256304572336688 1.6687563167642183 -1.9139221946937996 -1.570796318826887 1.4279943220155333 7187.516000000059
2.998790549571351 -1.3167482036219098 1.6844875946071576 -1.9385357309222473 -1.570796313938129 1.427994223896983 7187.566000000059
2.998790439547363 -1.306818752959659 1.7020735535341616 -1.9660511458480658 -1.5707963084729977 1.4279941142104835 7187.616000000059
2.9987903255109356 -1.296527187429481 1.7203008507799544 -1.994570014155218 -1.5707963028085596 1.4279940005238523 7187.666000000059
2.9987902154869475 -1.2865977367672303 1.7378868097069584 -2.0220854290810366 -1.5707962973434284 1.4279938908373528 7187.7160000000595
2.9987901170665014 -1.2777154831554716 1.7536180875498977 -2.046698965309484 -1.5707962924546703 1.4279937927188024 7187.76600000006
2.9987900365393676 -1.2704480661169013 1.7664893431604003 -2.066837641864416 -1.570796288454712 1.4279937124386781 7187.81600000006
2.9987899780264295 -1.265167387407769 1.7758419047516023 -2.0814708850028403 -1.5707962855482467 1.4279936541052232 7187.86600000006
2.9987899426121305 -1.2619713159112986 1.7815024376427502 -2.090327491108181 -1.5707962837891414 1.4279936187995546 7187.91600000006
2.998789927476919 -1.2606053925311085 1.7839216120038028 -2.0941125895835366 -1.5707962830373423 1.4279936037107688 7187.96600000006
2.9987899250296923 -1.260384535084634 1.784312770600037 -2.0947246057449442 -1.5707962829157833 1.4279936012710488 7188.016000000061
2.9987899250296923 -1.260384535084634 1.784312770600037 -2.0947246057449442 -1.5707962829157833 1.4279936012710488 7188.066000000061
2.9987899250296923 -1.260384535084634 1.784312770600037 -2.0947246057449442 -1.5707962829157833 1.4279936012710488 7188.116000000061
2.9987899250296923 -1.260384535084634 1.784312770600037 -2.0947246057449442 -1.5707962829157833 1.4279936012710488 7188.166000000061
2.9987899250296923 -1.260384535084634 1.784312770600037 -2.0947246057449442 -1.5707962829157833 1.4279936012710488 7188.216000000061
2.9987899250296923 -1.260384535084634 1.784312770600037 -2.0947246057449442 -1.5707962829157833 1.4279936012710488 7188.2660000000615
2.9987899250296923 -1.260384535084634 1.784312770600037 -2.0947246057449447 -1.5707962829157833 1.4279936012710488 7188.316000000062
2.998789927476919 -1.2606053925311085 1.7839216120038028 -2.0941125895835366 -1.5707962830373423 1.4279936037107688 7188.366000000062
2.9987899426121305 -1.2619713159112986 1.78150243764275 -2.0903274911081806 -1.5707962837891414 1.4279936187995546 7188.416000000062
2.9987899780264295 -1.2651673874077691 1.7758419047516023 -2.0814708850028403 -1.5707962855482467 1.4279936541052232 7188.466000000062
2.9987900365393676 -1.2704480661169013 1.7664893431604003 -2.066837641864416 -1.570796288454712 1.4279937124386781 7188.516000000062
2.9987901170665014 -1.2777154831554713 1.7536180875498977 -2.0466989653094845 -1.5707962924546703 1.4279937927188024 7188.566000000063
2.9987902154869475 -1.2865977367672303 1.7378868097069584 -2.0220854290810366 -1.5707962973434284 1.4279938908373528 7188.616000000063
2.9987903255109356 -1.296527187429481 1.7203008507799544 -1.994570014155218 -1.5707963028085596 1.4279940005238523 7188.666000000063
2.998790439547363 -1.306818752959659 1.7020735535341616 -1.9660511458480658 -1.5707963084729977 1.4279941142104835 7188.716000000063
2.998790549571351 -1.3167482036219098 1.6844875946071576 -1.9385357309222475 -1.570796313938129 1.427994223896983 7188.766000000063
2.998790647991797 -1.3256304572336686 1.6687563167642183 -1.9139221946937996 -1.570796318826887 1.4279943220155333 7188.8160000000635
2.998790728518931 -1.3328978742722388 1.6558850611537157 -1.893783518138868 -1.5707963228268453 1.4279944022956577 7188.866000000064
2.998790787031869 -1.338178552981371 1.6465324995625137 -1.8791502750004436 -1.5707963257333106 1.4279944606291126 7188.916000000064
2.998790822446168 -1.3413746244778415 1.6408719666713658 -1.8702936688951028 -1.570796327492416 1.4279944959347812 7188.966000000064
2.9987908375813794 -1.3427405478580314 1.6384527923103132 -1.8665085704197473 -1.570796328244215 1.427994511023567 7189.016000000064
2.9987908400286063 -1.342961405304506 1.638061633714079 -1.8658965542583394 -1.570796328365774 1.427994513463287 7189.066000000064
2.9987908400286063 -1.342961405304506 1.638061633714079 -1.8658965542583394 -1.570796328365774 1.427994513463287 7189.116000000065
2.9987908400286063 -1.342961405304506 1.638061633714079 -1.8658965542583394 -1.570796328365774 1.427994513463287 7189.166000000065
2.9987908400286063 -1.342961405304506 1.638061633714079 -1.8658965542583394 -1.570796328365774 1.427994513463287 7189.216000000065
2.9987908400286063 -1.342961405304506 1.638061633714079 -1.8658965542583394 -1.570796328365774 1.427994513463287 7189.266000000065
2.9987908400286063 -1.342961405304506 1.638061633714079 -1.8658965542583394 -1.570796328365774 1.427994513463287 7189.316000000065
2.9987908400286063 -1.342961405304506 1.638061633714079 -1.8658965542583394 -1.570796328365774 1.427994513463287 7189.3660000000655
2.9987908400286063 -1.342961405304506 1.638061633714079 -1.8658965542583394 -1.570796328365774 1.427994513463287 7189.416000000066
2.9987908400286063 -1.342961405304506 1.638061633714079 -1.8658965542583394 -1.570796328365774 1.427994513463287 7189.466000000066
2.9987908400286063 -1.342961405304506 1.638061633714079 -1.8658965542583394 -1.570796328365774 1.427994513463287 7189.516000000066
2.9987908400286063 -1.342961405304506 1.638061633714079 -1.8658965542583394 -1.570796328365774 1.427994513463287 7189.566000000066
2.9987908400286063 -1.342961405304506 1.638061633714079 -1.8658965542583394 -1.570796328365774 1.427994513463287 7189.616000000066
2.9987908400286063 -1.342961405304506 1.638061633714079 -1.8658965542583394 -1.570796328365774 1.427994513463287 7189.666000000067
2.9987908400286063 -1.342961405304506 1.638061633714079 -1.8658965542583394 -1.570796328365774 1.427994513463287 7189.716000000067
2.9987908400286063 -1.342961405304506 1.638061633714079 -1.8658965542583394 -1.570796328365774 1.427994513463287 7189.766000000067
2.9987908400286063 -1.342961405304506 1.638061633714079 -1.8658965542583394 -1.570796328365774 1.427994513463287 7189.816000000067
2.9987908400286063 -1.342961405304506 1.638061633714079 -1.8658965542583394 -1.570796328365774 1.427994513463287 7189.866000000067
2.9987908400286063 -1.342961405304506 1.638061633714079 -1.8658965542583394 -1.570796328365774 1.427994513463287 7189.9160000000675
2.9987908400286063 -1.342961405304506 1.638061633714079 -1.8658965542583394 -1.570796328365774 1.427994513463287 7189.966000000068
2.9987908400286063 -1.342961405304506 1.638061633714079 -1.8658965542583394 -1.570796328365774 1.427994513463287 7190.016000000068
2.9987908400286063 -1.342961405304506 1.638061633714079 -1.8658965542583394 -1.570796328365774 1.427994513463287 7190.066000000068
2.9987908400286063 -1.342961405304506 1.638061633714079 -1.8658965542583394 -1.570796328365774 1.427994513463287 7190.116000000068
2.9987908400286063 -1.342961405304506 1.638061633714079 -1.8658965542583394 -1.570796328365774 1.427994513463287 7190.166000000068
2.9987908400286063 -1.342961405304506 1.638061633714079 -1.8658965542583394 -1.570796328365774 1.427994513463287 7190.216000000069
2.9987908400286063 -1.342961405304506 1.638061633714079 -1.8658965542583394 -1.570796328365774 1.427994513463287 7190.266000000069
2.9987908400286063 -1.342961405304506 1.638061633714079 -1.8658965542583394 -1.570796328365774 1.427994513463287 7190.316000000069
2.9987908400286063 -1.342961405304506 1.638061633714079 -1.8658965542583394 -1.570796328365774 1.427994513463287 7190.366000000069
2.9987908400286063 -1.342961405304506 1.638061633714079 -1.8658965542583394 -1.570796328365774 1.427994513463287 7190.416000000069
2.9987908400286063 -1.342961405304506 1.638061633714079 -1.8658965542583394 -1.570796328365774 1.427994513463287 7190.4660000000695
2.9987908400286063 -1.342961405304506 1.638061633714079 -1.8658965542583394 -1.570796328365774 1.427994513463287 7190.51600000007
2.9987908400286063 -1.342961405304506 1.638061633714079 -1.8658965542583394 -1.570796328365774 1.427994513463287 7190.56600000007
2.9987908400286063 -1.342961405304506 1.638061633714079 -1.8658965542583394 -1.570796328365774 1.427994513463287 7190.61600000007
2.9987908400286063 -1.342961405304506 1.638061633714079 -1.8658965542583394 -1.570796328365774 1.427994513463287 7190.66600000007
2.9987908400286063 -1.342961405304506 1.638061633714079 -1.8658965542583392 -1.570796328365774 1.427994513463287 7190.71600000007
2.9989676459312133 -1.3429642029643736 1.638065148851731 -1.8658972717513087 -1.5707963283666861 1.4281713193658485 7190.766000000071
3.000155606088324 -1.3429830004615542 1.6380887670874102 -1.8659020925918357 -1.5707963283728157 1.429359279522654 7190.816000000071
3.0032324606315295 -1.343031686576366 1.6381499390680678 -1.865914578721938 -1.5707963283886914 1.4324361340650686 7190.866000000071
3.008936889983015 -1.3431219497000997 1.6382633507477724 -1.8659377277678355 -1.5707963284181246 1.4381405634150883 7190.916000000071
3.0178756461227088 -1.3432633906754796 1.638441065166833 -1.865974001979224 -1.5707963284642459 1.4470793195524851 7190.966000000071
