Andreas691667/Digital_Twin_UR/src/dt/dt_trajectories/test_dt_trajectory.csv
actual_q_0 actual_q_1 actual_q_2 actual_q_3 actual_q_4 actual_q_5 timestamp
3.71207804710797 -0.8254843255005873 0.8429764792549035 -1.5882884806323445 -1.570796326807946 2.141281720311417 10229.291
3.71207804710797 -0.8254843255005873 0.8429764792549035 -1.5882884806323445 -1.570796326807946 2.141281720311417 10229.340999999999
3.71207804710797 -0.8254843255005873 0.8429764792549035 -1.5882884806323445 -1.570796326807946 2.141281720311417 10229.390999999998
3.71207804710797 -0.8254843255005873 0.8429764792549035 -1.5882884806323445 -1.570796326807946 2.141281720311417 10229.440999999997
3.71207804710797 -0.8254843255005873 0.8429764792549035 -1.5882884806323445 -1.570796326807946 2.141281720311417 10229.490999999996
3.71207804710797 -0.8254843255005873 0.8429764792549035 -1.5882884806323445 -1.570796326807946 2.141281720311417 10229.540999999996
3.71207804710797 -0.8254843255005873 0.8429764792549035 -1.5882884806323445 -1.570796326807946 2.141281720311417 10229.590999999995
3.71207804710797 -0.8254843255005873 0.8429764792549035 -1.5882884806323445 -1.570796326807946 2.141281720311417 10229.640999999994
3.71207804710797 -0.8254843255005873 0.8429764792549035 -1.5882884806323445 -1.570796326807946 2.141281720311417 10229.690999999993
3.71207804710797 -0.8254843255005873 0.8429764792549035 -1.5882884806323445 -1.570796326807946 2.141281720311417 10229.740999999993
3.71207804710797 -0.8254843255005873 0.8429764792549035 -1.5882884806323445 -1.570796326807946 2.141281720311417 10229.790999999992
3.71207804710797 -0.8254843255005873 0.8429764792549035 -1.5882884806323445 -1.570796326807946 2.141281720311417 10229.840999999991
3.71207804710797 -0.8254843255005873 0.8429764792549035 -1.5882884806323445 -1.570796326807946 2.141281720311417 10229.89099999999
3.7122689791773014 -0.8255822011483995 0.8431247541871719 -1.5883388799190803 -1.5707963268548544 2.1411975678393773 10229.94099999999
3.713544740040671 -0.8262361820191524 0.8441154906112279 -1.5886756354876148 -1.5707963271682845 2.1406352818349363 10229.990999999989
3.7168275167322813 -0.8279189998738993 0.8466648449093596 -1.589542171970193 -1.5707963279748003 2.1391884124079175 10230.040999999988
3.7228710753776704 -0.8310170505030092 0.8513581803555411 -1.591137456859419 -1.5707963294595875 2.1365247404448637 10230.090999999988
3.732270668305987 -0.835835472312677 0.8586577608276864 -1.593618615634119 -1.5707963317688887 2.1323819110927604 10230.140999999987
3.7454729411622654 -0.8426032249114345 0.8689104445199027 -1.5971035468852008 -1.5707963350124359 2.126563067242757 10230.190999999986
3.762785840019699 -0.8514781676966612 0.8823553776547448 -1.601673537441516 -1.5707963392658857 2.118932483013891 10230.240999999985
3.784388518491916 -0.8625521384410955 0.8991316881954681 -1.6073758774957212 -1.5707963445732527 2.109411197236808 10230.290999999985
3.810341244845251 -0.8758560318793451 0.9192861795582831 -1.6142264757301383 -1.5707963509493437 2.0979726469374858 10230.340999999984
3.840595309111022 -0.8913648782943985 0.9427810243246088 -1.6222124744426163 -1.5707963583821913 2.0846383008209557 10230.390999999983
3.8750029301978044 -0.9090029221041348 0.9695014579533265 -1.631294864672393 -1.5707963668354892 2.069473292755027 10230.440999999983
3.913327163003703 -0.9286487004478358 0.9992634724930336 -1.6414111013259551 -1.5707963762510238 2.0525820552540046 10230.490999999982
3.955251805528629 -0.9501401217726961 1.0318215102942974 -1.6524777183029 -1.5707963865511108 2.0341039529624183 10230.540999999981
4.000391305986574 -0.9732795444203346 1.0668761577219086 -1.664392943621797 -1.5707963976410269 2.014208916138738 10230.59099999998
4.048300669917882 -0.9978388552133042 1.1040818388671358 -1.6770393145460483 -1.570796409411446 1.9930930741391024 10230.64099999998
4.098485367301527 -1.023564548041604 1.143054509259978 -1.6902862927097497 -1.570796421740871 1.970974388901036 10230.690999999979
4.150411239667386 -1.0501828024491897 1.18337934958142 -1.7039928792435532 -1.5707964344980696 1.9480882884271746 10230.740999999978
4.203514407208509 -1.077404562220484 1.2246184593756846 -1.7180102299005264 -1.5707964475445073 1.9246833002689874 10230.790999999977
4.257211175893402 -1.104930613966888 1.2663185507624877 -1.7321842701820154 -1.5707964607367817 1.9010166850104984 10230.840999999977
4.310907944578295 -1.132456665713292 1.3080186421492905 -1.7463583104635043 -1.5707964739290559 1.8773500697520094 10230.890999999976
4.364011112119418 -1.1596784254845862 1.3492577519435551 -1.7603756611204775 -1.5707964869754936 1.8539450815938223 10230.940999999975
4.415936984485277 -1.186296679892172 1.3895825922649974 -1.774082247654281 -1.5707964997326922 1.8310589811199607 10230.990999999975
4.4661216818689216 -1.2120223727204718 1.4285552626578395 -1.7873292258179825 -1.5707965120621172 1.808940295881894 10231.040999999974
4.5140310458002295 -1.2365816835134416 1.4657609438030668 -1.7999755967422335 -1.5707965238325363 1.7878244538822583 10231.090999999973
4.559170546258174 -1.2597211061610796 1.5008155912306775 -1.8118908220611303 -1.5707965349224524 1.7679294170585786 10231.140999999972
4.6010951887831 -1.2812125274859398 1.533373629031941 -1.8229574390380754 -1.5707965452225394 1.7494513147669921 10231.190999999972
4.6394194215889994 -1.300858305829641 1.5631356435716484 -1.8330736756916375 -1.570796554638074 1.7325600772659702 10231.24099999997
4.673827042675781 -1.3184963496393776 1.5898560772003665 -1.8421560659214142 -1.5707965630913718 1.7173950692000408 10231.29099999997
4.704081106941552 -1.3340051960544304 1.6133509219666915 -1.850142064633892 -1.5707965705242195 1.7040607230835114 10231.34099999997
4.730033833294889 -1.3473090894926805 1.6335054133295075 -1.8569926628683096 -1.5707965769003105 1.6926221727841884 10231.390999999969
4.751636511767105 -1.3583830602371147 1.6502817238702299 -1.8626950029225142 -1.5707965822076775 1.683100887007106 10231.440999999968
4.768949410624538 -1.367258003022341 1.6637266570050717 -1.8672649934788295 -1.5707965864611273 1.6754703027782398 10231.490999999967
4.782151683480817 -1.3740257556210984 1.6739793406972883 -1.8707499247299113 -1.5707965897046745 1.6696514589282365 10231.540999999967
4.791551276409134 -1.3788441774307665 1.681278921169434 -1.8732310835046113 -1.5707965920139757 1.665508629576133 10231.590999999966
4.7975948350545226 -1.381942228059876 1.6859722566156154 -1.8748263683938375 -1.5707965934987629 1.662844957613079 10231.640999999965
4.800877611746131 -1.383625045914623 1.6885216109137464 -1.8756929048764155 -1.5707965943052786 1.6613980881860604 10231.690999999964
4.802153372609503 -1.384279026785376 1.689512347337803 -1.8760296604449502 -1.5707965946187088 1.6608358021816192 10231.740999999964
4.802344304678834 -1.3843769024331887 1.689660622270071 -1.8760800597316858 -1.5707965946656173 1.6607516497095798 10231.790999999963
4.802344304678834 -1.384376902433189 1.6896606222700719 -1.8760800597316862 -1.5707965946656173 1.6607516497095798 10231.840999999962
4.802344307386492 -1.384147745783343 1.6900552203559738 -1.8767038144324433 -1.5707965939491735 1.6607516524209287 10231.890999999961
4.802344324132375 -1.3827304948337065 1.6924956667159023 -1.8805615115256038 -1.5707965895182276 1.66075166918964 10231.94099999996
4.802344363315421 -1.3794143239348313 1.6982059731377366 -1.8895879883399567 -1.5707965791504284 1.6607517084261019 10231.99099999996
4.802344428055237 -1.3739352121312087 1.7076407725712601 -1.9045018987404798 -1.5707965620203306 1.6607517732541726 10232.04099999996
4.802344517151974 -1.366394705944188 1.720625206189633 -1.9250268373944897 -1.5707965384454132 1.6607518624723678 10232.090999999959
4.802344626046208 -1.3571786821548983 1.736494810450864 -1.9501124640377867 -1.5707965096320957 1.660751971515049 10232.140999999958
4.80234474777882 -1.3468761105871672 1.7542354041592816 -1.978155627740803 -1.5707964774217549 1.6607520934136086 10232.190999999957
4.8023448739508705 -1.3361978168904423 1.7726229755270069 -2.0072214911747506 -1.5707964440367426 1.660752219757659 10232.240999999956
4.802344995683482 -1.325895245322711 1.7903635692354243 -2.035264654877767 -1.5707964118264017 1.6607523416562187 10232.290999999956
4.802345104577716 -1.3166792215334213 1.8062331734966552 -2.060350281521064 -1.5707963830130842 1.6607524506988998 10232.340999999955
4.802345193674453 -1.3091387153464007 1.8192176071150283 -2.0808752201750735 -1.5707963594381669 1.660752539917095 10232.390999999954
4.802345258414269 -1.3036596035427779 1.8286524065485519 -2.0957891305755973 -1.570796342308069 1.6607526047451657 10232.440999999953
4.8023452975973155 -1.3003434326439027 1.8343627129703863 -2.1048156073899498 -1.5707963319402698 1.6607526439816276 10232.490999999953
4.8023453143431984 -1.2989261816942663 1.8368031593303147 -2.1086733044831103 -1.570796327509324 1.660752660750339 10232.540999999952
4.8023453170508565 -1.2986970250444205 1.8371977574162166 -2.1092970591838673 -1.5707963267928802 1.6607526634616878 10232.590999999951
4.8023453170508565 -1.2986970250444205 1.8371977574162166 -2.1092970591838673 -1.5707963267928802 1.6607526634616878 10232.64099999995
4.8023453170508565 -1.2986970250444205 1.8371977574162166 -2.1092970591838673 -1.5707963267928802 1.6607526634616878 10232.69099999995
4.8023453170508565 -1.2986970250444205 1.8371977574162166 -2.1092970591838673 -1.5707963267928802 1.6607526634616878 10232.740999999949
4.8023453170508565 -1.2986970250444205 1.8371977574162166 -2.1092970591838673 -1.5707963267928802 1.6607526634616878 10232.790999999948
4.8023453170508565 -1.2986970250444205 1.8371977574162166 -2.1092970591838673 -1.5707963267928802 1.6607526634616878 10232.840999999948
4.8023453170508565 -1.2986970250444205 1.8371977574162166 -2.1092970591838673 -1.5707963267928802 1.6607526634616878 10232.890999999947
4.8023453170508565 -1.2986970250444205 1.8371977574162166 -2.1092970591838673 -1.5707963267928802 1.6607526634616878 10232.940999999946
4.8023453170508565 -1.2986970250444205 1.8371977574162166 -2.1092970591838673 -1.5707963267928802 1.6607526634616878 10232.990999999945
4.8023453170508565 -1.2986970250444205 1.8371977574162166 -2.1092970591838673 -1.5707963267928802 1.6607526634616878 10233.040999999945
4.8023453170508565 -1.2986970250444205 1.8371977574162166 -2.1092970591838673 -1.5707963267928802 1.6607526634616878 10233.090999999944
4.8023453170508565 -1.2986970250444205 1.8371977574162166 -2.1092970591838673 -1.5707963267928802 1.6607526634616878 10233.140999999943
4.8023453170508565 -1.2986970250444205 1.8371977574162166 -2.1092970591838673 -1.5707963267928802 1.6607526634616878 10233.190999999943
4.8023453170508565 -1.2986970250444205 1.8371977574162166 -2.1092970591838673 -1.5707963267928802 1.6607526634616878 10233.240999999942
4.8023453170508565 -1.2986970250444205 1.8371977574162166 -2.1092970591838673 -1.5707963267928802 1.6607526634616878 10233.290999999941
4.8023453143431984 -1.2989261816942663 1.8368031593303147 -2.1086733044831103 -1.570796327509324 1.660752660750339 10233.34099999994
4.8023452975973155 -1.300343432643903 1.8343627129703861 -2.1048156073899498 -1.5707963319402698 1.6607526439816276 10233.39099999994
4.802345258414269 -1.303659603542778 1.8286524065485519 -2.095789130575597 -1.570796342308069 1.6607526047451657 10233.440999999939
4.802345193674453 -1.3091387153464007 1.8192176071150283 -2.0808752201750735 -1.5707963594381669 1.660752539917095 10233.490999999938
4.802345104577716 -1.3166792215334213 1.8062331734966555 -2.060350281521064 -1.5707963830130842 1.6607524506988998 10233.540999999937
4.802344995683482 -1.325895245322711 1.7903635692354245 -2.035264654877767 -1.5707964118264017 1.6607523416562187 10233.590999999937
4.8023448739508705 -1.3361978168904423 1.7726229755270069 -2.0072214911747506 -1.5707964440367426 1.660752219757659 10233.640999999936
4.80234474777882 -1.3468761105871672 1.7542354041592816 -1.978155627740803 -1.5707964774217549 1.6607520934136086 10233.690999999935
4.802344626046208 -1.3571786821548981 1.7364948104508642 -1.9501124640377867 -1.5707965096320957 1.660751971515049 10233.740999999935
4.802344517151974 -1.366394705944188 1.7206252061896332 -1.9250268373944899 -1.5707965384454132 1.6607518624723678 10233.790999999934
4.802344428055237 -1.3739352121312087 1.7076407725712601 -1.90450189874048 -1.5707965620203306 1.6607517732541726 10233.840999999933
4.802344363315421 -1.3794143239348315 1.6982059731377366 -1.8895879883399564 -1.5707965791504284 1.6607517084261019 10233.890999999932
4.802344324132375 -1.3827304948337067 1.6924956667159021 -1.8805615115256038 -1.5707965895182276 1.66075166918964 10233.940999999932
4.802344307386492 -1.384147745783343 1.6900552203559738 -1.876703814432443 -1.5707965939491735 1.6607516524209287 10233.99099999993
4.802344304678834 -1.384376902433189 1.6896606222700719 -1.8760800597316862 -1.5707965946656173 1.6607516497095798 10234.04099999993
4.802344304678834 -1.384376902433189 1.6896606222700719 -1.8760800597316862 -1.5707965946656173 1.6607516497095798 10234.09099999993
4.802212309909164 -1.384373871400779 1.6896568459491903 -1.8760793144421866 -1.570796594646128 1.6607346151579627 10234.140999999929
4.801319584917722 -1.3843533715098446 1.689631305421826 -1.876074273798804 -1.5707965945143145 1.6606194047599698 10234.190999999928
4.798989611424414 -1.3842998676839735 1.6895646457535802 -1.8760611179382838 -1.5707965941702873 1.6603187106200612 10234.240999999927
4.7946343172108 -1.384199855858134 1.6894400424187244 -1.8760365263953482 -1.5707965935272155 1.6597566392268146 10234.290999999926
4.787750312457899 -1.3840417765526598 1.6892430936232345 -1.8759976568517203 -1.5707965925107725 1.6588682257344527 10234.340999999926
4.77791512608398 -1.383815928447232 1.688961712627827 -1.8759421238851444 -1.570796591058579 1.6575989482443698 10234.390999999925
4.764783442082378 -1.383514381954864 1.688586020070994 -1.8758679777184097 -1.5707965891196483 1.6559042420866585 10234.440999999924
4.748083335859287 -1.3831308927958859 1.6881082362920383 -1.8757736829683724 -1.5707965866538296 1.6537490141016378 10234.490999999924
4.727612510571563 -1.3826608155719262 1.6875225736541093 -1.8756580973949766 -1.5707965836312534 1.6511071569213778 10234.540999999923
4.703234533464529 -1.382101017339898 1.686825128867238 -1.8755204506502783 -1.5707965800317751 1.647961063251229 10234.590999999922
4.674875072209772 -1.3814497911859813 1.686013775311372 -1.8753603230274662 -1.5707965758444193 1.6443011401513474 10234.640999999921
4.642518131242952 -1.3807067697996072 1.6850880553594116 -1.8751776242098848 -1.5707965710668241 1.6401253233182225 10234.69099999992
4.606202288101599 -1.3798728390474417 1.6840490727002448 -1.8749725720200563 -1.5707965657046858 1.6354385913662033 10234.74099999992
4.566016929762916 -1.3789500515473696 1.6828993846617821 -1.874745671168703 -1.5707965597712024 1.6302524801090263 10234.79099999992
4.522098488981579 -1.3779415402424784 1.6816428945339927 -1.874497692003769 -1.5707965532865187 1.6245845968413415 10234.840999999918
4.474626680627545 -1.3768514319750413 1.6802847438919395 -1.8742296492594435 -1.5707965462771698 1.6184581346202391 10234.890999999918
4.4238207380238475 -1.3756847610605023 1.678831204918814 -1.8739427808051814 -1.5707965387755267 1.6119013865467775 10234.940999999917
4.369935649284402 -1.374447382861459 1.6772895727289723 -1.873638526394727 -1.5707965308192389 1.6049472600475096 10234.990999999916
4.3132583936518065 -1.3731458873616467 1.6756680576909702 -1.8733185064151359 -1.5707965224506795 1.597632791156009 10235.040999999916
4.254104177835144 -1.371787512739922 1.673975677750598 -1.8729845006357966 -1.5707965137163897 1.5899986587943984 10235.090999999915
4.192812672347786 -1.3703800589442472 1.672222150753917 -1.8726384269574534 -1.570796504666523 1.5820886990548748 10235.140999999914
4.129744247845192 -1.3689318012656735 1.6704177867702936 -1.8722823201612282 -1.5707964953542892 1.5739494194812382 10235.190999999913
4.065276211462712 -1.3674514039123251 1.668573380415436 -1.871918310657643 -1.5707964858353987 1.5656295133504166 10235.240999999913
3.9997990431533905 -1.365947833583383 1.6667001031744273 -1.8715486032356417 -1.570796476167507 1.5571793739539947 10235.290999999912
3.933712632025766 -1.3644302730430682 1.6648093957247636 -1.8711754558116132 -1.5707964664096588 1.5486506088797394 10235.340999999911
3.867422512681674 -1.3629080346946267 1.6629128602593872 -1.8708011581784123 -1.5707964566217325 1.5400955542931274 10235.39099999991
3.8013361015540488 -1.361390474154312 1.6610221528097235 -1.8704280107543838 -1.5707964468638842 1.531566789218872 10235.44099999991
3.735858933244727 -1.3598869038253698 1.659148875568715 -1.8700583033323825 -1.5707964371959926 1.52311664982245 10235.490999999909
3.6713908968622473 -1.3584065064720214 1.657304469213857 -1.8696942938287973 -1.570796427677102 1.5147967436916285 10235.540999999908
3.608322472359654 -1.3569582487934477 1.6555001052302338 -1.869338187032572 -1.5707964183648682 1.506657464117992 10235.590999999908
3.5470309668722955 -1.355550794997773 1.6537465782335528 -1.8689921133542289 -1.5707964093150015 1.4987475043784684 10235.640999999907
3.4878767510556337 -1.3541924203760485 1.6520541982931807 -1.8686581075748896 -1.5707964005807118 1.4911133720168577 10235.690999999906
3.431199495423038 -1.352890924876236 1.6504326832551786 -1.8683380875952984 -1.5707963922121524 1.4837989031253573 10235.740999999905
3.3773144066835927 -1.3516535466771926 1.6488910510653367 -1.868033833184844 -1.5707963842558645 1.4768447766260893 10235.790999999905
3.3265084640798936 -1.3504868757626536 1.6474375120922113 -1.867746964730582 -1.5707963767542215 1.4702880285526276 10235.840999999904
3.27903665572586 -1.3493967674952165 1.646079361450158 -1.8674789219862564 -1.5707963697448726 1.4641615663315255 10235.890999999903
3.235118214944524 -1.3483882561903253 1.6448228713223687 -1.8672309428213225 -1.570796363260189 1.4584936830638404 10235.940999999902
3.1949328566058393 -1.3474654686902532 1.643673183283906 -1.8670040419699692 -1.5707963573267054 1.4533075718066635 10235.990999999902
3.1586170134644878 -1.3466315379380878 1.6426342006247392 -1.8667989897801407 -1.5707963519645671 1.4486208398546445 10236.040999999901
3.126260072497666 -1.3458885165517136 1.6417084806727789 -1.8666162909625592 -1.570796347186972 1.4444450230215193 10236.0909999999
3.0979006112429097 -1.345237290397797 1.6408971271169128 -1.8664561633397472 -1.5707963429996161 1.4407850999216378 10236.1409999999
3.073522634135875 -1.3446774921657687 1.6401996823300415 -1.8663185165950489 -1.5707963394001379 1.437639006251489 10236.190999999899
4.802334308624268 -1.3843643528274079 1.6896517912494105 -1.876061578790182 -1.5707605520831507 1.6607332229614258 10237.491
4.801281253141621 -1.3849502795304427 1.6903442724209574 -1.8761683271417173 -1.5707608674287261 1.6596802394917152 10237.541
4.795208961246357 -1.3883289409862605 1.6943373647839897 -1.876783876047299 -1.5707626858233066 1.6536083628486182 10237.590999999999
4.782272125433838 -1.395527077912796 1.702844528335377 -1.87809528453415 -1.570766559858438 1.6406724117183893 10237.640999999998
4.763282681006106 -1.406092924394158 1.7153318406764968 -1.8800202466302927 -1.5707722463938396 1.6216842658790767 10237.690999999997
4.740824058469654 -1.4185890434252375 1.7301004578117314 -1.8822968796976143 -1.5707789718013476 1.5992271791699233 10237.740999999996
4.718365435933201 -1.431085162456317 1.744869074946966 -1.884573512764936 -1.5707856972088559 1.57677009246077 10237.790999999996
4.699375991505469 -1.441651008937679 1.7573563872880857 -1.8864984748610785 -1.5707913837442575 1.5577819466214573 10237.840999999995
4.68643915569295 -1.4488491458642145 1.765863550839473 -1.8878098833479295 -1.5707952577793889 1.5448459954912286 10237.890999999994
4.680366863797686 -1.4522278073200323 1.7698566432025054 -1.8884254322535114 -1.5707970761739694 1.5387741188481312 10237.940999999993
4.679313808315039 -1.4528137340230671 1.7705491243740523 -1.8885321806050466 -1.5707973915195448 1.5377211353784208 10237.990999999993
4.679313808315039 -1.4528137340230671 1.7705491243740523 -1.8885321806050466 -1.5707973915195448 1.5377211353784208 10238.040999999992
4.679313805721838 -1.4525715252642073 1.7709515278660957 -1.8891767916170832 -1.5707973886716573 1.537721132836989 10238.090999999991
4.679313789683828 -1.4510735517437556 1.7734402478383051 -1.893163477447803 -1.5707973710585041 1.5377211171191536 10238.14099999999
4.679313752157106 -1.4475685012111865 1.7792635078258228 -1.9024917700400081 -1.5707973298461655 1.5377210803415962 10238.19099999999
4.679313690153936 -1.441777314830591 1.7888849337131296 -1.9179043526867392 -1.5707972617534711 1.5377210195762268 10238.240999999989
4.679313604823449 -1.4338073229234727 1.8021262078523486 -1.939115577967596 -1.57079716804241 1.5377209359492339 10238.290999999988
4.6793135005323325 -1.424066380711545 1.8183097231815455 -1.9650399856850573 -1.5707970535085378 1.5377208337401334 10238.340999999988
4.679313383945535 -1.4131770040595288 1.8364012373430307 -1.9940208208008015 -1.5707969254713885 1.5377207194808173 10238.390999999987
4.6793132631069625 -1.4018905052179493 1.8551525268016624 -2.024058551372027 -1.5707967927648818 1.5377206010546045 10238.440999999986
4.679313146520165 -1.3910011285659332 1.8732440409631477 -2.053039386487771 -1.5707966647277325 1.5377204867952885 10238.490999999985
4.679313042229049 -1.3812601863540055 1.8894275562923444 -2.078963794205232 -1.5707965501938603 1.537720384586188 10238.540999999985
4.679312956898562 -1.3732901944468872 1.9026688304315633 -2.1001750194860893 -1.5707964564827992 1.537720300959195 10238.590999999984
4.679312894895392 -1.3674990080662917 1.9122902563188706 -2.11558760213282 -1.5707963883901048 1.5377202401938257 10238.640999999983
4.67931285736867 -1.3639939575337225 1.918113516306388 -2.1249158947250253 -1.5707963471777662 1.5377202034162682 10238.690999999983
4.67931284133066 -1.3624959840132709 1.9206022362785973 -2.1289025805557453 -1.570796329564613 1.5377201876984328 10238.740999999982
4.6793128387374585 -1.362253775254411 1.9210046397706408 -2.1295471915677817 -1.5707963267167255 1.537720185157001 10238.790999999981
4.6793128387374585 -1.362253775254411 1.9210046397706408 -2.1295471915677817 -1.5707963267167255 1.537720185157001 10238.84099999998
4.6793128387374585 -1.362253775254411 1.9210046397706408 -2.1295471915677817 -1.5707963267167255 1.537720185157001 10238.89099999998
4.6793128387374585 -1.362253775254411 1.9210046397706408 -2.1295471915677817 -1.5707963267167255 1.537720185157001 10238.940999999979
4.6793128387374585 -1.362253775254411 1.9210046397706408 -2.1295471915677817 -1.5707963267167255 1.537720185157001 10238.990999999978
4.6793128387374585 -1.362253775254411 1.9210046397706408 -2.1295471915677817 -1.5707963267167255 1.537720185157001 10239.040999999977
4.6793128387374585 -1.362253775254411 1.9210046397706408 -2.1295471915677817 -1.5707963267167255 1.537720185157001 10239.090999999977
4.6793128387374585 -1.362253775254411 1.9210046397706408 -2.1295471915677817 -1.5707963267167255 1.537720185157001 10239.140999999976
4.6793128387374585 -1.362253775254411 1.9210046397706408 -2.1295471915677817 -1.5707963267167255 1.537720185157001 10239.190999999975
4.6793128387374585 -1.362253775254411 1.9210046397706408 -2.1295471915677817 -1.5707963267167255 1.537720185157001 10239.240999999975
4.6793128387374585 -1.362253775254411 1.9210046397706408 -2.1295471915677817 -1.5707963267167255 1.537720185157001 10239.290999999974
4.6793128387374585 -1.362253775254411 1.9210046397706408 -2.1295471915677817 -1.5707963267167255 1.537720185157001 10239.340999999973
4.6793128387374585 -1.362253775254411 1.9210046397706408 -2.1295471915677817 -1.5707963267167255 1.537720185157001 10239.390999999972
4.6793128387374585 -1.362253775254411 1.9210046397706408 -2.1295471915677817 -1.5707963267167255 1.537720185157001 10239.440999999972
4.6793128387374585 -1.362253775254411 1.9210046397706408 -2.1295471915677817 -1.5707963267167255 1.537720185157001 10239.49099999997
4.67931284133066 -1.3624959840132709 1.9206022362785975 -2.128902580555745 -1.570796329564613 1.5377201876984328 10239.54099999997
4.67931285736867 -1.3639939575337225 1.918113516306388 -2.1249158947250253 -1.5707963471777662 1.5377202034162682 10239.59099999997
4.679312894895392 -1.3674990080662917 1.9122902563188704 -2.11558760213282 -1.5707963883901048 1.5377202401938257 10239.640999999969
4.679312956898562 -1.3732901944468872 1.9026688304315635 -2.100175019486089 -1.5707964564827992 1.537720300959195 10239.690999999968
4.679313042229049 -1.3812601863540055 1.8894275562923446 -2.0789637942052326 -1.5707965501938603 1.537720384586188 10239.740999999967
4.679313146520165 -1.3910011285659332 1.8732440409631477 -2.053039386487771 -1.5707966647277325 1.5377204867952885 10239.790999999967
4.6793132631069625 -1.4018905052179493 1.8551525268016624 -2.024058551372027 -1.5707967927648818 1.5377206010546045 10239.840999999966
4.679313383945535 -1.4131770040595288 1.8364012373430307 -1.9940208208008015 -1.5707969254713885 1.5377207194808173 10239.890999999965
4.6793135005323325 -1.4240663807115448 1.8183097231815455 -1.9650399856850571 -1.5707970535085378 1.5377208337401334 10239.940999999964
4.679313604823449 -1.4338073229234727 1.8021262078523488 -1.9391155779675961 -1.57079716804241 1.5377209359492339 10239.990999999964
4.679313690153936 -1.441777314830591 1.7888849337131298 -1.9179043526867392 -1.5707972617534711 1.5377210195762268 10240.040999999963
4.679313752157106 -1.4475685012111865 1.7792635078258225 -1.9024917700400081 -1.5707973298461655 1.5377210803415962 10240.090999999962
4.679313789683828 -1.4510735517437556 1.7734402478383051 -1.8931634774478028 -1.5707973710585041 1.5377211171191536 10240.140999999961
4.679313805721838 -1.4525715252642075 1.7709515278660959 -1.889176791617083 -1.5707973886716573 1.537721132836989 10240.19099999996
4.679313808315039 -1.4528137340230671 1.7705491243740523 -1.8885321806050466 -1.5707973915195448 1.5377211353784208 10240.24099999996
4.679313808315039 -1.4528137340230671 1.7705491243740523 -1.8885321806050466 -1.5707973915195448 1.5377211353784208 10240.29099999996
4.679175303241186 -1.452804680231367 1.7705382050411869 -1.888530315025606 -1.570797391431922 1.5377120919472038 10240.340999999959
4.678239892766243 -1.4527435343732507 1.7704644600291277 -1.8885177156131665 -1.5707973908401507 1.5376510160598424 10240.390999999958
4.675802587789584 -1.4525842127617428 1.7702723100696065 -1.8884848865916144 -1.5707973892982319 1.537491876764092 10240.440999999957
4.671254777467377 -1.4522869317582143 1.7699137740728024 -1.888423630341571 -1.5707973864211384 1.537194935946749 10240.490999999956
4.664079945734504 -1.4518179277702334 1.7693481314305213 -1.8883269897045367 -1.5707973818821053 1.536726468651916 10240.540999999956
4.653849387826482 -1.4511491772494165 1.7685415843193755 -1.8881891902870374 -1.5707973754099198 1.5360584833992663 10240.590999999955
4.640217926801385 -1.45025811668928 1.7674669200039654 -1.888005582764768 -1.570797366786212 1.5351684425023087 10240.640999999954
4.622919630061759 -1.449127362623092 1.7661031731400583 -1.887772585186739 -1.570797355842744 1.5340389823866518 10240.690999999953
4.6017635258765495 -1.4477444316217218 1.7644352880777687 -1.8874876252794213 -1.5707973424587007 1.5326576339082703 10240.740999999953
4.576629319903017 -1.4461014602914937 1.7624537811647394 -1.8871490827508903 -1.5707973265579804 1.5310165426717683 10240.790999999952
4.547463111708656 -1.444194925272036 1.7601544030493201 -1.8867562315949724 -1.5707973081064834 1.5291121893486455 10240.840999999951
4.514273111293121 -1.4420253632341342 1.7575378009837492 -1.8863091823953895 -1.5707972871094042 1.5269451099955607 10240.89099999995
4.4771253556101405 -1.4395970908775806 1.7546091811273326 -1.885808824629904 -1.5707972636085195 1.5245196163725974 10240.94099999995
4.436139425089443 -1.4369179249290265 1.7513779708496247 -1.8852567689744646 -1.5707972376794799 1.5218435162615287 10240.990999999949
4.3914841601586705 -1.4339989021398338 1.747857481033608 -1.88465528960735 -1.5707972094290994 1.5189278337840824 10241.040999999948
4.343373377765305 -1.4308539992839258 1.744064568378874 -1.8840072665133163 -1.5707971789926456 1.5157865297202044 10241.090999999948
4.292061587898585 -1.427499853155638 1.740019297704802 -1.8833161277877395 -1.5707971465311297 1.5124362218263259 10241.140999999947
4.2378397101114285 -1.4239554805675705 1.7357446042537408 -1.8825857919407631 -1.5707971122285973 1.508895905153626 10241.190999999946
4.1810307900423505 -1.4202419983484385 1.7312659559941874 -1.8818206102014412 -1.5707970762894172 1.5051866723662972 10241.240999999945
4.1219857159373845 -1.4163823433409235 1.726611015923969 -1.8810253088218853 -1.570797038935573 1.5013314340598116 10241.290999999945
4.061078935172003 -1.4124009923995255 1.7218093043734208 -1.8802049313814082 -1.5707970004039522 1.497354639079184 10241.340999999944
3.998704170773037 -1.4083236823884135 1.716891861308568 -1.8793647810906695 -1.570796960943637 1.4932819948372373 10241.390999999943
3.9352701379405968 -1.4041771301792767 1.7118909086343048 -1.878510363095821 -1.570796920813194 1.4891401876328678 10241.440999999943
3.8711962605699926 -1.3999887526491763 1.7068395124975762 -1.8776473267826521 -1.5707968802779644 1.4849566029693093 10241.490999999942
3.8069083877736536 -1.3957863866783968 1.7017712455905551 -1.8767814080807337 -1.5707968396073544 1.4807590458723985 10241.540999999941
3.74283451040305 -1.3915980091482965 1.6967198494538265 -1.8759183717675647 -1.5707967990721248 1.47657546120884 10241.59099999994
3.6794004775706095 -1.3874514569391596 1.6917188967795633 -1.8750639537727163 -1.5707967589416818 1.4724336540044705 10241.64099999994
3.6170257131716435 -1.3833741469280476 1.6868014537147107 -1.8742238034819776 -1.5707967194813666 1.4683610097625237 10241.690999999939
3.556118932406261 -1.3793927959866497 1.6819997421641624 -1.8734034260415005 -1.5707966809497458 1.4643842147818962 10241.740999999938
3.4970738583012957 -1.3755331409791347 1.6773448020939439 -1.8726081246619446 -1.5707966435959015 1.4605289764754106 10241.790999999937
3.4402649382322172 -1.3718196587600024 1.6728661538343905 -1.8718429429226227 -1.5707966076567215 1.4568197436880819 10241.840999999937
3.3860430604450613 -1.3682752861719352 1.6685914603833294 -1.8711126070756463 -1.570796573354189 1.453279427015382 10241.890999999936
3.334731270578342 -1.3649211400436472 1.6645461897092573 -1.8704214683500695 -1.5707965408926732 1.4499291191215034 10241.940999999935
3.286620488184976 -1.3617762371877393 1.6607532770545232 -1.8697734452560357 -1.5707965104562194 1.4467878150576254 10241.990999999935
3.241965223254203 -1.3588572143985467 1.6572327872385064 -1.8691719658889212 -1.570796482205839 1.443872132580179 10242.040999999934
3.2009792927335043 -1.3561780484499928 1.6540015769607987 -1.8686199102334817 -1.5707964562767993 1.4411960324691104 10242.090999999933
3.163831537050526 -1.353749776093439 1.651072957104382 -1.8681195524679963 -1.5707964327759145 1.4387705388461471 10242.140999999932
3.1306415366349905 -1.351580214055537 1.6484563550388112 -1.8676725032684134 -1.5707964117788353 1.4366034594930621 10242.190999999932
3.101475328440629 -1.3496736790360795 1.646156976923392 -1.8672796521124955 -1.5707963933273383 1.4346991061699392 10242.24099999993
3.076341122467098 -1.3480307077058513 1.6441754700103623 -1.8669411095839645 -1.570796377426618 1.4330580149334375 10242.29099999993
4.679318904876709 -1.452823096220829 1.770564381276266 -1.8884936771788539 -1.570857350026266 1.5377216339111328 10243.541
4.678480402368865 -1.4531615285994062 1.7709402142965331 -1.8885313645332118 -1.57085695179567 1.5368831615357563 10243.590999999999
4.673549114071069 -1.4551518716364988 1.7731505129628242 -1.8887530063384321 -1.570854609775391 1.53195205044898 10243.640999999998
4.662753892916325 -1.459508987254506 1.7779891396014884 -1.8892382086141863 -1.5708494827932853 1.5211572172318357 10243.690999999997
4.646334083102875 -1.4661362724909413 1.7853488155197759 -1.8899762137902485 -1.570841684521264 1.5047379974814812 10243.740999999996
4.62596509401842 -1.4743575066084005 1.7944785898684372 -1.8908917188750376 -1.5708320106627065 1.4843697403780214 10243.790999999996
4.6041839741643305 -1.483148698204529 1.804241308504323 -1.8918706936241594 -1.5708216661398722 1.4625894032513302 10243.840999999995
4.583814985079875 -1.4913699323219882 1.8133710828529843 -1.8927861987089485 -1.5708119922813146 1.4422211461478707 10243.890999999994
4.567395175266425 -1.4979972175584235 1.8207307587712718 -1.8935242038850106 -1.5708041940092934 1.425801926397516 10243.940999999993
4.556599954111681 -1.5023543331764306 1.8255693854099362 -1.8940094061607649 -1.5707990670271876 1.4150070931803715 10243.990999999993
4.551668665813885 -1.5043446762135233 1.827779684076227 -1.8942310479659852 -1.5707967250069086 1.4100759820935953 10244.040999999992
4.550830163306041 -1.5046831085921004 1.8281555170964943 -1.8942687353203431 -1.5707963267763128 1.4092375097182188 10244.090999999991
4.550830163306041 -1.5046831085921004 1.8281555170964943 -1.8942687353203431 -1.5707963267763128 1.4092375097182188 10244.14099999999
4.550830163288899 -1.5044317259580535 1.8285655109525163 -1.8949301118132962 -1.570796326774864 1.4092375097011915 10244.19099999999
4.55083016318288 -1.5028770153395092 1.8311011745790515 -1.8990204860762125 -1.570796326765904 1.409237509595885 10244.240999999989
4.550830162934811 -1.4992392078568542 1.8370342762148681 -1.9085913952364206 -1.5707963267449385 1.4092375093494816 10244.290999999988
4.550830162524941 -1.4932286750690886 1.8468371869200806 -1.9244048387983568 -1.5707963267102987 1.4092375089423639 10244.340999999988
4.550830161960867 -1.484956812530443 1.8603282255177218 -1.9461677400295456 -1.5707963266626261 1.4092375083820772 10244.390999999987
4.550830161271455 -1.4748469233469939 1.8768170035353173 -1.97276640734658 -1.570796326604361 1.4092375076972936 10244.440999999986
4.550830160500762 -1.4635451017332777 1.8952497701464592 -2.0025009957011024 -1.5707963265392262 1.4092375069317757 10244.490999999985
4.550830159701963 -1.4518311165689088 1.9143547571123785 -2.033319967965784 -1.5707963264717162 1.4092375061383402 10244.540999999985
4.55083015893127 -1.4405292949551927 1.9327875237235201 -2.0630545563203064 -1.5707963264065814 1.4092375053728223 10244.590999999984
4.550830158241858 -1.4304194057717434 1.9492763017411157 -2.089653223637341 -1.5707963263483162 1.4092375046880388 10244.640999999983
4.550830157677784 -1.4221475432330979 1.9627673403387569 -2.1114161248685295 -1.5707963263006437 1.409237504127752 10244.690999999983
4.550830157267915 -1.4161370104453324 1.9725702510439698 -2.127229568430466 -1.5707963262660039 1.4092375037206344 10244.740999999982
4.5508301570198455 -1.4124992029626768 1.9785033526797864 -2.136800477590674 -1.5707963262450384 1.409237503474231 10244.790999999981
4.550830156913826 -1.410944492344133 1.9810390163063214 -2.1408908518535905 -1.5707963262360785 1.4092375033689244 10244.84099999998
4.5508301568966845 -1.410693109710086 1.9814490101623434 -2.1415522283465434 -1.5707963262346296 1.4092375033518971 10244.89099999998
4.5508301568966845 -1.410693109710086 1.9814490101623434 -2.1415522283465434 -1.5707963262346296 1.4092375033518971 10244.940999999979
4.5508301568966845 -1.410693109710086 1.9814490101623434 -2.1415522283465434 -1.5707963262346296 1.4092375033518971 10244.990999999978
4.5508301568966845 -1.410693109710086 1.9814490101623434 -2.1415522283465434 -1.5707963262346296 1.4092375033518971 10245.040999999977
4.5508301568966845 -1.410693109710086 1.9814490101623434 -2.1415522283465434 -1.5707963262346296 1.4092375033518971 10245.090999999977
4.5508301568966845 -1.410693109710086 1.9814490101623434 -2.1415522283465434 -1.5707963262346296 1.4092375033518971 10245.140999999976
4.5508301568966845 -1.410693109710086 1.9814490101623434 -2.1415522283465434 -1.5707963262346296 1.4092375033518971 10245.190999999975
4.5508301568966845 -1.410693109710086 1.9814490101623434 -2.1415522283465434 -1.5707963262346296 1.4092375033518971 10245.240999999975
4.5508301568966845 -1.410693109710086 1.9814490101623434 -2.1415522283465434 -1.5707963262346296 1.4092375033518971 10245.290999999974
4.5508301568966845 -1.410693109710086 1.9814490101623434 -2.1415522283465434 -1.5707963262346296 1.4092375033518971 10245.340999999973
4.5508301568966845 -1.410693109710086 1.9814490101623434 -2.1415522283465434 -1.5707963262346296 1.4092375033518971 10245.390999999972
4.5508301568966845 -1.410693109710086 1.9814490101623434 -2.1415522283465434 -1.5707963262346296 1.4092375033518971 10245.440999999972
4.5508301568966845 -1.410693109710086 1.9814490101623434 -2.1415522283465434 -1.5707963262346296 1.4092375033518971 10245.49099999997
4.5508301568966845 -1.410693109710086 1.9814490101623434 -2.1415522283465434 -1.5707963262346296 1.4092375033518971 10245.54099999997
4.5508301568966845 -1.410693109710086 1.9814490101623434 -2.1415522283465434 -1.5707963262346296 1.4092375033518971 10245.59099999997
4.550830156913826 -1.410944492344133 1.9810390163063214 -2.1408908518535905 -1.5707963262360785 1.4092375033689244 10245.640999999969
4.5508301570198455 -1.4124992029626773 1.9785033526797862 -2.136800477590674 -1.5707963262450384 1.409237503474231 10245.690999999968
4.550830157267915 -1.4161370104453324 1.9725702510439695 -2.1272295684304656 -1.5707963262660039 1.4092375037206344 10245.740999999967
4.550830157677784 -1.4221475432330979 1.962767340338757 -2.1114161248685295 -1.5707963263006437 1.409237504127752 10245.790999999967
4.550830158241858 -1.4304194057717434 1.9492763017411159 -2.089653223637341 -1.5707963263483162 1.4092375046880388 10245.840999999966
4.55083015893127 -1.4405292949551927 1.9327875237235204 -2.0630545563203064 -1.5707963264065814 1.4092375053728223 10245.890999999965
4.550830159701963 -1.4518311165689088 1.9143547571123785 -2.033319967965784 -1.5707963264717162 1.4092375061383402 10245.940999999964
4.550830160500762 -1.4635451017332777 1.8952497701464592 -2.0025009957011024 -1.5707963265392262 1.4092375069317757 10245.990999999964
4.550830161271455 -1.4748469233469939 1.8768170035353176 -1.97276640734658 -1.570796326604361 1.4092375076972936 10246.040999999963
4.550830161960867 -1.484956812530443 1.860328225517722 -1.9461677400295456 -1.5707963266626261 1.4092375083820772 10246.090999999962
4.550830162524941 -1.4932286750690884 1.8468371869200808 -1.924404838798357 -1.5707963267102987 1.4092375089423639 10246.140999999961
4.550830162934811 -1.4992392078568542 1.837034276214868 -1.9085913952364204 -1.5707963267449385 1.4092375093494816 10246.19099999996
4.55083016318288 -1.5028770153395095 1.8311011745790513 -1.8990204860762123 -1.570796326765904 1.409237509595885 10246.24099999996
4.550830163288899 -1.5044317259580535 1.8285655109525163 -1.894930111813296 -1.570796326774864 1.4092375097011915 10246.29099999996
4.550830163306041 -1.5046831085921004 1.8281555170964943 -1.8942687353203431 -1.5707963267763128 1.4092375097182188 10246.340999999959
4.550830163306041 -1.5046831085921004 1.8281555170964943 -1.8942687353203431 -1.5707963267763128 1.4092375097182188 10246.390999999958
4.550685404657931 -1.5046680248150421 1.8281377870472875 -1.8942660890481045 -1.570796326776461 1.4092392591832381 10246.440999999957
4.549709287030792 -1.5045663138577858 1.828018232092978 -1.894248245050443 -1.5707963267774607 1.4092510559474782 10246.490999999956
4.547170539351987 -1.5043017776487633 1.8277072861021426 -1.894201835267048 -1.5707963267800606 1.4092817377085682 10246.540999999956
4.542442647870774 -1.503809133775742 1.8271282136273703 -1.8941154066623507 -1.5707963267849026 1.4093388761308294 10246.590999999955
4.534998983724738 -1.503033507780741 1.8262165131292627 -1.8939793321546055 -1.5707963267925256 1.4094288357305444 10246.640999999954
4.524407930506207 -1.5019299254549443 1.8249193202004335 -1.893785721544973 -1.570796326803372 1.4095568327612285 10246.690999999953
4.510328011828679 -1.5004628051336162 1.823194810789507 -1.8935283324466003 -1.5707963268177916 1.409726994098898 10246.740999999953
4.492503018893244 -1.4986054499910155 1.8210116044251183 -1.8932024812137043 -1.5707963268360463 1.4099424161273424 10246.790999999952
4.470757138055012 -1.4963395403353106 1.8183481674399125 -1.892804953870652 -1.5707963268583165 1.4102052236233928 10246.840999999951
4.444990078389525 -1.4936546259034933 1.8151922161945435 -1.8923339170410434 -1.5707963268847047 1.4105166286421937 10246.89099999995
4.415172199259192 -1.490547618156294 1.811540120301675 -1.8917888288767923 -1.5707963269152416 1.4108769894024717 10246.94099999995
4.38133963787971 -1.4870222825730963 1.8073963058499773 -1.891170349987209 -1.57079632694989 1.4112858691718067 10246.990999999949
4.343589436886479 -1.4830887309468512 1.8027726586281299 -1.8904802543680819 -1.5707963269885503 1.4117420951519009 10247.040999999948
4.3020746719010345 -1.478762913678992 1.7976879273488175 -1.8897213403307582 -1.570796327031066 1.4122438173638505 10247.090999999948
4.256999579097468 -1.4740661120743486 1.7921671268727326 -1.8888973414312271 -1.570796327077228 1.4127885675334149 10247.140999999947
4.20861468276885 -1.4690244306360625 1.7862409414325724 -1.8880128373992011 -1.5707963271267795 1.4133733179762864 10247.190999999946
4.1572119228936515 -1.4636682893605013 1.77994512785704 -1.8870731650671972 -1.5707963271794216 1.4139945404833618 10247.240999999945
4.103119782702168 -1.4580319160321729 1.7733199187948423 -1.8860843292996194 -1.570796327234818 1.414648265206011 10247.290999999945
4.046698416242949 -1.4521528385186402 1.7664094259386904 -1.8850529139218402 -1.5707963272925998 1.4153301395413485 10247.340999999944
3.988334775949209 -1.4460713770654365 1.7592610432492988 -1.8839859926492817 -1.5707963273523706 1.4160354870175025 10247.390999999943
3.9284377402052626 -1.439830136590979 1.7519248501793847 -1.8828910400164993 -1.570796327413712 1.4167593661788858 10247.440999999943
3.867433240912941 -1.4334734989814835 1.7444530148976671 -1.8817758423062612 -1.5707963274761874 1.417496629471465 10247.490999999942
3.805759391058017 -1.4270471153858801 1.7368991975128671 -1.8806484084786312 -1.5707963275393482 1.418241982128032 10247.540999999941
3.7438616122766306 -1.4205973985107263 1.729317953297706 -1.879516881100051 -1.5707963276027386 1.4189900410534737 10247.59099999994
3.682187762421707 -1.414171014915123 1.7217641359129061 -1.8783894472724212 -1.5707963276658994 1.4197353937100408 10247.64099999994
3.621183263129385 -1.4078143773056275 1.7142923006311885 -1.877274249562183 -1.5707963277283747 1.42047265700262 10247.690999999939
3.5612862273854393 -1.40157313683117 1.7069561075612745 -1.8761792969294007 -1.5707963277897161 1.4211965361640033 10247.740999999938
3.5029225870916987 -1.3954916753779663 1.6998077248718828 -1.8751123756568422 -1.570796327849487 1.4219018836401573 10247.790999999937
3.446501220632479 -1.3896125978644336 1.692897232015731 -1.874080960279063 -1.5707963279072688 1.4225837579754947 10247.840999999937
3.3924090804409968 -1.3839762245361051 1.6862720229535333 -1.873092124511485 -1.570796327962665 1.423237482698144 10247.890999999936
3.341006320565797 -1.378620083260544 1.6799762093780006 -1.8721524521794812 -1.5707963280153072 1.4238587052052194 10247.940999999935
3.2926214242371783 -1.3735784018222579 1.6740500239378406 -1.8712679481474552 -1.5707963280648587 1.424443455648091 10247.990999999935
3.247546331433613 -1.3688816002176145 1.6685292234617557 -1.8704439492479241 -1.5707963281110207 1.4249882058176553 10248.040999999934
3.2060315664481696 -1.3645557829497552 1.6634444921824436 -1.8696850352106005 -1.5707963281535364 1.425489928029605 10248.090999999933
3.1682813654549378 -1.3606222313235101 1.6588208449605957 -1.8689949395914733 -1.5707963281921968 1.4259461540096992 10248.140999999932
3.134448804075454 -1.3570968957403124 1.6546770305088983 -1.86837646070189 -1.5707963282268451 1.426355033779034 10248.190999999932
3.1046309249451243 -1.3539898879931132 1.6510249346160297 -1.867831372537639 -1.570796328257382 1.426715394539312 10248.24099999993
3.0788638652796365 -1.3513049735612959 1.6478689833706608 -1.8673603357080304 -1.5707963282837702 1.427026799558113 10248.29099999993
3.057117984441402 -1.349039063905591 1.645205546385455 -1.866962808364978 -1.5707963283060404 1.4272896070541634 10248.34099999993
3.0392929915059694 -1.3471817087629903 1.6430223400210662 -1.866636957132082 -1.5707963283242952 1.427505029082608 10248.390999999929
4.550865650177002 -1.5046830934337159 1.8281081358539026 -1.8942419491209925 -1.5707686583148401 1.4092216491699219 10249.591
4.550015663321839 -1.5048963097587997 1.828334446948783 -1.8942549095891437 -1.5707688388755046 1.4083719974020414 10249.641
4.5450168348234925 -1.5061502489646452 1.8296653973554957 -1.8943311309532176 -1.570769900764626 1.4033751395740028 10249.690999999999
4.534073759526433 -1.5088952823563768 1.8325790181212667 -1.8944979892734382 -1.5707722253758059 1.3924363783264393 10249.740999999998
4.5174290597489755 -1.513070548946816 1.8370107104559303 -1.8947517850822078 -1.5707757611693682 1.3757982403295355 10249.790999999997
4.496781091719324 -1.5182500218257091 1.842508282828327 -1.8950666221063417 -1.5707801473675822 1.3551584122745843 10249.840999999997
4.474701652011614 -1.5237885745289586 1.848386988062701 -1.8954032859893026 -1.5707848376498839 1.3330876768655433 10249.890999999996
4.454053683981963 -1.5289680474078517 1.8538845604350978 -1.8957181230134366 -1.5707892238480978 1.3124478488105922 10249.940999999995
4.437408984204505 -1.5331433139982908 1.8583162527697614 -1.8959719188222062 -1.5707927596416602 1.2958097108136883 10249.990999999995
4.426465908907446 -1.5358883473900224 1.8612298735355324 -1.8961387771424267 -1.57079508425284 1.2848709495661246 10250.040999999994
4.4214670804091 -1.537142286595868 1.862560823942245 -1.8962149985065007 -1.5707961461419615 1.279874091738086 10250.090999999993
4.420617093553936 -1.5373555029209518 1.8627871350371255 -1.8962279589746518 -1.570796326702626 1.2790244399702058 10250.140999999992
4.420617093553936 -1.5373555029209518 1.8627871350371255 -1.8962279589746518 -1.570796326702626 1.2790244399702058 10250.190999999992
4.420617093508544 -1.5370986896781664 1.8632025402836998 -1.8969001774701757 -1.5707963266981555 1.2790244399251052 10250.24099999999
4.420617093227808 -1.5355103927098617 1.8657716714024684 -1.9010576055953725 -1.5707963266705074 1.2790244396461745 10250.29099999999
4.420617092570923 -1.5317939978212822 1.8717830823340607 -1.910785411504748 -1.5707963266058145 1.2790244389935155 10250.34099999999
4.4206170914855925 -1.5256536197400903 1.881715378827853 -1.926858086227118 -1.5707963264989264 1.2790244379151656 10250.390999999989
4.42061708999193 -1.5172030604941085 1.8953844817494696 -1.9489777485975532 -1.5707963263518239 1.2790244364311107 10250.440999999988
4.420617088166373 -1.5068747677890606 1.9120908903882836 -1.9760124501893226 -1.570796326172035 1.2790244346172954 10250.490999999987
4.420617086125587 -1.4953287933863155 1.9307669457649166 -2.0062344802458356 -1.5707963259710493 1.2790244325896354 10250.540999999987
4.420617084010376 -1.4833617514806283 1.950124093938739 -2.037558670612587 -1.570796325762734 1.2790244304880294 10250.590999999986
4.420617081969589 -1.4718157770778832 1.968800149315372 -2.0677807006691 -1.5707963255617483 1.2790244284603693 10250.640999999985
4.420617080144032 -1.4614874843728356 1.985506557954186 -2.094815402260869 -1.5707963253819595 1.279024426646554 10250.690999999984
4.42061707865037 -1.4530369251268536 1.9991756608758027 -2.1169350646313045 -1.570796325234857 1.2790244251624991 10250.740999999984
4.420617077565039 -1.4468965470456616 2.0091079573695954 -2.133007739353675 -1.5707963251279689 1.2790244240841493 10250.790999999983
4.4206170769081545 -1.4431801521570822 2.015119368301187 -2.1427355452630503 -1.570796325063276 1.2790244234314903 10250.840999999982
4.420617076627418 -1.4415918551887774 2.0176884994199558 -2.1468929733882476 -1.5707963250356278 1.2790244231525596 10250.890999999981
4.420617076582026 -1.441335041945992 2.01810390466653 -2.147565191883771 -1.5707963250311574 1.279024423107459 10250.94099999998
4.420617076582026 -1.441335041945992 2.01810390466653 -2.147565191883771 -1.5707963250311574 1.279024423107459 10250.99099999998
4.420617076582026 -1.441335041945992 2.01810390466653 -2.147565191883771 -1.5707963250311574 1.279024423107459 10251.04099999998
4.420617076582026 -1.441335041945992 2.01810390466653 -2.147565191883771 -1.5707963250311574 1.279024423107459 10251.090999999979
4.420617076582026 -1.441335041945992 2.01810390466653 -2.147565191883771 -1.5707963250311574 1.279024423107459 10251.140999999978
4.420617076582026 -1.441335041945992 2.01810390466653 -2.147565191883771 -1.5707963250311574 1.279024423107459 10251.190999999977
4.420617076582026 -1.441335041945992 2.01810390466653 -2.147565191883771 -1.5707963250311574 1.279024423107459 10251.240999999976
4.420617076582026 -1.441335041945992 2.01810390466653 -2.147565191883771 -1.5707963250311574 1.279024423107459 10251.290999999976
4.420617076582026 -1.441335041945992 2.01810390466653 -2.147565191883771 -1.5707963250311574 1.279024423107459 10251.340999999975
4.420617076582026 -1.441335041945992 2.01810390466653 -2.147565191883771 -1.5707963250311574 1.279024423107459 10251.390999999974
4.420617076582026 -1.441335041945992 2.01810390466653 -2.147565191883771 -1.5707963250311574 1.279024423107459 10251.440999999973
4.420617076582026 -1.441335041945992 2.01810390466653 -2.147565191883771 -1.5707963250311574 1.279024423107459 10251.490999999973
4.420617076582026 -1.441335041945992 2.01810390466653 -2.147565191883771 -1.5707963250311574 1.279024423107459 10251.540999999972
4.420617076582026 -1.441335041945992 2.01810390466653 -2.147565191883771 -1.5707963250311574 1.279024423107459 10251.590999999971
4.420617076582026 -1.441335041945992 2.01810390466653 -2.147565191883771 -1.5707963250311574 1.279024423107459 10251.64099999997
4.420617076627418 -1.4415918551887774 2.0176884994199558 -2.146892973388247 -1.5707963250356278 1.2790244231525596 10251.69099999997
4.4206170769081545 -1.4431801521570822 2.015119368301187 -2.14273554526305 -1.570796325063276 1.2790244234314903 10251.740999999969
4.420617077565039 -1.4468965470456616 2.009107957369595 -2.133007739353675 -1.5707963251279689 1.2790244240841493 10251.790999999968
4.42061707865037 -1.4530369251268536 1.9991756608758027 -2.1169350646313045 -1.570796325234857 1.2790244251624991 10251.840999999968
4.420617080144032 -1.4614874843728354 1.985506557954186 -2.094815402260869 -1.5707963253819595 1.279024426646554 10251.890999999967
4.420617081969589 -1.4718157770778832 1.968800149315372 -2.0677807006691 -1.5707963255617483 1.2790244284603693 10251.940999999966
4.420617084010376 -1.4833617514806283 1.950124093938739 -2.037558670612587 -1.570796325762734 1.2790244304880294 10251.990999999965
4.420617086125587 -1.4953287933863155 1.9307669457649166 -2.0062344802458356 -1.5707963259710493 1.2790244325896354 10252.040999999965
4.420617088166373 -1.5068747677890606 1.9120908903882836 -1.9760124501893226 -1.570796326172035 1.2790244346172954 10252.090999999964
4.42061708999193 -1.5172030604941082 1.8953844817494696 -1.9489777485975535 -1.5707963263518239 1.2790244364311107 10252.140999999963
4.4206170914855925 -1.5256536197400903 1.881715378827853 -1.926858086227118 -1.5707963264989264 1.2790244379151656 10252.190999999963
4.420617092570923 -1.5317939978212822 1.8717830823340604 -1.9107854115047478 -1.5707963266058145 1.2790244389935155 10252.240999999962
4.420617093227808 -1.5355103927098617 1.8657716714024681 -1.9010576055953723 -1.5707963266705074 1.2790244396461745 10252.290999999961
4.420617093508544 -1.5370986896781664 1.8632025402836996 -1.8969001774701753 -1.5707963266981555 1.2790244399251052 10252.34099999996
4.420617093553936 -1.5373555029209518 1.8627871350371255 -1.8962279589746518 -1.570796326702626 1.2790244399702058 10252.39099999996
4.420617093553936 -1.5373555029209518 1.8627871350371255 -1.8962279589746518 -1.570796326702626 1.2790244399702058 10252.440999999959
4.420455819658298 -1.537333453325698 1.8627616450330144 -1.89622451856568 -1.5707963267028147 1.2790413372416032 10252.490999999958
4.419371182444854 -1.5371851601908468 1.8625902136496506 -1.896201380316397 -1.5707963267040832 1.2791549787537073 10252.540999999957
4.416558795381848 -1.536800646651372 1.862145704279338 -1.896141384483562 -1.570796326707373 1.2794496431027642 10252.590999999957
4.41133842162731 -1.5360869097635366 1.8613206026846998 -1.896030019773052 -1.5707963267134795 1.2799966012560173 10252.640999999956
4.4031477665445715 -1.5349670718088295 1.860026035880163 -1.8958552909174058 -1.5707963267230602 1.2808547669331574 10252.690999999955
4.391536270217773 -1.5333795315979015 1.8581907910134428 -1.8956075862533677 -1.5707963267366425 1.282071346987773 10252.740999999955
4.376158899967376 -1.5312771157744998 1.8557603342470255 -1.895279545299432 -1.5707963267546299 1.2836824917888006 10252.790999999954
4.356769942865675 -1.5286262301194036 1.8526958296396534 -1.8948659263333867 -1.5707963267773097 1.2857139456019744 10252.840999999953
4.333216798252302 -1.5254060108543606 1.8489731580278086 -1.8943634739698587 -1.5707963268048604 1.2881816969712767 10252.890999999952
4.305433770249745 -1.5216074759460212 1.8445819359071969 -1.8937707867378564 -1.570796326837359 1.2910926291003884 10252.940999999952
4.273435860278854 -1.5172326764098745 1.839524534314232 -1.8930881846583147 -1.5707963268747878 1.294445170234138 10252.99099999995
4.23731255957435 -1.512293847614184 1.8338150977075192 -1.8923175768216394 -1.5707963269170422 1.298229944039953 10253.04099999995
4.197221641700341 -1.5068125605839229 1.82747856284934 -1.8914623289652506 -1.5707963269639376 1.3024304199893089 10253.09099999995
4.153382955065828 -1.5008188733047096 1.8205496776871353 -1.890527131051127 -1.5707963270152168 1.3070235637391807 10253.140999999949
4.106072215440217 -1.494350482026743 1.81307202023499 -1.8895178648433506 -1.5707963270705574 1.3119804875134917 10253.190999999948
4.055614798468831 -1.4874518725687382 1.805097017455117 -1.8884414714856501 -1.5707963271295788 1.3172671004845642 10253.240999999947
4.002379532188417 -1.4801734716218622 1.7966829641393414 -1.8873058190789453 -1.5707963271918495 1.3228447591545698 10253.290999999947
3.9467724895426604 -1.4725707980536682 1.787894041790583 -1.8861195702588918 -1.5707963272568946 1.3286709177369789 10253.340999999946
3.8892307808976923 -1.464703614212033 1.7787993375043434 -1.8848920497734236 -1.5707963273242027 1.334699778538012 10253.390999999945
3.830216346557603 -1.4566350772290915 1.7694718628501862 -1.8836331120602992 -1.5707963273932335 1.3408829423380881 10253.440999999944
3.7702097492799505 -1.448430890325171 1.7599875727532244 -1.882353008824644 -1.5707963274634247 1.3471700587732767 10253.490999999944
3.7097039667912712 -1.440158454112729 1.7504243843756022 -1.8810622566164956 -1.5707963275341998 1.3535094767167464 10253.540999999943
3.649198184302592 -1.431886017900287 1.74086119599798 -1.879771504408347 -1.5707963276049752 1.359848894660216 10253.590999999942
3.5891915870249393 -1.4236818309963666 1.7313769059010182 -1.8784914011726919 -1.5707963276751664 1.3661360110954046 10253.640999999941
3.5301771526848498 -1.4156132940134247 1.722049431246861 -1.8772324634595674 -1.5707963277441972 1.3723191748954808 10253.69099999994
3.4726354440398817 -1.4077461101717896 1.7129547269606213 -1.8760049429740993 -1.5707963278115054 1.3783480356965139 10253.74099999994
3.417028401394125 -1.4001434366035959 1.704165804611863 -1.8748186941540457 -1.5707963278765504 1.384174194278923 10253.79099999994
3.3637931351137116 -1.3928650356567196 1.6957517512960876 -1.8736830417473411 -1.570796327938821 1.3897518529489283 10253.840999999939
3.313335718142324 -1.3859664261987148 1.6877767485162143 -1.8726066483896404 -1.5707963279978425 1.395038465920001 10253.890999999938
3.266024978516714 -1.3794980349207482 1.6802990910640694 -1.871597382181864 -1.5707963280531831 1.399995389694312 10253.940999999937
3.2221862918822017 -1.3735043476415347 1.6733702059018645 -1.8706621842677404 -1.5707963281044623 1.4045885334441839 10253.990999999936
3.1820953740081928 -1.368023060611274 1.6670336710436855 -1.8698069364113516 -1.5707963281513577 1.4087890093935398 10254.040999999936
3.145972073303689 -1.3630842318155836 1.6613242344369725 -1.8690363285746763 -1.5707963281936121 1.4125737831993548 10254.090999999935
3.113974163332797 -1.3587094322794369 1.6562668328440073 -1.8683537264951346 -1.5707963282310409 1.4159263243331044 10254.140999999934
3.08619113533024 -1.3549108973710973 1.6518756107233958 -1.8677610392631323 -1.5707963282635395 1.4188372564622158 10254.190999999933
3.0626379907168646 -1.351690678106054 1.648152939111551 -1.8672585868996041 -1.5707963282910902 1.4213050078315186 10254.240999999933
3.043249033615165 -1.349039792450958 1.645088434504179 -1.866844967933559 -1.57079632831377 1.4233364616446922 10254.290999999932
3.027871663364767 -1.3469373766275563 1.6426579777377617 -1.8665169269796233 -1.5707963283317574 1.4249476064457198 10254.340999999931
3.01626016703797 -1.3453498364166283 1.6408227328710414 -1.8662692223155852 -1.5707963283453397 1.4261641865003356 10254.39099999993
3.008069511955231 -1.3442299984619215 1.6395281660665046 -1.866094493459939 -1.5707963283549204 1.4270223521774756 10254.44099999993
4.420589923858643 -1.5374086697450657 1.8627937475787562 -1.8961979351439417 -1.5707486311541956 1.2790378332138062 10255.541
4.420576388311152 -1.5374098686380353 1.8627949917305489 -1.8961979786486558 -1.5707486362153473 1.279190976694849 10255.590999999999
4.420485272737366 -1.5374179390778098 1.8628033668335544 -1.8961982715039676 -1.5707486702848767 1.2802218737572952 10255.640999999998
4.4202487646042785 -1.5374388874685723 1.8628251060367882 -1.8961990316666946 -1.5707487587189444 1.28289776690614 10255.690999999997
4.4198092543654965 -1.5374778164986482 1.86286550465767 -1.8962004443001514 -1.5707489230586553 1.2878704603245266 10255.740999999996
4.419118837754584 -1.5375389692242039 1.8629289659299086 -1.8962026633738334 -1.5707491812161591 1.2956819510113966 10255.790999999996
4.418138818078393 -1.5376257731529477 1.8630190467513819 -1.8962058132630986 -1.5707495476607514 1.306770059919142 10255.840999999995
4.416839208510401 -1.5377408843278306 1.8631385034320214 -1.8962099903488516 -1.5707500336049725 1.3214740630912563 10255.890999999994
4.415198234384047 -1.5378862314107464 1.8632893374416943 -1.8962152646172268 -1.5707506471907087 1.3400403227999858 10255.940999999993
4.413201835486062 -1.5380630597662326 1.8634728411580868 -1.8962216812592705 -1.5707513936752924 1.3626279186839807 10255.990999999993
4.410843168349814 -1.53827197554517 1.8636896436145853 -1.8962292622706247 -1.5707522756176022 1.3893142788859472 10256.040999999992
4.408122108548636 -1.5385129897684835 1.8639397562481608 -1.8962380080512105 -1.570753293064163 1.4201008111902982 10256.090999999991
4.405044752989167 -1.5387855624108429 1.8642226186472501 -1.8962478990049103 -1.570754443735247 1.4549185341608046 10256.14099999999
4.401622922204683 -1.539088646484363 1.8645371442996401 -1.896258897139251 -1.5707557232109726 1.4936337082782472 10256.19099999999
4.3978736626484345 -1.539420732122304 1.8648817663403483 -1.896270947665088 -1.5707571251174062 1.5360534670780668 10256.240999999989
4.393818748986985 -1.5397798906627722 1.865254483299508 -1.8962839805962872 -1.5707586413126613 1.5819314482880182 10256.290999999988
4.389484186393543 -1.5401638187324198 1.8656529048502486 -1.8962979123494084 -1.5707602620729997 1.6309734249658179 10256.340999999988
4.384899712841299 -1.5405698823301464 1.8660742975565803 -1.8963126473433882 -1.5707619762789304 1.6828429366367983 10256.390999999987
4.380098301396762 -1.5409951609107984 1.8665156306212756 -1.896328079599224 -1.5707637716013116 1.7371669204315583 10256.440999999986
4.375115662513093 -1.5414364914688696 1.8669736216337518 -1.8963440943396555 -1.5707656346874497 1.7935413422236135 10256.490999999985
4.369989746323445 -1.5418905126222024 1.8674447823179547 -1.8963605695888495 -1.5707675513472 1.8515368277670494 10256.540999999985
4.364760244934294 -1.5423537086956873 1.8679254642802405 -1.8963773777720812 -1.5707695067390663 1.9107042938341707 10256.590999999984
4.359468094718776 -1.542822453804964 1.868411904757259 -1.8963943873154185 -1.570771485556303 1.9705805793531552 10256.640999999983
4.354154978610024 -1.5432930559401214 1.868900272363835 -1.896411464245405 -1.5707734722130131 2.030694076545702 10256.690999999983
4.348862828394506 -1.543761801049398 1.8693867128408534 -1.8964284737887425 -1.5707754510302498 2.0905703620646863 10256.740999999982
4.343633327005355 -1.544224997122883 1.8698673948031392 -1.8964452819719742 -1.5707774064221163 2.149737828131809 10256.790999999981
4.338507410815707 -1.5446790182762158 1.8703385554873422 -1.8964617572211682 -1.5707793230818665 2.207733313675244 10256.84099999998
4.333524771932038 -1.545120348834287 1.8707965464998184 -1.8964777719615997 -1.5707811861680046 2.2641077354672987 10256.89099999998
4.328723360487501 -1.545545627414939 1.8712378795645137 -1.8964932042174354 -1.5707829814903858 2.318431719262059 10256.940999999979
4.324138886935257 -1.5459516910126656 1.8716592722708454 -1.8965079392114153 -1.5707846956963165 2.370301230933039 10256.990999999978
4.319804324341815 -1.5463356190823132 1.872057693821586 -1.8965218709645364 -1.570786316456655 2.419343207610839 10257.040999999977
4.3157494106803655 -1.5466947776227815 1.8724304107807457 -1.8965349038957355 -1.57078783265191 2.4652211888207907 10257.090999999977
4.312000151124117 -1.5470268632607225 1.8727750328214539 -1.8965469544215725 -1.5707892345583436 2.5076409476206107 10257.140999999976
4.308578320339633 -1.5473299473342426 1.8730895584738438 -1.8965579525559133 -1.5707905140340692 2.546356121738053 10257.190999999975
4.305500964780164 -1.547602519976602 1.8733724208729332 -1.8965678435096132 -1.5707916647051532 2.581173844708559 10257.240999999975
4.302779904978986 -1.5478435341999155 1.8736225335065086 -1.896576589290199 -1.570792682151714 2.6119603770129105 10257.290999999974
4.300421237842738 -1.5480524499788528 1.8738393359630072 -1.8965841703015531 -1.5707935640940238 2.638646737214878 10257.340999999973
4.2984248389447535 -1.548229278334339 1.8740228396793996 -1.8965905869435968 -1.5707943105786075 2.6612343330988715 10257.390999999972
4.296783864818399 -1.5483746254172548 1.8741736736890726 -1.896595861211972 -1.5707949241643437 2.6798005928076023 10257.440999999972
4.295484255250407 -1.5484897365921377 1.8742931303697121 -1.896600038297725 -1.5707954101085648 2.6945045959797183 10257.49099999997
4.294504235574216 -1.5485765405208816 1.8743832111911853 -1.8966031881869903 -1.570795776553157 2.7055927048874633 10257.54099999997
4.2938138189633035 -1.5486376932464372 1.874446672463424 -1.8966054072606722 -1.5707960347106609 2.7134041955743307 10257.59099999997
4.2933743087245215 -1.5486766222765131 1.8744870710843058 -1.896606819894129 -1.5707961990503718 2.7183768889927187 10257.640999999969
4.293137800591434 -1.5486975706672759 1.8745088102875396 -1.896607580056856 -1.5707962874844394 2.7210527821415624 10257.690999999968
4.293046685017648 -1.5487056411070501 1.8745171853905451 -1.8966078729121678 -1.5707963215539689 2.722083679204008 10257.740999999967
4.2930331494701575 -1.5487068400000197 1.8745184295423378 -1.8966079164168819 -1.5707963266151206 2.7222368226850513 10257.790999999967
4.2930331494701575 -1.5487068400000197 1.8745184295423378 -1.8966079164168819 -1.5707963266151206 2.7222368226850513 10257.840999999966
4.293033149408071 -1.5484923406050548 1.8748646125879476 -1.8971685988639604 -1.570796326608723 2.7222368226233526 10257.890999999965
4.2930331490208715 -1.5471546242579515 1.8770235684175323 -1.9006652710812093 -1.5707963265688247 2.722236822238571 10257.940999999964
4.293033148105164 -1.5439909887275693 1.8821293962604755 -1.9089347345504593 -1.5707963264744673 2.722236821328582 10257.990999999964
4.293033146572863 -1.5386971141500287 1.8906732414523368 -1.9227724544803775 -1.5707963263165738 2.7222368198058495 10258.040999999963
4.293033144431975 -1.5313006659675001 1.9026104544171567 -1.9421061158519937 -1.57079632609597 2.7222368176783323 10258.090999999962
4.293033141767385 -1.5220948978669953 1.9174677496497587 -1.9661691794642293 -1.570796325821402 2.7222368150303815 10258.140999999961
4.2930331387216265 -1.5115722547191561 1.934450364698056 -1.9936744379794233 -1.5707963255075572 2.722236812003644 10258.19099999996
4.293033135475676 -1.5003579755170444 1.9525492191453524 -2.0229875719688604 -1.570796325173084 2.7222368087779643 10258.24099999996
4.293033132229726 -1.489143696314933 1.970648073592649 -2.0523007059582974 -1.5707963248386108 2.7222368055522845 10258.29099999996
4.293033129183968 -1.4786210531670936 1.9876306886409458 -2.079805964473491 -1.570796324524766 2.722236802525547 10258.340999999959
4.2930331265193775 -1.4694152850665887 2.0024879838735483 -2.103869028085727 -1.5707963242501979 2.7222367998775963 10258.390999999958
4.29303312437849 -1.46201883688406 2.014425196838368 -2.1232026894573433 -1.5707963240295941 2.722236797750079 10258.440999999957
4.293033122846189 -1.4567249623065195 2.0229690420302293 -2.1370404093872613 -1.5707963238717007 2.7222367962273464 10258.490999999956
4.293033121930481 -1.4535613267761374 2.0280748698731728 -2.145309872856511 -1.5707963237773432 2.7222367953173574 10258.540999999956
4.2930331215432815 -1.452223610429034 2.0302338257027572 -2.14880654507376 -1.570796323737445 2.722236794932576 10258.590999999955
4.293033121481195 -1.4520091110340692 2.030580008748367 -2.149367227520839 -1.5707963237310474 2.722236794870877 10258.640999999954
4.293033121481195 -1.4520091110340692 2.030580008748367 -2.149367227520839 -1.5707963237310474 2.722236794870877 10258.690999999953
4.293033121481195 -1.4520091110340692 2.030580008748367 -2.149367227520839 -1.5707963237310474 2.722236794870877 10258.740999999953
4.293033121481195 -1.4520091110340692 2.030580008748367 -2.149367227520839 -1.5707963237310474 2.722236794870877 10258.790999999952
4.293033121481195 -1.4520091110340692 2.030580008748367 -2.149367227520839 -1.5707963237310474 2.722236794870877 10258.840999999951
4.293033121481195 -1.4520091110340692 2.030580008748367 -2.149367227520839 -1.5707963237310474 2.722236794870877 10258.89099999995
4.293033121481195 -1.4520091110340692 2.030580008748367 -2.149367227520839 -1.5707963237310474 2.722236794870877 10258.94099999995
4.293033121481195 -1.4520091110340692 2.030580008748367 -2.149367227520839 -1.5707963237310474 2.722236794870877 10258.990999999949
4.293033121481195 -1.4520091110340692 2.030580008748367 -2.149367227520839 -1.5707963237310474 2.722236794870877 10259.040999999948
4.293033121481195 -1.4520091110340692 2.030580008748367 -2.149367227520839 -1.5707963237310474 2.722236794870877 10259.090999999948
4.293033121481195 -1.4520091110340692 2.030580008748367 -2.149367227520839 -1.5707963237310474 2.722236794870877 10259.140999999947
4.293033121481195 -1.4520091110340692 2.030580008748367 -2.149367227520839 -1.5707963237310474 2.722236794870877 10259.190999999946
4.293033121481195 -1.4520091110340692 2.030580008748367 -2.149367227520839 -1.5707963237310474 2.722236794870877 10259.240999999945
4.293033121481195 -1.4520091110340692 2.030580008748367 -2.149367227520839 -1.5707963237310474 2.722236794870877 10259.290999999945
4.293033121481195 -1.4520091110340692 2.030580008748367 -2.149367227520839 -1.5707963237310474 2.722236794870877 10259.340999999944
4.2930331215432815 -1.452223610429034 2.0302338257027572 -2.1488065450737603 -1.570796323737445 2.722236794932576 10259.390999999943
4.293033121930481 -1.4535613267761374 2.0280748698731723 -2.1453098728565116 -1.5707963237773432 2.7222367953173574 10259.440999999943
4.293033122846189 -1.4567249623065195 2.0229690420302293 -2.1370404093872613 -1.5707963238717007 2.7222367962273464 10259.490999999942
4.29303312437849 -1.46201883688406 2.014425196838368 -2.1232026894573433 -1.5707963240295941 2.722236797750079 10259.540999999941
4.2930331265193775 -1.4694152850665887 2.0024879838735483 -2.103869028085727 -1.5707963242501979 2.7222367998775963 10259.59099999994
4.293033129183968 -1.4786210531670936 1.987630688640946 -2.079805964473491 -1.570796324524766 2.722236802525547 10259.64099999994
4.293033132229726 -1.4891436963149327 1.9706480735926488 -2.0523007059582974 -1.5707963248386108 2.7222368055522845 10259.690999999939
4.293033135475676 -1.5003579755170444 1.9525492191453524 -2.0229875719688604 -1.570796325173084 2.7222368087779643 10259.740999999938
4.2930331387216265 -1.511572254719156 1.9344503646980558 -1.9936744379794233 -1.5707963255075572 2.722236812003644 10259.790999999937
4.293033141767385 -1.5220948978669953 1.917467749649759 -1.9661691794642295 -1.570796325821402 2.7222368150303815 10259.840999999937
4.293033144431975 -1.5313006659675001 1.9026104544171565 -1.9421061158519937 -1.57079632609597 2.7222368176783323 10259.890999999936
4.293033146572863 -1.5386971141500287 1.8906732414523368 -1.9227724544803775 -1.5707963263165738 2.7222368198058495 10259.940999999935
4.293033148105164 -1.5439909887275693 1.8821293962604755 -1.9089347345504595 -1.5707963264744673 2.722236821328582 10259.990999999935
4.2930331490208715 -1.5471546242579515 1.8770235684175323 -1.9006652710812095 -1.5707963265688247 2.722236822238571 10260.040999999934
4.293033149408071 -1.5484923406050548 1.8748646125879476 -1.8971685988639606 -1.570796326608723 2.7222368226233526 10260.090999999933
4.2930331494701575 -1.5487068400000197 1.8745184295423378 -1.8966079164168819 -1.5707963266151206 2.7222368226850513 10260.140999999932
4.2930331494701575 -1.5487068400000197 1.8745184295423378 -1.8966079164168819 -1.5707963266151206 2.7222368226850513 10260.190999999932
4.292864639105686 -1.5486800519419135 1.8744876428646378 -1.8966039177971543 -1.5707963266153486 2.722068312320609 10260.24099999993
4.291733551906087 -1.5485002432415933 1.8742809943467607 -1.8965770779787012 -1.5707963266168785 2.720937225121201 10260.29099999993
4.288807437163939 -1.5480350793806994 1.8737463960639613 -1.8965076435544763 -1.5707963266208365 2.718011110379551 10260.34099999993
4.283389317948624 -1.5471737620794066 1.8727565110171482 -1.8963790758046617 -1.5707963266281653 2.7125929911651556 10260.390999999929
4.274910560907537 -1.5458258958101845 1.8712074504525875 -1.896177881502603 -1.570796326639634 2.704114234125508 10260.440999999928
4.262923746067311 -1.5439203543115598 1.8690174711816043 -1.895893443720744 -1.570796326655848 2.6921274192873175 10260.490999999927
4.24709553663504 -1.5414041471018765 1.8661256729002855 -1.8955178526365632 -1.570796326677258 2.6762992098577354 10260.540999999926
4.2271995487995015 -1.5382412859930583 1.862490695509182 -1.8950457363385087 -1.5707963267041702 2.6564032220255753 10260.590999999926
4.2031092215323715 -1.53441165160437 1.8580894164330115 -1.894474091631933 -1.570796326736756 2.632312894762536 10260.640999999925
4.174790686389451 -1.5299098598761776 1.8529156479403601 -1.8938021148450288 -1.5707963267750609 2.603994359624424 10260.690999999924
4.142295637311885 -1.5247441285837116 1.8469788344633855 -1.8930310326347655 -1.5707963268190153 2.571499310552377 10260.740999999924
4.105754200427387 -1.5189351438508265 1.8403027499175193 -1.892163932792822 -1.570796326868443 2.5349578736740837 10260.790999999923
4.065367803851455 -1.5125149266637636 1.8329241950211685 -1.8912055950515243 -1.5707963269230716 2.4945714771050103 10260.840999999922
4.021402047488597 -1.505525699384912 1.8248916946154192 -1.8901623218897803 -1.5707963269825416 2.4506057207496195 10260.890999999921
3.9741795728335525 -1.4980187522665687 1.8162641949837381 -1.8890417693390145 -1.570796327046417 2.4033832461025937 10260.94099999992
3.924072932772509 -1.4900533099647022 1.807109761171675 -1.8878527777891043 -1.5707963271141936 2.3532766060500587 10260.99099999992
3.8714974613843274 -1.4816953980527123 1.797504274306566 -1.8866052027943143 -1.5707963271853098 2.300701134670806 10261.04099999992
3.816904143741764 -1.4730167095351918 1.7875301289172338 -1.8853097458792327 -1.5707963272591552 2.2461078170375135 10261.090999999918
3.7607724857126885 -1.4640934713616884 1.777274930253693 -1.8839777853447064 -1.5707963273350816 2.18997615901797 10261.140999999918
3.7036033837613065 -1.4550053109404653 1.7668301916068505 -1.8826212070737758 -1.5707963274124113 2.1328070570762963 10261.190999999917
3.645911994749382 -1.4458341226522629 1.7562900316282084 -1.8812522353376107 -1.5707963274904473 2.075115668074169 10261.240999999916
3.5882206057374573 -1.4366629343640605 1.7457498716495663 -1.8798832636014453 -1.5707963275684833 2.017424279072042 10261.290999999916
3.5310515037860757 -1.4275747739428373 1.7353051330027238 -1.8785266853305147 -1.570796327645813 1.9602551771303682 10261.340999999915
3.4749198457569994 -1.418651535769334 1.7250499343391832 -1.8771947247959884 -1.5707963277217394 1.9041235191108248 10261.390999999914
3.420326528114437 -1.4099728472518134 1.7150757889498511 -1.8758992678809068 -1.5707963277955848 1.8495302014775326 10261.440999999913
3.3677510567262554 -1.4016149353398235 1.7054703020847417 -1.8746516928861168 -1.570796327866701 1.796954730098279 10261.490999999913
3.3176444166652117 -1.393649493037957 1.6963158682726787 -1.8734627013362064 -1.5707963279344777 1.7468480900457446 10261.540999999912
3.2704219420101666 -1.386142545919614 1.6876883686409976 -1.8723421487854408 -1.570796327998353 1.6996256153987193 10261.590999999911
3.22645618564731 -1.3791533186407618 1.6796558682352483 -1.8712988756236968 -1.570796328057823 1.655659859043328 10261.64099999991
3.186069789071378 -1.3727331014536992 1.6722773133388977 -1.8703405378823992 -1.5707963281124515 1.6152734624742537 10261.69099999991
3.149528352186879 -1.3669241167208142 1.665601228793031 -1.8694734380404556 -1.5707963281618793 1.5787320255959614 10261.740999999909
3.117033303109314 -1.3617583854283482 1.659664415316057 -1.8687023558301923 -1.5707963282058337 1.5462369765239137 10261.790999999908
3.088714767966393 -1.357256593700156 1.6544906468234053 -1.8680303790432882 -1.5707963282441386 1.5179184413858025 10261.840999999908
3.064624440699262 -1.3534269593114674 1.650089367747235 -1.8674587343367124 -1.5707963282767243 1.4938281141227634 10261.890999999907
3.0447284528637235 -1.3502640982026493 1.6464543903561315 -1.8669866180386578 -1.5707963283036366 1.4739321262906033 10261.940999999906
3.028900243431454 -1.3477478909929659 1.6435625920748125 -1.8666110269544771 -1.5707963283250466 1.4581039168610204 10261.990999999905
3.016913428591228 -1.345842349494341 1.6413726128038295 -1.8663265891726182 -1.5707963283412605 1.4461171020228303 10262.040999999905
3.008434671550142 -1.3444944832251193 1.6398235522392688 -1.8661253948705594 -1.5707963283527293 1.4376383449831849 10262.090999999904
3.0030165523348247 -1.3436331659238263 1.6388336671924557 -1.8659968271207448 -1.5707963283600581 1.4322202257687842 10262.140999999903
3.000090437592678 -1.3431680020629326 1.6382990689096562 -1.8659273926965199 -1.570796328364016 1.4292941110271364 10262.190999999902
4.293014049530029 -1.5487165612033387 1.8745186964618128 -1.896592756310934 -1.5707686583148401 2.7222237586975098 0.0
4.293027587104289 -1.5487153612788143 1.874517452281696 -1.896592714414918 -1.5707686561896799 2.7220706166027373 0.05
4.293118716321427 -1.5487072838950495 1.8745090769880264 -1.8965924323886802 -1.5707686418840012 2.721039728872079 0.10000063070194547
4.2933552598684805 -1.5486863174798138 1.8744873372898865 -1.896591700334914 -1.5707686047508391 2.7183638599456974 0.15000126140389092
4.293794835918108 -1.5486473549543127 1.8744469377493056 -1.8965903399371913 -1.5707685357451575 2.7133912115406496 0.2000018921058364
4.294485355909778 -1.5485861496115576 1.874383475032333 -1.8965882029194332 -1.570768427345706 2.705579791564207 0.25000252280778185
4.2954655223309555 -1.548499270994734 1.8742933921601153 -1.8965851695053784 -1.570768273476877 2.694491783027178 0.30000315350972734
4.296765326498294 -1.5483840607755714 1.8741739327599722 -1.8965811468780525 -1.5707680694305635 2.6797879129572317 0.3500037842116728
4.298406546338824 -1.548238588632711 1.8740230953164716 -1.8965760676392376 -1.570767811788015 2.6612218213122185 0.4000044149136182
4.300403244171142 -1.5480616081300755 1.8738395874225062 -1.8965698882689417 -1.5707674983416957 2.638634429893494 0.4500050456155637
4.302762264486603 -1.5478525125952383 1.8736227800303686 -1.896562587584868 -1.5707671280171411 2.6119483112592388 0.5000056763175093
4.305483731730502 -1.547611290997791 1.8733726617028277 -1.8965541652018836 -1.5707667007948158 2.5811620576377843 0.5500063070194547
4.30856154808327 -1.5473384838277147 1.8730897928642047 -1.8965446399914896 -1.5707662176319697 2.5463446498409317 0.6000069377214001
4.311983891241663 -1.5470351389737467 1.8727752600514482 -1.8965340485412898 -1.5707656803844958 2.507629826177277 0.6500075684233456
4.3157337121999495 -1.5467027676017502 1.872430630165211 -1.8965224436144605 -1.5707650917287872 2.4652104513655315 0.7000081991252911
4.319789233031096 -1.546343300033084 1.8720579047209243 -1.8965098926092194 -1.5707644550835937 2.4193328854478438 0.7500088298272365
4.324124444667966 -1.5459590416229703 1.8716594740998762 -1.8964964760182956 -1.5707637745318803 2.3702913527031235 0.800009460529182
4.328709604684498 -1.5455526286388648 1.8712380718002846 -1.8964822858883976 -1.5707630547426825 2.3184223105603645 0.8500100912311275
4.333511735076904 -1.5451269841388244 1.8707967286883753 -1.896467424279684 -1.5707623008929652 2.264098818511963 0.900010721933073
4.338495120044854 -1.5446852738498775 1.8703387272494567 -1.8964520017252318 -1.5707615185894783 2.2077249070270444 0.9500113526350185
4.343621803772666 -1.5442308620463914 1.8698675558389959 -1.8964361356905064 -1.5707607137906157 2.1497299464647828 1.0000119833369638
4.348852088210495 -1.5437672674284424 1.8693868629336945 -1.8964199490328306 -1.5707598927282698 2.0905630159877258 1.0500126140389094
4.3541450308555225 -1.5432981190001849 1.8689004113825645 -1.896403568460854 -1.5707590618296912 2.030687272475113 1.1000132447408548
4.359458942533149 -1.5428271119482195 1.8684120326580045 -1.8963871229940217 -1.5707582276393446 1.9705743194362026 1.1500138754428002
4.364751885178177 -1.542357963519962 1.8679255811068745 -1.896370742422045 -1.570757396740766 1.9106985759235902 1.2000145061447458
4.369982169616006 -1.541894368902013 1.867444888201573 -1.8963545557643693 -1.57075657567842 1.8515316454465323 1.2500151368466912
4.375108853343818 -1.5414399570985269 1.8669737167911122 -1.896338689729644 -1.5707557708795574 1.793536684884271 1.3000157675486366
4.380092238311767 -1.54099824680958 1.8665157153521936 -1.8963232671751917 -1.5707549885760705 1.7371627733993535 1.3500163982505822
4.384894368704174 -1.5405726023095396 1.8660743722402844 -1.896308405566478 -1.5707542347263532 1.6828392813509518 1.4000170289525276
4.389479528720706 -1.5401661893254341 1.865652969940693 -1.89629421543658 -1.5707535149371554 1.6309702392081924 1.450017659654473
4.393814740357575 -1.5397819309153205 1.8652545393196447 -1.8962807988456563 -1.570752834385442 1.5819287064634726 1.5000182903564185
4.397870261188722 -1.5394224633466542 1.864881813875358 -1.8962682478404151 -1.5707521977402485 1.5360511405457848 1.550018921058364
4.401620082147009 -1.5390900919746577 1.8645371839891207 -1.8962566429135859 -1.57075160908454 1.4936317657340386 1.6000195517603095
4.4050424253054015 -1.5387867471206897 1.8642226511763642 -1.896246051463386 -1.570751071837066 1.4549169420703842 1.650020182462255
4.40812024165817 -1.5385139399506134 1.8639397823377413 -1.896236526252992 -1.57075058867422 1.4200995342735316 1.7000208131642003
4.410841708902069 -1.5382727183531661 1.8636896640102003 -1.8962281038700077 -1.5707501614518946 1.3893132806520763 1.7500214438661459
4.41320072921753 -1.5380636228183289 1.8634728566180627 -1.896220803185934 -1.57074979112734 1.3626271620178203 1.8000220745680913
4.415197427049848 -1.5378866423156934 1.8632893487240973 -1.896214623815638 -1.5707494776810207 1.3400397705990983 1.8500227052700369
4.416838646890378 -1.537741170172833 1.8631385112805967 -1.8962095445768232 -1.5707492200384723 1.321473678954085 1.9000233359719823
4.418138451057716 -1.5376259599536704 1.8630190518804537 -1.8962055219494973 -1.5707490159921587 1.3067698088841357 1.9500239666739276
4.419118617478894 -1.5375390813368468 1.862928969008236 -1.8962024885354425 -1.5707488621233296 1.2956818003471078 2.000024597375873
4.419809137470564 -1.5374778759940917 1.8628655062912634 -1.8962003515176844 -1.5707487537238782 1.2878703803706664 2.0500252280778186
4.420248713520191 -1.5374389134685906 1.8628251067506825 -1.8961989911199617 -1.5707486847181966 1.2828977319656154 2.1000258587797638
4.420485257067245 -1.5374179470533549 1.8628033670525426 -1.8961982590661954 -1.5707486475850345 1.2802218630392375 2.1500264894817094
4.420576386284383 -1.5374098696695901 1.8627949917588729 -1.8961979770399577 -1.5707486332793559 1.2791909753085768 2.200027120183655
4.420589923858643 -1.5374086697450657 1.8627937475787562 -1.8961979351439417 -1.5707486311541956 1.2790378332138062 2.2500277508856
4.420589923858643 -1.5374086697450657 1.8627937475787562 -1.8961979351439417 -1.5707486311541956 1.2790378332138062 2.3000283815875457
4.420576388311152 -1.5374098686380353 1.8627949917305489 -1.8961979786486558 -1.5707486362153473 1.279190976694849 2.3500283815875456
4.420485272737366 -1.5374179390778098 1.8628033668335544 -1.8961982715039676 -1.5707486702848767 1.2802218737572952 2.400029289515917
4.4202487646042785 -1.5374388874685723 1.8628251060367882 -1.8961990316666946 -1.5707487587189444 1.28289776690614 2.450030197444288
4.4198092543654965 -1.5374778164986482 1.86286550465767 -1.8962004443001514 -1.5707489230586553 1.2878704603245266 2.5000311053726594
4.419118837754584 -1.5375389692242039 1.8629289659299086 -1.8962026633738334 -1.5707491812161591 1.2956819510113966 2.550032013301031
4.418138818078393 -1.5376257731529477 1.8630190467513819 -1.8962058132630986 -1.5707495476607514 1.306770059919142 2.600032921229402
4.416839208510401 -1.5377408843278306 1.8631385034320214 -1.8962099903488516 -1.5707500336049725 1.3214740630912563 2.650033829157773
4.415198234384047 -1.5378862314107464 1.8632893374416943 -1.8962152646172268 -1.5707506471907087 1.3400403227999858 2.7000347370861446
4.413201835486062 -1.5380630597662326 1.8634728411580868 -1.8962216812592705 -1.5707513936752924 1.3626279186839807 2.750035645014516
4.410843168349814 -1.53827197554517 1.8636896436145853 -1.8962292622706247 -1.5707522756176022 1.3893142788859472 2.8000365529428874
4.408122108548636 -1.5385129897684835 1.8639397562481608 -1.8962380080512105 -1.570753293064163 1.4201008111902982 2.8500374608712584
4.405044752989167 -1.5387855624108429 1.8642226186472501 -1.8962478990049103 -1.570754443735247 1.4549185341608046 2.90003836879963
4.401622922204683 -1.539088646484363 1.8645371442996401 -1.896258897139251 -1.5707557232109726 1.4936337082782472 2.9500392767280013
4.3978736626484345 -1.539420732122304 1.8648817663403483 -1.896270947665088 -1.5707571251174062 1.5360534670780668 3.0000401846563722
4.393818748986985 -1.5397798906627722 1.865254483299508 -1.8962839805962872 -1.5707586413126613 1.5819314482880182 3.0500410925847437
4.389484186393543 -1.5401638187324198 1.8656529048502486 -1.8962979123494084 -1.5707602620729997 1.6309734249658179 3.100042000513115
4.384899712841299 -1.5405698823301464 1.8660742975565803 -1.8963126473433882 -1.5707619762789304 1.6828429366367983 3.1500429084414865
4.380098301396762 -1.5409951609107984 1.8665156306212756 -1.896328079599224 -1.5707637716013116 1.7371669204315583 3.200043816369858
4.375115662513093 -1.5414364914688696 1.8669736216337518 -1.8963440943396555 -1.5707656346874497 1.7935413422236135 3.250044724298229
4.369989746323445 -1.5418905126222024 1.8674447823179547 -1.8963605695888495 -1.5707675513472 1.8515368277670494 3.3000456322266003
4.364760244934294 -1.5423537086956873 1.8679254642802405 -1.8963773777720812 -1.5707695067390663 1.9107042938341707 3.3500465401549713
4.359468094718776 -1.542822453804964 1.868411904757259 -1.8963943873154185 -1.570771485556303 1.9705805793531552 3.4000474480833427
4.354154978610024 -1.5432930559401214 1.868900272363835 -1.896411464245405 -1.5707734722130131 2.030694076545702 3.450048356011714
4.348862828394506 -1.543761801049398 1.8693867128408534 -1.8964284737887425 -1.5707754510302498 2.0905703620646863 3.5000492639400855
4.343633327005355 -1.544224997122883 1.8698673948031392 -1.8964452819719742 -1.5707774064221163 2.149737828131809 3.550050171868457
4.338507410815707 -1.5446790182762158 1.8703385554873422 -1.8964617572211682 -1.5707793230818665 2.207733313675244 3.6000510797968284
4.333524771932038 -1.545120348834287 1.8707965464998184 -1.8964777719615997 -1.5707811861680046 2.2641077354672987 3.6500519877251993
4.328723360487501 -1.545545627414939 1.8712378795645137 -1.8964932042174354 -1.5707829814903858 2.318431719262059 3.7000528956535708
4.324138886935257 -1.5459516910126656 1.8716592722708454 -1.8965079392114153 -1.5707846956963165 2.370301230933039 3.7500538035819417
4.319804324341815 -1.5463356190823132 1.872057693821586 -1.8965218709645364 -1.570786316456655 2.419343207610839 3.800054711510313
4.3157494106803655 -1.5466947776227815 1.8724304107807457 -1.8965349038957355 -1.57078783265191 2.4652211888207907 3.8500556194386846
4.312000151124117 -1.5470268632607225 1.8727750328214539 -1.8965469544215725 -1.5707892345583436 2.5076409476206107 3.900056527367056
4.308578320339633 -1.5473299473342426 1.8730895584738438 -1.8965579525559133 -1.5707905140340692 2.546356121738053 3.9500574352954274
4.305500964780164 -1.547602519976602 1.8733724208729332 -1.8965678435096132 -1.5707916647051532 2.581173844708559 4.000058343223799
4.302779904978986 -1.5478435341999155 1.8736225335065086 -1.896576589290199 -1.570792682151714 2.6119603770129105 4.05005925115217
4.300421237842738 -1.5480524499788528 1.8738393359630072 -1.8965841703015531 -1.5707935640940238 2.638646737214878 4.100060159080541
4.2984248389447535 -1.548229278334339 1.8740228396793996 -1.8965905869435968 -1.5707943105786075 2.6612343330988715 4.150061067008912
4.296783864818399 -1.5483746254172548 1.8741736736890726 -1.896595861211972 -1.5707949241643437 2.6798005928076023 4.200061974937284
4.295484255250407 -1.5484897365921377 1.8742931303697121 -1.896600038297725 -1.5707954101085648 2.6945045959797183 4.250062882865655
4.294504235574216 -1.5485765405208816 1.8743832111911853 -1.8966031881869903 -1.570795776553157 2.7055927048874633 4.3000637907940265
4.2938138189633035 -1.5486376932464372 1.874446672463424 -1.8966054072606722 -1.5707960347106609 2.7134041955743307 4.350064698722397
4.2933743087245215 -1.5486766222765131 1.8744870710843058 -1.896606819894129 -1.5707961990503718 2.7183768889927187 4.400065606650768
4.293137800591434 -1.5486975706672759 1.8745088102875396 -1.896607580056856 -1.5707962874844394 2.7210527821415624 4.45006651457914
4.293046685017648 -1.5487056411070501 1.8745171853905451 -1.8966078729121678 -1.5707963215539689 2.722083679204008 4.500067422507511
4.2930331494701575 -1.5487068400000197 1.8745184295423378 -1.8966079164168819 -1.5707963266151206 2.7222368226850513 4.550068330435883
4.2930331494701575 -1.5487068400000197 1.8745184295423378 -1.8966079164168819 -1.5707963266151206 2.7222368226850513 4.600069238364254
4.293033149408071 -1.5484923406050548 1.8748646125879476 -1.8971685988639604 -1.570796326608723 2.7222368226233526 4.650069238364254
4.2930331490208715 -1.5471546242579515 1.8770235684175323 -1.9006652710812093 -1.5707963265688247 2.722236822238571 4.700128106040772
4.293033148105164 -1.5439909887275693 1.8821293962604755 -1.9089347345504593 -1.5707963264744673 2.722236821328582 4.75018697371729
4.293033146572863 -1.5386971141500287 1.8906732414523368 -1.9227724544803775 -1.5707963263165738 2.7222368198058495 4.800245841393808
4.293033144431975 -1.5313006659675001 1.9026104544171567 -1.9421061158519937 -1.57079632609597 2.7222368176783323 4.8503047090703255
4.293033141767385 -1.5220948978669953 1.9174677496497587 -1.9661691794642293 -1.570796325821402 2.7222368150303815 4.900363576746844
4.2930331387216265 -1.5115722547191561 1.934450364698056 -1.9936744379794233 -1.5707963255075572 2.722236812003644 4.950422444423362
4.293033135475676 -1.5003579755170444 1.9525492191453524 -2.0229875719688604 -1.570796325173084 2.7222368087779643 5.00048131209988
4.293033132229726 -1.489143696314933 1.970648073592649 -2.0523007059582974 -1.5707963248386108 2.7222368055522845 5.050540179776398
4.293033129183968 -1.4786210531670936 1.9876306886409458 -2.079805964473491 -1.570796324524766 2.722236802525547 5.100599047452916
4.2930331265193775 -1.4694152850665887 2.0024879838735483 -2.103869028085727 -1.5707963242501979 2.7222367998775963 5.150657915129434
4.29303312437849 -1.46201883688406 2.014425196838368 -2.1232026894573433 -1.5707963240295941 2.722236797750079 5.200716782805952
4.293033122846189 -1.4567249623065195 2.0229690420302293 -2.1370404093872613 -1.5707963238717007 2.7222367962273464 5.2507756504824705
4.293033121930481 -1.4535613267761374 2.0280748698731728 -2.145309872856511 -1.5707963237773432 2.7222367953173574 5.300834518158988
4.2930331215432815 -1.452223610429034 2.0302338257027572 -2.14880654507376 -1.570796323737445 2.722236794932576 5.350893385835506
4.293033121481195 -1.4520091110340692 2.030580008748367 -2.149367227520839 -1.5707963237310474 2.722236794870877 5.400952253512024
4.293033121481195 -1.4520091110340692 2.030580008748367 -2.149367227520839 -1.5707963237310474 2.722236794870877 5.451011121188542
4.293033121481195 -1.4520091110340692 2.030580008748367 -2.149367227520839 -1.5707963237310474 2.722236794870877 5.501011121188542
4.293033121481195 -1.4520091110340692 2.030580008748367 -2.149367227520839 -1.5707963237310474 2.722236794870877 5.555177787855209
4.293033121481195 -1.4520091110340692 2.030580008748367 -2.149367227520839 -1.5707963237310474 2.722236794870877 5.609344454521875
4.293033121481195 -1.4520091110340692 2.030580008748367 -2.149367227520839 -1.5707963237310474 2.722236794870877 5.663511121188542
4.293033121481195 -1.4520091110340692 2.030580008748367 -2.149367227520839 -1.5707963237310474 2.722236794870877 5.717677787855209
4.293033121481195 -1.4520091110340692 2.030580008748367 -2.149367227520839 -1.5707963237310474 2.722236794870877 5.771844454521876
4.293033121481195 -1.4520091110340692 2.030580008748367 -2.149367227520839 -1.5707963237310474 2.722236794870877 5.826011121188542
4.293033121481195 -1.4520091110340692 2.030580008748367 -2.149367227520839 -1.5707963237310474 2.722236794870877 5.880177787855208
4.293033121481195 -1.4520091110340692 2.030580008748367 -2.149367227520839 -1.5707963237310474 2.722236794870877 5.9343444545218755
4.293033121481195 -1.4520091110340692 2.030580008748367 -2.149367227520839 -1.5707963237310474 2.722236794870877 5.988511121188543
4.293033121481195 -1.4520091110340692 2.030580008748367 -2.149367227520839 -1.5707963237310474 2.722236794870877 6.042677787855209
4.293033121481195 -1.4520091110340692 2.030580008748367 -2.149367227520839 -1.5707963237310474 2.722236794870877 6.096844454521875
4.293033121481195 -1.4520091110340692 2.030580008748367 -2.149367227520839 -1.5707963237310474 2.722236794870877 6.151011121188542
4.2930331215432815 -1.452223610429034 2.0302338257027572 -2.1488065450737603 -1.570796323737445 2.722236794932576 6.201011121188542
4.293033121930481 -1.4535613267761374 2.0280748698731723 -2.1453098728565116 -1.5707963237773432 2.7222367953173574 6.25106998886506
4.293033122846189 -1.4567249623065195 2.0229690420302293 -2.1370404093872613 -1.5707963238717007 2.7222367962273464 6.301128856541578
4.29303312437849 -1.46201883688406 2.014425196838368 -2.1232026894573433 -1.5707963240295941 2.722236797750079 6.3511877242180965
4.2930331265193775 -1.4694152850665887 2.0024879838735483 -2.103869028085727 -1.5707963242501979 2.7222367998775963 6.401246591894614
4.293033129183968 -1.4786210531670936 1.987630688640946 -2.079805964473491 -1.570796324524766 2.722236802525547 6.451305459571132
4.293033132229726 -1.4891436963149327 1.9706480735926488 -2.0523007059582974 -1.5707963248386108 2.7222368055522845 6.50136432724765
4.293033135475676 -1.5003579755170444 1.9525492191453524 -2.0229875719688604 -1.570796325173084 2.7222368087779643 6.551423194924168
4.2930331387216265 -1.511572254719156 1.9344503646980558 -1.9936744379794233 -1.5707963255075572 2.722236812003644 6.601482062600686
4.293033141767385 -1.5220948978669953 1.917467749649759 -1.9661691794642295 -1.570796325821402 2.7222368150303815 6.651540930277204
4.293033144431975 -1.5313006659675001 1.9026104544171565 -1.9421061158519937 -1.57079632609597 2.7222368176783323 6.7015997979537225
4.293033146572863 -1.5386971141500287 1.8906732414523368 -1.9227724544803775 -1.5707963263165738 2.7222368198058495 6.751658665630241
4.293033148105164 -1.5439909887275693 1.8821293962604755 -1.9089347345504595 -1.5707963264744673 2.722236821328582 6.801717533306759
4.2930331490208715 -1.5471546242579515 1.8770235684175323 -1.9006652710812095 -1.5707963265688247 2.722236822238571 6.851776400983276
4.293033149408071 -1.5484923406050548 1.8748646125879476 -1.8971685988639606 -1.570796326608723 2.7222368226233526 6.901835268659794
4.2930331494701575 -1.5487068400000197 1.8745184295423378 -1.8966079164168819 -1.5707963266151206 2.7222368226850513 6.951894136336312
4.2930331494701575 -1.5487068400000197 1.8745184295423378 -1.8966079164168819 -1.5707963266151206 2.7222368226850513 7.00195300401283
4.292864639105686 -1.5486800519419135 1.8744876428646378 -1.8966039177971543 -1.5707963266153486 2.722068312320609 7.05195300401283
4.291733551906087 -1.5485002432415933 1.8742809943467607 -1.8965770779787012 -1.5707963266168785 2.720937225121201 7.102138663659902
4.288807437163939 -1.5480350793806994 1.8737463960639613 -1.8965076435544763 -1.5707963266208365 2.718011110379551 7.152324323306973
4.283389317948624 -1.5471737620794066 1.8727565110171482 -1.8963790758046617 -1.5707963266281653 2.7125929911651556 7.202509982954045
4.274910560907537 -1.5458258958101845 1.8712074504525875 -1.896177881502603 -1.570796326639634 2.704114234125508 7.252695642601116
4.262923746067311 -1.5439203543115598 1.8690174711816043 -1.895893443720744 -1.570796326655848 2.6921274192873175 7.302881302248188
4.24709553663504 -1.5414041471018765 1.8661256729002855 -1.8955178526365632 -1.570796326677258 2.6762992098577354 7.3530669618952595
4.2271995487995015 -1.5382412859930583 1.862490695509182 -1.8950457363385087 -1.5707963267041702 2.6564032220255753 7.4032526215423315
4.2031092215323715 -1.53441165160437 1.8580894164330115 -1.894474091631933 -1.570796326736756 2.632312894762536 7.453438281189403
4.174790686389451 -1.5299098598761776 1.8529156479403601 -1.8938021148450288 -1.5707963267750609 2.603994359624424 7.503623940836475
4.142295637311885 -1.5247441285837116 1.8469788344633855 -1.8930310326347655 -1.5707963268190153 2.571499310552377 7.553809600483546
4.105754200427387 -1.5189351438508265 1.8403027499175193 -1.892163932792822 -1.570796326868443 2.5349578736740837 7.603995260130618
4.065367803851455 -1.5125149266637636 1.8329241950211685 -1.8912055950515243 -1.5707963269230716 2.4945714771050103 7.654180919777689
4.021402047488597 -1.505525699384912 1.8248916946154192 -1.8901623218897803 -1.5707963269825416 2.4506057207496195 7.704366579424761
3.9741795728335525 -1.4980187522665687 1.8162641949837381 -1.8890417693390145 -1.570796327046417 2.4033832461025937 7.754552239071832
3.924072932772509 -1.4900533099647022 1.807109761171675 -1.8878527777891043 -1.5707963271141936 2.3532766060500587 7.804737898718904
3.8714974613843274 -1.4816953980527123 1.797504274306566 -1.8866052027943143 -1.5707963271853098 2.300701134670806 7.854923558365975
3.816904143741764 -1.4730167095351918 1.7875301289172338 -1.8853097458792327 -1.5707963272591552 2.2461078170375135 7.905109218013047
3.7607724857126885 -1.4640934713616884 1.777274930253693 -1.8839777853447064 -1.5707963273350816 2.18997615901797 7.955294877660118
3.7036033837613065 -1.4550053109404653 1.7668301916068505 -1.8826212070737758 -1.5707963274124113 2.1328070570762963 8.00548053730719
3.645911994749382 -1.4458341226522629 1.7562900316282084 -1.8812522353376107 -1.5707963274904473 2.075115668074169 8.055666196954261
3.5882206057374573 -1.4366629343640605 1.7457498716495663 -1.8798832636014453 -1.5707963275684833 2.017424279072042 8.105851856601333
3.5310515037860757 -1.4275747739428373 1.7353051330027238 -1.8785266853305147 -1.570796327645813 1.9602551771303682 8.156037516248405
3.4749198457569994 -1.418651535769334 1.7250499343391832 -1.8771947247959884 -1.5707963277217394 1.9041235191108248 8.206223175895477
3.420326528114437 -1.4099728472518134 1.7150757889498511 -1.8758992678809068 -1.5707963277955848 1.8495302014775326 8.256408835542548
3.3677510567262554 -1.4016149353398235 1.7054703020847417 -1.8746516928861168 -1.570796327866701 1.796954730098279 8.30659449518962
3.3176444166652117 -1.393649493037957 1.6963158682726787 -1.8734627013362064 -1.5707963279344777 1.7468480900457446 8.356780154836692
3.2704219420101666 -1.386142545919614 1.6876883686409976 -1.8723421487854408 -1.570796327998353 1.6996256153987193 8.406965814483764
3.22645618564731 -1.3791533186407618 1.6796558682352483 -1.8712988756236968 -1.570796328057823 1.655659859043328 8.457151474130834
3.186069789071378 -1.3727331014536992 1.6722773133388977 -1.8703405378823992 -1.5707963281124515 1.6152734624742537 8.507337133777906
3.149528352186879 -1.3669241167208142 1.665601228793031 -1.8694734380404556 -1.5707963281618793 1.5787320255959614 8.557522793424978
3.117033303109314 -1.3617583854283482 1.659664415316057 -1.8687023558301923 -1.5707963282058337 1.5462369765239137 8.60770845307205
3.088714767966393 -1.357256593700156 1.6544906468234053 -1.8680303790432882 -1.5707963282441386 1.5179184413858025 8.65789411271912
3.064624440699262 -1.3534269593114674 1.650089367747235 -1.8674587343367124 -1.5707963282767243 1.4938281141227634 8.708079772366192
3.0447284528637235 -1.3502640982026493 1.6464543903561315 -1.8669866180386578 -1.5707963283036366 1.4739321262906033 8.758265432013264
3.028900243431454 -1.3477478909929659 1.6435625920748125 -1.8666110269544771 -1.5707963283250466 1.4581039168610204 8.808451091660336
3.016913428591228 -1.345842349494341 1.6413726128038295 -1.8663265891726182 -1.5707963283412605 1.4461171020228303 8.858636751307406
