Andreas691667/Digital_Twin_UR/src/dt/dt_trajectories/trajectory_dt_2_blocks.csv
actual_q_0 actual_q_1 actual_q_2 actual_q_3 actual_q_4 actual_q_5 actual_qd_0 actual_qd_1 actual_qd_2 actual_qd_3 actual_qd_4 actual_qd_5 actual_qdd_0 actual_qdd_1 actual_qdd_2 actual_qdd_3 actual_qdd_4 actual_qdd_5 timestamp
3.71207804710797 -0.8254843255005873 0.8429764792549035 -1.5882884806323445 -1.570796326807946 2.141281720311417 0.0 0.0 0.0 0.0 0.0 0.0 0.0 0.0 0.0 0.0 0.0 0.0 100.0
3.71229301392248 -0.8256613060197514 0.8432220918640794 -1.588357112723773 -1.5707963268076142 2.1414966871259415 0.02224249590420347 -0.018312075199171208 0.025413399114971206 -0.007101324062381582 3.431907263829419e-11 0.022242495905693483 1.5111813393738243 -1.2441439326495733 1.7266162339877495 -0.4824723112971016 2.3316781704252815e-09 1.5111813394750573 100.05
3.7137234567242414 -0.8268389785375653 0.8448564594273631 -1.5888138077786695 -1.570796326805407 2.1429271299277985 0.08381341882241378 -0.06900294080241332 0.09576190877579115 -0.0267589685257216 1.2931996575467947e-10 0.08381341882802838 2.75568361885815 -2.2687330536551045 3.148535485507073 -0.8798024500123618 4.251883722540219e-09 2.7556836190427516 100.10000262013064
3.7173863952221713 -0.8298546475305111 0.849041588577545 -1.589983267960045 -1.5707963267997553 2.1465900684259736 0.1773242580044457 -0.14598969293733727 0.20260370782316148 -0.05661401605441926 2.736025721751897e-10 0.17732425801632454 3.7496692057190075 -3.087073715237444 4.284224238343935 -1.1971505478174072 5.785554390787865e-09 3.7496692059701955 100.15000524026128
3.7240943457026363 -0.8353772513857457 0.8567058283974703 -1.5921249039689422 -1.5707963267894054 2.1532980189068884 0.29584828462200047 -0.24356960922357832 0.33802458892023984 -0.09445498164634879 4.564792914242313e-10 0.29584828464181917 4.5093004672224275 -3.7124722696174435 5.152148976284301 -1.4396767363838647 6.957627909611269e-09 4.509300467524502 100.20000786039192
3.734468514798651 -0.8439182247294448 0.8685589451006815 -1.5954370473968218 -1.5707963267733984 2.163672188003598 0.4329205517686662 -0.35642014877279604 0.49463795855264026 -0.1382178126328595 6.679750297245841e-10 0.43292055179766725 5.050739770634439 -4.158235069015953 5.770776183114137 -1.612541147383361 7.793042013453481e-09 5.050739770972785 100.25001048052256
3.748951993259073 -0.8558423607551461 0.8851071967120591 -1.6000611630779464 -1.5707963267510512 2.17815566646499 0.5825378944599173 -0.47959895218867443 0.6655848370284329 -0.18598588867877577 8.988271999974005e-10 0.5825378944989411 5.390149483221073 -4.437668465653826 6.158572342619406 -1.7209039124875227 8.316734436757556e-09 5.390149483582157 100.3000131006532
3.7678229497178006 -0.8713786735520925 0.9066684077484635 -1.606086061441767 -1.5707963267219343 2.197026622924982 0.7391589296331146 -0.6085438415669214 0.8445338584781434 -0.23599002178239692 1.1404857218622053e-09 0.7391589296826304 5.543691972248361 -4.564078811751911 6.334003938586076 -1.7699251633679771 8.553642913966541e-09 5.54369197261973 100.35001572078384
3.79120782446297 -0.8906312604335768 0.9333870438993767 -1.613552110865306 -1.5707963266858525 2.2204114976717175 0.8977040561475061 -0.7390728204952698 1.0256812708547547 -0.28660845627549747 1.3851130216368974e-09 0.8977040562076428 5.527529604982331 -4.55077245953106 6.315537454800112 -1.7647650316963506 8.528705179523491e-09 5.527529605352617 100.40001834091449
3.8190945232061497 -0.9135901642652837 0.965249286707544 -1.6224554500255441 -1.5707963266428249 2.2482981964167656 1.0535554547842259 -0.8673840740534764 1.2037509359337053 -0.33636686882332684 1.625584032337748e-09 1.053555454854803 5.357824748689015 -4.411055761212124 6.121639375047477 -1.7105836491442696 8.266858967871453e-09 5.357824749047931 100.45002096104513
3.8513456108515407 -0.9401422357936349 1.0020981082496152 -1.632752200251804 -1.570796326593063 2.280549284064317 1.2025570882462948 -0.9900559688133224 1.3739943293128898 -0.38393836842460977 1.8554861936794004e-09 1.2025570883268535 5.05073977063444 -4.158235069015953 5.770776183114136 -1.6125411473833613 7.793042013453481e-09 5.050739770972786 100.50002358117575
3.8877115052651714 -0.9700819959741311 1.043648345816787 -1.6443626778781364 -1.5707963265369522 2.316915178480384 1.3410147011586202 -1.1040470528386128 1.5321905404126583 -0.42814349641154553 2.0691194520748715e-09 1.341014701248454 4.622437038084642 -3.805616735163401 5.281414362786059 -1.4757976580852525 7.132192050712628e-09 4.622437038394296 100.5500262013064
3.927843671044094 -1.0031224982996974 1.0895017765954431 -1.657175606595704 -1.5707963264750302 2.3570473442619946 1.4656958200679966 -1.2066960556851785 1.6746462724758193 -0.4679502264498092 2.2614962606355526e-09 1.4656958201661827 4.089078918305642 -3.3665071118753147 4.672020397849202 -1.3055133129215688 6.309246814091937e-09 4.089078918579569 100.60002882143704
3.9713078132855806 -1.0389061911290245 1.139162192347798 -1.6710523298051672 -1.5707963264079672 2.4005114865063932 1.5738297534431034 -1.2957218884008725 1.7981958425676343 -0.5024739645385501 2.4283415791712046e-09 1.5738297535485333 3.4668277785634785 -2.854212551372548 3.9610607720895428 -1.1068482435639388 5.3491440380344685e-09 3.4668277787957202 100.65003144156768
4.017597071356324 -1.0770157800149147 1.192050474092536 -1.6858310229690685 -1.5707963263365452 2.4468007445802376 1.663107591674508 -1.3692236435255731 1.9002011815758224 -0.5309775490103931 2.5660928741899617e-09 1.6631075917859184 2.7718459861241835 -2.282039405875954 3.16700196929304 -0.8849625816839894 4.27682145698327e-09 2.7718459863098683 100.70003406169832
4.066145212661629 -1.1169850900326241 1.2475196667854556 -1.701330905964219 -1.5707963262616378 2.4953488858887947 1.7316822070746647 -1.425680595091184 1.9785518342105606 -0.5528712505314378 2.671900118898336e-09 1.7316822071906688 2.0202959082537792 -1.6632940276063812 2.3083104732456556 -0.6450164589533454 3.117216805381393e-09 2.0202959083891163 100.75003668182896
4.116339826414613 -1.1583099281082057 1.3048700540001088 -1.7173564554340808 -1.57079632618419 2.5455434996451416 1.7781682538779136 -1.463952198621632 2.0316649590044804 -0.5677127721012596 2.743625793201207e-09 1.7781682539970323 1.228339912218301 -1.0112827687846762 1.4034527677333606 -0.392170007043635 1.8952678176718907e-09 1.228339912300587 100.8000393019596
4.167535517405401 -1.2004589453468544 1.3633642326084436 -1.7337016171411548 -1.5707963261051976 2.596739190639359 1.8016421682404813 -1.4832780911328678 2.058485328312668 -0.575207249052908 2.779844883701828e-09 1.8016421683611714 0.41214036528377507 -0.3393119816317007 0.4708953365421154 -0.13158335762648396 6.359122282978074e-10 0.4121403653113825 100.85004192209024
4.2190670997703235 -1.2428844993612491 1.4222421874614457 -1.7501540183193636 -1.5707963260256868 2.648270773007733 1.801642168240481 -1.4832780911328673 2.058485328312668 -0.5752072490529082 2.779844883701829e-09 1.801642168361172 -0.412140365283764 0.3393119816317033 -0.4708953365421084 0.13158335762648143 -6.359122282978057e-10 -0.41214036531137505 100.90004454222088
4.2702627907611115 -1.2850335165998978 1.4807363660697805 -1.7664991800264374 -1.5707963259466944 2.699466464001951 1.7781682538779144 -1.4639521986216324 2.031664959004481 -0.5677127721012599 2.7436257932012084e-09 1.7781682539970325 -1.2283399122182936 1.011282768784686 -1.4034527677333606 0.39217000704363425 -1.895267817671889e-09 -1.2283399123005758 100.95004716235152
4.320457404514095 -1.3263583546754794 1.5380867532844338 -1.7825247294962994 -1.5707963258692466 2.7496610777582973 1.7316822070746656 -1.4256805950911842 1.9785518342105615 -0.5528712505314382 2.6719001188983364e-09 1.7316822071906695 -2.0202959082537757 1.6632940276063874 -2.3083104732456556 0.6450164589533438 -3.1172168053813913e-09 -2.0202959083891128 101.00004978248217
4.3690055458194 -1.3663276646931883 1.5935559459773527 -1.7980246124914496 -1.5707963257943391 2.7982092190668544 1.66310759167451 -1.3692236435255736 1.9002011815758253 -0.5309775490103936 2.5660928741899646e-09 1.6631075917859195 -2.7718459861241795 2.2820394058759637 -3.167001969293044 0.8849625816839887 -4.276821456983275e-09 -2.7718459863098572 101.0500524026128
4.415294803890144 -1.404437253579079 1.6464442277220916 -1.8128033056553514 -1.5707963257229172 2.844498477140699 1.573829753443103 -1.2957218884008699 1.798195842567632 -0.5024739645385494 2.428341579171202e-09 1.5738297535485322 -3.4668277785634714 2.854212551372555 -3.961060772089539 1.1068482435639353 -5.349144038034459e-09 -3.4668277787957096 101.10005502274345
4.458758946131631 -1.4402209464084064 1.6961046434744462 -1.8266800288648144 -1.5707963256558541 2.887962619385098 1.4656958200679975 -1.206696055685179 1.6746462724758198 -0.46795022644980955 2.261496260635554e-09 1.465695820166183 -4.089078918305638 3.3665071118753254 -4.672020397849213 1.305513312921568 -6.309246814091944e-09 -4.08907891857957 101.15005764287409
4.498891111910552 -1.4732614487339721 1.7419580742531022 -1.8394929575823817 -1.5707963255939321 2.9280947851667083 1.3410147011586213 -1.1040470528386144 1.5321905404126608 -0.4281434964115457 2.069119452074876e-09 1.341014701248456 -4.622437038084633 3.8056167351634116 -5.281414362786066 1.4757976580852525 -7.132192050712635e-09 -4.622437038394289 101.20006026300473
4.5352570063241835 -1.5032012089144686 1.783508311820274 -1.8511034352087141 -1.5707963255378214 2.964460679582775 1.2025570882462937 -0.9900559688133198 1.3739943293128887 -0.38393836842460916 1.8554861936793986e-09 1.202557088326853 -5.0507397706344275 4.158235069015962 -5.770776183114132 1.6125411473833595 -7.793042013453468e-09 -5.050739770972774 101.25006288313537
4.5675080939695745 -1.5297532804428196 1.8203571333623452 -1.8614001854349742 -1.5707963254880595 2.9967117672303267 1.0535554547842274 -0.867384074053477 1.203750935933706 -0.3363668688233272 1.6255840323377508e-09 1.0535554548548043 -5.357824748689009 4.41105576121214 -6.121639375047486 1.710583649144271 -8.266858967871462e-09 -5.357824749047931 101.30006550326601
4.595394792712755 -1.5527121842745264 1.8522193761705124 -1.8703035245952122 -1.570796325445032 3.0245984659753744 0.8977040561475093 -0.7390728204952701 1.0256812708547578 -0.28660845627549836 1.3851130216369009e-09 0.8977040562076446 -5.527529604982329 4.550772459531076 -6.3155374548001175 1.7647650316963481 -8.528705179523496e-09 -5.527529605352611 101.35006812339665
4.618779667457924 -1.571964771156011 1.878938012321426 -1.8777695740187514 -1.57079632540895 3.0479833407221104 0.7391589296331124 -0.6085438415669198 0.8445338584781422 -0.2359900217823964 1.1404857218622011e-09 0.7391589296826283 -5.5436919722483475 4.564078811751924 -6.334003938586078 1.7699251633679762 -8.55364291396654e-09 -5.543691972619715 101.40007074352728
4.6376506239166515 -1.587501083952957 1.9004992233578293 -1.8837944723825715 -1.5707963253798332 3.0668542971821013 0.5825378944599199 -0.4795989521886748 0.6655848370284364 -0.18598588867877655 8.988271999974042e-10 0.5825378944989438 -5.390149483221066 4.437668465653844 -6.15857234261941 1.7209039124875258 -8.316734436757566e-09 -5.3901494835821575 101.45007336365792
4.652134102377073 -1.5994252199786583 1.9170474749692072 -1.8884185880636966 -1.570796325357486 3.0813377756434948 0.432920551768664 -0.3564201487727954 0.4946379585526411 -0.13821781263285848 6.679750297245812e-10 0.4329205517976643 -5.0507397706344355 4.158235069015963 -5.770776183114135 1.6125411473833577 -7.793042013453473e-09 -5.0507397709727675 101.50007598378856
4.6625082714730866 -1.6079661933223566 1.9289005916724171 -1.8917307314915757 -1.570796325341479 3.0917119447402026 0.29584828462200086 -0.24356960922358076 0.3380245889202451 -0.0944549816463501 4.5647929142423973e-10 0.29584828464182267 -4.509300467222421 3.712472269617465 -5.152148976284317 1.4396767363838665 -6.957627909611277e-09 -4.509300467524493 101.5500786039192
4.669216221953553 -1.6134887971775926 1.9365648314923445 -1.8938723675004736 -1.570796325331129 3.0984198952211193 0.17732425800444734 -0.14598969293733458 0.20260370782316112 -0.05661401605441896 2.736025721751862e-10 0.17732425801632304 -3.749669205718998 3.0870737152374628 -4.284224238343936 1.1971505478174012 -5.785554390787848e-09 -3.749669205970186 101.60008122404984
4.672879160451482 -1.6165044661705374 1.9407499606425254 -1.8950418276818486 -1.5707963253254773 3.1020828337192934 0.08381341882241494 -0.06900294080241269 0.09576190877579348 -0.026758968525721273 1.2931996575467823e-10 0.08381341882802801 -2.755683618858131 2.2687330536551262 -3.1485354855070757 0.8798024500123597 -4.25188372254023e-09 -2.75568361904274 101.65008384418049
4.674309603253245 -1.6176821386883522 1.9423843282058086 -1.8954985227367454 -1.5707963253232702 3.1035132765211513 0.02224249590420162 -0.018312075199165716 0.025413399114970092 -0.0071013240623814256 3.431907263828741e-11 0.02224249590569033 -1.5111813393738 1.2441439326495891 -1.7266162339877449 0.48247231129709794 -2.3316781704252795e-09 -1.5111813394750326 101.70008646431113
4.674524570067754 -1.6178591192075156 1.9426299408149843 -1.8955671548281736 -1.5707963253229384 3.1037282433356754 0.0 3.552713678800501e-15 0.0 0.0 0.0 0.0 1.4210854715202004e-14 2.1316282072803006e-14 0.0 -3.552713678800501e-15 0.0 1.4210854715202004e-14 101.75008908444177
4.674524570067755 -1.6178591192075162 1.942629940814986 -1.8955671548281738 -1.5707963253229384 3.1037282433356754 0.0 0.0 0.0 0.0 0.0 0.0 0.0 0.0 0.0 0.0 0.0 0.0 101.80009170457241
4.6745245691269055 -1.617636283155423 1.942987154031751 -1.896147204327628 -1.5707963253111776 3.1037282423954453 -4.3685187699926036e-08 0.010346643863316091 0.01658599630722126 -0.026932650877488293 5.46068835901312e-10 -4.3656427716029685e-08 -1.3047309393044576e-06 0.3090197633843739 0.4953684230423417 -0.8043885062076503 1.6309255898919184e-08 -1.3038719744520866e-06 101.8500917045724
4.674524563259337 -1.6162465756009667 1.9452148990542746 -1.8997646583427097 -1.5707963252378325 3.1037282365317402 -1.5221860958552005e-07 0.036052305728176956 0.057792982688273195 -0.09384532572422588 1.9027465215405714e-09 -1.521183970194101e-07 -2.087569502887132e-06 0.49443162141499825 0.7925894768677466 -1.2870216099322407 2.6094809438270694e-08 -2.0861951591233385e-06 101.90106131099576
4.674524549382818 -1.612959983338236 1.9504834100664554 -1.9083197650186645 -1.5707963250643748 3.103728222664357 -2.953118688515e-07 0.06994331251601678 0.11212133503681573 -0.18206471993182088 3.691425330692869e-09 -2.9511745136036067e-07 -2.423071744422564e-06 0.5738938462852657 0.9199699285072059 -1.4938643686713506 3.028861809799277e-08 -2.4214765239824465e-06 101.95203091741911
4.674524526162523 -1.6074603589158516 1.959299481399903 -1.9226354664656375 -1.570796324774119 3.103728199459349 -4.473363220472426e-07 0.10594963316035677 0.1698406021859457 -0.27579034498548016 5.5917448796294345e-09 -4.4704181981214397e-07 -2.385793717585294e-06 0.5650647101885693 0.9058165449917106 -1.4708818399225607 2.982263935802365e-08 -2.384223038998101e-06 102.00300052384246
4.674524493719799 -1.5997764430112116 1.9716170408426528 -1.9426369497645248 -1.570796324368582 3.1037281670379833 -5.873230790767834e-07 0.13910487860680523 0.22298950590819697 -0.36209452846400925 7.3415921271176385e-09 -5.869364170710658e-07 -2.050291476049862e-06 0.48560248531830175 0.7784360933522512 -1.2640390811834505 2.5628830698301575e-08 -2.048941674138993e-06 102.05397013026581
4.674524453340934 -1.5902128868047356 1.9869477229478814 -1.9675311979728225 -1.5707963238638425 3.1037281266857004 -6.989630031988166e-07 0.16554630181305746 0.2653759409155402 -0.4309224140398127 8.737101374420991e-09 -6.98502843456475e-07 -1.4911210734908087e-06 0.35316544386785576 0.5661353406198191 -0.9193011499516004 1.863914959876478e-08 -1.4901393993738132e-06 102.10493973668916
4.674524407185914 -1.5792812743541103 2.00447144234262 -1.9959865411304771 -1.5707963232869007 3.103728080561068 -7.706067110266953e-07 0.18251479774889587 0.29257697485938305 -0.47509196147889354 9.632654265299143e-09 -7.700993849107636e-07 -7.828385635826746e-07 0.185411858030624 0.29722105382540476 -0.48263310372459056 9.78555353935151e-09 -7.82323184671252e-07 102.15590934311251
4.674524357997202 -1.5676311449685323 2.0231469670364715 -2.0263122072657347 -1.5707963226720372 3.1037280314047386 -7.952645725284313e-07 0.18835490339618977 0.30193884833057016 -0.4902939466408536 9.940879786007883e-09 -7.947410129993671e-07 0.0 -4.440892098500626e-16 0.0 0.0 0.0 0.0 102.20687894953586
4.67452430880849 -1.5559810155829543 2.041822491730323 -2.0566378734009927 -1.5707963220571737 3.1037279822484094 -7.706067110266953e-07 0.1825147977488958 0.29257697485938294 -0.47509196147889377 9.632654265299143e-09 -7.700993849107636e-07 7.828385635826746e-07 -0.18541185803062488 -0.29722105382540476 0.48263310372459056 -9.78555353935151e-09 7.82323184671252e-07 102.25784855595921
4.67452426265347 -1.545049403132329 2.0593462111250616 -2.085093216558647 -1.5707963214802318 3.103727936123777 -6.989630031988166e-07 0.1655463018130574 0.2653759409155403 -0.4309224140398128 8.737101374420991e-09 -6.98502843456475e-07 1.4911210734908087e-06 -0.35316544386785664 -0.5661353406198191 0.9193011499516004 -1.863914959876478e-08 1.4901393993738132e-06 102.30881816238256
4.674524222274605 -1.535485846925853 2.07467689323029 -2.1099874647669448 -1.5707963209754923 3.103727895771494 -5.873230790767834e-07 0.13910487860680526 0.22298950590819705 -0.36209452846400914 7.3415921271176385e-09 -5.869364170710658e-07 2.050291476049862e-06 -0.48560248531830263 -0.7784360933522516 1.2640390811834505 -2.5628830698301575e-08 2.048941674138993e-06 102.35978776880592
4.674524189831881 -1.527801931021213 2.0869944526730397 -2.129988948065832 -1.5707963205699553 3.1037278633501284 -4.473363220472426e-07 0.10594963316035672 0.16984060218594588 -0.2757903449854804 5.5917448796294345e-09 -4.4704181981214397e-07 2.385793717585294e-06 -0.5650647101885711 -0.9058165449917093 1.470881839922562 -2.982263935802365e-08 2.384223038998101e-06 102.41075737522927
4.674524166611586 -1.5223023065988286 2.0958105240064877 -2.1443046495128053 -1.5707963202796995 3.1037278401451203 -2.953118688515e-07 0.06994331251601671 0.11212133503681593 -0.18206471993182058 3.691425330692869e-09 -2.9511745136036067e-07 2.423071744422564e-06 -0.5738938462852671 -0.919969928507206 1.4938643686713524 -3.028861809799277e-08 2.4214765239824465e-06 102.46172698165262
4.674524152735067 -1.5190157143360976 2.1010790350186683 -2.15285975618876 -1.5707963201062418 3.103727826277737 -1.5221860958552005e-07 0.03605230572817687 0.05779298268827307 -0.0938453257242261 1.9027465215405714e-09 -1.521183970194101e-07 2.087569502887132e-06 -0.4944316214150002 -0.7925894768677471 1.287021609932241 -2.6094809438270694e-08 2.0861951591233385e-06 102.51269658807597
4.6745241468674985 -1.5176260067816416 2.103306780041192 -2.156477210203842 -1.5707963200328967 3.103727820414032 -4.3685187699926036e-08 0.010346643863315717 0.016585996307221802 -0.026932650877488723 5.46068835901312e-10 -4.3656427716029685e-08 1.3047309393044576e-06 -0.3090197633843764 -0.49536842304234185 0.8043885062076486 -1.6309255898919184e-08 1.3038719744520866e-06 102.56366619449932
4.674524145926649 -1.5174031707295483 2.103663993257957 -2.157057259703296 -1.570796320021136 3.103727819473802 0.0 0.0 0.0 0.0 0.0 0.0 0.0 -1.7763568394002505e-15 0.0 0.0 0.0 0.0 102.61463580092267
                  102.66560540734602
                  102.71560540734602
                  102.76977207401268
                  102.82393874067935
                  102.87810540734603
                  102.93227207401269
                  102.98643874067935
                  103.04060540734602
                  103.0947720740127
                  103.14893874067936
                  103.20310540734602
                  103.25727207401269
                  103.31143874067936
4.674524570067755 -1.6178591192075162 1.942629940814986 -1.8955671548281738 -1.5707963253229384 3.1037282433356754 0.0 0.0 0.0 0.0 0.0 0.0 0.0 0.0 0.0 0.0 0.0 0.0 103.36560540734602
4.6745245691269055 -1.617636283155423 1.942987154031751 -1.896147204327628 -1.5707963253111776 3.1037282423954453 -4.3685187699926036e-08 0.010346643863316091 0.01658599630722126 -0.026932650877488293 5.46068835901312e-10 -4.3656427716029685e-08 -1.3047309393044576e-06 0.3090197633843739 0.4953684230423417 -0.8043885062076503 1.6309255898919184e-08 -1.3038719744520866e-06 103.41560540734602
4.674524563259337 -1.6162465756009667 1.9452148990542746 -1.8997646583427097 -1.5707963252378325 3.1037282365317402 -1.5221860958552005e-07 0.036052305728176956 0.057792982688273195 -0.09384532572422588 1.9027465215405714e-09 -1.521183970194101e-07 -2.087569502887132e-06 0.49443162141499825 0.7925894768677466 -1.2870216099322407 2.6094809438270694e-08 -2.0861951591233385e-06 103.46657501376937
4.674524549382818 -1.612959983338236 1.9504834100664554 -1.9083197650186645 -1.5707963250643748 3.103728222664357 -2.953118688515e-07 0.06994331251601678 0.11212133503681573 -0.18206471993182088 3.691425330692869e-09 -2.9511745136036067e-07 -2.423071744422564e-06 0.5738938462852657 0.9199699285072059 -1.4938643686713506 3.028861809799277e-08 -2.4214765239824465e-06 103.51754462019272
4.674524526162523 -1.6074603589158516 1.959299481399903 -1.9226354664656375 -1.570796324774119 3.103728199459349 -4.473363220472426e-07 0.10594963316035677 0.1698406021859457 -0.27579034498548016 5.5917448796294345e-09 -4.4704181981214397e-07 -2.385793717585294e-06 0.5650647101885693 0.9058165449917106 -1.4708818399225607 2.982263935802365e-08 -2.384223038998101e-06 103.56851422661607
4.674524493719799 -1.5997764430112116 1.9716170408426528 -1.9426369497645248 -1.570796324368582 3.1037281670379833 -5.873230790767834e-07 0.13910487860680523 0.22298950590819697 -0.36209452846400925 7.3415921271176385e-09 -5.869364170710658e-07 -2.050291476049862e-06 0.48560248531830175 0.7784360933522512 -1.2640390811834505 2.5628830698301575e-08 -2.048941674138993e-06 103.61948383303942
4.674524453340934 -1.5902128868047356 1.9869477229478814 -1.9675311979728225 -1.5707963238638425 3.1037281266857004 -6.989630031988166e-07 0.16554630181305746 0.2653759409155402 -0.4309224140398127 8.737101374420991e-09 -6.98502843456475e-07 -1.4911210734908087e-06 0.35316544386785576 0.5661353406198191 -0.9193011499516004 1.863914959876478e-08 -1.4901393993738132e-06 103.67045343946278
4.674524407185914 -1.5792812743541103 2.00447144234262 -1.9959865411304771 -1.5707963232869007 3.103728080561068 -7.706067110266953e-07 0.18251479774889587 0.29257697485938305 -0.47509196147889354 9.632654265299143e-09 -7.700993849107636e-07 -7.828385635826746e-07 0.185411858030624 0.29722105382540476 -0.48263310372459056 9.78555353935151e-09 -7.82323184671252e-07 103.72142304588613
4.674524357997202 -1.5676311449685323 2.0231469670364715 -2.0263122072657347 -1.5707963226720372 3.1037280314047386 -7.952645725284313e-07 0.18835490339618977 0.30193884833057016 -0.4902939466408536 9.940879786007883e-09 -7.947410129993671e-07 0.0 -4.440892098500626e-16 0.0 0.0 0.0 0.0 103.77239265230948
4.67452430880849 -1.5559810155829543 2.041822491730323 -2.0566378734009927 -1.5707963220571737 3.1037279822484094 -7.706067110266953e-07 0.1825147977488958 0.29257697485938294 -0.47509196147889377 9.632654265299143e-09 -7.700993849107636e-07 7.828385635826746e-07 -0.18541185803062488 -0.29722105382540476 0.48263310372459056 -9.78555353935151e-09 7.82323184671252e-07 103.82336225873283
4.67452426265347 -1.545049403132329 2.0593462111250616 -2.085093216558647 -1.5707963214802318 3.103727936123777 -6.989630031988166e-07 0.1655463018130574 0.2653759409155403 -0.4309224140398128 8.737101374420991e-09 -6.98502843456475e-07 1.4911210734908087e-06 -0.35316544386785664 -0.5661353406198191 0.9193011499516004 -1.863914959876478e-08 1.4901393993738132e-06 103.87433186515618
4.674524222274605 -1.535485846925853 2.07467689323029 -2.1099874647669448 -1.5707963209754923 3.103727895771494 -5.873230790767834e-07 0.13910487860680526 0.22298950590819705 -0.36209452846400914 7.3415921271176385e-09 -5.869364170710658e-07 2.050291476049862e-06 -0.48560248531830263 -0.7784360933522516 1.2640390811834505 -2.5628830698301575e-08 2.048941674138993e-06 103.92530147157953
4.674524189831881 -1.527801931021213 2.0869944526730397 -2.129988948065832 -1.5707963205699553 3.1037278633501284 -4.473363220472426e-07 0.10594963316035672 0.16984060218594588 -0.2757903449854804 5.5917448796294345e-09 -4.4704181981214397e-07 2.385793717585294e-06 -0.5650647101885711 -0.9058165449917093 1.470881839922562 -2.982263935802365e-08 2.384223038998101e-06 103.97627107800288
4.674524166611586 -1.5223023065988286 2.0958105240064877 -2.1443046495128053 -1.5707963202796995 3.1037278401451203 -2.953118688515e-07 0.06994331251601671 0.11212133503681593 -0.18206471993182058 3.691425330692869e-09 -2.9511745136036067e-07 2.423071744422564e-06 -0.5738938462852671 -0.919969928507206 1.4938643686713524 -3.028861809799277e-08 2.4214765239824465e-06 104.02724068442623
4.674524152735067 -1.5190157143360976 2.1010790350186683 -2.15285975618876 -1.5707963201062418 3.103727826277737 -1.5221860958552005e-07 0.03605230572817687 0.05779298268827307 -0.0938453257242261 1.9027465215405714e-09 -1.521183970194101e-07 2.087569502887132e-06 -0.4944316214150002 -0.7925894768677471 1.287021609932241 -2.6094809438270694e-08 2.0861951591233385e-06 104.07821029084958
4.6745241468674985 -1.5176260067816416 2.103306780041192 -2.156477210203842 -1.5707963200328967 3.103727820414032 -4.3685187699926036e-08 0.010346643863315717 0.016585996307221802 -0.026932650877488723 5.46068835901312e-10 -4.3656427716029685e-08 1.3047309393044576e-06 -0.3090197633843764 -0.49536842304234185 0.8043885062076486 -1.6309255898919184e-08 1.3038719744520866e-06 104.12917989727293
4.674524145926649 -1.5174031707295483 2.103663993257957 -2.157057259703296 -1.570796320021136 3.103727819473802 0.0 0.0 0.0 0.0 0.0 0.0 0.0 -1.7763568394002505e-15 0.0 0.0 0.0 0.0 104.18014950369628
4.674524145926649 -1.5174031707295483 2.103663993257957 -2.1570572597032958 -1.570796320021136 3.103727819473802 0.0 0.0 0.0 0.0 0.0 0.0 0.0 0.0 0.0 0.0 0.0 0.0 104.23111911011964
4.674347896605058 -1.517367142795586 2.103590742159553 -2.1570200365271384 -1.5707963200218615 3.1035515701521743 -0.02352511245138872 0.004808876370171007 -0.009777287717112074 0.004968412910711067 -9.685513229158499e-11 -0.023525112456222446 -2.0691405724289624 0.42296253528549543 -0.8599568969369029 0.436994499192087 -8.518849135646225e-09 -2.069140572854111 104.28111911011963
4.673161460808712 -1.517124618000962 2.1030976467848665 -2.156769465868211 -1.5707963200267463 3.1023651343555847 -0.08987176223681351 0.01837110001745081 -0.03735166320028972 0.018980569156828022 -3.700106190230179e-10 -0.08987176225527956 -3.856125612253975 0.7882483612138778 -1.6026469442915008 0.8143988394034349 -1.587603702552251e-08 -3.8561256130462973 104.33192100547416
4.67008183672728 -1.5164950978868794 2.101817722161045 -2.156119061153762 -1.5707963200394253 3.09928551027352 -0.19291564322223517 0.0394347733743982 -0.080177799481855 0.04074303893101699 -7.942521075729356e-10 -0.19291564326187374 -5.374078632619408 1.0985401154296641 -2.2335244141373893 1.1349846559354733 -2.212559442524606e-08 -5.3740786337236255 104.38272290082868
4.664358877868683 -1.5153252415608176 2.099439199402893 -2.1549103943412535 -1.5707963200629873 3.0935625514137466 -0.3268240828990449 0.0668076130434501 -0.13583157564020987 0.06902398432153142 -1.3455659287781351e-09 -0.3268240829661978 -6.636123146669632 1.3565204355773712 -2.7580435785481643 1.4015235840896323 -2.732155209043409e-08 -6.636123148033163 104.4335247961832
4.655368812311861 -1.5134875409372044 2.0957028322451854 -2.153011727209568 -1.5707963201000001 3.084572485855077 -0.4860560423840644 0.09935694979692164 -0.20201007679983624 0.10265315931221212 -2.001139096933574e-09 -0.48605604248393486 -7.6553826675490155 1.564871959301516 -3.181658709597421 1.6167872591673411 -3.1517940776703794e-08 -7.655382669121974 104.48432669153773
4.6426077619595425 -1.5108789959780833 2.0903992035749726 -2.1503166426502185 -1.5707963201525388 3.0718114355001367 -0.6653621164195458 0.13600972857700602 -0.2765315941312958 0.1405219097824872 -2.7393593097923698e-09 -0.6653621165562584 -8.444980708401928 1.726277324246615 -3.5098240793587547 1.7835473164700295 -3.476879123967238e-08 -8.444980710137125 104.53512858689226
4.625685261791012 -1.5074197899337842 2.0833660319638914 -2.146742675958558 -1.5707963202222102 3.0548889353281297 -0.8597845333731716 0.17575250849577467 -0.3573356248512303 0.18158317350737202 -3.5398149485657994e-09 -0.8597845335498323 -9.01804078237274 1.8434191680571856 -3.7479939599057617 1.9045753912991275 -3.712813423495707e-08 -9.018040784225684 104.58593048224678
4.604317779114879 -1.5030519645835922 2.074485478200476 -2.142229946124987 -1.5707963203101822 3.033521452647607 -1.0646571552380546 0.21763146283517712 -0.44248287222236127 0.22485148015746942 -4.3832950779233006e-09 -1.064657155456811 -9.387686402605823 1.9189801283777446 -3.9016226233120372 1.9826431189560652 -3.865000051817506e-08 -9.387686404534717 104.6367323776013
4.578322232821847 -1.4977380954764172 2.0636814518224647 -2.136739787126165 -1.5707963204172084 3.007525906349233 -1.2756054776327388 0.2607523790470412 -0.5301552455534903 0.2694029512989696 -5.2517894459924724e-09 -1.275605477894839 -9.567041082245542 1.9556428428528083 -3.976164341651176 2.020522134742271 -3.938842084494354e-08 -9.567041084211288 104.68753427295583
4.547609512637477 -1.4914599671714632 2.050916917649111 -2.130253379216218 -1.5707963205436555 2.976813186158552 -1.4885466298011973 0.3042806587530725 -0.6186558601994985 0.3143753003936496 -6.128488484359071e-09 -1.4885466301070505 -9.569228334436271 1.956089949126895 -3.977073386996776 2.0209840739591765 -3.9397425970879744e-08 -9.569228336402468 104.73833616831035
4.512177998374962 -1.4842172484788974 2.036191202313492 -2.1227703802179483 -1.5707963206895306 2.941381671888757 -1.6996893746128354 0.3474413177448553 -0.7064090375613474 0.3589678327988747 -6.9977833080670165e-09 -1.699689374962072 -9.407371672322377 1.9230040848445196 -3.90980403142243 1.9868005719082094 -3.8731046651600866e-08 -9.407371674255314 104.78913806366488
4.47210707918789 -1.47602616770052 2.0195373007948185 -2.1143075568140435 -1.5707963208545064 2.901310752693452 -1.9055341085624864 0.3895189859838516 -0.791960305086078 0.40244144576759644 -7.845265715618385e-09 -1.9055341089540183 -9.094594609048231 1.859067887650201 -3.779810547001736 1.920743263890801 -3.744331364272411e-08 -9.094594610916902 104.8399399590194
4.427550672823018 -1.4669181878704332 2.001019182950744 -2.104897415838286 -1.5707963210379492 2.8567543463194247 -2.1028728617704164 0.42985790760140175 -0.8739763962668116 0.44411862844835454 -8.657728188973416e-09 -2.102872862202496 -8.644020657758205 1.7669639951884548 -3.592547205808288 1.8255837852083803 -3.5588257699866683e-08 -8.644020659534293 104.89074185437393
4.3787307448730335 -1.456938681995711 1.9807291000496738 -2.0945868355667616 -1.5707963212389455 2.8079344183594097 -2.288789297982321 0.46786194089872424 -0.9512452506427488 0.4833834618852757 -9.423163893550506e-09 -2.288789298452601 -8.068773331596665 1.6493750451037978 -3.353468279915682 1.7040937711623776 -3.3219909578645796e-08 -8.068773333254558 104.94154374972845
4.325930828029328 -1.4461456082970685 1.9587848913030743 -2.083435697009069 -1.5707963214563279 2.7551345015048545 -2.4606587145693264 0.5029945583469159 -1.0226760137991708 0.5196816190180739 -1.0130766678226219e-08 -2.46065871507492 -7.381976143707984 1.5089836750407473 -3.0680280413975125 1.559044857054222 -3.0392300034678655e-08 -7.381976145224756 104.99234564508298
4.269489541334762 -1.4346081854495307 1.9353272903977825 -2.0715155151995286 -1.570796321688702 2.6986932147986913 -2.616148042527988 0.5347788465869509 -1.0872990373674385 0.5525203646820505 -1.0770931075335268e-08 -2.6161480430655306 -6.596752607236531 1.3484725226438214 -2.7416807623273787 1.393208678185343 -2.7159459823582475e-08 -6.596752608591963 105.0431475404375
4.209794109436434 -1.4224055678231027 1.910517232028316 -2.058908070488393 -1.5707963219344738 2.6389977828880977 -2.7532158464802947 0.5627975064296828 -1.1442658790249922 0.5814685556080943 -1.1335252300670535e-08 -2.7532158470460004 -5.726226235326672 1.1705242255575343 -2.3798807147788708 1.2093568698571713 -2.3575419700974436e-08 -5.726226236503236 105.09394943579203
4.1472738818384505 -1.409625520723438 1.884533158429181 -2.045704039833055 -1.5707963221918755 2.5764775552772683 -2.870112324673663 0.5866928528558426 -1.192849302495353 0.6061566404226814 -1.1816526253483062e-08 -2.870112325263387 -4.783520541122775 0.977821421426404 -1.988082170825586 1.0102610673711345 -1.969421042247176e-08 -4.7835205421056335 105.14475133114655
4.082393852154693 -1.3963630956325093 1.8575683259071827 -2.0320016280892563 -1.5707963224589927 2.5115975255801795 -2.965379308980939 0.606166815016039 -1.2324432775481209 0.6262766596478749 -1.2208749516482042e-08 -2.9653793095902383 -3.7817590377692256 0.7730467478949496 -1.571739402541126 0.798692906028667 -1.556986274369169e-08 -3.78175903854625 105.19555322650108
4.015648177361584 -1.3827193054492768 1.8298281113737342 -2.017905199302297 -1.570796322733791 2.4448518507733565 -3.037850264900402 0.6209809362307601 -1.262562979998976 0.6415822457013256 -1.2507119355834834e-08 -3.0378502655245923 -2.7340652384103765 0.558882842607685 -1.1363066819990806 0.5774240211311931 -1.1256407420251367e-08 -2.7340652389721307 105.2463551218556
3.94755369705086 -1.3687997997303578 1.8015273188771666 -2.0035239079982468 -1.5707963230141426 2.3767573704486407 -3.0866502915557636 0.630956373990371 -1.28284479170968 0.6518886228962717 -1.270803372116697e-08 -3.08665029218998 -1.6535626561905965 0.33801234320912793 -0.6872382812730432 0.3492260479801451 -6.807875207768014e-09 -1.6535626565303376 105.29715701721013
3.878643452682334 -1.3547135399306962 1.7728874861350363 -1.9889703304751507 -1.5707963232978526 2.307847126065956 -3.1111961216961594 0.6359738999551159 -1.293046300588072 0.6570726074415386 -1.2809091245562116e-08 -3.1111961223354188 -0.5533748042542609 0.11311788734379412 -0.2299884724366123 0.1168706218769521 -2.2782968618588675e-09 -0.5533748043679462 105.34795891256465
3.809460206836669 -1.340571474644232 1.744134191066437 -1.974359096094241 -1.5707963235826867 2.238663880206076 -3.1111961216961586 0.6359738999551159 -1.2930463005880715 0.6570726074415385 -1.2809091245562112e-08 -3.111196122335418 0.5533748042542427 -0.11311788734379363 0.22998847243661125 -0.11687062187695332 2.278296861858875e-09 0.5533748043679635 105.39876080791919
3.7405499624681435 -1.3264852148445707 1.7154943583243067 -1.959805518571145 -1.5707963238663967 2.1697536358233913 -3.086650291555765 0.6309563739903711 -1.2828447917096801 0.651888622896272 -1.2708033721166967e-08 -3.08665029218998 1.6535626561905752 -0.33801234320912615 0.6872382812730432 -0.3492260479801469 6.807875207768014e-09 1.653562656530359 105.44956270327371
3.6724554821574187 -1.3125657091256517 1.6871935658277386 -1.9454242272670945 -1.5707963241467482 2.101659155498675 -3.037850264900403 0.6209809362307601 -1.2625629799989757 0.6415822457013257 -1.250711935583483e-08 -3.0378502655245923 2.7340652384103494 -0.5588828426076838 1.1363066819990784 -0.5774240211311936 1.1256407420251344e-08 2.7340652389721467 105.50036459862824
3.6057098073643097 -1.2989219189424193 1.6594533512942906 -1.9313277984801356 -1.5707963244215466 2.034913480691852 -2.965379308980939 0.6061668150160391 -1.2324432775481204 0.6262766596478746 -1.220874951648204e-08 -2.9653793095902374 3.7817590377691985 -0.7730467478949468 1.5717394025411255 -0.7986929060286658 1.556986274369164e-08 3.7817590385462654 105.55116649398276
3.5408297776805533 -1.2856594938514907 1.6324885187722926 -1.9176253867363369 -1.5707963246886638 1.9700334509947641 -2.870112324673665 0.586692852855843 -1.192849302495354 0.6061566404226817 -1.1816526253483073e-08 -2.8701123252633898 4.783520541122768 -0.9778214214264023 1.9880821708255896 -1.0102610673711354 1.9694210422471786e-08 4.783520542105662 105.60196838933729
3.478309550082569 -1.2728794467518258 1.6065044451731574 -1.9044213560809986 -1.5707963249460655 1.9075132233839343 -2.7532158464802965 0.5627975064296827 -1.1442658790249924 0.5814685556080942 -1.1335252300670534e-08 -2.753215847045998 5.726226235326651 -1.1705242255575325 2.379880714778869 -1.2093568698571695 2.3575419700974436e-08 5.72622623650325 105.65277028469181
3.4186141181842418 -1.2606768291253978 1.581694386803691 -1.8918139113698633 -1.5707963251918373 1.847817791473341 -2.6161480425279935 0.5347788465869513 -1.0872990373674396 0.552520364682051 -1.0770931075335275e-08 -2.6161480430655324 6.596752607236515 -1.348472522643821 2.74168076232738 -1.3932086781853454 2.7159459823582505e-08 6.5967526085919825 105.70357218004634
3.362172831489675 -1.24913940627786 1.5582367858983992 -1.879893729560323 -1.5707963254242114 1.7913765047671777 -2.4606587145693277 0.5029945583469159 -1.0226760137991715 0.519681619018074 -1.0130766678226222e-08 -2.460658715074921 7.381976143707966 -1.508983675040746 3.0680280413975116 -1.5590448570542206 3.0392300034678635e-08 7.3819761452247805 105.75437407540086
3.3093729146459685 -1.2383463325792174 1.5362925771517995 -1.8687425910026305 -1.5707963256415938 1.738576587912623 -2.288789297982322 0.46786194089872435 -0.9512452506427486 0.48338346188527564 -9.423163893550511e-09 -2.288789298452599 8.068773331596637 -1.6493750451037943 3.3534682799156803 -1.704093771162374 3.3219909578645796e-08 8.068773333254562 105.80517597075539
3.260552986695984 -1.2283668267044954 1.5160024942507289 -1.8584320107311056 -1.57079632584259 1.6897566599526062 -2.102872861770417 0.4298579076014014 -0.87397639626681 0.44411862844835387 -8.657728188973398e-09 -2.102872862202494 8.64402065775817 -1.766963995188452 3.592547205808284 -1.8255837852083783 3.558825769986664e-08 8.644020659534299 105.85597786610991
3.2159965803311126 -1.2192588468744083 1.4974843764066545 -1.8490218697553482 -1.570796326026033 1.6452002535785795 -1.9055341085624893 0.38951898598385176 -0.7919603050860783 0.4024414457675964 -7.845265715618385e-09 -1.9055341089540188 9.094594609048226 -1.8590678876502043 3.779810547001742 -1.9207432638908017 3.744331364272418e-08 9.094594610916936 105.90677976146443
3.1759256611440403 -1.2110677660960312 1.4808304748879815 -1.8405590463514434 -1.5707963261910087 1.6051293343832753 -1.6996893746128385 0.3474413177448554 -0.7064090375613468 0.35896783279887473 -6.997783308067016e-09 -1.6996893749620698 9.407371672322352 -1.923004084844517 3.909804031422435 -1.9868005719082111 3.873104665160085e-08 9.407371674255318 105.95758165681896
3.140494146881525 -1.203825047403465 1.4661047595523624 -1.8330760473531738 -1.5707963263368838 1.569697820113479 -1.4885466298011993 0.30428065875307214 -0.6186558601994976 0.31437530039364975 -6.128488484359064e-09 -1.4885466301070462 9.569228334436245 -1.9560899491268922 3.977073386996776 -2.020984073959177 3.939742597087974e-08 9.569228336402476 106.00838355217348
3.109781426697154 -1.197546919098511 1.4533402253790082 -1.8265896394432266 -1.570796326463331 1.5389850999227974 -1.2756054776327406 0.2607523790470412 -0.530155245553489 0.2694029512989684 -5.251789445992478e-09 -1.2756054778948378 9.567041082245526 -1.9556428428528099 3.9761643416511827 -2.0205221347422735 3.9388420844943585e-08 9.567041084211313 106.05918544752801
3.0837858804041223 -1.1922330499913363 1.4425361990009975 -1.8210994804444047 -1.570796326570357 1.5129895536244242 -1.0646571552380524 0.21763146283517734 -0.44248287222235944 0.2248514801574689 -4.383295077923302e-09 -1.0646571554568094 9.387686402605784 -1.9189801283777443 3.9016226233120355 -1.982643118956068 3.865000051817505e-08 9.387686404534733 106.10998734288253
3.062418397727991 -1.1878652246411443 1.433655645237582 -1.816586750610834 -1.5707963266583291 1.491622070943903 -0.8597845333731763 0.1757525084957742 -0.35733562485123094 0.1815831735073722 -3.539814948565798e-09 -0.859784533549834 9.018040782372712 -1.8434191680571792 3.747993959905761 -1.9045753912991243 3.712813423495703e-08 9.0180407842257 106.16078923823706
3.0454958975594595 -1.184406018596845 1.4266224736265 -1.813012783919173 -1.5707963267280005 1.4746995707718928 -0.6653621164195479 0.1360097285770044 -0.27653159413129347 0.14052190978248627 -2.73935930979235e-09 -0.6653621165562529 8.444980708401891 -1.7262773242466125 3.5098240793587565 -1.783547316470027 3.47687912396724e-08 8.444980710137155 106.21159113359158
3.0327348472071387 -1.1817974736377237 1.4213188449562868 -1.8103176993598238 -1.5707963267805392 1.4619385204169522 -0.4860560423840617 0.09935694979692038 -0.2020100767998328 0.10265315931221057 -2.001139096933557e-09 -0.486056042483927 7.655382667548971 -1.5648719593015106 3.181658709597407 -1.6167872591673358 3.151794077670371e-08 7.655382669121972 106.26239302894611
3.023744781650319 -1.1799597730141111 1.4175824777985802 -1.8084190322281384 -1.570796326817552 1.4529484548582852 -0.32682408289905884 0.06680761304345038 -0.1358315756402125 0.06902398432153187 -1.3455659287781473e-09 -0.32682408296620646 6.636123146669611 -1.3565204355773675 2.7580435785481736 -1.401523584089635 2.732155209043416e-08 6.636123148033184 106.31319492430063
3.0180218227917215 -1.1787899166880489 1.4152039550404283 -1.8072103654156297 -1.570796326841114 1.4472254959985096 -0.19291564322223656 0.03943477337439667 -0.0801777994818539 0.04074303893101675 -7.942521075729267e-10 -0.19291564326186858 5.374078632619397 -1.0985401154296601 2.2335244141373845 -1.134984655935474 2.212559442524606e-08 5.374078633723661 106.36399681965516
3.0149421987102887 -1.1781603965739662 1.4139240304166067 -1.8065599607011815 -1.570796326853793 1.4441458719164457 -0.08987176223682092 0.01837110001745172 -0.03735166320028796 0.01898056915682689 -3.7001061902301333e-10 -0.08987176225527621 3.856125612253946 -0.7882483612138685 1.6026469442914935 -0.81439883940343 1.587603702552242e-08 3.8561256130463066 106.41479871500968
3.013755762913946 -1.1779178717793428 1.4134309350419207 -1.8063093900422538 -1.5707963268586778 1.4429594361198579 -0.023525112451397837 0.004808876370171731 -0.009777287717115111 0.004968412910712367 -9.685513229159658e-11 -0.023525112456230353 2.069140572428936 -0.42296253528549554 0.8599568969369017 -0.4369944991920855 8.518849135646257e-09 2.0691405728541423 106.4656006103642
3.0135795135923518 -1.1778818438453802 1.4133576839435165 -1.8062721668660964 -1.5707963268594034 1.4427831867982288 -7.105427357601002e-15 0.0 0.0 0.0 0.0 0.0 -2.842170943040401e-14 3.552713678800501e-15 0.0 0.0 0.0 2.842170943040401e-14 106.51640250571873
3.0135795135923544 -1.1778818438453802 1.4133576839435165 -1.806272166866096 -1.5707963268594034 1.4427831867982306 0.0 0.0 0.0 0.0 0.0 0.0 0.0 0.0 0.0 0.0 0.0 0.0 106.56720440107325
3.0135795136129113 -1.1776557011161803 1.413832186322794 -1.8069728119738422 -1.5707963268604985 1.4427831868189298 8.309399024746299e-10 0.009141008495788491 0.01918005631043771 -0.02832106477666948 -4.426403711149281e-11 8.366901715402022e-10 2.1476600556267357e-08 0.2362599118911487 0.495730686177467 -0.7319905973046881 -1.1440551130355064e-09 2.162522289519292e-08 106.61720440107325
3.0135795137388284 -1.1762705125083937 1.4167386485047477 -1.8112644627591037 -1.570796326867206 1.4427831869457182 2.8320791942330582e-09 0.03115515321641521 0.06537107949592971 -0.09652623261160721 -1.5086441051017665e-10 2.8516777444210443e-09 3.3040923932719015e-08 0.3634767875248442 0.76266259411918 -1.126139380468751 -1.7600847892853946e-09 3.3269573684912184e-08 106.66963776120521
3.0135795140298094 -1.1730694853574875 1.423455181044227 -1.8211820224391388 -1.5707963268827065 1.442783187238713 5.3543997265968754e-09 0.058902711549785006 0.12359219717199212 -0.1824949085313199 -2.8522802612080274e-10 5.391453235546037e-09 3.634501632599092e-08 0.39982446627732865 0.838928853531098 -1.2387533185156263 -1.936093268213934e-09 3.659653105340341e-08 106.72207112133717
3.013579514503415 -1.1678594453503641 1.4343871105750112 -1.8373239919602002 -1.5707963269079355 1.4427831877155957 7.866886650647384e-09 0.08654209226782004 0.1815863319331381 -0.2681284239211312 -4.19067806972713e-10 7.921327067836235e-09 3.3040923932719015e-08 0.36347678752484425 0.7626625941191799 -1.1261393804687512 -1.7600847892853943e-09 3.326957368491219e-08 106.77450448146912
3.013579515143489 -1.1608181128550734 1.4491615365940236 -1.8591397504517355 -1.5707963269420322 1.4427831883600994 9.956528417225596e-09 0.10952983552645974 0.22982020135287795 -0.33935003652518164 -5.303826931998399e-10 1.0025429570230235e-08 2.478069294953926e-08 0.2726075906436333 0.571996945589385 -0.8446045353515635 -1.3200635919640454e-09 2.495218026368414e-08 106.82693784160108
3.0135795159085905 -1.1524013792505263 1.4668218882455446 -1.885216835680589 -1.570796326982789 1.4427831891304956 1.1328316776932231e-08 0.12462061286566087 0.26148431798371885 -0.38610493044642885 -6.034576420407065e-10 1.1406710977684174e-08 1.3216369573087604e-08 0.14539071500993803 0.30506503764767223 -0.4504557521875013 -7.040339157141586e-10 1.3307829473964895e-08 106.87937120173304
3.0135795167404202 -1.1432505832562074 1.4860224811054272 -1.913568224505202 -1.5707963270271004 1.4427831899680816 1.1805246780127732e-08 0.12986722720939747 0.27249298935716537 -0.4023602161466475 -6.288636278384274e-10 1.1886941431171749e-08 0.0 4.440892098500626e-16 0.0 -8.881784197001252e-16 0.0 0.0 106.931804561865
3.01357951757225 -1.1340997872618888 1.5052230739653099 -1.9419196133298149 -1.5707963270714118 1.4427831908056676 1.1328316776932233e-08 0.1246206128656609 0.2614843179837188 -0.386104930446429 -6.034576420407068e-10 1.1406710977684176e-08 -1.3216369573087599e-08 -0.14539071500993758 -0.30506503764767273 0.45045575218749934 7.040339157141581e-10 -1.3307829473964863e-08 106.98423792199695
3.0135795183373513 -1.1256830536573417 1.5228834256168309 -1.967996698558668 -1.5707963271121685 1.4427831915760638 9.956528417225594e-09 0.10952983552645976 0.22982020135287795 -0.3393500365251815 -5.3038269319984e-10 1.0025429570230236e-08 -2.4780692949539223e-08 -0.27260759064363244 -0.5719969455893846 0.844604535351561 1.3200635919640435e-09 -2.495218026368413e-08 107.0366712821289
3.0135795189774255 -1.118641721162051 1.5376578516358432 -1.9898124570502036 -1.5707963271462653 1.4427831922205676 7.866886650647388e-09 0.08654209226782013 0.18158633193313806 -0.26812842392113123 -4.1906780697271267e-10 7.92132706783623e-09 -3.304092393271903e-08 -0.3634767875248441 -0.762662594119181 1.1261393804687507 1.760084789285395e-09 -3.3269573684912203e-08 107.08910464226086
3.013579519451031 -1.1134316811549276 1.5485897811666274 -2.005954426571265 -1.5707963271714942 1.4427831926974504 5.354399726596868e-09 0.05890271154978504 0.12359219717199177 -0.18249490853131978 -2.852280261208027e-10 5.391453235546028e-09 -3.6345016325990924e-08 -0.39982446627732793 -0.8389288535310985 1.2387533185156234 1.9360932682139326e-09 -3.659653105340334e-08 107.14153800239282
3.013579519742012 -1.1102306540040214 1.5553063137061067 -2.0158719862513004 -1.5707963271869947 1.442783192990445 2.8320791942330504e-09 0.031155153216415248 0.06537107949592968 -0.09652623261160696 -1.5086441051017606e-10 2.8516777444210335e-09 -3.304092393271902e-08 -0.3634767875248431 -0.7626625941191798 1.126139380468747 1.760084789285395e-09 -3.3269573684912144e-08 107.19397136252478
3.013579519867929 -1.1088454653962347 1.5582127758880602 -2.020163637036562 -1.5707963271937022 1.4427831931172335 8.309399024746287e-10 0.009141008495788474 0.01918005631043783 -0.028321064776669784 -4.426403711149209e-11 8.366901715402065e-10 -2.1476600556267453e-08 -0.2362599118911482 -0.4957306861774675 0.7319905973046863 1.14405511303551e-09 -2.1625222895193012e-08 107.24640472265673
3.013579519888486 -1.108619322667035 1.558687278267338 -2.020864282144308 -1.5707963271947973 1.4427831931379327 0.0 0.0 0.0 0.0 0.0 0.0 0.0 8.881784197001252e-16 0.0 -1.7763568394002505e-15 0.0 0.0 107.29883808278869
                  107.35127144292065
                  107.40127144292065
                  107.46377144292065
                  107.52627144292065
                  107.58877144292065
3.013579519888486 -1.108619322667035 1.558687278267338 -2.020864282144308 -1.5707963271947973 1.4427831931379327 0.0 0.0 0.0 0.0 0.0 0.0 0.0 0.0 0.0 0.0 0.0 0.0 107.65127144292065
3.013579519867929 -1.1088454653962347 1.5582127758880604 -2.0201636370365614 -1.5707963271937022 1.4427831931172335 -8.309399024746299e-10 -0.009141008495788491 -0.01918005631043771 0.02832106477666948 4.426403711149281e-11 -8.366901715402022e-10 -2.1476600556267357e-08 -0.2362599118911487 -0.495730686177467 0.7319905973046881 1.1440551130355064e-09 -2.162522289519292e-08 107.70127144292064
3.013579519742012 -1.1102306540040214 1.5553063137061067 -2.0158719862513004 -1.5707963271869947 1.442783192990445 -2.8320791942330582e-09 -0.03115515321641521 -0.06537107949592971 0.09652623261160721 1.5086441051017665e-10 -2.8516777444210443e-09 -3.3040923932719015e-08 -0.3634767875248442 -0.76266259411918 1.126139380468751 1.7600847892853946e-09 -3.3269573684912184e-08 107.7537048030526
3.013579519451031 -1.1134316811549276 1.5485897811666274 -2.005954426571265 -1.5707963271714942 1.4427831926974504 -5.3543997265968754e-09 -0.058902711549785006 -0.12359219717199212 0.1824949085313199 2.8522802612080274e-10 -5.391453235546037e-09 -3.634501632599092e-08 -0.39982446627732865 -0.838928853531098 1.2387533185156263 1.936093268213934e-09 -3.659653105340341e-08 107.80613816318456
3.0135795189774255 -1.118641721162051 1.5376578516358432 -1.9898124570502036 -1.5707963271462653 1.4427831922205676 -7.866886650647384e-09 -0.08654209226782004 -0.1815863319331381 0.2681284239211312 4.19067806972713e-10 -7.921327067836235e-09 -3.3040923932719015e-08 -0.36347678752484425 -0.7626625941191799 1.1261393804687512 1.7600847892853943e-09 -3.326957368491219e-08 107.85857152331651
3.0135795183373513 -1.1256830536573417 1.5228834256168309 -1.9679966985586683 -1.5707963271121685 1.4427831915760638 -9.956528417225596e-09 -0.10952983552645974 -0.22982020135287795 0.33935003652518164 5.303826931998399e-10 -1.0025429570230235e-08 -2.478069294953926e-08 -0.2726075906436333 -0.571996945589385 0.8446045353515635 1.3200635919640454e-09 -2.495218026368414e-08 107.91100488344847
3.01357951757225 -1.1340997872618888 1.5052230739653099 -1.9419196133298149 -1.5707963270714118 1.4427831908056676 -1.1328316776932231e-08 -0.12462061286566087 -0.26148431798371885 0.38610493044642885 6.034576420407065e-10 -1.1406710977684174e-08 -1.3216369573087604e-08 -0.14539071500993803 -0.30506503764767223 0.4504557521875013 7.040339157141586e-10 -1.3307829473964895e-08 107.96343824358043
3.0135795167404202 -1.1432505832562074 1.4860224811054272 -1.913568224505202 -1.5707963270271004 1.4427831899680816 -1.1805246780127732e-08 -0.12986722720939747 -0.27249298935716537 0.4023602161466475 6.288636278384274e-10 -1.1886941431171749e-08 0.0 -4.440892098500626e-16 0.0 8.881784197001252e-16 0.0 0.0 108.01587160371238
3.0135795159085905 -1.1524013792505263 1.4668218882455446 -1.885216835680589 -1.570796326982789 1.4427831891304956 -1.1328316776932233e-08 -0.1246206128656609 -0.2614843179837188 0.386104930446429 6.034576420407068e-10 -1.1406710977684176e-08 1.3216369573087599e-08 0.14539071500993758 0.30506503764767273 -0.45045575218749934 -7.040339157141581e-10 1.3307829473964863e-08 108.06830496384434
3.013579515143489 -1.1608181128550734 1.4491615365940236 -1.8591397504517357 -1.5707963269420322 1.4427831883600994 -9.956528417225594e-09 -0.10952983552645976 -0.22982020135287795 0.3393500365251815 5.3038269319984e-10 -1.0025429570230236e-08 2.4780692949539223e-08 0.27260759064363244 0.5719969455893846 -0.844604535351561 -1.3200635919640435e-09 2.495218026368413e-08 108.1207383239763
3.013579514503415 -1.1678594453503641 1.4343871105750112 -1.8373239919602002 -1.5707963269079355 1.4427831877155957 -7.866886650647388e-09 -0.08654209226782013 -0.18158633193313806 0.26812842392113123 4.1906780697271267e-10 -7.92132706783623e-09 3.304092393271903e-08 0.3634767875248441 0.762662594119181 -1.1261393804687507 -1.760084789285395e-09 3.3269573684912203e-08 108.17317168410825
3.0135795140298094 -1.1730694853574875 1.423455181044227 -1.8211820224391388 -1.5707963268827065 1.442783187238713 -5.354399726596868e-09 -0.05890271154978504 -0.12359219717199177 0.18249490853131978 2.852280261208027e-10 -5.391453235546028e-09 3.6345016325990924e-08 0.39982446627732793 0.8389288535310985 -1.2387533185156234 -1.9360932682139326e-09 3.659653105340334e-08 108.22560504424021
3.0135795137388284 -1.1762705125083937 1.4167386485047477 -1.8112644627591035 -1.570796326867206 1.4427831869457182 -2.8320791942330504e-09 -0.031155153216415248 -0.06537107949592968 0.09652623261160696 1.5086441051017606e-10 -2.8516777444210335e-09 3.304092393271902e-08 0.3634767875248431 0.7626625941191798 -1.126139380468747 -1.760084789285395e-09 3.3269573684912144e-08 108.27803840437217
3.0135795136129113 -1.1776557011161803 1.4138321863227943 -1.8069728119738422 -1.5707963268604985 1.4427831868189298 -8.309399024746287e-10 -0.009141008495788474 -0.01918005631043783 0.028321064776669784 4.426403711149209e-11 -8.366901715402065e-10 2.1476600556267453e-08 0.2362599118911482 0.4957306861774675 -0.7319905973046863 -1.14405511303551e-09 2.1625222895193012e-08 108.33047176450413
3.0135795135923544 -1.1778818438453802 1.4133576839435165 -1.806272166866096 -1.5707963268594034 1.4427831867982306 0.0 0.0 0.0 0.0 0.0 0.0 0.0 -8.881784197001252e-16 0.0 1.7763568394002505e-15 0.0 0.0 108.38290512463608
                  108.43533848476804
                  108.48533848476804
                  108.53533848476803
                  108.58533848476803
                  108.63533848476804
                  108.68533848476804
                  108.73533848476804
                  108.78533848476803
                  108.83533848476803
                  108.88533848476804
                  108.93533848476804
                  108.98533848476804
                  109.03533848476803
                  109.08533848476803
                  109.13533848476804
                  109.18533848476804
                  109.23533848476804
                  109.28533848476803
                  109.33533848476803
                  109.38533848476803
                  109.43533848476804
                  109.48533848476804
                  109.53533848476803
                  109.58533848476803
                  109.63533848476803
                  109.68533848476804
                  109.73533848476804
                  109.78533848476803
                  109.83533848476803
                  109.88533848476803
                  109.93533848476804
                  109.98533848476804
3.0135795135923544 -1.1778818438453802 1.4133576839435165 -1.806272166866096 -1.5707963268594034 1.4427831867982306 0.0 0.0 0.0 0.0 0.0 0.0 0.0 0.0 0.0 0.0 0.0 0.0 110.03533848476803
3.013756664477533 -1.1778940633874322 1.413374652062012 -1.8062769154433402 -1.570796326860139 1.4429603376833853 0.023645449849484385 -0.0016310196163164803 0.002264842168443997 -0.0006338226589888491 -9.819817055340013e-11 0.023645449846285027 2.0797247935796492 -0.14345558898056315 0.19920316345177883 -0.05574758387015559 -8.636975455492239e-09 2.079724793298251 110.08533848476803
3.014949169218163 -1.1779763201698956 1.4134888742502065 -1.8063088808544605 -1.5707963268650915 1.4441528424238539 0.0903314809332575 -0.0062308993193577935 0.008652258614572212 -0.0024213597034512023 -3.751413581678447e-10 0.09033148092103516 3.875850751671165 -0.26734905219104954 0.37124225916013326 -0.10389322448528997 -1.609618153069008e-08 3.8758507511467415 110.13632067480388
3.0180445464208536 -1.1781898335929695 1.413785360079849 -1.806391853275018 -1.5707963268779463 1.4472482196261256 0.1939024596128172 -0.013375034828843203 0.018572641666434346 -0.005197607713898227 -8.05265576294308e-10 0.19390245958658114 5.401568517785622 -0.37259025594634637 0.5173807321363854 -0.14479050060145063 -2.243239819677001e-08 5.401568517054761 110.18730286483974
3.023796779782596 -1.1785866120645299 1.4143363286917103 -1.8065460434413152 -1.570796326901835 1.45300045298709 0.3284958776610186 -0.022659041115933913 0.03146446020788726 -0.008805420576531036 -1.3642241710765752e-09 0.32849587761657134 6.670068735434098 -0.460089066561341 0.6388820273918573 -0.17879299097468507 -2.770040542490851e-08 6.670068734531601 110.23828505487558
3.032832831988794 -1.179209902316827 1.4152018327190443 -1.806788257257189 -1.5707963269393612 1.462036505192065 0.48854235226207415 -0.033698752403233063 0.046794259678594984 -0.013095509483240684 -2.0288878213512424e-09 0.4885423521959717 7.694542048127667 -0.5307553503509208 0.737009589937871 -0.2062542743610408 -3.195498318628207e-08 7.694542047086554 110.28926724491143
3.0456591586112913 -1.180094638723186 1.4164303822110518 -1.8071320704008034 -1.5707963269926284 1.474862831812827 0.6687656260115532 -0.04613022216478574 0.06405666207402867 -0.01792644293160817 -2.7773445386477154e-09 0.6687656259210656 8.488179099377406 -0.5854989736299728 0.8130268647857485 -0.22752792951656528 -3.525091145206716e-08 8.48817909822891 110.34024943494728
3.0626682220064056 -1.1812678926147042 1.4180595685563406 -1.8075880029314437 -1.5707963270632659 1.49187189520564 0.8641825669163828 -0.05960972312607896 0.08277436594546667 -0.023164646724904446 -3.5888996671882124e-09 0.8641825667994543 9.064170532694392 -0.6252298027133847 0.8681972969468119 -0.24296753519730604 -3.7642970193440275e-08 9.06417053146796 110.39123162498313
3.084145005212957 -1.1827493215969498 1.4201166884063903 -1.8081636938963082 -1.5707963271524579 1.5133486784092853 1.070103168394847 -0.0738137472640417 0.10249814639999444 -0.02868440397209039 -4.444075883887761e-09 1.0701031682500561 9.435706991589699 -0.6508577039160434 0.9037843314323836 -0.2529266701593106 -3.918593938157789e-08 9.435706990312998 110.44221381501897
3.110273525850297 -1.1845516188666616 1.4226193675990129 -1.808864075937302 -1.570796327260968 1.53947719904309 1.2821305492765875 -0.08843900580704486 0.12280685510050468 -0.034367855087816854 -5.3246131983542006e-09 1.2821305491031083 9.615979119574403 -0.6632925435528364 0.9210514132537849 -0.2577589131586264 -3.99345989876565e-08 9.61597911827331 110.49319600505483
3.1411433500163404 -1.1866809625284467 1.4255761850818163 -1.809691549897831 -1.5707963273891685 1.5703470232049566 1.496160953802602 -0.10320242923490125 0.14330742026569712 -0.04010499779242459 -6.2134689528881786e-09 1.4961609536001632 9.618177560159586 -0.663444187938651 0.9212619874223388 -0.257817842951301 -3.9943728982852585e-08 9.618177558858195 110.54417819509068
3.1767561061855947 -1.1891374649114799 1.428987296835666 -1.810646159429593 -1.5707963275370662 1.6059597793693923 1.7083837516252474 -0.11784116727886572 0.1636348466700788 -0.045793687111944356 -7.09481782248316e-09 1.7083837513940936 9.455492956856313 -0.6522225033883743 0.9056794989493666 -0.25345703829338184 -3.926810933834261e-08 9.455492955576933 110.59516038512653
3.2170319991071907 -1.1919156218862017 1.432845059798148 -1.8117257655993726 -1.5707963277043298 1.6462356722855387 1.9152814378082355 -0.13211258892163488 0.18345221564396377 -0.05133963537809677 -7.95405181482541e-09 1.9152814375490872 9.14111595317567 -0.6305373562168939 0.8755673928461907 -0.24503007794091647 -3.79625200253031e-08 9.141115951938826 110.64614257516239
3.2618163237029116 -1.1950047621810183 1.4371346557870306 -1.8129262214958333 -1.5707963278903163 1.6910199968752002 2.1136296328266377 -0.1457942823973475 0.20245068507347333 -0.05665641222829249 -8.777780270294014e-09 2.113629632540652 8.688237192628728 -0.5992986127390969 0.8321891141241331 -0.23289054064995243 -3.60817410149105e-08 8.688237191453162 110.69712476519823
3.3108859789652247 -1.1983894966989985 1.4418347154237272 -1.8142415468363111 -1.5707963280940997 1.740089652130874 2.300497082566881 -0.15868405519158416 0.2203494894005359 -0.06166544460563206 -9.553829861960863e-09 2.300497082255611 8.110047318726563 -0.5594161392698704 0.7768081077945159 -0.21739200517653706 -3.36805522783413e-08 8.110047317629231 110.74810695523408
3.3639559818553106 -1.2020501678345739 1.4469179420567588 -1.8156641025736076 -1.5707963283144963 1.7931596550137792 2.473245658326751 -0.17059993404136742 0.23689593962288713 -0.06629601675890597 -1.0271244595590666e-08 2.4732456579921065 7.41973697498025 -0.5117998021241019 0.7106878188686613 -0.19888805027671796 -3.081373378677198e-08 7.41973697397632 110.79908914526993
3.4206859812010935 -1.205963298790237 1.4523517356852158 -1.8171847655027826 -1.5707963285500928 1.8498896543518857 2.629530356815388 -0.1813801649351616 0.2518654232940696 -0.07048527024259464 -1.0920285809640922e-08 2.6295303564595973 6.630496804900872 -0.45735946761667934 0.6350916923578912 -0.17773225470654275 -2.7536065511379062e-08 6.630496804003733 110.85007133530578
3.4806867715952703 -1.2101020428932394 1.458098816882221 -1.818793102867948 -1.5707963287992726 1.9098904447379443 2.7672993001532933 -0.19088321311287335 0.26506140452343335 -0.07417820391686852 -1.1492432175261976e-08 2.767299299778862 5.755517451999499 -0.39700500206248884 0.5512831732735276 -0.1542781972220586 -2.3902327423338983e-08 5.755517451220749 110.90105352534162
3.543526807293344 -1.214436632912292 1.4641178507183918 -1.8204775469690602 -1.5707963290602436 1.9727304804275154 2.8847937358723224 -0.19898776306585092 0.2763154239761355 -0.07732767394758791 -1.1980379696296951e-08 2.8847937354819937 4.8079895597871944 -0.3316462717764181 0.46052570662689196 -0.12887945657931316 -1.996729949382822e-08 4.8079895591366535 110.95203571537748
3.6087387161116498 -1.2189348303742624 1.470364070685302 -1.8222255697687135 -1.5707963293310647 2.0379423892369974 2.9805480369156885 -0.2055927185368846 0.28548709887314005 -0.07989439380630309 -1.237804170928179e-08 2.980548036512403 3.8011037717750713 -0.26219314307335484 0.3640827374293085 -0.10188961153435423 -1.578576169402334e-08 3.8011037712607605 111.00301790541333
3.6758258133253885 -1.223562374880874 1.4767899026189453 -1.8240238574989334 -1.5707963296096736 2.105029486441659 3.0533897016379634 -0.21061720252020658 0.2924641229912186 -0.08184693427025425 -1.2680548883445262e-08 3.0533897012248215 2.748050731474171 -0.18955548226818597 0.2632177106920966 -0.07366224084322905 -1.1412493995100737e-08 2.748050731102344 111.05400009544918
3.744268615566654 -1.2282834334254042 1.4833455886231965 -1.8258584852679691 -1.5707963298939125 2.173472288673664 3.1024393538050767 -0.2140005572614912 0.2971622666629496 -0.08316172342237163 -1.288424922070893e-08 3.1024393533852983 1.662021082395578 -0.11464315567579858 0.15919407142657968 -0.044550923261984975 -6.902276368236923e-09 1.6620210821706969 111.10498228548504
3.8135313547224663 -1.2330610497093848 1.4899798109932751 -1.8277150916670877 -1.5707963301815566 2.2427350278201046 3.1271107425943123 -0.21570234425785462 0.29952537677671864 -0.08382304665127531 -1.2986708055687172e-08 3.1271107421711952 0.5562054680503694 -0.038366029611080425 0.05327526464408055 -0.014909237546669687 -2.309888784608372e-09 0.5562054679751129 111.15596447552088
3.883068491832799 -1.2378575934592986 1.4966403161392066 -1.8295790533773657 -1.5707963304703403 2.312272164921029 3.1271107425943123 -0.21570234425785453 0.29952537677671853 -0.08382304665127527 -1.2986708055687166e-08 3.1271107421711943 -0.5562054680503725 0.03836602961108055 -0.05327526464408037 0.014909237546669389 2.309888784608379e-09 -0.556205467975109 111.20694666555673
3.9523312309886114 -1.2426352097432791 1.5032745385092852 -1.8314356597764843 -1.5707963307579844 2.381534904067469 3.102439353805078 -0.21400055726149125 0.29716226666294954 -0.08316172342237167 -1.2884249220708926e-08 3.102439353385298 -1.662021082395578 0.11464315567579902 -0.15919407142658057 0.04455092326198453 6.902276368236923e-09 -1.6620210821706898 111.25792885559258
4.020774033229878 -1.2473562682878094 1.5098302245135367 -1.83327028754552 -1.5707963310422233 2.4499777062994745 3.0533897016379647 -0.21061720252020652 0.2924641229912186 -0.08184693427025423 -1.2680548883445259e-08 3.053389701224821 -2.748050731474166 0.18955548226818558 -0.263217710692097 0.07366224084322867 1.1412493995100714e-08 -2.7480507311023388 111.30891104562843
4.087861130443616 -1.251983812794421 1.5162560564471796 -1.8350685752757399 -1.5707963313208322 2.5170648035041356 2.98054803691569 -0.20559271853688457 0.28548709887314 -0.07989439380630306 -1.2378041709281789e-08 2.980548036512402 -3.801103771775066 0.26219314307335445 -0.36408273742930797 0.10188961153435386 1.5785761694023344e-08 -3.801103771260748 111.35989323566427
4.153073039261921 -1.2564820102563914 1.5225022764140899 -1.8368165980753932 -1.5707963315916533 2.582276712313617 2.884793735872325 -0.19898776306585114 0.2763154239761357 -0.077327673947588 -1.1980379696296958e-08 2.8847937354819946 -4.8079895597872016 0.33164627177641853 -0.46052570662689285 0.12887945657931305 1.99672994938283e-08 -4.807989559136646 111.41087542570013
4.215913074959995 -1.260816600275444 1.5285213102502606 -1.8385010421765053 -1.5707963318526244 2.645116748003189 2.7672993001532933 -0.19088321311287337 0.2650614045234333 -0.07417820391686851 -1.149243217526197e-08 2.7672992997788617 -5.755517451999492 0.39700500206248884 -0.5512831732735267 0.15427819722205827 2.3902327423338983e-08 -5.755517451220735 111.46185761573598
4.275913865354172 -1.2649553443784465 1.534268391447266 -1.8401093795416708 -1.5707963321018041 2.7051175383892474 2.6295303568153936 -0.18138016493516168 0.25186542329406975 -0.07048527024259472 -1.0920285809640934e-08 2.6295303564595978 -6.630496804900881 0.4573594676166796 -0.6350916923578915 0.1777322547065425 2.7536065511379092e-08 -6.6304968040037275 111.51283980577183
4.332643864699955 -1.2688684753341095 1.5397021850757229 -1.8416300424708458 -1.5707963323374006 2.7618475377273537 2.4732456583267517 -0.1705999340413674 0.2368959396228871 -0.06629601675890592 -1.0271244595590664e-08 2.4732456579921074 -7.419736974980246 0.5117998021241025 -0.7106878188686612 0.19888805027671744 3.081373378677201e-08 -7.419736973976306 111.56382199580769
4.385713867590041 -1.2725291464696848 1.5447854117087545 -1.8430525982081423 -1.5707963325577972 2.814917540610259 2.3004970825668827 -0.15868405519158424 0.22034948940053586 -0.06166544460563206 -9.553829861960858e-09 2.300497082255611 -8.11004731872656 0.55941613926987 -0.7768081077945155 0.2173920051765365 3.3680552278341285e-08 -8.110047317629206 111.61480418584352
4.434783522852355 -1.2759138809876651 1.5494854713454511 -1.8443679235486201 -1.5707963327615806 2.863987195865933 2.1136296328266377 -0.14579428239734737 0.2024506850734729 -0.05665641222829235 -8.777780270293996e-09 2.113629632540647 -8.688237192628705 0.5992986127390958 -0.8321891141241318 0.23289054064995152 3.608174101491047e-08 -8.688237191453142 111.66578637587938
4.479567847448076 -1.2790030212824817 1.5537750673343338 -1.8455683794450808 -1.5707963329475672 2.908771520455595 1.9152814378082377 -0.1321125889216348 0.18345221564396363 -0.05133963537809681 -7.954051814825407e-09 1.9152814375490876 -9.141115953175682 0.6305373562168941 -0.8755673928461917 0.24503007794091652 3.7962520025303163e-08 -9.141115951938824 111.71676856591523
4.519843740369671 -1.2817811782572035 1.5576328302968157 -1.8466479856148603 -1.5707963331148307 2.9490474133717406 1.7083837516252502 -0.11784116727886586 0.16363484667007866 -0.04579368711194433 -7.094817822483162e-09 1.7083837513940925 -9.45549295685631 0.6522225033883738 -0.9056794989493648 0.2534570382933812 3.926810933834258e-08 -9.455492955576926 111.76775075595108
4.555456496538927 -1.2842376806402367 1.5610439420506654 -1.8476025951466224 -1.5707963332627284 2.984660169536177 1.496160953802601 -0.10320242923490112 0.14330742026569704 -0.04010499779242457 -6.213468952888167e-09 1.4961609536001612 -9.618177560159584 0.6634441879386513 -0.9212619874223388 0.25781784295130034 3.9943728982852605e-08 -9.618177558858182 111.81873294598692
4.58632632070497 -1.286367024302022 1.564000759533469 -1.8484300691071514 -1.570796333390929 3.015529993698044 1.2821305492765913 -0.08843900580704477 0.12280685510050417 -0.0343678550878168 -5.324613198354186e-09 1.2821305491031074 -9.61597911957442 0.6632925435528373 -0.9210514132537866 0.2577589131586263 3.993459898765656e-08 -9.61597911827331 111.86971513602278
4.612454841342309 -1.2881693215717336 1.5665034387260914 -1.8491304511481452 -1.570796333499439 3.041658514331848 1.0701031683948519 -0.07381374726404158 0.10249814639999423 -0.028684403972090315 -4.444075883887755e-09 1.0701031682500546 -9.43570699158971 0.6508577039160425 -0.9037843314323829 0.2529266701593102 3.918593938157789e-08 -9.435706990312982 111.92069732605863
4.63393162454886 -1.2896507505539792 1.568560558576141 -1.8497061421130097 -1.570796333588631 3.063135297535494 0.8641825669163892 -0.05960972312607882 0.08277436594546655 -0.023164646724904366 -3.5888996671882173e-09 0.8641825667994546 -9.064170532694398 0.6252298027133838 -0.8681972969468106 0.24296753519730516 3.764297019344029e-08 -9.064170531467942 111.97167951609448
4.650940687943978 -1.2908240044454973 1.5701897449214302 -1.85016207464365 -1.5707963336592685 3.0801443609283083 0.6687656260115544 -0.04613022216478523 0.06405666207402833 -0.017926442931608035 -2.777344538647701e-09 0.668765625921062 -8.48817909937741 0.5854989736299714 -0.8130268647857474 0.22752792951656434 3.525091145206716e-08 -8.488179098228908 112.02266170613034
4.663767014566474 -1.2917087408518564 1.5714182944134376 -1.8505058877872644 -1.5707963337125357 3.0929706875490703 0.48854235226207104 -0.033698752403232474 0.04679425967859439 -0.013095509483240342 -2.028887821351216e-09 0.48854235219596054 -7.694542048127662 0.5307553503509204 -0.7370095899378691 0.20625427436103913 3.195498318628204e-08 -7.694542047086532 112.07364389616617
4.672803066772671 -1.2923320311041535 1.5722837984407714 -1.8507481016031382 -1.570796333750062 3.102006739754043 0.3284958776610247 -0.022659041115934465 0.03146446020788766 -0.008805420576531052 -1.3642241710765926e-09 0.3284958776165753 -6.670068735434127 0.4600890665613414 -0.6388820273918584 0.17879299097468448 2.7700405424908582e-08 -6.670068734531589 112.12462608620203
4.678555300134413 -1.292728809575714 1.5728347670526328 -1.8509022917694353 -1.5707963337739506 3.1077589731150077 0.19390245961282343 -0.013375034828843037 0.01857264166643421 -0.005197607713898097 -8.052655762942991e-10 0.19390245958657515 -5.40156851778563 0.3725902559463464 -0.5173807321363845 0.14479050060144957 2.2432398196770075e-08 -5.401568517054754 112.17560827623788
4.681650677337103 -1.2929423229987878 1.5731312528822754 -1.8509852641899929 -1.5707963337868054 3.110854350317279 0.09033148093326306 -0.006230899319358059 0.008652258614571568 -0.002421359703451228 -3.7514135816783425e-10 0.09033148092103124 -3.8758507516711735 0.2673490521910479 -0.37124225916013165 0.10389322448528884 1.6096181530689953e-08 -3.8758507511467193 112.22659046627373
4.6828431820777325 -1.2930245797812512 1.5732454750704694 -1.8510172296011131 -1.5707963337917579 3.112046855057746 0.023645449849500868 -0.0016310196163167381 0.002264842168444564 -0.0006338226589890995 -9.8198170553434e-11 0.02364544984629086 -2.079724793579677 0.14345558898056454 -0.19920316345177827 0.05574758387015519 8.63697545549224e-09 -2.0797247932982654 112.27757265630957
4.683020332962913 -1.2930367993233032 1.5732624431889652 -1.8510219781783575 -1.5707963337924935 3.1122240059429025 7.105427357601002e-15 0.0 0.0 0.0 0.0 0.0 -1.4210854715202004e-14 0.0 0.0 -8.881784197001252e-16 0.0 1.4210854715202004e-14 112.32855484634543
4.6830203329629105 -1.2930367993233032 1.5732624431889652 -1.8510219781783575 -1.5707963337924935 3.1122240059429025 0.0 0.0 0.0 0.0 0.0 0.0 0.0 0.0 0.0 0.0 0.0 0.0 112.37953703638128
4.683020327505428 -1.292826290769684 1.5736508461758685 -1.851620889986443 -1.57079633421281 3.112224000474477 -2.3700146614289596e-07 0.009141730393505756 0.01686713118900012 -0.02600887320194437 -1.8253037888863825e-08 -2.374766822194269e-07 -6.602183699694959e-06 0.25466248953337467 0.46987008312214623 -0.7245328963398789 -5.084774840469208e-07 -6.615421861826892e-06 112.42953703638128
4.683020293752872 -1.291524371546636 1.576052978090438 -1.8553249427788423 -1.570796336812316 3.112223966654243 -8.174132199622329e-07 0.03152964156127496 0.05817439124369429 -0.08970407288017548 -6.2954355167714e-08 -8.190522305119009e-07 -1.0374860099520649e-05 0.40018391212387444 0.7383672734776583 -1.138551694248381 -7.99036046359447e-07 -1.0395662925727972e-05 112.47959982091952
4.683020214776567 -1.288478060911766 1.5816736340176023 -1.8639919132128373 -1.5707963428947993 3.1122238875195816 -1.56711173531221e-06 0.06044736015297685 0.11152960214767428 -0.17197703913122403 -1.206935566528955e-07 -1.57025398038968e-06 -1.1753338014841574e-05 0.4533552011473263 0.836472016107557 -1.28982779348418 -9.052016748967162e-07 -1.1776904852922598e-05 112.52966260545774
4.683020084288719 -1.2834448231607567 1.590960309274621 -1.878311832618275 -1.5707963529445246 3.11222375677009 -2.3409940737379924e-06 0.09029790837666912 0.1666059488872665 -0.25690397203553217 -1.8029531302469573e-07 -2.345688044779645e-06 -1.117292626102224e-05 0.43096728997955713 0.7951647560528627 -1.2261325938059489 -8.60500357617866e-07 -1.1195329304630125e-05 112.57972538999599
4.68301990470771 -1.2765179412568068 1.6037408902779322 -1.8980193043298301 -1.5707963667752363 3.112223576829 -3.022977884475714e-06 0.11660370399879794 0.2151419794515322 -0.33174583165745375 -2.3281936082734475e-07 -3.0290393140233025e-06 -9.06893365342714e-06 0.3498111119963937 0.6454259383545965 -0.9952374949723612 -6.984580824820339e-07 -9.087117942069903e-06 112.62978817453421
4.683019685223393 -1.2680518904600728 1.619361345410004 -1.9221058210192634 -1.5707963836791636 3.1122233569045905 -3.5260014044524725e-06 0.1360065603441979 0.25094160483226713 -0.38694833804525397 -2.715605024690149e-07 -3.53307145587678e-06 -5.876669007420783e-06 0.22667760057366315 0.4182360080537781 -0.64491389674209 -4.526008374483577e-07 -5.888452426461296e-06 112.67985095907245
4.6830194398623854 -1.258587711957109 1.6368234158861807 -1.9490320820276845 -1.5707964025760246 3.112223111051605 -3.7920234582863353e-06 0.1462676862960921 0.26987409902400195 -0.41614197123110996 -2.9204860622182114e-07 -3.7996269155108294e-06 -2.031441138367679e-06 0.07835768908719225 0.14457541019142944 -0.22293319887380977 -1.5645461047597542e-07 -2.0355144190236586e-06 112.7299137436107
4.683019185553364 -1.2487783864903088 1.654922306621534 -1.9769403106978116 -1.570796422162031 3.112222856232663 -3.792023458286336e-06 0.14626768629609213 0.26987409902400195 -0.4161419712311101 -2.920486062218213e-07 -3.7996269155108302e-06 2.031441138367679e-06 -0.0783576890871918 -0.1445754101914299 0.22293319887380889 1.5645461047597542e-07 2.0355144190236586e-06 112.77997652814892
4.683018940192356 -1.239314207987345 1.6723843770977107 -2.0038665717062325 -1.570796441058892 3.1122226103796775 -3.526001404452474e-06 0.136006560344198 0.2509416048322673 -0.3869483380452541 -2.715605024690151e-07 -3.533071455876783e-06 5.87666900742079e-06 -0.22667760057366293 -0.41823600805377853 0.64491389674209 4.5260083744835856e-07 5.88845242646131e-06 112.83003931268716
4.683018720708039 -1.230848157190611 1.6880048322297823 -2.027953088395666 -1.5707964579628193 3.112222390455268 -3.0229778844757195e-06 0.11660370399879806 0.21514197945153246 -0.3317458316574541 -2.328193608273451e-07 -3.0290393140233068e-06 9.068933653427147e-06 -0.34981111199639353 -0.6454259383545974 0.9952374949723611 6.984580824820353e-07 9.08711794206991e-06 112.88010209722539
4.68301854112703 -1.223921275286661 1.7007854132330937 -2.0476605601072206 -1.570796471793531 3.112222210514178 -2.340994073737996e-06 0.09029790837666919 0.1666059488872668 -0.2569039720355325 -1.8029531302469587e-07 -2.3456880447796503e-06 1.1172926261022243e-05 -0.4309672899795569 -0.7951647560528632 1.2261325938059473 8.605003576178662e-07 1.1195329304630125e-05 112.93016488176363
4.683018410639182 -1.2188880375356514 1.7100720884901124 -2.061980479512659 -1.5707964818432563 3.1122220797646865 -1.5671117353122067e-06 0.06044736015297672 0.11152960214767439 -0.1719770391312237 -1.2069355665289542e-07 -1.5702539803896787e-06 1.1753338014841583e-05 -0.4533552011473263 -0.8364720161075582 1.289827793484179 9.052016748967163e-07 1.1776904852922596e-05 112.98022766630187
4.683018331662877 -1.2158417269007815 1.715692744417277 -2.070647449946654 -1.5707964879257397 3.112222000630025 -8.174132199622303e-07 0.03152964156127465 0.0581743912436938 -0.08970407288017455 -6.29543551677137e-08 -8.190522305118891e-07 1.0374860099520634e-05 -0.40018391212387333 -0.7383672734776583 1.138551694248379 7.990360463594449e-07 1.0395662925727965e-05 113.0302904508401
4.683018297910321 -1.2145398076777338 1.7180948763318464 -2.074351502739053 -1.5707964905252456 3.1122219668097912 -2.3700146614289143e-07 0.009141730393505555 0.01686713118899953 -0.026008873201944036 -1.825303788886337e-08 -2.374766822194258e-07 6.602183699694969e-06 -0.2546624895333744 -0.4698700831221475 0.7245328963398742 5.084774840469208e-07 6.6154218618269e-06 113.08035323537834
4.6830182924528385 -1.2143292991241146 1.7184832793187494 -2.0749504145471382 -1.570796490945562 3.1122219613413655 0.0 0.0 0.0 0.0 0.0 0.0 0.0 8.881784197001252e-16 0.0 -3.552713678800501e-15 0.0 0.0 113.13041601991657
                  113.18047880445481
                  113.2304788044548
                  113.28464547112148
                  113.33881213778814
                  113.3929788044548
                  113.44714547112147
                  113.50131213778815
                  113.55547880445481
                  113.60964547112147
                  113.66381213778814
                  113.71797880445482
                  113.77214547112148
                  113.82631213778814
                  113.88047880445481
