Andreas691667/Digital_Twin_UR/src/dt/dt_trajectories/vis_dt_trajectory.csv
actual_q_0 actual_q_1 actual_q_2 actual_q_3 actual_q_4 actual_q_5 timestamp
3.71207804710797 -0.8254843255005873 0.8429764792549035 -1.5882884806323445 -1.570796326807946 2.141281720311417 10662.622
3.71207804710797 -0.8254843255005873 0.8429764792549035 -1.5882884806323445 -1.570796326807946 2.141281720311417 10662.671999999999
3.71207804710797 -0.8254843255005873 0.8429764792549035 -1.5882884806323445 -1.570796326807946 2.141281720311417 10662.721999999998
3.71207804710797 -0.8254843255005873 0.8429764792549035 -1.5882884806323445 -1.570796326807946 2.141281720311417 10662.771999999997
3.71207804710797 -0.8254843255005873 0.8429764792549035 -1.5882884806323445 -1.570796326807946 2.141281720311417 10662.821999999996
3.71207804710797 -0.8254843255005873 0.8429764792549035 -1.5882884806323445 -1.570796326807946 2.141281720311417 10662.871999999996
3.71207804710797 -0.8254843255005873 0.8429764792549035 -1.5882884806323445 -1.570796326807946 2.141281720311417 10662.921999999995
3.71207804710797 -0.8254843255005873 0.8429764792549035 -1.5882884806323445 -1.570796326807946 2.141281720311417 10662.971999999994
3.71207804710797 -0.8254843255005873 0.8429764792549035 -1.5882884806323445 -1.570796326807946 2.141281720311417 10663.021999999994
3.71207804710797 -0.8254843255005873 0.8429764792549035 -1.5882884806323445 -1.570796326807946 2.141281720311417 10663.071999999993
3.71207804710797 -0.8254843255005873 0.8429764792549035 -1.5882884806323445 -1.570796326807946 2.141281720311417 10663.121999999992
3.71207804710797 -0.8254843255005873 0.8429764792549035 -1.5882884806323445 -1.570796326807946 2.141281720311417 10663.171999999991
3.71207804710797 -0.8254843255005873 0.8429764792549035 -1.5882884806323445 -1.570796326807946 2.141281720311417 10663.22199999999
3.712246594841125 -0.8256230895483581 0.8431690552513676 -1.5883422925821487 -1.5707963268076859 2.1414502680445837 10663.27199999999
3.713372789106565 -0.8265502765945612 0.8444558004292413 -1.588701850721241 -1.5707963268059482 2.1425764623100987 10663.32199999999
3.716270702336984 -0.8289361061896146 0.8477668418628275 -1.5896270625788713 -1.5707963268014768 2.1454743755407115 10663.371999999988
3.721605731247736 -0.833328394313403 0.8538624356119638 -1.591330368239378 -1.5707963267932452 2.150809404451821 10663.421999999988
3.7299033424672667 -0.8401597535853099 0.8633429591346384 -1.5939795325448283 -1.5707963267804423 2.1591070156719074 10663.471999999987
3.7415578181675433 -0.8497547934742485 0.8766589036996052 -1.5977004372976613 -1.57079632676246 2.170761491372965 10663.521999999986
3.756841001694489 -0.862337320508693 0.894120866798999 -1.6025798734633294 -1.570796326738879 2.1860446749009346 10663.571999999986
3.775911043198412 -0.8780375384867105 0.9159095445609526 -1.6086683333729401 -1.5707963267094547 2.2051147164061353 10663.621999999985
3.7988211452644394 -0.8968992486859914 0.9420857241622107 -1.6159828029258985 -1.5707963266741056 2.2280248184736973 10663.671999999984
3.825528308542948 -0.9188870500738817 0.9726002762407466 -1.6245095537925485 -1.5707963266328977 2.2547319817539946 10663.721999999983
3.855902077379996 -0.943893539517414 1.0073041473083775 -1.634206935616815 -1.5707963265860325 2.2851057505930776 10663.771999999983
3.8897332854477566 -0.9717465119933382 1.0459583521633797 -1.645008168218846 -1.5707963265338327 2.318936958663105 10663.821999999982
3.926742801374947 -1.0022161607981541 1.0882439663031052 -1.6568241337976544 -1.5707963264767288 2.3559464745927743 10663.871999999981
3.9665902743772627 -1.035022277758142 1.1337721183365967 -1.6695461691337592 -1.570796326415246 2.395793947597759 10663.92199999998
4.008882879887808 -1.0698414534393936 1.1820939823972028 -1.6830488577918286 -1.5707963263499907 2.4380865531111375 10663.97199999998
4.053184065187526 -1.1063142773578443 1.232710770555194 -1.697192822323321 -1.5707963262816362 2.482387738413824 10664.021999999979
4.099022295035637 -1.144052538189304 1.285083725230379 -1.7118275164691275 -1.5707963262109101 2.528225968265006 10664.071999999978
4.145899797300063 -1.1826464239794887 1.3386441116047192 -1.7267940173622132 -1.5707963261385804 2.575103470532572 10664.121999999978
4.193301308587863 -1.2216717223540519 1.3928032100349448 -1.741927817730259 -1.5707963260654423 2.622504981823546 10664.171999999977
4.240702819875661 -1.2606970207286148 1.4469623084651702 -1.7570616180983052 -1.570796325992304 2.6699064931145204 10664.221999999976
4.287580322140086 -1.2992909065187992 1.50052269483951 -1.7720281189913907 -1.5707963259199742 2.716783995382086 10664.271999999975
4.333418551988198 -1.3370291673502592 1.5528956495146953 -1.7866628131371973 -1.570796325849248 2.762622225233268 10664.321999999975
4.377719737287917 -1.37350199126871 1.6035124376726868 -1.8008067776686896 -1.5707963257808937 2.8069234105359553 10664.371999999974
4.4200123427984614 -1.4083211669499613 1.6518343017332924 -1.8143094663267592 -1.5707963257156383 2.849216016049333 10664.421999999973
4.459859815800777 -1.4411272839099487 1.697362453766783 -1.8270315016628638 -1.5707963256541555 2.8890634890543176 10664.471999999972
4.496869331727968 -1.4715969327147649 1.7396480679065087 -1.8388474672416721 -1.5707963255970516 2.926073004983987 10664.521999999972
4.5307005397957285 -1.4994499051906893 1.7783022727615116 -1.8496486998437032 -1.5707963255448518 2.9599042130540143 10664.571999999971
4.561074308632777 -1.5244563946342218 1.8130061438291425 -1.8593460816679699 -1.5707963254979866 2.9902779818930973 10664.62199999997
4.587781471911284 -1.5464441960221116 1.8435206959076778 -1.8678728325346197 -1.5707963254567787 3.0169851451733942 10664.67199999997
4.610691573977313 -1.5653059062213932 1.8696968755089367 -1.8751873020875782 -1.5707963254214297 3.0398952472409575 10664.721999999969
4.629761615481234 -1.58100612419941 1.8914855532708896 -1.881275761997189 -1.5707963253920054 3.0589652887461574 10664.771999999968
4.64504479900818 -1.5935886512338544 1.9089475163702825 -1.8861551981628566 -1.5707963253684243 3.0742484722741263 10664.821999999967
4.6566992747084575 -1.6031836911227928 1.9222634609352498 -1.8898761029156899 -1.570796325350442 3.0859029479751845 10664.871999999967
4.664996885927988 -1.6100150503947002 1.931743984457925 -1.8925252672211401 -1.5707963253376391 3.094200559195271 10664.921999999966
4.670331914838741 -1.6144073385184887 1.9378395782070605 -1.8942285728816466 -1.5707963253294075 3.099535588106381 10664.971999999965
4.673229828069159 -1.6167931681135417 1.9411506196406465 -1.8951537847392772 -1.5707963253249362 3.102433501336994 10665.021999999964
4.674356022334599 -1.617720355159745 1.9424373648185207 -1.8955133428783695 -1.5707963253231985 3.103559695602509 10665.071999999964
4.674524570067754 -1.6178591192075156 1.9426299408149843 -1.8955671548281736 -1.5707963253229384 3.1037282433356754 10665.121999999963
4.674524570067755 -1.6178591192075162 1.942629940814986 -1.8955671548281738 -1.5707963253229384 3.1037282433356754 10665.171999999962
4.6745245691269055 -1.617636283155423 1.942987154031751 -1.896147204327628 -1.5707963253111776 3.1037282423954453 10665.221999999962
4.674524563259337 -1.6162465756009667 1.9452148990542746 -1.8997646583427097 -1.5707963252378325 3.1037282365317402 10665.27199999996
4.674524549382818 -1.612959983338236 1.9504834100664554 -1.9083197650186645 -1.5707963250643748 3.103728222664357 10665.32199999996
4.674524526162523 -1.6074603589158516 1.959299481399903 -1.9226354664656375 -1.570796324774119 3.103728199459349 10665.37199999996
4.674524493719799 -1.5997764430112116 1.9716170408426528 -1.9426369497645248 -1.570796324368582 3.1037281670379833 10665.421999999959
4.674524453340934 -1.5902128868047356 1.9869477229478814 -1.9675311979728225 -1.5707963238638425 3.1037281266857004 10665.471999999958
4.674524407185914 -1.5792812743541103 2.00447144234262 -1.9959865411304771 -1.5707963232869007 3.103728080561068 10665.521999999957
4.674524357997202 -1.5676311449685323 2.0231469670364715 -2.0263122072657347 -1.5707963226720372 3.1037280314047386 10665.571999999956
4.67452430880849 -1.5559810155829543 2.041822491730323 -2.0566378734009927 -1.5707963220571737 3.1037279822484094 10665.621999999956
4.67452426265347 -1.545049403132329 2.0593462111250616 -2.085093216558647 -1.5707963214802318 3.103727936123777 10665.671999999955
4.674524222274605 -1.535485846925853 2.07467689323029 -2.1099874647669448 -1.5707963209754923 3.103727895771494 10665.721999999954
4.674524189831881 -1.527801931021213 2.0869944526730397 -2.129988948065832 -1.5707963205699553 3.1037278633501284 10665.771999999954
4.674524166611586 -1.5223023065988286 2.0958105240064877 -2.1443046495128053 -1.5707963202796995 3.1037278401451203 10665.821999999953
4.674524152735067 -1.5190157143360976 2.1010790350186683 -2.15285975618876 -1.5707963201062418 3.103727826277737 10665.871999999952
4.6745241468674985 -1.5176260067816416 2.103306780041192 -2.156477210203842 -1.5707963200328967 3.103727820414032 10665.921999999951
4.674524145926649 -1.5174031707295483 2.103663993257957 -2.157057259703296 -1.570796320021136 3.103727819473802 10665.97199999995
4.674524145926649 -1.5174031707295483 2.103663993257957 -2.157057259703296 -1.570796320021136 3.103727819473802 10666.02199999995
4.674524145926649 -1.5174031707295483 2.103663993257957 -2.157057259703296 -1.570796320021136 3.103727819473802 10666.07199999995
4.674524145926649 -1.5174031707295483 2.103663993257957 -2.157057259703296 -1.570796320021136 3.103727819473802 10666.121999999948
4.674524145926649 -1.5174031707295483 2.103663993257957 -2.157057259703296 -1.570796320021136 3.103727819473802 10666.171999999948
4.674524145926649 -1.5174031707295483 2.103663993257957 -2.157057259703296 -1.570796320021136 3.103727819473802 10666.221999999947
4.674524145926649 -1.5174031707295483 2.103663993257957 -2.157057259703296 -1.570796320021136 3.103727819473802 10666.271999999946
4.674524145926649 -1.5174031707295483 2.103663993257957 -2.157057259703296 -1.570796320021136 3.103727819473802 10666.321999999946
4.674524145926649 -1.5174031707295483 2.103663993257957 -2.157057259703296 -1.570796320021136 3.103727819473802 10666.371999999945
4.674524145926649 -1.5174031707295483 2.103663993257957 -2.157057259703296 -1.570796320021136 3.103727819473802 10666.421999999944
4.674524145926649 -1.5174031707295483 2.103663993257957 -2.157057259703296 -1.570796320021136 3.103727819473802 10666.471999999943
4.674524145926649 -1.5174031707295483 2.103663993257957 -2.157057259703296 -1.570796320021136 3.103727819473802 10666.521999999943
4.674524145926649 -1.5174031707295483 2.103663993257957 -2.157057259703296 -1.570796320021136 3.103727819473802 10666.571999999942
4.674524145926649 -1.5174031707295483 2.103663993257957 -2.157057259703296 -1.570796320021136 3.103727819473802 10666.621999999941
4.674524145926649 -1.5174031707295483 2.103663993257957 -2.1570572597032958 -1.570796320021136 3.103727819473802 10666.67199999994
4.6745241468674985 -1.5176260067816416 2.103306780041192 -2.1564772102038416 -1.5707963200328967 3.103727820414032 10666.72199999994
4.674524152735067 -1.5190157143360978 2.1010790350186683 -2.15285975618876 -1.5707963201062418 3.103727826277737 10666.771999999939
4.674524166611586 -1.5223023065988286 2.0958105240064877 -2.144304649512805 -1.5707963202796995 3.1037278401451203 10666.821999999938
4.674524189831881 -1.527801931021213 2.0869944526730397 -2.129988948065832 -1.5707963205699553 3.1037278633501284 10666.871999999938
4.674524222274605 -1.535485846925853 2.07467689323029 -2.1099874647669448 -1.5707963209754923 3.103727895771494 10666.921999999937
4.67452426265347 -1.545049403132329 2.0593462111250616 -2.085093216558647 -1.5707963214802318 3.103727936123777 10666.971999999936
4.67452430880849 -1.5559810155829543 2.041822491730323 -2.0566378734009927 -1.5707963220571737 3.1037279822484094 10667.021999999935
4.674524357997202 -1.5676311449685323 2.0231469670364715 -2.0263122072657347 -1.5707963226720372 3.1037280314047386 10667.071999999935
4.674524407185914 -1.5792812743541103 2.00447144234262 -1.995986541130477 -1.5707963232869007 3.103728080561068 10667.121999999934
4.674524453340934 -1.5902128868047356 1.9869477229478814 -1.9675311979728225 -1.5707963238638425 3.1037281266857004 10667.171999999933
4.674524493719799 -1.5997764430112116 1.9716170408426528 -1.9426369497645248 -1.570796324368582 3.1037281670379833 10667.221999999932
4.674524526162523 -1.6074603589158516 1.959299481399903 -1.9226354664656375 -1.570796324774119 3.103728199459349 10667.271999999932
4.674524549382818 -1.612959983338236 1.9504834100664554 -1.9083197650186643 -1.5707963250643748 3.103728222664357 10667.321999999931
4.674524563259337 -1.616246575600967 1.9452148990542746 -1.8997646583427097 -1.5707963252378325 3.1037282365317402 10667.37199999993
4.6745245691269055 -1.617636283155423 1.9429871540317507 -1.8961472043276277 -1.5707963253111776 3.1037282423954453 10667.42199999993
4.674524570067755 -1.6178591192075162 1.942629940814986 -1.8955671548281736 -1.5707963253229384 3.1037282433356754 10667.471999999929
4.674524570067755 -1.6178591192075162 1.942629940814986 -1.8955671548281738 -1.5707963253229384 3.1037282433356754 10667.521999999928
4.674387678563113 -1.6178228572306388 1.9425863193385706 -1.895559795328104 -1.570796325323065 3.103591351831028 10667.571999999927
4.673463165519583 -1.6175779576607565 1.942291716514023 -1.8955100920698469 -1.5707963253239203 3.102666838787464 10667.621999999927
4.671054254883728 -1.616939847487261 1.9415240995697598 -1.895380585289721 -1.5707963253261488 3.1002579281515192 10667.671999999926
4.6665594260625785 -1.61574918646555 1.9400917895814518 -1.8951389363056612 -1.5707963253303066 3.095763099330202 10667.721999999925
4.6594681803476155 -1.6138707456607628 1.937832112412146 -1.8947576999135933 -1.5707963253368664 3.088671853614974 10667.771999999924
4.649356807338748 -1.6111922859915113 1.9346100496523886 -1.8942140967838048 -1.57079632534622 3.0785604806057285 10667.821999999924
4.635884151368291 -1.607623436773614 1.9303168895603455 -1.893489785857318 -1.570796325358683 3.0650878246347686 10667.871999999923
4.618787377924949 -1.6030945742638283 1.9248688780019259 -1.8925706367422634 -1.5707963253744983 3.047991051190788 10667.921999999922
4.59787774007779 -1.5975557002035843 1.9182058693909032 -1.8914465021102513 -1.570796325393841 3.027081413342848 10667.971999999922
4.573036344900228 -1.5909753203627175 1.9102899776290378 -1.8901109900927444 -1.5707963254168207 3.0022400181643567 10668.02199999992
4.544209919893998 -1.5833393230832014 1.9011042270461982 -1.8885612366774307 -1.5707963254434867 2.9734135931570504 10668.07199999992
4.511406579413141 -1.574649857822881 1.890651203340484 -1.8867976781045963 -1.5707963254738315 2.9406102526749685 10668.12199999992
4.47469159108798 -1.564924213699206 1.8789517045183475 -1.8848238232634975 -1.5707963255077948 2.903895264348436 10668.171999999919
4.434183142249098 -1.5541936980329631 1.8660433918347152 -1.8826460260887334 -1.5707963255452675 2.86338681550804 10668.221999999918
4.390048106351317 -1.5425025148920095 1.8519794407331107 -1.8802732579566188 -1.5707963255860948 2.8192517796086114 10668.271999999917
4.342497809397682 -1.5299066436350057 1.8368271917857768 -1.8777168800815565 -1.5707963256300814 2.7717014826532 10668.321999999916
4.2917837963634335 -1.516472717455149 1.8206668016337961 -1.8749904159124096 -1.5707963256769946 2.720987469617057 10668.371999999916
4.238193597619991 -1.5022769019239057 1.803589893927215 -1.8721093235288746 -1.5707963257265685 2.667397270871612 10668.421999999915
4.182046495358929 -1.4874037735347445 1.785698210265164 -1.8690907680378543 -1.5707963257785076 2.611250168608453 10668.471999999914
4.12368929001596 -1.4719451982468699 1.7671022611359808 -1.8659533939698287 -1.5707963258324913 2.552892963263304 10668.521999999914
4.06349206669491 -1.4559992100289545 1.7479199768573317 -1.8627170976752299 -1.570796325888177 2.4926957399400056 10668.571999999913
4.0018439615917005 -1.4396688894028726 1.7282753585163344 -1.8594027997208127 -1.5707963259452047 2.431047634834493 10668.621999999912
3.9391489284183234 -1.423061241987433 1.7082971289096789 -1.8560322172860277 -1.5707963260032012 2.368352601658774 10668.671999999911
3.8758215048268254 -1.4062860770421115 1.6881173834837506 -1.852627636559395 -1.5707963260617825 2.305025178064911 10668.72199999991
3.8122825788332837 -1.389454886010785 1.667870241274752 -1.8492116851348748 -1.5707963261205593 2.2414862520689955 10668.77199999991
3.748955155241786 -1.3726797210654638 1.6476904958488237 -1.845807104408242 -1.5707963261791407 2.1781588284751328 10668.82199999991
3.6862601220684095 -1.3560720736500238 1.6277122662421681 -1.842436521973457 -1.5707963262371372 2.1154637952994135 10668.871999999908
3.6246120169651994 -1.339741753023942 1.6080676479011708 -1.83912222401904 -1.5707963262941649 2.0538156901939004 10668.921999999908
3.5644147936441497 -1.3237957648060266 1.5888853636225218 -1.8358859277244408 -1.5707963263498506 1.993618466870602 10668.971999999907
3.5060575883011804 -1.308337189518152 1.5702894144933386 -1.8327485536564154 -1.5707963264038343 1.9352612615254532 10669.021999999906
3.4499104860401184 -1.2934640611289907 1.5523977308312875 -1.8297299981653952 -1.5707963264557734 1.8791141592622937 10669.071999999906
3.3963202872966756 -1.2792682455977475 1.5353208231247062 -1.8268489057818602 -1.5707963265053473 1.8255239605168494 10669.121999999905
3.345606274262427 -1.2658343194178907 1.5191604329727255 -1.8241224416127133 -1.5707963265522604 1.7748099474807064 10669.171999999904
3.298055977308792 -1.2532384481608871 1.5040081840253916 -1.821566063737651 -1.570796326596247 1.7272596505252953 10669.221999999903
3.253920941411012 -1.2415472650199333 1.4899442329237873 -1.8191932956055363 -1.5707963266370744 1.6831246146258658 10669.271999999903
3.2134124925721297 -1.2308167493536906 1.477035920240155 -1.8170154984307723 -1.570796326674547 1.6426161657854705 10669.321999999902
3.1766975042469694 -1.2210911052300155 1.4653364214180185 -1.8150416435896735 -1.5707963267085103 1.6059011774589382 10669.371999999901
3.143894163766112 -1.2124016399696953 1.4548833977123041 -1.813278085016839 -1.5707963267388552 1.5730978369768562 10669.4219999999
3.115067738759882 -1.2047656426901792 1.4456976471294647 -1.8117283316015254 -1.5707963267655212 1.5442714119695495 10669.4719999999
3.0902263435823194 -1.1981852628493121 1.437781755367599 -1.8103928195840184 -1.5707963267885008 1.5194300167910586 10669.521999999899
3.0693167057351585 -1.192646388789068 1.4311187467565762 -1.809268684952006 -1.5707963268078435 1.498520378943117 10669.571999999898
4.674551963806152 -1.6178370914854945 1.942639176045553 -1.895538946191305 -1.570784870778219 3.103755474090576 10670.622
4.674563355974907 -1.6174001502431643 1.9421422678455396 -1.8954790592399144 -1.5707848861989677 3.1037668664781988 10670.671999999999
4.674635795940801 -1.6146217496265949 1.9389825522692903 -1.89509825302034 -1.5707849842556711 3.1038393078358197 10670.721999999998
4.6748113502531226 -1.6078884470417718 1.9313251536457854 -1.8941753898855975 -1.5707852218907519 3.104014865520917 10670.771999999997
4.67511361722001 -1.5962951405457124 1.9181407514766484 -1.8925864170093303 -1.5707856310475201 3.1043171382950026 10670.821999999996
4.675550189340603 -1.5795506234263257 1.8990981730797925 -1.8902914217430584 -1.5707862220033888 3.1047537188030847 10670.871999999996
4.676115115737199 -1.5578831387822776 1.8744569862330696 -1.8873216869734282 -1.5707869867030881 3.1053186560531296 10670.921999999995
4.6767913645874 -1.5319459341028516 1.8449600918179165 -1.8837667464794623 -1.5707879020918813 3.105994917895525 10670.971999999994
4.677553285556275 -1.502722815847812 1.811726316463004 -1.8797614402898097 -1.570788933448779 3.106756853502539 10671.021999999994
4.6783690722285085 -1.4714337040272671 1.7761430051878835 -1.875472970039995 -1.5707900377197543 3.107572655847788 10671.071999999993
4.679203224540554 -1.4394401867815307 1.7397586140466348 -1.8710879543296675 -1.5707911668509582 3.108406824185691 10671.121999999992
4.680019011212788 -1.4081510749609856 1.7041753027715143 -1.8667994840798527 -1.5707922711219335 3.1092226265309395 10671.171999999991
4.680780932181663 -1.378927956705946 1.6709415274166015 -1.8627941778902002 -1.5707933024788312 3.109984562137954 10671.22199999999
4.681457181031864 -1.35299075202652 1.6414446330014492 -1.8592392373962343 -1.5707942178676244 3.110660823980349 10671.27199999999
4.68202210742846 -1.3313232673824718 1.6168034461547256 -1.856269502626604 -1.5707949825673237 3.111225761230394 10671.32199999999
4.682458679549053 -1.3145787502630852 1.5977608677578696 -1.8539745073603322 -1.5707955735231924 3.111662341738476 10671.371999999988
4.68276094651594 -1.302985443767026 1.584576465588733 -1.852385534484065 -1.5707959826799607 3.1119646145125617 10671.421999999988
4.682936500828262 -1.2962521411822032 1.5769190669652278 -1.8514626713493225 -1.5707962203150414 3.112140172197659 10671.471999999987
4.6830089407941555 -1.2934737405656334 1.5737593513889787 -1.851081865129748 -1.5707963183717448 3.11221261355528 10671.521999999986
4.6830203329629105 -1.2930367993233034 1.5732624431889652 -1.8510219781783575 -1.5707963337924935 3.1122240059429025 10671.571999999986
4.6830203329629105 -1.2930367993233032 1.5732624431889652 -1.8510219781783575 -1.5707963337924935 3.1122240059429025 10671.621999999985
4.683020327505428 -1.292826290769684 1.5736508461758685 -1.851620889986443 -1.57079633421281 3.112224000474477 10671.671999999984
4.683020293752872 -1.291524371546636 1.576052978090438 -1.8553249427788423 -1.570796336812316 3.112223966654243 10671.721999999983
4.683020214776567 -1.288478060911766 1.5816736340176023 -1.8639919132128373 -1.5707963428947993 3.1122238875195816 10671.771999999983
4.683020084288719 -1.2834448231607567 1.590960309274621 -1.878311832618275 -1.5707963529445246 3.11222375677009 10671.821999999982
4.68301990470771 -1.2765179412568068 1.6037408902779322 -1.8980193043298301 -1.5707963667752363 3.112223576829 10671.871999999981
4.683019685223393 -1.2680518904600728 1.619361345410004 -1.9221058210192634 -1.5707963836791636 3.1122233569045905 10671.92199999998
4.6830194398623854 -1.258587711957109 1.6368234158861807 -1.9490320820276845 -1.5707964025760246 3.112223111051605 10671.97199999998
4.683019185553364 -1.2487783864903088 1.654922306621534 -1.9769403106978116 -1.570796422162031 3.112222856232663 10672.021999999979
4.683018940192356 -1.239314207987345 1.6723843770977107 -2.0038665717062325 -1.570796441058892 3.1122226103796775 10672.071999999978
4.683018720708039 -1.230848157190611 1.6880048322297823 -2.027953088395666 -1.5707964579628193 3.112222390455268 10672.121999999978
4.68301854112703 -1.223921275286661 1.7007854132330937 -2.0476605601072206 -1.570796471793531 3.112222210514178 10672.171999999977
4.683018410639182 -1.2188880375356514 1.7100720884901124 -2.061980479512659 -1.5707964818432563 3.1122220797646865 10672.221999999976
4.683018331662877 -1.2158417269007815 1.715692744417277 -2.0706474499466534 -1.5707964879257397 3.112222000630025 10672.271999999975
4.683018297910321 -1.2145398076777336 1.7180948763318464 -2.074351502739053 -1.5707964905252456 3.1122219668097912 10672.321999999975
4.6830182924528385 -1.2143292991241146 1.7184832793187494 -2.0749504145471382 -1.570796490945562 3.1122219613413655 10672.371999999974
4.6830182924528385 -1.2143292991241146 1.7184832793187494 -2.0749504145471382 -1.570796490945562 3.1122219613413655 10672.421999999973
4.6830182924528385 -1.2143292991241146 1.7184832793187494 -2.0749504145471382 -1.570796490945562 3.1122219613413655 10672.471999999972
4.6830182924528385 -1.2143292991241146 1.7184832793187494 -2.0749504145471382 -1.570796490945562 3.1122219613413655 10672.521999999972
4.6830182924528385 -1.2143292991241146 1.7184832793187494 -2.0749504145471382 -1.570796490945562 3.1122219613413655 10672.571999999971
4.6830182924528385 -1.2143292991241146 1.7184832793187494 -2.0749504145471382 -1.570796490945562 3.1122219613413655 10672.62199999997
4.6830182924528385 -1.2143292991241146 1.7184832793187494 -2.0749504145471382 -1.570796490945562 3.1122219613413655 10672.67199999997
4.6830182924528385 -1.2143292991241146 1.7184832793187494 -2.0749504145471382 -1.570796490945562 3.1122219613413655 10672.721999999969
4.6830182924528385 -1.2143292991241146 1.7184832793187494 -2.0749504145471382 -1.570796490945562 3.1122219613413655 10672.771999999968
4.6830182924528385 -1.2143292991241146 1.7184832793187494 -2.0749504145471382 -1.570796490945562 3.1122219613413655 10672.821999999967
4.6830182924528385 -1.2143292991241146 1.7184832793187494 -2.0749504145471382 -1.570796490945562 3.1122219613413655 10672.871999999967
4.6830182924528385 -1.2143292991241146 1.7184832793187494 -2.0749504145471382 -1.570796490945562 3.1122219613413655 10672.921999999966
4.6830182924528385 -1.2143292991241146 1.7184832793187494 -2.0749504145471382 -1.570796490945562 3.1122219613413655 10672.971999999965
4.6830182924528385 -1.2143292991241146 1.7184832793187494 -2.0749504145471382 -1.570796490945562 3.1122219613413655 10673.021999999964
4.6830182924528385 -1.2143292991241146 1.7184832793187494 -2.0749504145471387 -1.570796490945562 3.1122219613413655 10673.071999999964
4.683018297910321 -1.2145398076777338 1.7180948763318462 -2.074351502739053 -1.5707964905252456 3.1122219668097912 10673.121999999963
4.683018331662877 -1.2158417269007817 1.7156927444172767 -2.070647449946654 -1.5707964879257397 3.112222000630025 10673.171999999962
4.683018410639182 -1.2188880375356517 1.7100720884901124 -2.061980479512659 -1.5707964818432563 3.1122220797646865 10673.221999999962
4.68301854112703 -1.223921275286661 1.7007854132330937 -2.047660560107221 -1.570796471793531 3.112222210514178 10673.27199999996
4.683018720708039 -1.230848157190611 1.6880048322297825 -2.027953088395666 -1.5707964579628193 3.112222390455268 10673.32199999996
4.683018940192356 -1.239314207987345 1.6723843770977107 -2.003866571706233 -1.570796441058892 3.1122226103796775 10673.37199999996
4.683019185553364 -1.2487783864903088 1.654922306621534 -1.9769403106978116 -1.570796422162031 3.112222856232663 10673.421999999959
4.6830194398623854 -1.258587711957109 1.6368234158861807 -1.9490320820276845 -1.5707964025760246 3.112223111051605 10673.471999999958
4.683019685223393 -1.2680518904600726 1.619361345410004 -1.9221058210192634 -1.5707963836791636 3.1122233569045905 10673.521999999957
4.68301990470771 -1.2765179412568068 1.6037408902779324 -1.8980193043298303 -1.5707963667752363 3.112223576829 10673.571999999956
4.683020084288719 -1.2834448231607567 1.590960309274621 -1.8783118326182753 -1.5707963529445246 3.11222375677009 10673.621999999956
4.683020214776567 -1.2884780609117663 1.5816736340176023 -1.8639919132128373 -1.5707963428947993 3.1122238875195816 10673.671999999955
4.683020293752872 -1.291524371546636 1.5760529780904378 -1.8553249427788425 -1.570796336812316 3.112223966654243 10673.721999999954
4.683020327505428 -1.2928262907696841 1.5736508461758683 -1.851620889986443 -1.57079633421281 3.112224000474477 10673.771999999954
4.6830203329629105 -1.2930367993233032 1.5732624431889652 -1.8510219781783577 -1.5707963337924935 3.1122240059429025 10673.821999999953
4.6830203329629105 -1.2930367993233032 1.5732624431889652 -1.8510219781783575 -1.5707963337924935 3.1122240059429025 10673.871999999952
4.682882741255837 -1.2930273085005568 1.5732492641840323 -1.851018289995549 -1.5707963337919222 3.112086414235848 10673.921999999951
4.681953499311987 -1.2929632111013374 1.5731602582081463 -1.8509933814146828 -1.570796333788063 3.111157172292123 10673.97199999995
4.67953226705627 -1.2927961989560888 1.5729283442903628 -1.8509284796312058 -1.5707963337780078 3.1087359400367336 10674.02199999995
4.675014447107407 -1.2924845680500798 1.5724956120228544 -1.8508073782492889 -1.5707963337592454 3.1042181200884817 10674.07199999995
4.667886929547092 -1.2919929250054132 1.571812913980327 -1.8506163232192163 -1.5707963337296453 3.0970906025291316 10674.121999999948
4.657723836689159 -1.291291893563032 1.5708394581394365 -1.850343898774777 -1.5707963336874387 3.086927509672573 10674.171999999948
4.6441822678487386 -1.2903578210647284 1.5695424002982072 -1.8499809133706526 -1.5707963336312012 3.0733859408339854 10674.221999999947
4.626998044111432 -1.2891724849351502 1.5678964364954473 -1.8495202856198096 -1.5707963335598363 3.056201717099005 10674.271999999946
4.605981453102469 -1.287722799163811 1.5658833954301667 -1.8489569302308881 -1.5707963334725557 3.0351851260928853 10674.321999999946
4.581012993755872 -1.2860005207870944 1.5634918308809946 -1.848287643945592 -1.570796333368863 3.0102166667496655 10674.371999999945
4.55203912108362 -1.2840019563702652 1.5607166141255955 -1.8475109914760797 -1.5707963332485362 2.9812427940813344 10674.421999999944
4.519067990944817 -1.2817276684894752 1.5575585263600862 -1.8466271914423535 -1.570796333111609 2.948271663946992 10674.471999999943
4.48216520481485 -1.2791821822137712 1.5540238511184545 -1.8456380023096504 -1.5707963329583539 2.9113688778220186 10674.521999999943
4.441449554554557 -1.2763736915871036 1.550123966691974 -1.8445466083258306 -1.5707963327892642 2.870653227567235 10674.571999999942
4.397088767179391 -1.2733137661103329 1.545874938548623 -1.8433575054587696 -1.5707963326050365 2.826292440198071 10674.621999999941
4.34929524962858 -1.2700170572232383 1.5412971117525003 -1.8420763873337471 -1.5707963324065528 2.7784989226537267 10674.67199999994
4.298321833534295 -1.266501004786526 1.536414703383243 -1.840710031170837 -1.570796332194863 2.727525506566339 10674.72199999994
4.244457519990815 -1.2627855435638353 1.531255394955443 -1.8392661837222979 -1.5707963319711677 2.6736611930301475 10674.771999999939
4.188023224323686 -1.2588928097037477 1.525849924838065 -1.8377534472099628 -1.5707963317367994 2.617226897370654 10674.821999999938
4.129367520858889 -1.2548468472217942 1.520231680673862 -1.8361811652626296 -1.5707963314932059 2.558571193913793 10674.871999999938
4.068862387692002 -1.250673314482463 1.514436291798794 -1.8345593088534504 -1.5707963312419315 2.4980660607550935 10674.921999999937
4.006898951457368 -1.2463991906812082 1.5085012216614435 -1.8328983622373225 -1.570796330984601 2.436102624528843 10674.971999999936
3.9438832320972517 -1.2420524823264552 1.502465360242434 -1.8312092088882779 -1.5707963307229003 2.373086905177253 10675.021999999935
3.88023188763101 -1.2376619297216114 1.4963686164738463 -1.8295030174368732 -1.57079633045856 2.309435560719624 10675.071999999935
3.8163679589242543 -1.233256713447072 1.4902515106586354 -1.8277911276075802 -1.570796330193337 2.245571632021509 10675.121999999934
3.7527166144580133 -1.2288661608422282 1.4841547668900477 -1.8260849361561755 -1.5707963299289966 2.1819202875638806 10675.171999999933
3.6897008950978964 -1.2245194524874754 1.4781189054710382 -1.8243957828071309 -1.570796329667296 2.1189045682122902 10675.221999999932
3.627737458863262 -1.2202453286862203 1.4721838353336878 -1.822734836191003 -1.5707963294099654 2.05694113198604 10675.271999999932
3.5672323256963754 -1.2160717959468892 1.4663884464586197 -1.821112979781824 -1.570796329158691 1.9964359988273404 10675.321999999931
3.508576622231578 -1.2120258334649356 1.4607702022944167 -1.8195406978344906 -1.5707963289150975 1.9377802953704792 10675.37199999993
3.4521423265644486 -1.208133099604848 1.4553647321770387 -1.8180279613221555 -1.5707963286807292 1.8813459997109847 10675.42199999993
3.398278013020969 -1.2044176383821572 1.4502054237492388 -1.8165841138736163 -1.5707963284570339 1.8274816861747931 10675.471999999929
3.3473045969266844 -1.2009015859454448 1.4453230153799814 -1.8152177577107063 -1.570796328245344 1.7765082700874064 10675.521999999928
3.299511079375873 -1.1976048770583505 1.4407451885838587 -1.8139366395856837 -1.5707963280468604 1.7287147525430626 10675.571999999927
3.2551502920007067 -1.1945449515815798 1.4364961604405075 -1.8127475367186228 -1.5707963278626327 1.684353965173898 10675.621999999927
3.2144346417404135 -1.1917364609549121 1.4325962760140272 -1.811656142734803 -1.570796327693543 1.643638314919115 10675.671999999926
3.1775318556104484 -1.1891909746792084 1.4290616007723955 -1.8106669536020998 -1.5707963275402879 1.6067355287941414 10675.721999999925
3.144560725471645 -1.1869166867984182 1.4259035130068862 -1.8097831535683735 -1.5707963274033607 1.5737643986597991 10675.771999999924
3.1155868527993933 -1.184918122381589 1.423128296251487 -1.8090065010988614 -1.5707963272830339 1.5447905259914663 10675.821999999924
3.090618393452792 -1.1831958440048724 1.4207367317023147 -1.8083372148135652 -1.5707963271793413 1.5198220666482474 10675.871999999923
3.0696018024438283 -1.181746158233533 1.4187236906370344 -1.8077738594246435 -1.5707963270920606 1.4988054756421274 10675.921999999922
4.682994842529297 -1.2930305761149903 1.5732925573932093 -1.8509627781310023 -1.5707843939410608 3.112231731414795 0.0
4.682983484651834 -1.2934675257291612 1.5737894250817512 -1.8510227447219216 -1.5707843945825315 3.1122203286343946 0.05
4.682911262735733 -1.2962459795801837 1.5769488830556349 -1.85140405734944 -1.570784398661483 3.1121478211916855 0.10150736513900714
4.68273623685521 -1.3029794111758037 1.5846056573938352 -1.8523281477362554 -1.5707844085465998 3.1119721033529766 0.15301473027801427
4.682434879734824 -1.314572939800855 1.5977889846772406 -1.8539192336780281 -1.5707844255666563 3.1116695548286355 0.20452209541702143
4.681999621729434 -1.3313177777469791 1.6168300105883977 -1.8562172809003183 -1.570784450149171 3.1112325760472164 0.25602946055602854
4.681436395804152 -1.3529856775423488 1.6414691885112564 -1.859190964915525 -1.5707844819590617 3.110667123429582 0.30753682569503565
4.680762182514293 -1.3789233791813889 1.670963678130915 -1.8627506328798236 -1.5707845200373003 3.109990244663032 0.3590441908340428
4.680002554985337 -1.4081470573544974 1.7041947440333638 -1.8667612654501053 -1.5707845629395667 3.1092276139754276 0.41055155597305
4.679189223892876 -1.4394367686777692 1.7397751543052318 -1.8710554386409155 -1.5707846088749045 3.1084110674093157 0.4620589211120571
4.678357582442573 -1.4714308989227156 1.7761565791335303 -1.8754462856813918 -1.5707846558443754 3.1075761380960554 0.5135662862510643
4.677544251350112 -1.5027206102459871 1.8117369894053985 -1.879740458872202 -1.5707847017797132 3.1067595915299435 0.5650736513900714
4.676784623821156 -1.531944288419096 1.8449680553078476 -1.8837510914424838 -1.5707847446819796 3.1059969608423392 0.6165810165290786
4.676110410531297 -1.5578819900581358 1.8744625449275056 -1.8873107594067824 -1.5707847827602182 3.105320082075789 0.6680883816680857
4.675547184606015 -1.5795498898535059 1.8991017228503646 -1.890284443421989 -1.5707848145701089 3.1047546294581547 0.7195957468070928
4.675111926600625 -1.5962947277996302 1.9181427487615221 -1.8925824906442792 -1.5707848391526236 3.1043176506767356 0.7711031119461
4.674810569480239 -1.6078882564246806 1.9313260760449267 -1.894173576586052 -1.57078485617268 3.1040151021523945 0.8226104770851072
4.674635543599716 -1.6146216880203008 1.9389828503831277 -1.8950976669728674 -1.570784866057797 3.1038393843136856 0.8741178422241143
4.674563321683615 -1.617400141871323 1.942142308357011 -1.8954789796003857 -1.5707848701367484 3.1037668768709765 0.9256252073631214
4.674551963806152 -1.6178370914854945 1.942639176045553 -1.895538946191305 -1.570784870778219 3.103755474090576 0.9771325725021285
4.674551963806152 -1.6178370914854945 1.942639176045553 -1.895538946191305 -1.570784870778219 3.103755474090576 1.0286399376411357
4.674563355974907 -1.6174001502431643 1.9421422678455396 -1.8954790592399144 -1.5707848861989677 3.1037668664781988 1.0786399376411357
4.674635795940801 -1.6146217496265949 1.9389825522692903 -1.89509825302034 -1.5707849842556711 3.1038393078358197 1.1301495098099446
4.6748113502531226 -1.6078884470417718 1.9313251536457854 -1.8941753898855975 -1.5707852218907519 3.104014865520917 1.1816590819787534
4.67511361722001 -1.5962951405457124 1.9181407514766484 -1.8925864170093303 -1.5707856310475201 3.1043171382950026 1.233168654147562
4.675550189340603 -1.5795506234263257 1.8990981730797925 -1.8902914217430584 -1.5707862220033888 3.1047537188030847 1.2846782263163707
4.676115115737199 -1.5578831387822776 1.8744569862330696 -1.8873216869734282 -1.5707869867030881 3.1053186560531296 1.3361877984851795
4.6767913645874 -1.5319459341028516 1.8449600918179165 -1.8837667464794623 -1.5707879020918813 3.105994917895525 1.3876973706539881
4.677553285556275 -1.502722815847812 1.811726316463004 -1.8797614402898097 -1.570788933448779 3.106756853502539 1.439206942822797
4.6783690722285085 -1.4714337040272671 1.7761430051878835 -1.875472970039995 -1.5707900377197543 3.107572655847788 1.4907165149916057
4.679203224540554 -1.4394401867815307 1.7397586140466348 -1.8710879543296675 -1.5707911668509582 3.108406824185691 1.5422260871604145
4.680019011212788 -1.4081510749609856 1.7041753027715143 -1.8667994840798527 -1.5707922711219335 3.1092226265309395 1.5937356593292233
4.680780932181663 -1.378927956705946 1.6709415274166015 -1.8627941778902002 -1.5707933024788312 3.109984562137954 1.645245231498032
4.681457181031864 -1.35299075202652 1.6414446330014492 -1.8592392373962343 -1.5707942178676244 3.110660823980349 1.6967548036668407
4.68202210742846 -1.3313232673824718 1.6168034461547256 -1.856269502626604 -1.5707949825673237 3.111225761230394 1.7482643758356495
4.682458679549053 -1.3145787502630852 1.5977608677578696 -1.8539745073603322 -1.5707955735231924 3.111662341738476 1.7997739480044581
4.68276094651594 -1.302985443767026 1.584576465588733 -1.852385534484065 -1.5707959826799607 3.1119646145125617 1.851283520173267
4.682936500828262 -1.2962521411822032 1.5769190669652278 -1.8514626713493225 -1.5707962203150414 3.112140172197659 1.9027930923420757
4.6830089407941555 -1.2934737405656334 1.5737593513889787 -1.851081865129748 -1.5707963183717448 3.11221261355528 1.9543026645108845
4.6830203329629105 -1.2930367993233034 1.5732624431889652 -1.8510219781783575 -1.5707963337924935 3.1122240059429025 2.0058122366796933
4.6830203329629105 -1.2930367993233032 1.5732624431889652 -1.8510219781783575 -1.5707963337924935 3.1122240059429025 2.057321808848502
4.683020327505428 -1.292826290769684 1.5736508461758685 -1.851620889986443 -1.57079633421281 3.112224000474477 2.1073218088485017
4.683020293752872 -1.291524371546636 1.576052978090438 -1.8553249427788423 -1.570796336812316 3.112223966654243 2.157384593386737
4.683020214776567 -1.288478060911766 1.5816736340176023 -1.8639919132128373 -1.5707963428947993 3.1122238875195816 2.207447377924972
4.683020084288719 -1.2834448231607567 1.590960309274621 -1.878311832618275 -1.5707963529445246 3.11222375677009 2.2575101624632072
4.68301990470771 -1.2765179412568068 1.6037408902779322 -1.8980193043298301 -1.5707963667752363 3.112223576829 2.3075729470014426
4.683019685223393 -1.2680518904600728 1.619361345410004 -1.9221058210192634 -1.5707963836791636 3.1122233569045905 2.357635731539678
4.6830194398623854 -1.258587711957109 1.6368234158861807 -1.9490320820276845 -1.5707964025760246 3.112223111051605 2.4076985160779127
4.683019185553364 -1.2487783864903088 1.654922306621534 -1.9769403106978116 -1.570796422162031 3.112222856232663 2.457761300616148
4.683018940192356 -1.239314207987345 1.6723843770977107 -2.0038665717062325 -1.570796441058892 3.1122226103796775 2.5078240851543834
4.683018720708039 -1.230848157190611 1.6880048322297823 -2.027953088395666 -1.5707964579628193 3.112222390455268 2.5578868696926187
4.68301854112703 -1.223921275286661 1.7007854132330937 -2.0476605601072206 -1.570796471793531 3.112222210514178 2.6079496542308536
4.683018410639182 -1.2188880375356514 1.7100720884901124 -2.061980479512659 -1.5707964818432563 3.1122220797646865 2.658012438769089
4.683018331662877 -1.2158417269007815 1.715692744417277 -2.0706474499466534 -1.5707964879257397 3.112222000630025 2.708075223307324
4.683018297910321 -1.2145398076777336 1.7180948763318464 -2.074351502739053 -1.5707964905252456 3.1122219668097912 2.7581380078455595
4.6830182924528385 -1.2143292991241146 1.7184832793187494 -2.0749504145471382 -1.570796490945562 3.1122219613413655 2.8082007923837944
4.6830182924528385 -1.2143292991241146 1.7184832793187494 -2.0749504145471382 -1.570796490945562 3.1122219613413655 2.8582635769220297
4.6830182924528385 -1.2143292991241146 1.7184832793187494 -2.0749504145471382 -1.570796490945562 3.1122219613413655 2.9082635769220295
4.6830182924528385 -1.2143292991241146 1.7184832793187494 -2.0749504145471382 -1.570796490945562 3.1122219613413655 2.962430243588696
4.6830182924528385 -1.2143292991241146 1.7184832793187494 -2.0749504145471382 -1.570796490945562 3.1122219613413655 3.016596910255363
4.6830182924528385 -1.2143292991241146 1.7184832793187494 -2.0749504145471382 -1.570796490945562 3.1122219613413655 3.0707635769220296
4.6830182924528385 -1.2143292991241146 1.7184832793187494 -2.0749504145471382 -1.570796490945562 3.1122219613413655 3.1249302435886963
4.6830182924528385 -1.2143292991241146 1.7184832793187494 -2.0749504145471382 -1.570796490945562 3.1122219613413655 3.179096910255363
4.6830182924528385 -1.2143292991241146 1.7184832793187494 -2.0749504145471382 -1.570796490945562 3.1122219613413655 3.2332635769220293
4.6830182924528385 -1.2143292991241146 1.7184832793187494 -2.0749504145471382 -1.570796490945562 3.1122219613413655 3.2874302435886964
4.6830182924528385 -1.2143292991241146 1.7184832793187494 -2.0749504145471382 -1.570796490945562 3.1122219613413655 3.3415969102553627
4.6830182924528385 -1.2143292991241146 1.7184832793187494 -2.0749504145471382 -1.570796490945562 3.1122219613413655 3.3957635769220293
4.6830182924528385 -1.2143292991241146 1.7184832793187494 -2.0749504145471382 -1.570796490945562 3.1122219613413655 3.449930243588696
4.6830182924528385 -1.2143292991241146 1.7184832793187494 -2.0749504145471382 -1.570796490945562 3.1122219613413655 3.5040969102553627
4.6830182924528385 -1.2143292991241146 1.7184832793187494 -2.0749504145471387 -1.570796490945562 3.1122219613413655 3.5582635769220294
4.683018297910321 -1.2145398076777338 1.7180948763318462 -2.074351502739053 -1.5707964905252456 3.1122219668097912 3.6082635769220293
4.683018331662877 -1.2158417269007817 1.7156927444172767 -2.070647449946654 -1.5707964879257397 3.112222000630025 3.6583263614602646
4.683018410639182 -1.2188880375356517 1.7100720884901124 -2.061980479512659 -1.5707964818432563 3.1122220797646865 3.7083891459984994
4.68301854112703 -1.223921275286661 1.7007854132330937 -2.047660560107221 -1.570796471793531 3.112222210514178 3.7584519305367348
4.683018720708039 -1.230848157190611 1.6880048322297825 -2.027953088395666 -1.5707964579628193 3.112222390455268 3.80851471507497
4.683018940192356 -1.239314207987345 1.6723843770977107 -2.003866571706233 -1.570796441058892 3.1122226103796775 3.858577499613205
4.683019185553364 -1.2487783864903088 1.654922306621534 -1.9769403106978116 -1.570796422162031 3.112222856232663 3.9086402841514403
4.6830194398623854 -1.258587711957109 1.6368234158861807 -1.9490320820276845 -1.5707964025760246 3.112223111051605 3.9587030686896756
4.683019685223393 -1.2680518904600726 1.619361345410004 -1.9221058210192634 -1.5707963836791636 3.1122233569045905 4.008765853227911
4.68301990470771 -1.2765179412568068 1.6037408902779324 -1.8980193043298303 -1.5707963667752363 3.112223576829 4.058828637766146
4.683020084288719 -1.2834448231607567 1.590960309274621 -1.8783118326182753 -1.5707963529445246 3.11222375677009 4.108891422304381
4.683020214776567 -1.2884780609117663 1.5816736340176023 -1.8639919132128373 -1.5707963428947993 3.1122238875195816 4.158954206842616
4.683020293752872 -1.291524371546636 1.5760529780904378 -1.8553249427788425 -1.570796336812316 3.112223966654243 4.209016991380851
4.683020327505428 -1.2928262907696841 1.5736508461758683 -1.851620889986443 -1.57079633421281 3.112224000474477 4.259079775919086
4.6830203329629105 -1.2930367993233032 1.5732624431889652 -1.8510219781783577 -1.5707963337924935 3.1122240059429025 4.309142560457322
4.6830203329629105 -1.2930367993233032 1.5732624431889652 -1.8510219781783575 -1.5707963337924935 3.1122240059429025 4.359205344995557
4.682882741255837 -1.2930273085005568 1.5732492641840323 -1.851018289995549 -1.5707963337919222 3.112086414235848 4.409205344995557
4.681953499311987 -1.2929632111013374 1.5731602582081463 -1.8509933814146828 -1.570796333788063 3.111157172292123 4.459533628468057
4.67953226705627 -1.2927961989560888 1.5729283442903628 -1.8509284796312058 -1.5707963337780078 3.1087359400367336 4.509861911940557
4.675014447107407 -1.2924845680500798 1.5724956120228544 -1.8508073782492889 -1.5707963337592454 3.1042181200884817 4.560190195413056
4.667886929547092 -1.2919929250054132 1.571812913980327 -1.8506163232192163 -1.5707963337296453 3.0970906025291316 4.610518478885556
4.657723836689159 -1.291291893563032 1.5708394581394365 -1.850343898774777 -1.5707963336874387 3.086927509672573 4.660846762358056
4.6441822678487386 -1.2903578210647284 1.5695424002982072 -1.8499809133706526 -1.5707963336312012 3.0733859408339854 4.711175045830556
4.626998044111432 -1.2891724849351502 1.5678964364954473 -1.8495202856198096 -1.5707963335598363 3.056201717099005 4.761503329303056
4.605981453102469 -1.287722799163811 1.5658833954301667 -1.8489569302308881 -1.5707963334725557 3.0351851260928853 4.811831612775556
4.581012993755872 -1.2860005207870944 1.5634918308809946 -1.848287643945592 -1.570796333368863 3.0102166667496655 4.8621598962480554
4.55203912108362 -1.2840019563702652 1.5607166141255955 -1.8475109914760797 -1.5707963332485362 2.9812427940813344 4.9124881797205555
4.519067990944817 -1.2817276684894752 1.5575585263600862 -1.8466271914423535 -1.570796333111609 2.948271663946992 4.962816463193056
4.48216520481485 -1.2791821822137712 1.5540238511184545 -1.8456380023096504 -1.5707963329583539 2.9113688778220186 5.013144746665556
4.441449554554557 -1.2763736915871036 1.550123966691974 -1.8445466083258306 -1.5707963327892642 2.870653227567235 5.063473030138056
4.397088767179391 -1.2733137661103329 1.545874938548623 -1.8433575054587696 -1.5707963326050365 2.826292440198071 5.113801313610555
4.34929524962858 -1.2700170572232383 1.5412971117525003 -1.8420763873337471 -1.5707963324065528 2.7784989226537267 5.164129597083055
4.298321833534295 -1.266501004786526 1.536414703383243 -1.840710031170837 -1.570796332194863 2.727525506566339 5.214457880555555
4.244457519990815 -1.2627855435638353 1.531255394955443 -1.8392661837222979 -1.5707963319711677 2.6736611930301475 5.264786164028055
4.188023224323686 -1.2588928097037477 1.525849924838065 -1.8377534472099628 -1.5707963317367994 2.617226897370654 5.315114447500555
4.129367520858889 -1.2548468472217942 1.520231680673862 -1.8361811652626296 -1.5707963314932059 2.558571193913793 5.365442730973054
4.068862387692002 -1.250673314482463 1.514436291798794 -1.8345593088534504 -1.5707963312419315 2.4980660607550935 5.415771014445554
4.006898951457368 -1.2463991906812082 1.5085012216614435 -1.8328983622373225 -1.570796330984601 2.436102624528843 5.4660992979180545
3.9438832320972517 -1.2420524823264552 1.502465360242434 -1.8312092088882779 -1.5707963307229003 2.373086905177253 5.516427581390555
3.88023188763101 -1.2376619297216114 1.4963686164738463 -1.8295030174368732 -1.57079633045856 2.309435560719624 5.566755864863055
3.8163679589242543 -1.233256713447072 1.4902515106586354 -1.8277911276075802 -1.570796330193337 2.245571632021509 5.617084148335554
3.7527166144580133 -1.2288661608422282 1.4841547668900477 -1.8260849361561755 -1.5707963299289966 2.1819202875638806 5.667412431808054
3.6897008950978964 -1.2245194524874754 1.4781189054710382 -1.8243957828071309 -1.570796329667296 2.1189045682122902 5.717740715280554
3.627737458863262 -1.2202453286862203 1.4721838353336878 -1.822734836191003 -1.5707963294099654 2.05694113198604 5.768068998753054
3.5672323256963754 -1.2160717959468892 1.4663884464586197 -1.821112979781824 -1.570796329158691 1.9964359988273404 5.818397282225554
3.508576622231578 -1.2120258334649356 1.4607702022944167 -1.8195406978344906 -1.5707963289150975 1.9377802953704792 5.868725565698053
3.4521423265644486 -1.208133099604848 1.4553647321770387 -1.8180279613221555 -1.5707963286807292 1.8813459997109847 5.919053849170554
3.398278013020969 -1.2044176383821572 1.4502054237492388 -1.8165841138736163 -1.5707963284570339 1.8274816861747931 5.969382132643053
3.3473045969266844 -1.2009015859454448 1.4453230153799814 -1.8152177577107063 -1.570796328245344 1.7765082700874064 6.0197104161155535
3.299511079375873 -1.1976048770583505 1.4407451885838587 -1.8139366395856837 -1.5707963280468604 1.7287147525430626 6.0700386995880535
3.2551502920007067 -1.1945449515815798 1.4364961604405075 -1.8127475367186228 -1.5707963278626327 1.684353965173898 6.120366983060553
3.2144346417404135 -1.1917364609549121 1.4325962760140272 -1.811656142734803 -1.570796327693543 1.643638314919115 6.170695266533054
3.1775318556104484 -1.1891909746792084 1.4290616007723955 -1.8106669536020998 -1.5707963275402879 1.6067355287941414 6.221023550005553
3.144560725471645 -1.1869166867984182 1.4259035130068862 -1.8097831535683735 -1.5707963274033607 1.5737643986597991 6.271351833478053
3.1155868527993933 -1.184918122381589 1.423128296251487 -1.8090065010988614 -1.5707963272830339 1.5447905259914663 6.321680116950553
3.090618393452792 -1.1831958440048724 1.4207367317023147 -1.8083372148135652 -1.5707963271793413 1.5198220666482474 6.372008400423053
3.0696018024438283 -1.181746158233533 1.4187236906370344 -1.8077738594246435 -1.5707963270920606 1.4988054756421274 6.422336683895553
3.0524175787065237 -1.180560822103955 1.4170777268342745 -1.8073132316738008 -1.5707963270206957 1.481621251907148 6.472664967368052
3.0388760098661054 -1.1796267496056512 1.4157806689930452 -1.8069502462696765 -1.5707963269644583 1.4680796830685612 6.522993250840552
3.028712917008172 -1.1789257181632702 1.4148072131521547 -1.806677821825237 -1.5707963269222516 1.4579165902119993 6.573321534313052
3.021585399447857 -1.1784340751186035 1.4141245151096276 -1.8064867667951647 -1.5707963268926515 1.4507890726526522 6.6236498177855525
3.0170675794989945 -1.1781224442125944 1.413691782842119 -1.8063656654132476 -1.5707963268738891 1.446271252704399 6.673978101258053
3.0146463472432723 -1.1779554320673458 1.4134598689243354 -1.8063007636297705 -1.5707963268638339 1.443850020449009 6.724306384730552
3.013717105299425 -1.1778913346681263 1.4133708629484494 -1.8062758550489042 -1.5707963268599747 1.442920778505286 6.774634668203052
3.0135795135923518 -1.1778818438453802 1.4133576839435165 -1.806272166866096 -1.5707963268594034 1.4427831867982306 6.824962951675552
3.0135795135923544 -1.1778818438453802 1.4133576839435165 -1.806272166866096 -1.5707963268594034 1.4427831867982306 6.875291235148052
3.0135795136129113 -1.1776557011161803 1.413832186322794 -1.8069728119738422 -1.5707963268604985 1.4427831868189298 6.925291235148052
3.0135795137388284 -1.1762705125083937 1.4167386485047477 -1.8112644627591037 -1.570796326867206 1.4427831869457182 6.977724595280009
3.0135795140298094 -1.1730694853574875 1.423455181044227 -1.8211820224391388 -1.5707963268827065 1.442783187238713 7.030157955411965
3.013579514503415 -1.1678594453503641 1.4343871105750112 -1.8373239919602002 -1.5707963269079355 1.4427831877155957 7.0825913155439215
3.013579515143489 -1.1608181128550734 1.4491615365940236 -1.8591397504517355 -1.5707963269420322 1.4427831883600994 7.135024675675878
3.0135795159085905 -1.1524013792505263 1.4668218882455446 -1.885216835680589 -1.570796326982789 1.4427831891304956 7.187458035807834
3.0135795167404202 -1.1432505832562074 1.4860224811054272 -1.913568224505202 -1.5707963270271004 1.4427831899680816 7.239891395939791
3.01357951757225 -1.1340997872618888 1.5052230739653099 -1.9419196133298149 -1.5707963270714118 1.4427831908056676 7.292324756071748
3.0135795183373513 -1.1256830536573417 1.5228834256168309 -1.967996698558668 -1.5707963271121685 1.4427831915760638 7.344758116203704
3.0135795189774255 -1.118641721162051 1.5376578516358432 -1.9898124570502036 -1.5707963271462653 1.4427831922205676 7.397191476335661
3.013579519451031 -1.1134316811549276 1.5485897811666276 -2.005954426571265 -1.5707963271714942 1.4427831926974504 7.449624836467617
3.013579519742012 -1.1102306540040214 1.5553063137061067 -2.0158719862513004 -1.5707963271869947 1.442783192990445 7.502058196599574
3.013579519867929 -1.1088454653962345 1.5582127758880604 -2.0201636370365614 -1.5707963271937022 1.4427831931172335 7.554491556731531
3.013579519888486 -1.108619322667035 1.558687278267338 -2.020864282144308 -1.5707963271947973 1.4427831931379327 7.606924916863487
3.013579519888486 -1.108619322667035 1.558687278267338 -2.020864282144308 -1.5707963271947973 1.4427831931379327 7.659358276995444
3.013579519888486 -1.108619322667035 1.558687278267338 -2.020864282144308 -1.5707963271947973 1.4427831931379327 7.709358276995443
3.013579519888486 -1.108619322667035 1.558687278267338 -2.020864282144308 -1.5707963271947973 1.4427831931379327 7.771858276995443
3.013579519888486 -1.108619322667035 1.558687278267338 -2.020864282144308 -1.5707963271947973 1.4427831931379327 7.834358276995443
3.013579519888486 -1.108619322667035 1.558687278267338 -2.020864282144308 -1.5707963271947973 1.4427831931379327 7.896858276995443
3.013579519888486 -1.108619322667035 1.558687278267338 -2.020864282144308 -1.5707963271947973 1.4427831931379327 7.959358276995443
3.013579519867929 -1.1088454653962347 1.5582127758880604 -2.0201636370365614 -1.5707963271937022 1.4427831931172335 8.009358276995444
3.013579519742012 -1.1102306540040214 1.5553063137061067 -2.0158719862513004 -1.5707963271869947 1.442783192990445 8.061791637127401
3.013579519451031 -1.1134316811549276 1.5485897811666274 -2.005954426571265 -1.5707963271714942 1.4427831926974504 8.114224997259358
3.0135795189774255 -1.118641721162051 1.5376578516358432 -1.9898124570502036 -1.5707963271462653 1.4427831922205676 8.166658357391313
3.0135795183373513 -1.1256830536573417 1.5228834256168309 -1.9679966985586683 -1.5707963271121685 1.4427831915760638 8.21909171752327
3.01357951757225 -1.1340997872618888 1.5052230739653099 -1.9419196133298149 -1.5707963270714118 1.4427831908056676 8.271525077655227
3.0135795167404202 -1.1432505832562074 1.4860224811054272 -1.913568224505202 -1.5707963270271004 1.4427831899680816 8.323958437787184
3.0135795159085905 -1.1524013792505263 1.4668218882455446 -1.885216835680589 -1.570796326982789 1.4427831891304956 8.37639179791914
3.013579515143489 -1.1608181128550734 1.4491615365940236 -1.8591397504517357 -1.5707963269420322 1.4427831883600994 8.428825158051096
3.013579514503415 -1.1678594453503641 1.4343871105750112 -1.8373239919602002 -1.5707963269079355 1.4427831877155957 8.481258518183052
3.0135795140298094 -1.1730694853574875 1.4234551810442269 -1.8211820224391388 -1.5707963268827065 1.442783187238713 8.53369187831501
3.0135795137388284 -1.1762705125083937 1.4167386485047477 -1.8112644627591035 -1.570796326867206 1.4427831869457182 8.586125238446966
3.0135795136129113 -1.1776557011161803 1.413832186322794 -1.8069728119738422 -1.5707963268604985 1.4427831868189298 8.638558598578921
3.0135795135923544 -1.1778818438453802 1.4133576839435165 -1.806272166866096 -1.5707963268594034 1.4427831867982306 8.690991958710878
3.0135795135923544 -1.1778818438453802 1.4133576839435165 -1.806272166866096 -1.5707963268594034 1.4427831867982306 8.743425318842835
3.0138254540636615 -1.1777577651142297 1.4131568534255199 -1.8061954150792887 -1.5707963268593852 1.4430291272695368 8.793425318842836
3.0154476953491547 -1.1769393327543405 1.4118321606819888 -1.8056891546959024 -1.5707963268592657 1.4446513685550244 8.844722128997768
3.019558661039248 -1.1748653210883488 1.408475220831382 -1.804406226511935 -1.5707963268589629 1.4487623342451035 8.896018939152698
3.0270017234373716 -1.171110242742253 1.4023973513821124 -1.802083435409934 -1.5707963268584146 1.456205396643201 8.94731574930763
3.038371899812816 -1.1653739072374631 1.3931126720487046 -1.7985350915831078 -1.570796326857577 1.467575573018606 8.998612559462561
3.054036548653579 -1.1574709795828497 1.380321204567952 -1.793646551759437 -1.570796326856423 1.4832402218593144 9.049909369617493
3.0741560659192078 -1.1473205388667929 1.3638919725150742 -1.7873677604257865 -1.5707963268549407 1.5033597391248734 9.101206179772426
3.098704581293647 -1.1349356368492314 1.3438461011198746 -1.7797067910520168 -1.5707963268531324 1.5279082544992273 9.152502989927356
3.127490654438081 -1.1204128565537115 1.3203399170828976 -1.7707233873150958 -1.5707963268510117 1.556694327643561 9.203799800082288
3.1601779712437796 -1.103921870859436 1.2936480483915853 -1.7605225043232098 -1.5707963268486036 1.5893816444491462 9.255096610237219
3.1963060400849446 -1.0856950010933142 1.2641465241364367 -1.7492478498398762 -1.5707963268459422 1.6255097132901852 9.306393420392151
3.2353108880715515 -1.0660167756220091 1.232295874327163 -1.7370754255080538 -1.5707963268430687 1.6645145612766565 9.357690230547083
3.276545757302197 -1.0452134884439885 1.1986242297088467 -1.7242070680742556 -1.5707963268400311 1.7057494305071588 9.408987040702014
3.3193018011169433 -1.0236427577815728 1.1637104215780973 -1.7108639906126595 -1.5707963268368812 1.748505474321756 9.460283850856946
3.362828780350162 -1.0016830846729836 1.12816708159921 -1.6972803237492202 -1.5707963268336746 1.7920324535548238 9.511580661011877
3.406355759583381 -0.9797234115643948 1.092623741620323 -1.683696656885781 -1.570796326830468 1.8355594327878912 9.562877471166809
3.449111803398127 -0.958152680901979 1.0577099334895734 -1.6703535794241848 -1.5707963268273182 1.8783154766024888 9.614174281321741
3.490346672628773 -0.9373493937239584 1.0240382888712571 -1.6574852219903866 -1.5707963268242806 1.9195503458329908 9.665471091476672
3.5293515206153794 -0.9176711682526535 0.9921876390619833 -1.6453127976585642 -1.5707963268214071 1.9585551938194623 9.716767901631604
3.565479589456544 -0.8994442984865318 0.9626861148068351 -1.6340381431752307 -1.5707963268187457 1.994683262660501 9.768064711786534
3.598166906262243 -0.8829533127922564 0.9359942461155228 -1.6238372601833446 -1.5707963268163376 2.027370579466086 9.819361521941467
3.626952979406677 -0.8684305324967365 0.912488062078546 -1.6148538564464237 -1.5707963268142169 2.0561566526104196 9.870658332096399
3.6515014947811157 -0.8560456304791746 0.892442190683346 -1.607192887072654 -1.5707963268124085 2.080705167984774 9.92195514225133
3.6716210120467454 -0.8458951897631177 0.8760129586304677 -1.6009140957390033 -1.5707963268109264 2.1008246852503327 9.973251952406262
3.6872856608875084 -0.8379922621085045 0.8632214911497149 -1.5960255559153327 -1.5707963268097722 2.1164893340910425 10.024548762561192
3.698655837262953 -0.8322559266037144 0.853936811816308 -1.592477212088506 -1.5707963268089347 2.127859510466447 10.075845572716124
3.706098899661076 -0.8285008482576186 0.8478589423670373 -1.5901544209865053 -1.5707963268083864 2.1353025728645445 10.127142382871057
3.7102098653511693 -0.8264268365916274 0.8445020025164318 -1.5888714928025378 -1.5707963268080836 2.1394135385546225 10.178439193025987
3.7118321066366615 -0.8256084042317384 0.8431773097729005 -1.5883652324191517 -1.570796326807964 2.1410357798401103 10.22973600318092
3.712078047107969 -0.8254843255005875 0.8429764792549044 -1.5882884806323445 -1.570796326807946 2.141281720311417 10.281032813335852
      10.332329623490782
