Andreas691667/Digital_Twin_UR/src/dt/dt_trajectories/vis_dt_trajectory.csv
actual_q_0 actual_q_1 actual_q_2 actual_q_3 actual_q_4 actual_q_5 timestamp
3.71207804710797 -0.8254843255005873 0.8429764792549035 -1.5882884806323445 -1.570796326807946 2.141281720311417 3456.9959999999996
3.71207804710797 -0.8254843255005873 0.8429764792549035 -1.5882884806323445 -1.570796326807946 2.141281720311417 3457.046
3.71207804710797 -0.8254843255005873 0.8429764792549035 -1.5882884806323445 -1.570796326807946 2.141281720311417 3457.096
3.71207804710797 -0.8254843255005873 0.8429764792549035 -1.5882884806323445 -1.570796326807946 2.141281720311417 3457.146
3.71207804710797 -0.8254843255005873 0.8429764792549035 -1.5882884806323445 -1.570796326807946 2.141281720311417 3457.1960000000004
3.71207804710797 -0.8254843255005873 0.8429764792549035 -1.5882884806323445 -1.570796326807946 2.141281720311417 3457.2460000000005
3.71207804710797 -0.8254843255005873 0.8429764792549035 -1.5882884806323445 -1.570796326807946 2.141281720311417 3457.2960000000007
3.71207804710797 -0.8254843255005873 0.8429764792549035 -1.5882884806323445 -1.570796326807946 2.141281720311417 3457.346000000001
3.71207804710797 -0.8254843255005873 0.8429764792549035 -1.5882884806323445 -1.570796326807946 2.141281720311417 3457.396000000001
3.71207804710797 -0.8254843255005873 0.8429764792549035 -1.5882884806323445 -1.570796326807946 2.141281720311417 3457.4460000000013
3.71207804710797 -0.8254843255005873 0.8429764792549035 -1.5882884806323445 -1.570796326807946 2.141281720311417 3457.4960000000015
3.71207804710797 -0.8254843255005873 0.8429764792549035 -1.5882884806323445 -1.570796326807946 2.141281720311417 3457.5460000000016
3.71207804710797 -0.8254843255005873 0.8429764792549035 -1.5882884806323445 -1.570796326807946 2.141281720311417 3457.596000000002
3.7122689791773014 -0.8255822011483995 0.8431247541871719 -1.5883388799190803 -1.5707963268548544 2.1411975678393773 3457.646000000002
3.713544740040671 -0.8262361820191524 0.8441154906112279 -1.5886756354876148 -1.5707963271682845 2.1406352818349363 3457.696000000002
3.7168275167322813 -0.8279189998738993 0.8466648449093596 -1.589542171970193 -1.5707963279748003 2.1391884124079175 3457.7460000000024
3.7228710753776704 -0.8310170505030092 0.8513581803555411 -1.591137456859419 -1.5707963294595875 2.1365247404448637 3457.7960000000026
3.732270668305987 -0.835835472312677 0.8586577608276864 -1.593618615634119 -1.5707963317688887 2.1323819110927604 3457.8460000000027
3.7454729411622654 -0.8426032249114345 0.8689104445199027 -1.5971035468852008 -1.5707963350124359 2.126563067242757 3457.896000000003
3.762785840019699 -0.8514781676966612 0.8823553776547448 -1.601673537441516 -1.5707963392658857 2.118932483013891 3457.946000000003
3.784388518491916 -0.8625521384410955 0.8991316881954681 -1.6073758774957212 -1.5707963445732527 2.109411197236808 3457.9960000000033
3.810341244845251 -0.8758560318793451 0.9192861795582831 -1.6142264757301383 -1.5707963509493437 2.0979726469374858 3458.0460000000035
3.840595309111022 -0.8913648782943985 0.9427810243246088 -1.6222124744426163 -1.5707963583821913 2.0846383008209557 3458.0960000000036
3.8750029301978044 -0.9090029221041348 0.9695014579533265 -1.631294864672393 -1.5707963668354892 2.069473292755027 3458.146000000004
3.913327163003703 -0.9286487004478358 0.9992634724930336 -1.6414111013259551 -1.5707963762510238 2.0525820552540046 3458.196000000004
3.955251805528629 -0.9501401217726961 1.0318215102942974 -1.6524777183029 -1.5707963865511108 2.0341039529624183 3458.246000000004
4.000391305986574 -0.9732795444203346 1.0668761577219086 -1.664392943621797 -1.5707963976410269 2.014208916138738 3458.2960000000044
4.048300669917882 -0.9978388552133042 1.1040818388671358 -1.6770393145460483 -1.570796409411446 1.9930930741391024 3458.3460000000046
4.098485367301527 -1.023564548041604 1.143054509259978 -1.6902862927097497 -1.570796421740871 1.970974388901036 3458.3960000000047
4.150411239667386 -1.0501828024491897 1.18337934958142 -1.7039928792435532 -1.5707964344980696 1.9480882884271746 3458.446000000005
4.203514407208509 -1.077404562220484 1.2246184593756846 -1.7180102299005264 -1.5707964475445073 1.9246833002689874 3458.496000000005
4.257211175893402 -1.104930613966888 1.2663185507624877 -1.7321842701820154 -1.5707964607367817 1.9010166850104984 3458.5460000000053
4.310907944578295 -1.132456665713292 1.3080186421492905 -1.7463583104635043 -1.5707964739290559 1.8773500697520094 3458.5960000000055
4.364011112119418 -1.1596784254845862 1.3492577519435551 -1.7603756611204775 -1.5707964869754936 1.8539450815938223 3458.6460000000056
4.415936984485277 -1.186296679892172 1.3895825922649974 -1.774082247654281 -1.5707964997326922 1.8310589811199607 3458.696000000006
4.4661216818689216 -1.2120223727204718 1.4285552626578395 -1.7873292258179825 -1.5707965120621172 1.808940295881894 3458.746000000006
4.5140310458002295 -1.2365816835134416 1.4657609438030668 -1.7999755967422335 -1.5707965238325363 1.7878244538822583 3458.796000000006
4.559170546258174 -1.2597211061610796 1.5008155912306775 -1.8118908220611303 -1.5707965349224524 1.7679294170585786 3458.8460000000064
4.6010951887831 -1.2812125274859398 1.533373629031941 -1.8229574390380754 -1.5707965452225394 1.7494513147669921 3458.8960000000066
4.6394194215889994 -1.300858305829641 1.5631356435716484 -1.8330736756916375 -1.570796554638074 1.7325600772659702 3458.9460000000067
4.673827042675781 -1.3184963496393776 1.5898560772003665 -1.8421560659214142 -1.5707965630913718 1.7173950692000408 3458.996000000007
4.704081106941552 -1.3340051960544304 1.6133509219666915 -1.850142064633892 -1.5707965705242195 1.7040607230835114 3459.046000000007
4.730033833294889 -1.3473090894926805 1.6335054133295075 -1.8569926628683096 -1.5707965769003105 1.6926221727841884 3459.0960000000073
4.751636511767105 -1.3583830602371147 1.6502817238702299 -1.8626950029225142 -1.5707965822076775 1.683100887007106 3459.1460000000075
4.768949410624538 -1.367258003022341 1.6637266570050717 -1.8672649934788295 -1.5707965864611273 1.6754703027782398 3459.1960000000076
4.782151683480817 -1.3740257556210984 1.6739793406972883 -1.8707499247299113 -1.5707965897046745 1.6696514589282365 3459.246000000008
4.791551276409134 -1.3788441774307665 1.681278921169434 -1.8732310835046113 -1.5707965920139757 1.665508629576133 3459.296000000008
4.7975948350545226 -1.381942228059876 1.6859722566156154 -1.8748263683938375 -1.5707965934987629 1.662844957613079 3459.346000000008
4.800877611746131 -1.383625045914623 1.6885216109137464 -1.8756929048764155 -1.5707965943052786 1.6613980881860604 3459.3960000000084
4.802153372609503 -1.384279026785376 1.689512347337803 -1.8760296604449502 -1.5707965946187088 1.6608358021816192 3459.4460000000086
4.802344304678834 -1.3843769024331887 1.689660622270071 -1.8760800597316858 -1.5707965946656173 1.6607516497095798 3459.4960000000087
4.802344304678834 -1.384376902433189 1.6896606222700719 -1.8760800597316862 -1.5707965946656173 1.6607516497095798 3459.546000000009
4.802344307386492 -1.384147745783343 1.6900552203559738 -1.8767038144324433 -1.5707965939491735 1.6607516524209287 3459.596000000009
4.802344324132375 -1.3827304948337065 1.6924956667159023 -1.8805615115256038 -1.5707965895182276 1.66075166918964 3459.6460000000093
4.802344363315421 -1.3794143239348313 1.6982059731377366 -1.8895879883399567 -1.5707965791504284 1.6607517084261019 3459.6960000000095
4.802344428055237 -1.3739352121312087 1.7076407725712601 -1.9045018987404798 -1.5707965620203306 1.6607517732541726 3459.7460000000096
4.802344517151974 -1.366394705944188 1.720625206189633 -1.9250268373944897 -1.5707965384454132 1.6607518624723678 3459.79600000001
4.802344626046208 -1.3571786821548983 1.736494810450864 -1.9501124640377867 -1.5707965096320957 1.660751971515049 3459.84600000001
4.80234474777882 -1.3468761105871672 1.7542354041592816 -1.978155627740803 -1.5707964774217549 1.6607520934136086 3459.89600000001
4.8023448739508705 -1.3361978168904423 1.7726229755270069 -2.0072214911747506 -1.5707964440367426 1.660752219757659 3459.9460000000104
4.802344995683482 -1.325895245322711 1.7903635692354243 -2.035264654877767 -1.5707964118264017 1.6607523416562187 3459.9960000000106
4.802345104577716 -1.3166792215334213 1.8062331734966552 -2.060350281521064 -1.5707963830130842 1.6607524506988998 3460.0460000000107
4.802345193674453 -1.3091387153464007 1.8192176071150283 -2.0808752201750735 -1.5707963594381669 1.660752539917095 3460.096000000011
4.802345258414269 -1.3036596035427779 1.8286524065485519 -2.0957891305755973 -1.570796342308069 1.6607526047451657 3460.146000000011
4.8023452975973155 -1.3003434326439027 1.8343627129703863 -2.1048156073899498 -1.5707963319402698 1.6607526439816276 3460.1960000000113
4.8023453143431984 -1.2989261816942663 1.8368031593303147 -2.1086733044831103 -1.570796327509324 1.660752660750339 3460.2460000000115
4.8023453170508565 -1.2986970250444205 1.8371977574162166 -2.1092970591838673 -1.5707963267928802 1.6607526634616878 3460.2960000000116
4.8023453170508565 -1.2986970250444205 1.8371977574162166 -2.1092970591838673 -1.5707963267928802 1.6607526634616878 3460.346000000012
4.8023453170508565 -1.2986970250444205 1.8371977574162166 -2.1092970591838673 -1.5707963267928802 1.6607526634616878 3460.396000000012
4.8023453170508565 -1.2986970250444205 1.8371977574162166 -2.1092970591838673 -1.5707963267928802 1.6607526634616878 3460.446000000012
4.8023453170508565 -1.2986970250444205 1.8371977574162166 -2.1092970591838673 -1.5707963267928802 1.6607526634616878 3460.4960000000124
4.8023453170508565 -1.2986970250444205 1.8371977574162166 -2.1092970591838673 -1.5707963267928802 1.6607526634616878 3460.5460000000126
4.8023453170508565 -1.2986970250444205 1.8371977574162166 -2.1092970591838673 -1.5707963267928802 1.6607526634616878 3460.5960000000127
4.8023453170508565 -1.2986970250444205 1.8371977574162166 -2.1092970591838673 -1.5707963267928802 1.6607526634616878 3460.646000000013
4.8023453170508565 -1.2986970250444205 1.8371977574162166 -2.1092970591838673 -1.5707963267928802 1.6607526634616878 3460.696000000013
4.8023453170508565 -1.2986970250444205 1.8371977574162166 -2.1092970591838673 -1.5707963267928802 1.6607526634616878 3460.7460000000133
4.8023453170508565 -1.2986970250444205 1.8371977574162166 -2.1092970591838673 -1.5707963267928802 1.6607526634616878 3460.7960000000135
4.8023453170508565 -1.2986970250444205 1.8371977574162166 -2.1092970591838673 -1.5707963267928802 1.6607526634616878 3460.8460000000136
4.8023453170508565 -1.2986970250444205 1.8371977574162166 -2.1092970591838673 -1.5707963267928802 1.6607526634616878 3460.896000000014
4.8023453170508565 -1.2986970250444205 1.8371977574162166 -2.1092970591838673 -1.5707963267928802 1.6607526634616878 3460.946000000014
4.8023453170508565 -1.2986970250444205 1.8371977574162166 -2.1092970591838673 -1.5707963267928802 1.6607526634616878 3460.996000000014
4.8023453143431984 -1.2989261816942663 1.8368031593303147 -2.1086733044831103 -1.570796327509324 1.660752660750339 3461.0460000000144
4.8023452975973155 -1.300343432643903 1.8343627129703861 -2.1048156073899498 -1.5707963319402698 1.6607526439816276 3461.0960000000146
4.802345258414269 -1.303659603542778 1.8286524065485519 -2.095789130575597 -1.570796342308069 1.6607526047451657 3461.1460000000147
4.802345193674453 -1.3091387153464007 1.8192176071150283 -2.0808752201750735 -1.5707963594381669 1.660752539917095 3461.196000000015
4.802345104577716 -1.3166792215334213 1.8062331734966555 -2.060350281521064 -1.5707963830130842 1.6607524506988998 3461.246000000015
4.802344995683482 -1.325895245322711 1.7903635692354245 -2.035264654877767 -1.5707964118264017 1.6607523416562187 3461.2960000000153
4.8023448739508705 -1.3361978168904423 1.7726229755270069 -2.0072214911747506 -1.5707964440367426 1.660752219757659 3461.3460000000155
4.80234474777882 -1.3468761105871672 1.7542354041592816 -1.978155627740803 -1.5707964774217549 1.6607520934136086 3461.3960000000156
4.802344626046208 -1.3571786821548981 1.7364948104508642 -1.9501124640377867 -1.5707965096320957 1.660751971515049 3461.446000000016
4.802344517151974 -1.366394705944188 1.7206252061896332 -1.9250268373944899 -1.5707965384454132 1.6607518624723678 3461.496000000016
4.802344428055237 -1.3739352121312087 1.7076407725712601 -1.90450189874048 -1.5707965620203306 1.6607517732541726 3461.546000000016
4.802344363315421 -1.3794143239348315 1.6982059731377366 -1.8895879883399564 -1.5707965791504284 1.6607517084261019 3461.5960000000164
4.802344324132375 -1.3827304948337067 1.6924956667159021 -1.8805615115256038 -1.5707965895182276 1.66075166918964 3461.6460000000166
4.802344307386492 -1.384147745783343 1.6900552203559738 -1.876703814432443 -1.5707965939491735 1.6607516524209287 3461.6960000000167
4.802344304678834 -1.384376902433189 1.6896606222700719 -1.8760800597316862 -1.5707965946656173 1.6607516497095798 3461.746000000017
4.802344304678834 -1.384376902433189 1.6896606222700719 -1.8760800597316862 -1.5707965946656173 1.6607516497095798 3461.796000000017
4.802212309909164 -1.384373871400779 1.6896568459491903 -1.8760793144421866 -1.570796594646128 1.6607346151579627 3461.8460000000173
4.801319584917722 -1.3843533715098446 1.689631305421826 -1.876074273798804 -1.5707965945143145 1.6606194047599698 3461.8960000000175
4.798989611424414 -1.3842998676839735 1.6895646457535802 -1.8760611179382838 -1.5707965941702873 1.6603187106200612 3461.9460000000176
4.7946343172108 -1.384199855858134 1.6894400424187244 -1.8760365263953482 -1.5707965935272155 1.6597566392268146 3461.996000000018
4.787750312457899 -1.3840417765526598 1.6892430936232345 -1.8759976568517203 -1.5707965925107725 1.6588682257344527 3462.046000000018
4.77791512608398 -1.383815928447232 1.688961712627827 -1.8759421238851444 -1.570796591058579 1.6575989482443698 3462.096000000018
4.764783442082378 -1.383514381954864 1.688586020070994 -1.8758679777184097 -1.5707965891196483 1.6559042420866585 3462.1460000000184
4.748083335859287 -1.3831308927958859 1.6881082362920383 -1.8757736829683724 -1.5707965866538296 1.6537490141016378 3462.1960000000186
4.727612510571563 -1.3826608155719262 1.6875225736541093 -1.8756580973949766 -1.5707965836312534 1.6511071569213778 3462.2460000000187
4.703234533464529 -1.382101017339898 1.686825128867238 -1.8755204506502783 -1.5707965800317751 1.647961063251229 3462.296000000019
4.674875072209772 -1.3814497911859813 1.686013775311372 -1.8753603230274662 -1.5707965758444193 1.6443011401513474 3462.346000000019
4.642518131242952 -1.3807067697996072 1.6850880553594116 -1.8751776242098848 -1.5707965710668241 1.6401253233182225 3462.3960000000193
4.606202288101599 -1.3798728390474417 1.6840490727002448 -1.8749725720200563 -1.5707965657046858 1.6354385913662033 3462.4460000000195
4.566016929762916 -1.3789500515473696 1.6828993846617821 -1.874745671168703 -1.5707965597712024 1.6302524801090263 3462.4960000000196
4.522098488981579 -1.3779415402424784 1.6816428945339927 -1.874497692003769 -1.5707965532865187 1.6245845968413415 3462.54600000002
4.474626680627545 -1.3768514319750413 1.6802847438919395 -1.8742296492594435 -1.5707965462771698 1.6184581346202391 3462.59600000002
4.4238207380238475 -1.3756847610605023 1.678831204918814 -1.8739427808051814 -1.5707965387755267 1.6119013865467775 3462.64600000002
4.369935649284402 -1.374447382861459 1.6772895727289723 -1.873638526394727 -1.5707965308192389 1.6049472600475096 3462.6960000000204
4.3132583936518065 -1.3731458873616467 1.6756680576909702 -1.8733185064151359 -1.5707965224506795 1.597632791156009 3462.7460000000206
4.254104177835144 -1.371787512739922 1.673975677750598 -1.8729845006357966 -1.5707965137163897 1.5899986587943984 3462.7960000000207
4.192812672347786 -1.3703800589442472 1.672222150753917 -1.8726384269574534 -1.570796504666523 1.5820886990548748 3462.846000000021
4.129744247845192 -1.3689318012656735 1.6704177867702936 -1.8722823201612282 -1.5707964953542892 1.5739494194812382 3462.896000000021
4.065276211462712 -1.3674514039123251 1.668573380415436 -1.871918310657643 -1.5707964858353987 1.5656295133504166 3462.9460000000213
3.9997990431533905 -1.365947833583383 1.6667001031744273 -1.8715486032356417 -1.570796476167507 1.5571793739539947 3462.9960000000215
3.933712632025766 -1.3644302730430682 1.6648093957247636 -1.8711754558116132 -1.5707964664096588 1.5486506088797394 3463.0460000000216
3.867422512681674 -1.3629080346946267 1.6629128602593872 -1.8708011581784123 -1.5707964566217325 1.5400955542931274 3463.096000000022
3.8013361015540488 -1.361390474154312 1.6610221528097235 -1.8704280107543838 -1.5707964468638842 1.531566789218872 3463.146000000022
3.735858933244727 -1.3598869038253698 1.659148875568715 -1.8700583033323825 -1.5707964371959926 1.52311664982245 3463.196000000022
3.6713908968622473 -1.3584065064720214 1.657304469213857 -1.8696942938287973 -1.570796427677102 1.5147967436916285 3463.2460000000224
3.608322472359654 -1.3569582487934477 1.6555001052302338 -1.869338187032572 -1.5707964183648682 1.506657464117992 3463.2960000000226
3.5470309668722955 -1.355550794997773 1.6537465782335528 -1.8689921133542289 -1.5707964093150015 1.4987475043784684 3463.3460000000227
3.4878767510556337 -1.3541924203760485 1.6520541982931807 -1.8686581075748896 -1.5707964005807118 1.4911133720168577 3463.396000000023
3.431199495423038 -1.352890924876236 1.6504326832551786 -1.8683380875952984 -1.5707963922121524 1.4837989031253573 3463.446000000023
3.3773144066835927 -1.3516535466771926 1.6488910510653367 -1.868033833184844 -1.5707963842558645 1.4768447766260893 3463.4960000000233
3.3265084640798936 -1.3504868757626536 1.6474375120922113 -1.867746964730582 -1.5707963767542215 1.4702880285526276 3463.5460000000235
3.27903665572586 -1.3493967674952165 1.646079361450158 -1.8674789219862564 -1.5707963697448726 1.4641615663315255 3463.5960000000237
3.235118214944524 -1.3483882561903253 1.6448228713223687 -1.8672309428213225 -1.570796363260189 1.4584936830638404 3463.646000000024
3.1949328566058393 -1.3474654686902532 1.643673183283906 -1.8670040419699692 -1.5707963573267054 1.4533075718066635 3463.696000000024
3.1586170134644878 -1.3466315379380878 1.6426342006247392 -1.8667989897801407 -1.5707963519645671 1.4486208398546445 3463.746000000024
3.126260072497666 -1.3458885165517136 1.6417084806727789 -1.8666162909625592 -1.570796347186972 1.4444450230215193 3463.7960000000244
3.0979006112429097 -1.345237290397797 1.6408971271169128 -1.8664561633397472 -1.5707963429996161 1.4407850999216378 3463.8460000000246
3.073522634135875 -1.3446774921657687 1.6401996823300415 -1.8663185165950489 -1.5707963394001379 1.437639006251489 3463.8960000000247
3.05305180884815 -1.344207414941809 1.6396140196921125 -1.866202931021653 -1.5707963363775617 1.434997149071229 3463.946000000025
3.03635170262506 -1.3438239257828308 1.639136235913157 -1.8661086362716157 -1.570796333911743 1.432841921086208 3463.996000000025
3.023220018623457 -1.343522379290463 1.6387605433563237 -1.866034490104881 -1.5707963319728122 1.431147214928497 3464.0460000000253
3.01338483224954 -1.3432965311850351 1.6384791623609163 -1.8659789571383052 -1.5707963305206187 1.4298779374384143 3464.0960000000255
3.0065008274966356 -1.3431384518795608 1.6382822135654265 -1.8659400875946772 -1.5707963295041758 1.428989523946052 3464.1460000000257
3.0021455332830254 -1.3430384400537216 1.6381576102305706 -1.8659154960517417 -1.570796328861104 1.4284274525528056 3464.196000000026
2.9998155597897167 -1.3429849362278503 1.638090950562325 -1.8659023401912214 -1.5707963285170767 1.428126758412897 3464.246000000026
2.9989228347982744 -1.342964436336916 1.6380654100349605 -1.865897299547839 -1.5707963283852633 1.4280115480149043 3464.296000000026
2.9987908400286054 -1.342961405304506 1.638061633714079 -1.8658965542583392 -1.570796328365774 1.427994513463287 3464.3460000000264
2.9987908400286063 -1.342961405304506 1.638061633714079 -1.8658965542583392 -1.570796328365774 1.427994513463287 3464.3960000000266
2.9987908375813794 -1.3427405478580317 1.6384527923103132 -1.8665085704197473 -1.570796328244215 1.427994511023567 3464.4460000000267
2.998790822446168 -1.3413746244778415 1.640871966671366 -1.870293668895103 -1.570796327492416 1.4279944959347812 3464.496000000027
2.998790787031869 -1.338178552981371 1.6465324995625137 -1.8791502750004434 -1.5707963257333106 1.4279944606291126 3464.546000000027
2.998790728518931 -1.3328978742722388 1.6558850611537157 -1.8937835181388678 -1.5707963228268453 1.4279944022956577 3464.5960000000273
2.998790647991797 -1.3256304572336688 1.6687563167642183 -1.9139221946937996 -1.570796318826887 1.4279943220155333 3464.6460000000275
2.998790549571351 -1.3167482036219098 1.6844875946071576 -1.9385357309222473 -1.570796313938129 1.427994223896983 3464.6960000000277
2.998790439547363 -1.306818752959659 1.7020735535341616 -1.9660511458480658 -1.5707963084729977 1.4279941142104835 3464.746000000028
2.9987903255109356 -1.296527187429481 1.7203008507799544 -1.994570014155218 -1.5707963028085596 1.4279940005238523 3464.796000000028
2.9987902154869475 -1.2865977367672303 1.7378868097069584 -2.0220854290810366 -1.5707962973434284 1.4279938908373528 3464.846000000028
2.9987901170665014 -1.2777154831554713 1.7536180875498977 -2.046698965309484 -1.5707962924546703 1.4279937927188024 3464.8960000000284
2.9987900365393676 -1.2704480661169013 1.7664893431604003 -2.066837641864416 -1.570796288454712 1.4279937124386781 3464.9460000000286
2.9987899780264295 -1.2651673874077691 1.7758419047516023 -2.0814708850028403 -1.5707962855482467 1.4279936541052232 3464.9960000000287
2.9987899426121305 -1.2619713159112986 1.78150243764275 -2.090327491108181 -1.5707962837891414 1.4279936187995546 3465.046000000029
2.998789927476919 -1.2606053925311085 1.7839216120038028 -2.094112589583536 -1.5707962830373423 1.4279936037107688 3465.096000000029
2.9987899250296923 -1.260384535084634 1.784312770600037 -2.0947246057449442 -1.5707962829157833 1.4279936012710488 3465.1460000000293
2.9987899250296923 -1.260384535084634 1.784312770600037 -2.0947246057449442 -1.5707962829157833 1.4279936012710488 3465.1960000000295
2.9987899250296923 -1.260384535084634 1.784312770600037 -2.0947246057449442 -1.5707962829157833 1.4279936012710488 3465.2460000000297
2.9987899250296923 -1.260384535084634 1.784312770600037 -2.0947246057449442 -1.5707962829157833 1.4279936012710488 3465.29600000003
2.9987899250296923 -1.260384535084634 1.784312770600037 -2.0947246057449442 -1.5707962829157833 1.4279936012710488 3465.34600000003
2.9987899250296923 -1.260384535084634 1.784312770600037 -2.0947246057449442 -1.5707962829157833 1.4279936012710488 3465.39600000003
2.9987899250296923 -1.260384535084634 1.784312770600037 -2.0947246057449447 -1.5707962829157833 1.4279936012710488 3465.4460000000304
2.998789927476919 -1.2606053925311085 1.7839216120038028 -2.0941125895835366 -1.5707962830373423 1.4279936037107688 3465.4960000000306
2.9987899426121305 -1.2619713159112986 1.78150243764275 -2.0903274911081806 -1.5707962837891414 1.4279936187995546 3465.5460000000307
2.9987899780264295 -1.2651673874077691 1.7758419047516023 -2.0814708850028403 -1.5707962855482467 1.4279936541052232 3465.596000000031
2.9987900365393676 -1.2704480661169013 1.7664893431604003 -2.066837641864416 -1.570796288454712 1.4279937124386781 3465.646000000031
2.9987901170665014 -1.2777154831554713 1.7536180875498977 -2.0466989653094845 -1.5707962924546703 1.4279937927188024 3465.6960000000313
2.9987902154869475 -1.2865977367672303 1.7378868097069584 -2.0220854290810366 -1.5707962973434284 1.4279938908373528 3465.7460000000315
2.9987903255109356 -1.296527187429481 1.7203008507799544 -1.994570014155218 -1.5707963028085596 1.4279940005238523 3465.7960000000317
2.998790439547363 -1.306818752959659 1.7020735535341616 -1.9660511458480658 -1.5707963084729977 1.4279941142104835 3465.846000000032
2.998790549571351 -1.3167482036219098 1.6844875946071576 -1.9385357309222473 -1.570796313938129 1.427994223896983 3465.896000000032
2.998790647991797 -1.3256304572336686 1.6687563167642183 -1.9139221946937996 -1.570796318826887 1.4279943220155333 3465.946000000032
2.998790728518931 -1.3328978742722388 1.6558850611537157 -1.893783518138868 -1.5707963228268453 1.4279944022956577 3465.9960000000324
2.998790787031869 -1.338178552981371 1.6465324995625137 -1.8791502750004434 -1.5707963257333106 1.4279944606291126 3466.0460000000326
2.998790822446168 -1.3413746244778415 1.640871966671366 -1.8702936688951028 -1.570796327492416 1.4279944959347812 3466.0960000000327
2.9987908375813794 -1.3427405478580317 1.6384527923103132 -1.8665085704197475 -1.570796328244215 1.427994511023567 3466.146000000033
2.9987908400286063 -1.342961405304506 1.638061633714079 -1.8658965542583394 -1.570796328365774 1.427994513463287 3466.196000000033
2.9987908400286063 -1.342961405304506 1.638061633714079 -1.8658965542583394 -1.570796328365774 1.427994513463287 3466.2460000000333
2.9987908400286063 -1.342961405304506 1.638061633714079 -1.8658965542583394 -1.570796328365774 1.427994513463287 3466.2960000000335
2.9987908400286063 -1.342961405304506 1.638061633714079 -1.8658965542583394 -1.570796328365774 1.427994513463287 3466.3460000000337
2.9987908400286063 -1.342961405304506 1.638061633714079 -1.8658965542583394 -1.570796328365774 1.427994513463287 3466.396000000034
2.9987908400286063 -1.342961405304506 1.638061633714079 -1.8658965542583394 -1.570796328365774 1.427994513463287 3466.446000000034
2.9987908400286063 -1.342961405304506 1.638061633714079 -1.8658965542583394 -1.570796328365774 1.427994513463287 3466.496000000034
2.9987908400286063 -1.342961405304506 1.638061633714079 -1.8658965542583394 -1.570796328365774 1.427994513463287 3466.5460000000344
2.9987908400286063 -1.342961405304506 1.638061633714079 -1.8658965542583394 -1.570796328365774 1.427994513463287 3466.5960000000346
2.9987908400286063 -1.342961405304506 1.638061633714079 -1.8658965542583394 -1.570796328365774 1.427994513463287 3466.6460000000347
2.9987908400286063 -1.342961405304506 1.638061633714079 -1.8658965542583394 -1.570796328365774 1.427994513463287 3466.696000000035
2.9987908400286063 -1.342961405304506 1.638061633714079 -1.8658965542583394 -1.570796328365774 1.427994513463287 3466.746000000035
2.9987908400286063 -1.342961405304506 1.638061633714079 -1.8658965542583394 -1.570796328365774 1.427994513463287 3466.7960000000353
2.9987908400286063 -1.342961405304506 1.638061633714079 -1.8658965542583394 -1.570796328365774 1.427994513463287 3466.8460000000355
2.9987908400286063 -1.342961405304506 1.638061633714079 -1.8658965542583394 -1.570796328365774 1.427994513463287 3466.8960000000357
2.9987908400286063 -1.342961405304506 1.638061633714079 -1.8658965542583394 -1.570796328365774 1.427994513463287 3466.946000000036
2.9987908400286063 -1.342961405304506 1.638061633714079 -1.8658965542583394 -1.570796328365774 1.427994513463287 3466.996000000036
2.9987908400286063 -1.342961405304506 1.638061633714079 -1.8658965542583394 -1.570796328365774 1.427994513463287 3467.046000000036
2.9987908400286063 -1.342961405304506 1.638061633714079 -1.8658965542583394 -1.570796328365774 1.427994513463287 3467.0960000000364
2.9987908400286063 -1.342961405304506 1.638061633714079 -1.8658965542583394 -1.570796328365774 1.427994513463287 3467.1460000000366
2.9987908400286063 -1.342961405304506 1.638061633714079 -1.8658965542583394 -1.570796328365774 1.427994513463287 3467.1960000000367
2.9987908400286063 -1.342961405304506 1.638061633714079 -1.8658965542583394 -1.570796328365774 1.427994513463287 3467.246000000037
2.9987908400286063 -1.342961405304506 1.638061633714079 -1.8658965542583394 -1.570796328365774 1.427994513463287 3467.296000000037
2.9987908400286063 -1.342961405304506 1.638061633714079 -1.8658965542583394 -1.570796328365774 1.427994513463287 3467.3460000000373
2.9987908400286063 -1.342961405304506 1.638061633714079 -1.8658965542583394 -1.570796328365774 1.427994513463287 3467.3960000000375
2.9987908400286063 -1.342961405304506 1.638061633714079 -1.8658965542583394 -1.570796328365774 1.427994513463287 3467.4460000000377
2.9987908400286063 -1.342961405304506 1.638061633714079 -1.8658965542583394 -1.570796328365774 1.427994513463287 3467.496000000038
2.9987908400286063 -1.342961405304506 1.638061633714079 -1.8658965542583394 -1.570796328365774 1.427994513463287 3467.546000000038
2.9987908400286063 -1.342961405304506 1.638061633714079 -1.8658965542583394 -1.570796328365774 1.427994513463287 3467.596000000038
2.9987908400286063 -1.342961405304506 1.638061633714079 -1.8658965542583394 -1.570796328365774 1.427994513463287 3467.6460000000384
2.9987908400286063 -1.342961405304506 1.638061633714079 -1.8658965542583394 -1.570796328365774 1.427994513463287 3467.6960000000386
2.9987908400286063 -1.342961405304506 1.638061633714079 -1.8658965542583394 -1.570796328365774 1.427994513463287 3467.7460000000387
2.9987908400286063 -1.342961405304506 1.638061633714079 -1.8658965542583394 -1.570796328365774 1.427994513463287 3467.796000000039
2.9987908400286063 -1.342961405304506 1.638061633714079 -1.8658965542583392 -1.570796328365774 1.427994513463287 3467.846000000039
2.9989293451024603 -1.3429704590962062 1.6380725530469444 -1.8658984198377797 -1.5707963284533968 1.428003556894504 3467.8960000000393
2.999864755577403 -1.3430316049543225 1.6381462980590036 -1.8659110192502193 -1.570796329045168 1.4280646327818654 3467.9460000000395
3.0023020605540616 -1.3431909265658304 1.6383384480185248 -1.8659438482717714 -1.570796330587087 1.4282237720776159 3467.9960000000397
3.0068498708762683 -1.3434882075693588 1.638696984015329 -1.866005104521815 -1.5707963334641803 1.4285207128949589 3468.04600000004
3.0140247026091416 -1.3439572115573397 1.63926262665761 -1.866101745158849 -1.5707963380032135 1.4289891801897918 3468.09600000004
3.024255260517163 -1.3446259620781567 1.6400691737687558 -1.8662395445763484 -1.570796344475399 1.4296571654424415 3468.14600000004
3.037886721542261 -1.345517022638293 1.6411438380841659 -1.8664231520986179 -1.5707963530991067 1.4305472063393991 3468.1960000000404
3.0551850182818865 -1.346647776704481 1.642507584948073 -1.8666561496766467 -1.5707963640425748 1.431676666455056 3468.2460000000406
3.0763411224670962 -1.3480307077058513 1.6441754700103626 -1.8669411095839645 -1.570796377426618 1.4330580149334375 3468.2960000000407
3.101475328440629 -1.3496736790360795 1.646156976923392 -1.8672796521124955 -1.5707963933273383 1.4346991061699395 3468.346000000041
3.13064153663499 -1.351580214055537 1.6484563550388112 -1.8676725032684134 -1.5707964117788353 1.4366034594930623 3468.396000000041
3.163831537050525 -1.353749776093439 1.651072957104382 -1.8681195524679963 -1.5707964327759145 1.4387705388461471 3468.4460000000413
3.200979292733505 -1.3561780484499926 1.6540015769607987 -1.8686199102334817 -1.5707964562767993 1.4411960324691104 3468.4960000000415
3.241965223254203 -1.3588572143985467 1.6572327872385066 -1.8691719658889212 -1.570796482205839 1.443872132580179 3468.5460000000417
3.286620488184975 -1.3617762371877393 1.6607532770545232 -1.8697734452560357 -1.5707965104562194 1.4467878150576254 3468.596000000042
3.334731270578341 -1.3649211400436474 1.6645461897092573 -1.8704214683500695 -1.5707965408926732 1.4499291191215034 3468.646000000042
3.3860430604450604 -1.3682752861719352 1.6685914603833294 -1.8711126070756463 -1.570796573354189 1.453279427015382 3468.696000000042
3.440264938232217 -1.3718196587600027 1.6728661538343905 -1.8718429429226227 -1.5707966076567215 1.4568197436880819 3468.7460000000424
3.497073858301295 -1.3755331409791347 1.6773448020939439 -1.8726081246619446 -1.5707966435959015 1.4605289764754106 3468.7960000000426
3.5561189324062608 -1.3793927959866497 1.6819997421641624 -1.8734034260415005 -1.5707966809497458 1.4643842147818962 3468.8460000000427
3.6170257131716426 -1.3833741469280476 1.6868014537147105 -1.8742238034819776 -1.5707967194813666 1.4683610097625237 3468.896000000043
3.6794004775706086 -1.3874514569391596 1.6917188967795633 -1.8750639537727163 -1.5707967589416818 1.4724336540044705 3468.946000000043
3.742834510403049 -1.3915980091482965 1.6967198494538265 -1.8759183717675647 -1.5707967990721248 1.47657546120884 3468.9960000000433
3.806908387773653 -1.3957863866783968 1.7017712455905551 -1.8767814080807337 -1.5707968396073544 1.4807590458723985 3469.0460000000435
3.871196260569992 -1.3999887526491763 1.7068395124975762 -1.8776473267826521 -1.5707968802779644 1.4849566029693093 3469.0960000000437
3.935270137940596 -1.4041771301792767 1.7118909086343048 -1.878510363095821 -1.570796920813194 1.4891401876328678 3469.146000000044
3.998704170773036 -1.4083236823884135 1.7168918613085677 -1.8793647810906695 -1.570796960943637 1.4932819948372373 3469.196000000044
4.061078935172002 -1.4124009923995255 1.7218093043734206 -1.8802049313814082 -1.5707970004039522 1.497354639079184 3469.246000000044
4.1219857159373845 -1.4163823433409235 1.726611015923969 -1.8810253088218853 -1.570797038935573 1.5013314340598116 3469.2960000000444
4.18103079004235 -1.4202419983484385 1.7312659559941874 -1.8818206102014412 -1.5707970762894172 1.5051866723662972 3469.3460000000446
4.2378397101114285 -1.4239554805675705 1.7357446042537408 -1.8825857919407631 -1.5707971122285973 1.508895905153626 3469.3960000000448
4.292061587898584 -1.427499853155638 1.740019297704802 -1.8833161277877395 -1.5707971465311297 1.5124362218263259 3469.446000000045
4.343373377765305 -1.4308539992839258 1.744064568378874 -1.8840072665133163 -1.5707971789926456 1.5157865297202044 3469.496000000045
4.39148416015867 -1.433998902139834 1.747857481033608 -1.88465528960735 -1.5707972094290994 1.5189278337840824 3469.5460000000453
4.436139425089443 -1.4369179249290265 1.7513779708496247 -1.8852567689744646 -1.5707972376794799 1.5218435162615287 3469.5960000000455
4.47712535561014 -1.4395970908775806 1.7546091811273326 -1.885808824629904 -1.5707972636085195 1.5245196163725974 3469.6460000000457
4.514273111293119 -1.4420253632341342 1.7575378009837492 -1.8863091823953895 -1.5707972871094042 1.5269451099955604 3469.696000000046
4.547463111708654 -1.444194925272036 1.7601544030493201 -1.8867562315949724 -1.5707973081064834 1.5291121893486457 3469.746000000046
4.576629319903015 -1.4461014602914937 1.7624537811647394 -1.8871490827508903 -1.5707973265579804 1.5310165426717686 3469.796000000046
4.601763525876549 -1.447744431621722 1.7644352880777687 -1.8874876252794213 -1.5707973424587007 1.5326576339082703 3469.8460000000464
4.62291963006176 -1.449127362623092 1.7661031731400583 -1.887772585186739 -1.570797355842744 1.5340389823866518 3469.8960000000466
4.640217926801383 -1.45025811668928 1.7674669200039654 -1.888005582764768 -1.570797366786212 1.5351684425023087 3469.9460000000468
4.65384938782648 -1.4511491772494165 1.7685415843193755 -1.8881891902870374 -1.5707973754099198 1.5360584833992663 3469.996000000047
4.6640799457345015 -1.4518179277702332 1.769348131430521 -1.8883269897045367 -1.5707973818821053 1.5367264686519162 3470.046000000047
4.671254777467373 -1.4522869317582143 1.7699137740728024 -1.888423630341571 -1.5707973864211384 1.537194935946749 3470.0960000000473
4.675802587789582 -1.4525842127617428 1.7702723100696065 -1.8884848865916144 -1.5707973892982319 1.537491876764092 3470.1460000000475
4.678239892766241 -1.4527435343732507 1.7704644600291277 -1.8885177156131665 -1.5707973908401507 1.5376510160598424 3470.1960000000477
4.679175303241183 -1.452804680231367 1.7705382050411869 -1.888530315025606 -1.570797391431922 1.537712091947204 3470.246000000048
4.679313808315037 -1.4528137340230671 1.7705491243740523 -1.8885321806050466 -1.5707973915195448 1.5377211353784208 3470.296000000048
4.679313808315039 -1.4528137340230671 1.7705491243740523 -1.8885321806050466 -1.5707973915195448 1.5377211353784208 3470.346000000048
4.679313805721838 -1.4525715252642073 1.7709515278660957 -1.8891767916170832 -1.5707973886716573 1.537721132836989 3470.3960000000484
4.679313789683828 -1.4510735517437556 1.7734402478383051 -1.893163477447803 -1.5707973710585041 1.5377211171191536 3470.4460000000486
4.679313752157106 -1.4475685012111865 1.7792635078258228 -1.9024917700400081 -1.5707973298461655 1.5377210803415962 3470.4960000000488
4.679313690153936 -1.441777314830591 1.7888849337131296 -1.9179043526867392 -1.5707972617534711 1.5377210195762268 3470.546000000049
4.679313604823449 -1.4338073229234727 1.8021262078523486 -1.939115577967596 -1.57079716804241 1.5377209359492339 3470.596000000049
4.6793135005323325 -1.424066380711545 1.8183097231815455 -1.9650399856850573 -1.5707970535085378 1.5377208337401334 3470.6460000000493
4.679313383945535 -1.4131770040595288 1.8364012373430307 -1.9940208208008015 -1.5707969254713885 1.5377207194808173 3470.6960000000495
4.6793132631069625 -1.4018905052179493 1.8551525268016624 -2.024058551372027 -1.5707967927648818 1.5377206010546045 3470.7460000000497
4.679313146520165 -1.3910011285659332 1.8732440409631477 -2.053039386487771 -1.5707966647277325 1.5377204867952885 3470.79600000005
4.679313042229049 -1.3812601863540055 1.8894275562923444 -2.078963794205232 -1.5707965501938603 1.537720384586188 3470.84600000005
4.679312956898562 -1.3732901944468872 1.9026688304315633 -2.100175019486089 -1.5707964564827992 1.537720300959195 3470.89600000005
4.679312894895392 -1.3674990080662917 1.9122902563188706 -2.11558760213282 -1.5707963883901048 1.5377202401938257 3470.9460000000504
4.67931285736867 -1.3639939575337225 1.918113516306388 -2.1249158947250253 -1.5707963471777662 1.5377202034162682 3470.9960000000506
4.67931284133066 -1.3624959840132709 1.9206022362785975 -2.1289025805557453 -1.570796329564613 1.5377201876984328 3471.0460000000508
4.6793128387374585 -1.362253775254411 1.9210046397706408 -2.1295471915677817 -1.5707963267167255 1.537720185157001 3471.096000000051
4.6793128387374585 -1.362253775254411 1.9210046397706408 -2.1295471915677817 -1.5707963267167255 1.537720185157001 3471.146000000051
4.6793128387374585 -1.362253775254411 1.9210046397706408 -2.1295471915677817 -1.5707963267167255 1.537720185157001 3471.1960000000513
4.6793128387374585 -1.362253775254411 1.9210046397706408 -2.1295471915677817 -1.5707963267167255 1.537720185157001 3471.2460000000515
4.6793128387374585 -1.362253775254411 1.9210046397706408 -2.1295471915677817 -1.5707963267167255 1.537720185157001 3471.2960000000517
4.6793128387374585 -1.362253775254411 1.9210046397706408 -2.1295471915677817 -1.5707963267167255 1.537720185157001 3471.346000000052
4.6793128387374585 -1.362253775254411 1.9210046397706408 -2.1295471915677817 -1.5707963267167255 1.537720185157001 3471.396000000052
4.6793128387374585 -1.362253775254411 1.9210046397706408 -2.1295471915677817 -1.5707963267167255 1.537720185157001 3471.446000000052
4.6793128387374585 -1.362253775254411 1.9210046397706408 -2.1295471915677817 -1.5707963267167255 1.537720185157001 3471.4960000000524
4.6793128387374585 -1.362253775254411 1.9210046397706408 -2.1295471915677817 -1.5707963267167255 1.537720185157001 3471.5460000000526
4.6793128387374585 -1.362253775254411 1.9210046397706408 -2.1295471915677817 -1.5707963267167255 1.537720185157001 3471.5960000000528
4.6793128387374585 -1.362253775254411 1.9210046397706408 -2.1295471915677817 -1.5707963267167255 1.537720185157001 3471.646000000053
4.6793128387374585 -1.362253775254411 1.9210046397706408 -2.1295471915677817 -1.5707963267167255 1.537720185157001 3471.696000000053
4.6793128387374585 -1.362253775254411 1.9210046397706408 -2.1295471915677817 -1.5707963267167255 1.537720185157001 3471.7460000000533
4.6793128387374585 -1.362253775254411 1.9210046397706408 -2.1295471915677817 -1.5707963267167255 1.537720185157001 3471.7960000000535
4.67931284133066 -1.3624959840132709 1.9206022362785975 -2.128902580555745 -1.570796329564613 1.5377201876984328 3471.8460000000537
4.67931285736867 -1.3639939575337225 1.918113516306388 -2.1249158947250253 -1.5707963471777662 1.5377202034162682 3471.896000000054
4.679312894895392 -1.3674990080662917 1.9122902563188704 -2.11558760213282 -1.5707963883901048 1.5377202401938257 3471.946000000054
4.679312956898562 -1.3732901944468872 1.9026688304315635 -2.100175019486089 -1.5707964564827992 1.537720300959195 3471.996000000054
4.679313042229049 -1.3812601863540055 1.8894275562923446 -2.0789637942052326 -1.5707965501938603 1.537720384586188 3472.0460000000544
4.679313146520165 -1.3910011285659332 1.8732440409631477 -2.053039386487771 -1.5707966647277325 1.5377204867952885 3472.0960000000546
4.6793132631069625 -1.4018905052179493 1.8551525268016624 -2.024058551372027 -1.5707967927648818 1.5377206010546045 3472.1460000000548
4.679313383945535 -1.4131770040595288 1.8364012373430307 -1.9940208208008015 -1.5707969254713885 1.5377207194808173 3472.196000000055
4.6793135005323325 -1.424066380711545 1.8183097231815455 -1.9650399856850573 -1.5707970535085378 1.5377208337401334 3472.246000000055
4.679313604823449 -1.4338073229234727 1.8021262078523488 -1.9391155779675961 -1.57079716804241 1.5377209359492339 3472.2960000000553
4.679313690153936 -1.441777314830591 1.7888849337131298 -1.9179043526867394 -1.5707972617534711 1.5377210195762268 3472.3460000000555
4.679313752157106 -1.4475685012111865 1.7792635078258225 -1.902491770040008 -1.5707973298461655 1.5377210803415962 3472.3960000000557
4.679313789683828 -1.4510735517437556 1.7734402478383051 -1.8931634774478028 -1.5707973710585041 1.5377211171191536 3472.446000000056
4.679313805721838 -1.4525715252642073 1.7709515278660957 -1.889176791617083 -1.5707973886716573 1.537721132836989 3472.496000000056
4.679313808315039 -1.4528137340230671 1.7705491243740523 -1.8885321806050466 -1.5707973915195448 1.5377211353784208 3472.546000000056
4.679313808315039 -1.4528137340230671 1.7705491243740523 -1.8885321806050466 -1.5707973915195448 1.5377211353784208 3472.5960000000564
4.679173757451438 -1.4528184193051188 1.7705543144394804 -1.8885326853580306 -1.570797391421642 1.5375810845170481 3472.6460000000566
4.6782279073017525 -1.4528500619142104 1.7705893661630885 -1.8885360942672886 -1.570797390760444 1.5366352343824106 3472.6960000000568
4.675763400714797 -1.452932509877623 1.7706806969132551 -1.8885449765192217 -1.5707973890376266 1.5341707278346657 3472.746000000057
4.671164834428413 -1.453086350985996 1.7708511125700241 -1.8885615500696855 -1.5707973858229916 1.5295721616214435 3472.796000000057
4.663909927785502 -1.4533290576927345 1.771119968035696 -1.8885876972542357 -1.5707973807514373 1.522317255093958 3472.8460000000573
4.653565191450081 -1.4536751320134154 1.7715033277454215 -1.888624980398375 -1.5707973735199328 1.5119725189231206 3472.8960000000575
4.639781596123315 -1.4541362504251936 1.7720141261777944 -1.8886746574277997 -1.5707973638844883 1.4981889238156512 3472.9460000000577
4.62229024125957 -1.4547214087662073 1.7726623283654435 -1.888737697478646 -1.5707973516571285 1.4806975692301916 3472.996000000058
4.600898023782447 -1.455437067134986 1.7734550904056257 -1.8888147965077366 -1.5707973367028645 1.4593053520934174 3473.046000000058
4.575483306800835 -1.456287294789856 1.774396919970819 -1.8889063929028271 -1.5707973189366657 1.4338906355161505 3473.096000000058
4.545991588324944 -1.4572739150483454 1.7754898368193144 -1.8890126830928522 -1.5707972983204326 1.4043989175094713 3473.1460000000584
4.512431169982361 -1.4583966501865924 1.7767335333058094 -1.889133637158173 -1.5707972748599681 1.3708384997008312 3473.1960000000586
4.47486882573408 -1.4596532663387507 1.7781255348920002 -1.889269014440823 -1.5707972486019508 1.3332761560501647 3473.2460000000588
4.433425470590557 -1.4610397183963952 1.7796613606571745 -1.889418379154754 -1.5707972196309068 1.2918328015660019 3473.296000000059
4.388271829327746 -1.4625502949079292 1.781334683808804 -1.889581115996084 -1.5707971880661813 1.2466791610215813 3473.346000000059
4.339624105203145 -1.4641777629779902 1.7831374921931376 -1.889756445753342 -1.5707971540589114 1.198031437670961 3473.3960000000593
4.287739648671838 -1.4659135131668557 1.7850602488057932 -1.8899434409177158 -1.5707971177889988 1.1461469819651326 3473.4460000000595
4.232912626102545 -1.467747704389851 1.7870920523023515 -1.8901410412932982 -1.5707970794620805 1.0913199602681323 3473.4960000000597
4.175469688493653 -1.4696694088167532 1.7892207975089474 -1.8903480696073331 -1.5707970393065025 1.0338770235731536 3473.54600000006
4.115765640189273 -1.4716667567711998 1.7914333359328642 -1.8905632471204623 -1.5707969975702916 0.9741729762186595 3473.59600000006
4.054179107595272 -1.4737270816300931 1.793715636273125 -1.8907852092369717 -1.5707969545181268 0.9125864446044956 3473.64600000006
3.9911082078953255 -1.4758370647230077 1.7960529449310858 -1.8910125211150384 -1.5707969104283128 0.849515545908002 3473.6960000000604
3.9269662177669544 -1.4779828802315957 1.7984299465210283 -1.8912436932769765 -1.5707968655897515 0.7853735568001247 3473.7460000000606
3.862177242097572 -1.4801503400889944 1.8008309243807525 -1.8914771972194837 -1.570796820298914 0.7205845821615299 3473.7960000000608
3.797171882700527 -1.4823250388792306 1.8032399210821695 -1.8917114810238886 -1.5707967748568128 0.6555792237987141 3473.846000000061
3.732382907031145 -1.4844924987366293 1.8056408989418937 -1.8919449849663958 -1.5707967295659753 0.5907902491601198 3473.896000000061
3.668240916902774 -1.4866383142452173 1.8080179005318362 -1.892176157128334 -1.570796684727414 0.5266482600522426 3473.9460000000613
3.6051700172028274 -1.4887482973381319 1.810355209189797 -1.8924034690064007 -1.5707966406376 0.46357736135574856 3473.9960000000615
3.5435834846088268 -1.4908086221970251 1.8126375095300578 -1.89262543112291 -1.5707965975854352 0.4019908297415846 3474.0460000000617
3.4838794363044463 -1.4928059701514718 1.8148500479539746 -1.8928406086360392 -1.5707965558492243 0.34228678238709054 3474.096000000062
3.4264364986955544 -1.494727674578374 1.8169787931605708 -1.8930476369500742 -1.5707965156936463 0.2848438456921112 3474.146000000062
3.3716094761262614 -1.4965618658013693 1.8190105966571288 -1.8932452373256565 -1.570796477366728 0.23001682399511147 3474.196000000062
3.319725019594955 -1.4982976159902348 1.8209333532697844 -1.8934322324900303 -1.5707964410968154 0.1781323682892828 3474.2460000000624
3.2710772954703535 -1.4999250840602958 1.822736161654118 -1.8936075622472883 -1.5707964070895455 0.12948464493866285 3474.2960000000626
3.2259236542075427 -1.5014356605718298 1.8244094848057475 -1.8937702990886183 -1.57079637552482 0.08433100439424202 3474.3460000000628
3.1844802990640195 -1.5028221126294743 1.8259453105709218 -1.8939196638025493 -1.570796346553776 0.042887649910079206 3474.396000000063
3.1469179548157395 -1.5040787287816326 1.8273373121571126 -1.8940550410851993 -1.5707963202957587 0.005325306259412521 3474.446000000063
3.1133575364731554 -1.5052014639198796 1.8285810086436076 -1.8941759951505202 -1.5707962968352942 -0.02823511154922742 3474.4960000000633
3.0838658179972653 -1.506188084178369 1.829673925492103 -1.8942822853405452 -1.570796276219061 -0.05772682955590702 3474.5460000000635
3.058451101015652 -1.5070383118332389 1.8306157550572963 -1.8943738817356357 -1.5707962584528623 -0.08314154613317504 3474.5960000000637
3.0370588835385295 -1.5077539702020177 1.8314085170974785 -1.8944509807647263 -1.5707962434985983 -0.10453376326994923 3474.646000000064
3.019567528674785 -1.5083391285430316 1.8320567192851276 -1.8945140208155726 -1.5707962312712385 -0.12202511785540815 3474.696000000064
3.0057839333480203 -1.5088002469548094 1.8325675177175005 -1.8945636978449973 -1.570796221635794 -0.13580871296287733 3474.746000000064
2.995439197012599 -1.5091463212754905 1.832950877427226 -1.8946009809891367 -1.5707962144042895 -0.1461534491337142 3474.7960000000644
2.988184290369689 -1.509389027982229 1.8332197328928979 -1.8946271281736868 -1.5707962093327352 -0.15340835566119893 3474.8460000000646
2.9835857240833024 -1.509542869090602 1.8333901485496669 -1.8946437017241506 -1.5707962061181002 -0.15800692187442356 3474.8960000000648
2.981121217496347 -1.5096253170540146 1.8334814792998337 -1.8946525839760837 -1.5707962043952828 -0.16047142842216933 3474.946000000065
2.9801753673466624 -1.5096569596631062 1.8335165310234416 -1.8946559928853417 -1.5707962037340848 -0.1614172785568051 3474.996000000065
2.980035316483062 -1.5096616449451579 1.8335217210888697 -1.8946564976383258 -1.570796203636182 -0.16155732941817824 3475.0460000000653
2.9800353164830593 -1.5096616449451579 1.8335217210888697 -1.8946564976383258 -1.570796203636182 -0.16155732941817647 3475.0960000000655
2.9800353227011427 -1.5094094136401337 1.8339324893587425 -1.8953194969600284 -1.5707962039657037 -0.16155732322065963 3475.1460000000657
2.980035361157738 -1.5078494542987209 1.8364729424546922 -1.8994199078314742 -1.5707962060036773 -0.16155728489126092 3475.196000000066
2.9800354511408442 -1.5041993655316275 1.8424172507854824 -1.9090143012653298 -1.5707962107722526 -0.16155719520577747 3475.246000000066
2.9800355998145744 -1.4981685411085448 1.8522386776457964 -1.9248665464948718 -1.5707962186510858 -0.16155704702379106 3475.296000000066
2.980035804423501 -1.4898687526565146 1.865755198691526 -1.9466828476611477 -1.5707962294941555 -0.16155684309161641 3475.3460000000664
2.9800360544969955 -1.4797247323582954 1.8822751214150557 -1.9733467805001381 -1.5707962427465798 -0.16155659384524934 3475.3960000000666
2.980036334053574 -1.4683847556507295 1.900742704620553 -2.0031543290299196 -1.5707962575614343 -0.16155631521331507 3475.4460000000668
2.9800366238052374 -1.4566312239231092 1.9198837778992541 -2.0340489222378246 -1.5707962729165683 -0.1615560264200164 3475.496000000067
2.9800369033618157 -1.4452912472155433 1.9383513611047514 -2.0638564707676057 -1.5707962877314228 -0.16155574778808213 3475.546000000067
2.98003715343531 -1.4351472269173242 1.9548712838282811 -2.0905204036065963 -1.570796300983847 -0.16155549854171505 3475.5960000000673
2.9800373580442368 -1.4268474384652938 1.9683878048740104 -2.112336704772872 -1.5707963118269168 -0.1615552946095404 3475.6460000000675
2.980037506717967 -1.4208166140422112 1.978209231734325 -2.1281889500024143 -1.57079631970575 -0.161555146427554 3475.6960000000677
2.9800375967010733 -1.4171665252751176 1.984153540065115 -2.13778334343627 -1.5707963244743253 -0.16155505674207055 3475.746000000068
2.9800376351576685 -1.415606565933705 1.9866939931610645 -2.141883754307716 -1.5707963265122988 -0.16155501841267184 3475.796000000068
2.980037641375752 -1.4153543346286808 1.9871047614309374 -2.142546753629418 -1.5707963268418206 -0.161555012215155 3475.846000000068
2.980037641375752 -1.4153543346286808 1.9871047614309374 -2.142546753629418 -1.5707963268418206 -0.161555012215155 3475.8960000000684
2.980037641375752 -1.4153543346286808 1.9871047614309374 -2.142546753629418 -1.5707963268418206 -0.161555012215155 3475.9460000000686
2.980037641375752 -1.4153543346286808 1.9871047614309374 -2.142546753629418 -1.5707963268418206 -0.161555012215155 3475.9960000000688
2.980037641375752 -1.4153543346286808 1.9871047614309374 -2.142546753629418 -1.5707963268418206 -0.161555012215155 3476.046000000069
2.980037641375752 -1.4153543346286808 1.9871047614309374 -2.142546753629418 -1.5707963268418206 -0.161555012215155 3476.096000000069
2.980037641375752 -1.4153543346286808 1.9871047614309374 -2.1425467536294183 -1.5707963268418206 -0.161555012215155 3476.1460000000693
2.9800376351576685 -1.415606565933705 1.9866939931610645 -2.141883754307716 -1.5707963265122988 -0.16155501841267184 3476.1960000000695
2.9800375967010733 -1.4171665252751178 1.984153540065115 -2.13778334343627 -1.5707963244743253 -0.16155505674207055 3476.2460000000697
2.980037506717967 -1.4208166140422112 1.9782092317343247 -2.1281889500024143 -1.57079631970575 -0.161555146427554 3476.29600000007
2.9800373580442368 -1.4268474384652938 1.9683878048740107 -2.112336704772872 -1.5707963118269168 -0.1615552946095404 3476.34600000007
2.98003715343531 -1.435147226917324 1.9548712838282811 -2.0905204036065963 -1.570796300983847 -0.16155549854171505 3476.39600000007
2.9800369033618157 -1.4452912472155433 1.9383513611047514 -2.0638564707676057 -1.5707962877314228 -0.16155574778808213 3476.4460000000704
2.9800366238052374 -1.4566312239231092 1.9198837778992541 -2.0340489222378246 -1.5707962729165683 -0.1615560264200164 3476.4960000000706
2.980036334053574 -1.4683847556507295 1.900742704620553 -2.0031543290299196 -1.5707962575614343 -0.16155631521331507 3476.5460000000708
2.9800360544969955 -1.4797247323582954 1.8822751214150557 -1.9733467805001383 -1.5707962427465798 -0.16155659384524934 3476.596000000071
2.980035804423501 -1.4898687526565144 1.865755198691526 -1.9466828476611477 -1.5707962294941555 -0.16155684309161641 3476.646000000071
2.9800355998145744 -1.4981685411085448 1.8522386776457966 -1.924866546494872 -1.5707962186510858 -0.16155704702379106 3476.6960000000713
2.9800354511408442 -1.5041993655316275 1.8424172507854821 -1.9090143012653298 -1.5707962107722526 -0.16155719520577747 3476.7460000000715
2.980035361157738 -1.507849454298721 1.8364729424546922 -1.899419907831474 -1.5707962060036773 -0.16155728489126092 3476.7960000000717
2.9800353227011427 -1.5094094136401337 1.8339324893587425 -1.8953194969600284 -1.5707962039657037 -0.16155732322065963 3476.846000000072
2.9800353164830593 -1.5096616449451579 1.8335217210888697 -1.894656497638326 -1.570796203636182 -0.16155732941817647 3476.896000000072
2.9800353164830593 -1.5096616449451579 1.8335217210888697 -1.894656497638326 -1.570796203636182 -0.16155732941817647 3476.946000000072
2.9800353164830593 -1.5096616449451579 1.8335217210888697 -1.894656497638326 -1.570796203636182 -0.16155732941817647 3476.9960000000724
2.9800353164830593 -1.5096616449451579 1.8335217210888697 -1.894656497638326 -1.570796203636182 -0.16155732941817647 3477.0460000000726
2.9800353164830593 -1.5096616449451579 1.8335217210888697 -1.894656497638326 -1.570796203636182 -0.16155732941817647 3477.0960000000728
2.9800353164830593 -1.5096616449451579 1.8335217210888697 -1.894656497638326 -1.570796203636182 -0.16155732941817647 3477.146000000073
2.9800353164830593 -1.5096616449451579 1.8335217210888697 -1.894656497638326 -1.570796203636182 -0.16155732941817647 3477.196000000073
2.9800353164830593 -1.5096616449451579 1.8335217210888697 -1.894656497638326 -1.570796203636182 -0.16155732941817647 3477.2460000000733
2.9800353164830593 -1.5096616449451579 1.8335217210888697 -1.894656497638326 -1.570796203636182 -0.16155732941817647 3477.2960000000735
2.9800353164830593 -1.5096616449451579 1.8335217210888697 -1.894656497638326 -1.570796203636182 -0.16155732941817647 3477.3460000000737
2.9800353164830593 -1.5096616449451579 1.8335217210888697 -1.894656497638326 -1.570796203636182 -0.16155732941817647 3477.396000000074
2.9800353164830593 -1.5096616449451579 1.8335217210888697 -1.894656497638326 -1.570796203636182 -0.16155732941817647 3477.446000000074
2.9800353164830593 -1.5096616449451579 1.8335217210888697 -1.894656497638326 -1.570796203636182 -0.16155732941817647 3477.496000000074
2.9800353164830593 -1.5096616449451579 1.8335217210888697 -1.894656497638326 -1.570796203636182 -0.16155732941817647 3477.5460000000744
2.9800353164830593 -1.5096616449451579 1.8335217210888697 -1.894656497638326 -1.570796203636182 -0.16155732941817647 3477.5960000000746
2.9800353164830593 -1.5096616449451579 1.8335217210888697 -1.894656497638326 -1.570796203636182 -0.16155732941817647 3477.6460000000748
2.9800353164830593 -1.5096616449451579 1.8335217210888697 -1.894656497638326 -1.570796203636182 -0.16155732941817647 3477.696000000075
2.9800353164830593 -1.5096616449451579 1.8335217210888697 -1.894656497638326 -1.570796203636182 -0.16155732941817647 3477.746000000075
2.9800353164830593 -1.5096616449451579 1.8335217210888697 -1.894656497638326 -1.570796203636182 -0.16155732941817647 3477.7960000000753
2.9800353164830593 -1.5096616449451579 1.8335217210888697 -1.894656497638326 -1.570796203636182 -0.16155732941817647 3477.8460000000755
2.9800353164830593 -1.5096616449451579 1.8335217210888697 -1.894656497638326 -1.570796203636182 -0.16155732941817647 3477.8960000000757
2.9800353164830593 -1.5096616449451579 1.8335217210888697 -1.894656497638326 -1.570796203636182 -0.16155732941817647 3477.946000000076
2.9800353164830593 -1.5096616449451579 1.8335217210888697 -1.894656497638326 -1.570796203636182 -0.16155732941817647 3477.996000000076
2.9800353164830593 -1.5096616449451579 1.8335217210888697 -1.894656497638326 -1.570796203636182 -0.16155732941817647 3478.046000000076
2.9800353164830593 -1.5096616449451579 1.8335217210888697 -1.894656497638326 -1.570796203636182 -0.16155732941817647 3478.0960000000764
2.9800353164830593 -1.5096616449451579 1.8335217210888697 -1.894656497638326 -1.570796203636182 -0.16155732941817647 3478.1460000000766
2.9800353164830593 -1.5096616449451579 1.8335217210888697 -1.894656497638326 -1.570796203636182 -0.16155732941817647 3478.1960000000768
2.9800353164830593 -1.5096616449451579 1.8335217210888697 -1.894656497638326 -1.570796203636182 -0.16155732941817647 3478.246000000077
2.9800353164830593 -1.5096616449451579 1.8335217210888697 -1.894656497638326 -1.570796203636182 -0.16155732941817647 3478.296000000077
2.9800353164830593 -1.5096616449451579 1.8335217210888697 -1.894656497638326 -1.570796203636182 -0.16155732941817647 3478.3460000000773
2.9800353164830593 -1.5096616449451579 1.8335217210888697 -1.894656497638326 -1.570796203636182 -0.16155732941817647 3478.3960000000775
2.9800353164830593 -1.5096616449451579 1.8335217210888697 -1.894656497638326 -1.570796203636182 -0.16155732941817647 3478.4460000000777
2.9800353164830593 -1.5096616449451579 1.8335217210888697 -1.894656497638326 -1.570796203636182 -0.16155732941817647 3478.496000000078
2.9800353164830593 -1.5096616449451579 1.8335217210888697 -1.8946564976383258 -1.570796203636182 -0.16155732941817647 3478.546000000078
2.980181824458131 -1.5096611805972633 1.8335212205832292 -1.8946564614717492 -1.5707962036476673 -0.16141082144382163 3478.596000000078
2.9811697379185738 -1.509658049467131 1.8335178456389034 -1.8946562175980097 -1.5707962037251133 -0.16042290798821335 3478.6460000000784
2.983739164937233 -1.5096499058283581 1.8335090678729502 -1.894655583315959 -1.5707962039265397 -0.15785348098212704 3478.6960000000786
2.988524190331657 -1.5096347399886403 1.8334927211027612 -1.8946544020970733 -1.5707962043016546 -0.15306845561111868 3478.7460000000788
2.9960578069782917 -1.5096108626602793 1.8334669844995326 -1.8946525423681218 -1.5707962048922413 -0.14553483900134911 3478.796000000079
3.0067768471266856 -1.5095768893306898 1.8334303657417395 -1.8946498962938347 -1.5707962057325446 -0.13481579890540812 3478.846000000079
3.021026913713687 -1.509531724632906 1.8333816841686075 -1.8946463785595726 -1.5707962068496575 -0.12056573238813867 3478.8960000000793
3.0390673116776443 -1.50947454671609 1.8333200539335872 -1.8946419251539952 -1.5707962082639078 -0.10252533451246089 3478.9460000000795
3.0610759792726068 -1.5094047916160362 1.833244867157826 -1.8946364921517291 -1.5707962099892445 -0.08051666702519641 3478.9960000000797
3.0871544193825238 -1.5093221376256816 1.833155777083641 -1.8946300544960373 -1.5707962120336252 -0.05443822704289247 3479.04600000008
3.1173326308354454 -1.5092264896656107 1.8330526812279926 -1.8946226047814871 -1.5707962143994012 -0.024260015737645996 3479.09600000008
3.151574039717722 -1.5091179636545629 1.8329357045359567 -1.8946141520366198 -1.5707962170837055 0.009981392977072151 3479.14600000008
3.1897804306882036 -1.5089968708799395 1.8328051825341976 -1.894604720506618 -1.570796220078839 0.04818778376059313 3479.1960000000804
3.231796878292441 -1.5088637023683118 1.832661644484442 -1.8945943484359753 -1.570796223372656 0.09020423115922577 3479.2460000000806
3.2774166782768854 -1.5087191132559263 1.8325057965369502 -1.8945830868511646 -1.5707962269489526 0.13582403092043271 3479.2960000000808
3.3263862789030885 -1.5085639071592134 1.8323385048839906 -1.8945709983433063 -1.5707962307878516 0.1847936313070057 3479.346000000081
3.3784102122619006 -1.508399020545293 1.8321607789133116 -1.894558155850838 -1.5707962348661908 0.23681756441124224 3479.396000000081
3.4331560255876745 -1.5082255071024835 1.831973754361615 -1.8945446414421816 -1.5707962391579076 0.29156337746912103 3479.4460000000813
3.490259212572462 -1.508044522110806 1.8317786764680282 -1.894530545098414 -1.5707962436344272 0.34866656417447717 3479.4960000000815
3.549328144680214 -1.507857306812494 1.8315768831275783 -1.8945159634959334 -1.5707962482650484 0.4077354959931795 3479.5460000000817
3.6099490024609837 -1.5076651727824995 1.8313697880446638 -1.89450099878913 -1.5707962530173305 0.46835635347730453 3479.596000000082
3.6716907068651223 -1.5074694862989988 1.8311588638865284 -1.894485757393053 -1.57079625785748 0.5300980575793142 3479.646000000082
3.734109850557483 -1.5072716527139016 1.8309456254367333 -1.8944703487660808 -1.570796262750736 0.5925172009662307 3479.696000000082
3.796755629231617 -1.5070731008233567 1.8307316127486306 -1.8944548841925881 -1.5707962676617588 0.6551629793338116 3479.7460000000824
3.8591747729239776 -1.5068752672382595 1.8305183742988356 -1.894439475565616 -1.5707962725550149 0.7175821227207281 3479.7960000000826
3.9209164773281167 -1.5066795807547588 1.8303074501407002 -1.894424234169539 -1.5707962773951643 0.7793238268227379 3479.8460000000828
3.981537335108886 -1.5064874467247642 1.8301003550577857 -1.8944092694627355 -1.5707962821474464 0.8399446843068628 3479.896000000083
4.0406062672166385 -1.5063002314264522 1.8298985617173358 -1.8943946878602549 -1.5707962867780676 0.8990136161255655 3479.946000000083
4.097709454201425 -1.5061192464347748 1.829703483823749 -1.8943805915164873 -1.5707962912545872 0.9561168028309213 3479.9960000000833
4.1524552675272 -1.5059457329919652 1.8295164592720523 -1.894367077107831 -1.570796295546304 1.0108626158888006 3480.0460000000835
4.204479200886012 -1.5057808463780449 1.8293387333013733 -1.8943542346153626 -1.5707962996246432 1.0628865489930373 3480.0960000000837
4.2534488015122145 -1.505625640281332 1.8291714416484137 -1.8943421461075043 -1.5707963034635422 1.1118561493796102 3480.146000000084
4.29906860149666 -1.5054810511689465 1.829015593700922 -1.8943308845226936 -1.5707963070398387 1.157475949140817 3480.196000000084
4.341085049100897 -1.5053478826573188 1.8288720556511664 -1.8943205124520508 -1.5707963103336557 1.19949239653945 3480.246000000084
4.379291440071379 -1.5052267898826954 1.8287415336494073 -1.8943110809220491 -1.5707963133287892 1.2376987873229703 3480.2960000000844
4.413532848953654 -1.5051182638716476 1.8286245569573714 -1.8943026281771818 -1.5707963160130936 1.271940196037689 3480.3460000000846
4.443711060406574 -1.5050226159115767 1.8285214611017229 -1.8942951784626316 -1.5707963183788696 1.3021184073429353 3480.3960000000848
4.469789500516494 -1.504939961921222 1.8284323710275379 -1.8942887408069398 -1.5707963204232502 1.3281968473252397 3480.446000000085
4.491798168111456 -1.5048702068211683 1.8283571842517767 -1.8942833078046737 -1.570796322148587 1.350205514812504 3480.496000000085
4.5098385660754134 -1.5048130289043522 1.8282955540167565 -1.8942788543990963 -1.5707963235628373 1.3682459126881825 3480.5460000000853
4.524088632662414 -1.5047678642065685 1.8282468724436245 -1.8942753366648342 -1.5707963246799501 1.3824959792054523 3480.5960000000855
4.534807672810808 -1.504733890876979 1.8282102536858313 -1.8942726905905471 -1.5707963255202535 1.3932150193013932 3480.6460000000857
4.542341289457442 -1.504710013548618 1.8281845170826028 -1.8942708308615956 -1.5707963261108402 1.4007486359111618 3480.696000000086
4.547126314851865 -1.5046948477089002 1.8281681703124137 -1.8942696496427098 -1.570796326485955 1.405533661282169 3480.746000000086
4.549695741870526 -1.5046867040701273 1.8281593925464605 -1.8942690153606592 -1.5707963266873815 1.408103088288256 3480.796000000086
4.5506836553309675 -1.504683572939995 1.8281560176021348 -1.8942687714869197 -1.5707963267648275 1.4090910017438674 3480.8460000000864
4.55083016330604 -1.5046831085921004 1.8281555170964943 -1.8942687353203431 -1.5707963267763128 1.4092375097182206 3480.8960000000866
4.550830163306041 -1.5046831085921004 1.8281555170964943 -1.8942687353203431 -1.5707963267763128 1.4092375097182188 3480.9460000000868
4.550830163288899 -1.5044317259580535 1.8285655109525163 -1.8949301118132962 -1.570796326774864 1.4092375097011915 3480.996000000087
4.55083016318288 -1.5028770153395092 1.8311011745790515 -1.8990204860762125 -1.570796326765904 1.409237509595885 3481.046000000087
4.550830162934811 -1.4992392078568542 1.8370342762148681 -1.9085913952364206 -1.5707963267449385 1.4092375093494816 3481.0960000000873
4.550830162524941 -1.4932286750690886 1.8468371869200806 -1.9244048387983568 -1.5707963267102987 1.4092375089423639 3481.1460000000875
4.550830161960867 -1.484956812530443 1.8603282255177218 -1.9461677400295456 -1.5707963266626261 1.4092375083820772 3481.1960000000877
4.550830161271455 -1.4748469233469939 1.8768170035353173 -1.97276640734658 -1.570796326604361 1.4092375076972936 3481.246000000088
4.550830160500762 -1.4635451017332777 1.8952497701464592 -2.0025009957011024 -1.5707963265392262 1.4092375069317757 3481.296000000088
4.550830159701963 -1.4518311165689088 1.9143547571123785 -2.033319967965784 -1.5707963264717162 1.4092375061383402 3481.346000000088
4.55083015893127 -1.4405292949551927 1.9327875237235201 -2.0630545563203064 -1.5707963264065814 1.4092375053728223 3481.3960000000884
4.550830158241858 -1.4304194057717434 1.9492763017411159 -2.089653223637341 -1.5707963263483162 1.4092375046880388 3481.4460000000886
4.550830157677784 -1.4221475432330979 1.9627673403387569 -2.1114161248685295 -1.5707963263006437 1.409237504127752 3481.4960000000888
4.550830157267915 -1.4161370104453324 1.9725702510439695 -2.127229568430466 -1.5707963262660039 1.4092375037206344 3481.546000000089
4.5508301570198455 -1.412499202962677 1.9785033526797864 -2.136800477590674 -1.5707963262450384 1.409237503474231 3481.596000000089
4.550830156913826 -1.410944492344133 1.9810390163063216 -2.1408908518535905 -1.5707963262360785 1.4092375033689244 3481.6460000000893
4.5508301568966845 -1.410693109710086 1.9814490101623434 -2.1415522283465434 -1.5707963262346296 1.4092375033518971 3481.6960000000895
4.5508301568966845 -1.410693109710086 1.9814490101623434 -2.1415522283465434 -1.5707963262346296 1.4092375033518971 3481.7460000000897
4.5508301568966845 -1.410693109710086 1.9814490101623434 -2.1415522283465434 -1.5707963262346296 1.4092375033518971 3481.79600000009
4.5508301568966845 -1.410693109710086 1.9814490101623434 -2.1415522283465434 -1.5707963262346296 1.4092375033518971 3481.84600000009
4.5508301568966845 -1.410693109710086 1.9814490101623434 -2.1415522283465434 -1.5707963262346296 1.4092375033518971 3481.89600000009
4.5508301568966845 -1.410693109710086 1.9814490101623434 -2.1415522283465434 -1.5707963262346296 1.4092375033518971 3481.9460000000904
4.5508301568966845 -1.410693109710086 1.9814490101623434 -2.1415522283465434 -1.5707963262346296 1.4092375033518971 3481.9960000000906
4.5508301568966845 -1.410693109710086 1.9814490101623434 -2.1415522283465434 -1.5707963262346296 1.4092375033518971 3482.0460000000908
4.5508301568966845 -1.410693109710086 1.9814490101623434 -2.1415522283465434 -1.5707963262346296 1.4092375033518971 3482.096000000091
4.5508301568966845 -1.410693109710086 1.9814490101623434 -2.1415522283465434 -1.5707963262346296 1.4092375033518971 3482.146000000091
4.5508301568966845 -1.410693109710086 1.9814490101623434 -2.1415522283465434 -1.5707963262346296 1.4092375033518971 3482.1960000000913
4.5508301568966845 -1.410693109710086 1.9814490101623434 -2.1415522283465434 -1.5707963262346296 1.4092375033518971 3482.2460000000915
4.5508301568966845 -1.410693109710086 1.9814490101623434 -2.1415522283465434 -1.5707963262346296 1.4092375033518971 3482.2960000000917
4.5508301568966845 -1.410693109710086 1.9814490101623434 -2.1415522283465434 -1.5707963262346296 1.4092375033518971 3482.346000000092
4.5508301568966845 -1.410693109710086 1.9814490101623434 -2.1415522283465434 -1.5707963262346296 1.4092375033518971 3482.396000000092
4.550830156913826 -1.410944492344133 1.9810390163063214 -2.1408908518535905 -1.5707963262360785 1.4092375033689244 3482.446000000092
4.5508301570198455 -1.4124992029626773 1.9785033526797862 -2.136800477590674 -1.5707963262450384 1.409237503474231 3482.4960000000924
4.550830157267915 -1.4161370104453324 1.9725702510439695 -2.1272295684304656 -1.5707963262660039 1.4092375037206344 3482.5460000000926
4.550830157677784 -1.4221475432330979 1.962767340338757 -2.1114161248685295 -1.5707963263006437 1.409237504127752 3482.5960000000928
4.550830158241858 -1.4304194057717434 1.9492763017411159 -2.089653223637341 -1.5707963263483162 1.4092375046880388 3482.646000000093
4.55083015893127 -1.4405292949551927 1.9327875237235204 -2.0630545563203064 -1.5707963264065814 1.4092375053728223 3482.696000000093
4.550830159701963 -1.4518311165689088 1.9143547571123785 -2.033319967965784 -1.5707963264717162 1.4092375061383402 3482.7460000000933
4.550830160500762 -1.4635451017332777 1.8952497701464592 -2.0025009957011024 -1.5707963265392262 1.4092375069317757 3482.7960000000935
4.550830161271455 -1.4748469233469939 1.8768170035353176 -1.9727664073465803 -1.570796326604361 1.4092375076972936 3482.8460000000937
4.550830161960867 -1.484956812530443 1.8603282255177218 -1.9461677400295458 -1.5707963266626261 1.4092375083820772 3482.896000000094
4.550830162524941 -1.4932286750690884 1.8468371869200808 -1.924404838798357 -1.5707963267102987 1.4092375089423639 3482.946000000094
4.550830162934811 -1.4992392078568542 1.8370342762148681 -1.9085913952364204 -1.5707963267449385 1.4092375093494816 3482.996000000094
4.55083016318288 -1.5028770153395095 1.8311011745790513 -1.8990204860762123 -1.570796326765904 1.409237509595885 3483.0460000000944
4.550830163288899 -1.5044317259580535 1.828565510952516 -1.894930111813296 -1.570796326774864 1.4092375097011915 3483.0960000000946
4.550830163306041 -1.5046831085921004 1.8281555170964943 -1.8942687353203431 -1.5707963267763128 1.4092375097182188 3483.146000000095
4.550830163306041 -1.5046831085921004 1.8281555170964943 -1.8942687353203431 -1.5707963267763128 1.4092375097182188 3483.196000000095
4.550666622970055 -1.50467774756373 1.8281495777331143 -1.8942681569852395 -1.570796326776618 1.4092521405492575 3483.246000000095
4.549566742957805 -1.5046416923121972 1.8281096329266682 -1.8942642674296934 -1.5707963267786709 1.4093505392624865 3483.2960000000953
4.546714832402856 -1.5045482036122824 1.8280060588878184 -1.8942541820891174 -1.5707963267839935 1.4096056801194214 3483.3460000000955
4.541421094849024 -1.5043746691931401 1.8278138039876393 -1.8942354616050348 -1.5707963267938736 1.4100792744730484 3483.3960000000957
4.53311533352987 -1.5041023973905818 1.8275121601495972 -1.894206089564772 -1.5707963268093752 1.4108223339132502 3483.446000000096
4.52134065664818 -1.5037164107993555 1.8270845342415292 -1.8941644502411557 -1.5707963268313512 1.4118757334122327 3483.496000000096
4.505747182655456 -1.5032052399254279 1.8265182194676228 -1.8941093063322052 -1.5707963268604546 1.4132707744699515 3483.5460000000962
4.486085745531404 -1.5025607168382655 1.825804166760396 -1.8940397767008277 -1.57079632689715 1.4150297482595389 3483.5960000000964
4.4622016000634215 -1.5017777688231164 1.8249367561726746 -1.8939553141145136 -1.5707963269417269 1.4171664987727288 3483.6460000000966
4.434028127126082 -1.5008542120332904 1.8239135682695744 -1.8938556829850293 -1.5707963269943093 1.4196869859652852 3483.696000000097
4.401580538960624 -1.4997905451424411 1.8227351555204785 -1.8937409371081133 -1.5707963270548686 1.4225898489024276 3483.746000000097
4.364949584454439 -1.498589742996847 1.821404813691017 -1.8936113974031699 -1.570796327123236 1.425866968904257 3483.796000000097
4.324295254420559 -1.4972570502676927 1.8199283532350474 -1.8934676296529636 -1.570796327199112 1.4295040326911836 3483.8460000000973
4.27984048687714 -1.4957997751033503 1.8183138706866333 -1.893310422243314 -1.5707963272820813 1.4334810955293529 3483.8960000000975
4.2318648723269545 -1.49422708278166 1.816571520052023 -1.8931407639027904 -1.570796327371622 1.4377731443760713 3483.9460000000977
4.180698359036878 -1.4925497893622128 1.8147132842016307 -1.892959821442406 -1.570796327467118 1.4423506610252341 3483.996000000098
4.126714958317371 -1.4907801553386302 1.8127527462620143 -1.892768917495312 -1.5707963275678711 1.4471801852527504 3484.046000000098
4.070326449801972 -1.4889316792908465 1.8107048610078555 -1.8925695082564928 -1.5707963276731134 1.452224877961971 3484.0960000000982
4.0119760867267855 -1.4870188915373892 1.8085857262539393 -1.8923631612224612 -1.5707963277820172 1.4574450843291138 3484.1460000000984
3.9521323012099616 -1.4850571477876613 1.8064123542471329 -1.8921515329309504 -1.570796327893708 1.4627988969486911 3484.1960000000986
3.891282409531193 -1.4830624227942217 1.804202443058365 -1.8919363467006112 -1.5707963280072768 1.4682427189789355 3484.246000000099
3.829926317411195 -1.481051104005067 1.8019741479746063 -1.891719370370705 -1.5707963281217903 1.4737318272872266 3484.296000000099
3.7685702252911972 -1.479039785215912 1.7997458528908477 -1.891502394040799 -1.570796328236304 1.4792209355955177 3484.346000000099
3.707720333612429 -1.4770450602224725 1.7975359417020798 -1.8912872078104597 -1.5707963283498727 1.484664757625762 3484.3960000000993
3.6478765480956046 -1.4750833164727446 1.7953625696952733 -1.891075579518949 -1.5707963284615636 1.4900185702453395 3484.4460000000995
3.5895261850204174 -1.4731705287192873 1.793243434941357 -1.8908692324849172 -1.5707963285704674 1.4952387766124822 3484.4960000000997
3.533137676505019 -1.4713220526715036 1.7911955496871983 -1.8906698232460981 -1.5707963286757096 1.5002834693217029 3484.5460000001
3.479154275785513 -1.469552418647921 1.789235011747582 -1.8904789192990041 -1.5707963287764628 1.5051129935492191 3484.5960000001
3.4279877624954356 -1.4678751252284739 1.7873767758971897 -1.8902979768386197 -1.5707963288719589 1.509690510198382 3484.6460000001002
3.380012147945251 -1.4663024329067835 1.7856344252625793 -1.8901283184980961 -1.5707963289614995 1.5139825590451004 3484.6960000001004
3.335557380401832 -1.464845157742441 1.7840199427141652 -1.8899711110884465 -1.5707963290444686 1.5179596218832696 3484.7460000001006
3.2949030503679513 -1.4635124650132867 1.7825434822581956 -1.8898273433382402 -1.5707963291203448 1.5215966856701963 3484.796000000101
3.2582720958617664 -1.4623116628676927 1.7812131404287341 -1.8896978036332968 -1.5707963291887121 1.524873805672026 3484.846000000101
3.2258245076963084 -1.4612479959768434 1.7800347276796382 -1.8895830577563808 -1.5707963292492715 1.527776668609168 3484.896000000101
3.1976510347589695 -1.4603244391870174 1.779011539776538 -1.8894834266268965 -1.5707963293018539 1.5302971558017244 3484.9460000001013
3.1737668892909854 -1.4595414911718683 1.7781441291888167 -1.8893989640405824 -1.5707963293464307 1.5324339063149146 3484.9960000001015
3.1541054521669354 -1.458896968084706 1.7774300764815898 -1.8893294344092049 -1.5707963293831262 1.5341928801045017 3485.0460000001017
3.1385119781742103 -1.4583857972107783 1.7768637617076835 -1.8892742905002544 -1.5707963294122296 1.5355879211622208 3485.096000000102
3.1267373012925193 -1.457999810619552 1.7764361357996155 -1.889232651176638 -1.5707963294342056 1.5366413206612033 3485.146000000102
3.118431539973366 -1.4577275388169937 1.7761344919615734 -1.8892032791363753 -1.5707963294497072 1.5373843801014049 3485.1960000001022
3.113137802419535 -1.4575540043978514 1.7759422370613942 -1.8891845586522926 -1.5707963294595872 1.537857974455032 3485.2460000001024
4.550844669342041 -1.504699484711029 1.8281410376178187 -1.8942133388915003 -1.5707605520831507 1.4092261791229248 3486.6459999999997
4.549994819405354 -1.5049125940685533 1.8283671339996337 -1.8942264860666647 -1.5707607855441355 1.4083764977931006 3486.696
4.544996796133557 -1.5061659041911575 1.8296968216647134 -1.8943038054669414 -1.5707621585435145 1.40337946610933 3486.746
4.53405548358046 -1.5089095604391687 1.8326076781274527 -1.8944730675289287 -1.5707651642148615 1.39244032426932 3486.7960000000003
4.5174134649820346 -1.5130827323584888 1.8370351658859065 -1.8947305194909243 -1.5707697359185047 1.3758016073814887 3486.8460000000005
4.496768822990081 -1.5182596067704301 1.842527522426458 -1.8950498920210106 -1.5707754071767386 1.3551610612047618 3486.8960000000006
4.474692939905896 -1.5237953808615508 1.8484006502284862 -1.8953914058451415 -1.570781471609038 1.333089557888369 3486.946000000001
4.454048297913943 -1.5289722552734921 1.8538930067690376 -1.8957107783752278 -1.570787142867272 1.3124490117116419 3486.996000000001
4.437406279315518 -1.533145427192812 1.8583204945274914 -1.8959682303372234 -1.5707917145709152 1.2958102948238106 3487.046000000001
4.4264649667624205 -1.5358890834408234 1.8612313509902307 -1.8961374923992107 -1.570794720242262 1.2848711529838006 3487.0960000000014
4.421466943490623 -1.5371423935634276 1.8625610386553104 -1.8962148117994875 -1.5707960932416412 1.27987412130003 3487.1460000000015
4.420617093553936 -1.5373555029209518 1.8627871350371255 -1.8962279589746518 -1.570796326702626 1.2790244399702058 3487.1960000000017
4.420617093553936 -1.5373555029209518 1.8627871350371255 -1.8962279589746518 -1.570796326702626 1.2790244399702058 3487.246000000002
4.420617093508544 -1.5370986896781664 1.8632025402836998 -1.8969001774701757 -1.5707963266981555 1.2790244399251052 3487.296000000002
4.420617093227808 -1.5355103927098617 1.8657716714024684 -1.9010576055953725 -1.5707963266705074 1.2790244396461745 3487.3460000000023
4.420617092570923 -1.5317939978212822 1.8717830823340607 -1.910785411504748 -1.5707963266058145 1.2790244389935155 3487.3960000000025
4.4206170914855925 -1.5256536197400903 1.881715378827853 -1.926858086227118 -1.5707963264989264 1.2790244379151656 3487.4460000000026
4.42061708999193 -1.5172030604941085 1.8953844817494696 -1.9489777485975532 -1.5707963263518239 1.2790244364311107 3487.496000000003
4.420617088166373 -1.5068747677890606 1.9120908903882836 -1.9760124501893226 -1.570796326172035 1.2790244346172954 3487.546000000003
4.420617086125587 -1.4953287933863155 1.9307669457649166 -2.0062344802458356 -1.5707963259710493 1.2790244325896354 3487.596000000003
4.420617084010376 -1.4833617514806283 1.950124093938739 -2.037558670612587 -1.570796325762734 1.2790244304880294 3487.6460000000034
4.420617081969589 -1.4718157770778832 1.968800149315372 -2.0677807006691 -1.5707963255617483 1.2790244284603693 3487.6960000000036
4.420617080144032 -1.4614874843728356 1.985506557954186 -2.094815402260869 -1.5707963253819595 1.279024426646554 3487.7460000000037
4.42061707865037 -1.4530369251268536 1.9991756608758027 -2.1169350646313045 -1.570796325234857 1.2790244251624991 3487.796000000004
4.420617077565039 -1.4468965470456616 2.0091079573695954 -2.133007739353675 -1.5707963251279689 1.2790244240841493 3487.846000000004
4.4206170769081545 -1.4431801521570822 2.015119368301187 -2.1427355452630503 -1.570796325063276 1.2790244234314903 3487.8960000000043
4.420617076627418 -1.4415918551887774 2.0176884994199558 -2.1468929733882476 -1.5707963250356278 1.2790244231525596 3487.9460000000045
4.420617076582026 -1.441335041945992 2.01810390466653 -2.147565191883771 -1.5707963250311574 1.279024423107459 3487.9960000000046
4.420617076582026 -1.441335041945992 2.01810390466653 -2.147565191883771 -1.5707963250311574 1.279024423107459 3488.046000000005
4.420617076582026 -1.441335041945992 2.01810390466653 -2.147565191883771 -1.5707963250311574 1.279024423107459 3488.096000000005
4.420617076582026 -1.441335041945992 2.01810390466653 -2.147565191883771 -1.5707963250311574 1.279024423107459 3488.146000000005
4.420617076582026 -1.441335041945992 2.01810390466653 -2.147565191883771 -1.5707963250311574 1.279024423107459 3488.1960000000054
4.420617076582026 -1.441335041945992 2.01810390466653 -2.147565191883771 -1.5707963250311574 1.279024423107459 3488.2460000000056
4.420617076582026 -1.441335041945992 2.01810390466653 -2.147565191883771 -1.5707963250311574 1.279024423107459 3488.2960000000057
4.420617076582026 -1.441335041945992 2.01810390466653 -2.147565191883771 -1.5707963250311574 1.279024423107459 3488.346000000006
4.420617076582026 -1.441335041945992 2.01810390466653 -2.147565191883771 -1.5707963250311574 1.279024423107459 3488.396000000006
4.420617076582026 -1.441335041945992 2.01810390466653 -2.147565191883771 -1.5707963250311574 1.279024423107459 3488.4460000000063
4.420617076582026 -1.441335041945992 2.01810390466653 -2.147565191883771 -1.5707963250311574 1.279024423107459 3488.4960000000065
4.420617076582026 -1.441335041945992 2.01810390466653 -2.147565191883771 -1.5707963250311574 1.279024423107459 3488.5460000000066
4.420617076582026 -1.441335041945992 2.01810390466653 -2.147565191883771 -1.5707963250311574 1.279024423107459 3488.596000000007
4.420617076582026 -1.441335041945992 2.01810390466653 -2.147565191883771 -1.5707963250311574 1.279024423107459 3488.646000000007
4.420617076582026 -1.441335041945992 2.01810390466653 -2.147565191883771 -1.5707963250311574 1.279024423107459 3488.696000000007
4.420617076627418 -1.4415918551887774 2.0176884994199558 -2.146892973388247 -1.5707963250356278 1.2790244231525596 3488.7460000000074
4.4206170769081545 -1.4431801521570822 2.015119368301187 -2.14273554526305 -1.570796325063276 1.2790244234314903 3488.7960000000076
4.420617077565039 -1.4468965470456616 2.009107957369595 -2.133007739353675 -1.5707963251279689 1.2790244240841493 3488.8460000000077
4.42061707865037 -1.4530369251268536 1.9991756608758027 -2.1169350646313045 -1.570796325234857 1.2790244251624991 3488.896000000008
4.420617080144032 -1.4614874843728354 1.985506557954186 -2.094815402260869 -1.5707963253819595 1.279024426646554 3488.946000000008
4.420617081969589 -1.4718157770778832 1.968800149315372 -2.0677807006691 -1.5707963255617483 1.2790244284603693 3488.9960000000083
4.420617084010376 -1.4833617514806283 1.950124093938739 -2.037558670612587 -1.570796325762734 1.2790244304880294 3489.0460000000085
4.420617086125587 -1.4953287933863155 1.9307669457649166 -2.0062344802458356 -1.5707963259710493 1.2790244325896354 3489.0960000000086
4.420617088166373 -1.5068747677890606 1.9120908903882836 -1.9760124501893226 -1.570796326172035 1.2790244346172954 3489.146000000009
4.42061708999193 -1.5172030604941082 1.8953844817494696 -1.9489777485975535 -1.5707963263518239 1.2790244364311107 3489.196000000009
4.4206170914855925 -1.5256536197400903 1.881715378827853 -1.926858086227118 -1.5707963264989264 1.2790244379151656 3489.246000000009
4.420617092570923 -1.5317939978212822 1.8717830823340604 -1.9107854115047478 -1.5707963266058145 1.2790244389935155 3489.2960000000094
4.420617093227808 -1.5355103927098617 1.8657716714024681 -1.9010576055953723 -1.5707963266705074 1.2790244396461745 3489.3460000000096
4.420617093508544 -1.5370986896781664 1.8632025402836996 -1.8969001774701753 -1.5707963266981555 1.2790244399251052 3489.3960000000097
4.420617093553936 -1.5373555029209518 1.8627871350371255 -1.8962279589746518 -1.570796326702626 1.2790244399702058 3489.44600000001
4.420617093553936 -1.5373555029209518 1.8627871350371255 -1.8962279589746518 -1.570796326702626 1.2790244399702058 3489.49600000001
4.420446323918154 -1.537345095200241 1.8627758083708894 -1.896227040029013 -1.5707963267029859 1.2790581880353424 3489.5460000000103
4.41930007187769 -1.5372752357603783 1.8626997807198076 -1.8962208718170317 -1.570796326705402 1.2792847141876498 3489.5960000000105
4.4163347257973875 -1.5370945098738749 1.8625030977136519 -1.8962049146954079 -1.5707963267116525 1.2798707357728845 3489.6460000000106
4.4108439641583 -1.5367598700922336 1.8621389110467286 -1.8961753678064748 -1.570796326723226 1.2809558384060162 3489.696000000011
4.402251529762107 -1.5362361958628445 1.861568999211323 -1.8961291301947452 -1.5707963267413378 1.2826539039570586 3489.746000000011
4.390104003935521 -1.5354958531458796 1.8607632882311456 -1.8960637619234557 -1.570796326766943 1.2850545385369003 3489.796000000011
4.374063580734701 -1.5345182540311877 1.8596993723947777 -1.895977445191114 -1.5707963268007537 1.2882245004831359 3489.8460000000114
4.353900841149655 -1.533289416355191 1.8583620349891166 -1.895868945448043 -1.5707963268432537 1.2922091283458956 3489.8960000000116
4.3294875273086575 -1.5318015233177786 1.8567427690328213 -1.8957375725129275 -1.5707963268947132 1.2970337688736782 3489.9460000000117
4.300789316682655 -1.5300524830992024 1.8548392980097583 -1.8955831416893592 -1.5707963269552048 1.30270520499918 3489.996000000012
4.267858596289677 -1.5280454884769727 1.8526550966024475 -1.895405934882382 -1.5707963270246177 1.3092130838251277 3490.046000000012
4.230827236899244 -1.5257885764427523 1.8501989114255066 -1.8952066617150387 -1.5707963271026741 1.316531344610107 3490.0960000000123
4.18989936723678 -1.523294187819253 1.847484281759098 -1.8949864206449158 -1.5707963271889438 1.3246196467543954 3490.1460000000125
4.145344148188023 -1.5205787268771294 1.8445290602823734 -1.8947466600806895 -1.5707963272828593 1.333424797785792 3490.1960000000126
4.097488547003429 -1.5176621209518752 1.8413549338069202 -1.894489139498671 -1.5707963273837318 1.342882181345449 3490.246000000013
4.046710111502587 -1.5145673800607176 1.8379869440102063 -1.8942158905593516 -1.570796327490765 1.352917185173702 3490.296000000013
3.993429744278629 -1.5113201565195127 1.834453008169027 -1.8939291782239498 -1.5707963276030719 1.363446629095902 3490.346000000013
3.938104476902636 -1.5079483045596414 1.8307834398929481 -1.893631461870956 -1.5707963277196892 1.3743801930082444 3490.3960000000134
3.881220244128052 -1.5044814399449031 1.8270104698577545 -1.8933253564126775 -1.5707963278395924 1.385621844863602 3490.4460000000136
3.8232846580950897 -1.5009504995884122 1.8231677665388937 -1.8930135934117855 -1.5707963279617119 1.3970712686573545 3490.4960000000137
3.7648197825351426 -1.4973873011694927 1.819289956944922 -1.8926989821978593 -1.5707963280849468 1.40862529241322 3490.546000000014
3.706354906975196 -1.493824102750573 1.8154121473509501 -1.8923843709839332 -1.570796328208182 1.4201793161690857 3490.596000000014
3.6484193209422333 -1.490293162394082 1.8115694440320893 -1.8920726079830412 -1.5707963283303015 1.431628739962838 3490.6460000000143
3.591535088167649 -1.4868262977793438 1.8077964739968957 -1.8917665025247627 -1.5707963284502047 1.4428703918181958 3490.6960000000145
3.536209820791657 -1.4834544458194725 1.804126905720817 -1.891468786171769 -1.570796328566822 1.4538039557305382 3490.7460000000146
3.482929453567698 -1.4802072222782676 1.8005929698796375 -1.8911820738363672 -1.5707963286791289 1.4643333996527381 3490.796000000015
3.4321510180668566 -1.4771124813871102 1.7972249800829236 -1.8909088248970478 -1.5707963287861622 1.4743684034809912 3490.846000000015
3.3842954168822623 -1.4741958754618558 1.7940508536074704 -1.8906513043150293 -1.5707963288870346 1.4838257870406482 3490.896000000015
3.339740197833505 -1.4714804145197322 1.7910956321307459 -1.890411543750803 -1.5707963289809501 1.4926309380720446 3490.9460000000154
3.298812328171041 -1.4689860258962328 1.7883810024643372 -1.89019130268068 -1.5707963290672198 1.5007192402163332 3490.9960000000156
3.2617809687806076 -1.4667291138620127 1.7859248172873963 -1.8899920295133368 -1.5707963291452762 1.5080375010013125 3491.0460000000157
3.22885024838763 -1.4647221192397828 1.7837406158800855 -1.8898148227063596 -1.5707963292146891 1.51454537982726 3491.096000000016
3.200152037761627 -1.4629730790212065 1.7818371448570225 -1.8896603918827912 -1.5707963292751808 1.5202168159527623 3491.146000000016
3.17573872392063 -1.4614851859837943 1.7802178789007275 -1.8895290189476757 -1.5707963293266403 1.5250414564805446 3491.1960000000163
3.1555759843355835 -1.4602563483077975 1.7788805414950661 -1.8894205192046047 -1.5707963293691403 1.5290260843433041 3491.2460000000165
3.139535561134764 -1.4592787491931056 1.7778166256586982 -1.889334202472263 -1.570796329402951 1.5321960462895396 3491.2960000000166
3.1273880353081767 -1.4585384064761406 1.7770109146785207 -1.8892688342009736 -1.570796329428556 1.5345966808693814 3491.346000000017
3.1187956009119873 -1.4580147322467516 1.7764410028431152 -1.889222596589244 -1.5707963294466678 1.5362947464204235 3491.396000000017
3.113304839272896 -1.4576800924651103 1.7760768161761917 -1.8891930497003109 -1.5707963294582414 1.5373798490535557 3491.446000000017
3.110339493192596 -1.457499366578607 1.7758801331700362 -1.889177092578687 -1.570796329464492 1.53796587063879 3491.4960000000174
3.109193241152129 -1.4574295071387442 1.7758041055189544 -1.8891709243667056 -1.570796329466908 1.5381923967910978 3491.5460000000176
3.1090224715163473 -1.4574190994180334 1.7757927788527184 -1.889170005421067 -1.570796329467268 1.5382261448562344 3491.5960000000177
3.109022471516349 -1.4574190994180334 1.7757927788527184 -1.889170005421067 -1.570796329467268 1.5382261448562344 3491.646000000018
3.1090224698636724 -1.4571760754861518 1.7761958426485922 -1.8898160932181485 -1.5707963293619338 1.5382261432102242 3491.696000000018
3.109022459642465 -1.455673060415563 1.778688646361035 -1.8938119124299357 -1.57079632871048 1.538226133030246 3491.7460000000183
3.109022435726255 -1.4521562133540495 1.7845214617350027 -1.9031615758686462 -1.5707963271861685 1.5382261092105072 3491.7960000000185
3.1090223962109254 -1.4463455362707873 1.7941586754186216 -1.9186094682931032 -1.5707963246676393 1.5382260698545704 3491.8460000000186
3.1090223418288283 -1.4383487207160932 1.8074216771626124 -1.9398692878729902 -1.5707963212015694 1.5382260156918348 3491.896000000019
3.1090222753629058 -1.4285749945811712 1.823631748019713 -1.9658530876531033 -1.5707963169653307 1.5382259494940163 3491.946000000019
3.1090222010608057 -1.4176489688578593 1.8417529485441035 -1.9949003170176056 -1.5707963122296493 1.5382258754916287 3491.996000000019
3.109022124048999 -1.4063244843983749 1.8605350069908277 -2.02500686315428 -1.5707963073212636 1.538225798790465 3492.0460000000194
3.109022049746899 -1.395398458675063 1.8786562075152182 -2.0540540925187822 -1.5707963025855822 1.5382257247880775 3492.0960000000196
3.1090219832809765 -1.385624732540141 1.894866278372319 -2.080037892298895 -1.5707962983493435 1.538225658590259 3492.1460000000197
3.1090219288988794 -1.377627916985447 1.9081292801163097 -2.1012977118787823 -1.5707962948832737 1.5382256044275233 3492.19600000002
3.1090218893835497 -1.3718172399021846 1.9177664937999288 -2.1167456043032393 -1.5707962923647445 1.5382255650715866 3492.24600000002
3.10902186546734 -1.3683003928406712 1.9235993091738965 -2.1260952677419502 -1.570796290840433 1.5382255412518477 3492.2960000000203
3.1090218552461324 -1.3667973777700824 1.926092112886339 -2.1300910869537373 -1.5707962901889791 1.5382255310718695 3492.3460000000205
3.1090218535934557 -1.3665543538382008 1.926495176682213 -2.130737174750819 -1.570796290083645 1.5382255294258593 3492.3960000000206
3.1090218535934557 -1.3665543538382008 1.926495176682213 -2.130737174750819 -1.570796290083645 1.5382255294258593 3492.446000000021
3.1090218535934557 -1.3665543538382008 1.926495176682213 -2.130737174750819 -1.570796290083645 1.5382255294258593 3492.496000000021
3.1090218535934557 -1.3665543538382008 1.926495176682213 -2.130737174750819 -1.570796290083645 1.5382255294258593 3492.546000000021
3.1090218535934557 -1.3665543538382008 1.926495176682213 -2.130737174750819 -1.570796290083645 1.5382255294258593 3492.5960000000214
3.1090218535934557 -1.3665543538382008 1.926495176682213 -2.130737174750819 -1.570796290083645 1.5382255294258593 3492.6460000000216
3.1090218535934557 -1.3665543538382008 1.926495176682213 -2.1307371747508186 -1.570796290083645 1.5382255294258593 3492.6960000000217
3.1090218552461324 -1.3667973777700824 1.926092112886339 -2.1300910869537373 -1.5707962901889791 1.5382255310718695 3492.746000000022
3.10902186546734 -1.3683003928406712 1.9235993091738963 -2.12609526774195 -1.570796290840433 1.5382255412518477 3492.796000000022
3.1090218893835497 -1.3718172399021846 1.9177664937999286 -2.1167456043032393 -1.5707962923647445 1.5382255650715866 3492.8460000000223
3.1090219288988794 -1.3776279169854468 1.9081292801163097 -2.1012977118787823 -1.5707962948832737 1.5382256044275233 3492.8960000000225
3.1090219832809765 -1.385624732540141 1.894866278372319 -2.0800378922988956 -1.5707962983493435 1.538225658590259 3492.9460000000227
3.109022049746899 -1.395398458675063 1.8786562075152182 -2.0540540925187822 -1.5707963025855822 1.5382257247880775 3492.996000000023
3.109022124048999 -1.4063244843983749 1.8605350069908277 -2.02500686315428 -1.5707963073212636 1.538225798790465 3493.046000000023
3.1090222010608057 -1.4176489688578593 1.8417529485441035 -1.9949003170176056 -1.5707963122296493 1.5382258754916287 3493.096000000023
3.1090222753629058 -1.4285749945811712 1.823631748019713 -1.9658530876531033 -1.5707963169653307 1.5382259494940163 3493.1460000000234
3.1090223418288283 -1.4383487207160932 1.8074216771626124 -1.9398692878729902 -1.5707963212015694 1.5382260156918348 3493.1960000000236
3.1090223962109254 -1.4463455362707873 1.7941586754186216 -1.9186094682931034 -1.5707963246676393 1.5382260698545704 3493.2460000000237
3.109022435726255 -1.4521562133540495 1.7845214617350025 -1.903161575868646 -1.5707963271861685 1.5382261092105072 3493.296000000024
3.109022459642465 -1.4556730604155632 1.7786886463610347 -1.8938119124299353 -1.57079632871048 1.538226133030246 3493.346000000024
3.1090224698636724 -1.4571760754861518 1.7761958426485922 -1.8898160932181483 -1.5707963293619338 1.5382261432102242 3493.3960000000243
3.109022471516349 -1.4574190994180334 1.7757927788527184 -1.8891700054210667 -1.570796329467268 1.5382261448562344 3493.4460000000245
3.109022471516349 -1.4574190994180334 1.7757927788527184 -1.8891700054210667 -1.570796329467268 1.5382261448562344 3493.4960000000247
3.109022471516349 -1.4574190994180334 1.7757927788527184 -1.8891700054210667 -1.570796329467268 1.5382261448562344 3493.546000000025
3.109022471516349 -1.4574190994180334 1.7757927788527184 -1.8891700054210667 -1.570796329467268 1.5382261448562344 3493.596000000025
3.109022471516349 -1.4574190994180334 1.7757927788527184 -1.8891700054210667 -1.570796329467268 1.5382261448562344 3493.646000000025
3.109022471516349 -1.4574190994180334 1.7757927788527184 -1.8891700054210667 -1.570796329467268 1.5382261448562344 3493.6960000000254
3.109022471516349 -1.4574190994180334 1.7757927788527184 -1.8891700054210667 -1.570796329467268 1.5382261448562344 3493.7460000000256
3.109022471516349 -1.4574190994180334 1.7757927788527184 -1.8891700054210667 -1.570796329467268 1.5382261448562344 3493.7960000000257
3.109022471516349 -1.4574190994180334 1.7757927788527184 -1.8891700054210667 -1.570796329467268 1.5382261448562344 3493.846000000026
3.109022471516349 -1.4574190994180334 1.7757927788527184 -1.8891700054210667 -1.570796329467268 1.5382261448562344 3493.896000000026
3.109022471516349 -1.4574190994180334 1.7757927788527184 -1.8891700054210667 -1.570796329467268 1.5382261448562344 3493.9460000000263
3.109022471516349 -1.4574190994180334 1.7757927788527184 -1.8891700054210667 -1.570796329467268 1.5382261448562344 3493.9960000000265
3.109022471516349 -1.4574190994180334 1.7757927788527184 -1.8891700054210667 -1.570796329467268 1.5382261448562344 3494.0460000000267
3.109022471516349 -1.4574190994180334 1.7757927788527184 -1.8891700054210667 -1.570796329467268 1.5382261448562344 3494.096000000027
3.109022471516349 -1.4574190994180334 1.7757927788527184 -1.8891700054210667 -1.570796329467268 1.5382261448562344 3494.146000000027
3.109022471516349 -1.4574190994180334 1.7757927788527184 -1.8891700054210667 -1.570796329467268 1.5382261448562344 3494.196000000027
3.109022471516349 -1.4574190994180334 1.7757927788527184 -1.8891700054210667 -1.570796329467268 1.5382261448562344 3494.2460000000274
3.109022471516349 -1.4574190994180334 1.7757927788527184 -1.8891700054210667 -1.570796329467268 1.5382261448562344 3494.2960000000276
3.109022471516349 -1.4574190994180334 1.7757927788527184 -1.8891700054210667 -1.570796329467268 1.5382261448562344 3494.3460000000277
3.109022471516349 -1.4574190994180334 1.7757927788527184 -1.8891700054210667 -1.570796329467268 1.5382261448562344 3494.396000000028
3.109022471516349 -1.4574190994180334 1.7757927788527184 -1.8891700054210667 -1.570796329467268 1.5382261448562344 3494.446000000028
3.109022471516349 -1.4574190994180334 1.7757927788527184 -1.8891700054210667 -1.570796329467268 1.5382261448562344 3494.4960000000283
3.109022471516349 -1.4574190994180334 1.7757927788527184 -1.8891700054210667 -1.570796329467268 1.5382261448562344 3494.5460000000285
3.109022471516349 -1.4574190994180334 1.7757927788527184 -1.8891700054210667 -1.570796329467268 1.5382261448562344 3494.5960000000287
3.109022471516349 -1.4574190994180334 1.7757927788527184 -1.8891700054210667 -1.570796329467268 1.5382261448562344 3494.646000000029
3.109022471516349 -1.4574190994180334 1.7757927788527184 -1.8891700054210667 -1.570796329467268 1.5382261448562344 3494.696000000029
3.109022471516349 -1.4574190994180334 1.7757927788527184 -1.8891700054210667 -1.570796329467268 1.5382261448562344 3494.746000000029
3.109022471516349 -1.4574190994180334 1.7757927788527184 -1.8891700054210667 -1.570796329467268 1.5382261448562344 3494.7960000000294
3.109022471516349 -1.4574190994180334 1.7757927788527184 -1.8891700054210667 -1.570796329467268 1.5382261448562344 3494.8460000000296
3.109022471516349 -1.4574190994180334 1.7757927788527184 -1.8891700054210667 -1.570796329467268 1.5382261448562344 3494.8960000000297
3.109022471516349 -1.4574190994180334 1.7757927788527184 -1.8891700054210667 -1.570796329467268 1.5382261448562344 3494.94600000003
3.109022471516349 -1.4574190994180334 1.7757927788527184 -1.8891700054210667 -1.570796329467268 1.5382261448562344 3494.99600000003
3.109022471516349 -1.4574190994180334 1.7757927788527184 -1.8891700054210667 -1.570796329467268 1.5382261448562344 3495.0460000000303
3.109022471516349 -1.4574190994180334 1.7757927788527184 -1.889170005421067 -1.570796329467268 1.5382261448562344 3495.0960000000305
3.109200604997839 -1.4574328335872855 1.7758076320497351 -1.8891711244489653 -1.5707963294668388 1.5384042783377054 3495.1460000000307
3.1103937038827545 -1.457524822032595 1.7759071154969233 -1.889178619451739 -1.5707963294639649 1.539597377222495 3495.196000000031
3.1134724322731455 -1.457762193336636 1.776163827255776 -1.8891979599088602 -1.5707963294565486 1.542676105612561 3495.246000000031
3.1191576029196337 -1.4582005224774153 1.7766378704226216 -1.889233673939191 -1.5707963294428535 1.548361276258449 3495.296000000031
3.1280285022964915 -1.458884472695198 1.7773775472933537 -1.8892894005987952 -1.5707963294214846 1.5572321756343703 3495.3460000000314
3.140531215676721 -1.4598484373594336 1.7784200535281642 -1.8893679421787486 -1.570796329391367 1.5697348890132803 3495.3960000000316
