Andreas691667/Digital_Twin_UR/src/dt/dt_trajectories/vis_dt_trajectory.csv
actual_q_0 actual_q_1 actual_q_2 actual_q_3 actual_q_4 actual_q_5 timestamp
3.71207804710797 -0.8254843255005873 0.8429764792549035 -1.5882884806323445 -1.570796326807946 2.141281720311417 12596.088
3.71207804710797 -0.8254843255005873 0.8429764792549035 -1.5882884806323445 -1.570796326807946 2.141281720311417 12596.137999999999
3.71207804710797 -0.8254843255005873 0.8429764792549035 -1.5882884806323445 -1.570796326807946 2.141281720311417 12596.187999999998
3.71207804710797 -0.8254843255005873 0.8429764792549035 -1.5882884806323445 -1.570796326807946 2.141281720311417 12596.237999999998
3.71207804710797 -0.8254843255005873 0.8429764792549035 -1.5882884806323445 -1.570796326807946 2.141281720311417 12596.287999999997
3.71207804710797 -0.8254843255005873 0.8429764792549035 -1.5882884806323445 -1.570796326807946 2.141281720311417 12596.337999999996
3.71207804710797 -0.8254843255005873 0.8429764792549035 -1.5882884806323445 -1.570796326807946 2.141281720311417 12596.387999999995
3.71207804710797 -0.8254843255005873 0.8429764792549035 -1.5882884806323445 -1.570796326807946 2.141281720311417 12596.437999999995
3.71207804710797 -0.8254843255005873 0.8429764792549035 -1.5882884806323445 -1.570796326807946 2.141281720311417 12596.487999999994
3.71207804710797 -0.8254843255005873 0.8429764792549035 -1.5882884806323445 -1.570796326807946 2.141281720311417 12596.537999999993
3.71207804710797 -0.8254843255005873 0.8429764792549035 -1.5882884806323445 -1.570796326807946 2.141281720311417 12596.587999999992
3.71207804710797 -0.8254843255005873 0.8429764792549035 -1.5882884806323445 -1.570796326807946 2.141281720311417 12596.637999999992
3.71207804710797 -0.8254843255005873 0.8429764792549035 -1.5882884806323445 -1.570796326807946 2.141281720311417 12596.687999999991
3.712246594841125 -0.8256230895483581 0.8431690552513676 -1.5883422925821487 -1.5707963268076859 2.1414502680445837 12596.73799999999
3.713372789106565 -0.8265502765945612 0.8444558004292413 -1.588701850721241 -1.5707963268059482 2.1425764623100987 12596.78799999999
3.716270702336984 -0.8289361061896146 0.8477668418628275 -1.5896270625788713 -1.5707963268014768 2.1454743755407115 12596.837999999989
3.721605731247736 -0.833328394313403 0.8538624356119638 -1.591330368239378 -1.5707963267932452 2.150809404451821 12596.887999999988
3.7299033424672667 -0.8401597535853099 0.8633429591346384 -1.5939795325448283 -1.5707963267804423 2.1591070156719074 12596.937999999987
3.7415578181675433 -0.8497547934742485 0.8766589036996052 -1.5977004372976613 -1.57079632676246 2.170761491372965 12596.987999999987
3.756841001694489 -0.862337320508693 0.894120866798999 -1.6025798734633294 -1.570796326738879 2.1860446749009346 12597.037999999986
3.775911043198412 -0.8780375384867105 0.9159095445609526 -1.6086683333729401 -1.5707963267094547 2.2051147164061353 12597.087999999985
3.7988211452644394 -0.8968992486859914 0.9420857241622107 -1.6159828029258985 -1.5707963266741056 2.2280248184736973 12597.137999999984
3.825528308542948 -0.9188870500738817 0.9726002762407466 -1.6245095537925485 -1.5707963266328977 2.2547319817539946 12597.187999999984
3.855902077379996 -0.943893539517414 1.0073041473083775 -1.634206935616815 -1.5707963265860325 2.2851057505930776 12597.237999999983
3.8897332854477566 -0.9717465119933382 1.0459583521633797 -1.645008168218846 -1.5707963265338327 2.318936958663105 12597.287999999982
3.926742801374947 -1.0022161607981541 1.0882439663031052 -1.6568241337976544 -1.5707963264767288 2.3559464745927743 12597.337999999982
3.9665902743772627 -1.035022277758142 1.1337721183365967 -1.6695461691337592 -1.570796326415246 2.395793947597759 12597.38799999998
4.008882879887808 -1.0698414534393936 1.1820939823972028 -1.6830488577918286 -1.5707963263499907 2.4380865531111375 12597.43799999998
4.053184065187526 -1.1063142773578443 1.232710770555194 -1.697192822323321 -1.5707963262816362 2.482387738413824 12597.48799999998
4.099022295035637 -1.144052538189304 1.285083725230379 -1.7118275164691275 -1.5707963262109101 2.528225968265006 12597.537999999979
4.145899797300063 -1.1826464239794887 1.3386441116047192 -1.7267940173622132 -1.5707963261385804 2.575103470532572 12597.587999999978
4.193301308587863 -1.2216717223540519 1.3928032100349448 -1.741927817730259 -1.5707963260654423 2.622504981823546 12597.637999999977
4.240702819875661 -1.2606970207286148 1.4469623084651702 -1.7570616180983052 -1.570796325992304 2.6699064931145204 12597.687999999976
4.287580322140086 -1.2992909065187992 1.50052269483951 -1.7720281189913907 -1.5707963259199742 2.716783995382086 12597.737999999976
4.333418551988198 -1.3370291673502592 1.5528956495146953 -1.7866628131371973 -1.570796325849248 2.762622225233268 12597.787999999975
4.377719737287917 -1.37350199126871 1.6035124376726868 -1.8008067776686896 -1.5707963257808937 2.8069234105359553 12597.837999999974
4.4200123427984614 -1.4083211669499613 1.6518343017332924 -1.8143094663267592 -1.5707963257156383 2.849216016049333 12597.887999999974
4.459859815800777 -1.4411272839099487 1.697362453766783 -1.8270315016628638 -1.5707963256541555 2.8890634890543176 12597.937999999973
4.496869331727968 -1.4715969327147649 1.7396480679065087 -1.8388474672416721 -1.5707963255970516 2.926073004983987 12597.987999999972
4.5307005397957285 -1.4994499051906893 1.7783022727615116 -1.8496486998437032 -1.5707963255448518 2.9599042130540143 12598.037999999971
4.561074308632777 -1.5244563946342218 1.8130061438291425 -1.8593460816679699 -1.5707963254979866 2.9902779818930973 12598.08799999997
4.587781471911284 -1.5464441960221116 1.8435206959076778 -1.8678728325346197 -1.5707963254567787 3.0169851451733942 12598.13799999997
4.610691573977313 -1.5653059062213932 1.8696968755089367 -1.8751873020875782 -1.5707963254214297 3.0398952472409575 12598.18799999997
4.629761615481234 -1.58100612419941 1.8914855532708896 -1.881275761997189 -1.5707963253920054 3.0589652887461574 12598.237999999968
4.64504479900818 -1.5935886512338544 1.9089475163702825 -1.8861551981628566 -1.5707963253684243 3.0742484722741263 12598.287999999968
4.6566992747084575 -1.6031836911227928 1.9222634609352498 -1.8898761029156899 -1.570796325350442 3.0859029479751845 12598.337999999967
4.664996885927988 -1.6100150503947002 1.931743984457925 -1.8925252672211401 -1.5707963253376391 3.094200559195271 12598.387999999966
4.670331914838741 -1.6144073385184887 1.9378395782070605 -1.8942285728816466 -1.5707963253294075 3.099535588106381 12598.437999999966
4.673229828069159 -1.6167931681135417 1.9411506196406465 -1.8951537847392772 -1.5707963253249362 3.102433501336994 12598.487999999965
4.674356022334599 -1.617720355159745 1.9424373648185207 -1.8955133428783695 -1.5707963253231985 3.103559695602509 12598.537999999964
4.674524570067754 -1.6178591192075156 1.9426299408149843 -1.8955671548281736 -1.5707963253229384 3.1037282433356754 12598.587999999963
4.674524570067755 -1.6178591192075162 1.942629940814986 -1.8955671548281738 -1.5707963253229384 3.1037282433356754 12598.637999999963
4.6745245691269055 -1.617636283155423 1.942987154031751 -1.896147204327628 -1.5707963253111776 3.1037282423954453 12598.687999999962
4.674524563259337 -1.6162465756009667 1.9452148990542746 -1.8997646583427097 -1.5707963252378325 3.1037282365317402 12598.737999999961
4.674524549382818 -1.612959983338236 1.9504834100664554 -1.9083197650186645 -1.5707963250643748 3.103728222664357 12598.78799999996
4.674524526162523 -1.6074603589158516 1.959299481399903 -1.9226354664656375 -1.570796324774119 3.103728199459349 12598.83799999996
4.674524493719799 -1.5997764430112116 1.9716170408426528 -1.9426369497645248 -1.570796324368582 3.1037281670379833 12598.887999999959
4.674524453340934 -1.5902128868047356 1.9869477229478814 -1.9675311979728225 -1.5707963238638425 3.1037281266857004 12598.937999999958
4.674524407185914 -1.5792812743541103 2.00447144234262 -1.9959865411304771 -1.5707963232869007 3.103728080561068 12598.987999999958
4.674524357997202 -1.5676311449685323 2.0231469670364715 -2.0263122072657347 -1.5707963226720372 3.1037280314047386 12599.037999999957
4.67452430880849 -1.5559810155829543 2.041822491730323 -2.0566378734009927 -1.5707963220571737 3.1037279822484094 12599.087999999956
4.67452426265347 -1.545049403132329 2.0593462111250616 -2.085093216558647 -1.5707963214802318 3.103727936123777 12599.137999999955
4.674524222274605 -1.535485846925853 2.07467689323029 -2.1099874647669448 -1.5707963209754923 3.103727895771494 12599.187999999955
4.674524189831881 -1.527801931021213 2.0869944526730397 -2.129988948065832 -1.5707963205699553 3.1037278633501284 12599.237999999954
4.674524166611586 -1.5223023065988286 2.0958105240064877 -2.1443046495128053 -1.5707963202796995 3.1037278401451203 12599.287999999953
4.674524152735067 -1.5190157143360976 2.1010790350186683 -2.15285975618876 -1.5707963201062418 3.103727826277737 12599.337999999952
4.6745241468674985 -1.5176260067816416 2.103306780041192 -2.156477210203842 -1.5707963200328967 3.103727820414032 12599.387999999952
4.674524145926649 -1.5174031707295483 2.103663993257957 -2.157057259703296 -1.570796320021136 3.103727819473802 12599.437999999951
4.674524145926649 -1.5174031707295483 2.103663993257957 -2.157057259703296 -1.570796320021136 3.103727819473802 12599.48799999995
4.674524145926649 -1.5174031707295483 2.103663993257957 -2.157057259703296 -1.570796320021136 3.103727819473802 12599.53799999995
4.674524145926649 -1.5174031707295483 2.103663993257957 -2.157057259703296 -1.570796320021136 3.103727819473802 12599.587999999949
4.674524145926649 -1.5174031707295483 2.103663993257957 -2.157057259703296 -1.570796320021136 3.103727819473802 12599.637999999948
4.674524145926649 -1.5174031707295483 2.103663993257957 -2.157057259703296 -1.570796320021136 3.103727819473802 12599.687999999947
4.674524145926649 -1.5174031707295483 2.103663993257957 -2.157057259703296 -1.570796320021136 3.103727819473802 12599.737999999947
4.674524145926649 -1.5174031707295483 2.103663993257957 -2.157057259703296 -1.570796320021136 3.103727819473802 12599.787999999946
4.674524145926649 -1.5174031707295483 2.103663993257957 -2.157057259703296 -1.570796320021136 3.103727819473802 12599.837999999945
4.674524145926649 -1.5174031707295483 2.103663993257957 -2.157057259703296 -1.570796320021136 3.103727819473802 12599.887999999944
4.674524145926649 -1.5174031707295483 2.103663993257957 -2.157057259703296 -1.570796320021136 3.103727819473802 12599.937999999944
4.674524145926649 -1.5174031707295483 2.103663993257957 -2.157057259703296 -1.570796320021136 3.103727819473802 12599.987999999943
4.674524145926649 -1.5174031707295483 2.103663993257957 -2.157057259703296 -1.570796320021136 3.103727819473802 12600.037999999942
4.674524145926649 -1.5174031707295483 2.103663993257957 -2.157057259703296 -1.570796320021136 3.103727819473802 12600.087999999942
4.674524145926649 -1.5174031707295483 2.103663993257957 -2.1570572597032958 -1.570796320021136 3.103727819473802 12600.13799999994
4.6745241468674985 -1.5176260067816416 2.103306780041192 -2.1564772102038416 -1.5707963200328967 3.103727820414032 12600.18799999994
4.674524152735067 -1.5190157143360978 2.1010790350186683 -2.15285975618876 -1.5707963201062418 3.103727826277737 12600.23799999994
4.674524166611586 -1.5223023065988286 2.0958105240064877 -2.144304649512805 -1.5707963202796995 3.1037278401451203 12600.287999999939
4.674524189831881 -1.527801931021213 2.0869944526730397 -2.129988948065832 -1.5707963205699553 3.1037278633501284 12600.337999999938
4.674524222274605 -1.535485846925853 2.07467689323029 -2.1099874647669448 -1.5707963209754923 3.103727895771494 12600.387999999937
4.67452426265347 -1.545049403132329 2.0593462111250616 -2.085093216558647 -1.5707963214802318 3.103727936123777 12600.437999999936
4.67452430880849 -1.5559810155829543 2.041822491730323 -2.0566378734009927 -1.5707963220571737 3.1037279822484094 12600.487999999936
4.674524357997202 -1.5676311449685323 2.0231469670364715 -2.0263122072657347 -1.5707963226720372 3.1037280314047386 12600.537999999935
4.674524407185914 -1.5792812743541103 2.00447144234262 -1.995986541130477 -1.5707963232869007 3.103728080561068 12600.587999999934
4.674524453340934 -1.5902128868047356 1.9869477229478814 -1.9675311979728225 -1.5707963238638425 3.1037281266857004 12600.637999999934
4.674524493719799 -1.5997764430112116 1.9716170408426528 -1.9426369497645248 -1.570796324368582 3.1037281670379833 12600.687999999933
4.674524526162523 -1.6074603589158516 1.959299481399903 -1.9226354664656375 -1.570796324774119 3.103728199459349 12600.737999999932
4.674524549382818 -1.612959983338236 1.9504834100664554 -1.9083197650186643 -1.5707963250643748 3.103728222664357 12600.787999999931
4.674524563259337 -1.616246575600967 1.9452148990542746 -1.8997646583427097 -1.5707963252378325 3.1037282365317402 12600.83799999993
4.6745245691269055 -1.617636283155423 1.9429871540317507 -1.8961472043276277 -1.5707963253111776 3.1037282423954453 12600.88799999993
4.674524570067755 -1.6178591192075162 1.942629940814986 -1.8955671548281736 -1.5707963253229384 3.1037282433356754 12600.93799999993
4.674524570067755 -1.6178591192075162 1.942629940814986 -1.8955671548281738 -1.5707963253229384 3.1037282433356754 12600.987999999928
4.674387678563113 -1.6178228572306388 1.9425863193385706 -1.895559795328104 -1.570796325323065 3.103591351831028 12601.037999999928
4.673463165519583 -1.6175779576607565 1.942291716514023 -1.8955100920698469 -1.5707963253239203 3.102666838787464 12601.087999999927
4.671054254883728 -1.616939847487261 1.9415240995697598 -1.895380585289721 -1.5707963253261488 3.1002579281515192 12601.137999999926
4.6665594260625785 -1.61574918646555 1.9400917895814518 -1.8951389363056612 -1.5707963253303066 3.095763099330202 12601.187999999926
4.6594681803476155 -1.6138707456607628 1.937832112412146 -1.8947576999135933 -1.5707963253368664 3.088671853614974 12601.237999999925
4.649356807338748 -1.6111922859915113 1.9346100496523886 -1.8942140967838048 -1.57079632534622 3.0785604806057285 12601.287999999924
4.635884151368291 -1.607623436773614 1.9303168895603455 -1.893489785857318 -1.570796325358683 3.0650878246347686 12601.337999999923
4.618787377924949 -1.6030945742638283 1.9248688780019259 -1.8925706367422634 -1.5707963253744983 3.047991051190788 12601.387999999923
4.59787774007779 -1.5975557002035843 1.9182058693909032 -1.8914465021102513 -1.570796325393841 3.027081413342848 12601.437999999922
4.573036344900228 -1.5909753203627175 1.9102899776290378 -1.8901109900927444 -1.5707963254168207 3.0022400181643567 12601.487999999921
4.544209919893998 -1.5833393230832014 1.9011042270461982 -1.8885612366774307 -1.5707963254434867 2.9734135931570504 12601.53799999992
4.511406579413141 -1.574649857822881 1.890651203340484 -1.8867976781045963 -1.5707963254738315 2.9406102526749685 12601.58799999992
4.47469159108798 -1.564924213699206 1.8789517045183475 -1.8848238232634975 -1.5707963255077948 2.903895264348436 12601.637999999919
4.434183142249098 -1.5541936980329631 1.8660433918347152 -1.8826460260887334 -1.5707963255452675 2.86338681550804 12601.687999999918
4.390048106351317 -1.5425025148920095 1.8519794407331107 -1.8802732579566188 -1.5707963255860948 2.8192517796086114 12601.737999999918
4.342497809397682 -1.5299066436350057 1.8368271917857768 -1.8777168800815565 -1.5707963256300814 2.7717014826532 12601.787999999917
4.2917837963634335 -1.516472717455149 1.8206668016337961 -1.8749904159124096 -1.5707963256769946 2.720987469617057 12601.837999999916
4.238193597619991 -1.5022769019239057 1.803589893927215 -1.8721093235288746 -1.5707963257265685 2.667397270871612 12601.887999999915
4.182046495358929 -1.4874037735347445 1.785698210265164 -1.8690907680378543 -1.5707963257785076 2.611250168608453 12601.937999999915
4.12368929001596 -1.4719451982468699 1.7671022611359808 -1.8659533939698287 -1.5707963258324913 2.552892963263304 12601.987999999914
4.06349206669491 -1.4559992100289545 1.7479199768573317 -1.8627170976752299 -1.570796325888177 2.4926957399400056 12602.037999999913
4.0018439615917005 -1.4396688894028726 1.7282753585163344 -1.8594027997208127 -1.5707963259452047 2.431047634834493 12602.087999999912
3.9391489284183234 -1.423061241987433 1.7082971289096789 -1.8560322172860277 -1.5707963260032012 2.368352601658774 12602.137999999912
3.8758215048268254 -1.4062860770421115 1.6881173834837506 -1.852627636559395 -1.5707963260617825 2.305025178064911 12602.187999999911
3.8122825788332837 -1.389454886010785 1.667870241274752 -1.8492116851348748 -1.5707963261205593 2.2414862520689955 12602.23799999991
3.748955155241786 -1.3726797210654638 1.6476904958488237 -1.845807104408242 -1.5707963261791407 2.1781588284751328 12602.28799999991
3.6862601220684095 -1.3560720736500238 1.6277122662421681 -1.842436521973457 -1.5707963262371372 2.1154637952994135 12602.337999999909
3.6246120169651994 -1.339741753023942 1.6080676479011708 -1.83912222401904 -1.5707963262941649 2.0538156901939004 12602.387999999908
3.5644147936441497 -1.3237957648060266 1.5888853636225218 -1.8358859277244408 -1.5707963263498506 1.993618466870602 12602.437999999907
3.5060575883011804 -1.308337189518152 1.5702894144933386 -1.8327485536564154 -1.5707963264038343 1.9352612615254532 12602.487999999907
3.4499104860401184 -1.2934640611289907 1.5523977308312875 -1.8297299981653952 -1.5707963264557734 1.8791141592622937 12602.537999999906
3.3963202872966756 -1.2792682455977475 1.5353208231247062 -1.8268489057818602 -1.5707963265053473 1.8255239605168494 12602.587999999905
3.345606274262427 -1.2658343194178907 1.5191604329727255 -1.8241224416127133 -1.5707963265522604 1.7748099474807064 12602.637999999904
3.298055977308792 -1.2532384481608871 1.5040081840253916 -1.821566063737651 -1.570796326596247 1.7272596505252953 12602.687999999904
3.253920941411012 -1.2415472650199333 1.4899442329237873 -1.8191932956055363 -1.5707963266370744 1.6831246146258658 12602.737999999903
3.2134124925721297 -1.2308167493536906 1.477035920240155 -1.8170154984307723 -1.570796326674547 1.6426161657854705 12602.787999999902
3.1766975042469694 -1.2210911052300155 1.4653364214180185 -1.8150416435896735 -1.5707963267085103 1.6059011774589382 12602.837999999902
3.143894163766112 -1.2124016399696953 1.4548833977123041 -1.813278085016839 -1.5707963267388552 1.5730978369768562 12602.8879999999
3.115067738759882 -1.2047656426901792 1.4456976471294647 -1.8117283316015254 -1.5707963267655212 1.5442714119695495 12602.9379999999
3.0902263435823194 -1.1981852628493121 1.437781755367599 -1.8103928195840184 -1.5707963267885008 1.5194300167910586 12602.9879999999
3.0693167057351585 -1.192646388789068 1.4311187467565762 -1.809268684952006 -1.5707963268078435 1.498520378943117 12603.037999999899
3.0522199322918175 -1.1881175262792825 1.425670735198157 -1.8083495358369517 -1.5707963268236589 1.4814236054991383 12603.087999999898
3.038747276321364 -1.1845486770613856 1.421377575106114 -1.807625224910465 -1.5707963268361218 1.4679509495281782 12603.137999999897
3.0286359033124945 -1.181870217392134 1.4181555123463565 -1.8070816217806764 -1.5707963268454754 1.4578395765189338 12603.187999999896
3.0215446575975333 -1.179991776587347 1.4158958351770514 -1.8067003853886086 -1.5707963268520353 1.4507483308037068 12603.237999999896
3.0170498287763827 -1.1788011155656357 1.4144635251887425 -1.8064587364045488 -1.570796326856193 1.4462535019823883 12603.287999999895
3.0146409181405245 -1.1781630053921401 1.4136959082444793 -1.8063292296244227 -1.5707963268584215 1.443844591346442 12603.337999999894
3.0137164050969982 -1.177918105822258 1.4134013054199321 -1.8062795263661657 -1.5707963268592768 1.4429200783028802 12603.387999999894
3.013579513592356 -1.1778818438453806 1.4133576839435165 -1.806272166866096 -1.5707963268594034 1.4427831867982324 12603.437999999893
3.0135795135923544 -1.1778818438453802 1.4133576839435165 -1.806272166866096 -1.5707963268594034 1.4427831867982306 12603.487999999892
3.0135795136129113 -1.1776557011161803 1.413832186322794 -1.8069728119738422 -1.5707963268604985 1.4427831868189298 12603.537999999891
3.0135795137388284 -1.1762705125083937 1.4167386485047477 -1.8112644627591037 -1.570796326867206 1.4427831869457182 12603.58799999989
3.0135795140298094 -1.1730694853574875 1.423455181044227 -1.8211820224391388 -1.5707963268827065 1.442783187238713 12603.63799999989
3.013579514503415 -1.1678594453503641 1.4343871105750112 -1.8373239919602002 -1.5707963269079355 1.4427831877155957 12603.68799999989
3.013579515143489 -1.1608181128550734 1.4491615365940236 -1.8591397504517355 -1.5707963269420322 1.4427831883600994 12603.737999999888
3.0135795159085905 -1.1524013792505263 1.4668218882455446 -1.885216835680589 -1.570796326982789 1.4427831891304956 12603.787999999888
3.0135795167404202 -1.1432505832562074 1.4860224811054272 -1.913568224505202 -1.5707963270271004 1.4427831899680816 12603.837999999887
3.01357951757225 -1.1340997872618888 1.5052230739653099 -1.9419196133298149 -1.5707963270714118 1.4427831908056676 12603.887999999886
3.0135795183373513 -1.1256830536573417 1.5228834256168309 -1.967996698558668 -1.5707963271121685 1.4427831915760638 12603.937999999886
3.0135795189774255 -1.118641721162051 1.5376578516358432 -1.9898124570502036 -1.5707963271462653 1.4427831922205676 12603.987999999885
3.013579519451031 -1.1134316811549276 1.5485897811666274 -2.005954426571265 -1.5707963271714942 1.4427831926974504 12604.037999999884
3.013579519742012 -1.1102306540040214 1.5553063137061067 -2.0158719862513004 -1.5707963271869947 1.442783192990445 12604.087999999883
3.013579519867929 -1.1088454653962347 1.5582127758880602 -2.020163637036562 -1.5707963271937022 1.4427831931172335 12604.137999999883
3.013579519888486 -1.108619322667035 1.558687278267338 -2.020864282144308 -1.5707963271947973 1.4427831931379327 12604.187999999882
3.013579519888486 -1.108619322667035 1.558687278267338 -2.020864282144308 -1.5707963271947973 1.4427831931379327 12604.237999999881
3.013579519888486 -1.108619322667035 1.558687278267338 -2.020864282144308 -1.5707963271947973 1.4427831931379327 12604.28799999988
3.013579519888486 -1.108619322667035 1.558687278267338 -2.020864282144308 -1.5707963271947973 1.4427831931379327 12604.33799999988
3.013579519888486 -1.108619322667035 1.558687278267338 -2.020864282144308 -1.5707963271947973 1.4427831931379327 12604.387999999879
3.013579519888486 -1.108619322667035 1.558687278267338 -2.020864282144308 -1.5707963271947973 1.4427831931379327 12604.437999999878
3.013579519888486 -1.108619322667035 1.558687278267338 -2.020864282144308 -1.5707963271947973 1.4427831931379327 12604.487999999878
3.013579519867929 -1.1088454653962347 1.5582127758880604 -2.0201636370365614 -1.5707963271937022 1.4427831931172335 12604.537999999877
3.013579519742012 -1.1102306540040214 1.5553063137061067 -2.0158719862513004 -1.5707963271869947 1.442783192990445 12604.587999999876
3.013579519451031 -1.1134316811549276 1.5485897811666274 -2.005954426571265 -1.5707963271714942 1.4427831926974504 12604.637999999875
3.0135795189774255 -1.118641721162051 1.5376578516358432 -1.9898124570502036 -1.5707963271462653 1.4427831922205676 12604.687999999875
3.0135795183373513 -1.1256830536573417 1.5228834256168309 -1.9679966985586683 -1.5707963271121685 1.4427831915760638 12604.737999999874
3.01357951757225 -1.1340997872618888 1.5052230739653099 -1.9419196133298149 -1.5707963270714118 1.4427831908056676 12604.787999999873
3.0135795167404202 -1.1432505832562074 1.4860224811054272 -1.913568224505202 -1.5707963270271004 1.4427831899680816 12604.837999999872
3.0135795159085905 -1.1524013792505263 1.4668218882455446 -1.885216835680589 -1.570796326982789 1.4427831891304956 12604.887999999872
3.013579515143489 -1.1608181128550734 1.4491615365940236 -1.8591397504517357 -1.5707963269420322 1.4427831883600994 12604.937999999871
3.013579514503415 -1.1678594453503641 1.4343871105750112 -1.8373239919602002 -1.5707963269079355 1.4427831877155957 12604.98799999987
3.0135795140298094 -1.1730694853574875 1.423455181044227 -1.8211820224391388 -1.5707963268827065 1.442783187238713 12605.03799999987
3.0135795137388284 -1.1762705125083937 1.4167386485047477 -1.8112644627591035 -1.570796326867206 1.4427831869457182 12605.087999999869
3.0135795136129113 -1.1776557011161803 1.4138321863227943 -1.8069728119738422 -1.5707963268604985 1.4427831868189298 12605.137999999868
3.0135795135923544 -1.1778818438453802 1.4133576839435165 -1.806272166866096 -1.5707963268594034 1.4427831867982306 12605.187999999867
3.0135795135923544 -1.1778818438453802 1.4133576839435165 -1.806272166866096 -1.5707963268594034 1.4427831867982306 12605.237999999867
3.0135795135923544 -1.1778818438453802 1.4133576839435165 -1.806272166866096 -1.5707963268594034 1.4427831867982306 12605.287999999866
3.0135795135923544 -1.1778818438453802 1.4133576839435165 -1.806272166866096 -1.5707963268594034 1.4427831867982306 12605.337999999865
3.0135795135923544 -1.1778818438453802 1.4133576839435165 -1.806272166866096 -1.5707963268594034 1.4427831867982306 12605.387999999864
3.0135795135923544 -1.1778818438453802 1.4133576839435165 -1.806272166866096 -1.5707963268594034 1.4427831867982306 12605.437999999864
3.0135795135923544 -1.1778818438453802 1.4133576839435165 -1.806272166866096 -1.5707963268594034 1.4427831867982306 12605.487999999863
3.0135795135923544 -1.1778818438453802 1.4133576839435165 -1.806272166866096 -1.5707963268594034 1.4427831867982306 12605.537999999862
3.0135795135923544 -1.1778818438453802 1.4133576839435165 -1.806272166866096 -1.5707963268594034 1.4427831867982306 12605.587999999861
3.0135795135923544 -1.1778818438453802 1.4133576839435165 -1.806272166866096 -1.5707963268594034 1.4427831867982306 12605.63799999986
3.0135795135923544 -1.1778818438453802 1.4133576839435165 -1.806272166866096 -1.5707963268594034 1.4427831867982306 12605.68799999986
3.0135795135923544 -1.1778818438453802 1.4133576839435165 -1.806272166866096 -1.5707963268594034 1.4427831867982306 12605.73799999986
3.0135795135923544 -1.1778818438453802 1.4133576839435165 -1.806272166866096 -1.5707963268594034 1.4427831867982306 12605.787999999859
3.0135795135923544 -1.1778818438453802 1.4133576839435165 -1.806272166866096 -1.5707963268594034 1.4427831867982306 12605.837999999858
3.0135795135923544 -1.1778818438453802 1.4133576839435165 -1.806272166866096 -1.5707963268594034 1.4427831867982306 12605.887999999857
3.0135795135923544 -1.1778818438453802 1.4133576839435165 -1.806272166866096 -1.5707963268594034 1.4427831867982306 12605.937999999856
3.0135795135923544 -1.1778818438453802 1.4133576839435165 -1.806272166866096 -1.5707963268594034 1.4427831867982306 12605.987999999856
3.0135795135923544 -1.1778818438453802 1.4133576839435165 -1.806272166866096 -1.5707963268594034 1.4427831867982306 12606.037999999855
3.0135795135923544 -1.1778818438453802 1.4133576839435165 -1.806272166866096 -1.5707963268594034 1.4427831867982306 12606.087999999854
3.0135795135923544 -1.1778818438453802 1.4133576839435165 -1.806272166866096 -1.5707963268594034 1.4427831867982306 12606.137999999853
3.0135795135923544 -1.1778818438453802 1.4133576839435165 -1.806272166866096 -1.5707963268594034 1.4427831867982306 12606.187999999853
3.0135795135923544 -1.1778818438453802 1.4133576839435165 -1.806272166866096 -1.5707963268594034 1.4427831867982306 12606.237999999852
3.0135795135923544 -1.1778818438453802 1.4133576839435165 -1.806272166866096 -1.5707963268594034 1.4427831867982306 12606.287999999851
3.0135795135923544 -1.1778818438453802 1.4133576839435165 -1.806272166866096 -1.5707963268594034 1.4427831867982306 12606.33799999985
3.0135795135923544 -1.1778818438453802 1.4133576839435165 -1.806272166866096 -1.5707963268594034 1.4427831867982306 12606.38799999985
3.0135795135923544 -1.1778818438453802 1.4133576839435165 -1.806272166866096 -1.5707963268594034 1.4427831867982306 12606.43799999985
3.0135795135923544 -1.1778818438453802 1.4133576839435165 -1.806272166866096 -1.5707963268594034 1.4427831867982306 12606.487999999848
3.0135795135923544 -1.1778818438453802 1.4133576839435165 -1.806272166866096 -1.5707963268594034 1.4427831867982306 12606.537999999848
3.0135795135923544 -1.1778818438453802 1.4133576839435165 -1.806272166866096 -1.5707963268594034 1.4427831867982306 12606.587999999847
3.0135795135923544 -1.1778818438453802 1.4133576839435165 -1.806272166866096 -1.5707963268594034 1.4427831867982306 12606.637999999846
3.0135795135923544 -1.1778818438453802 1.4133576839435165 -1.806272166866096 -1.5707963268594034 1.4427831867982306 12606.687999999845
3.0135795135923544 -1.1778818438453802 1.4133576839435165 -1.806272166866096 -1.5707963268594034 1.4427831867982306 12606.737999999845
3.0135795135923544 -1.1778818438453802 1.4133576839435165 -1.806272166866096 -1.5707963268594034 1.4427831867982306 12606.787999999844
3.0135795135923544 -1.1778818438453802 1.4133576839435165 -1.806272166866096 -1.5707963268594034 1.4427831867982306 12606.837999999843
3.013717105299427 -1.1778913346681266 1.4133708629484494 -1.8062758550489044 -1.5707963268599747 1.4429207785052849 12606.887999999843
3.014646347243278 -1.177955432067346 1.4134598689243354 -1.8063007636297705 -1.5707963268638339 1.44385002044901 12606.937999999842
3.0170675794989954 -1.1781224442125946 1.413691782842119 -1.8063656654132476 -1.5707963268738891 1.4462712527043995 12606.987999999841
3.0215853994478583 -1.1784340751186035 1.4141245151096273 -1.8064867667951645 -1.5707963268926515 1.4507890726526511 12607.03799999984
3.0287129170081726 -1.1789257181632702 1.4148072131521547 -1.806677821825237 -1.5707963269222516 1.4579165902120013 12607.08799999984
3.0388760098661067 -1.1796267496056514 1.4157806689930452 -1.8069502462696765 -1.5707963269644583 1.46807968306856 12607.137999999839
3.0524175787065264 -1.180560822103955 1.4170777268342745 -1.8073132316738008 -1.5707963270206957 1.4816212519071474 12607.187999999838
3.0696018024438323 -1.1817461582335331 1.4187236906370344 -1.8077738594246437 -1.5707963270920606 1.4988054756421283 12607.237999999837
3.0906183934527958 -1.1831958440048724 1.420736731702315 -1.8083372148135652 -1.5707963271793413 1.519822066648248 12607.287999999837
3.1155868527993933 -1.184918122381589 1.423128296251487 -1.8090065010988614 -1.5707963272830339 1.5447905259914674 12607.337999999836
3.1445607254716452 -1.1869166867984182 1.4259035130068862 -1.8097831535683737 -1.5707963274033607 1.5737643986597987 12607.387999999835
3.1775318556104484 -1.1891909746792082 1.4290616007723955 -1.8106669536020998 -1.5707963275402879 1.606735528794141 12607.437999999835
3.2144346417404153 -1.1917364609549121 1.4325962760140272 -1.811656142734803 -1.570796327693543 1.6436383149191145 12607.487999999834
3.2551502920007076 -1.1945449515815798 1.4364961604405078 -1.8127475367186228 -1.5707963278626327 1.684353965173898 12607.537999999833
3.299511079375874 -1.1976048770583505 1.4407451885838587 -1.8139366395856837 -1.5707963280468604 1.7287147525430622 12607.587999999832
3.3473045969266852 -1.200901585945445 1.4453230153799814 -1.8152177577107063 -1.570796328245344 1.7765082700874064 12607.637999999832
3.3982780130209695 -1.2044176383821574 1.4502054237492388 -1.8165841138736163 -1.5707963284570339 1.8274816861747938 12607.687999999831
3.4521423265644495 -1.208133099604848 1.4553647321770387 -1.8180279613221555 -1.5707963286807292 1.8813459997109858 12607.73799999983
3.508576622231579 -1.2120258334649356 1.4607702022944167 -1.8195406978344906 -1.5707963289150975 1.9377802953704792 12607.78799999983
3.5672323256963763 -1.2160717959468892 1.4663884464586197 -1.8211129797818237 -1.570796329158691 1.99643599882734 12607.837999999829
3.6277374588632627 -1.2202453286862203 1.4721838353336878 -1.822734836191003 -1.5707963294099654 2.0569411319860396 12607.887999999828
3.689700895097897 -1.2245194524874752 1.4781189054710382 -1.8243957828071309 -1.570796329667296 2.1189045682122902 12607.937999999827
3.7527166144580137 -1.2288661608422282 1.4841547668900477 -1.8260849361561755 -1.5707963299289966 2.18192028756388 12607.987999999827
3.816367958924255 -1.233256713447072 1.4902515106586354 -1.8277911276075802 -1.570796330193337 2.2455716320215093 12608.037999999826
3.8802318876310107 -1.2376619297216114 1.4963686164738463 -1.8295030174368732 -1.57079633045856 2.309435560719624 12608.087999999825
3.9438832320972517 -1.2420524823264552 1.502465360242434 -1.8312092088882779 -1.5707963307229003 2.3730869051772525 12608.137999999824
4.0068989514573685 -1.246399190681208 1.5085012216614435 -1.8328983622373225 -1.570796330984601 2.436102624528843 12608.187999999824
4.068862387692002 -1.250673314482463 1.514436291798794 -1.8345593088534504 -1.5707963312419315 2.498066060755093 12608.237999999823
4.12936752085889 -1.2548468472217942 1.520231680673862 -1.8361811652626296 -1.5707963314932059 2.558571193913793 12608.287999999822
4.188023224323686 -1.2588928097037477 1.525849924838065 -1.8377534472099628 -1.5707963317367994 2.617226897370654 12608.337999999821
4.244457519990816 -1.2627855435638353 1.5312553949554433 -1.8392661837222979 -1.5707963319711677 2.6736611930301475 12608.38799999982
4.298321833534296 -1.266501004786526 1.536414703383243 -1.840710031170837 -1.570796332194863 2.727525506566339 12608.43799999982
4.349295249628581 -1.2700170572232385 1.5412971117525003 -1.8420763873337471 -1.5707963324065528 2.7784989226537267 12608.48799999982
4.397088767179391 -1.2733137661103329 1.545874938548623 -1.8433575054587696 -1.5707963326050365 2.8262924401980705 12608.537999999819
4.441449554554558 -1.2763736915871036 1.5501239666919742 -1.8445466083258306 -1.5707963327892642 2.870653227567235 12608.587999999818
4.4821652048148515 -1.2791821822137712 1.5540238511184545 -1.8456380023096504 -1.5707963329583539 2.9113688778220186 12608.637999999817
4.5190679909448175 -1.281727668489475 1.5575585263600862 -1.8466271914423535 -1.570796333111609 2.9482716639469926 12608.687999999816
4.552039121083622 -1.2840019563702652 1.5607166141255955 -1.8475109914760797 -1.5707963332485362 2.981242794081334 12608.737999999816
4.581012993755873 -1.2860005207870944 1.5634918308809946 -1.848287643945592 -1.570796333368863 3.0102166667496664 12608.787999999815
4.605981453102471 -1.287722799163811 1.565883395430167 -1.8489569302308881 -1.5707963334725557 3.0351851260928857 12608.837999999814
4.626998044111435 -1.2891724849351505 1.5678964364954473 -1.8495202856198096 -1.5707963335598363 3.0562017170990066 12608.887999999813
4.64418226784874 -1.2903578210647284 1.5695424002982072 -1.8499809133706526 -1.5707963336312012 3.073385940833985 12608.937999999813
4.65772383668916 -1.291291893563032 1.5708394581394365 -1.850343898774777 -1.5707963336874387 3.0869275096725737 12608.987999999812
4.667886929547093 -1.2919929250054132 1.5718129139803267 -1.8506163232192163 -1.5707963337296453 3.097090602529132 12609.037999999811
4.675014447107408 -1.2924845680500798 1.5724956120228542 -1.8508073782492886 -1.5707963337592454 3.104218120088481 12609.08799999981
4.679532267056272 -1.2927961989560888 1.5729283442903628 -1.8509284796312058 -1.5707963337780078 3.108735940036735 12609.13799999981
4.681953499311991 -1.2929632111013376 1.5731602582081463 -1.8509933814146828 -1.570796333788063 3.111157172292124 12609.18799999981
4.68288274125584 -1.293027308500557 1.5732492641840323 -1.851018289995549 -1.5707963337919222 3.112086414235849 12609.237999999808
4.683020332962913 -1.2930367993233032 1.5732624431889652 -1.8510219781783575 -1.5707963337924935 3.1122240059429025 12609.287999999808
4.6830203329629105 -1.2930367993233032 1.5732624431889652 -1.8510219781783575 -1.5707963337924935 3.1122240059429025 12609.337999999807
4.683020327505428 -1.292826290769684 1.5736508461758685 -1.851620889986443 -1.57079633421281 3.112224000474477 12609.387999999806
4.683020293752872 -1.291524371546636 1.576052978090438 -1.8553249427788423 -1.570796336812316 3.112223966654243 12609.437999999805
4.683020214776567 -1.288478060911766 1.5816736340176023 -1.8639919132128373 -1.5707963428947993 3.1122238875195816 12609.487999999805
4.683020084288719 -1.2834448231607567 1.590960309274621 -1.878311832618275 -1.5707963529445246 3.11222375677009 12609.537999999804
4.68301990470771 -1.2765179412568068 1.6037408902779322 -1.8980193043298301 -1.5707963667752363 3.112223576829 12609.587999999803
4.683019685223393 -1.2680518904600728 1.619361345410004 -1.9221058210192634 -1.5707963836791636 3.1122233569045905 12609.637999999803
4.6830194398623854 -1.258587711957109 1.6368234158861807 -1.9490320820276845 -1.5707964025760246 3.112223111051605 12609.687999999802
4.683019185553364 -1.2487783864903088 1.654922306621534 -1.9769403106978116 -1.570796422162031 3.112222856232663 12609.737999999801
4.683018940192356 -1.239314207987345 1.6723843770977107 -2.0038665717062325 -1.570796441058892 3.1122226103796775 12609.7879999998
4.683018720708039 -1.230848157190611 1.6880048322297823 -2.027953088395666 -1.5707964579628193 3.112222390455268 12609.8379999998
4.68301854112703 -1.223921275286661 1.7007854132330937 -2.0476605601072206 -1.570796471793531 3.112222210514178 12609.887999999799
4.683018410639182 -1.2188880375356514 1.7100720884901124 -2.061980479512659 -1.5707964818432563 3.1122220797646865 12609.937999999798
4.683018331662877 -1.2158417269007815 1.715692744417277 -2.070647449946654 -1.5707964879257397 3.112222000630025 12609.987999999797
4.683018297910321 -1.2145398076777338 1.7180948763318464 -2.074351502739053 -1.5707964905252456 3.1122219668097912 12610.037999999797
4.6830182924528385 -1.2143292991241146 1.7184832793187494 -2.0749504145471382 -1.570796490945562 3.1122219613413655 12610.087999999796
4.6830182924528385 -1.2143292991241146 1.7184832793187494 -2.0749504145471382 -1.570796490945562 3.1122219613413655 12610.137999999795
4.6830182924528385 -1.2143292991241146 1.7184832793187494 -2.0749504145471382 -1.570796490945562 3.1122219613413655 12610.187999999795
4.6830182924528385 -1.2143292991241146 1.7184832793187494 -2.0749504145471382 -1.570796490945562 3.1122219613413655 12610.237999999794
4.6830182924528385 -1.2143292991241146 1.7184832793187494 -2.0749504145471382 -1.570796490945562 3.1122219613413655 12610.287999999793
4.6830182924528385 -1.2143292991241146 1.7184832793187494 -2.0749504145471382 -1.570796490945562 3.1122219613413655 12610.337999999792
4.6830182924528385 -1.2143292991241146 1.7184832793187494 -2.0749504145471382 -1.570796490945562 3.1122219613413655 12610.387999999792
4.6830182924528385 -1.2143292991241146 1.7184832793187494 -2.0749504145471382 -1.570796490945562 3.1122219613413655 12610.437999999791
4.6830182924528385 -1.2143292991241146 1.7184832793187494 -2.0749504145471382 -1.570796490945562 3.1122219613413655 12610.48799999979
4.6830182924528385 -1.2143292991241146 1.7184832793187494 -2.0749504145471382 -1.570796490945562 3.1122219613413655 12610.53799999979
4.6830182924528385 -1.2143292991241146 1.7184832793187494 -2.0749504145471382 -1.570796490945562 3.1122219613413655 12610.587999999789
4.6830182924528385 -1.2143292991241146 1.7184832793187494 -2.0749504145471382 -1.570796490945562 3.1122219613413655 12610.637999999788
4.6830182924528385 -1.2143292991241146 1.7184832793187494 -2.0749504145471382 -1.570796490945562 3.1122219613413655 12610.687999999787
4.6830182924528385 -1.2143292991241146 1.7184832793187494 -2.0749504145471382 -1.570796490945562 3.1122219613413655 12610.737999999787
4.6830182924528385 -1.2143292991241146 1.7184832793187494 -2.0749504145471387 -1.570796490945562 3.1122219613413655 12610.787999999786
4.683018297910321 -1.2145398076777338 1.7180948763318462 -2.074351502739053 -1.5707964905252456 3.1122219668097912 12610.837999999785
4.683018331662877 -1.2158417269007817 1.7156927444172767 -2.070647449946654 -1.5707964879257397 3.112222000630025 12610.887999999784
4.683018410639182 -1.2188880375356517 1.7100720884901124 -2.061980479512659 -1.5707964818432563 3.1122220797646865 12610.937999999784
4.68301854112703 -1.223921275286661 1.7007854132330937 -2.047660560107221 -1.570796471793531 3.112222210514178 12610.987999999783
4.683018720708039 -1.230848157190611 1.6880048322297825 -2.027953088395666 -1.5707964579628193 3.112222390455268 12611.037999999782
4.683018940192356 -1.239314207987345 1.6723843770977107 -2.003866571706233 -1.570796441058892 3.1122226103796775 12611.087999999781
4.683019185553364 -1.2487783864903088 1.654922306621534 -1.9769403106978116 -1.570796422162031 3.112222856232663 12611.13799999978
4.6830194398623854 -1.258587711957109 1.6368234158861807 -1.9490320820276845 -1.5707964025760246 3.112223111051605 12611.18799999978
4.683019685223393 -1.2680518904600728 1.619361345410004 -1.9221058210192634 -1.5707963836791636 3.1122233569045905 12611.23799999978
4.68301990470771 -1.2765179412568068 1.6037408902779324 -1.8980193043298301 -1.5707963667752363 3.112223576829 12611.287999999779
4.683020084288719 -1.2834448231607567 1.590960309274621 -1.8783118326182753 -1.5707963529445246 3.11222375677009 12611.337999999778
4.683020214776567 -1.2884780609117663 1.5816736340176023 -1.8639919132128373 -1.5707963428947993 3.1122238875195816 12611.387999999777
4.683020293752872 -1.2915243715466362 1.5760529780904378 -1.8553249427788423 -1.570796336812316 3.112223966654243 12611.437999999776
4.683020327505428 -1.292826290769684 1.5736508461758683 -1.8516208899864433 -1.57079633421281 3.112224000474477 12611.487999999776
4.6830203329629105 -1.2930367993233032 1.5732624431889652 -1.8510219781783577 -1.5707963337924935 3.1122240059429025 12611.537999999775
4.6830203329629105 -1.2930367993233032 1.5732624431889652 -1.8510219781783575 -1.5707963337924935 3.1122240059429025 12611.587999999774
4.682879976615553 -1.2930546530752647 1.573283893196604 -1.8510255744412198 -1.5707963337817663 3.112083649596197 12611.637999999773
4.6819320633450126 -1.2931752305107127 1.5734287583721134 -1.8510498622298084 -1.570796333709319 3.111135736330062 12611.687999999773
4.679462181091589 -1.2934894070047362 1.5738062189871824 -1.8511131464772963 -1.57079633352055 3.1086658540881156 12611.737999999772
4.674853584254375 -1.2940756344634243 1.5745105294029396 -1.851231229670296 -1.5707963331683226 3.1040572572723173 12611.787999999771
4.667582852959756 -1.2950004934780448 1.5756216814437563 -1.851417523068707 -1.5707963326126326 3.0967865260114844 12611.83799999977
4.657215552329907 -1.2963192454792212 1.5772060677710493 -1.851683157925563 -1.5707963318202771 3.0864192254298124 12611.88799999977
4.643401891751295 -1.298076384891111 1.5793171452570836 -1.8520370967068782 -1.5707963307645219 3.0726055649153916 12611.937999999769
4.625872384143171 -1.3003061912855831 1.581996098358774 -1.8524862443114951 -1.5707963294247709 3.055076057388726 12611.987999999768
4.604433505226071 -1.3030332815363959 1.58527250249149 -1.8530355592909313 -1.570796327786233 3.033637178571251 12612.037999999768
4.578963352790314 -1.3062731619733745 1.5891649874028562 -1.8536881650692274 -1.5707963258395916 3.0081670262538527 12612.087999999767
4.549407305964501 -1.3100327805365892 1.5936819005465561 -1.854445461162793 -1.5707963235806721 2.978610979565385 12612.137999999766
4.515773684484011 -1.3143110789305323 1.5988219704561346 -1.8553072344002541 -1.5707963210101104 2.944977358241188 12612.187999999765
4.478129407959498 -1.3190995447782972 1.6045749701188006 -1.856271770142301 -1.570796318133021 2.907333081891606 12612.237999999765
4.4365956551453944 -1.3243827637757546 1.6109223803492299 -1.857335963501535 -1.5707963149586655 2.865799329270507 12612.287999999764
4.391343523208402 -1.3301389718457313 1.6178380531633672 -1.8584954305623145 -1.5707963115001202 2.8205471975437986 12612.337999999763
4.3425896869959955 -1.3363406072921877 1.6252888751522294 -1.8597446196006044 -1.5707963077739455 2.7717933615579478 12612.387999999763
4.2905920583049175 -1.342954862954396 1.6332354308557084 -1.8610769223038206 -1.5707963037998534 2.7197957331084996 12612.437999999762
4.235645445149678 -1.3499442383611162 1.6416326661363732 -1.8624847849906796 -1.570796299600375 2.6648491202085944 12612.487999999761
4.178077211031052 -1.3572670918847765 1.6504305515532725 -1.8639598198310432 -1.5707962952005308 2.6072808863574846 12612.53799999976
4.118242934204577 -1.3648781928956488 1.6595747457357382 -1.865492916065768 -1.5707962906274966 2.547446609809056 12612.58799999976
4.056522066949052 -1.3727292739160282 1.6690072587571874 -1.8670743512265506 -1.5707962859102733 2.485725742840344 12612.637999999759
3.9933135948350342 -1.3807695827744086 1.6786671155089248 -1.8686939023557763 -1.570796281079355 2.4225172710200518 12612.687999999758
3.9290316959933373 -1.3889464347596634 1.6884910190739464 -1.8703409572263643 -1.5707962761663965 2.358235372477069 12612.737999999757
3.8641014003835314 -1.3972057647752203 1.698414014100741 -1.8720046255616172 -1.5707962712038819 2.2933050771689905 12612.787999999757
3.798954249062439 -1.4054926794932407 1.7083701501770938 -1.873673850255066 -1.5707962662247936 2.2281579261506326 12612.837999999756
3.7340239534526334 -1.4137520095087976 1.7182931452038885 -1.875337518590319 -1.570796261262279 2.163227630842554 12612.887999999755
3.6697420546109365 -1.4219288614940522 1.7281170487689101 -1.876984573460907 -1.5707962563493205 2.0989457322995713 12612.937999999755
3.6065335824969185 -1.4299691703524329 1.7377769055206476 -1.8786041245901326 -1.5707962515184022 2.035737260479279 12612.987999999754
3.5448127152413926 -1.4378202513728122 1.7472094185420968 -1.8801855597509152 -1.570796246801179 1.9740163935105668 12613.037999999753
3.4849784384149185 -1.4454313523836846 1.7563536127245625 -1.88171865598564 -1.5707962422281447 1.9141821169621387 12613.087999999752
3.427410204296292 -1.452754205907345 1.7651514981414618 -1.8831936908260036 -1.5707962378283005 1.856613883111028 12613.137999999752
3.372463591141053 -1.4597435813140653 1.7735487334221265 -1.8846015535128626 -1.5707962336288221 1.801667270211123 12613.18799999975
3.3204659624499753 -1.4663578369762733 1.7814952891256055 -1.885933856216079 -1.57079622965473 1.7496696417616748 12613.23799999975
3.271712126237569 -1.4725594724227298 1.7889461111144678 -1.8871830452543688 -1.5707962259285553 1.7009158057758242 12613.28799999975
3.2264599943005763 -1.4783156804927065 1.795861783928605 -1.8883425123151483 -1.57079622247001 1.6556636740491157 12613.337999999749
3.184926241486472 -1.4835988994901639 1.8022091941590344 -1.8894067056743822 -1.5707962192956546 1.614129921428017 12613.387999999748
3.1472819649619606 -1.4883873653379285 1.8079621938217003 -1.890371241416429 -1.5707962164185651 1.5764856450784352 12613.437999999747
3.1136483434814703 -1.4926656637318718 1.8131022637312788 -1.8912330146538903 -1.5707962138480034 1.5428520237542382 12613.487999999747
3.0840922966556565 -1.4964252822950865 1.8176191768749788 -1.8919903107474558 -1.570796211589084 1.513295977065771 12613.537999999746
3.0586221442198993 -1.4996651627320652 1.821511661786345 -1.892642916525752 -1.5707962096424426 1.487825824748372 12613.587999999745
3.0371832653028 -1.502392252982878 1.8247880659190612 -1.8931922315051881 -1.5707962080039046 1.4663869459308956 12613.637999999744
3.0196537576946763 -1.5046220593773503 1.8274670190207516 -1.893641379109805 -1.5707962066641536 1.4488574384042323 12613.687999999744
3.0058400971160646 -1.5063791987892399 1.8295780965067854 -1.8939953178911202 -1.5707962056083984 1.4350437778898122 12613.737999999743
2.9954727964862173 -1.5076979507904162 1.8311624828340785 -1.8942609527479761 -1.5707962048160429 1.4246764773081402 12613.787999999742
2.9882020651915977 -1.5086228098050367 1.8322736348748951 -1.8944472461463873 -1.570796204260353 1.4174057460473082 12613.837999999741
2.9835934683543828 -1.5092090372637248 1.8329779452906525 -1.894565329339387 -1.5707962039081256 1.4127971492315075 12613.88799999974
2.981123586100958 -1.5095232137577483 1.8333554059057218 -1.8946286135868748 -1.5707962037193566 1.4103272669895617 12613.93799999974
2.980175672830419 -1.5096437911931964 1.8335002710812311 -1.8946529013754634 -1.5707962036469092 1.409379353723427 12613.98799999974
2.980035316483062 -1.5096616449451579 1.8335217210888697 -1.8946564976383258 -1.570796203636182 1.4092389973767219 12614.037999999739
2.9800353164830593 -1.5096616449451579 1.8335217210888697 -1.8946564976383258 -1.570796203636182 1.40923899737672 12614.087999999738
2.9800353227011427 -1.5094094136401337 1.8339324893587425 -1.8953194969600284 -1.5707962039657037 1.4092390035742368 12614.137999999737
2.980035361157738 -1.5078494542987209 1.8364729424546922 -1.8994199078314742 -1.5707962060036773 1.4092390419036356 12614.187999999736
2.9800354511408442 -1.5041993655316275 1.8424172507854824 -1.9090143012653298 -1.5707962107722526 1.409239131589119 12614.237999999736
2.9800355998145744 -1.4981685411085448 1.8522386776457964 -1.9248665464948718 -1.5707962186510858 1.4092392797711055 12614.287999999735
2.980035804423501 -1.4898687526565146 1.865755198691526 -1.9466828476611477 -1.5707962294941555 1.4092394837032802 12614.337999999734
2.9800360544969955 -1.4797247323582954 1.8822751214150557 -1.9733467805001381 -1.5707962427465798 1.4092397329496473 12614.387999999733
2.980036334053574 -1.4683847556507295 1.900742704620553 -2.0031543290299196 -1.5707962575614343 1.4092400115815815 12614.437999999733
2.9800366238052374 -1.4566312239231092 1.9198837778992541 -2.0340489222378246 -1.5707962729165683 1.4092403003748801 12614.487999999732
2.9800369033618157 -1.4452912472155433 1.9383513611047514 -2.0638564707676057 -1.5707962877314228 1.4092405790068143 12614.537999999731
2.98003715343531 -1.4351472269173242 1.9548712838282811 -2.0905204036065963 -1.570796300983847 1.4092408282531814 12614.58799999973
2.9800373580442368 -1.4268474384652938 1.9683878048740104 -2.112336704772872 -1.5707963118269168 1.4092410321853561 12614.63799999973
2.980037506717967 -1.4208166140422112 1.978209231734325 -2.1281889500024143 -1.57079631970575 1.4092411803673426 12614.687999999729
2.9800375967010733 -1.4171665252751176 1.984153540065115 -2.13778334343627 -1.5707963244743253 1.409241270052826 12614.737999999728
2.9800376351576685 -1.415606565933705 1.9866939931610645 -2.141883754307716 -1.5707963265122988 1.4092413083822248 12614.787999999728
2.980037641375752 -1.4153543346286808 1.9871047614309374 -2.142546753629418 -1.5707963268418206 1.4092413145797416 12614.837999999727
2.980037641375752 -1.4153543346286808 1.9871047614309374 -2.142546753629418 -1.5707963268418206 1.4092413145797416 12614.887999999726
2.980037641375752 -1.4153543346286808 1.9871047614309374 -2.142546753629418 -1.5707963268418206 1.4092413145797416 12614.937999999725
2.980037641375752 -1.4153543346286808 1.9871047614309374 -2.142546753629418 -1.5707963268418206 1.4092413145797416 12614.987999999725
2.980037641375752 -1.4153543346286808 1.9871047614309374 -2.142546753629418 -1.5707963268418206 1.4092413145797416 12615.037999999724
2.980037641375752 -1.4153543346286808 1.9871047614309374 -2.142546753629418 -1.5707963268418206 1.4092413145797416 12615.087999999723
2.980037641375752 -1.4153543346286808 1.9871047614309374 -2.1425467536294183 -1.5707963268418206 1.4092413145797416 12615.137999999723
2.9800376351576685 -1.415606565933705 1.9866939931610645 -2.141883754307716 -1.5707963265122988 1.4092413083822248 12615.187999999722
2.9800375967010733 -1.4171665252751178 1.984153540065115 -2.13778334343627 -1.5707963244743253 1.409241270052826 12615.237999999721
2.980037506717967 -1.4208166140422112 1.9782092317343247 -2.1281889500024143 -1.57079631970575 1.4092411803673426 12615.28799999972
2.9800373580442368 -1.4268474384652938 1.9683878048740107 -2.112336704772872 -1.5707963118269168 1.4092410321853561 12615.33799999972
2.98003715343531 -1.435147226917324 1.9548712838282811 -2.0905204036065963 -1.570796300983847 1.4092408282531814 12615.387999999719
2.9800369033618157 -1.4452912472155433 1.9383513611047514 -2.0638564707676057 -1.5707962877314228 1.4092405790068143 12615.437999999718
2.9800366238052374 -1.4566312239231092 1.9198837778992541 -2.0340489222378246 -1.5707962729165683 1.4092403003748801 12615.487999999717
2.980036334053574 -1.4683847556507295 1.900742704620553 -2.0031543290299196 -1.5707962575614343 1.4092400115815815 12615.537999999717
2.9800360544969955 -1.4797247323582954 1.8822751214150557 -1.9733467805001383 -1.5707962427465798 1.4092397329496473 12615.587999999716
2.980035804423501 -1.4898687526565144 1.865755198691526 -1.9466828476611477 -1.5707962294941555 1.4092394837032802 12615.637999999715
2.9800355998145744 -1.4981685411085448 1.8522386776457966 -1.924866546494872 -1.5707962186510858 1.4092392797711055 12615.687999999715
2.9800354511408442 -1.5041993655316275 1.8424172507854821 -1.9090143012653298 -1.5707962107722526 1.409239131589119 12615.737999999714
2.980035361157738 -1.507849454298721 1.8364729424546922 -1.899419907831474 -1.5707962060036773 1.4092390419036356 12615.787999999713
2.9800353227011427 -1.5094094136401337 1.8339324893587425 -1.8953194969600284 -1.5707962039657037 1.4092390035742368 12615.837999999712
2.9800353164830593 -1.5096616449451579 1.8335217210888697 -1.894656497638326 -1.570796203636182 1.40923899737672 12615.887999999712
2.9800353164830593 -1.5096616449451579 1.8335217210888697 -1.8946564976383258 -1.570796203636182 1.40923899737672 12615.93799999971
2.980185753695605 -1.5095210442335896 1.8333181607516817 -1.8945935379932621 -1.5707962036614942 1.4093894345876856 12615.98799999971
2.981188256819866 -1.5085840908678942 1.8319616488185424 -1.8941739792962444 -1.570796203830173 1.4103919377014154 12616.03799999971
2.9837597815718384 -1.5061807080623741 1.8284820546626792 -1.8930977676135317 -1.5707962042628516 1.4129634624263734 12616.087999999709
2.988477815078388 -1.501771168314872 1.822097966077118 -1.8911232181656663 -1.5707962050566966 1.4176814958833592 12616.137999999708
2.995789092664071 -1.4949379465765484 1.8122048943734437 -1.8880633672553322 -1.5707962062868748 1.4249927733922363 12616.187999999707
3.0060183146379558 -1.4853775734216623 1.7983634794805654 -1.8837823241952123 -1.5707962080080193 1.4352219952586616 12616.237999999707
3.019376863080442 -1.4728924882173482 1.780287695043477 -1.8781916232358444 -1.5707962102556967 1.4485805435608143 12616.287999999706
3.035971518630083 -1.4573828922933958 1.7578330535220208 -1.8712465754934802 -1.5707962130478739 1.465175198936126 12616.337999999705
3.0558131772704034 -1.4388386021120285 1.7309848112896504 -1.862942620877941 -1.5707962163863842 1.4850168573680071 12616.387999999704
3.078825567116724 -1.4173309024376823 1.6998461737321926 -1.8533116800204759 -1.570796220258394 1.508029246972579 12616.437999999704
3.104853965202978 -1.3930043995067845 1.6646265003466105 -1.842418506201619 -1.5707962246378702 1.5340576447854006 12616.487999999703
3.133673914268534 -1.366068874197532 1.6256295098397657 -1.8303570372790459 -1.5707962294870461 1.5628775935481996 12616.537999999702
3.1649999395450186 -1.3367911351996706 1.5832414852271817 -1.8172467476154315 -1.5707962347578883 1.5942036184955994 12616.587999999701
3.198494265543131 -1.305486872184274 1.5379194789318058 -1.8032290000063078 -1.5707962403935638 1.6276979441418495 12616.6379999997
3.233775532839471 -1.2725125089735216 1.4901795178827726 -1.7884633976079203 -1.5707962463299057 1.662979211067554 12616.6879999997
3.270427514863352 -1.238257056710478 1.4405848086141653 -1.7731241358650849 -1.5707962524968806 1.6996311927064012 12616.7379999997
3.3080078346836292 -1.2031339670288714 1.38973394236378 -1.7573963544390465 -1.5707962588200557 1.7372115121318916 12616.787999999699
3.3460566817955146 -1.1675729852228727 1.3382491001718866 -1.7414724891353353 -1.570796265222064 1.7752603588440685 12616.837999999698
3.3841055289074 -1.132012003416874 1.2867642579799932 -1.7255486238316238 -1.5707962716240722 1.8133092055562452 12616.887999999697
3.4216858487276776 -1.0968889137352673 1.2359133917296077 -1.7098208424055854 -1.5707962779472473 1.8508895249817359 12616.937999999696
3.4583378307515584 -1.062633461472224 1.1863186824610006 -1.69448158066275 -1.5707962841142222 1.887541506620583 12616.987999999696
3.4936190980478976 -1.0296590982614713 1.1385787214119674 -1.6797159782643625 -1.570796290050564 1.9228227735462873 12617.037999999695
3.5271134240460107 -0.9983548352460746 1.0932567151165915 -1.6656982306552386 -1.5707962956862396 1.9563170991925376 12617.087999999694
3.5584394493224947 -0.9690770962482137 1.0508686905040077 -1.6525879409916246 -1.5707963009570818 1.9876431241399368 12617.137999999693
3.587259398388052 -0.9421415709389604 1.0118716999971622 -1.6405264720690513 -1.5707963058062577 2.0164630729027366 12617.187999999693
3.613287796474306 -0.9178150680080626 0.9766520266115797 -1.629633298250194 -1.5707963101857338 2.0424914707155586 12617.237999999692
3.636300186320626 -0.8963073683337169 0.9455133890541224 -1.6200023573927291 -1.5707963140577437 2.0655038603201303 12617.287999999691
3.656141844960947 -0.8777630781523494 0.9186651468217519 -1.6116984027771901 -1.570796317396254 2.0853455187520114 12617.33799999969
3.672736500510587 -0.8622534822283975 0.8962105053002968 -1.6047533550348259 -1.5707963201884312 2.1019401741273223 12617.38799999969
3.686095048953074 -0.8497683970240832 0.8781347208632079 -1.599162654075458 -1.5707963224361086 2.1152987224294755 12617.437999999689
3.696324270926959 -0.8402080238691974 0.8642933059703297 -1.594881611015338 -1.5707963241572531 2.1255279442959005 12617.487999999688
3.703635548512641 -0.8333748021308742 0.8544002342666556 -1.5918217601050042 -1.5707963253874313 2.1328392218047774 12617.537999999688
3.708353582019191 -0.828965262383371 0.8480161456810932 -1.5898472106571386 -1.5707963261812763 2.137557255261764 12617.587999999687
3.710925106771163 -0.8265618795778517 0.8445365515252313 -1.5887709989744256 -1.5707963266139549 2.140128779986721 12617.637999999686
3.71207804710797 -0.8254843255005873 0.8429764792549035 -1.5882884806323445 -1.570796326807946 2.141281720311417 12626.688
3.71207804710797 -0.8254843255005873 0.8429764792549035 -1.5882884806323445 -1.570796326807946 2.141281720311417 12626.738
3.71207804710797 -0.8254843255005873 0.8429764792549035 -1.5882884806323445 -1.570796326807946 2.141281720311417 12626.787999999999
3.71207804710797 -0.8254843255005873 0.8429764792549035 -1.5882884806323445 -1.570796326807946 2.141281720311417 12626.837999999998
3.71207804710797 -0.8254843255005873 0.8429764792549035 -1.5882884806323445 -1.570796326807946 2.141281720311417 12626.887999999997
3.71207804710797 -0.8254843255005873 0.8429764792549035 -1.5882884806323445 -1.570796326807946 2.141281720311417 12626.937999999996
3.71207804710797 -0.8254843255005873 0.8429764792549035 -1.5882884806323445 -1.570796326807946 2.141281720311417 12626.987999999996
3.71207804710797 -0.8254843255005873 0.8429764792549035 -1.5882884806323445 -1.570796326807946 2.141281720311417 12627.037999999995
3.71207804710797 -0.8254843255005873 0.8429764792549035 -1.5882884806323445 -1.570796326807946 2.141281720311417 12627.087999999994
3.71207804710797 -0.8254843255005873 0.8429764792549035 -1.5882884806323445 -1.570796326807946 2.141281720311417 12627.137999999994
3.71207804710797 -0.8254843255005873 0.8429764792549035 -1.5882884806323445 -1.570796326807946 2.141281720311417 12627.187999999993
3.71207804710797 -0.8254843255005873 0.8429764792549035 -1.5882884806323445 -1.570796326807946 2.141281720311417 12627.237999999992
3.71207804710797 -0.8254843255005873 0.8429764792549035 -1.5882884806323445 -1.570796326807946 2.141281720311417 12627.287999999991
3.712046512270627 -0.8255002350521292 0.8430022300298158 -1.5882983218557098 -1.5707963268079481 2.14117926935287 12627.33799999999
3.711832106636663 -0.8256084042317378 0.8431773097729001 -1.5883652324191517 -1.570796326807964 2.140482704392701 12627.38799999999
3.711269098493842 -0.8258924458765203 0.8436370519875835 -1.588540932988964 -1.5707963268080054 2.138653593201323 12627.43799999999
3.7102098653511697 -0.826426836591627 0.8445020025164311 -1.588871492802538 -1.5707963268080836 2.1352123371196003 12627.487999999988
3.708524247180988 -0.8272772430442493 0.8458784476718908 -1.5893975315051099 -1.5707963268082077 2.1297360698599075 12627.537999999988
3.706098899661076 -0.8285008482576187 0.8478589423670381 -1.5901544209865055 -1.5707963268083864 2.1218565563071796 12627.587999999987
3.7028366474167487 -0.830146677905005 0.8505228382463215 -1.5911724872178885 -1.5707963268086267 2.111258091319972 12627.637999999986
3.6986558372629528 -0.8322559266037145 0.8539368118163075 -1.5924772120885065 -1.5707963268089347 2.0976753985315115 12627.687999999986
3.693489691446369 -0.8348622842090891 0.8581553925764263 -1.5940894352424364 -1.5707963268093152 2.080891529150756 12627.737999999985
3.6872856608875084 -0.8379922621085043 0.8632214911497154 -1.5960255559153327 -1.5707963268097722 2.060735760763445 12627.787999999984
3.680004778422811 -0.8416655195153677 0.869166927413566 -1.5982977347711727 -1.5707963268103087 2.037081496133159 12627.837999999983
3.6716210120467454 -0.8458951897631176 0.8760129586304679 -1.6009140957390033 -1.5707963268109264 2.0098441620023726 12627.887999999983
3.662120618153907 -0.8506882065992216 0.883770807578754 -1.6038789278496886 -1.5707963268116263 1.9789791078935108 12627.937999999982
3.6515014947811166 -0.8560456304791745 0.8924421906833457 -1.607192887072654 -1.5707963268124085 1.9444795049100025 12627.987999999981
3.6397725348495173 -0.8619629748604974 0.9020198461464982 -1.6108531981526353 -1.5707963268132725 1.906374244537338 12628.03799999998
3.6269529794066773 -0.8684305324967361 0.9124880620785453 -1.6148538564464237 -1.5707963268142169 1.8647258374441231 12628.08799999998
3.6130717708686833 -0.875433701731459 0.9238232046286445 -1.6191858297596127 -1.5707963268152396 1.8196283122831345 12628.137999999979
3.5981669062622434 -0.8829533127922561 0.9359942461155224 -1.6238372601833446 -1.5707963268163376 1.7712051144923748 12628.187999999978
3.5822847904667827 -0.8909659540847374 0.9489632931582194 -1.6287936659310576 -1.5707963268175076 1.7196070050961287 12628.237999999978
3.5654795894565448 -0.8994442984865314 0.9626861148068345 -1.6340381431752307 -1.5707963268187457 1.665009959506017 12628.287999999977
3.547812583542686 -0.9083574296412832 0.9771126706732716 -1.639551567884132 -1.570796326820047 1.607613066322053 12628.337999999976
3.52935152061538 -0.9176711682526534 0.9921876390619832 -1.6453127976585642 -1.5707963268214071 1.547636426133697 12628.387999999975
3.51016996938591 -0.9273483983783162 1.007850945100716 -1.6512988735686118 -1.5707963268228202 1.4853190503209122 12628.437999999975
3.490346672628773 -0.9373493937239583 1.024038288871257 -1.6574852219903866 -1.5707963268242806 1.420916759855219 12628.487999999974
3.469964900423774 -0.947632143937277 1.0406816735401758 -1.6638458564427752 -1.570796326825782 1.354700084100752 12628.537999999973
3.4491118033981274 -0.9581526809019789 1.0577099334895732 -1.6703535794241848 -1.5707963268273182 1.2869521596153133 12628.587999999972
3.427877765968554 -0.968865405031778 1.075049262447824 -1.6769801842492904 -1.5707963268288825 1.2179666289514286 12628.637999999972
3.406355759583381 -0.9797234115643947 1.0926237416203226 -1.683696656885781 -1.570796326830468 1.1480455394574034 12628.687999999971
3.3846406959646393 -0.990678816855554 1.1103558678202283 -1.6904733777911054 -1.5707963268320677 1.0774972420783762 12628.73799999997
3.362828780350162 -1.0016830846729836 1.12816708159921 -1.6972803237492202 -1.5707963268336746 1.0066342901573757 12628.78799999997
3.3410168647356855 -1.0126873524904134 1.1459782953781914 -1.704087269707335 -1.5707963268352816 0.9357713382363757 12628.837999999969
3.3193018011169433 -1.0236427577815728 1.1637104215780971 -1.7108639906126595 -1.5707963268368812 0.865223040857348 12628.887999999968
3.29777979473177 -1.0345007643141895 1.181284900750596 -1.71758046324915 -1.5707963268384668 0.7953019513633219 12628.937999999967
3.2765457573021974 -1.0452134884439885 1.1986242297088463 -1.7242070680742556 -1.5707963268400311 0.7263164206994388 12628.987999999967
3.2556926602765506 -1.0557340254086904 1.2156524896582441 -1.7307147910556655 -1.5707963268415672 0.6585684962139988 12629.037999999966
3.2353108880715515 -1.0660167756220091 1.2322958743271628 -1.7370754255080538 -1.5707963268430687 0.5923518204595333 12629.087999999965
3.2154875913144143 -1.0760177709676513 1.2484832180977037 -1.7432617739298286 -1.570796326844529 0.527949529993839 12629.137999999964
3.196306040084945 -1.085695001093314 1.2641465241364365 -1.7492478498398762 -1.5707963268459422 0.4656321541810553 12629.187999999964
3.1778449771576387 -1.0950087397046842 1.279221492525148 -1.7550090796143085 -1.5707963268473022 0.4056555139926996 12629.237999999963
3.1601779712437805 -1.1039218708594358 1.293648048391585 -1.7605225043232098 -1.5707963268486036 0.34825862080873615 12629.287999999962
3.1433727702335417 -1.11240021526123 1.3073708700402005 -1.7657669815673829 -1.5707963268498417 0.2936615752186238 12629.337999999962
3.1274906544380814 -1.120412856553711 1.320339917082897 -1.7707233873150956 -1.5707963268510117 0.24206346582237814 12629.38799999996
3.112585789831641 -1.1279324676145084 1.3325109585697752 -1.775374817738828 -1.5707963268521097 0.19364026803161782 12629.43799999996
3.0987045812936476 -1.1349356368492312 1.3438461011198743 -1.7797067910520168 -1.5707963268531324 0.14854274287062963 12629.48799999996
3.085885025850807 -1.14140319448547 1.3543143170519216 -1.7837074493458052 -1.5707963268540768 0.10689433577741392 12629.537999999959
3.074156065919208 -1.1473205388667929 1.363891972515074 -1.7873677604257865 -1.5707963268549407 0.06878907540475065 12629.587999999958
3.063536942546418 -1.1526779627467456 1.3725633556196657 -1.790681719648752 -1.570796326855723 0.03428947242124192 12629.637999999957
3.054036548653579 -1.15747097958285 1.3803212045679523 -1.793646551759437 -1.570796326856423 0.0034244183123783856 12629.687999999956
3.0456527822775135 -1.1617006498305997 1.3871672357848535 -1.796262912727268 -1.5707963268570406 -0.023812915818407276 12629.737999999956
3.038371899812816 -1.1653739072374631 1.3931126720487048 -1.7985350915831078 -1.570796326857577 -0.04746718044869347 12629.787999999955
3.0321678692539553 -1.1685038851368785 1.3981787706219935 -1.8004712122560043 -1.570796326858034 -0.06762294883600406 12629.837999999954
3.027001723437371 -1.1711102427422533 1.4023973513821122 -1.8020834354099344 -1.5707963268584146 -0.0844068182167601 12629.887999999954
3.022820913283577 -1.173219491440962 1.4058113249520976 -1.8033881602805517 -1.5707963268587226 -0.09798951100521514 12629.937999999953
3.0195586610392477 -1.1748653210883488 1.4084752208313818 -1.8044062265119352 -1.5707963268589629 -0.1085879759924282 12629.987999999952
3.0171333135193366 -1.1760889263017182 1.4104557155265285 -1.8051631159933306 -1.5707963268591416 -0.11646748954515429 12630.037999999951
3.015447695349155 -1.1769393327543405 1.4118321606819881 -1.8056891546959024 -1.5707963268592657 -0.12194375680484848 12630.08799999995
3.0143884622064836 -1.1774737234694468 1.4126971112108349 -1.8060197145094763 -1.570796326859344 -0.12538501288656745 12630.13799999995
3.013825454063662 -1.1777577651142297 1.4131568534255194 -1.8061954150792887 -1.5707963268593852 -0.12721412407794608 12630.18799999995
3.0136110484296976 -1.177865934293838 1.4133319331686036 -1.8062623256427306 -1.5707963268594012 -0.12791068903811587 12630.237999999948
3.0135795135923553 -1.17788184384538 1.4133576839435156 -1.806272166866096 -1.5707963268594034 -0.12801313999666242 12630.287999999948
3.0135795135923544 -1.1778818438453802 1.4133576839435165 -1.806272166866096 -1.5707963268594034 -0.12801313999666597 12630.337999999947
3.0135795136129113 -1.1776557011161803 1.413832186322794 -1.8069728119738422 -1.5707963268604985 -0.12801313997596678 12630.387999999946
3.0135795137388284 -1.1762705125083937 1.4167386485047477 -1.8112644627591037 -1.570796326867206 -0.1280131398491784 12630.437999999946
3.0135795140298094 -1.1730694853574875 1.423455181044227 -1.8211820224391388 -1.5707963268827065 -0.1280131395561836 12630.487999999945
3.013579514503415 -1.1678594453503641 1.4343871105750112 -1.8373239919602002 -1.5707963269079355 -0.12801313907930084 12630.537999999944
3.013579515143489 -1.1608181128550734 1.4491615365940236 -1.8591397504517355 -1.5707963269420322 -0.12801313843479717 12630.587999999943
3.0135795159085905 -1.1524013792505263 1.4668218882455446 -1.885216835680589 -1.570796326982789 -0.12801313766440095 12630.637999999943
3.0135795167404202 -1.1432505832562074 1.4860224811054272 -1.913568224505202 -1.5707963270271004 -0.12801313682681492 12630.687999999942
3.01357951757225 -1.1340997872618888 1.5052230739653099 -1.9419196133298149 -1.5707963270714118 -0.1280131359892289 12630.737999999941
3.0135795183373513 -1.1256830536573417 1.5228834256168309 -1.967996698558668 -1.5707963271121685 -0.12801313521883267 12630.78799999994
3.0135795189774255 -1.118641721162051 1.5376578516358432 -1.9898124570502036 -1.5707963271462653 -0.128013134574329 12630.83799999994
3.013579519451031 -1.1134316811549276 1.5485897811666274 -2.005954426571265 -1.5707963271714942 -0.12801313409744625 12630.887999999939
3.013579519742012 -1.1102306540040214 1.5553063137061067 -2.0158719862513004 -1.5707963271869947 -0.12801313380445145 12630.937999999938
3.013579519867929 -1.1088454653962347 1.5582127758880602 -2.020163637036562 -1.5707963271937022 -0.12801313367766307 12630.987999999938
3.013579519888486 -1.108619322667035 1.558687278267338 -2.020864282144308 -1.5707963271947973 -0.12801313365696387 12631.037999999937
3.013579519888486 -1.108619322667035 1.558687278267338 -2.020864282144308 -1.5707963271947973 -0.12801313365696387 12631.087999999936
3.013579519888486 -1.108619322667035 1.558687278267338 -2.020864282144308 -1.5707963271947973 -0.12801313365696387 12631.137999999935
3.013579519888486 -1.108619322667035 1.558687278267338 -2.020864282144308 -1.5707963271947973 -0.12801313365696387 12631.187999999935
3.013579519888486 -1.108619322667035 1.558687278267338 -2.020864282144308 -1.5707963271947973 -0.12801313365696387 12631.237999999934
3.013579519888486 -1.108619322667035 1.558687278267338 -2.020864282144308 -1.5707963271947973 -0.12801313365696387 12631.287999999933
3.013579519888486 -1.108619322667035 1.558687278267338 -2.020864282144308 -1.5707963271947973 -0.12801313365696387 12631.337999999932
3.013579519888486 -1.108619322667035 1.558687278267338 -2.020864282144308 -1.5707963271947973 -0.12801313365696387 12631.387999999932
3.013579519888486 -1.108619322667035 1.558687278267338 -2.020864282144308 -1.5707963271947973 -0.12801313365696387 12631.437999999931
3.013579519888486 -1.108619322667035 1.558687278267338 -2.020864282144308 -1.5707963271947973 -0.12801313365696387 12631.48799999993
3.013579519888486 -1.108619322667035 1.558687278267338 -2.020864282144308 -1.5707963271947973 -0.12801313365696387 12631.53799999993
3.013579519888486 -1.108619322667035 1.558687278267338 -2.020864282144308 -1.5707963271947973 -0.12801313365696387 12631.587999999929
3.013579519888486 -1.108619322667035 1.558687278267338 -2.020864282144308 -1.5707963271947973 -0.12801313365696387 12631.637999999928
3.013579519888486 -1.108619322667035 1.558687278267338 -2.020864282144308 -1.5707963271947973 -0.12801313365696387 12631.687999999927
3.013579519888486 -1.108619322667035 1.558687278267338 -2.020864282144308 -1.5707963271947973 -0.12801313365696387 12631.737999999927
3.013579519867929 -1.1088454653962347 1.5582127758880604 -2.0201636370365614 -1.5707963271937022 -0.12801313367766307 12631.787999999926
3.013579519742012 -1.1102306540040214 1.5553063137061067 -2.0158719862513004 -1.5707963271869947 -0.12801313380445145 12631.837999999925
3.013579519451031 -1.1134316811549276 1.5485897811666274 -2.005954426571265 -1.5707963271714942 -0.12801313409744625 12631.887999999924
3.0135795189774255 -1.118641721162051 1.5376578516358432 -1.9898124570502036 -1.5707963271462653 -0.128013134574329 12631.937999999924
3.0135795183373513 -1.1256830536573417 1.5228834256168309 -1.9679966985586683 -1.5707963271121685 -0.12801313521883267 12631.987999999923
3.01357951757225 -1.1340997872618888 1.5052230739653099 -1.9419196133298149 -1.5707963270714118 -0.1280131359892289 12632.037999999922
3.0135795167404202 -1.1432505832562074 1.4860224811054272 -1.913568224505202 -1.5707963270271004 -0.12801313682681492 12632.087999999922
3.0135795159085905 -1.1524013792505263 1.4668218882455446 -1.885216835680589 -1.570796326982789 -0.12801313766440095 12632.13799999992
3.013579515143489 -1.1608181128550734 1.4491615365940236 -1.8591397504517357 -1.5707963269420322 -0.12801313843479717 12632.18799999992
3.013579514503415 -1.1678594453503641 1.4343871105750112 -1.8373239919602002 -1.5707963269079355 -0.12801313907930084 12632.23799999992
3.0135795140298094 -1.1730694853574875 1.423455181044227 -1.8211820224391388 -1.5707963268827065 -0.1280131395561836 12632.287999999919
3.0135795137388284 -1.1762705125083937 1.4167386485047477 -1.8112644627591035 -1.570796326867206 -0.1280131398491784 12632.337999999918
3.0135795136129113 -1.1776557011161803 1.4138321863227943 -1.8069728119738422 -1.5707963268604985 -0.12801313997596678 12632.387999999917
3.0135795135923544 -1.1778818438453802 1.4133576839435165 -1.806272166866096 -1.5707963268594034 -0.12801313999666597 12632.437999999916
3.0135795135923544 -1.1778818438453802 1.4133576839435165 -1.806272166866096 -1.5707963268594034 -0.12801313999666597 12632.487999999916
3.0136125650914383 -1.1778905990467983 1.4133682160447711 -1.806273943766061 -1.5707963268593728 -0.12794883088724987 12632.537999999915
3.0138388861638927 -1.1779505505355168 1.4134403349052527 -1.8062861111387032 -1.5707963268591634 -0.12750847244618088 12632.587999999914
3.014438062864906 -1.1781092698931166 1.4136312669313145 -1.806318323809493 -1.5707963268586091 -0.12634263969750342 12632.637999999914
3.01557510708829 -1.1784104680678666 1.4139935943664856 -1.8063794530743313 -1.5707963268575573 -0.12413026496718788 12632.687999999913
3.0174008452107826 -1.1788940983249467 1.4145753791358135 -1.8064776075936724 -1.5707963268558685 -0.12057788168841278 12632.737999999912
3.0200523067363525 -1.1795964591966683 1.4154202866902057 -1.8066201542866436 -1.5707963268534157 -0.11541886820684659 12632.787999999911
3.0236531129405004 -1.1805502974326965 1.416567709850771 -1.8068137392251697 -1.5707963268500849 -0.10841269158592978 12632.83799999991
3.028313865514565 -1.1817849109502716 1.4180528926531626 -1.8070643085280933 -1.5707963268457734 -0.09934415141215677 12632.88799999991
3.034132535210024 -1.1833262517844307 1.4199070541919194 -1.8073771292552967 -1.5707963268403908 -0.0880226236003579 12632.93799999991
3.0411948504827984 -1.1851970290382294 1.4221575124648085 -1.8077568103018238 -1.5707963268338576 -0.0742813041989814 12632.987999999908
3.0495746861375572 -1.1874168118329638 1.4248278082171664 -1.8082073232920028 -1.5707963268261058 -0.05797645319537538 12633.037999999908
3.0593344519720183 -1.1900021322583914 1.4279378287862416 -1.808732023473567 -1.5707963268170775 -0.03898663832106976 12633.087999999907
3.0705254814212535 -1.1929665883229528 1.4315039319455363 -1.8093336706117773 -1.5707963268067253 -0.017211978857058358 12633.137999999906
3.083188420201992 -1.1963209469039946 1.4355390697491486 -1.8100144498835433 -1.5707963267950114 0.007426610560919422 12633.187999999906
3.0973536149569236 -1.2000732466979889 1.440052912376114 -1.8107759927715459 -1.5707963267819078 0.03498817613709615 12633.237999999905
3.113041501899 -1.204228901170757 1.4450519719747483 -1.8116193979583592 -1.5707963267673957 0.06551248111039498 12633.287999999904
3.1302629954557424 -1.2087908015076898 1.4505397265069884 -1.8125452522205716 -1.5707963267514649 0.09902076194914711 12633.337999999903
3.14901987691354 -1.2137594195639698 1.4565167435927346 -1.8135536513229082 -1.5707963267341136 0.1355164845458101 12633.387999999903
3.1693051830619585 -1.2191329108147926 1.4629808043541936 -1.8146442209123526 -1.5707963267153486 0.1749861004116861 12633.437999999902
3.191103594838039 -1.2249072173055886 1.4699270272602194 -1.8158161374122685 -1.5707963266951839 0.2173998028716394 12633.487999999901
3.2143918259706035 -1.2310761706022453 1.4773479919706554 -1.8170681489165224 -1.570796326673641 0.2627122832588147 12633.5379999999
3.2391390116245584 -1.2376315947413274 1.4852338631806763 -1.8183985960836035 -1.5707963266507485 0.3108634871093555 12633.5879999999
3.2653070970451976 -1.2445634091803002 1.4935725144651308 -1.819805433030748 -1.5707963266265417 0.3617793703571213 12633.637999999899
3.2928512262025054 -1.2518597317477496 1.5023496521228832 -1.8212862482280592 -1.5707963266010618 0.41537265552840663 12633.687999999898
3.3217201304354607 -1.259506981593605 1.5115489390211543 -1.8228382853926302 -1.5707963265743565 0.47154358793665774 12633.737999999898
3.351856517096339 -1.2674899821393606 1.5211521184398653 -1.824458464382665 -1.5707963265464786 0.5301806918771922 12633.787999999897
3.3831974581950175 -1.2757920640282965 1.5311391379159782 -1.8261434020916012 -1.5707963265174867 0.591161526821916 12633.837999999896
3.415674779043278 -1.2843951680757006 1.541488273087839 -1.8278894333422315 -1.5707963264874434 0.6543534436140418 12633.887999999895
3.4492154468991094 -1.293279948219091 1.5521762515395183 -1.8296926317808253 -1.5707963264564164 0.7196143406628064 12633.937999999895
3.483741959611012 -1.3024258744684365 1.5631783766451544 -1.8315488307712509 -1.5707963264244775 0.7867934201381895 12633.987999999894
3.519172734262301 -1.311811335856379 1.5744686514132948 -1.8334536442890967 -1.570796326391702 0.8557319441656324 12634.037999999893
3.5554224958154075 -1.3214137433884545 1.5860199023312385 -1.8354024878157946 -1.570796326358169 0.9262639910207537 12634.087999999892
3.5924026657561865 -1.3312096329933156 1.5978039032093774 -1.83739059923274 -1.5707963263239604 0.9982172113240695 12634.137999999892
3.6300217507382158 -1.3411747684729523 1.6097914990255386 -1.8394130597154141 -1.5707963262891607 1.071413584235711 12634.187999999891
3.668185731227102 -1.3512842444529136 1.6219527297693268 -1.8414648146275072 -1.570796326253857 1.145670173650141 12634.23799999989
3.706798450144783 -1.3615125893325306 1.6342569542864653 -1.8435406944150385 -1.570796326218138 1.2207998843908754 12634.28799999989
3.745762001513831 -1.371833868235136 1.646672974123139 -1.8456354355004794 -1.5707963261820945 1.2966122184051962 12634.337999999889
3.784977119101757 -1.3822217859582875 1.6591691573703353 -1.8477437011768747 -1.5707963261458184 1.3729140309588743 12634.387999999888
3.824343565065313 -1.392649789923988 1.6717135625081876 -1.8498601025019643 -1.5707963261094025 1.4495102868308842 12634.437999999887
3.863760518594796 -1.4030911731289084 1.684274062250315 -1.8519792191923055 -1.5707963260729394 1.5262048165081252 12634.487999999887
3.903126964558352 -1.413519177094609 1.6968184673881672 -1.854095620517395 -1.5707963260365234 1.6028010723801351 12634.537999999886
3.942342082146278 -1.4239070948177601 1.7093146506353636 -1.8562038861937904 -1.5707963260002473 1.6791028849338132 12634.587999999885
3.981305633515326 -1.4342283737203658 1.7217306704720372 -1.8582986272792312 -1.570796325964204 1.7549152189481338 12634.637999999884
4.019918352433007 -1.4444567185999826 1.7340348949891757 -1.8603745070667626 -1.570796325928485 1.8300449296888674 12634.687999999884
4.058082332921893 -1.4545661945799442 1.746196125732964 -1.8624262619788556 -1.5707963258931812 1.9043015191032984 12634.737999999883
4.095701417903922 -1.4645313300595806 1.758183721549125 -1.8644487224615298 -1.5707963258583815 1.9774978920149393 12634.787999999882
4.132681587844702 -1.474327219664442 1.769967722427264 -1.8664368338784751 -1.5707963258241728 2.0494511123182564 12634.837999999882
4.168931349397808 -1.4839296271965174 1.7815189733452077 -1.868385677405173 -1.5707963257906399 2.119983159173377 12634.88799999988
4.204362124049096 -1.4933150885844597 1.7928092481133482 -1.870290490923019 -1.5707963257578643 2.1889216832008187 12634.93799999988
4.238888636760999 -1.5024610148338051 1.8038113732189842 -1.8721466899134445 -1.5707963257259254 2.2561007626762026 12634.98799999988
4.27242930461683 -1.5113457949771956 1.8144993516706636 -1.8739498883520382 -1.5707963256948985 2.321361659724968 12635.037999999879
4.304906625465091 -1.5199488990245997 1.8248484868425243 -1.8756959196026686 -1.5707963256648552 2.3845535765170927 12635.087999999878
4.336247566563771 -1.528250980913536 1.8348355063186377 -1.8773808573116049 -1.5707963256358632 2.4455344114618183 12635.137999999877
4.366383953224648 -1.536233981459291 1.8444386857373483 -1.8790010363016396 -1.5707963256079853 2.504171515402352 12635.187999999876
4.395252857457603 -1.5438812313051469 1.8536379726356194 -1.8805530734662106 -1.57079632558128 2.560342447810603 12635.237999999876
4.4227969866149115 -1.5511775538725963 1.8624151102933717 -1.8820338886635217 -1.5707963255558002 2.6139357329818895 12635.287999999875
4.448965072035551 -1.5581093683115692 1.8707537615778265 -1.8834407256106664 -1.5707963255315933 2.664851616229656 12635.337999999874
4.473712257689505 -1.564664792450651 1.8786396327878472 -1.8847711727777474 -1.5707963255087007 2.713002820080195 12635.387999999874
4.49700048882207 -1.5708337457473076 1.886060597498283 -1.8860231842820012 -1.570796325487158 2.7583153004673706 12635.437999999873
4.51879890059815 -1.5766080522381039 1.893006820404309 -1.8871951007819172 -1.5707963254669932 2.8007290029273233 12635.487999999872
4.539084206746569 -1.5819815434889264 1.899470881165768 -1.8882856703713615 -1.5707963254482282 2.8401986187932002 12635.537999999871
4.557841088204366 -1.5869501615452066 1.9054478982515144 -1.8892940694736982 -1.570796325430877 2.876694341389863 12635.58799999987
4.575062581761108 -1.5915120618821392 1.9109356527837542 -1.8902199237359105 -1.5707963254149462 2.9102026222286126 12635.63799999987
4.590750468703185 -1.5956677163549076 1.9159347123823884 -1.8910633289227239 -1.570796325400434 2.9407269272019136 12635.68799999987
4.604915663458115 -1.5994200161489016 1.9204485550093535 -1.8918248718107264 -1.5707963253873305 2.968288492778089 12635.737999999868
4.617578602238854 -1.602774374729943 1.924483692812966 -1.8925056510824925 -1.5707963253756165 2.992927082196067 12635.787999999868
4.6287696316880895 -1.6057388307945049 1.9280497959722607 -1.8931072982207027 -1.5707963253652644 3.0147017416600774 12635.837999999867
4.638529397522552 -1.6083241512199322 1.931159816541336 -1.8936319984022667 -1.570796325356236 3.0336915565343854 12635.887999999866
4.646909233177308 -1.6105439340146666 1.9338301122936936 -1.8940825113924458 -1.5707963253484842 3.049996407537989 12635.937999999865
4.653971548450082 -1.6124147112684655 1.936080570566583 -1.894462192438973 -1.570796325341951 3.0637377269393657 12635.987999999865
4.659790218145543 -1.6139560521026242 1.9379347321053397 -1.8947750131661762 -1.5707963253365684 3.075059254751165 12636.037999999864
4.664450970719608 -1.6151906656202 1.939419914907732 -1.8950255824691 -1.570796325332257 3.0841277949249406 12636.087999999863
4.668051776923754 -1.6161445038562272 1.9405673380682962 -1.8952191674076262 -1.570796325328926 3.0911339715458515 12636.137999999863
4.670703238449326 -1.6168468647279495 1.9414122456226888 -1.8953617141005976 -1.5707963253264734 3.0962929850274254 12636.187999999862
4.672528976571815 -1.6173304949850291 1.9419940303920162 -1.8954598686199382 -1.5707963253247845 3.0998453683061955 12636.237999999861
4.673666020795202 -1.6176316931597796 1.942356357827188 -1.895520997884777 -1.5707963253237327 3.102057743036512 12636.28799999986
4.674265197496214 -1.617790412517379 1.9425472898532496 -1.8955532105555666 -1.5707963253231785 3.1032235757851936 12636.33799999986
4.6744915185686695 -1.617850364006098 1.9426194087137323 -1.895565377928209 -1.570796325322969 3.103663934226262 12636.387999999859
4.674524570067753 -1.6178591192075158 1.942629940814986 -1.8955671548281738 -1.5707963253229384 3.1037282433356754 12636.437999999858
4.674524570067755 -1.6178591192075162 1.942629940814986 -1.8955671548281738 -1.5707963253229384 3.1037282433356754 12636.487999999857
4.6745245691269055 -1.617636283155423 1.942987154031751 -1.896147204327628 -1.5707963253111776 3.1037282423954453 12636.537999999857
4.674524563259337 -1.6162465756009667 1.9452148990542746 -1.8997646583427097 -1.5707963252378325 3.1037282365317402 12636.587999999856
4.674524549382818 -1.612959983338236 1.9504834100664554 -1.9083197650186645 -1.5707963250643748 3.103728222664357 12636.637999999855
4.674524526162523 -1.6074603589158516 1.959299481399903 -1.9226354664656375 -1.570796324774119 3.103728199459349 12636.687999999855
4.674524493719799 -1.5997764430112116 1.9716170408426528 -1.9426369497645248 -1.570796324368582 3.1037281670379833 12636.737999999854
4.674524453340934 -1.5902128868047356 1.9869477229478814 -1.9675311979728225 -1.5707963238638425 3.1037281266857004 12636.787999999853
4.674524407185914 -1.5792812743541103 2.00447144234262 -1.9959865411304771 -1.5707963232869007 3.103728080561068 12636.837999999852
4.674524357997202 -1.5676311449685323 2.0231469670364715 -2.0263122072657347 -1.5707963226720372 3.1037280314047386 12636.887999999852
4.67452430880849 -1.5559810155829543 2.041822491730323 -2.0566378734009927 -1.5707963220571737 3.1037279822484094 12636.937999999851
4.67452426265347 -1.545049403132329 2.0593462111250616 -2.085093216558647 -1.5707963214802318 3.103727936123777 12636.98799999985
4.674524222274605 -1.535485846925853 2.07467689323029 -2.1099874647669448 -1.5707963209754923 3.103727895771494 12637.03799999985
4.674524189831881 -1.527801931021213 2.0869944526730397 -2.129988948065832 -1.5707963205699553 3.1037278633501284 12637.087999999849
4.674524166611586 -1.5223023065988286 2.0958105240064877 -2.1443046495128053 -1.5707963202796995 3.1037278401451203 12637.137999999848
4.674524152735067 -1.5190157143360976 2.1010790350186683 -2.15285975618876 -1.5707963201062418 3.103727826277737 12637.187999999847
4.6745241468674985 -1.5176260067816416 2.103306780041192 -2.156477210203842 -1.5707963200328967 3.103727820414032 12637.237999999847
4.674524145926649 -1.5174031707295483 2.103663993257957 -2.157057259703296 -1.570796320021136 3.103727819473802 12637.287999999846
4.674524145926649 -1.5174031707295483 2.103663993257957 -2.157057259703296 -1.570796320021136 3.103727819473802 12637.337999999845
4.674524145926649 -1.5174031707295483 2.103663993257957 -2.157057259703296 -1.570796320021136 3.103727819473802 12637.387999999844
4.674524145926649 -1.5174031707295483 2.103663993257957 -2.157057259703296 -1.570796320021136 3.103727819473802 12637.437999999844
4.674524145926649 -1.5174031707295483 2.103663993257957 -2.157057259703296 -1.570796320021136 3.103727819473802 12637.487999999843
4.674524145926649 -1.5174031707295483 2.103663993257957 -2.157057259703296 -1.570796320021136 3.103727819473802 12637.537999999842
4.674524145926649 -1.5174031707295483 2.103663993257957 -2.1570572597032958 -1.570796320021136 3.103727819473802 12637.587999999841
4.6745241468674985 -1.5176260067816416 2.103306780041192 -2.1564772102038416 -1.5707963200328967 3.103727820414032 12637.63799999984
4.674524152735067 -1.5190157143360978 2.1010790350186683 -2.15285975618876 -1.5707963201062418 3.103727826277737 12637.68799999984
4.674524166611586 -1.5223023065988286 2.0958105240064877 -2.144304649512805 -1.5707963202796995 3.1037278401451203 12637.73799999984
4.674524189831881 -1.527801931021213 2.0869944526730397 -2.129988948065832 -1.5707963205699553 3.1037278633501284 12637.787999999839
4.674524222274605 -1.535485846925853 2.07467689323029 -2.1099874647669448 -1.5707963209754923 3.103727895771494 12637.837999999838
4.67452426265347 -1.545049403132329 2.0593462111250616 -2.085093216558647 -1.5707963214802318 3.103727936123777 12637.887999999837
4.67452430880849 -1.5559810155829543 2.041822491730323 -2.0566378734009927 -1.5707963220571737 3.1037279822484094 12637.937999999836
4.674524357997202 -1.5676311449685323 2.0231469670364715 -2.0263122072657347 -1.5707963226720372 3.1037280314047386 12637.987999999836
4.674524407185914 -1.5792812743541103 2.00447144234262 -1.995986541130477 -1.5707963232869007 3.103728080561068 12638.037999999835
4.674524453340934 -1.5902128868047356 1.9869477229478814 -1.9675311979728225 -1.5707963238638425 3.1037281266857004 12638.087999999834
4.674524493719799 -1.5997764430112116 1.9716170408426528 -1.9426369497645248 -1.570796324368582 3.1037281670379833 12638.137999999833
4.674524526162523 -1.6074603589158516 1.959299481399903 -1.9226354664656375 -1.570796324774119 3.103728199459349 12638.187999999833
4.674524549382818 -1.612959983338236 1.9504834100664554 -1.9083197650186643 -1.5707963250643748 3.103728222664357 12638.237999999832
4.674524563259337 -1.616246575600967 1.9452148990542746 -1.8997646583427097 -1.5707963252378325 3.1037282365317402 12638.287999999831
4.6745245691269055 -1.617636283155423 1.9429871540317507 -1.8961472043276277 -1.5707963253111776 3.1037282423954453 12638.33799999983
4.674524570067755 -1.6178591192075162 1.942629940814986 -1.8955671548281736 -1.5707963253229384 3.1037282433356754 12638.38799999983
4.674524570067755 -1.6178591192075162 1.942629940814986 -1.8955671548281736 -1.5707963253229384 3.1037282433356754 12638.43799999983
4.674524570067755 -1.6178591192075162 1.942629940814986 -1.8955671548281736 -1.5707963253229384 3.1037282433356754 12638.487999999828
4.674524570067755 -1.6178591192075162 1.942629940814986 -1.8955671548281736 -1.5707963253229384 3.1037282433356754 12638.537999999828
4.674524570067755 -1.6178591192075162 1.942629940814986 -1.8955671548281736 -1.5707963253229384 3.1037282433356754 12638.587999999827
4.674524570067755 -1.6178591192075162 1.942629940814986 -1.8955671548281736 -1.5707963253229384 3.1037282433356754 12638.637999999826
4.674524570067755 -1.6178591192075162 1.942629940814986 -1.8955671548281736 -1.5707963253229384 3.1037282433356754 12638.687999999825
4.674524570067755 -1.6178591192075162 1.942629940814986 -1.8955671548281736 -1.5707963253229384 3.1037282433356754 12638.737999999825
4.674524570067755 -1.6178591192075162 1.942629940814986 -1.8955671548281736 -1.5707963253229384 3.1037282433356754 12638.787999999824
4.674524570067755 -1.6178591192075162 1.942629940814986 -1.8955671548281736 -1.5707963253229384 3.1037282433356754 12638.837999999823
4.674524570067755 -1.6178591192075162 1.942629940814986 -1.8955671548281736 -1.5707963253229384 3.1037282433356754 12638.887999999823
4.674524570067755 -1.6178591192075162 1.942629940814986 -1.8955671548281736 -1.5707963253229384 3.1037282433356754 12638.937999999822
4.674524570067755 -1.6178591192075162 1.942629940814986 -1.8955671548281736 -1.5707963253229384 3.1037282433356754 12638.987999999821
4.674524570067755 -1.6178591192075162 1.942629940814986 -1.8955671548281736 -1.5707963253229384 3.1037282433356754 12639.03799999982
4.674524570067755 -1.6178591192075162 1.942629940814986 -1.8955671548281736 -1.5707963253229384 3.1037282433356754 12639.08799999982
4.674524570067755 -1.6178591192075162 1.942629940814986 -1.8955671548281736 -1.5707963253229384 3.1037282433356754 12639.137999999819
4.674524570067755 -1.6178591192075162 1.942629940814986 -1.8955671548281736 -1.5707963253229384 3.1037282433356754 12639.187999999818
4.674524570067755 -1.6178591192075162 1.942629940814986 -1.8955671548281736 -1.5707963253229384 3.1037282433356754 12639.237999999817
4.674524570067755 -1.6178591192075162 1.942629940814986 -1.8955671548281736 -1.5707963253229384 3.1037282433356754 12639.287999999817
4.674524570067755 -1.6178591192075162 1.942629940814986 -1.8955671548281736 -1.5707963253229384 3.1037282433356754 12639.337999999816
4.674524570067755 -1.6178591192075162 1.942629940814986 -1.8955671548281736 -1.5707963253229384 3.1037282433356754 12639.387999999815
4.674524570067755 -1.6178591192075162 1.942629940814986 -1.8955671548281736 -1.5707963253229384 3.1037282433356754 12639.437999999815
4.674524570067755 -1.6178591192075162 1.942629940814986 -1.8955671548281736 -1.5707963253229384 3.1037282433356754 12639.487999999814
4.674524570067755 -1.6178591192075162 1.942629940814986 -1.8955671548281736 -1.5707963253229384 3.1037282433356754 12639.537999999813
4.674524570067755 -1.6178591192075162 1.942629940814986 -1.8955671548281736 -1.5707963253229384 3.1037282433356754 12639.587999999812
4.674524570067755 -1.6178591192075162 1.942629940814986 -1.8955671548281736 -1.5707963253229384 3.1037282433356754 12639.637999999812
4.674524570067755 -1.6178591192075162 1.942629940814986 -1.8955671548281736 -1.5707963253229384 3.1037282433356754 12639.687999999811
4.674524570067755 -1.6178591192075162 1.942629940814986 -1.8955671548281736 -1.5707963253229384 3.1037282433356754 12639.73799999981
4.674524570067755 -1.6178591192075162 1.942629940814986 -1.8955671548281736 -1.5707963253229384 3.1037282433356754 12639.78799999981
4.674524570067755 -1.6178591192075162 1.942629940814986 -1.8955671548281736 -1.5707963253229384 3.1037282433356754 12639.837999999809
4.674524570067755 -1.6178591192075162 1.942629940814986 -1.8955671548281736 -1.5707963253229384 3.1037282433356754 12639.887999999808
4.674524570067755 -1.6178591192075162 1.942629940814986 -1.8955671548281736 -1.5707963253229384 3.1037282433356754 12639.937999999807
4.674524570067755 -1.6178591192075162 1.942629940814986 -1.8955671548281736 -1.5707963253229384 3.1037282433356754 12639.987999999807
4.674524570067755 -1.6178591192075162 1.942629940814986 -1.8955671548281738 -1.5707963253229384 3.1037282433356754 12640.037999999806
4.674384913922827 -1.6178502018053467 1.942620948351142 -1.895567079773775 -1.5707963253129094 3.1035885871913766 12640.087999999805
4.673441729552609 -1.6177899770701318 1.9425602166779903 -1.8955665728849727 -1.5707963252451762 3.1026454028254027 12640.137999999804
4.670984168919047 -1.6176330555359082 1.9424019742665795 -1.8955652521358115 -1.5707963250686907 3.1001878422029012 12640.187999999804
4.666398563209547 -1.6173402528788945 1.942106706961537 -1.8955627877266685 -1.5707963247393837 3.095602236514037 12640.237999999803
4.659164103760279 -1.6168783141333942 1.9416408798755755 -1.8955588997630841 -1.5707963242198537 3.088367777097327 12640.287999999802
4.648848522979496 -1.6162196379077005 1.9409766592840012 -1.8955533559345907 -1.5707963234790585 3.0780521963629677 12640.337999999801
4.6351037752708475 -1.6153420005999966 1.9400916345192216 -1.8955459691935437 -1.5707963224920036 3.0643074487161743 12640.3879999998
4.617661717956687 -1.614228280614261 1.9389685398652527 -1.895536595433949 -1.5707963212394331 3.046865391480509 12640.4379999998
4.5963297922013915 -1.6128661825761694 1.9375949764522264 -1.8955251311702948 -1.5707963197075183 3.0255334658212134 12640.4879999998
4.57098670393467 -1.6112479615489976 1.9359631341508994 -1.8955115112163798 -1.5707963178875493 3.000190377668544 12640.537999999799
4.541578104774879 -1.6093701472495252 1.934069513467159 -1.895495706364144 -1.5707963157756226 2.970781778641101 12640.587999999798
4.508112272952335 -1.6072332682639383 1.9319146474365325 -1.895477721062497 -1.5707963133723328 2.937315946969164 12640.637999999797
4.470655794232628 -1.604841576263732 1.9295028235186937 -1.8954575910961484 -1.570796310682462 2.8998594684180232 12640.687999999796
4.429329242839934 -1.6022027702216142 1.926841805491971 -1.8954353812644378 -1.5707963077146685 2.8585329172113116 12640.737999999796
4.384302862380328 -1.5993277206274081 1.923942555347855 -1.8954111830601639 -1.5707963044811786 2.8135065369543386 12640.787999999795
4.335792246765098 -1.5962301937039551 1.920818955185506 -1.8953851123484138 -1.5707963009974741 2.7649959215574214 12640.837999999794
4.284054021134056 -1.5929265756230189 1.9174875291062619 -1.8953573070453933 -1.5707962972819849 2.7132576961592174 12640.887999999793
4.229381522778853 -1.5894355967211864 1.9139671651081451 -1.8953279247972563 -1.5707962933557758 2.658585198050059 12640.937999999793
4.172100482066295 -1.5857780557157732 1.9102788369803716 -1.8952971406589347 -1.570796289242239 2.6013041575952833 12640.987999999792
4.112564703361648 -1.5819765439207245 1.906445326197857 -1.8952651447729674 -1.570796284966782 2.541768379158567 12641.037999999791
4.05115174595196 -1.5780551694625193 1.9024909438157251 -1.8952321400483303 -1.5707962805565188 2.480355422025256 12641.08799999979
3.9882586049693662 -1.5740392814960733 1.8984412523638157 -1.8951983398392662 -1.5707962760399587 2.417462281325702 12641.13799999979
3.9242973923144087 -1.5699551944206411 1.8943227877411912 -1.8951639656241142 -1.5707962714466972 2.35350106895859 12641.18799999979
3.859691017579346 -1.5658299120957202 1.8901627811106454 -1.8951292446841388 -1.5707962668071043 2.288894694514277 12641.237999999788
3.794868868971468 -1.5616908520569537 1.8859888807932104 -1.8950944077823608 -1.5707962621520162 2.2240725461981183 12641.287999999788
3.7302624942364058 -1.557565569732033 1.8818288741626645 -1.8950596868423855 -1.5707962575124232 2.159466171753806 12641.337999999787
3.6663012815814486 -1.5534814826566008 1.87771040954004 -1.8950253126272334 -1.5707962529191617 2.095504959386694 12641.387999999786
3.6034081405988547 -1.5494655946901548 1.8736607180881306 -1.8949915124181693 -1.5707962484026017 2.0326118186871396 12641.437999999785
3.541995183189166 -1.5455442202319496 1.8697063357059989 -1.8949585076935322 -1.5707962439923384 1.9711988615538285 12641.487999999785
3.482459404484519 -1.5417427084369009 1.8658728249234842 -1.8949265118075649 -1.5707962397168815 1.911663083117112 12641.537999999784
3.4251783637719604 -1.5380851674314875 1.8621844967957106 -1.8948957276692433 -1.5707962356033447 1.8543820426623359 12641.587999999783
3.370505865416759 -1.5345941885296552 1.858664132797594 -1.8948663454211063 -1.5707962316771356 1.799709544553178 12641.637999999783
3.318767639785716 -1.531290570448719 1.8553327067183498 -1.8948385401180858 -1.5707962279616463 1.747971319154974 12641.687999999782
3.270257024170486 -1.528193043525266 1.8522091065560007 -1.8948124694063357 -1.5707962244779419 1.699460703758057 12641.737999999781
3.22523064371088 -1.52531799393106 1.8493098564118848 -1.8947882712020618 -1.570796221244452 1.6544343235010832 12641.78799999978
3.1839040923181856 -1.522679187888942 1.846648838385162 -1.8947660613703512 -1.5707962182766584 1.613107772294372 12641.83799999978
3.14644761359848 -1.5202874958887358 1.8442370144673235 -1.8947459314040027 -1.5707962155867876 1.5756512937432319 12641.887999999779
3.1129817817759347 -1.5181506169031487 1.8420821484366967 -1.8947279461023556 -1.5707962131834978 1.5421854620712945 12641.937999999778
3.0835731826161448 -1.5162728026036765 1.8401885277529564 -1.8947121412501198 -1.5707962110715712 1.5127768630438514 12641.987999999777
3.0582300943494216 -1.5146545815765047 1.8385566854516293 -1.8946985212962049 -1.5707962092516021 1.4874337748911817 12642.037999999777
3.036898168594125 -1.513292483538413 1.837183122038603 -1.8946870570325507 -1.5707962077196873 1.4661018492318845 12642.087999999776
