Andreas691667/Digital_Twin_UR/src/dt/dt_trajectories/vis_dt_trajectory.csv
actual_q_0 actual_q_1 actual_q_2 actual_q_3 actual_q_4 actual_q_5 timestamp
3.71207804710797 -0.8254843255005873 0.8429764792549035 -1.5882884806323445 -1.570796326807946 2.141281720311417 5182.9259999999995
3.71207804710797 -0.8254843255005873 0.8429764792549035 -1.5882884806323445 -1.570796326807946 2.141281720311417 5182.976
3.71207804710797 -0.8254843255005873 0.8429764792549035 -1.5882884806323445 -1.570796326807946 2.141281720311417 5183.026
3.71207804710797 -0.8254843255005873 0.8429764792549035 -1.5882884806323445 -1.570796326807946 2.141281720311417 5183.076
3.71207804710797 -0.8254843255005873 0.8429764792549035 -1.5882884806323445 -1.570796326807946 2.141281720311417 5183.126
3.71207804710797 -0.8254843255005873 0.8429764792549035 -1.5882884806323445 -1.570796326807946 2.141281720311417 5183.176
3.71207804710797 -0.8254843255005873 0.8429764792549035 -1.5882884806323445 -1.570796326807946 2.141281720311417 5183.226000000001
3.71207804710797 -0.8254843255005873 0.8429764792549035 -1.5882884806323445 -1.570796326807946 2.141281720311417 5183.276000000001
3.71207804710797 -0.8254843255005873 0.8429764792549035 -1.5882884806323445 -1.570796326807946 2.141281720311417 5183.326000000001
3.71207804710797 -0.8254843255005873 0.8429764792549035 -1.5882884806323445 -1.570796326807946 2.141281720311417 5183.376000000001
3.71207804710797 -0.8254843255005873 0.8429764792549035 -1.5882884806323445 -1.570796326807946 2.141281720311417 5183.426000000001
3.71207804710797 -0.8254843255005873 0.8429764792549035 -1.5882884806323445 -1.570796326807946 2.141281720311417 5183.4760000000015
3.71207804710797 -0.8254843255005873 0.8429764792549035 -1.5882884806323445 -1.570796326807946 2.141281720311417 5183.526000000002
3.7122689791773014 -0.8255822011483995 0.8431247541871719 -1.5883388799190803 -1.5707963268548544 2.1411975678393773 5183.576000000002
3.713544740040671 -0.8262361820191524 0.8441154906112279 -1.5886756354876148 -1.5707963271682845 2.1406352818349363 5183.626000000002
3.7168275167322813 -0.8279189998738993 0.8466648449093596 -1.589542171970193 -1.5707963279748003 2.1391884124079175 5183.676000000002
3.7228710753776704 -0.8310170505030092 0.8513581803555411 -1.591137456859419 -1.5707963294595875 2.1365247404448637 5183.726000000002
3.732270668305987 -0.835835472312677 0.8586577608276864 -1.593618615634119 -1.5707963317688887 2.1323819110927604 5183.776000000003
3.7454729411622654 -0.8426032249114345 0.8689104445199027 -1.5971035468852008 -1.5707963350124359 2.126563067242757 5183.826000000003
3.762785840019699 -0.8514781676966612 0.8823553776547448 -1.601673537441516 -1.5707963392658857 2.118932483013891 5183.876000000003
3.784388518491916 -0.8625521384410955 0.8991316881954681 -1.6073758774957212 -1.5707963445732527 2.109411197236808 5183.926000000003
3.810341244845251 -0.8758560318793451 0.9192861795582831 -1.6142264757301383 -1.5707963509493437 2.0979726469374858 5183.976000000003
3.840595309111022 -0.8913648782943985 0.9427810243246088 -1.6222124744426163 -1.5707963583821913 2.0846383008209557 5184.0260000000035
3.8750029301978044 -0.9090029221041348 0.9695014579533265 -1.631294864672393 -1.5707963668354892 2.069473292755027 5184.076000000004
3.913327163003703 -0.9286487004478358 0.9992634724930336 -1.6414111013259551 -1.5707963762510238 2.0525820552540046 5184.126000000004
3.955251805528629 -0.9501401217726961 1.0318215102942974 -1.6524777183029 -1.5707963865511108 2.0341039529624183 5184.176000000004
4.000391305986574 -0.9732795444203346 1.0668761577219086 -1.664392943621797 -1.5707963976410269 2.014208916138738 5184.226000000004
4.048300669917882 -0.9978388552133042 1.1040818388671358 -1.6770393145460483 -1.570796409411446 1.9930930741391024 5184.276000000004
4.098485367301527 -1.023564548041604 1.143054509259978 -1.6902862927097497 -1.570796421740871 1.970974388901036 5184.326000000005
4.150411239667386 -1.0501828024491897 1.18337934958142 -1.7039928792435532 -1.5707964344980696 1.9480882884271746 5184.376000000005
4.203514407208509 -1.077404562220484 1.2246184593756846 -1.7180102299005264 -1.5707964475445073 1.9246833002689874 5184.426000000005
4.257211175893402 -1.104930613966888 1.2663185507624877 -1.7321842701820154 -1.5707964607367817 1.9010166850104984 5184.476000000005
4.310907944578295 -1.132456665713292 1.3080186421492905 -1.7463583104635043 -1.5707964739290559 1.8773500697520094 5184.526000000005
4.364011112119418 -1.1596784254845862 1.3492577519435551 -1.7603756611204775 -1.5707964869754936 1.8539450815938223 5184.5760000000055
4.415936984485277 -1.186296679892172 1.3895825922649974 -1.774082247654281 -1.5707964997326922 1.8310589811199607 5184.626000000006
4.4661216818689216 -1.2120223727204718 1.4285552626578395 -1.7873292258179825 -1.5707965120621172 1.808940295881894 5184.676000000006
4.5140310458002295 -1.2365816835134416 1.4657609438030668 -1.7999755967422335 -1.5707965238325363 1.7878244538822583 5184.726000000006
4.559170546258174 -1.2597211061610796 1.5008155912306775 -1.8118908220611303 -1.5707965349224524 1.7679294170585786 5184.776000000006
4.6010951887831 -1.2812125274859398 1.533373629031941 -1.8229574390380754 -1.5707965452225394 1.7494513147669921 5184.826000000006
4.6394194215889994 -1.300858305829641 1.5631356435716484 -1.8330736756916375 -1.570796554638074 1.7325600772659702 5184.876000000007
4.673827042675781 -1.3184963496393776 1.5898560772003665 -1.8421560659214142 -1.5707965630913718 1.7173950692000408 5184.926000000007
4.704081106941552 -1.3340051960544304 1.6133509219666915 -1.850142064633892 -1.5707965705242195 1.7040607230835114 5184.976000000007
4.730033833294889 -1.3473090894926805 1.6335054133295075 -1.8569926628683096 -1.5707965769003105 1.6926221727841884 5185.026000000007
4.751636511767105 -1.3583830602371147 1.6502817238702299 -1.8626950029225142 -1.5707965822076775 1.683100887007106 5185.076000000007
4.768949410624538 -1.367258003022341 1.6637266570050717 -1.8672649934788295 -1.5707965864611273 1.6754703027782398 5185.1260000000075
4.782151683480817 -1.3740257556210984 1.6739793406972883 -1.8707499247299113 -1.5707965897046745 1.6696514589282365 5185.176000000008
4.791551276409134 -1.3788441774307665 1.681278921169434 -1.8732310835046113 -1.5707965920139757 1.665508629576133 5185.226000000008
4.7975948350545226 -1.381942228059876 1.6859722566156154 -1.8748263683938375 -1.5707965934987629 1.662844957613079 5185.276000000008
4.800877611746131 -1.383625045914623 1.6885216109137464 -1.8756929048764155 -1.5707965943052786 1.6613980881860604 5185.326000000008
4.802153372609503 -1.384279026785376 1.689512347337803 -1.8760296604449502 -1.5707965946187088 1.6608358021816192 5185.376000000008
4.802344304678834 -1.3843769024331887 1.689660622270071 -1.8760800597316858 -1.5707965946656173 1.6607516497095798 5185.426000000009
4.802344304678834 -1.384376902433189 1.6896606222700719 -1.8760800597316862 -1.5707965946656173 1.6607516497095798 5185.476000000009
4.802344307386492 -1.384147745783343 1.6900552203559738 -1.8767038144324433 -1.5707965939491735 1.6607516524209287 5185.526000000009
4.802344324132375 -1.3827304948337065 1.6924956667159023 -1.8805615115256038 -1.5707965895182276 1.66075166918964 5185.576000000009
4.802344363315421 -1.3794143239348313 1.6982059731377366 -1.8895879883399567 -1.5707965791504284 1.6607517084261019 5185.626000000009
4.802344428055237 -1.3739352121312087 1.7076407725712601 -1.9045018987404798 -1.5707965620203306 1.6607517732541726 5185.6760000000095
4.802344517151974 -1.366394705944188 1.720625206189633 -1.9250268373944897 -1.5707965384454132 1.6607518624723678 5185.72600000001
4.802344626046208 -1.3571786821548983 1.736494810450864 -1.9501124640377867 -1.5707965096320957 1.660751971515049 5185.77600000001
4.80234474777882 -1.3468761105871672 1.7542354041592816 -1.978155627740803 -1.5707964774217549 1.6607520934136086 5185.82600000001
4.8023448739508705 -1.3361978168904423 1.7726229755270069 -2.0072214911747506 -1.5707964440367426 1.660752219757659 5185.87600000001
4.802344995683482 -1.325895245322711 1.7903635692354243 -2.035264654877767 -1.5707964118264017 1.6607523416562187 5185.92600000001
4.802345104577716 -1.3166792215334213 1.8062331734966552 -2.060350281521064 -1.5707963830130842 1.6607524506988998 5185.976000000011
4.802345193674453 -1.3091387153464007 1.8192176071150283 -2.0808752201750735 -1.5707963594381669 1.660752539917095 5186.026000000011
4.802345258414269 -1.3036596035427779 1.8286524065485519 -2.0957891305755973 -1.570796342308069 1.6607526047451657 5186.076000000011
4.8023452975973155 -1.3003434326439027 1.8343627129703863 -2.1048156073899498 -1.5707963319402698 1.6607526439816276 5186.126000000011
4.8023453143431984 -1.2989261816942663 1.8368031593303147 -2.1086733044831103 -1.570796327509324 1.660752660750339 5186.176000000011
4.8023453170508565 -1.2986970250444205 1.8371977574162166 -2.1092970591838673 -1.5707963267928802 1.6607526634616878 5186.2260000000115
4.8023453170508565 -1.2986970250444205 1.8371977574162166 -2.1092970591838673 -1.5707963267928802 1.6607526634616878 5186.276000000012
4.8023453170508565 -1.2986970250444205 1.8371977574162166 -2.1092970591838673 -1.5707963267928802 1.6607526634616878 5186.326000000012
4.8023453170508565 -1.2986970250444205 1.8371977574162166 -2.1092970591838673 -1.5707963267928802 1.6607526634616878 5186.376000000012
4.8023453170508565 -1.2986970250444205 1.8371977574162166 -2.1092970591838673 -1.5707963267928802 1.6607526634616878 5186.426000000012
4.8023453170508565 -1.2986970250444205 1.8371977574162166 -2.1092970591838673 -1.5707963267928802 1.6607526634616878 5186.476000000012
4.8023453170508565 -1.2986970250444205 1.8371977574162166 -2.1092970591838673 -1.5707963267928802 1.6607526634616878 5186.526000000013
4.8023453170508565 -1.2986970250444205 1.8371977574162166 -2.1092970591838673 -1.5707963267928802 1.6607526634616878 5186.576000000013
4.8023453170508565 -1.2986970250444205 1.8371977574162166 -2.1092970591838673 -1.5707963267928802 1.6607526634616878 5186.626000000013
4.8023453170508565 -1.2986970250444205 1.8371977574162166 -2.1092970591838673 -1.5707963267928802 1.6607526634616878 5186.676000000013
4.8023453170508565 -1.2986970250444205 1.8371977574162166 -2.1092970591838673 -1.5707963267928802 1.6607526634616878 5186.726000000013
4.8023453170508565 -1.2986970250444205 1.8371977574162166 -2.1092970591838673 -1.5707963267928802 1.6607526634616878 5186.7760000000135
4.8023453170508565 -1.2986970250444205 1.8371977574162166 -2.1092970591838673 -1.5707963267928802 1.6607526634616878 5186.826000000014
4.8023453170508565 -1.2986970250444205 1.8371977574162166 -2.1092970591838673 -1.5707963267928802 1.6607526634616878 5186.876000000014
4.8023453170508565 -1.2986970250444205 1.8371977574162166 -2.1092970591838673 -1.5707963267928802 1.6607526634616878 5186.926000000014
4.8023453143431984 -1.2989261816942663 1.8368031593303147 -2.1086733044831103 -1.570796327509324 1.660752660750339 5186.976000000014
4.8023452975973155 -1.300343432643903 1.8343627129703861 -2.1048156073899498 -1.5707963319402698 1.6607526439816276 5187.026000000014
4.802345258414269 -1.303659603542778 1.8286524065485519 -2.095789130575597 -1.570796342308069 1.6607526047451657 5187.076000000015
4.802345193674453 -1.3091387153464007 1.8192176071150283 -2.0808752201750735 -1.5707963594381669 1.660752539917095 5187.126000000015
4.802345104577716 -1.3166792215334213 1.8062331734966555 -2.060350281521064 -1.5707963830130842 1.6607524506988998 5187.176000000015
4.802344995683482 -1.325895245322711 1.7903635692354245 -2.035264654877767 -1.5707964118264017 1.6607523416562187 5187.226000000015
4.8023448739508705 -1.3361978168904423 1.7726229755270069 -2.0072214911747506 -1.5707964440367426 1.660752219757659 5187.276000000015
4.80234474777882 -1.3468761105871672 1.7542354041592816 -1.978155627740803 -1.5707964774217549 1.6607520934136086 5187.3260000000155
4.802344626046208 -1.3571786821548981 1.7364948104508642 -1.9501124640377867 -1.5707965096320957 1.660751971515049 5187.376000000016
4.802344517151974 -1.366394705944188 1.7206252061896332 -1.9250268373944899 -1.5707965384454132 1.6607518624723678 5187.426000000016
4.802344428055237 -1.3739352121312087 1.7076407725712601 -1.90450189874048 -1.5707965620203306 1.6607517732541726 5187.476000000016
4.802344363315421 -1.3794143239348315 1.6982059731377366 -1.8895879883399564 -1.5707965791504284 1.6607517084261019 5187.526000000016
4.802344324132375 -1.3827304948337067 1.6924956667159021 -1.8805615115256038 -1.5707965895182276 1.66075166918964 5187.576000000016
4.802344307386492 -1.384147745783343 1.6900552203559738 -1.876703814432443 -1.5707965939491735 1.6607516524209287 5187.626000000017
4.802344304678834 -1.384376902433189 1.6896606222700719 -1.8760800597316862 -1.5707965946656173 1.6607516497095798 5187.676000000017
4.802344304678834 -1.384376902433189 1.6896606222700719 -1.8760800597316862 -1.5707965946656173 1.6607516497095798 5187.726000000017
4.802212309909164 -1.384373871400779 1.6896568459491903 -1.8760793144421866 -1.570796594646128 1.6607346151579627 5187.776000000017
4.801319584917722 -1.3843533715098446 1.689631305421826 -1.876074273798804 -1.5707965945143145 1.6606194047599698 5187.826000000017
4.798989611424414 -1.3842998676839735 1.6895646457535802 -1.8760611179382838 -1.5707965941702873 1.6603187106200612 5187.8760000000175
4.7946343172108 -1.384199855858134 1.6894400424187244 -1.8760365263953482 -1.5707965935272155 1.6597566392268146 5187.926000000018
4.787750312457899 -1.3840417765526598 1.6892430936232345 -1.8759976568517203 -1.5707965925107725 1.6588682257344527 5187.976000000018
4.77791512608398 -1.383815928447232 1.688961712627827 -1.8759421238851444 -1.570796591058579 1.6575989482443698 5188.026000000018
4.764783442082378 -1.383514381954864 1.688586020070994 -1.8758679777184097 -1.5707965891196483 1.6559042420866585 5188.076000000018
4.748083335859287 -1.3831308927958859 1.6881082362920383 -1.8757736829683724 -1.5707965866538296 1.6537490141016378 5188.126000000018
4.727612510571563 -1.3826608155719262 1.6875225736541093 -1.8756580973949766 -1.5707965836312534 1.6511071569213778 5188.176000000019
4.703234533464529 -1.382101017339898 1.686825128867238 -1.8755204506502783 -1.5707965800317751 1.647961063251229 5188.226000000019
4.674875072209772 -1.3814497911859813 1.686013775311372 -1.8753603230274662 -1.5707965758444193 1.6443011401513474 5188.276000000019
4.642518131242952 -1.3807067697996072 1.6850880553594116 -1.8751776242098848 -1.5707965710668241 1.6401253233182225 5188.326000000019
4.606202288101599 -1.3798728390474417 1.6840490727002448 -1.8749725720200563 -1.5707965657046858 1.6354385913662033 5188.376000000019
4.566016929762916 -1.3789500515473696 1.6828993846617821 -1.874745671168703 -1.5707965597712024 1.6302524801090263 5188.4260000000195
4.522098488981579 -1.3779415402424784 1.6816428945339927 -1.874497692003769 -1.5707965532865187 1.6245845968413415 5188.47600000002
4.474626680627545 -1.3768514319750413 1.6802847438919395 -1.8742296492594435 -1.5707965462771698 1.6184581346202391 5188.52600000002
4.4238207380238475 -1.3756847610605023 1.678831204918814 -1.8739427808051814 -1.5707965387755267 1.6119013865467775 5188.57600000002
4.369935649284402 -1.374447382861459 1.6772895727289723 -1.873638526394727 -1.5707965308192389 1.6049472600475096 5188.62600000002
4.3132583936518065 -1.3731458873616467 1.6756680576909702 -1.8733185064151359 -1.5707965224506795 1.597632791156009 5188.67600000002
4.254104177835144 -1.371787512739922 1.673975677750598 -1.8729845006357966 -1.5707965137163897 1.5899986587943984 5188.726000000021
4.192812672347786 -1.3703800589442472 1.672222150753917 -1.8726384269574534 -1.570796504666523 1.5820886990548748 5188.776000000021
4.129744247845192 -1.3689318012656735 1.6704177867702936 -1.8722823201612282 -1.5707964953542892 1.5739494194812382 5188.826000000021
4.065276211462712 -1.3674514039123251 1.668573380415436 -1.871918310657643 -1.5707964858353987 1.5656295133504166 5188.876000000021
3.9997990431533905 -1.365947833583383 1.6667001031744273 -1.8715486032356417 -1.570796476167507 1.5571793739539947 5188.926000000021
3.933712632025766 -1.3644302730430682 1.6648093957247636 -1.8711754558116132 -1.5707964664096588 1.5486506088797394 5188.9760000000215
3.867422512681674 -1.3629080346946267 1.6629128602593872 -1.8708011581784123 -1.5707964566217325 1.5400955542931274 5189.026000000022
3.8013361015540488 -1.361390474154312 1.6610221528097235 -1.8704280107543838 -1.5707964468638842 1.531566789218872 5189.076000000022
3.735858933244727 -1.3598869038253698 1.659148875568715 -1.8700583033323825 -1.5707964371959926 1.52311664982245 5189.126000000022
3.6713908968622473 -1.3584065064720214 1.657304469213857 -1.8696942938287973 -1.570796427677102 1.5147967436916285 5189.176000000022
3.608322472359654 -1.3569582487934477 1.6555001052302338 -1.869338187032572 -1.5707964183648682 1.506657464117992 5189.226000000022
3.5470309668722955 -1.355550794997773 1.6537465782335528 -1.8689921133542289 -1.5707964093150015 1.4987475043784684 5189.276000000023
3.4878767510556337 -1.3541924203760485 1.6520541982931807 -1.8686581075748896 -1.5707964005807118 1.4911133720168577 5189.326000000023
3.431199495423038 -1.352890924876236 1.6504326832551786 -1.8683380875952984 -1.5707963922121524 1.4837989031253573 5189.376000000023
3.3773144066835927 -1.3516535466771926 1.6488910510653367 -1.868033833184844 -1.5707963842558645 1.4768447766260893 5189.426000000023
3.3265084640798936 -1.3504868757626536 1.6474375120922113 -1.867746964730582 -1.5707963767542215 1.4702880285526276 5189.476000000023
3.27903665572586 -1.3493967674952165 1.646079361450158 -1.8674789219862564 -1.5707963697448726 1.4641615663315255 5189.5260000000235
3.235118214944524 -1.3483882561903253 1.6448228713223687 -1.8672309428213225 -1.570796363260189 1.4584936830638404 5189.576000000024
3.1949328566058393 -1.3474654686902532 1.643673183283906 -1.8670040419699692 -1.5707963573267054 1.4533075718066635 5189.626000000024
3.1586170134644878 -1.3466315379380878 1.6426342006247392 -1.8667989897801407 -1.5707963519645671 1.4486208398546445 5189.676000000024
3.126260072497666 -1.3458885165517136 1.6417084806727789 -1.8666162909625592 -1.570796347186972 1.4444450230215193 5189.726000000024
3.0979006112429097 -1.345237290397797 1.6408971271169128 -1.8664561633397472 -1.5707963429996161 1.4407850999216378 5189.776000000024
3.073522634135875 -1.3446774921657687 1.6401996823300415 -1.8663185165950489 -1.5707963394001379 1.437639006251489 5189.826000000025
3.05305180884815 -1.344207414941809 1.6396140196921125 -1.866202931021653 -1.5707963363775617 1.434997149071229 5189.876000000025
3.03635170262506 -1.3438239257828308 1.639136235913157 -1.8661086362716157 -1.570796333911743 1.432841921086208 5189.926000000025
3.023220018623457 -1.343522379290463 1.6387605433563237 -1.866034490104881 -1.5707963319728122 1.431147214928497 5189.976000000025
3.01338483224954 -1.3432965311850351 1.6384791623609163 -1.8659789571383052 -1.5707963305206187 1.4298779374384143 5190.026000000025
3.0065008274966356 -1.3431384518795608 1.6382822135654265 -1.8659400875946772 -1.5707963295041758 1.428989523946052 5190.0760000000255
3.0021455332830254 -1.3430384400537216 1.6381576102305706 -1.8659154960517417 -1.570796328861104 1.4284274525528056 5190.126000000026
2.9998155597897167 -1.3429849362278503 1.638090950562325 -1.8659023401912214 -1.5707963285170767 1.428126758412897 5190.176000000026
2.9989228347982744 -1.342964436336916 1.6380654100349605 -1.865897299547839 -1.5707963283852633 1.4280115480149043 5190.226000000026
2.9987908400286054 -1.342961405304506 1.638061633714079 -1.8658965542583392 -1.570796328365774 1.427994513463287 5190.276000000026
2.9987908400286063 -1.342961405304506 1.638061633714079 -1.8658965542583392 -1.570796328365774 1.427994513463287 5190.326000000026
2.9987908375813794 -1.3427405478580317 1.6384527923103132 -1.8665085704197473 -1.570796328244215 1.427994511023567 5190.376000000027
2.998790822446168 -1.3413746244778415 1.640871966671366 -1.870293668895103 -1.570796327492416 1.4279944959347812 5190.426000000027
2.998790787031869 -1.338178552981371 1.6465324995625137 -1.8791502750004434 -1.5707963257333106 1.4279944606291126 5190.476000000027
2.998790728518931 -1.3328978742722388 1.6558850611537157 -1.8937835181388678 -1.5707963228268453 1.4279944022956577 5190.526000000027
2.998790647991797 -1.3256304572336688 1.6687563167642183 -1.9139221946937996 -1.570796318826887 1.4279943220155333 5190.576000000027
2.998790549571351 -1.3167482036219098 1.6844875946071576 -1.9385357309222473 -1.570796313938129 1.427994223896983 5190.6260000000275
2.998790439547363 -1.306818752959659 1.7020735535341616 -1.9660511458480658 -1.5707963084729977 1.4279941142104835 5190.676000000028
2.9987903255109356 -1.296527187429481 1.7203008507799544 -1.994570014155218 -1.5707963028085596 1.4279940005238523 5190.726000000028
2.9987902154869475 -1.2865977367672303 1.7378868097069584 -2.0220854290810366 -1.5707962973434284 1.4279938908373528 5190.776000000028
2.9987901170665014 -1.2777154831554713 1.7536180875498977 -2.046698965309484 -1.5707962924546703 1.4279937927188024 5190.826000000028
2.9987900365393676 -1.2704480661169013 1.7664893431604003 -2.066837641864416 -1.570796288454712 1.4279937124386781 5190.876000000028
2.9987899780264295 -1.2651673874077691 1.7758419047516023 -2.0814708850028403 -1.5707962855482467 1.4279936541052232 5190.926000000029
2.9987899426121305 -1.2619713159112986 1.78150243764275 -2.090327491108181 -1.5707962837891414 1.4279936187995546 5190.976000000029
2.998789927476919 -1.2606053925311085 1.7839216120038028 -2.094112589583536 -1.5707962830373423 1.4279936037107688 5191.026000000029
2.9987899250296923 -1.260384535084634 1.784312770600037 -2.0947246057449442 -1.5707962829157833 1.4279936012710488 5191.076000000029
2.9987899250296923 -1.260384535084634 1.784312770600037 -2.0947246057449442 -1.5707962829157833 1.4279936012710488 5191.126000000029
2.9987899250296923 -1.260384535084634 1.784312770600037 -2.0947246057449442 -1.5707962829157833 1.4279936012710488 5191.1760000000295
2.9987899250296923 -1.260384535084634 1.784312770600037 -2.0947246057449442 -1.5707962829157833 1.4279936012710488 5191.22600000003
2.9987899250296923 -1.260384535084634 1.784312770600037 -2.0947246057449442 -1.5707962829157833 1.4279936012710488 5191.27600000003
2.9987899250296923 -1.260384535084634 1.784312770600037 -2.0947246057449442 -1.5707962829157833 1.4279936012710488 5191.32600000003
2.9987899250296923 -1.260384535084634 1.784312770600037 -2.0947246057449447 -1.5707962829157833 1.4279936012710488 5191.37600000003
2.998789927476919 -1.2606053925311085 1.7839216120038028 -2.0941125895835366 -1.5707962830373423 1.4279936037107688 5191.42600000003
2.9987899426121305 -1.2619713159112986 1.78150243764275 -2.0903274911081806 -1.5707962837891414 1.4279936187995546 5191.476000000031
2.9987899780264295 -1.2651673874077691 1.7758419047516023 -2.0814708850028403 -1.5707962855482467 1.4279936541052232 5191.526000000031
2.9987900365393676 -1.2704480661169013 1.7664893431604003 -2.066837641864416 -1.570796288454712 1.4279937124386781 5191.576000000031
2.9987901170665014 -1.2777154831554713 1.7536180875498977 -2.0466989653094845 -1.5707962924546703 1.4279937927188024 5191.626000000031
2.9987902154869475 -1.2865977367672303 1.7378868097069584 -2.0220854290810366 -1.5707962973434284 1.4279938908373528 5191.676000000031
2.9987903255109356 -1.296527187429481 1.7203008507799544 -1.994570014155218 -1.5707963028085596 1.4279940005238523 5191.7260000000315
2.998790439547363 -1.306818752959659 1.7020735535341616 -1.9660511458480658 -1.5707963084729977 1.4279941142104835 5191.776000000032
2.998790549571351 -1.3167482036219098 1.6844875946071576 -1.9385357309222473 -1.570796313938129 1.427994223896983 5191.826000000032
2.998790647991797 -1.3256304572336686 1.6687563167642183 -1.9139221946937996 -1.570796318826887 1.4279943220155333 5191.876000000032
2.998790728518931 -1.3328978742722388 1.6558850611537157 -1.893783518138868 -1.5707963228268453 1.4279944022956577 5191.926000000032
2.998790787031869 -1.338178552981371 1.6465324995625137 -1.8791502750004434 -1.5707963257333106 1.4279944606291126 5191.976000000032
2.998790822446168 -1.3413746244778415 1.640871966671366 -1.8702936688951028 -1.570796327492416 1.4279944959347812 5192.026000000033
2.9987908375813794 -1.3427405478580317 1.6384527923103132 -1.8665085704197475 -1.570796328244215 1.427994511023567 5192.076000000033
2.9987908400286063 -1.342961405304506 1.638061633714079 -1.8658965542583394 -1.570796328365774 1.427994513463287 5192.126000000033
2.9987908400286063 -1.342961405304506 1.638061633714079 -1.8658965542583394 -1.570796328365774 1.427994513463287 5192.176000000033
2.9987908400286063 -1.342961405304506 1.638061633714079 -1.8658965542583394 -1.570796328365774 1.427994513463287 5192.226000000033
2.9987908400286063 -1.342961405304506 1.638061633714079 -1.8658965542583394 -1.570796328365774 1.427994513463287 5192.2760000000335
2.9987908400286063 -1.342961405304506 1.638061633714079 -1.8658965542583394 -1.570796328365774 1.427994513463287 5192.326000000034
2.9987908400286063 -1.342961405304506 1.638061633714079 -1.8658965542583394 -1.570796328365774 1.427994513463287 5192.376000000034
2.9987908400286063 -1.342961405304506 1.638061633714079 -1.8658965542583394 -1.570796328365774 1.427994513463287 5192.426000000034
2.9987908400286063 -1.342961405304506 1.638061633714079 -1.8658965542583394 -1.570796328365774 1.427994513463287 5192.476000000034
2.9987908400286063 -1.342961405304506 1.638061633714079 -1.8658965542583394 -1.570796328365774 1.427994513463287 5192.526000000034
2.9987908400286063 -1.342961405304506 1.638061633714079 -1.8658965542583394 -1.570796328365774 1.427994513463287 5192.576000000035
2.9987908400286063 -1.342961405304506 1.638061633714079 -1.8658965542583394 -1.570796328365774 1.427994513463287 5192.626000000035
2.9987908400286063 -1.342961405304506 1.638061633714079 -1.8658965542583394 -1.570796328365774 1.427994513463287 5192.676000000035
2.9987908400286063 -1.342961405304506 1.638061633714079 -1.8658965542583394 -1.570796328365774 1.427994513463287 5192.726000000035
2.9987908400286063 -1.342961405304506 1.638061633714079 -1.8658965542583394 -1.570796328365774 1.427994513463287 5192.776000000035
2.9987908400286063 -1.342961405304506 1.638061633714079 -1.8658965542583394 -1.570796328365774 1.427994513463287 5192.8260000000355
2.9987908400286063 -1.342961405304506 1.638061633714079 -1.8658965542583394 -1.570796328365774 1.427994513463287 5192.876000000036
2.9987908400286063 -1.342961405304506 1.638061633714079 -1.8658965542583394 -1.570796328365774 1.427994513463287 5192.926000000036
2.9987908400286063 -1.342961405304506 1.638061633714079 -1.8658965542583394 -1.570796328365774 1.427994513463287 5192.976000000036
2.9987908400286063 -1.342961405304506 1.638061633714079 -1.8658965542583394 -1.570796328365774 1.427994513463287 5193.026000000036
2.9987908400286063 -1.342961405304506 1.638061633714079 -1.8658965542583394 -1.570796328365774 1.427994513463287 5193.076000000036
2.9987908400286063 -1.342961405304506 1.638061633714079 -1.8658965542583394 -1.570796328365774 1.427994513463287 5193.126000000037
2.9987908400286063 -1.342961405304506 1.638061633714079 -1.8658965542583394 -1.570796328365774 1.427994513463287 5193.176000000037
2.9987908400286063 -1.342961405304506 1.638061633714079 -1.8658965542583394 -1.570796328365774 1.427994513463287 5193.226000000037
2.9987908400286063 -1.342961405304506 1.638061633714079 -1.8658965542583394 -1.570796328365774 1.427994513463287 5193.276000000037
2.9987908400286063 -1.342961405304506 1.638061633714079 -1.8658965542583394 -1.570796328365774 1.427994513463287 5193.326000000037
2.9987908400286063 -1.342961405304506 1.638061633714079 -1.8658965542583394 -1.570796328365774 1.427994513463287 5193.3760000000375
2.9987908400286063 -1.342961405304506 1.638061633714079 -1.8658965542583394 -1.570796328365774 1.427994513463287 5193.426000000038
2.9987908400286063 -1.342961405304506 1.638061633714079 -1.8658965542583394 -1.570796328365774 1.427994513463287 5193.476000000038
2.9987908400286063 -1.342961405304506 1.638061633714079 -1.8658965542583394 -1.570796328365774 1.427994513463287 5193.526000000038
2.9987908400286063 -1.342961405304506 1.638061633714079 -1.8658965542583394 -1.570796328365774 1.427994513463287 5193.576000000038
2.9987908400286063 -1.342961405304506 1.638061633714079 -1.8658965542583394 -1.570796328365774 1.427994513463287 5193.626000000038
2.9987908400286063 -1.342961405304506 1.638061633714079 -1.8658965542583394 -1.570796328365774 1.427994513463287 5193.676000000039
2.9987908400286063 -1.342961405304506 1.638061633714079 -1.8658965542583394 -1.570796328365774 1.427994513463287 5193.726000000039
2.9987908400286063 -1.342961405304506 1.638061633714079 -1.8658965542583392 -1.570796328365774 1.427994513463287 5193.776000000039
2.9989293451024603 -1.3429704590962062 1.6380725530469444 -1.8658984198377797 -1.5707963284533968 1.428003556894504 5193.826000000039
2.999864755577403 -1.3430316049543225 1.6381462980590036 -1.8659110192502193 -1.570796329045168 1.4280646327818654 5193.876000000039
3.0023020605540616 -1.3431909265658304 1.6383384480185248 -1.8659438482717714 -1.570796330587087 1.4282237720776159 5193.9260000000395
3.0068498708762683 -1.3434882075693588 1.638696984015329 -1.866005104521815 -1.5707963334641803 1.4285207128949589 5193.97600000004
3.0140247026091416 -1.3439572115573397 1.63926262665761 -1.866101745158849 -1.5707963380032135 1.4289891801897918 5194.02600000004
3.024255260517163 -1.3446259620781567 1.6400691737687558 -1.8662395445763484 -1.570796344475399 1.4296571654424415 5194.07600000004
3.037886721542261 -1.345517022638293 1.6411438380841659 -1.8664231520986179 -1.5707963530991067 1.4305472063393991 5194.12600000004
3.0551850182818865 -1.346647776704481 1.642507584948073 -1.8666561496766467 -1.5707963640425748 1.431676666455056 5194.17600000004
3.0763411224670962 -1.3480307077058513 1.6441754700103626 -1.8669411095839645 -1.570796377426618 1.4330580149334375 5194.226000000041
3.101475328440629 -1.3496736790360795 1.646156976923392 -1.8672796521124955 -1.5707963933273383 1.4346991061699395 5194.276000000041
3.13064153663499 -1.351580214055537 1.6484563550388112 -1.8676725032684134 -1.5707964117788353 1.4366034594930623 5194.326000000041
3.163831537050525 -1.353749776093439 1.651072957104382 -1.8681195524679963 -1.5707964327759145 1.4387705388461471 5194.376000000041
3.200979292733505 -1.3561780484499926 1.6540015769607987 -1.8686199102334817 -1.5707964562767993 1.4411960324691104 5194.426000000041
3.241965223254203 -1.3588572143985467 1.6572327872385066 -1.8691719658889212 -1.570796482205839 1.443872132580179 5194.4760000000415
3.286620488184975 -1.3617762371877393 1.6607532770545232 -1.8697734452560357 -1.5707965104562194 1.4467878150576254 5194.526000000042
3.334731270578341 -1.3649211400436474 1.6645461897092573 -1.8704214683500695 -1.5707965408926732 1.4499291191215034 5194.576000000042
3.3860430604450604 -1.3682752861719352 1.6685914603833294 -1.8711126070756463 -1.570796573354189 1.453279427015382 5194.626000000042
3.440264938232217 -1.3718196587600027 1.6728661538343905 -1.8718429429226227 -1.5707966076567215 1.4568197436880819 5194.676000000042
3.497073858301295 -1.3755331409791347 1.6773448020939439 -1.8726081246619446 -1.5707966435959015 1.4605289764754106 5194.726000000042
3.5561189324062608 -1.3793927959866497 1.6819997421641624 -1.8734034260415005 -1.5707966809497458 1.4643842147818962 5194.776000000043
3.6170257131716426 -1.3833741469280476 1.6868014537147105 -1.8742238034819776 -1.5707967194813666 1.4683610097625237 5194.826000000043
3.6794004775706086 -1.3874514569391596 1.6917188967795633 -1.8750639537727163 -1.5707967589416818 1.4724336540044705 5194.876000000043
3.742834510403049 -1.3915980091482965 1.6967198494538265 -1.8759183717675647 -1.5707967990721248 1.47657546120884 5194.926000000043
3.806908387773653 -1.3957863866783968 1.7017712455905551 -1.8767814080807337 -1.5707968396073544 1.4807590458723985 5194.976000000043
3.871196260569992 -1.3999887526491763 1.7068395124975762 -1.8776473267826521 -1.5707968802779644 1.4849566029693093 5195.0260000000435
3.935270137940596 -1.4041771301792767 1.7118909086343048 -1.878510363095821 -1.570796920813194 1.4891401876328678 5195.076000000044
3.998704170773036 -1.4083236823884135 1.7168918613085677 -1.8793647810906695 -1.570796960943637 1.4932819948372373 5195.126000000044
4.061078935172002 -1.4124009923995255 1.7218093043734206 -1.8802049313814082 -1.5707970004039522 1.497354639079184 5195.176000000044
4.1219857159373845 -1.4163823433409235 1.726611015923969 -1.8810253088218853 -1.570797038935573 1.5013314340598116 5195.226000000044
4.18103079004235 -1.4202419983484385 1.7312659559941874 -1.8818206102014412 -1.5707970762894172 1.5051866723662972 5195.276000000044
4.2378397101114285 -1.4239554805675705 1.7357446042537408 -1.8825857919407631 -1.5707971122285973 1.508895905153626 5195.326000000045
4.292061587898584 -1.427499853155638 1.740019297704802 -1.8833161277877395 -1.5707971465311297 1.5124362218263259 5195.376000000045
4.343373377765305 -1.4308539992839258 1.744064568378874 -1.8840072665133163 -1.5707971789926456 1.5157865297202044 5195.426000000045
4.39148416015867 -1.433998902139834 1.747857481033608 -1.88465528960735 -1.5707972094290994 1.5189278337840824 5195.476000000045
4.436139425089443 -1.4369179249290265 1.7513779708496247 -1.8852567689744646 -1.5707972376794799 1.5218435162615287 5195.526000000045
4.47712535561014 -1.4395970908775806 1.7546091811273326 -1.885808824629904 -1.5707972636085195 1.5245196163725974 5195.5760000000455
4.514273111293119 -1.4420253632341342 1.7575378009837492 -1.8863091823953895 -1.5707972871094042 1.5269451099955604 5195.626000000046
4.547463111708654 -1.444194925272036 1.7601544030493201 -1.8867562315949724 -1.5707973081064834 1.5291121893486457 5195.676000000046
4.576629319903015 -1.4461014602914937 1.7624537811647394 -1.8871490827508903 -1.5707973265579804 1.5310165426717686 5195.726000000046
4.601763525876549 -1.447744431621722 1.7644352880777687 -1.8874876252794213 -1.5707973424587007 1.5326576339082703 5195.776000000046
4.62291963006176 -1.449127362623092 1.7661031731400583 -1.887772585186739 -1.570797355842744 1.5340389823866518 5195.826000000046
4.640217926801383 -1.45025811668928 1.7674669200039654 -1.888005582764768 -1.570797366786212 1.5351684425023087 5195.876000000047
4.65384938782648 -1.4511491772494165 1.7685415843193755 -1.8881891902870374 -1.5707973754099198 1.5360584833992663 5195.926000000047
4.6640799457345015 -1.4518179277702332 1.769348131430521 -1.8883269897045367 -1.5707973818821053 1.5367264686519162 5195.976000000047
4.671254777467373 -1.4522869317582143 1.7699137740728024 -1.888423630341571 -1.5707973864211384 1.537194935946749 5196.026000000047
4.675802587789582 -1.4525842127617428 1.7702723100696065 -1.8884848865916144 -1.5707973892982319 1.537491876764092 5196.076000000047
4.678239892766241 -1.4527435343732507 1.7704644600291277 -1.8885177156131665 -1.5707973908401507 1.5376510160598424 5196.1260000000475
4.679175303241183 -1.452804680231367 1.7705382050411869 -1.888530315025606 -1.570797391431922 1.537712091947204 5196.176000000048
4.679313808315037 -1.4528137340230671 1.7705491243740523 -1.8885321806050466 -1.5707973915195448 1.5377211353784208 5196.226000000048
4.679313808315039 -1.4528137340230671 1.7705491243740523 -1.8885321806050466 -1.5707973915195448 1.5377211353784208 5196.276000000048
4.679313805721838 -1.4525715252642073 1.7709515278660957 -1.8891767916170832 -1.5707973886716573 1.537721132836989 5196.326000000048
4.679313789683828 -1.4510735517437556 1.7734402478383051 -1.893163477447803 -1.5707973710585041 1.5377211171191536 5196.376000000048
4.679313752157106 -1.4475685012111865 1.7792635078258228 -1.9024917700400081 -1.5707973298461655 1.5377210803415962 5196.426000000049
4.679313690153936 -1.441777314830591 1.7888849337131296 -1.9179043526867392 -1.5707972617534711 1.5377210195762268 5196.476000000049
4.679313604823449 -1.4338073229234727 1.8021262078523486 -1.939115577967596 -1.57079716804241 1.5377209359492339 5196.526000000049
4.6793135005323325 -1.424066380711545 1.8183097231815455 -1.9650399856850573 -1.5707970535085378 1.5377208337401334 5196.576000000049
4.679313383945535 -1.4131770040595288 1.8364012373430307 -1.9940208208008015 -1.5707969254713885 1.5377207194808173 5196.626000000049
4.6793132631069625 -1.4018905052179493 1.8551525268016624 -2.024058551372027 -1.5707967927648818 1.5377206010546045 5196.6760000000495
4.679313146520165 -1.3910011285659332 1.8732440409631477 -2.053039386487771 -1.5707966647277325 1.5377204867952885 5196.72600000005
4.679313042229049 -1.3812601863540055 1.8894275562923444 -2.078963794205232 -1.5707965501938603 1.537720384586188 5196.77600000005
4.679312956898562 -1.3732901944468872 1.9026688304315633 -2.100175019486089 -1.5707964564827992 1.537720300959195 5196.82600000005
4.679312894895392 -1.3674990080662917 1.9122902563188706 -2.11558760213282 -1.5707963883901048 1.5377202401938257 5196.87600000005
4.67931285736867 -1.3639939575337225 1.918113516306388 -2.1249158947250253 -1.5707963471777662 1.5377202034162682 5196.92600000005
4.67931284133066 -1.3624959840132709 1.9206022362785975 -2.1289025805557453 -1.570796329564613 1.5377201876984328 5196.976000000051
4.6793128387374585 -1.362253775254411 1.9210046397706408 -2.1295471915677817 -1.5707963267167255 1.537720185157001 5197.026000000051
4.6793128387374585 -1.362253775254411 1.9210046397706408 -2.1295471915677817 -1.5707963267167255 1.537720185157001 5197.076000000051
4.6793128387374585 -1.362253775254411 1.9210046397706408 -2.1295471915677817 -1.5707963267167255 1.537720185157001 5197.126000000051
4.6793128387374585 -1.362253775254411 1.9210046397706408 -2.1295471915677817 -1.5707963267167255 1.537720185157001 5197.176000000051
4.6793128387374585 -1.362253775254411 1.9210046397706408 -2.1295471915677817 -1.5707963267167255 1.537720185157001 5197.2260000000515
4.6793128387374585 -1.362253775254411 1.9210046397706408 -2.1295471915677817 -1.5707963267167255 1.537720185157001 5197.276000000052
4.6793128387374585 -1.362253775254411 1.9210046397706408 -2.1295471915677817 -1.5707963267167255 1.537720185157001 5197.326000000052
4.6793128387374585 -1.362253775254411 1.9210046397706408 -2.1295471915677817 -1.5707963267167255 1.537720185157001 5197.376000000052
4.6793128387374585 -1.362253775254411 1.9210046397706408 -2.1295471915677817 -1.5707963267167255 1.537720185157001 5197.426000000052
4.6793128387374585 -1.362253775254411 1.9210046397706408 -2.1295471915677817 -1.5707963267167255 1.537720185157001 5197.476000000052
4.6793128387374585 -1.362253775254411 1.9210046397706408 -2.1295471915677817 -1.5707963267167255 1.537720185157001 5197.526000000053
4.6793128387374585 -1.362253775254411 1.9210046397706408 -2.1295471915677817 -1.5707963267167255 1.537720185157001 5197.576000000053
4.6793128387374585 -1.362253775254411 1.9210046397706408 -2.1295471915677817 -1.5707963267167255 1.537720185157001 5197.626000000053
4.6793128387374585 -1.362253775254411 1.9210046397706408 -2.1295471915677817 -1.5707963267167255 1.537720185157001 5197.676000000053
4.6793128387374585 -1.362253775254411 1.9210046397706408 -2.1295471915677817 -1.5707963267167255 1.537720185157001 5197.726000000053
4.67931284133066 -1.3624959840132709 1.9206022362785975 -2.128902580555745 -1.570796329564613 1.5377201876984328 5197.7760000000535
4.67931285736867 -1.3639939575337225 1.918113516306388 -2.1249158947250253 -1.5707963471777662 1.5377202034162682 5197.826000000054
4.679312894895392 -1.3674990080662917 1.9122902563188704 -2.11558760213282 -1.5707963883901048 1.5377202401938257 5197.876000000054
4.679312956898562 -1.3732901944468872 1.9026688304315635 -2.100175019486089 -1.5707964564827992 1.537720300959195 5197.926000000054
4.679313042229049 -1.3812601863540055 1.8894275562923446 -2.0789637942052326 -1.5707965501938603 1.537720384586188 5197.976000000054
4.679313146520165 -1.3910011285659332 1.8732440409631477 -2.053039386487771 -1.5707966647277325 1.5377204867952885 5198.026000000054
4.6793132631069625 -1.4018905052179493 1.8551525268016624 -2.024058551372027 -1.5707967927648818 1.5377206010546045 5198.076000000055
4.679313383945535 -1.4131770040595288 1.8364012373430307 -1.9940208208008015 -1.5707969254713885 1.5377207194808173 5198.126000000055
4.6793135005323325 -1.424066380711545 1.8183097231815455 -1.9650399856850573 -1.5707970535085378 1.5377208337401334 5198.176000000055
4.679313604823449 -1.4338073229234727 1.8021262078523488 -1.9391155779675961 -1.57079716804241 1.5377209359492339 5198.226000000055
4.679313690153936 -1.441777314830591 1.7888849337131298 -1.9179043526867394 -1.5707972617534711 1.5377210195762268 5198.276000000055
4.679313752157106 -1.4475685012111865 1.7792635078258225 -1.902491770040008 -1.5707973298461655 1.5377210803415962 5198.3260000000555
4.679313789683828 -1.4510735517437556 1.7734402478383051 -1.8931634774478028 -1.5707973710585041 1.5377211171191536 5198.376000000056
4.679313805721838 -1.4525715252642073 1.7709515278660957 -1.889176791617083 -1.5707973886716573 1.537721132836989 5198.426000000056
4.679313808315039 -1.4528137340230671 1.7705491243740523 -1.8885321806050466 -1.5707973915195448 1.5377211353784208 5198.476000000056
4.679313808315039 -1.4528137340230671 1.7705491243740523 -1.8885321806050466 -1.5707973915195448 1.5377211353784208 5198.526000000056
4.679173757451438 -1.4528184193051188 1.7705543144394804 -1.8885326853580306 -1.570797391421642 1.5375810845170481 5198.576000000056
4.6782279073017525 -1.4528500619142104 1.7705893661630885 -1.8885360942672886 -1.570797390760444 1.5366352343824106 5198.626000000057
4.675763400714797 -1.452932509877623 1.7706806969132551 -1.8885449765192217 -1.5707973890376266 1.5341707278346657 5198.676000000057
4.671164834428413 -1.453086350985996 1.7708511125700241 -1.8885615500696855 -1.5707973858229916 1.5295721616214435 5198.726000000057
4.663909927785502 -1.4533290576927345 1.771119968035696 -1.8885876972542357 -1.5707973807514373 1.522317255093958 5198.776000000057
4.653565191450081 -1.4536751320134154 1.7715033277454215 -1.888624980398375 -1.5707973735199328 1.5119725189231206 5198.826000000057
4.639781596123315 -1.4541362504251936 1.7720141261777944 -1.8886746574277997 -1.5707973638844883 1.4981889238156512 5198.8760000000575
4.62229024125957 -1.4547214087662073 1.7726623283654435 -1.888737697478646 -1.5707973516571285 1.4806975692301916 5198.926000000058
4.600898023782447 -1.455437067134986 1.7734550904056257 -1.8888147965077366 -1.5707973367028645 1.4593053520934174 5198.976000000058
4.575483306800835 -1.456287294789856 1.774396919970819 -1.8889063929028271 -1.5707973189366657 1.4338906355161505 5199.026000000058
4.545991588324944 -1.4572739150483454 1.7754898368193144 -1.8890126830928522 -1.5707972983204326 1.4043989175094713 5199.076000000058
4.512431169982361 -1.4583966501865924 1.7767335333058094 -1.889133637158173 -1.5707972748599681 1.3708384997008312 5199.126000000058
4.47486882573408 -1.4596532663387507 1.7781255348920002 -1.889269014440823 -1.5707972486019508 1.3332761560501647 5199.176000000059
4.433425470590557 -1.4610397183963952 1.7796613606571745 -1.889418379154754 -1.5707972196309068 1.2918328015660019 5199.226000000059
4.388271829327746 -1.4625502949079292 1.781334683808804 -1.889581115996084 -1.5707971880661813 1.2466791610215813 5199.276000000059
4.339624105203145 -1.4641777629779902 1.7831374921931376 -1.889756445753342 -1.5707971540589114 1.198031437670961 5199.326000000059
4.287739648671838 -1.4659135131668557 1.7850602488057932 -1.8899434409177158 -1.5707971177889988 1.1461469819651326 5199.376000000059
4.232912626102545 -1.467747704389851 1.7870920523023515 -1.8901410412932982 -1.5707970794620805 1.0913199602681323 5199.4260000000595
4.175469688493653 -1.4696694088167532 1.7892207975089474 -1.8903480696073331 -1.5707970393065025 1.0338770235731536 5199.47600000006
4.115765640189273 -1.4716667567711998 1.7914333359328642 -1.8905632471204623 -1.5707969975702916 0.9741729762186595 5199.52600000006
4.054179107595272 -1.4737270816300931 1.793715636273125 -1.8907852092369717 -1.5707969545181268 0.9125864446044956 5199.57600000006
3.9911082078953255 -1.4758370647230077 1.7960529449310858 -1.8910125211150384 -1.5707969104283128 0.849515545908002 5199.62600000006
3.9269662177669544 -1.4779828802315957 1.7984299465210283 -1.8912436932769765 -1.5707968655897515 0.7853735568001247 5199.67600000006
3.862177242097572 -1.4801503400889944 1.8008309243807525 -1.8914771972194837 -1.570796820298914 0.7205845821615299 5199.726000000061
3.797171882700527 -1.4823250388792306 1.8032399210821695 -1.8917114810238886 -1.5707967748568128 0.6555792237987141 5199.776000000061
3.732382907031145 -1.4844924987366293 1.8056408989418937 -1.8919449849663958 -1.5707967295659753 0.5907902491601198 5199.826000000061
3.668240916902774 -1.4866383142452173 1.8080179005318362 -1.892176157128334 -1.570796684727414 0.5266482600522426 5199.876000000061
3.6051700172028274 -1.4887482973381319 1.810355209189797 -1.8924034690064007 -1.5707966406376 0.46357736135574856 5199.926000000061
3.5435834846088268 -1.4908086221970251 1.8126375095300578 -1.89262543112291 -1.5707965975854352 0.4019908297415846 5199.9760000000615
3.4838794363044463 -1.4928059701514718 1.8148500479539746 -1.8928406086360392 -1.5707965558492243 0.34228678238709054 5200.026000000062
3.4264364986955544 -1.494727674578374 1.8169787931605708 -1.8930476369500742 -1.5707965156936463 0.2848438456921112 5200.076000000062
3.3716094761262614 -1.4965618658013693 1.8190105966571288 -1.8932452373256565 -1.570796477366728 0.23001682399511147 5200.126000000062
3.319725019594955 -1.4982976159902348 1.8209333532697844 -1.8934322324900303 -1.5707964410968154 0.1781323682892828 5200.176000000062
3.2710772954703535 -1.4999250840602958 1.822736161654118 -1.8936075622472883 -1.5707964070895455 0.12948464493866285 5200.226000000062
3.2259236542075427 -1.5014356605718298 1.8244094848057475 -1.8937702990886183 -1.57079637552482 0.08433100439424202 5200.276000000063
3.1844802990640195 -1.5028221126294743 1.8259453105709218 -1.8939196638025493 -1.570796346553776 0.042887649910079206 5200.326000000063
3.1469179548157395 -1.5040787287816326 1.8273373121571126 -1.8940550410851993 -1.5707963202957587 0.005325306259412521 5200.376000000063
3.1133575364731554 -1.5052014639198796 1.8285810086436076 -1.8941759951505202 -1.5707962968352942 -0.02823511154922742 5200.426000000063
3.0838658179972653 -1.506188084178369 1.829673925492103 -1.8942822853405452 -1.570796276219061 -0.05772682955590702 5200.476000000063
3.058451101015652 -1.5070383118332389 1.8306157550572963 -1.8943738817356357 -1.5707962584528623 -0.08314154613317504 5200.5260000000635
3.0370588835385295 -1.5077539702020177 1.8314085170974785 -1.8944509807647263 -1.5707962434985983 -0.10453376326994923 5200.576000000064
4.6793694496154785 -1.4527336669019242 1.770531956349508 -1.888517519036764 -1.5708044211017054 1.5377216339111328 5201.976
4.678530617258578 -1.4530726828857825 1.7709080009710572 -1.8885550508019442 -1.570804368279084 1.5368831615357563 5202.026
4.673597389096824 -1.4550664581438497 1.7731195440783778 -1.8887757775769956 -1.57080405762578 1.53195205044898 5202.076
4.6627979213316255 -1.459431087332801 1.777960894957711 -1.889258976734611 -1.5708033775659427 1.5211572172318357 5202.126
4.646371652314143 -1.4660698009044366 1.7853247145163211 -1.8899939351163182 -1.5708023431773892 1.5047379974814812 5202.176
4.625994650502504 -1.4743052120213618 1.7944596291050618 -1.8909056606128136 -1.5708010600048439 1.4843697403780214 5202.226000000001
4.604204962419016 -1.4831115634726628 1.8042278443409405 -1.8918805937442935 -1.5707996878731743 1.4625894032513302 5202.276000000001
4.583827960607376 -1.4913469745895878 1.8133627589296812 -1.892792319240789 -1.570798404700629 1.4422211461478707 5202.326000000001
4.567401691589894 -1.4979856881612237 1.8207265784882916 -1.893527277622496 -1.5707973703120754 1.425801926397516 5202.376000000001
4.5566022238246955 -1.5023503173501749 1.8255679293676246 -1.8940104767801116 -1.5707966902522381 1.4150070931803715 5202.426000000001
4.551668995662942 -1.504344092608242 1.8277794724749454 -1.894231203555163 -1.5707963795989341 1.4100759820935953 5202.4760000000015
4.550830163306041 -1.5046831085921004 1.8281555170964943 -1.8942687353203431 -1.5707963267763128 1.4092375097182188 5202.526000000002
4.550830163306041 -1.5046831085921004 1.8281555170964943 -1.8942687353203431 -1.5707963267763128 1.4092375097182188 5202.576000000002
4.550830163288899 -1.5044317259580535 1.8285655109525163 -1.8949301118132962 -1.570796326774864 1.4092375097011915 5202.626000000002
4.55083016318288 -1.5028770153395092 1.8311011745790515 -1.8990204860762125 -1.570796326765904 1.409237509595885 5202.676000000002
4.550830162934811 -1.4992392078568542 1.8370342762148681 -1.9085913952364206 -1.5707963267449385 1.4092375093494816 5202.726000000002
4.550830162524941 -1.4932286750690886 1.8468371869200806 -1.9244048387983568 -1.5707963267102987 1.4092375089423639 5202.776000000003
4.550830161960867 -1.484956812530443 1.8603282255177218 -1.9461677400295456 -1.5707963266626261 1.4092375083820772 5202.826000000003
4.550830161271455 -1.4748469233469939 1.8768170035353173 -1.97276640734658 -1.570796326604361 1.4092375076972936 5202.876000000003
4.550830160500762 -1.4635451017332777 1.8952497701464592 -2.0025009957011024 -1.5707963265392262 1.4092375069317757 5202.926000000003
4.550830159701963 -1.4518311165689088 1.9143547571123785 -2.033319967965784 -1.5707963264717162 1.4092375061383402 5202.976000000003
4.55083015893127 -1.4405292949551927 1.9327875237235201 -2.0630545563203064 -1.5707963264065814 1.4092375053728223 5203.0260000000035
4.550830158241858 -1.4304194057717434 1.9492763017411157 -2.089653223637341 -1.5707963263483162 1.4092375046880388 5203.076000000004
4.550830157677784 -1.4221475432330979 1.9627673403387569 -2.1114161248685295 -1.5707963263006437 1.409237504127752 5203.126000000004
4.550830157267915 -1.4161370104453324 1.9725702510439698 -2.127229568430466 -1.5707963262660039 1.4092375037206344 5203.176000000004
4.5508301570198455 -1.4124992029626768 1.9785033526797864 -2.136800477590674 -1.5707963262450384 1.409237503474231 5203.226000000004
4.550830156913826 -1.410944492344133 1.9810390163063214 -2.1408908518535905 -1.5707963262360785 1.4092375033689244 5203.276000000004
4.5508301568966845 -1.410693109710086 1.9814490101623434 -2.1415522283465434 -1.5707963262346296 1.4092375033518971 5203.326000000005
4.5508301568966845 -1.410693109710086 1.9814490101623434 -2.1415522283465434 -1.5707963262346296 1.4092375033518971 5203.376000000005
4.5508301568966845 -1.410693109710086 1.9814490101623434 -2.1415522283465434 -1.5707963262346296 1.4092375033518971 5203.426000000005
4.5508301568966845 -1.410693109710086 1.9814490101623434 -2.1415522283465434 -1.5707963262346296 1.4092375033518971 5203.476000000005
4.5508301568966845 -1.410693109710086 1.9814490101623434 -2.1415522283465434 -1.5707963262346296 1.4092375033518971 5203.526000000005
4.5508301568966845 -1.410693109710086 1.9814490101623434 -2.1415522283465434 -1.5707963262346296 1.4092375033518971 5203.5760000000055
4.5508301568966845 -1.410693109710086 1.9814490101623434 -2.1415522283465434 -1.5707963262346296 1.4092375033518971 5203.626000000006
4.5508301568966845 -1.410693109710086 1.9814490101623434 -2.1415522283465434 -1.5707963262346296 1.4092375033518971 5203.676000000006
4.5508301568966845 -1.410693109710086 1.9814490101623434 -2.1415522283465434 -1.5707963262346296 1.4092375033518971 5203.726000000006
4.5508301568966845 -1.410693109710086 1.9814490101623434 -2.1415522283465434 -1.5707963262346296 1.4092375033518971 5203.776000000006
4.5508301568966845 -1.410693109710086 1.9814490101623434 -2.1415522283465434 -1.5707963262346296 1.4092375033518971 5203.826000000006
4.5508301568966845 -1.410693109710086 1.9814490101623434 -2.1415522283465434 -1.5707963262346296 1.4092375033518971 5203.876000000007
4.5508301568966845 -1.410693109710086 1.9814490101623434 -2.1415522283465434 -1.5707963262346296 1.4092375033518971 5203.926000000007
4.5508301568966845 -1.410693109710086 1.9814490101623434 -2.1415522283465434 -1.5707963262346296 1.4092375033518971 5203.976000000007
4.5508301568966845 -1.410693109710086 1.9814490101623434 -2.1415522283465434 -1.5707963262346296 1.4092375033518971 5204.026000000007
4.550830156913826 -1.410944492344133 1.9810390163063214 -2.1408908518535905 -1.5707963262360785 1.4092375033689244 5204.076000000007
4.5508301570198455 -1.4124992029626773 1.9785033526797862 -2.136800477590674 -1.5707963262450384 1.409237503474231 5204.1260000000075
4.550830157267915 -1.4161370104453324 1.9725702510439695 -2.1272295684304656 -1.5707963262660039 1.4092375037206344 5204.176000000008
4.550830157677784 -1.4221475432330979 1.962767340338757 -2.1114161248685295 -1.5707963263006437 1.409237504127752 5204.226000000008
4.550830158241858 -1.4304194057717434 1.9492763017411159 -2.089653223637341 -1.5707963263483162 1.4092375046880388 5204.276000000008
4.55083015893127 -1.4405292949551927 1.9327875237235204 -2.0630545563203064 -1.5707963264065814 1.4092375053728223 5204.326000000008
4.550830159701963 -1.4518311165689088 1.9143547571123785 -2.033319967965784 -1.5707963264717162 1.4092375061383402 5204.376000000008
4.550830160500762 -1.4635451017332777 1.8952497701464592 -2.0025009957011024 -1.5707963265392262 1.4092375069317757 5204.426000000009
4.550830161271455 -1.4748469233469939 1.8768170035353176 -1.97276640734658 -1.570796326604361 1.4092375076972936 5204.476000000009
4.550830161960867 -1.484956812530443 1.860328225517722 -1.9461677400295456 -1.5707963266626261 1.4092375083820772 5204.526000000009
4.550830162524941 -1.4932286750690884 1.8468371869200808 -1.924404838798357 -1.5707963267102987 1.4092375089423639 5204.576000000009
4.550830162934811 -1.4992392078568542 1.837034276214868 -1.9085913952364204 -1.5707963267449385 1.4092375093494816 5204.626000000009
4.55083016318288 -1.5028770153395095 1.8311011745790513 -1.8990204860762123 -1.570796326765904 1.409237509595885 5204.6760000000095
4.550830163288899 -1.5044317259580535 1.8285655109525163 -1.894930111813296 -1.570796326774864 1.4092375097011915 5204.72600000001
4.550830163306041 -1.5046831085921004 1.8281555170964943 -1.8942687353203431 -1.5707963267763128 1.4092375097182188 5204.77600000001
4.550830163306041 -1.5046831085921004 1.8281555170964943 -1.8942687353203431 -1.5707963267763128 1.4092375097182188 5204.82600000001
4.550683655330969 -1.504683572939995 1.8281560176021348 -1.8942687714869197 -1.5707963267648275 1.409091001743864 5204.87600000001
4.549695741870527 -1.5046867040701273 1.8281593925464605 -1.8942690153606592 -1.5707963266873815 1.4081030882882557 5204.92600000001
4.547126314851867 -1.5046948477089002 1.8281681703124137 -1.8942696496427098 -1.570796326485955 1.4055336612821694 5204.976000000011
4.542341289457443 -1.504710013548618 1.8281845170826028 -1.8942708308615956 -1.5707963261108402 1.400748635911161 5205.026000000011
4.534807672810809 -1.504733890876979 1.8282102536858313 -1.8942726905905471 -1.5707963255202535 1.3932150193013915 5205.076000000011
4.524088632662415 -1.5047678642065685 1.8282468724436245 -1.8942753366648342 -1.5707963246799501 1.3824959792054505 5205.126000000011
4.5098385660754134 -1.5048130289043522 1.8282955540167565 -1.8942788543990963 -1.5707963235628373 1.368245912688181 5205.176000000011
4.4917981681114565 -1.5048702068211683 1.8283571842517767 -1.8942833078046737 -1.570796322148587 1.3502055148125032 5205.2260000000115
4.469789500516494 -1.504939961921222 1.8284323710275379 -1.8942887408069398 -1.5707963204232502 1.3281968473252388 5205.276000000012
4.443711060406576 -1.5050226159115767 1.8285214611017229 -1.8942951784626316 -1.5707963183788696 1.3021184073429348 5205.326000000012
4.413532848953655 -1.5051182638716476 1.8286245569573714 -1.8943026281771818 -1.5707963160130936 1.2719401960376884 5205.376000000012
4.379291440071379 -1.5052267898826954 1.8287415336494073 -1.8943110809220491 -1.5707963133287892 1.2376987873229703 5205.426000000012
4.341085049100897 -1.5053478826573188 1.8288720556511664 -1.8943205124520508 -1.5707963103336557 1.1994923965394493 5205.476000000012
4.29906860149666 -1.5054810511689465 1.829015593700922 -1.8943308845226936 -1.5707963070398387 1.1574759491408166 5205.526000000013
4.2534488015122145 -1.505625640281332 1.8291714416484137 -1.8943421461075043 -1.5707963034635422 1.1118561493796097 5205.576000000013
4.204479200886012 -1.5057808463780449 1.8293387333013733 -1.8943542346153626 -1.5707962996246432 1.0628865489930366 5205.626000000013
4.152455267527199 -1.5059457329919652 1.8295164592720523 -1.894367077107831 -1.570796295546304 1.0108626158888 5205.676000000013
4.097709454201426 -1.5061192464347748 1.829703483823749 -1.8943805915164873 -1.5707962912545872 0.9561168028309213 5205.726000000013
4.0406062672166385 -1.5063002314264522 1.8298985617173358 -1.8943946878602549 -1.5707962867780676 0.8990136161255651 5205.7760000000135
3.9815373351088863 -1.5064874467247642 1.8301003550577857 -1.8944092694627355 -1.5707962821474464 0.839944684306863 5205.826000000014
3.9209164773281167 -1.5066795807547588 1.8303074501407002 -1.894424234169539 -1.5707962773951643 0.7793238268227377 5205.876000000014
3.859174772923978 -1.5068752672382595 1.8305183742988356 -1.894439475565616 -1.5707962725550149 0.7175821227207281 5205.926000000014
3.7967556292316176 -1.5070731008233567 1.8307316127486306 -1.8944548841925881 -1.5707962676617588 0.6551629793338118 5205.976000000014
3.7341098505574832 -1.5072716527139016 1.8309456254367333 -1.8944703487660808 -1.570796262750736 0.5925172009662307 5206.026000000014
3.6716907068651228 -1.5074694862989988 1.8311588638865284 -1.894485757393053 -1.57079625785748 0.5300980575793144 5206.076000000015
3.609949002460984 -1.5076651727824995 1.8313697880446638 -1.89450099878913 -1.5707962530173305 0.4683563534773043 5206.126000000015
3.549328144680214 -1.507857306812494 1.8315768831275783 -1.8945159634959334 -1.5707962482650484 0.40773549599317915 5206.176000000015
3.4902592125724614 -1.508044522110806 1.8317786764680282 -1.894530545098414 -1.5707962436344272 0.34866656417447706 5206.226000000015
3.433156025587675 -1.5082255071024835 1.831973754361615 -1.8945446414421816 -1.5707962391579076 0.29156337746912087 5206.276000000015
3.3784102122619 -1.508399020545293 1.8321607789133116 -1.894558155850838 -1.5707962348661908 0.23681756441124202 5206.3260000000155
3.3263862789030876 -1.5085639071592134 1.8323385048839906 -1.8945709983433063 -1.5707962307878516 0.18479363130700488 5206.376000000016
3.277416678276886 -1.5087191132559263 1.8325057965369502 -1.8945830868511646 -1.5707962269489526 0.13582403092043194 5206.426000000016
3.2317968782924407 -1.5088637023683118 1.832661644484442 -1.8945943484359753 -1.570796223372656 0.09020423115922505 5206.476000000016
3.189780430688203 -1.5089968708799395 1.8328051825341976 -1.894604720506618 -1.570796220078839 0.04818778376059196 5206.526000000016
3.1515740397177217 -1.5091179636545629 1.8329357045359567 -1.8946141520366198 -1.5707962170837055 0.009981392977072012 5206.576000000016
3.1173326308354445 -1.5092264896656107 1.8330526812279926 -1.8946226047814871 -1.5707962143994012 -0.024260015737647578 5206.626000000017
3.087154419382525 -1.5093221376256816 1.833155777083641 -1.8946300544960373 -1.5707962120336252 -0.05443822704289314 5206.676000000017
3.0610759792726077 -1.5094047916160362 1.833244867157826 -1.8946364921517291 -1.5707962099892445 -0.08051666702519888 5206.726000000017
3.0390673116776448 -1.50947454671609 1.8333200539335872 -1.8946419251539952 -1.5707962082639078 -0.10252533451246215 5206.776000000017
3.021026913713688 -1.509531724632906 1.8333816841686075 -1.8946463785595726 -1.5707962068496575 -0.12056573238814039 5206.826000000017
3.0067768471266847 -1.5095768893306898 1.8334303657417395 -1.8946498962938347 -1.5707962057325446 -0.13481579890541084 5206.8760000000175
2.9960578069782917 -1.5096108626602793 1.8334669844995326 -1.8946525423681218 -1.5707962048922413 -0.14553483900135156 5206.926000000018
2.988524190331657 -1.5096347399886403 1.8334927211027612 -1.8946544020970733 -1.5707962043016546 -0.1530684556111197 5206.976000000018
2.9837391649372362 -1.5096499058283581 1.8335090678729502 -1.894655583315959 -1.5707962039265397 -0.15785348098212815 5207.026000000018
2.981169737918573 -1.509658049467131 1.8335178456389034 -1.8946562175980097 -1.5707962037251133 -0.1604229079882149 5207.076000000018
2.980181824458131 -1.5096611805972633 1.8335212205832292 -1.8946564614717492 -1.5707962036476673 -0.16141082144382324 5207.126000000018
2.98003531648306 -1.5096616449451579 1.8335217210888697 -1.8946564976383258 -1.570796203636182 -0.16155732941817824 5207.176000000019
2.9800353164830593 -1.5096616449451579 1.8335217210888697 -1.8946564976383258 -1.570796203636182 -0.16155732941817647 5207.226000000019
2.9800353227011427 -1.5094094136401337 1.8339324893587425 -1.8953194969600284 -1.5707962039657037 -0.16155732322065963 5207.276000000019
2.980035361157738 -1.5078494542987209 1.8364729424546922 -1.8994199078314742 -1.5707962060036773 -0.16155728489126092 5207.326000000019
2.9800354511408442 -1.5041993655316275 1.8424172507854824 -1.9090143012653298 -1.5707962107722526 -0.16155719520577747 5207.376000000019
2.9800355998145744 -1.4981685411085448 1.8522386776457964 -1.9248665464948718 -1.5707962186510858 -0.16155704702379106 5207.4260000000195
2.980035804423501 -1.4898687526565144 1.865755198691526 -1.9466828476611477 -1.5707962294941555 -0.16155684309161641 5207.47600000002
2.9800360544969955 -1.4797247323582954 1.8822751214150557 -1.9733467805001381 -1.5707962427465798 -0.16155659384524934 5207.52600000002
2.980036334053574 -1.4683847556507295 1.900742704620553 -2.0031543290299196 -1.5707962575614343 -0.16155631521331507 5207.57600000002
2.9800366238052374 -1.4566312239231092 1.9198837778992541 -2.0340489222378246 -1.5707962729165683 -0.1615560264200164 5207.62600000002
2.9800369033618157 -1.4452912472155433 1.9383513611047514 -2.0638564707676057 -1.5707962877314228 -0.16155574778808213 5207.67600000002
2.98003715343531 -1.4351472269173242 1.9548712838282811 -2.0905204036065963 -1.570796300983847 -0.16155549854171505 5207.726000000021
2.9800373580442368 -1.4268474384652938 1.9683878048740104 -2.112336704772872 -1.5707963118269168 -0.1615552946095404 5207.776000000021
2.980037506717967 -1.4208166140422112 1.978209231734325 -2.1281889500024143 -1.57079631970575 -0.161555146427554 5207.826000000021
2.9800375967010733 -1.4171665252751176 1.9841535400651151 -2.1377833434362703 -1.5707963244743253 -0.16155505674207055 5207.876000000021
2.9800376351576685 -1.415606565933705 1.9866939931610643 -2.141883754307716 -1.5707963265122988 -0.16155501841267184 5207.926000000021
2.980037641375752 -1.4153543346286808 1.9871047614309374 -2.142546753629418 -1.5707963268418206 -0.161555012215155 5207.9760000000215
2.980037641375752 -1.4153543346286808 1.9871047614309374 -2.142546753629418 -1.5707963268418206 -0.161555012215155 5208.026000000022
2.980037641375752 -1.4153543346286808 1.9871047614309374 -2.142546753629418 -1.5707963268418206 -0.161555012215155 5208.076000000022
2.980037641375752 -1.4153543346286808 1.9871047614309374 -2.142546753629418 -1.5707963268418206 -0.161555012215155 5208.126000000022
2.980037641375752 -1.4153543346286808 1.9871047614309374 -2.142546753629418 -1.5707963268418206 -0.161555012215155 5208.176000000022
2.980037641375752 -1.4153543346286808 1.9871047614309374 -2.142546753629418 -1.5707963268418206 -0.161555012215155 5208.226000000022
2.980037641375752 -1.4153543346286808 1.9871047614309374 -2.1425467536294183 -1.5707963268418206 -0.161555012215155 5208.276000000023
2.9800376351576685 -1.415606565933705 1.9866939931610645 -2.141883754307716 -1.5707963265122988 -0.16155501841267184 5208.326000000023
2.9800375967010733 -1.4171665252751178 1.984153540065115 -2.13778334343627 -1.5707963244743253 -0.16155505674207055 5208.376000000023
2.980037506717967 -1.4208166140422112 1.9782092317343247 -2.1281889500024143 -1.57079631970575 -0.161555146427554 5208.426000000023
2.9800373580442368 -1.4268474384652938 1.9683878048740107 -2.112336704772872 -1.5707963118269168 -0.1615552946095404 5208.476000000023
2.98003715343531 -1.4351472269173242 1.9548712838282811 -2.0905204036065963 -1.570796300983847 -0.16155549854171505 5208.5260000000235
2.9800369033618157 -1.4452912472155433 1.9383513611047514 -2.0638564707676057 -1.5707962877314228 -0.16155574778808213 5208.576000000024
2.9800366238052374 -1.4566312239231092 1.9198837778992541 -2.0340489222378246 -1.5707962729165683 -0.1615560264200164 5208.626000000024
2.980036334053574 -1.4683847556507295 1.900742704620553 -2.0031543290299196 -1.5707962575614343 -0.16155631521331507 5208.676000000024
2.9800360544969955 -1.4797247323582954 1.8822751214150557 -1.9733467805001383 -1.5707962427465798 -0.16155659384524934 5208.726000000024
2.980035804423501 -1.4898687526565144 1.865755198691526 -1.9466828476611477 -1.5707962294941555 -0.16155684309161641 5208.776000000024
2.9800355998145744 -1.4981685411085448 1.8522386776457966 -1.924866546494872 -1.5707962186510858 -0.16155704702379106 5208.826000000025
2.9800354511408442 -1.5041993655316275 1.8424172507854821 -1.9090143012653296 -1.5707962107722526 -0.16155719520577747 5208.876000000025
2.980035361157738 -1.507849454298721 1.836472942454692 -1.899419907831474 -1.5707962060036773 -0.16155728489126092 5208.926000000025
2.9800353227011427 -1.5094094136401337 1.8339324893587428 -1.8953194969600284 -1.5707962039657037 -0.16155732322065963 5208.976000000025
2.9800353164830593 -1.5096616449451579 1.8335217210888697 -1.894656497638326 -1.570796203636182 -0.16155732941817647 5209.026000000025
2.9800353164830593 -1.5096616449451579 1.8335217210888697 -1.894656497638326 -1.570796203636182 -0.16155732941817647 5209.0760000000255
2.9800353164830593 -1.5096616449451579 1.8335217210888697 -1.894656497638326 -1.570796203636182 -0.16155732941817647 5209.126000000026
2.9800353164830593 -1.5096616449451579 1.8335217210888697 -1.894656497638326 -1.570796203636182 -0.16155732941817647 5209.176000000026
2.9800353164830593 -1.5096616449451579 1.8335217210888697 -1.894656497638326 -1.570796203636182 -0.16155732941817647 5209.226000000026
2.9800353164830593 -1.5096616449451579 1.8335217210888697 -1.894656497638326 -1.570796203636182 -0.16155732941817647 5209.276000000026
2.9800353164830593 -1.5096616449451579 1.8335217210888697 -1.894656497638326 -1.570796203636182 -0.16155732941817647 5209.326000000026
2.9800353164830593 -1.5096616449451579 1.8335217210888697 -1.894656497638326 -1.570796203636182 -0.16155732941817647 5209.376000000027
2.9800353164830593 -1.5096616449451579 1.8335217210888697 -1.894656497638326 -1.570796203636182 -0.16155732941817647 5209.426000000027
2.9800353164830593 -1.5096616449451579 1.8335217210888697 -1.894656497638326 -1.570796203636182 -0.16155732941817647 5209.476000000027
2.9800353164830593 -1.5096616449451579 1.8335217210888697 -1.894656497638326 -1.570796203636182 -0.16155732941817647 5209.526000000027
2.9800353164830593 -1.5096616449451579 1.8335217210888697 -1.894656497638326 -1.570796203636182 -0.16155732941817647 5209.576000000027
2.9800353164830593 -1.5096616449451579 1.8335217210888697 -1.894656497638326 -1.570796203636182 -0.16155732941817647 5209.6260000000275
2.9800353164830593 -1.5096616449451579 1.8335217210888697 -1.894656497638326 -1.570796203636182 -0.16155732941817647 5209.676000000028
2.9800353164830593 -1.5096616449451579 1.8335217210888697 -1.894656497638326 -1.570796203636182 -0.16155732941817647 5209.726000000028
2.9800353164830593 -1.5096616449451579 1.8335217210888697 -1.894656497638326 -1.570796203636182 -0.16155732941817647 5209.776000000028
2.9800353164830593 -1.5096616449451579 1.8335217210888697 -1.894656497638326 -1.570796203636182 -0.16155732941817647 5209.826000000028
2.9800353164830593 -1.5096616449451579 1.8335217210888697 -1.894656497638326 -1.570796203636182 -0.16155732941817647 5209.876000000028
2.9800353164830593 -1.5096616449451579 1.8335217210888697 -1.894656497638326 -1.570796203636182 -0.16155732941817647 5209.926000000029
2.9800353164830593 -1.5096616449451579 1.8335217210888697 -1.894656497638326 -1.570796203636182 -0.16155732941817647 5209.976000000029
2.9800353164830593 -1.5096616449451579 1.8335217210888697 -1.894656497638326 -1.570796203636182 -0.16155732941817647 5210.026000000029
2.9800353164830593 -1.5096616449451579 1.8335217210888697 -1.894656497638326 -1.570796203636182 -0.16155732941817647 5210.076000000029
2.9800353164830593 -1.5096616449451579 1.8335217210888697 -1.894656497638326 -1.570796203636182 -0.16155732941817647 5210.126000000029
2.9800353164830593 -1.5096616449451579 1.8335217210888697 -1.894656497638326 -1.570796203636182 -0.16155732941817647 5210.1760000000295
2.9800353164830593 -1.5096616449451579 1.8335217210888697 -1.894656497638326 -1.570796203636182 -0.16155732941817647 5210.22600000003
2.9800353164830593 -1.5096616449451579 1.8335217210888697 -1.894656497638326 -1.570796203636182 -0.16155732941817647 5210.27600000003
2.9800353164830593 -1.5096616449451579 1.8335217210888697 -1.894656497638326 -1.570796203636182 -0.16155732941817647 5210.32600000003
2.9800353164830593 -1.5096616449451579 1.8335217210888697 -1.894656497638326 -1.570796203636182 -0.16155732941817647 5210.37600000003
2.9800353164830593 -1.5096616449451579 1.8335217210888697 -1.894656497638326 -1.570796203636182 -0.16155732941817647 5210.42600000003
2.9800353164830593 -1.5096616449451579 1.8335217210888697 -1.894656497638326 -1.570796203636182 -0.16155732941817647 5210.476000000031
2.9800353164830593 -1.5096616449451579 1.8335217210888697 -1.894656497638326 -1.570796203636182 -0.16155732941817647 5210.526000000031
2.9800353164830593 -1.5096616449451579 1.8335217210888697 -1.894656497638326 -1.570796203636182 -0.16155732941817647 5210.576000000031
2.9800353164830593 -1.5096616449451579 1.8335217210888697 -1.894656497638326 -1.570796203636182 -0.16155732941817647 5210.626000000031
2.9800353164830593 -1.5096616449451579 1.8335217210888697 -1.8946564976383258 -1.570796203636182 -0.16155732941817647 5210.676000000031
2.9801987177668643 -1.5096647861843564 1.8335250405853998 -1.894656675884923 -1.570796203650141 -0.16139392813524278 5210.7260000000315
2.9812976625926093 -1.5096859123865698 1.8335473656458328 -1.8946578746709495 -1.5707962037440222 -0.1602949833153585 5210.776000000032
2.9841471482755413 -1.5097406911246207 1.8336052529378823 -1.894660983037757 -1.5707962039874488 -0.1574454976476227 5210.826000000032
2.989436384763924 -1.5098423718250442 1.8337127037593257 -1.8946667528113112 -1.5707962044392991 -0.15215626118744713 5210.876000000032
2.9977350840073864 -1.5100019066754014 1.8338812918065006 -1.8946758054629624 -1.570796205148243 -0.1438575619882406 5210.926000000032
3.0094997493252738 -1.5102280715315948 1.8341202909428014 -1.8946886389702136 -1.5707962061532783 -0.1320928967330933 5210.976000000032
3.0250799647749935 -1.5105275868251828 1.834436802967177 -1.89470563467749 -1.5707962074842694 -0.11651268136646123 5211.026000000033
3.044724684520368 -1.510905238470693 1.8348358853826263 -1.8947270641569087 -1.5707962091624843 -0.09686796172585055 5211.076000000033
3.0685885221999802 -1.511363998772937 1.8353206791646965 -1.894753096069048 -1.5707962112011313 -0.07300412417350191 5211.126000000033
3.0967380402955262 -1.5119051473343261 1.8358925365299794 -1.8947838030237154 -1.5707962136058966 -0.04485460622807487 5211.176000000033
3.1291580395001617 -1.5125283919621835 1.8365511487046071 -1.894819168440719 -1.5707962163754818 -0.012434607196332215 5211.226000000033
3.1657578480868533 -1.51323198957606 1.8372946736927507 -1.8948590934106349 -1.570796219502141 0.024165201195175623 5211.2760000000335
3.2063776112767255 -1.5140128671150483 1.8381198640451157 -1.8949034035555774 -1.570796222972218 0.06478496416842652 5211.326000000034
3.2507945806074123 -1.5148667424450977 1.8390221946274397 -1.894951855889968 -1.5707962267666842 0.10920193326224137 5211.376000000034
3.298729403301404 -1.5157882452663267 1.8399959903889882 -1.8950041456813054 -1.5707962308616743 0.15713675570060115 5211.426000000034
3.3498524116343984 -1.5167710380203405 1.841034554131053 -1.895059913310933 -1.5707962352290257 0.20825976376096106 5211.476000000034
3.403789912303649 -1.517807936797542 1.8421302942754478 -1.89511875113481 -1.5707962398368143 0.2621972641425673 5211.526000000034
3.460130475796313 -1.5188910322444484 1.8432748526330047 -1.8951802103442799 -1.5707962446498924 0.3185378273347722 5211.576000000035
3.5184312257578028 -1.5200118104710054 1.8444592321720727 -1.8952438078268399 -1.5707962496304262 0.3768385769853496 5211.626000000035
3.578224128360135 -1.5211612739579006 1.8456739247870126 -1.8953090330269096 -1.5707962547384318 0.4366314792688113 5211.676000000035
3.6390222816702766 -1.5223300624638785 1.8469090390666951 -1.8953753548066012 -1.5707962599323144 0.4974296322547218 5211.726000000035
3.7003262050184977 -1.523508573933055 1.8481544280629976 -1.895442228306489 -1.5707962651694038 0.5587335552760146 5211.776000000035
3.761630128366719 -1.5246870854022312 1.8493998170593 -1.8955091018063763 -1.5707962704064935 0.620037478297307 5211.8260000000355
3.82242828167686 -1.525855873908209 1.8506349313389825 -1.895575423586068 -1.5707962756003762 0.6808356312832173 5211.876000000036
3.8822211842791927 -1.5270053373951042 1.8518496239539224 -1.8956406487861377 -1.5707962807083817 0.7406285335666796 5211.926000000036
3.9405219342406825 -1.5281261156216612 1.8530340034929904 -1.8957042462686977 -1.5707962856889155 0.798929283217257 5211.976000000036
3.9968624977333467 -1.5292092110685678 1.8541785618505473 -1.8957657054781676 -1.5707962905019937 0.8552698464094619 5212.026000000036
4.050799998402596 -1.5302461098457691 1.855274301994942 -1.8958245433020446 -1.5707962951097822 0.9092073467910677 5212.076000000036
4.101923006735591 -1.531228902599783 1.856312865737007 -1.8958803109316722 -1.5707962994771336 0.9603303548514281 5212.126000000037
4.149857829429583 -1.532150405421012 1.8572866614985557 -1.8959326007230095 -1.5707963035721237 1.0082651772897875 5212.176000000037
4.1942747987602695 -1.5330042807510613 1.8581889920808794 -1.8959810530574002 -1.5707963073665898 1.052682146383603 5212.226000000037
4.234894561950141 -1.5337851582900497 1.8590141824332445 -1.8960253632023427 -1.570796310836667 1.0933019093568532 5212.276000000037
4.271494370536833 -1.5344887559039262 1.859757707421388 -1.8960652881722586 -1.570796313963326 1.1299017177483606 5212.326000000037
4.303914369741469 -1.5351120005317835 1.8604163195960157 -1.8961006535892622 -1.5707963167329113 1.162321716780104 5212.3760000000375
4.332063887837015 -1.5356531490931724 1.8609881769612986 -1.8961313605439296 -1.5707963191376766 1.1904712347255293 5212.426000000038
4.3559277255166275 -1.5361119093954168 1.8614729707433688 -1.8961573924560688 -1.5707963211763236 1.2143350722778807 5212.476000000038
4.3755724452620015 -1.5364895610409268 1.8618720531588182 -1.8961788219354876 -1.5707963228545385 1.2339797919184896 5212.526000000038
4.391152660711721 -1.536789076334515 1.8621885651831938 -1.896195817642764 -1.5707963241855296 1.2495600072851225 5212.576000000038
4.402917326029607 -1.5370152411907083 1.8624275643194945 -1.8962086511500151 -1.570796325190565 1.2613246725402707 5212.626000000038
4.411216025273072 -1.5371747760410654 1.8625961523666694 -1.8962177038016663 -1.5707963258995088 1.269623371739474 5212.676000000039
4.416505261761452 -1.537276456741489 1.862703603188113 -1.8962234735752206 -1.5707963263513591 1.2749126081996511 5212.726000000039
4.419354747444384 -1.5373312354795399 1.8627614904801626 -1.896226581942028 -1.5707963265947857 1.277762093867386 5212.776000000039
4.420453692270129 -1.5373523616817533 1.8627838155405954 -1.8962277807280545 -1.5707963266886669 1.2788610386872676 5212.826000000039
4.420617093553934 -1.5373555029209518 1.8627871350371255 -1.8962279589746518 -1.570796326702626 1.279024439970204 5212.876000000039
4.420617093553936 -1.5373555029209518 1.8627871350371255 -1.8962279589746518 -1.570796326702626 1.2790244399702058 5212.9260000000395
4.420617093508544 -1.5370986896781664 1.8632025402836998 -1.8969001774701757 -1.5707963266981555 1.2790244399251052 5212.97600000004
4.420617093227808 -1.5355103927098617 1.8657716714024684 -1.9010576055953725 -1.5707963266705074 1.2790244396461745 5213.02600000004
4.420617092570923 -1.5317939978212822 1.8717830823340607 -1.910785411504748 -1.5707963266058145 1.2790244389935155 5213.07600000004
4.4206170914855925 -1.5256536197400903 1.881715378827853 -1.926858086227118 -1.5707963264989264 1.2790244379151656 5213.12600000004
4.42061708999193 -1.5172030604941085 1.8953844817494696 -1.9489777485975532 -1.5707963263518239 1.2790244364311107 5213.17600000004
4.420617088166373 -1.5068747677890606 1.9120908903882836 -1.9760124501893226 -1.570796326172035 1.2790244346172954 5213.226000000041
4.420617086125587 -1.4953287933863155 1.9307669457649166 -2.0062344802458356 -1.5707963259710493 1.2790244325896354 5213.276000000041
4.420617084010376 -1.4833617514806283 1.950124093938739 -2.037558670612587 -1.570796325762734 1.2790244304880294 5213.326000000041
4.420617081969589 -1.4718157770778832 1.968800149315372 -2.0677807006691 -1.5707963255617483 1.2790244284603693 5213.376000000041
4.420617080144032 -1.4614874843728356 1.985506557954186 -2.094815402260869 -1.5707963253819595 1.279024426646554 5213.426000000041
4.42061707865037 -1.4530369251268536 1.9991756608758027 -2.1169350646313045 -1.570796325234857 1.2790244251624991 5213.4760000000415
4.420617077565039 -1.4468965470456616 2.0091079573695954 -2.133007739353675 -1.5707963251279689 1.2790244240841493 5213.526000000042
4.4206170769081545 -1.4431801521570822 2.015119368301187 -2.1427355452630503 -1.570796325063276 1.2790244234314903 5213.576000000042
4.420617076627418 -1.4415918551887774 2.0176884994199558 -2.1468929733882476 -1.5707963250356278 1.2790244231525596 5213.626000000042
4.420617076582026 -1.441335041945992 2.01810390466653 -2.147565191883771 -1.5707963250311574 1.279024423107459 5213.676000000042
4.420617076582026 -1.441335041945992 2.01810390466653 -2.147565191883771 -1.5707963250311574 1.279024423107459 5213.726000000042
4.420617076582026 -1.441335041945992 2.01810390466653 -2.147565191883771 -1.5707963250311574 1.279024423107459 5213.776000000043
4.420617076582026 -1.441335041945992 2.01810390466653 -2.147565191883771 -1.5707963250311574 1.279024423107459 5213.826000000043
4.420617076582026 -1.441335041945992 2.01810390466653 -2.147565191883771 -1.5707963250311574 1.279024423107459 5213.876000000043
4.420617076582026 -1.441335041945992 2.01810390466653 -2.147565191883771 -1.5707963250311574 1.279024423107459 5213.926000000043
4.420617076582026 -1.441335041945992 2.01810390466653 -2.147565191883771 -1.5707963250311574 1.279024423107459 5213.976000000043
4.420617076582026 -1.441335041945992 2.01810390466653 -2.147565191883771 -1.5707963250311574 1.279024423107459 5214.0260000000435
4.420617076582026 -1.441335041945992 2.01810390466653 -2.147565191883771 -1.5707963250311574 1.279024423107459 5214.076000000044
4.420617076582026 -1.441335041945992 2.01810390466653 -2.147565191883771 -1.5707963250311574 1.279024423107459 5214.126000000044
4.420617076582026 -1.441335041945992 2.01810390466653 -2.147565191883771 -1.5707963250311574 1.279024423107459 5214.176000000044
4.420617076582026 -1.441335041945992 2.01810390466653 -2.147565191883771 -1.5707963250311574 1.279024423107459 5214.226000000044
4.420617076582026 -1.441335041945992 2.01810390466653 -2.147565191883771 -1.5707963250311574 1.279024423107459 5214.276000000044
4.420617076582026 -1.441335041945992 2.01810390466653 -2.147565191883771 -1.5707963250311574 1.279024423107459 5214.326000000045
4.420617076582026 -1.441335041945992 2.01810390466653 -2.147565191883771 -1.5707963250311574 1.279024423107459 5214.376000000045
4.420617076627418 -1.4415918551887774 2.0176884994199558 -2.146892973388247 -1.5707963250356278 1.2790244231525596 5214.426000000045
4.4206170769081545 -1.4431801521570822 2.015119368301187 -2.14273554526305 -1.570796325063276 1.2790244234314903 5214.476000000045
4.420617077565039 -1.4468965470456616 2.009107957369595 -2.133007739353675 -1.5707963251279689 1.2790244240841493 5214.526000000045
4.42061707865037 -1.4530369251268536 1.9991756608758027 -2.1169350646313045 -1.570796325234857 1.2790244251624991 5214.5760000000455
4.420617080144032 -1.4614874843728354 1.985506557954186 -2.094815402260869 -1.5707963253819595 1.279024426646554 5214.626000000046
4.420617081969589 -1.4718157770778832 1.968800149315372 -2.0677807006691 -1.5707963255617483 1.2790244284603693 5214.676000000046
4.420617084010376 -1.4833617514806283 1.950124093938739 -2.037558670612587 -1.570796325762734 1.2790244304880294 5214.726000000046
4.420617086125587 -1.4953287933863155 1.9307669457649166 -2.0062344802458356 -1.5707963259710493 1.2790244325896354 5214.776000000046
4.420617088166373 -1.5068747677890606 1.9120908903882836 -1.9760124501893226 -1.570796326172035 1.2790244346172954 5214.826000000046
4.42061708999193 -1.5172030604941082 1.8953844817494696 -1.9489777485975535 -1.5707963263518239 1.2790244364311107 5214.876000000047
4.4206170914855925 -1.5256536197400903 1.881715378827853 -1.926858086227118 -1.5707963264989264 1.2790244379151656 5214.926000000047
4.420617092570923 -1.5317939978212822 1.8717830823340604 -1.9107854115047478 -1.5707963266058145 1.2790244389935155 5214.976000000047
4.420617093227808 -1.5355103927098617 1.8657716714024681 -1.9010576055953723 -1.5707963266705074 1.2790244396461745 5215.026000000047
4.420617093508544 -1.5370986896781664 1.8632025402836996 -1.8969001774701753 -1.5707963266981555 1.2790244399251052 5215.076000000047
4.420617093553936 -1.5373555029209518 1.8627871350371255 -1.8962279589746518 -1.570796326702626 1.2790244399702058 5215.1260000000475
4.420617093553936 -1.5373555029209518 1.8627871350371255 -1.8962279589746518 -1.570796326702626 1.2790244399702058 5215.176000000048
4.420446323918154 -1.537345095200241 1.8627758083708894 -1.896227040029013 -1.5707963267029859 1.2790581880353424 5215.226000000048
4.41930007187769 -1.5372752357603783 1.8626997807198076 -1.8962208718170317 -1.570796326705402 1.2792847141876498 5215.276000000048
4.4163347257973875 -1.5370945098738749 1.8625030977136519 -1.8962049146954079 -1.5707963267116525 1.2798707357728845 5215.326000000048
4.4108439641583 -1.5367598700922336 1.8621389110467286 -1.8961753678064748 -1.570796326723226 1.2809558384060162 5215.376000000048
4.402251529762107 -1.5362361958628445 1.861568999211323 -1.8961291301947452 -1.5707963267413378 1.2826539039570586 5215.426000000049
4.390104003935521 -1.5354958531458796 1.8607632882311456 -1.8960637619234557 -1.570796326766943 1.2850545385369003 5215.476000000049
4.374063580734701 -1.5345182540311877 1.8596993723947777 -1.895977445191114 -1.5707963268007537 1.2882245004831359 5215.526000000049
4.353900841149655 -1.533289416355191 1.8583620349891166 -1.895868945448043 -1.5707963268432537 1.2922091283458956 5215.576000000049
4.3294875273086575 -1.5318015233177786 1.8567427690328213 -1.8957375725129275 -1.5707963268947132 1.2970337688736782 5215.626000000049
4.300789316682655 -1.5300524830992024 1.8548392980097583 -1.8955831416893592 -1.5707963269552048 1.30270520499918 5215.6760000000495
4.267858596289677 -1.5280454884769727 1.8526550966024475 -1.895405934882382 -1.5707963270246177 1.3092130838251277 5215.72600000005
4.230827236899244 -1.5257885764427523 1.8501989114255066 -1.8952066617150387 -1.5707963271026741 1.316531344610107 5215.77600000005
4.18989936723678 -1.523294187819253 1.847484281759098 -1.8949864206449158 -1.5707963271889438 1.3246196467543954 5215.82600000005
4.145344148188023 -1.5205787268771294 1.8445290602823734 -1.8947466600806895 -1.5707963272828593 1.333424797785792 5215.87600000005
4.097488547003429 -1.5176621209518752 1.8413549338069202 -1.894489139498671 -1.5707963273837318 1.342882181345449 5215.92600000005
4.046710111502587 -1.5145673800607176 1.8379869440102063 -1.8942158905593516 -1.570796327490765 1.352917185173702 5215.976000000051
3.993429744278629 -1.5113201565195127 1.834453008169027 -1.8939291782239498 -1.5707963276030719 1.363446629095902 5216.026000000051
3.938104476902636 -1.5079483045596414 1.8307834398929481 -1.893631461870956 -1.5707963277196892 1.3743801930082444 5216.076000000051
3.881220244128052 -1.5044814399449031 1.8270104698577545 -1.8933253564126775 -1.5707963278395924 1.385621844863602 5216.126000000051
3.8232846580950897 -1.5009504995884122 1.8231677665388937 -1.8930135934117855 -1.5707963279617119 1.3970712686573545 5216.176000000051
3.7648197825351426 -1.4973873011694927 1.819289956944922 -1.8926989821978593 -1.5707963280849468 1.40862529241322 5216.2260000000515
3.706354906975196 -1.493824102750573 1.8154121473509501 -1.8923843709839332 -1.570796328208182 1.4201793161690857 5216.276000000052
3.6484193209422333 -1.490293162394082 1.8115694440320893 -1.8920726079830412 -1.5707963283303015 1.431628739962838 5216.326000000052
3.591535088167649 -1.4868262977793438 1.8077964739968957 -1.8917665025247627 -1.5707963284502047 1.4428703918181958 5216.376000000052
3.536209820791657 -1.4834544458194725 1.804126905720817 -1.891468786171769 -1.570796328566822 1.4538039557305382 5216.426000000052
3.482929453567698 -1.4802072222782676 1.8005929698796375 -1.8911820738363672 -1.5707963286791289 1.4643333996527381 5216.476000000052
3.4321510180668566 -1.4771124813871102 1.7972249800829236 -1.8909088248970478 -1.5707963287861622 1.4743684034809912 5216.526000000053
3.3842954168822623 -1.4741958754618558 1.7940508536074704 -1.8906513043150293 -1.5707963288870346 1.4838257870406482 5216.576000000053
3.339740197833505 -1.4714804145197322 1.7910956321307459 -1.890411543750803 -1.5707963289809501 1.4926309380720446 5216.626000000053
3.298812328171041 -1.4689860258962328 1.7883810024643372 -1.89019130268068 -1.5707963290672198 1.5007192402163332 5216.676000000053
3.2617809687806076 -1.4667291138620127 1.7859248172873963 -1.8899920295133368 -1.5707963291452762 1.5080375010013125 5216.726000000053
3.22885024838763 -1.4647221192397828 1.7837406158800855 -1.8898148227063596 -1.5707963292146891 1.51454537982726 5216.7760000000535
3.200152037761627 -1.4629730790212065 1.7818371448570225 -1.8896603918827912 -1.5707963292751808 1.5202168159527623 5216.826000000054
3.17573872392063 -1.4614851859837943 1.7802178789007275 -1.8895290189476757 -1.5707963293266403 1.5250414564805446 5216.876000000054
3.1555759843355835 -1.4602563483077975 1.7788805414950661 -1.8894205192046047 -1.5707963293691403 1.5290260843433041 5216.926000000054
3.139535561134764 -1.4592787491931056 1.7778166256586982 -1.889334202472263 -1.570796329402951 1.5321960462895396 5216.976000000054
3.1273880353081767 -1.4585384064761406 1.7770109146785207 -1.8892688342009736 -1.570796329428556 1.5345966808693814 5217.026000000054
3.1187956009119873 -1.4580147322467516 1.7764410028431152 -1.889222596589244 -1.5707963294466678 1.5362947464204235 5217.076000000055
3.113304839272896 -1.4576800924651103 1.7760768161761917 -1.8891930497003109 -1.5707963294582414 1.5373798490535557 5217.126000000055
3.110339493192596 -1.457499366578607 1.7758801331700362 -1.889177092578687 -1.570796329464492 1.53796587063879 5217.176000000055
3.109193241152129 -1.4574295071387442 1.7758041055189544 -1.8891709243667056 -1.570796329466908 1.5381923967910978 5217.226000000055
4.420619010925293 -1.5373495158604165 1.862802807484762 -1.8962780437865199 -1.570801083241598 1.2790172100067139 5218.476
4.42060547229126 -1.5373507210304358 1.8628040506751726 -1.896278078790593 -1.5708010827368537 1.279170355676166 5218.526
4.4205143359401795 -1.5373588337246507 1.8628124193065618 -1.8962783144231898 -1.5708010793391294 1.280201267470055 5218.576
4.420277773875593 -1.5373798917950041 1.8628341417114602 -1.8962789260532686 -1.5708010705196775 1.2828771988572156 5218.626
4.4198381634142745 -1.5374190246459911 1.8628745091154864 -1.8962800626639993 -1.5708010541302222 1.2878499633350242 5218.676
4.419147589366063 -1.5374804975491676 1.8629379213498776 -1.896281848139875 -1.570801028384401 1.2956615656475199 5218.726000000001
4.418167346213717 -1.537567755957661 1.8630279325640235 -1.896284382553825 -1.5708009918392032 1.3067498330035234 5218.776000000001
4.416867440292745 -1.5376834698206792 1.8631472969379972 -1.8962877434543235 -1.5708009433764123 1.3214540462947584 5218.826000000001
4.4152260919712605 -1.53782957789802 1.8632980143950888 -1.8962919871525041 -1.5708008821840451 1.3400205713139692 5218.876000000001
4.413229237829811 -1.5380073320745822 1.8634813763143367 -1.8962971500092705 -1.5708008077377924 1.3626084899730433 5218.926000000001
4.410870032841235 -1.5382173416748737 1.8636980112430608 -1.8963032497224068 -1.5708007197824596 1.3892952315211284 5218.9760000000015
4.40814835255049 -1.538459617777522 1.8639479306093938 -1.8963102866136916 -1.5708006183134064 1.4200822037627547 5219.026000000002
4.4050702952545056 -1.5387336175297832 1.8642305744348147 -1.896318244916007 -1.5708005035579888 1.4549004242759538 5219.076000000002
4.401647684182024 -1.539038288462053 1.8645448570466807 -1.8963270940604522 -1.570800375956997 1.4936161516303783 5219.126000000002
4.397897569673437 -1.539372112802375 1.8648892127907588 -1.8963367899634542 -1.5708002361460982 1.5360365166054222 5219.176000000002
4.393841731360635 -1.5397331517909505 1.8652616417437593 -1.8963472763138798 -1.5708000849372756 1.5819151534083402 5219.226000000002
4.389506180346847 -1.5401190899946493 1.8656597554258678 -1.8963584858601468 -1.5707999233002687 1.630957830892369 5219.276000000003
4.384920661386483 -1.5405272796215186 1.8660808225132768 -1.8963703416973356 -1.5707997523440151 1.6828280837748446 5219.326000000003
4.380118155064975 -1.540954784835292 1.866521814550719 -1.896382758554302 -1.570799573298089 1.7371528438553254 5219.376000000003
4.375134379978623 -1.5413984260699007 1.8669794516639988 -1.8963956440807868 -1.5707993874941428 1.793528071233709 5219.426000000003
4.370007294914436 -1.541854824343982 1.8674502482725257 -1.8964089001345292 -1.5707991963473473 1.851524385528355 5219.476000000003
4.3647766010299724 -1.5423204455753894 1.8679305588018456 -1.8964224240683774 -1.570799001337832 1.9106926970942018 5219.5260000000035
4.359483244033186 -1.5427916448957018 1.8684166233961736 -1.8964361100174008 -1.5707988039921248 1.970569838240889 5219.576000000004
4.354168916362265 -1.5432647109647344 1.8689046136309262 -1.896449850186001 -1.5707986058645937 2.0306841944508762 5219.626000000004
4.348875559365478 -1.5437359102850468 1.8693906782252543 -1.8964635361350244 -1.5707984085188866 2.0905613355975636 5219.676000000004
4.343644865481014 -1.5442015315164541 1.8698709887545741 -1.8964770600688725 -1.5707982135093712 2.1497296471634106 5219.726000000004
4.338517780416828 -1.5446579297905354 1.870341785363101 -1.896490316122615 -1.5707980223625757 2.207725961458056 5219.776000000004
4.333534005330476 -1.5451015710251441 1.8707994224763809 -1.8965032016490997 -1.5707978365586295 2.2641011888364395 5219.826000000005
4.328731499008968 -1.5455290762389176 1.871240414513823 -1.896515618506066 -1.5707976575127034 2.318425948916921 5219.876000000005
4.324145980048604 -1.5459372658657868 1.871661481601232 -1.896527474343255 -1.5707974865564498 2.370296201799396 5219.926000000005
4.319810429034815 -1.5463232040694856 1.8720595952833405 -1.896538683889522 -1.570797324919443 2.4193388792834245 5219.976000000005
4.315754590722014 -1.5466842430580612 1.872432024236341 -1.8965491702399475 -1.5707971737106203 2.4652175160863425 5220.026000000005
4.312004476213427 -1.547018067398383 1.8727763799804191 -1.8965588661429496 -1.5707970338997215 2.5076378810613873 5220.0760000000055
4.308581865140945 -1.547322738330653 1.8730906625922852 -1.8965677152873948 -1.5707969062987297 2.546353608415811 5220.126000000006
4.305503807844961 -1.547596738082914 1.873373306417706 -1.8965756735897101 -1.570796791543312 2.58117182892901 5220.176000000006
4.302782127554216 -1.5478390141855625 1.873623225784039 -1.896582710480995 -1.570796690074259 2.611958801170638 5220.226000000006
4.300422922565639 -1.548049023785854 1.873839860712763 -1.8965888101941313 -1.5707966021189261 2.6386455427187228 5220.276000000006
4.29842606842419 -1.5482267779624161 1.874023222632011 -1.8965939730508976 -1.5707965276726734 2.6612334613777966 5220.326000000006
4.296784720102705 -1.548372886039757 1.8741739400891027 -1.8965982167490782 -1.5707964664803062 2.679799986397006 5220.376000000007
4.295484814181734 -1.548488599902775 1.8742933044630763 -1.8966015776495768 -1.5707964180175154 2.694504199688243 5220.426000000007
4.294504571029387 -1.5485758583112685 1.8743833156772223 -1.8966041120635266 -1.5707963814723176 2.705592467044248 5220.476000000007
4.293813996981176 -1.548637331214445 1.8744467279116135 -1.8966058975394025 -1.5707963557264963 2.7134040693567414 5220.526000000007
4.293374386519857 -1.548676464065432 1.8744870953156396 -1.896607034150133 -1.570796339337041 2.718376833834551 5220.576000000007
4.293137824455271 -1.5486975221357855 1.874508817720538 -1.896607645780212 -1.5707963305175892 2.7210527652217085 5220.6260000000075
4.293046688104191 -1.5487056348300003 1.8745171863519272 -1.8966078814128087 -1.5707963271198648 2.7220836770155987 5220.676000000008
4.2930331494701575 -1.5487068400000197 1.8745184295423378 -1.8966079164168819 -1.5707963266151206 2.7222368226850513 5220.726000000008
4.2930331494701575 -1.5487068400000197 1.8745184295423378 -1.8966079164168819 -1.5707963266151206 2.7222368226850513 5220.776000000008
4.293033149408071 -1.5484923406050548 1.8748646125879476 -1.8971685988639604 -1.570796326608723 2.7222368226233526 5220.826000000008
4.2930331490208715 -1.5471546242579515 1.8770235684175323 -1.9006652710812093 -1.5707963265688247 2.722236822238571 5220.876000000008
4.293033148105164 -1.5439909887275693 1.8821293962604755 -1.9089347345504593 -1.5707963264744673 2.722236821328582 5220.926000000009
4.293033146572863 -1.5386971141500287 1.8906732414523368 -1.9227724544803775 -1.5707963263165738 2.7222368198058495 5220.976000000009
4.293033144431975 -1.5313006659675001 1.9026104544171567 -1.9421061158519937 -1.57079632609597 2.7222368176783323 5221.026000000009
4.293033141767385 -1.5220948978669953 1.9174677496497587 -1.9661691794642293 -1.570796325821402 2.7222368150303815 5221.076000000009
4.2930331387216265 -1.5115722547191561 1.934450364698056 -1.9936744379794233 -1.5707963255075572 2.722236812003644 5221.126000000009
4.293033135475676 -1.5003579755170444 1.9525492191453524 -2.0229875719688604 -1.570796325173084 2.7222368087779643 5221.1760000000095
4.293033132229726 -1.489143696314933 1.970648073592649 -2.0523007059582974 -1.5707963248386108 2.7222368055522845 5221.22600000001
4.293033129183968 -1.4786210531670936 1.9876306886409458 -2.079805964473491 -1.570796324524766 2.722236802525547 5221.27600000001
4.2930331265193775 -1.4694152850665887 2.0024879838735483 -2.103869028085727 -1.5707963242501979 2.7222367998775963 5221.32600000001
4.29303312437849 -1.46201883688406 2.014425196838368 -2.1232026894573433 -1.5707963240295941 2.722236797750079 5221.37600000001
4.293033122846189 -1.4567249623065195 2.0229690420302293 -2.1370404093872613 -1.5707963238717007 2.7222367962273464 5221.42600000001
4.293033121930481 -1.4535613267761374 2.0280748698731728 -2.145309872856511 -1.5707963237773432 2.7222367953173574 5221.476000000011
4.2930331215432815 -1.452223610429034 2.0302338257027572 -2.14880654507376 -1.570796323737445 2.722236794932576 5221.526000000011
4.293033121481195 -1.4520091110340692 2.030580008748367 -2.149367227520839 -1.5707963237310474 2.722236794870877 5221.576000000011
4.293033121481195 -1.4520091110340692 2.030580008748367 -2.149367227520839 -1.5707963237310474 2.722236794870877 5221.626000000011
4.293033121481195 -1.4520091110340692 2.030580008748367 -2.149367227520839 -1.5707963237310474 2.722236794870877 5221.676000000011
4.293033121481195 -1.4520091110340692 2.030580008748367 -2.149367227520839 -1.5707963237310474 2.722236794870877 5221.7260000000115
4.293033121481195 -1.4520091110340692 2.030580008748367 -2.149367227520839 -1.5707963237310474 2.722236794870877 5221.776000000012
4.293033121481195 -1.4520091110340692 2.030580008748367 -2.149367227520839 -1.5707963237310474 2.722236794870877 5221.826000000012
4.293033121481195 -1.4520091110340692 2.030580008748367 -2.149367227520839 -1.5707963237310474 2.722236794870877 5221.876000000012
4.293033121481195 -1.4520091110340692 2.030580008748367 -2.149367227520839 -1.5707963237310474 2.722236794870877 5221.926000000012
4.293033121481195 -1.4520091110340692 2.030580008748367 -2.149367227520839 -1.5707963237310474 2.722236794870877 5221.976000000012
4.293033121481195 -1.4520091110340692 2.030580008748367 -2.149367227520839 -1.5707963237310474 2.722236794870877 5222.026000000013
4.293033121481195 -1.4520091110340692 2.030580008748367 -2.149367227520839 -1.5707963237310474 2.722236794870877 5222.076000000013
4.293033121481195 -1.4520091110340692 2.030580008748367 -2.149367227520839 -1.5707963237310474 2.722236794870877 5222.126000000013
4.293033121481195 -1.4520091110340692 2.030580008748367 -2.149367227520839 -1.5707963237310474 2.722236794870877 5222.176000000013
4.293033121481195 -1.4520091110340692 2.030580008748367 -2.149367227520839 -1.5707963237310474 2.722236794870877 5222.226000000013
4.293033121481195 -1.4520091110340692 2.030580008748367 -2.149367227520839 -1.5707963237310474 2.722236794870877 5222.2760000000135
4.2930331215432815 -1.452223610429034 2.0302338257027572 -2.1488065450737603 -1.570796323737445 2.722236794932576 5222.326000000014
4.293033121930481 -1.4535613267761374 2.0280748698731723 -2.1453098728565116 -1.5707963237773432 2.7222367953173574 5222.376000000014
4.293033122846189 -1.4567249623065195 2.0229690420302293 -2.1370404093872613 -1.5707963238717007 2.7222367962273464 5222.426000000014
4.29303312437849 -1.46201883688406 2.014425196838368 -2.1232026894573433 -1.5707963240295941 2.722236797750079 5222.476000000014
4.2930331265193775 -1.4694152850665887 2.0024879838735483 -2.103869028085727 -1.5707963242501979 2.7222367998775963 5222.526000000014
4.293033129183968 -1.4786210531670936 1.987630688640946 -2.079805964473491 -1.570796324524766 2.722236802525547 5222.576000000015
4.293033132229726 -1.4891436963149327 1.9706480735926488 -2.0523007059582974 -1.5707963248386108 2.7222368055522845 5222.626000000015
4.293033135475676 -1.5003579755170444 1.9525492191453524 -2.0229875719688604 -1.570796325173084 2.7222368087779643 5222.676000000015
4.2930331387216265 -1.511572254719156 1.9344503646980558 -1.9936744379794233 -1.5707963255075572 2.722236812003644 5222.726000000015
