Andreas691667/Digital_Twin_UR/rtde/UR_RTDE_CLIENT_LIBRARY/examples/robot_output.csv
timestamp actual_q_0 actual_q_1 actual_q_2 actual_q_3 actual_q_4 actual_q_5 output_bit_register_65 output_bit_register_66
4116.759 -2.179408852254049 -1.0670760434916993 1.4927895704852503 -1.996552129785055 -1.5707805792437952 2.533036231994629 False False
4116.7789999999995 -2.179375950490133 -1.0670760434916993 1.4928224722491663 -1.9965077839293421 -1.5707605520831507 2.5329995155334473 False False
4116.799 -2.1794217268573206 -1.0670262736133118 1.4928014914142054 -1.9965163669981898 -1.5707610289203089 2.533048152923584 False False
4116.8189999999995 -2.1793716589557093 -1.067052201633789 1.4928057829486292 -1.9965077839293421 -1.570784870778219 2.533064365386963 False False
4116.839 -2.179359738026754 -1.0671296876719971 1.4928224722491663 -1.996523996392721 -1.570801083241598 2.5329833030700684 False False
4116.8589999999995 -2.179375950490133 -1.0670136970332642 1.4927971998797815 -1.9965163669981898 -1.570756737385885 2.532958745956421 False False
4116.879 -2.179359738026754 -1.0670968455127259 1.4927762190448206 -1.996512075463766 -1.5707405249225062 2.533015727996826 False False
4116.898999999999 -2.179380242024557 -1.0670181673816224 1.4928134123431605 -1.9965316257872523 -1.5708087126361292 2.532970666885376 False False
4116.919 -2.179392162953512 -1.0670477908900757 1.4927938620196741 -1.9965602360167445 -1.5707805792437952 2.533031940460205 False False
4116.938999999999 -2.1793716589557093 -1.0670181673816224 1.4927967230426233 -1.9965445003905238 -1.5708087126361292 2.5330007076263428 False False
4116.959 -2.179354969655172 -1.0670433801463624 1.4928177038775843 -1.9964634380736292 -1.5708087126361292 2.5329909324645996 False False
4116.978999999999 -2.179364029561178 -1.0670968455127259 1.4928091208087366 -1.9964996776976527 -1.570801083241598 2.5330071449279785 False False
4116.999 -2.179389301930563 -1.0670879644206543 1.4927938620196741 -1.9965607128539027 -1.570813004170553 2.53302001953125 False False
4117.019 -2.1793554464923304 -1.0670849245837708 1.4928258101092737 -1.996491094628805 -1.570784870778219 2.5330288410186768 False False
4117.039 -2.179282013569967 -1.0670477908900757 1.4928177038775843 -1.9965039692320765 -1.5707843939410608 2.5329995155334473 False False
4117.059 -2.179364029561178 -1.067052201633789 1.4928177038775843 -1.996523996392721 -1.5707805792437952 2.5329952239990234 False False
4117.079 -2.1794255415545862 -1.0670895141414185 1.4928177038775843 -1.9965077839293421 -1.5707805792437952 2.5330686569213867 False False
4117.099 -2.1793554464923304 -1.0670895141414185 1.4927852789508265 -1.9964634380736292 -1.5708006064044397 2.5329995155334473 False False
4117.119 -2.179359738026754 -1.0670477908900757 1.4927805105792444 -1.9965077839293421 -1.570784870778219 2.533052444458008 False False
4117.139 -2.179375950490133 -1.0670597118190308 1.4928506056415003 -1.9964992008604945 -1.5707886854754847 2.5329995155334473 False False
4117.159 -2.17933160463442 -1.06703074396167 1.4927895704852503 -1.9964953861632289 -1.5707724730121058 2.5330114364624023 False False
4117.179 -2.179413143788473 -1.067056731586792 1.4928224722491663 -1.9964844189085902 -1.5707767645465296 2.532991886138916 False False
4117.199 -2.179420773183004 -1.067096785908081 1.4927971998797815 -1.9965197048582972 -1.5708492437945765 2.533036231994629 False False
4117.219 -2.179380242024557 -1.067105845814087 1.4927805105792444 -1.9965564213194789 -1.5708168188678187 2.5330233573913574 False False
4117.239 -2.179364029561178 -1.0670672220042725 1.4928224722491663 -1.9965359173216761 -1.570829216633932 2.5329995155334473 False False
4117.259 -2.1794055143939417 -1.0670398038676758 1.4928301016436976 -1.9965163669981898 -1.5708254019366663 2.53302001953125 False False
4117.2789999999995 -2.179396454487936 -1.0670804542354126 1.4928439299212855 -1.9965487919249476 -1.5707691351519983 2.533024311065674 False False
4117.299 -2.1793225447284144 -1.0670849245837708 1.4927523771869105 -1.9965039692320765 -1.5707648436175745 2.532966375350952 False False
4117.3189999999995 -2.179389301930563 -1.0670352143100281 1.4928134123431605 -1.996523996392721 -1.5708048979388636 2.5329749584198 False False
4117.339 -2.1793554464923304 -1.0670716327479859 1.4927924315081995 -1.9965278110899867 -1.5707967917071741 2.5329790115356445 False False
4117.3589999999995 -2.1793716589557093 -1.0670263928226014 1.4928134123431605 -1.9965402088561 -1.5708044211017054 2.5329620838165283 False False
4117.379 -2.1793716589557093 -1.0670940440944214 1.4927805105792444 -1.9965039692320765 -1.5708091894732874 2.5329995155334473 False False
4117.398999999999 -2.179396454487936 -1.0670094054988404 1.4927595297442835 -1.996523996392721 -1.5708168188678187 2.53302001953125 False False
4117.419 -2.179328266774313 -1.0670567911914368 1.4927805105792444 -1.9964996776976527 -1.5708087126361292 2.5330450534820557 False False
4117.438999999999 -2.179359738026754 -1.0671131771853943 1.4928463141070765 -1.9964682064452113 -1.570784870778219 2.5329794883728027 False False
4117.459 -2.179364029561178 -1.0671057862094422 1.4927642981158655 -1.9965559444823207 -1.570784870778219 2.5330071449279785 False False
4117.478999999999 -2.1794098059283655 -1.0670308035663147 1.4928224722491663 -1.996523996392721 -1.5708168188678187 2.532986640930176 False False
4117.499 -2.1794384161578577 -1.0670672220042725 1.4928057829486292 -1.9964915714659632 -1.5707767645465296 2.533015727996826 False False
4117.519 -2.179380242024557 -1.0670760434916993 1.4928091208087366 -1.9965158901610316 -1.5708211104022425 2.533048152923584 False False
4117.539 -2.1794050375567835 -1.0670443934253235 1.4928506056415003 -1.9965077839293421 -1.5708048979388636 2.532991886138916 False False
4117.559 -2.179323975239889 -1.0670923751643677 1.4928348700152796 -1.996523996392721 -1.5707724730121058 2.532996416091919 False False
4117.579 -2.179380242024557 -1.06699754417453 1.4928134123431605 -1.9964915714659632 -1.5707405249225062 2.5330233573913574 False False
4117.599 -2.1793230215655726 -1.0670522612384339 1.4927938620196741 -1.996552129785055 -1.570784870778219 2.533024311065674 False False
4117.619 -2.179364029561178 -1.0670522612384339 1.4928091208087366 -1.9965034923949183 -1.5708044211017054 2.533052444458008 False False
4117.639 -2.1793444792376917 -1.0670730632594605 1.4928267637835901 -1.9964801273741664 -1.570813004170553 2.533024311065674 False False
4117.659 -2.1792896429644983 -1.0670730632594605 1.4928391615497034 -1.996495863000387 -1.5707529226886194 2.533003807067871 False False
4117.679 -2.179364029561178 -1.0670521420291443 1.4928057829486292 -1.9965278110899867 -1.570784870778219 2.5330114364624023 False False
4117.699 -2.1793554464923304 -1.0670848053744812 1.4928134123431605 -1.9964915714659632 -1.5708087126361292 2.533036231994629 False False
4117.719 -2.1793511549579065 -1.0670730632594605 1.4927938620196741 -1.9965716801085414 -1.5707648436175745 2.5330405235290527 False False
4117.739 -2.179323975239889 -1.0670221012881775 1.4927895704852503 -1.996495863000387 -1.5708048979388636 2.533015727996826 False False
4117.759 -2.1793835798846644 -1.06698431194339 1.4928315321551722 -1.9965478382506312 -1.5708335081683558 2.533012628555298 False False
4117.7789999999995 -2.179380242024557 -1.0670685333064576 1.4927895704852503 -1.9964763126769007 -1.570845905934469 2.533015727996826 False False
4117.799 -2.179404083882467 -1.0670641225627442 1.4927552382098597 -1.9965402088561 -1.5708087126361292 2.5329952239990234 False False
4117.8189999999995 -2.179359738026754 -1.067052201633789 1.4928134123431605 -1.9965077839293421 -1.5707648436175745 2.533003807067871 False False
4117.839 -2.1793716589557093 -1.0670433801463624 1.4928177038775843 -1.996495863000387 -1.5707805792437952 2.532991886138916 False False
4117.8589999999995 -2.1793769041644495 -1.0670434397510071 1.4928057829486292 -1.996500154534811 -1.570829216633932 2.5330071449279785 False False
4117.879 -2.179396454487936 -1.0670390290072937 1.4928258101092737 -1.9965201816954554 -1.5707805792437952 2.5329749584198 False False
4117.898999999999 -2.1794126669513147 -1.0670730632594605 1.4928463141070765 -1.996495863000387 -1.5707925001727503 2.5329952239990234 False False
4117.919 -2.1793726126300257 -1.0670510095408936 1.4927881399737757 -1.9964953861632289 -1.5708044211017054 2.5330405235290527 False False
4117.938999999999 -2.1793888250934046 -1.0670730632594605 1.4928348700152796 -1.996512075463766 -1.5708335081683558 2.5330114364624023 False False
4117.959 -2.1793673674212855 -1.0670730632594605 1.4928014914142054 -1.9965077839293421 -1.5707767645465296 2.532954454421997 False False
4117.978999999999 -2.1793230215655726 -1.06700952470813 1.4927685896502894 -1.9964996776976527 -1.5708091894732874 2.532987594604492 False False
4117.999 -2.1793673674212855 -1.0670221012881775 1.4928057829486292 -1.9965197048582972 -1.5707405249225062 2.5330233573913574 False False
4118.019 -2.179380242024557 -1.0670730632594605 1.4928258101092737 -1.9964801273741664 -1.5708048979388636 2.5330686569213867 False False
4118.039 -2.179392162953512 -1.0670848053744812 1.4927404562579554 -1.9965197048582972 -1.5707686583148401 2.533036231994629 False False
4118.059 -2.1794260183917444 -1.0670804542354126 1.4928372542010706 -1.9965363941588343 -1.5707886854754847 2.53302001953125 False False
4118.079 -2.1793716589557093 -1.0670019549182435 1.4927390257464808 -1.9965483150877894 -1.570723835621969 2.532970428466797 False False
4118.099 -2.179404083882467 -1.0670346182635804 1.4928301016436976 -1.9964953861632289 -1.5707967917071741 2.53302001953125 False False
4118.119 -2.179364029561178 -1.0670641225627442 1.4927642981158655 -1.9965363941588343 -1.5707967917071741 2.533003807067871 False False
4118.139 -2.179392162953512 -1.0670434397510071 1.4927852789508265 -1.9965163669981898 -1.570813004170553 2.532991886138916 False False
4118.159 -2.1793230215655726 -1.0670398038676758 1.4928463141070765 -1.9965077839293421 -1.5707686583148401 2.53302001953125 False False
4118.179 -2.1793230215655726 -1.067026512031891 1.4927762190448206 -1.996580263177389 -1.5707891623126429 2.5330028533935547 False False
4118.199 -2.179408375416891 -1.0670478504947205 1.4928057829486292 -1.9964634380736292 -1.5707891623126429 2.5330686569213867 False False
4118.219 -2.179396454487936 -1.0670530957034607 1.4928134123431605 -1.996467729608053 -1.5708335081683558 2.532966375350952 False False
4118.239 -2.1793726126300257 -1.0669932526401062 1.4928224722491663 -1.9964758358397425 -1.5707486311541956 2.532996416091919 False False
4118.259 -2.179359738026754 -1.0670922559550782 1.4927762190448206 -1.9964915714659632 -1.5708211104022425 2.53302001953125 False False
4118.2789999999995 -2.179387871419088 -1.0670096439174195 1.4927971998797815 -1.9964953861632289 -1.5707925001727503 2.5330190658569336 False False
4118.299 -2.1793630758868616 -1.0670760434916993 1.4928134123431605 -1.9965158901610316 -1.5707648436175745 2.5330147743225098 False False
4118.3189999999995 -2.1794164816485804 -1.0670309227756043 1.4927762190448206 -1.996523996392721 -1.5708168188678187 2.5330307483673096 False False
4118.339 -2.179375950490133 -1.0670095843127747 1.4928301016436976 -1.9964915714659632 -1.5708416144000452 2.5330007076263428 False False
4118.3589999999995 -2.179340187703268 -1.067056731586792 1.4928267637835901 -1.9964996776976527 -1.5708006064044397 2.533012628555298 False False
4118.379 -2.1793630758868616 -1.0670478504947205 1.4927776495562952 -1.9964953861632289 -1.5707405249225062 2.533003807067871 False False
4118.398999999999 -2.1793792883502405 -1.0670553606799622 1.4928267637835901 -1.9964953861632289 -1.5707686583148401 2.533003807067871 False False
4118.419 -2.179375950490133 -1.067084864979126 1.4927805105792444 -1.9964801273741664 -1.5707362333880823 2.533031940460205 False False
4118.438999999999 -2.1793063322650355 -1.067035273914673 1.4928267637835901 -1.996472021142477 -1.5708211104022425 2.5330233573913574 False False
4118.459 -2.179375950490133 -1.0670641225627442 1.4928134123431605 -1.9965397320189417 -1.5708373228656214 2.533031940460205 False False
4118.478999999999 -2.1794384161578577 -1.067026512031891 1.4928134123431605 -1.9964996776976527 -1.5708168188678187 2.532991886138916 False False
4118.499 -2.179429356251852 -1.0670656126788636 1.4927523771869105 -1.996552129785055 -1.5707324186908167 2.532966375350952 True False
4118.519 -2.179375950490133 -1.0670892161181946 1.4927642981158655 -1.9964915714659632 -1.570784870778219 2.5330114364624023 True False
4118.539 -2.1794279257403772 -1.0670183461955567 1.4927895704852503 -1.9965402088561 -1.570784870778219 2.533003807067871 True False
4118.559 -2.179380242024557 -1.0671054881862183 1.4928177038775843 -1.9965282879271449 -1.5708168188678187 2.533015727996826 True False
4118.579 -2.1794446150409144 -1.0670836132815857 1.4927895704852503 -1.9965163669981898 -1.570784870778219 2.532963275909424 True False
4118.599 -2.1797049681292933 -1.0670847457698365 1.4927733580218714 -1.9965282879271449 -1.5707967917071741 2.5327720642089844 True False
4118.619 -2.180091683064596 -1.06703473747287 1.4925888220416468 -1.9962369404234828 -1.570784870778219 2.53243350982666 True False
4118.639 -2.180514637623922 -1.0670716923526307 1.4923866430865687 -1.9959379635252894 -1.5707805792437952 2.531874895095825 True False
4118.659 -2.1812713781939905 -1.0671374958804627 1.4920666853534144 -1.9954148731627406 -1.570801083241598 2.531085729598999 True False
4118.679 -2.182230774556295 -1.0672383469394227 1.4916070143329065 -1.9949523411192835 -1.5707529226886194 2.5300939083099365 True False
4118.699 -2.183657948170797 -1.067340688114502 1.490882698689596 -1.9942385158934535 -1.570772949849264 2.5287771224975586 True False
4118.719 -2.185544792805807 -1.0675029915622254 1.4900696913348597 -1.9933167896666468 -1.5707686583148401 2.526970624923706 True False
4118.739 -2.187695328389303 -1.0676699441722413 1.489023510609762 -1.9920650921263636 -1.570813004170553 2.524726152420044 True False
4118.759 -2.1902931372271937 -1.0679745239070435 1.4877246061908167 -1.990486284295553 -1.570756737385885 2.522083282470703 True False
4118.7789999999995 -2.193631951008932 -1.0681660336307068 1.4862731138812464 -1.9888388119139613 -1.5707929770099085 2.5187885761260986 True False
4118.799 -2.197663132344381 -1.068422631626465 1.4844406286822718 -1.9867011509337367 -1.570756737385885 2.514878034591675 True False
4118.8189999999995 -2.2023423353778284 -1.0688030880740662 1.482187573109762 -1.9840852222838343 -1.570772949849264 2.5101797580718994 True False
4118.839 -2.207710091267721 -1.0692573350718995 1.4796469847308558 -1.9812857113280238 -1.570813004170553 2.5047519207000732 True False
4118.8589999999995 -2.2135337034808558 -1.069770948295929 1.4769795576678675 -1.9781185589232386 -1.5707686583148401 2.4988479614257812 True False
4118.879 -2.2197678724872034 -1.0702566069415589 1.4739373365985315 -1.974529882470602 -1.570716683064596 2.492464303970337 True False
4118.898999999999 -2.226908508931295 -1.0708083075336 1.470722500477926 -1.970849176446432 -1.5708087126361292 2.485508441925049 True False
4118.919 -2.2345884482013147 -1.071454034452774 1.4672392050372522 -1.966665884057516 -1.5708168188678187 2.477869987487793 True False
4118.938999999999 -2.242821995412008 -1.072015331392624 1.4636109511004847 -1.9623152218260707 -1.5707686583148401 2.469607353210449 True False
4118.959 -2.251326386128561 -1.0727930527976532 1.4596884886371058 -1.957654138604635 -1.570784870778219 2.4610321521759033 True False
4118.978999999999 -2.2604883352862757 -1.0736017984202881 1.4554298559771937 -1.9525662861266078 -1.5707653204547327 2.4518957138061523 True False
4118.999 -2.2704947630511683 -1.0742851060679932 1.4507845083819788 -1.9473654232420863 -1.5707486311541956 2.4419937133789062 True False
4119.019 -2.280813519154684 -1.0751747649959107 1.4460414091693323 -1.9416662655272425 -1.5708168188678187 2.431594133377075 True False
4119.039 -2.2915664354907435 -1.0760100346854706 1.440925423298971 -1.9357778034605921 -1.5707767645465296 2.4207520484924316 True False
4119.059 -2.303248469029562 -1.0769054156592865 1.435566250477926 -1.9295669994749964 -1.5707967917071741 2.4091787338256836 True False
4119.079 -2.3153441588031214 -1.07784257948909 1.4300664106952112 -1.9230205021300257 -1.5707600752459925 2.3971855640411377 True False
4119.099 -2.3275492827044886 -1.078846202497818 1.4243748823748987 -1.9162246189513148 -1.570772949849264 2.384716272354126 True False
4119.119 -2.3408671061145228 -1.079887406235077 1.4183943907367151 -1.9092384777464808 -1.5707605520831507 2.3713064193725586 True False
4119.139 -2.3547447363482874 -1.080992416744568 1.4118660132037562 -1.9017301998534144 -1.5708325544940394 2.35784649848938 True False
4119.159 -2.368908230458395 -1.082168774013855 1.4052208105670374 -1.8939062557616175 -1.5708168188678187 2.343337059020996 True False
4119.179 -2.383699957524435 -1.0833351773074646 1.3985160032855433 -1.8859836063780726 -1.5707843939410608 2.3287229537963867 True False
4119.199 -2.3989325205432337 -1.084582195883133 1.3915875593768519 -1.877801080743307 -1.5708168188678187 2.313386917114258 True False
4119.219 -2.4136834780322474 -1.0857097071460267 1.3847230116473597 -1.869744440118307 -1.5708687941180628 2.298743963241577 True False
4119.239 -2.427746597920553 -1.0868453544429322 1.3781431357013147 -1.8620087109007777 -1.5708087126361292 2.284529685974121 True False
4119.259 -2.4414518515216272 -1.087892310028412 1.3718164602862757 -1.854772230187887 -1.5708687941180628 2.2709248065948486 True False
4119.2789999999995 -2.4544993082629603 -1.0889857572368165 1.3659141699420374 -1.847713132897848 -1.5708211104022425 2.257988452911377 True False
4119.299 -2.467078510914938 -1.0899304908565064 1.3602259794818323 -1.8408624134459437 -1.570857350026266 2.245260238647461 True False
4119.3189999999995 -2.4789393583880823 -1.0910282892039795 1.3547433058368128 -1.834358354608053 -1.5708368460284632 2.233553647994995 True False
4119.339 -2.49035889307131 -1.0919844967177887 1.3493717352496546 -1.8282247982420863 -1.5707529226886194 2.221968412399292 True False
4119.3589999999995 -2.5011726061450403 -1.092750833635666 1.3443430105792444 -1.822451730767721 -1.5708211104022425 2.2112090587615967 True False
4119.379 -2.5113142172442835 -1.0935628873160859 1.3396485487567347 -1.8168984852232875 -1.5707772413836878 2.2009992599487305 True False
4119.398999999999 -2.521121088658468 -1.0943603378585358 1.3352997938739222 -1.811575552026266 -1.5707414785968226 2.1912333965301514 True False
4119.419 -2.5304351488696497 -1.095068411236145 1.331069294606344 -1.8066827259459437 -1.5708044211017054 2.181980848312378 True False
4119.438999999999 -2.5388763586627405 -1.09578891218219 1.3270366827594202 -1.8019825420775355 -1.5707815329181116 2.1734731197357178 True False
4119.459 -2.546824041997091 -1.0964906376651307 1.323381249104635 -1.7975856266417445 -1.5707486311541956 2.165518283843994 True False
4119.478999999999 -2.5545910040484827 -1.0970178109458466 1.3199380079852503 -1.7936068973936976 -1.5708239714251917 2.157959222793579 True False
4119.499 -2.56130820909609 -1.0975098770907898 1.3165772596942347 -1.7898193798460902 -1.5708168188678187 2.150944948196411 True False
4119.519 -2.5674923102008265 -1.0980208379081269 1.3136146704303187 -1.7864271603026332 -1.570784870778219 2.1447761058807373 True False
4119.539 -2.573494259511129 -1.0985205632499238 1.3109563032733362 -1.7833410702147425 -1.5708168188678187 2.13899827003479 True False
4119.559 -2.5789077917682093 -1.0989621740630646 1.3086398283587855 -1.7804786167540492 -1.5708006064044397 2.133683443069458 True False
4119.579 -2.5834460894214075 -1.0993748170188447 1.3064921537982386 -1.7779432735838832 -1.570813004170553 2.1289069652557373 True False
4119.599 -2.5874090830432337 -1.099611983900406 1.3046720663653772 -1.775562425652975 -1.5707967917071741 2.124800205230713 True False
4119.619 -2.5910239855395716 -1.0998685520938416 1.302969757710592 -1.773797174493307 -1.5708211104022425 2.121319055557251 True False
4119.639 -2.594116274510519 -1.1001663667014618 1.301546875630514 -1.772153993646139 -1.5707891623126429 2.1182663440704346 True False
4119.659 -2.5964883009540003 -1.1004027289203187 1.3004158178912562 -1.7708150349059046 -1.570772949849264 2.115854263305664 True False
4119.679 -2.598372999821798 -1.100472555761673 1.299588982258932 -1.7696553669371546 -1.5707967917071741 2.1139681339263916 True False
4119.699 -2.599832836781637 -1.1005018812469025 1.299042050038473 -1.769017835656637 -1.5707886854754847 2.112647771835327 True False
4119.719 -2.600626055394308 -1.1005332630923768 1.2986019293414515 -1.768646856347555 -1.5707843939410608 2.111870527267456 True False
4119.739 -2.6007326284991663 -1.1006120306304474 1.2984698454486292 -1.7686354122557582 -1.5707686583148401 2.11165189743042 True False
4119.759 -2.600640837346212 -1.1005144876292725 1.2987149397479456 -1.7689577541747035 -1.5707686583148401 2.111691951751709 True False
4119.7789999999995 -2.6007519404040735 -1.1002884370139618 1.2992475668536585 -1.7697721920409144 -1.5707653204547327 2.1116886138916016 True False
4119.799 -2.600680176411764 -1.1000417631915589 1.30017596880068 -1.7713233433165492 -1.5707972685443323 2.111659526824951 True False
4119.8189999999995 -2.6006696859942835 -1.0994764131358643 1.301495377217428 -1.7733727894225062 -1.5707529226886194 2.111668109893799 True False
4119.839 -2.600734059010641 -1.0987592500499268 1.3033197561847132 -1.7757564983763636 -1.5708006064044397 2.11165189743042 True False
4119.8589999999995 -2.6006770769702356 -1.097799376850464 1.3056705633746546 -1.7790109119811 -1.5707691351519983 2.1116161346435547 True False
4119.879 -2.600704018269674 -1.0965993267348786 1.308291260396139 -1.782670637170309 -1.5707572142230433 2.1116323471069336 True False
4119.898999999999 -2.60075813928713 -1.0952966970256348 1.311281983052389 -1.7868849239745082 -1.5707724730121058 2.1116161346435547 True False
4119.919 -2.60075813928713 -1.0939128261855622 1.3147733847247522 -1.791661878625387 -1.5707886854754847 2.1115708351135254 True False
4119.938999999999 -2.6007536093341272 -1.0921951097301026 1.3185909430133265 -1.7971002064146937 -1.5708335081683558 2.1116323471069336 True False
4119.959 -2.6007700602160853 -1.090422348385193 1.3228772322284144 -1.8029848537840785 -1.5708048979388636 2.1116204261779785 True False
4119.978999999999 -2.6007655302630823 -1.088452236061432 1.3274176756488245 -1.8095652065672816 -1.5708048979388636 2.111595630645752 True False
4119.999 -2.6007490793811243 -1.0864544373801728 1.332193676625387 -1.816723962823385 -1.5707810560809534 2.111579418182373 True False
4120.019 -2.600799862538473 -1.0842857223800202 1.3376339117633265 -1.8241692982115687 -1.5708649794207972 2.1116161346435547 True False
4120.039 -2.6007941404925745 -1.081735984688141 1.3433001677142542 -1.8323074779906214 -1.570824925099508 2.1116085052490234 True False
4120.059 -2.6007986704455774 -1.079171047811844 1.3494661490069788 -1.8410426578917445 -1.570772949849264 2.111555576324463 True False
4120.079 -2.6007445494281214 -1.076417790060379 1.3560188452350062 -1.8503490887083949 -1.570784870778219 2.111539363861084 True False
4120.099 -2.6007683912860315 -1.0734835726073761 1.3629301230060022 -1.8600222072997035 -1.570813004170553 2.1116161346435547 True False
4120.119 -2.6007564703570765 -1.0704353612712403 1.3701232115374964 -1.8706346950926722 -1.5708487669574183 2.1115760803222656 True False
4120.139 -2.6007610003100794 -1.0672071141055604 1.3776472250567835 -1.8812037907042445 -1.5707810560809534 2.111645221710205 True False
4120.159 -2.6008060614215296 -1.0641460579684754 1.3850057760821741 -1.8913637600340785 -1.570784870778219 2.1116323471069336 True False
4120.179 -2.6008105913745325 -1.0612567228129883 1.3916743437396448 -1.9010335407652796 -1.570784870778219 2.1116247177124023 True False
4120.199 -2.6007850805865687 -1.0586425226977845 1.3977802435504358 -1.9101010761656703 -1.5707648436175745 2.1116042137145996 True False
4120.219 -2.6008182207690638 -1.0561233323863526 1.4036420027362269 -1.9184743366637171 -1.5707886854754847 2.1115880012512207 True False
4120.239 -2.6007445494281214 -1.0537926715663453 1.409342114125387 -1.9263249836363734 -1.5707648436175745 2.1116528511047363 True False
4120.259 -2.6007683912860315 -1.0516072672656556 1.414668385182516 -1.9337078533568324 -1.5707686583148401 2.1116366386413574 True False
4120.2789999999995 -2.6007655302630823 -1.0496125978282471 1.4193947950946253 -1.9406682453551234 -1.570784870778219 2.1116161346435547 True False
4120.299 -2.6007638613330286 -1.0477847021869202 1.4236848990069788 -1.9468866787352503 -1.5708211104022425 2.111661434173584 True False
4120.3189999999995 -2.600774351750509 -1.0460522335818787 1.4276307264911097 -1.952512880364889 -1.5708206335650843 2.111571788787842 True False
4120.339 -2.6007941404925745 -1.044619933967926 1.4312542120562952 -1.957620760003561 -1.5707648436175745 2.1116042137145996 True False
4120.3589999999995 -2.6007400194751185 -1.043145315056183 1.4344208876239222 -1.9622470341124476 -1.5708168188678187 2.1115922927856445 True False
4120.379 -2.6007445494281214 -1.0420167607120057 1.4372714201556605 -1.9662939510741175 -1.5707529226886194 2.111649513244629 True False
4120.398999999999 -2.6007819811450403 -1.0409310025027771 1.4397080580340784 -1.9697138271727503 -1.5708444754229944 2.111583709716797 True False
4120.419 -2.6007896105395716 -1.0400406879237671 1.4419167677508753 -1.9725719890990199 -1.5707967917071741 2.1116247177124023 True False
4120.438999999999 -2.6008015314685267 -1.0393517178348084 1.4435613791095179 -1.97487272838735 -1.5708330313311976 2.111599922180176 True False
4120.459 -2.6007564703570765 -1.0388416212848206 1.444735352193014 -1.9766713581480921 -1.5708168188678187 2.1115760803222656 True False
4120.478999999999 -2.6007819811450403 -1.038425700073578 1.4456380049334925 -1.9778419933714808 -1.5707810560809534 2.1116280555725098 True False
4120.499 -2.6007774511920374 -1.0381885927966614 1.4460652510272425 -1.9786483250060023 -1.5708087126361292 2.111650228500366 True False
4120.519 -2.6007521788226526 -1.0383099478534241 1.4460676352130335 -1.9786950550475062 -1.5707967917071741 2.111607551574707 True False
4120.539 -2.6007896105395716 -1.0382968348315735 1.4460881392108362 -1.9787231884398402 -1.5707967917071741 2.111595392227173 True False
4120.559 -2.6007655302630823 -1.0382822316936036 1.4461091200457972 -1.978711267510885 -1.5707648436175745 2.11163330078125 True False
4120.579 -2.6007283369647425 -1.0383223456195374 1.446113411580221 -1.9786955318846644 -1.5707929770099085 2.1115922927856445 True False
4120.599 -2.6007686297046106 -1.038297490482666 1.4461091200457972 -1.9787270031371058 -1.57084829012026 2.111538887023926 True False
4120.619 -2.600790802632467 -1.038257436161377 1.4461286703692835 -1.9786912403502406 -1.5707767645465296 2.111623525619507 True False
4120.639 -2.600791041051046 -1.038276807670929 1.446038548146383 -1.9786955318846644 -1.5708125273333948 2.1115715503692627 True False
4120.659 -2.6007774511920374 -1.0383144182017823 1.4461577574359339 -1.97869934658193 -1.5707767645465296 2.1116087436676025 True False
4120.679 -2.6007536093341272 -1.0382530850223084 1.4461610952960413 -1.9787231884398402 -1.5707886854754847 2.1116042137145996 True False
4120.699 -2.6007941404925745 -1.0383356374553223 1.446146313344137 -1.978738924066061 -1.5707929770099085 2.1115922927856445 True False
4120.719 -2.60075813928713 -1.0382087391665955 1.4461162726031702 -1.978739400903219 -1.5708006064044397 2.1115596294403076 True False
4120.739 -2.6007610003100794 -1.038305477505066 1.4461048285113733 -1.9787231884398402 -1.57084829012026 2.1116206645965576 True False
4120.759 -2.6008270422564905 -1.0382941526225586 1.4461091200457972 -1.978671213189596 -1.5707810560809534 2.111650228500366 True False
4120.7789999999995 -2.600791041051046 -1.0382335943034668 1.4461620489703577 -1.9787074528136195 -1.5708206335650843 2.1116042137145996 True False
4120.799 -2.6008060614215296 -1.0382325810245057 1.446120564137594 -1.978659292260641 -1.5708087126361292 2.1116325855255127 True False
4120.8189999999995 -2.6007729212390345 -1.0382443827441712 1.4461286703692835 -1.9787031612791957 -1.5708330313311976 2.111586570739746 True False
4120.839 -2.6007941404925745 -1.038273648624756 1.4461048285113733 -1.9786550007262171 -1.5707691351519983 2.111558198928833 True False
4120.8589999999995 -2.6007819811450403 -1.0382985037616272 1.4461048285113733 -1.9786550007262171 -1.570784870778219 2.1116533279418945 True False
4120.879 -2.6007865110980433 -1.038257436161377 1.4461162726031702 -1.9787351093687953 -1.5708006064044397 2.111562490463257 True False
4120.898999999999 -2.6008015314685267 -1.0382584494403382 1.4461286703692835 -1.9786950550475062 -1.5708048979388636 2.1116249561309814 True False
4120.919 -2.6007865110980433 -1.0382540983012696 1.4461196104632776 -1.9787031612791957 -1.5707967917071741 2.111578941345215 True False
4120.938999999999 -2.6007729212390345 -1.0382899802974244 1.446148697529928 -1.9787270031371058 -1.5708125273333948 2.111623525619507 True False
4120.959 -2.6007729212390345 -1.0382541579059144 1.446174446736471 -1.9786631069579066 -1.5707648436175745 2.1115996837615967 True False
4120.978999999999 -2.6007490793811243 -1.038245515232422 1.4461000601397913 -1.9786392650999964 -1.57084829012026 2.1116204261779785 True False
4120.999 -2.6007357279406946 -1.0382001560977479 1.4461329619037073 -1.978711267510885 -1.5708006064044397 2.111595392227173 True False
4121.019 -2.6008103529559534 -1.0382335943034668 1.4461115042315882 -1.9786831341185511 -1.5708006064044397 2.1116280555725098 True False
4121.039 -2.6007610003100794 -1.0382335943034668 1.446174446736471 -1.9786707363524378 -1.5707767645465296 2.1116161346435547 True False
4121.059 -2.6007700602160853 -1.038179950123169 1.4461401144610804 -1.9787074528136195 -1.5708091894732874 2.1115715503692627 True False
4121.079 -2.6007774511920374 -1.038241223697998 1.4461372534381312 -1.9786507091917933 -1.5707648436175745 2.111578941345215 True False
4121.099 -2.600776259099142 -1.038273648624756 1.4460552374469202 -1.9786869488158167 -1.5708006064044397 2.1116280555725098 True False
4121.119 -2.6007700602160853 -1.0382812780192872 1.4460609594928187 -1.9787632427611292 -1.5707843939410608 2.1116607189178467 True False
4121.139 -2.600786272679464 -1.038239912395813 1.4460938612567347 -1.9787270031371058 -1.5708373228656214 2.111656427383423 True False
4121.159 -2.6007941404925745 -1.038285569553711 1.4460638205157679 -1.9787236652769984 -1.5707925001727503 2.111631155014038 True False
4121.179 -2.6007610003100794 -1.0383841556361695 1.446080509816305 -1.9787351093687953 -1.5708006064044397 2.1116280555725098 True False
4121.199 -2.6007610003100794 -1.0383229416659852 1.446113411580221 -1.9787308178343714 -1.5708211104022425 2.1116979122161865 True False
4121.219 -2.6007402578936976 -1.0383384984782715 1.4460848013507288 -1.978643079797262 -1.570829216633932 2.111639976501465 True True
4121.239 -2.6007357279406946 -1.038353757267334 1.4458616415606897 -1.977884431878561 -1.5708211104022425 2.111602783203125 True True
4121.259 -2.6007700602160853 -1.0384939473918458 1.4453089872943323 -1.9767285786070765 -1.570829216633932 2.1116161346435547 True True
4121.2789999999995 -2.6007564703570765 -1.0388873380473633 1.4440839926349085 -1.9752050838866175 -1.5707925001727503 2.1116116046905518 True True
4121.299 -2.6007328669177454 -1.0396938484958191 1.4422782103167933 -1.973147531548971 -1.570801083241598 2.1116206645965576 True True
4121.3189999999995 -2.6008148829089563 -1.0406567615321656 1.4401052633868616 -1.9702440700926722 -1.5708416144000452 2.11159086227417 True True
4121.339 -2.6007567087756556 -1.0415972036174317 1.4377854506122034 -1.9667779407896937 -1.5707686583148401 2.111607313156128 True True
4121.3589999999995 -2.6007896105395716 -1.0427571696094056 1.4350317160235804 -1.9628097019591273 -1.570784870778219 2.1116280555725098 True True
4121.379 -2.6007686297046106 -1.0441320699504395 1.4318612257586878 -1.9584161243834437 -1.5707886854754847 2.1116368770599365 True True
4121.398999999999 -2.6007490793811243 -1.0458110731891175 1.4283130804644983 -1.9534274540343226 -1.570813004170553 2.1116161346435547 True True
4121.419 -2.6007774511920374 -1.0473390978625794 1.4243539015399378 -1.9478198490538539 -1.570772949849264 2.1116325855255127 True True
4121.438999999999 -2.6007328669177454 -1.0491842192462464 1.4201553503619593 -1.9416305027403773 -1.5707686583148401 2.111578941345215 True True
4121.459 -2.6007610003100794 -1.051205651169159 1.4154580275165003 -1.9349318943419398 -1.5707648436175745 2.1116814613342285 True True
4121.478999999999 -2.6007686297046106 -1.0534274739078064 1.4101436773883265 -1.927650590936178 -1.5708087126361292 2.1116161346435547 True True
4121.499 -2.6007819811450403 -1.0557188552669068 1.4046948591815394 -1.9197632275023402 -1.5707605520831507 2.1116368770599365 True True
4121.519 -2.600797239934103 -1.0581996601871033 1.3988154570208948 -1.9114729366698207 -1.5708335081683558 2.1116206645965576 True True
4121.539 -2.6007655302630823 -1.0608615440181275 1.3926742712603968 -1.9024964771666468 -1.5707648436175745 2.1116740703582764 True True
4121.559 -2.6007490793811243 -1.0637092751315613 1.3859599272357386 -1.8929397068419398 -1.570784870778219 2.1116042137145996 True True
4121.579 -2.6007819811450403 -1.0667070907405396 1.3787253538714808 -1.8828927479186 -1.570813004170553 2.1116368770599365 True True
4121.599 -2.6007729212390345 -1.0699950617602845 1.3711941877948206 -1.8723370037474574 -1.5708325544940394 2.1115834712982178 True True
4121.619 -2.6007941404925745 -1.0731194478324433 1.3638222853290003 -1.8618785343565882 -1.5707925001727503 2.1116161346435547 True True
4121.639 -2.600741688405172 -1.0760041636279603 1.3570645491229456 -1.8518921337523402 -1.5707891623126429 2.1116294860839844 True True
4121.659 -2.6007941404925745 -1.0785996478847046 1.3505743185626429 -1.8424788914122523 -1.5707891623126429 2.1116206645965576 True True
4121.679 -2.600769821797506 -1.081218497162201 1.3442886511432093 -1.8337651691832484 -1.5707648436175745 2.1116206645965576 True True
4121.699 -2.6007853190051478 -1.0838071268847962 1.3383987585650843 -1.8255440197386683 -1.570784870778219 2.1116325855255127 True True
4121.719 -2.6008146444903772 -1.086066947584488 1.3331740538226526 -1.8178111515440882 -1.5708048979388636 2.111595392227173 True True
4121.739 -2.6007817427264612 -1.0881397289088746 1.3282039801227015 -1.8106123409666957 -1.5707724730121058 2.1116161346435547 True True
4121.759 -2.6007896105395716 -1.090100960140564 1.323561970387594 -1.8040949306883753 -1.5707686583148401 2.1116578578948975 True True
4121.7789999999995 -2.600802723561422 -1.0919194680503388 1.3192451635943812 -1.7980314693846644 -1.5708087126361292 2.1116459369659424 True True
4121.799 -2.6007817427264612 -1.0935199719718476 1.3153532187091272 -1.7925931415953578 -1.570824925099508 2.1115670204162598 True True
4121.8189999999995 -2.600764338170187 -1.0950379830649872 1.3118909041034144 -1.7877141437926234 -1.5707686583148401 2.1115639209747314 True True
4121.839 -2.6008430163012903 -1.0962413114360352 1.308918301259176 -1.78336824993276 -1.5708048979388636 2.111537456512451 True True
4121.8589999999995 -2.6007612387286585 -1.0974187713912507 1.3062894980060022 -1.779524942437643 -1.570756737385885 2.111541748046875 True True
4121.879 -2.6007493177997034 -1.0982969564250489 1.3040722052203577 -1.7762519321837367 -1.570801083241598 2.1116116046905518 True True
4121.898999999999 -2.6007731596576136 -1.0991703134826203 1.3021624724017542 -1.7736336193480433 -1.5707929770099085 2.11159086227417 True True
4121.919 -2.6007242838488978 -1.0997644823840638 1.3005784193622034 -1.7715636692442835 -1.5707967917071741 2.1116042137145996 True True
4121.938999999999 -2.600786272679464 -1.100323275928833 1.2995575110064905 -1.7698856792845667 -1.5707686583148401 2.111562490463257 True True
4121.959 -2.6007984320269983 -1.1005263489535828 1.2989590803729456 -1.7689258060851039 -1.5707767645465296 2.1116533279418945 True True
4121.978999999999 -2.600769821797506 -1.100625829105713 1.298514191304342 -1.7685147724547328 -1.5707805792437952 2.1116533279418945 True True
4121.999 -2.6006246248828333 -1.1005788010409852 1.298514191304342 -1.768594881097311 -1.5707843939410608 2.1116576194763184 True True
4122.019 -2.599992100392477 -1.100533352499344 1.2985413710223597 -1.768595357934469 -1.570829216633932 2.111605644226074 True True
4122.039 -2.5988360087024134 -1.1005526942065735 1.2985265890704554 -1.7685581646361292 -1.5708416144000452 2.1113648414611816 True True
4122.059 -2.5971489588366907 -1.1005732280066987 1.2985380331622522 -1.7686072788634242 -1.5708406607257288 2.1111433506011963 True True
4122.079 -2.5947237650500696 -1.1006463331035157 1.2985551992999476 -1.7685791454710902 -1.5707843939410608 2.1109187602996826 True True
4122.099 -2.5916603247271937 -1.100750671034195 1.2985394636737269 -1.7686153850951136 -1.5708168188678187 2.1106855869293213 True True
4122.119 -2.5882020632373255 -1.1007097226432343 1.2985380331622522 -1.7685872517027796 -1.570784870778219 2.1103830337524414 True True
4122.139 -2.584163252507345 -1.1007997256568451 1.298568073903219 -1.7685548267760218 -1.5707767645465296 2.10990571975708 True True
4122.159 -2.5794649759875696 -1.1007720094970246 1.2985089460956019 -1.768611570397848 -1.5707967917071741 2.10952091217041 True True
4122.179 -2.574317518864767 -1.1008331340602417 1.2985947767840784 -1.7685791454710902 -1.5707686583148401 2.108973503112793 True True
4122.199 -2.5685904661761683 -1.100874887113907 1.298626724873678 -1.768594881097311 -1.570853058491842 2.1084048748016357 True True
4122.219 -2.5623746554004114 -1.1009346407702942 1.2986744085894983 -1.768594881097311 -1.5707648436175745 2.1077940464019775 True True
4122.239 -2.5556471983539026 -1.1010186237147828 1.2987554709063929 -1.768594881097311 -1.570853058491842 2.107186794281006 True True
4122.259 -2.548250738774435 -1.1009977620891114 1.298870865498678 -1.7686311207213343 -1.5707805792437952 2.1063826084136963 True True
4122.2789999999995 -2.5401464144336146 -1.1010289055160065 1.2989590803729456 -1.7686425648131312 -1.570824925099508 2.105658769607544 True True
4122.299 -2.5316413084613245 -1.1011387270740052 1.2990387121783655 -1.7687107525267542 -1.570784870778219 2.104804515838623 True True
4122.3189999999995 -2.522742811833517 -1.101149634723999 1.2990973631488245 -1.768766542474264 -1.5707929770099085 2.103861093521118 True True
4122.339 -2.5131502787219446 -1.1012137693217774 1.2991622130023401 -1.7687341175475062 -1.5707886854754847 2.102911949157715 True True
4122.3589999999995 -2.502774778996603 -1.1013400119594117 1.2992818991290491 -1.7687818012633265 -1.570784870778219 2.1019091606140137 True True
4122.379 -2.492215935383932 -1.1013905566981812 1.2993982473956507 -1.7688218555846156 -1.5707805792437952 2.100803852081299 True True
4122.398999999999 -2.480982844029562 -1.1013590556434174 1.2995227018939417 -1.768898149529928 -1.5708168188678187 2.0997588634490967 True True
4122.419 -2.468886439000265 -1.1015069049647828 1.2996371428119105 -1.7688976726927699 -1.5707324186908167 2.0985546112060547 True True
4122.438999999999 -2.4565985838519495 -1.1015737813762208 1.2997568289386194 -1.7689172230162562 -1.5707767645465296 2.0973243713378906 True True
4122.459 -2.4437547365771692 -1.1017171007445832 1.2998078505145472 -1.7690335712828578 -1.5708492437945765 2.0959463119506836 True True
4122.478999999999 -2.430017058049337 -1.1017465454391022 1.2999818960772913 -1.7690373859801234 -1.570756737385885 2.094630718231201 True True
4122.499 -2.41602069536318 -1.1018052262118836 1.3001139799701136 -1.7691461048521937 -1.5708048979388636 2.093264579772949 True True
4122.519 -2.4014044443713587 -1.1018891495517273 1.3001964727984827 -1.7691570721068324 -1.5707972685443323 2.0918328762054443 True True
4122.539 -2.386169974003927 -1.1019824308208008 1.3003776709186 -1.769160886804098 -1.5708487669574183 2.090324640274048 True True
4122.559 -2.3703742663012903 -1.1021303993514557 1.3005054632769983 -1.7691804371275843 -1.570756737385885 2.0887725353240967 True True
4122.579 -2.354081694279806 -1.1022556585124512 1.3006776014911097 -1.769320627252096 -1.5707967917071741 2.087153673171997 True True
4122.599 -2.337283198033468 -1.102261559372284 1.3008258978473108 -1.769303937951559 -1.570813004170553 2.085482120513916 True True
4122.619 -2.3198090235339563 -1.10238470256839 1.3009818235980433 -1.76942839244985 -1.5708325544940394 2.0838205814361572 True True
4122.639 -2.3018296400653284 -1.1025256973556061 1.301220719014303 -1.7694322071471156 -1.5707925001727503 2.0820045471191406 True True
4122.659 -2.28315240541567 -1.1026631754687806 1.3013418356524866 -1.7694837055602015 -1.5708254019366663 2.08015775680542 True True
4122.679 -2.2641456762896937 -1.1027625364116211 1.3015173117267054 -1.7696482143797816 -1.5708335081683558 2.0782737731933594 True True
4122.699 -2.244429890309469 -1.1028410357287903 1.301751438771383 -1.7696238956847132 -1.570813004170553 2.0762887001037598 True True
4122.719 -2.2241466681109827 -1.1030112963965912 1.3019464651690882 -1.7697154484190882 -1.5708773771869105 2.074323892593384 True True
4122.739 -2.2033994833575647 -1.1031015378287812 1.3021262327777308 -1.7698475323119105 -1.5708006064044397 2.072226047515869 True True
4122.759 -2.182561699544088 -1.1032754939845582 1.3023102919207972 -1.7697826824583949 -1.5707853476153772 2.0701253414154053 True True
4122.7789999999995 -2.161529843007223 -1.1033913654140015 1.3024900595294397 -1.7699266872801722 -1.570801083241598 2.068086624145508 True True
4122.799 -2.1407116095172327 -1.1035068792155762 1.302668873463766 -1.769982477227682 -1.57074481645693 2.0660061836242676 True True
4122.8189999999995 -2.119671646748678 -1.1035993856242676 1.302868668233053 -1.769966264764303 -1.5707529226886194 2.0638933181762695 True True
4122.839 -2.098664108906881 -1.1037256878665467 1.303161923085348 -1.7701097927489222 -1.5707805792437952 2.061812400817871 True True
4122.8589999999995 -2.0778377691852015 -1.1038924020579834 1.3032715956317347 -1.7701980076231898 -1.570845905934469 2.0597035884857178 True True
4122.879 -2.0569308439837855 -1.1040228766253968 1.3034842650042933 -1.7702256641783656 -1.5707610289203089 2.057626724243164 True True
4122.898999999999 -2.0358360449420374 -1.1042220455459137 1.3036311308490198 -1.7702895603575648 -1.5708368460284632 2.0555877685546875 True True
4122.919 -2.0149734655963343 -1.1043040317348023 1.3038352171527308 -1.7703491650023402 -1.5707767645465296 2.053476572036743 True True
4122.938999999999 -1.9940093199359339 -1.1044116181186219 1.3040974775897425 -1.7704092464842738 -1.570716683064596 2.051469087600708 True True
4122.959 -1.9729693571673792 -1.1045228403857728 1.304314915333883 -1.7705284557738246 -1.5708406607257288 2.049351453781128 True True
4122.978999999999 -1.9521554152118128 -1.1047295790961762 1.304436508809225 -1.7705360851683558 -1.5707805792437952 2.047283887863159 True True
4122.999 -1.9312241713153284 -1.1048650604537507 1.3046568075763147 -1.7706686458983363 -1.570772949849264 2.045177698135376 True True
4123.019 -1.910285774861471 -1.1048829120448609 1.3048728148089808 -1.7706557712950648 -1.5708373228656214 2.0431830883026123 True True
4123.039 -1.8893001715289515 -1.1050640803626557 1.3050811926471155 -1.7707473240294398 -1.5707925001727503 2.0411150455474854 True True
4123.059 -1.8684433142291468 -1.1052325528911133 1.3052399794207972 -1.7708279095091761 -1.5707686583148401 2.0389652252197266 True True
4123.079 -1.8473065535174769 -1.1053267878345032 1.3054288069354456 -1.7709313831725062 -1.570829216633932 2.0369157791137695 True True
4123.099 -1.8264549414264124 -1.1055295330337067 1.305659596120016 -1.7709313831725062 -1.5707486311541956 2.0347869396209717 True True
4123.119 -1.805566136037008 -1.1055701535991211 1.3058565298663538 -1.771027227441305 -1.5707281271563929 2.0327558517456055 True True
4123.139 -1.7844579855548304 -1.1056374472430726 1.3059914747821253 -1.771158834496969 -1.570836369191305 2.030648708343506 True True
4123.159 -1.763707462941305 -1.105818734770157 1.306248966847555 -1.7711264095702113 -1.570813004170553 2.028660774230957 True True
4123.179 -1.7427919546710413 -1.1059350830367585 1.30638295808901 -1.7712179623045863 -1.5708335081683558 2.0264949798583984 True True
4123.199 -1.721640412007467 -1.1060889822295685 1.3066242376910608 -1.771261831323141 -1.5708254019366663 2.024480104446411 True True
4123.219 -1.7008994261371058 -1.1062591236880799 1.3067501227008265 -1.7713538608946742 -1.5707805792437952 2.0223641395568848 True True
4123.239 -1.679908577595846 -1.1063025456717988 1.3069670836078089 -1.7713657818236292 -1.5707967917071741 2.0202553272247314 True True
4123.259 -1.6588590780841272 -1.1065092247775574 1.3071096579181116 -1.7715183697142542 -1.5708211104022425 2.018251895904541 True True
4123.2789999999995 -1.6379721800433558 -1.1066277784160157 1.307368580495016 -1.771541257897848 -1.5707805792437952 2.016155242919922 True True
4123.299 -1.6170132795916956 -1.1067100328258057 1.307547394429342 -1.7715846500792445 -1.5707805792437952 2.014052629470825 True True
4123.3189999999995 -1.596001450215475 -1.1068651241115113 1.307779614125387 -1.7716652355589808 -1.5708325544940394 2.012052536010742 True True
4123.339 -1.5752103964435022 -1.1069669288447876 1.3079684416400355 -1.7717443905272425 -1.570756737385885 2.0099523067474365 True True
4123.3589999999995 -1.5542414824115198 -1.1071039599231263 1.3081305662738245 -1.7718411884703578 -1.570813004170553 2.0078048706054688 True True
4123.379 -1.5331829229937952 -1.1072817605784913 1.3083599249469202 -1.7718683681883753 -1.5708335081683558 2.005791425704956 True True
4123.398999999999 -1.512317959462301 -1.1074027878097077 1.3085506598102015 -1.771980424920553 -1.5707805792437952 2.0036191940307617 True True
4123.419 -1.4914334456073206 -1.107492284183838 1.308758560811178 -1.7719675503172816 -1.5708048979388636 2.0016028881073 True True
4123.438999999999 -1.4703839460956019 -1.107644723062851 1.308892552052633 -1.7720514736571253 -1.570801083241598 1.9994550943374634 True True
4123.459 -1.4495742956744593 -1.1077966851047059 1.3091471830951136 -1.7721644840636195 -1.570801083241598 1.9974383115768433 True True
4123.478999999999 -1.4285476843463343 -1.1079876583865662 1.3092940489398401 -1.7722026310362757 -1.570801083241598 1.9953911304473877 True True
4123.499 -1.4075902144061487 -1.1080370110324402 1.3095677534686487 -1.772238393823141 -1.5708335081683558 1.9933135509490967 True True
4123.519 -1.3866713682757776 -1.1082392495921631 1.309725586568014 -1.772322794000143 -1.5707686583148401 1.991263508796692 True True
4123.539 -1.3657110373126429 -1.1083130699447175 1.309913460408346 -1.7723986111082972 -1.5707686583148401 1.9891273975372314 True True
4123.559 -1.3447912375079554 -1.1083642405322571 1.3100889364825647 -1.7724501095213832 -1.5708282629596155 1.9870609045028687 True True
4123.579 -1.3238299528705042 -1.1085455280593415 1.3103058973895472 -1.772529741326803 -1.570813004170553 1.9849365949630737 True True
4123.599 -1.3029206434832972 -1.1086158913424988 1.3104732672320765 -1.7725898228087367 -1.570845905934469 1.982905626296997 True True
4123.619 -1.2818730513202112 -1.108771727686264 1.3106897513019007 -1.7726899586119593 -1.5707805792437952 1.980926513671875 True True
4123.639 -1.2610295454608362 -1.1089255672744294 1.3108566443072718 -1.7727090320982875 -1.5707648436175745 1.9787375926971436 True True
4123.659 -1.2400921026812952 -1.109106884603836 1.3110855261432093 -1.7728167972960414 -1.5707486311541956 1.976659893989563 True True
4123.679 -1.219118897114889 -1.109192506676056 1.311249081288473 -1.7728644810118617 -1.5708211104022425 1.974597454071045 True True
4123.699 -1.1981928984271448 -1.1092868012240906 1.311465088521139 -1.7729207477965296 -1.5707886854754847 1.972550392150879 True True
4123.719 -1.1771586577044886 -1.1094276768020173 1.3116887251483362 -1.77296843151235 -1.5707805792437952 1.9704111814498901 True True
4123.739 -1.156137768422262 -1.1095496875098725 1.311918083821432 -1.7730800114073695 -1.570796314870016 1.9684077501296997 True True
4123.759 -1.135327164326803 -1.1097389322570343 1.312068287526266 -1.773144384423727 -1.570784870778219 1.966338038444519 True True
4123.7789999999995 -1.1143839995013636 -1.1098077458194275 1.3123014608966272 -1.7732116184630335 -1.5707967917071741 1.9641926288604736 True True
4123.799 -1.0934813658343714 -1.1099814933589478 1.3125060240374964 -1.773247858087057 -1.5708254019366663 1.962132215499878 True True
4123.8189999999995 -1.072566334401266 -1.1100944739631196 1.3126519362079065 -1.7733432255186976 -1.570784870778219 1.9600672721862793 True True
4123.839 -1.051472012196676 -1.11020843804393 1.3128607908831995 -1.7733355961241664 -1.5707529226886194 1.9579895734786987 True True
4123.8589999999995 -1.0306490103351038 -1.1103207033923645 1.3130038420306605 -1.773471017877096 -1.5708168188678187 1.9559029340744019 True True
4123.879 -1.009775463734762 -1.1104466182044526 1.313256565724508 -1.7734986744322718 -1.5707767645465296 1.9538452625274658 True True
4123.898999999999 -0.9886215368853968 -1.1106068950942536 1.3134320417987269 -1.773562570611471 -1.5707686583148401 1.951816201210022 True True
4123.919 -0.9677136580096644 -1.1108189684203644 1.3136480490313929 -1.7736064396300257 -1.5708325544940394 1.9497390985488892 True True
4123.938999999999 -0.9468668142901819 -1.1109525722316285 1.3138240019427698 -1.7737299404540003 -1.5707648436175745 1.947633981704712 True True
4123.959 -0.925910774861471 -1.1110320550254364 1.3139918486224573 -1.7737981281676234 -1.5707929770099085 1.9455581903457642 True True
4123.978999999999 -0.904877010975973 -1.111101285820343 1.3142126242267054 -1.7738295994200648 -1.5707524458514612 1.9434666633605957 True True
4123.999 -0.8839495817767542 -1.1112944048694153 1.3143919149981897 -1.7739259205260218 -1.5707686583148401 1.9413409233093262 True True
4124.019 -0.863039795552389 -1.1114072066596528 1.3145750204669397 -1.7739492855467738 -1.570784870778219 1.9392775297164917 True True
4124.039 -0.8421209494220179 -1.111459807758667 1.314780060444967 -1.7740336857237757 -1.5707443396197718 1.9371711015701294 True True
4124.059 -0.8212030569659632 -1.1115954977324982 1.315000359212057 -1.7741085491576136 -1.5707805792437952 1.9350959062576294 True True
4124.079 -0.800173584614889 -1.1117731493762513 1.315155331288473 -1.7741724453368128 -1.5707486311541956 1.9330590963363647 True True
4124.099 -0.7792013327227991 -1.1118886333755036 1.3153751532184046 -1.774308820764059 -1.5708254019366663 1.9310107231140137 True True
4124.119 -0.7583630720721644 -1.1120253664306183 1.3155997435199183 -1.7743083439269007 -1.5708168188678187 1.9289321899414062 True True
4124.139 -0.7374213377581995 -1.1121003490737458 1.3157876173602503 -1.774400373498434 -1.5707891623126429 1.926924705505371 True True
4124.159 -0.7164328734027308 -1.112211452131607 1.315951172505514 -1.7744399509825648 -1.5707686583148401 1.9248098134994507 True True
4124.179 -0.6955106894122522 -1.1124256414226075 1.3160865942584437 -1.774499078790182 -1.570784870778219 1.9227254390716553 True True
4124.199 -0.6745503584491175 -1.1125790935805817 1.3163264433490198 -1.7745233974852503 -1.5707805792437952 1.9206171035766602 True True
4124.219 -0.6536453405963343 -1.1126970809749146 1.3165510336505335 -1.7746755085387171 -1.5708335081683558 1.9185656309127808 True True
4124.239 -0.6327255407916468 -1.1128477317145844 1.3167875448810022 -1.7747193775572718 -1.5707886854754847 1.9164515733718872 True True
4124.259 -0.6116889158831995 -1.1129674178412934 1.3169544378863733 -1.7748028240599574 -1.5707925001727503 1.9143866300582886 True True
4124.2789999999995 -0.5907257238971155 -1.1130701166442414 1.317158047352926 -1.7747703991331996 -1.5707486311541956 1.9122360944747925 True True
4124.299 -0.5698478857623499 -1.1131898027709504 1.317404572163717 -1.774910112420553 -1.5708254019366663 1.9102445840835571 True True
4124.3189999999995 -0.5488112608539026 -1.1133600336364289 1.3174813429461878 -1.7749787769713343 -1.5708211104022425 1.9080355167388916 True True
4124.339 -0.5278485457049769 -1.113437609081604 1.317758862172262 -1.775017877618307 -1.5708487669574183 1.9060128927230835 True True
4124.3589999999995 -0.5069964567767542 -1.1135498446277161 1.3179758230792444 -1.775041242639059 -1.5707767645465296 1.9039729833602905 True True
4124.379 -0.48608714738954717 -1.1137117606452485 1.3181307951556605 -1.7751580677428187 -1.5708377997027796 1.9019161462783813 True True
4124.398999999999 -0.46507293382753545 -1.1138303738883515 1.3183510939227503 -1.775217195550436 -1.5708368460284632 1.8998037576675415 True True
4124.419 -0.4442485014544886 -1.114000366335251 1.3185280005084437 -1.7752443752684535 -1.570801083241598 1.8978073596954346 True True
4124.438999999999 -0.4232071081744593 -1.114148275261261 1.3187544981585901 -1.7753406963744105 -1.5708044211017054 1.8956936597824097 True True
4124.459 -0.4021700064288538 -1.1142130357078095 1.3189180533038538 -1.7754208050169886 -1.5707767645465296 1.893691897392273 True True
4124.478999999999 -0.38136512437929326 -1.1143632394126435 1.3191145102130335 -1.7754761181273402 -1.570801083241598 1.89154851436615 True True
4124.499 -0.36033326784242803 -1.1144409638694306 1.31932241121401 -1.7754999599852503 -1.5707886854754847 1.88945734500885 True True
4124.519 -0.3394435087787073 -1.1145821672729035 1.3194850126849573 -1.7756201229491175 -1.5708211104022425 1.8873918056488037 True True
4124.539 -0.3185175100909632 -1.1147650939277192 1.319693390523092 -1.7757240734496058 -1.570801083241598 1.885261058807373 True True
4124.559 -0.29751474062074834 -1.114882544880249 1.3199103514300745 -1.7757674656310023 -1.570772949849264 1.8832215070724487 True True
4124.579 -0.2765715757953089 -1.115055964594223 1.3200457731830042 -1.775851388970846 -1.570801083241598 1.8811858892440796 True True
4124.599 -0.2557018438922327 -1.1151676338962098 1.3202937285052698 -1.7759672604002894 -1.570813004170553 1.879056692123413 True True
4124.619 -0.2347491423236292 -1.115209237938263 1.3204739729510706 -1.775931020776266 -1.5708373228656214 1.8769654035568237 True True
4124.639 -0.2137058416949671 -1.1153880816749115 1.3206527868853968 -1.7760511837401332 -1.5707362333880823 1.8748823404312134 True True
4124.659 -0.19293624559511358 -1.1155651372722168 1.3208206335650843 -1.7761227093138636 -1.5708168188678187 1.8728400468826294 True True
4124.679 -0.17187339464296514 -1.115626947288849 1.3210127989398401 -1.7761784992613734 -1.5707805792437952 1.870790958404541 True True
4124.699 -0.1508114973651331 -1.1157421928695221 1.321204964314596 -1.776222368279928 -1.5708254019366663 1.8686800003051758 True True
4124.719 -0.13007003465761358 -1.1159566205791016 1.3213923613177698 -1.776313921014303 -1.5707524458514612 1.8665891885757446 True True
4124.739 -0.10908395448793584 -1.1159853798202057 1.3215602079974573 -1.7763577900328578 -1.5707767645465296 1.8646057844161987 True True
4124.759 -0.08809310594667608 -1.1161383849433442 1.32182485262026 -1.7764011822142542 -1.5708254019366663 1.8624671697616577 True True
4124.7789999999995 -0.06723672548402959 -1.1163093012622376 1.3219974676715296 -1.776497026483053 -1.570784870778219 1.860397219657898 True True
4124.799 -0.04617911974062139 -1.116424487238266 1.3221686522113245 -1.7765528164305628 -1.5707929770099085 1.858297348022461 True True
4124.8189999999995 -0.02532512346376592 -1.1165898603251954 1.3224051634417933 -1.7766200504698695 -1.570829216633932 1.8562408685684204 True True
4124.839 -0.004372421895162404 -1.1166722637465973 1.322542969380514 -1.7767168484129847 -1.5708335081683558 1.8541473150253296 True True
4124.8589999999995 0.016569137573242188 -1.1168078047088166 1.3227599302874964 -1.7767802677550257 -1.5707648436175745 1.8520280122756958 True True
4124.879 0.03757692128419876 -1.1168947380832215 1.322967831288473 -1.7767640552916468 -1.5707891623126429 1.8499714136123657 True True
4124.898999999999 0.05835765600204468 -1.1171166759780427 1.3231237570392054 -1.7768718204894007 -1.5708211104022425 1.8479810953140259 True True
4124.919 0.07949906587600708 -1.1171617668918152 1.3233235518084925 -1.776930948297018 -1.5707967917071741 1.8458479642868042 True True
4124.938999999999 0.10038481652736664 -1.1173271995833893 1.3234990278827112 -1.7770310841002406 -1.5708449522601526 1.8437703847885132 True True
4124.959 0.12128917127847672 -1.1174364548972626 1.3238094488727015 -1.7770873508849085 -1.5707529226886194 1.8417339324951172 True True
4124.978999999999 0.1423594057559967 -1.1176314514926453 1.3239935080157679 -1.777074476281637 -1.5707686583148401 1.8395891189575195 True True
4124.999 0.16323047876358032 -1.1177125138095398 1.3241761366473597 -1.7772470913329066 -1.570801083241598 1.837467074394226 True True
4125.019 0.18411009013652802 -1.1178396207145234 1.3243144194232386 -1.7773143253722132 -1.5707686583148401 1.8355084657669067 True True
4125.039 0.2051348239183426 -1.1179858309081574 1.3244689146624964 -1.7773548565306605 -1.5708048979388636 1.8334850072860718 True True
4125.059 0.22613979876041412 -1.1180307430079957 1.3247268835650843 -1.7773782215514125 -1.5707967917071741 1.8313184976577759 True True
4125.079 0.24695149064064026 -1.1181956988624115 1.3249438444720667 -1.777433534661764 -1.570784870778219 1.8293007612228394 True True
4125.099 0.26793399453163147 -1.1183250111392518 1.3251197973834437 -1.777581354180807 -1.5707686583148401 1.8271716833114624 True True
4125.119 0.28892257809638977 -1.118446246986725 1.3252666632281702 -1.7776090107359828 -1.5707767645465296 1.8250913619995117 True True
4125.139 0.3097507953643799 -1.11859484136615 1.3255394140826624 -1.7776533565916957 -1.570801083241598 1.823045015335083 True True
4125.159 0.330783486366272 -1.1187324088862916 1.3257105986224573 -1.7777930698790492 -1.5707891623126429 1.8209269046783447 True True
4125.179 0.35174471139907837 -1.1188526314548035 1.3258770147906702 -1.777804513970846 -1.5707486311541956 1.8188098669052124 True True
4125.199 0.3725966811180115 -1.118975744848587 1.3261316458331507 -1.7779246769347132 -1.5708211104022425 1.8168320655822754 True True
4125.219 0.3935670554637909 -1.1191457969001313 1.3262651602374476 -1.7779122791686 -1.5707486311541956 1.8146382570266724 True True
4125.239 0.41457682847976685 -1.1193144482425232 1.3265154997455042 -1.7780362568297328 -1.5708449522601526 1.8125680685043335 True True
4125.259 0.43550944328308105 -1.1194382470897217 1.326686207448141 -1.778027673760885 -1.5707686583148401 1.8105915784835815 True True
4125.2789999999995 0.4564273953437805 -1.119545803671219 1.3268302122699183 -1.7781273327269496 -1.5707929770099085 1.8084988594055176 True True
4125.299 0.47744104266166687 -1.1197158855250855 1.3270271460162562 -1.7782355747618617 -1.5707529226886194 1.806401014328003 True True
4125.3189999999995 0.49829167127609253 -1.119761810903885 1.3272665182696741 -1.7782913647093714 -1.5707891623126429 1.8043036460876465 True True
4125.339 0.5191883444786072 -1.1198594731143494 1.3274920622455042 -1.7783032856383265 -1.570829216633932 1.8022712469100952 True True
4125.3589999999995 0.5402505397796631 -1.1200051468661805 1.3276508490191858 -1.7783705196776332 -1.570829216633932 1.800203800201416 True True
4125.379 0.5610930323600769 -1.1201989215663453 1.3278396765338343 -1.7784792385497035 -1.5707967917071741 1.7981011867523193 True True
4125.398999999999 0.5821004509925842 -1.1202857059291382 1.328005615864889 -1.7784906826415003 -1.5707805792437952 1.7959785461425781 True True
4125.419 0.6030057668685913 -1.1204060477069397 1.3281891981707972 -1.778602739373678 -1.5707810560809534 1.7939258813858032 True True
4125.438999999999 0.6240023970603943 -1.1205126208117981 1.3283403555499476 -1.778654237786764 -1.5707324186908167 1.791858196258545 True True
4125.459 0.644887387752533 -1.1207149189761658 1.3286264578448694 -1.7787419758238734 -1.5708048979388636 1.7897980213165283 True True
4125.478999999999 0.6658967137336731 -1.1208512049964447 1.3287690321551722 -1.7788335285582484 -1.570824925099508 1.7876917123794556 True True
4125.499 0.6866683959960938 -1.1209626954844971 1.328989330922262 -1.7788573704161585 -1.5708373228656214 1.7856390476226807 True True
4125.519 0.7078443169593811 -1.1210484367660065 1.3291977087603968 -1.778872629205221 -1.5707767645465296 1.7835748195648193 True True
4125.539 0.7286672592163086 -1.1212098163417359 1.3293970266925257 -1.7790008984007777 -1.570772949849264 1.7814953327178955 True True
4125.559 0.7496395111083984 -1.1213170450976868 1.3295772711383265 -1.7790452442564906 -1.5707767645465296 1.779403805732727 True True
4125.579 0.7705667018890381 -1.1214486521533509 1.3297436873065394 -1.7790523968138636 -1.5707691351519983 1.7773011922836304 True True
4125.599 0.7915533781051636 -1.1215975743583222 1.32996112505068 -1.7791768513121546 -1.570772949849264 1.775269865989685 True True
4125.619 0.812425434589386 -1.121726171379425 1.3301737944232386 -1.779231687585348 -1.5708125273333948 1.7731224298477173 True True
4125.639 0.8334288001060486 -1.121879444723465 1.3303807417498987 -1.7793199024596156 -1.5707691351519983 1.771109700202942 True True
4125.659 0.8543287515640259 -1.121999279861786 1.3305533568011683 -1.779391428033346 -1.5708087126361292 1.7689635753631592 True True
4125.679 0.8753421902656555 -1.1220637124827881 1.3306940237628382 -1.779431482354635 -1.57074481645693 1.7669752836227417 True True
4125.699 0.8962076306343079 -1.1222381752780457 1.3309982458697718 -1.779487749139303 -1.5707572142230433 1.7649028301239014 True True
4125.719 0.9172669053077698 -1.1223324698260804 1.331172291432516 -1.7795707188048304 -1.5707929770099085 1.7628103494644165 True True
4125.739 0.9381646513938904 -1.1224615734866639 1.3313477675067347 -1.7796951733031214 -1.5707767645465296 1.760704517364502 True True
4125.759 0.959038257598877 -1.1225847762874146 1.3315413633929651 -1.77970614055776 -1.5708487669574183 1.7585994005203247 True True
4125.7789999999995 0.9800593852996826 -1.1227253538421174 1.331719700490133 -1.7797900638976039 -1.5708525816546839 1.7565691471099854 True True
4125.799 1.0009690523147583 -1.1228742760470887 1.331890885029928 -1.7797900638976039 -1.5708006064044397 1.7544974088668823 True True
4125.8189999999995 1.0219366550445557 -1.1230058831027527 1.3321436087237757 -1.7798534832396449 -1.5707929770099085 1.7523643970489502 True True
4125.839 1.0428234338760376 -1.123048560028412 1.3323047796832483 -1.779977937737936 -1.5708087126361292 1.7503125667572021 True True
4125.8589999999995 1.0637502670288086 -1.1232536894134064 1.3325236479388636 -1.780069967309469 -1.570772949849264 1.7482993602752686 True True
4125.879 1.0847114324569702 -1.1232872170260926 1.3327348867999476 -1.7800337276854457 -1.570772949849264 1.7461963891983032 True True
4125.898999999999 1.1056915521621704 -1.1235103768161316 1.332928482686178 -1.7801653347411097 -1.570756737385885 1.7440853118896484 True True
4125.919 1.1266024112701416 -1.123657838707306 1.3330829779254358 -1.7802487812437953 -1.5707610289203089 1.7420157194137573 True True
4125.938999999999 1.1476155519485474 -1.1237849754146119 1.3333480993853968 -1.780309339562887 -1.5707886854754847 1.7399390935897827 True True
4125.959 1.1685612201690674 -1.1239021581462403 1.3334921042071741 -1.7804209194579066 -1.5708168188678187 1.7378696203231812 True True
4125.978999999999 1.189406394958496 -1.1240551334670563 1.333658520375387 -1.7804562054076136 -1.570784870778219 1.7357547283172607 True True
4125.999 1.2104424238204956 -1.1242072147182007 1.3338711897479456 -1.780487676660055 -1.5707767645465296 1.7336727380752563 True True
4126.019 1.2312761545181274 -1.1243284803679963 1.334078613911764 -1.780567308465475 -1.5707929770099085 1.7316396236419678 True True
4126.039 1.2522480487823486 -1.124451534157135 1.3343027273761194 -1.7806359730162562 -1.5708330313311976 1.7295466661453247 True True
4126.059 1.2732315063476562 -1.1246117514422913 1.3345277945147913 -1.7806431255736292 -1.57082444826235 1.7274645566940308 True True
4126.079 1.2942219972610474 -1.1246286195567627 1.3346837202655237 -1.7807632885374964 -1.5708449522601526 1.725383996963501 True True
4126.099 1.3150559663772583 -1.1247860354236145 1.3348596731769007 -1.7808267078795375 -1.570824925099508 1.7233555316925049 True True
4126.119 1.336015224456787 -1.1249389809421082 1.3350394407855433 -1.7808424435057582 -1.570784870778219 1.7212125062942505 True True
4126.139 1.3570494651794434 -1.1250710648349305 1.33521014848818 -1.7809497318663539 -1.5708563963519495 1.7191263437271118 True True
4126.159 1.3780219554901123 -1.1251877707294007 1.3354185263263147 -1.7809902630248011 -1.570772949849264 1.7171733379364014 True True
4126.179 1.3988821506500244 -1.125270203953125 1.3356388250934046 -1.7810617885985316 -1.570784870778219 1.715074062347412 True True
4126.199 1.4197996854782104 -1.1254221361926575 1.33574086824526 -1.781210561791891 -1.5708006064044397 1.7129409313201904 True True
4126.219 1.4407209157943726 -1.1255235534957428 1.3360031286822718 -1.781262060204977 -1.5707648436175745 1.710818886756897 True True
4126.239 1.4617375135421753 -1.125726507311203 1.336242977772848 -1.7812372646727503 -1.5708330313311976 1.7087606191635132 True True
4126.259 1.48268723487854 -1.1258029800704499 1.3364017645465296 -1.7813202343382777 -1.5708048979388636 1.7066847085952759 True True
4126.2789999999995 1.5035797357559204 -1.1259474915317078 1.3366602102862757 -1.78143372158193 -1.5708006064044397 1.7046600580215454 True True
4126.299 1.5245122909545898 -1.126098946934082 1.3367651144610804 -1.7814609012999476 -1.5707886854754847 1.702520489692688 True True
4126.3189999999995 1.5455400943756104 -1.1261982780746003 1.3369572798358362 -1.7815448246397914 -1.5708330313311976 1.7005082368850708 True True
4126.339 1.5664606094360352 -1.126397506599762 1.3371742407428187 -1.7816034756102503 -1.5707529226886194 1.6984587907791138 True True
4126.3589999999995 1.5873552560806274 -1.126507119541504 1.3373649756061 -1.7816440067686976 -1.5707648436175745 1.6963286399841309 True True
4126.379 1.6083619594573975 -1.1265657407096406 1.3375237623797815 -1.7817603550352992 -1.570784870778219 1.6942559480667114 True True
4126.398999999999 1.6292701959609985 -1.12677754581485 1.3377531210528772 -1.7818080387511195 -1.5708091894732874 1.6921130418777466 True True
4126.419 1.6502031087875366 -1.126850740318634 1.3379901091205042 -1.7818910084166468 -1.5708330313311976 1.6901118755340576 True True
4126.438999999999 1.6712055206298828 -1.126954124574997 1.3381159941302698 -1.781938215295309 -1.5708330313311976 1.6879820823669434 True True
4126.459 1.6921072006225586 -1.1271729332259675 1.3383243719684046 -1.7820431194701136 -1.5708087126361292 1.6859278678894043 True True
4126.478999999999 1.7130398750305176 -1.1272509855083008 1.338546101246969 -1.7820307217040003 -1.57074481645693 1.6838669776916504 True True
4126.499 1.733951210975647 -1.1273507934859772 1.3387649695025843 -1.7821217976012171 -1.5707767645465296 1.6818116903305054 True True
4126.519 1.7549687623977661 -1.1275493067554017 1.338940445576803 -1.7822071514525355 -1.5708048979388636 1.6797508001327515 True True
4126.539 1.7757704257965088 -1.1276521545699616 1.339135471974508 -1.7822939358153285 -1.570824925099508 1.677626609802246 True True
4126.559 1.7969110012054443 -1.1277807515910645 1.3393405119525355 -1.7823697529234828 -1.5708449522601526 1.6755510568618774 True True
4126.579 1.8177412748336792 -1.1278637212565918 1.3395732084857386 -1.7823454342284144 -1.570784870778219 1.673511028289795 True True
4126.599 1.8386551141738892 -1.1279869240573426 1.3397563139544886 -1.7824212513365687 -1.5707529226886194 1.6714322566986084 True True
4126.619 1.8597044944763184 -1.128082738523819 1.3399303595172327 -1.782504221002096 -1.5707805792437952 1.669386386871338 True True
4126.639 1.880600929260254 -1.1282548767379303 1.3401067892657679 -1.7826248608031214 -1.570813004170553 1.6672307252883911 True True
4126.659 1.9015858173370361 -1.1284324091723938 1.3403599897967737 -1.7826606235899867 -1.5707929770099085 1.6651623249053955 True True
4126.679 1.9224739074707031 -1.128502683048584 1.3405492941485804 -1.7827168903746546 -1.5708449522601526 1.663051962852478 True True
4126.699 1.943473219871521 -1.1287211638740082 1.340712849293844 -1.7828122578062953 -1.5708335081683558 1.661008596420288 True True
4126.719 1.9644114971160889 -1.1288375419429322 1.3409088293658655 -1.782851358453268 -1.5707772413836878 1.658902883529663 True True
4126.739 1.9853326082229614 -1.1289570492557068 1.3411057631122034 -1.7829352817931117 -1.5708449522601526 1.6568522453308105 True True
4126.759 2.0062172412872314 -1.1290266078761597 1.3413122336017054 -1.7830082378783167 -1.5707686583148401 1.6547642946243286 True True
4126.7789999999995 2.0272328853607178 -1.1291931432536622 1.3414514700519007 -1.7830640278258265 -1.5707891623126429 1.6526703834533691 True True
4126.799 2.0481908321380615 -1.1292715233615418 1.3416274229632776 -1.783135553399557 -1.570784870778219 1.6506555080413818 True True
4126.8189999999995 2.0690677165985107 -1.129452870493271 1.3417790571795862 -1.7831789455809535 -1.570801083241598 1.6485912799835205 True True
4126.839 2.0900590419769287 -1.1296041768840333 1.342048470173971 -1.7832304439940394 -1.5707805792437952 1.646530032157898 True True
4126.8589999999995 2.1110031604766846 -1.1297705334476014 1.3422392050372522 -1.783358713189596 -1.570784870778219 1.644445776939392 True True
4126.879 2.1319420337677 -1.1298475426486512 1.3424485365497034 -1.783398767510885 -1.5707529226886194 1.6423377990722656 True True
4126.898999999999 2.152867555618286 -1.1299959880164643 1.3426321188556116 -1.7834464512267054 -1.5708048979388636 1.6402957439422607 True True
4126.919 2.1737658977508545 -1.13016231477771 1.3428567091571253 -1.7835384807982386 -1.570813004170553 1.6381937265396118 True True
4126.938999999999 2.1947975158691406 -1.1302283269217988 1.3430469671832483 -1.7835899792113246 -1.570772949849264 1.6361581087112427 True True
4126.959 2.2156732082366943 -1.1303811532310029 1.3432677427874964 -1.7836410007872523 -1.5708006064044397 1.6340454816818237 True True
4126.978999999999 2.2366676330566406 -1.1304538410953064 1.3434565703021448 -1.7837091885008753 -1.5707925001727503 1.6320383548736572 True True
4126.999 2.2576279640197754 -1.1306631726077576 1.3436229864703577 -1.783781190911764 -1.570853058491842 1.629847764968872 True True
4127.019 2.278553009033203 -1.1307165187648316 1.3438103834735315 -1.7839042148985804 -1.5707486311541956 1.627821445465088 True True
4127.039 2.2994885444641113 -1.130852536564209 1.3439901510821741 -1.7839366398253382 -1.5707805792437952 1.6257282495498657 True True
4127.059 2.3204641342163086 -1.131001428966858 1.3441656271563929 -1.7840210400023402 -1.5707967917071741 1.623602271080017 True True
4127.079 2.3413753509521484 -1.1311418575099488 1.3444235960589808 -1.784095903436178 -1.5707805792437952 1.6216118335723877 True True
4127.099 2.3623502254486084 -1.1311991077712555 1.3446109930621546 -1.7840753994383753 -1.5707805792437952 1.6195000410079956 True True
4127.119 2.38322114944458 -1.1313438278487702 1.3448761145221155 -1.784187456170553 -1.5707324186908167 1.6174142360687256 True True
4127.139 2.4041826725006104 -1.131491557960846 1.344966236745016 -1.7842723331847132 -1.5708168188678187 1.6154208183288574 True True
4127.159 2.425164222717285 -1.1316198271564026 1.3451984564410608 -1.7843471966185511 -1.5708006064044397 1.6132299900054932 True True
4127.179 2.446096658706665 -1.131752834921219 1.3453787008868616 -1.7844311199583949 -1.5707648436175745 1.6111751794815063 True True
4127.199 2.466958522796631 -1.1318809551051636 1.3455241362201136 -1.784471174279684 -1.570801083241598 1.6090964078903198 True True
4127.219 2.4880809783935547 -1.1320213836482544 1.3457954565631312 -1.7845622501769007 -1.5708044211017054 1.607053279876709 True True
4127.239 2.508887767791748 -1.1321252149394532 1.3459737936602991 -1.7846065960326136 -1.570824925099508 1.6049734354019165 True True
4127.259 2.5298709869384766 -1.1322930616191407 1.346133057271139 -1.7846256695189417 -1.5707891623126429 1.6028770208358765 True True
4127.2789999999995 2.5508224964141846 -1.1324419540217896 1.3463729063617151 -1.784717699090475 -1.570829216633932 1.600767970085144 True True
4127.299 2.571739912033081 -1.1325289768031617 1.3466184774981897 -1.7847901783385218 -1.5708048979388636 1.5987282991409302 True True
4127.3189999999995 2.5927071571350098 -1.1326279503158112 1.3467329184161585 -1.7848736248412074 -1.570784870778219 1.596603512763977 True True
4127.339 2.613654136657715 -1.1328169864467164 1.346957031880514 -1.7849208317198695 -1.5708006064044397 1.594578504562378 True True
4127.3589999999995 2.634657859802246 -1.1329601270011445 1.347144905720846 -1.7850052318968714 -1.570784870778219 1.5924967527389526 True True
4127.379 2.6555395126342773 -1.1330838960460206 1.3473618666278284 -1.7850610218443812 -1.5707805792437952 1.590423822402954 True True
4127.398999999999 2.6764838695526123 -1.1331946116736908 1.3475163618670862 -1.7851211033263148 -1.5708368460284632 1.5883219242095947 True True
4127.419 2.6974148750305176 -1.1332984131625672 1.3477461973773401 -1.785168787042135 -1.5708335081683558 1.5862493515014648 True True
4127.438999999999 2.7183480262756348 -1.133461908703186 1.3479498068438929 -1.7852565250792445 -1.570801083241598 1.5841706991195679 True True
4127.459 2.739156723022461 -1.133562759762146 1.348137680684225 -1.7852560482420863 -1.5707443396197718 1.5821815729141235 True True
4127.478999999999 2.7593600749969482 -1.1336509150317688 1.3483007589923304 -1.7853275738158167 -1.5708048979388636 1.5801116228103638 True True
4127.499 2.778980016708374 -1.133863942032196 1.3484686056720179 -1.78541960338735 -1.570772949849264 1.5782569646835327 True True
4127.519 2.79825496673584 -1.1339214009097596 1.3486412207232874 -1.785431524316305 -1.5708168188678187 1.5763261318206787 True True
4127.539 2.8167054653167725 -1.134032205944397 1.3487923781024378 -1.7855478725829066 -1.570824925099508 1.5744192600250244 True True
4127.559 2.8346312046051025 -1.1340640944293519 1.3489068190204065 -1.7855950794615687 -1.5707724730121058 1.5727192163467407 True True
4127.579 2.852154016494751 -1.1342456501773377 1.349079434071676 -1.7856751881041468 -1.5707772413836878 1.5709456205368042 True True
4127.599 2.8690478801727295 -1.1343621176532288 1.3492382208453577 -1.7857028446593226 -1.5707529226886194 1.5692116022109985 True True
4127.619 2.885239362716675 -1.1344996851733704 1.3494694868670862 -1.7857266865172328 -1.5708044211017054 1.5675874948501587 True True
4127.639 2.9010541439056396 -1.1345749360373993 1.349567715321676 -1.7857819996275843 -1.5708211104022425 1.5660521984100342 True True
4127.659 2.9162514209747314 -1.13461326182399 1.3497818152057093 -1.7858220539488734 -1.5707886854754847 1.5645477771759033 True True
4127.679 2.930945873260498 -1.134750710134842 1.3498318831073206 -1.785837789575094 -1.5708335081683558 1.5630781650543213 True True
4127.699 2.9448678493499756 -1.1348260206035157 1.3499839941607874 -1.7859584293761195 -1.5707967917071741 1.5617423057556152 True True
4127.719 2.958469867706299 -1.1348682802966614 1.3500617186175745 -1.7859937153258265 -1.5708406607257288 1.5603758096694946 True True
4127.739 2.971573829650879 -1.13502590477977 1.3502791563617151 -1.7860499821104945 -1.5707724730121058 1.559129238128662 True True
4127.759 2.983927011489868 -1.1350404483130951 1.3502896467791956 -1.7860375843443812 -1.5708335081683558 1.5578179359436035 True True
4127.7789999999995 2.9957120418548584 -1.135124997501709 1.350443188344137 -1.7861372433104457 -1.5707648436175745 1.5567238330841064 True True
4127.799 3.007051944732666 -1.1351965230754395 1.3505705038653772 -1.7861296139159144 -1.5707405249225062 1.5555144548416138 True True
4127.8189999999995 3.017742872238159 -1.135296718483307 1.3506305853473108 -1.7862211666502894 -1.570836369191305 1.554498314857483 True True
4127.839 3.0279884338378906 -1.1353275042823334 1.3507550398456019 -1.7861811123290003 -1.5708254019366663 1.5534719228744507 True True
4127.8589999999995 3.0375452041625977 -1.1354201299003144 1.3508504072772425 -1.7861892185606898 -1.5707891623126429 1.5525673627853394 True True
4127.879 3.046593427658081 -1.135408268576004 1.3509181181537073 -1.7862731419005335 -1.5708773771869105 1.551615834236145 True True
4127.898999999999 3.055086612701416 -1.1355197888663788 1.3510716597186487 -1.7862721882262171 -1.5707529226886194 1.5508208274841309 True True
4127.919 3.063070297241211 -1.1355424386313935 1.3511346022235315 -1.7863084278502406 -1.5707324186908167 1.550020456314087 True True
4127.938999999999 3.0703516006469727 -1.1356375080398102 1.3511579672442835 -1.7863613567748011 -1.5707805792437952 1.549265742301941 True True
4127.959 3.077308416366577 -1.135635183458664 1.3512175718890589 -1.7863408527769984 -1.5708406607257288 1.5486416816711426 True True
4127.978999999999 3.0836143493652344 -1.1356671017459412 1.351302448903219 -1.786372800866598 -1.5707805792437952 1.5479650497436523 True True
4127.999 3.0892372131347656 -1.1357396704009552 1.3513873259173792 -1.7863923511900843 -1.5708335081683558 1.5474306344985962 True True
4128.019 3.0943150520324707 -1.1357461971095582 1.3513811270343226 -1.7863842449583949 -1.5708087126361292 1.5469502210617065 True True
4128.039 3.0989348888397217 -1.135754869585373 1.3514378706561487 -1.786408086816305 -1.5707767645465296 1.546444296836853 True True
4128.059 3.103018045425415 -1.135859952574112 1.3514941374408167 -1.786408086816305 -1.5708087126361292 1.546059489250183 True True
4128.079 3.1064791679382324 -1.1358263951591034 1.3515260855304163 -1.7864562473692835 -1.5708006064044397 1.545739769935608 True True
4128.099 3.1093695163726807 -1.1358469885638733 1.3515332380877894 -1.7864119015135707 -1.5708168188678187 1.5454819202423096 True True
4128.119 3.111739158630371 -1.135813222532608 1.3515327612506312 -1.7864638767638148 -1.5707648436175745 1.5452009439468384 True True
4128.139 3.113554000854492 -1.1358831983855744 1.3515046278582972 -1.7864843807616175 -1.570784870778219 1.5450568199157715 True True
4128.159 3.1147899627685547 -1.135911301975586 1.3515694777118128 -1.786480566064352 -1.5707724730121058 1.5449823141098022 True True
4128.179 3.1154558658599854 -1.1358421009830018 1.3516257444964808 -1.786480566064352 -1.570784870778219 1.5449341535568237 True True
4128.199 3.1155097484588623 -1.135858343248703 1.3516138235675257 -1.7864724598326625 -1.5707967917071741 1.5448970794677734 True True
4128.219 3.1154587268829346 -1.1358307164958497 1.3520539442645472 -1.7872101269164027 -1.5708492437945765 1.5449148416519165 True True
4128.239 3.1155502796173096 -1.1356189411929627 1.3527172247516077 -1.787971635858053 -1.5707925001727503 1.5448416471481323 True True
4128.259 3.115499258041382 -1.1353080433658143 1.3537467161761683 -1.7895075283446253 -1.570853058491842 1.5448278188705444 True True
4128.2789999999995 3.1155037879943848 -1.1346602600863953 1.355189625416891 -1.7916165790953578 -1.5708087126361292 1.544823408126831 True True
4128.299 3.115572929382324 -1.1337716740420838 1.3570683638202112 -1.7943436108031214 -1.5707925001727503 1.5447981357574463 True True
4128.3189999999995 3.1154978275299072 -1.1327155989459534 1.3592761198626917 -1.7974139652647914 -1.5708087126361292 1.5447276830673218 True True
4128.339 3.1155474185943604 -1.1315355163863678 1.3618362585650843 -1.8013888798155726 -1.5708449522601526 1.5448189973831177 True True
4128.3589999999995 3.1155502796173096 -1.1301344198039551 1.3648369948016565 -1.805563589135641 -1.5708211104022425 1.5447651147842407 True True
4128.379 3.1155998706817627 -1.128436641102173 1.3683045546161097 -1.8105751476683558 -1.5708044211017054 1.5447893142700195 True True
4128.398999999999 3.1155788898468018 -1.1267492932132264 1.3721464315997522 -1.8159972629942835 -1.5708406607257288 1.5447981357574463 True True
4128.419 3.115607261657715 -1.1249439281276246 1.3762238661395472 -1.822052618066305 -1.5707925001727503 1.5448100566864014 True True
4128.438999999999 3.115598201751709 -1.1228202742389222 1.3807576338397425 -1.8287159405150355 -1.5708254019366663 1.5447849035263062 True True
4128.459 3.115598201751709 -1.1206167203238984 1.3858864943133753 -1.83571257213735 -1.570801083241598 1.5448189973831177 True True
4128.478999999999 3.115607261657715 -1.1181894701770325 1.3911173979388636 -1.8434936008849085 -1.570853058491842 1.5447893142700195 True True
4128.499 3.115581750869751 -1.1157266956618805 1.3966220060931605 -1.8517395458617152 -1.5707805792437952 1.544774055480957 True True
4128.519 3.11564040184021 -1.1130612057498475 1.4026740233050745 -1.8604699573912562 -1.5708611647235315 1.5448158979415894 True True
4128.539 3.1156117916107178 -1.1100153785995026 1.4091947714435022 -1.8698774776854457 -1.570796314870016 1.5447651147842407 True True
4128.559 3.115581750869751 -1.1070360404304047 1.4163196722613733 -1.8797852001585902 -1.5707925001727503 1.5447968244552612 True True
4128.579 3.115598201751709 -1.1037650567344208 1.4234383741961878 -1.890331884423727 -1.5707886854754847 1.544785976409912 True True
4128.599 3.115574359893799 -1.1005177956870575 1.430652920399801 -1.9010850391783656 -1.5708211104022425 1.544793725013733 True True
4128.619 3.115574359893799 -1.0973648589900513 1.4376633802997034 -1.9110900364317835 -1.5707772413836878 1.5448263883590698 True True
4128.639 3.1155998706817627 -1.0942622882178803 1.4444049040423792 -1.920706411401266 -1.5708211104022425 1.5448012351989746 True True
4128.659 3.11564040184021 -1.091453568344452 1.4506977240191858 -1.9296790562071742 -1.5708168188678187 1.5448516607284546 True True
4128.679 3.115590810775757 -1.0888497692397614 1.4563191572772425 -1.9382602177061976 -1.5707648436175745 1.5447849035263062 True True
4128.699 3.115574359893799 -1.086468057041504 1.461722199116842 -1.9462996921935023 -1.570784870778219 1.5447893142700195 True True
4128.719 3.115647792816162 -1.084239349966385 1.4668949286090296 -1.953524728814596 -1.570756737385885 1.5447981357574463 True True
4128.739 3.115574359893799 -1.0821651977351685 1.471618954335348 -1.9604317150511683 -1.5707486311541956 1.5447189807891846 True True
4128.759 3.115581750869751 -1.0801844161799927 1.4759696165667933 -1.9666077099242152 -1.570784870778219 1.5448144674301147 True True
4128.7789999999995 3.115549087524414 -1.0783954721740265 1.4799678961383265 -1.9722935161986292 -1.5707648436175745 1.5448263883590698 True True
4128.799 3.11555814743042 -1.0768560332110901 1.4834068457232874 -1.9773174724974574 -1.5707724730121058 1.5447696447372437 True True
4128.8189999999995 3.1155669689178467 -1.0754634600928803 1.4865153471576136 -1.9820791683592738 -1.5708168188678187 1.5448144674301147 True True
4128.839 3.1156117916107178 -1.0742882055095215 1.4893034140216272 -1.9859987697997035 -1.5708168188678187 1.5448189973831177 True True
4128.8589999999995 3.11558198928833 -1.073146567945816 1.4917200247394007 -1.9895078144469203 -1.5707405249225062 1.544866919517517 True True
4128.879 3.1155714988708496 -1.0721369844726105 1.4937332312213343 -1.9922787151732386 -1.5708406607257288 1.5447903871536255 True True
4128.898999999999 3.115557909011841 -1.0713877540877839 1.495314900075094 -1.994718690911764 -1.5708168188678187 1.5447760820388794 True True
4128.919 3.115565538406372 -1.0709570509246369 1.496415917073385 -1.9964806042113246 -1.5707648436175745 1.544817566871643 True True
4128.938999999999 3.1155788898468018 -1.0705831807902833 1.4972770849811 -1.9976288280882777 -1.570801083241598 1.5448637008666992 True True
4128.959 3.115574359893799 -1.07036645830188 1.4977877775775355 -1.9982949695982875 -1.5707648436175745 1.5448026657104492 True True
4128.978999999999 3.1156537532806396 -1.0704158705523987 1.4978283087359827 -1.9984542332091273 -1.5707843939410608 1.5447981357574463 True True
4128.999 3.115590810775757 -1.07036645830188 1.4978025595294397 -1.9984938106932582 -1.5708168188678187 1.5448681116104126 True True
4129.019 3.11558198928833 -1.070354775791504 1.4978240172015589 -1.9984780750670375 -1.5707648436175745 1.5448592901229858 True True
4129.039 3.1156537532806396 -1.0703797501376648 1.4979003111468714 -1.9984141788878382 -1.5708254019366663 1.5447850227355957 True True
4129.059 3.1155953407287598 -1.0703304570964356 1.497899357472555 -1.998441835443014 -1.5708211104022425 1.5448471307754517 True True
4129.079 3.115644693374634 -1.0703721803477784 1.4980018774615687 -1.9984046421446742 -1.5707805792437952 1.5448592901229858 True True
4129.099 3.115574598312378 -1.0703797501376648 1.4979708830462855 -1.9984098873534144 -1.5707686583148401 1.5447595119476318 True False
4129.119 3.115574598312378 -1.0703709882548829 1.4979217688189905 -1.9984618626036585 -1.570784870778219 1.544793725013733 True False
4129.139 3.115643262863159 -1.0702904027751465 1.4979589621173304 -1.9984704456725062 -1.5708168188678187 1.5448188781738281 True False
4129.159 3.1156041622161865 -1.07026161373172 1.497988526021139 -1.998486181298727 -1.570784870778219 1.5448263883590698 True False
4129.179 3.1155519485473633 -1.070315198307373 1.4979470411883753 -1.9984661541380824 -1.570801083241598 1.5448352098464966 True False
4129.199 3.11558198928833 -1.0703347486308594 1.4979541937457483 -1.998441835443014 -1.57074481645693 1.5448338985443115 True False
4129.219 3.1156160831451416 -1.0703022640994568 1.4979842344867151 -1.9984218082823695 -1.5707886854754847 1.5448025465011597 True False
4129.239 3.1156537532806396 -1.070315198307373 1.4979661146747034 -1.9984380207457484 -1.5708211104022425 1.5447815656661987 True False
4129.259 3.1155834197998047 -1.070286588077881 1.4980085531817835 -1.9984141788878382 -1.570772949849264 1.544789433479309 True False
4129.2789999999995 3.1155998706817627 -1.070302204494812 1.4979961554156702 -1.998498102227682 -1.57074481645693 1.544851541519165 True False
4129.299 3.1156086921691895 -1.0703120988658448 1.4979913870440882 -1.998469968835348 -1.5707724730121058 1.5448558330535889 True False
4129.3189999999995 3.1156041622161865 -1.0702821177295228 1.4979351202594202 -1.998446603814596 -1.5707767645465296 1.5448100566864014 True False
4129.339 3.1155998706817627 -1.0704203409007569 1.4975937048541468 -1.9978910885252894 -1.5707929770099085 1.5448219776153564 True False
4129.3589999999995 3.115640163421631 -1.0705982011607666 1.4969390074359339 -1.9967218838133753 -1.5707686583148401 1.5447850227355957 True False
4129.379 3.1155953407287598 -1.0710891646197815 1.4958208242999476 -1.995033403436178 -1.570857350026266 1.5448143482208252 True False
4129.398999999999 3.1155834197998047 -1.0717781347087403 1.4942792097674769 -1.9928413830199183 -1.570813004170553 1.5448219776153564 True False
4129.419 3.115549325942993 -1.0727656942657013 1.4923628012286585 -1.9898697338499964 -1.5707967917071741 1.544834017753601 True False
4129.438999999999 3.115607261657715 -1.0738018316081543 1.4899213949786585 -1.9865995846190394 -1.5707805792437952 1.544838309288025 True False
4129.459 3.1156160831451416 -1.0751027327826996 1.4870637098895472 -1.98272766689443 -1.570784870778219 1.5448263883590698 True False
4129.478999999999 3.115640163421631 -1.076553837662079 1.483959976826803 -1.978260179559225 -1.5707605520831507 1.5447981357574463 True False
4129.499 3.1155953407287598 -1.0780359369567414 1.4804957548724573 -1.9731432400145472 -1.5708335081683558 1.5448100566864014 True False
4129.519 3.1155953407287598 -1.0797771376422425 1.4766748587237757 -1.967452188531393 -1.5707925001727503 1.5447534322738647 True False
4129.539 3.1156117916107178 -1.081660972242691 1.472241226826803 -1.9613915882506312 -1.5708449522601526 1.5448013544082642 True False
4129.559 3.1155788898468018 -1.0838514131358643 1.4675911108600062 -1.9546839199461878 -1.5708254019366663 1.5448100566864014 True False
4129.579 3.115598440170288 -1.0860636693290253 1.4627483526812952 -1.9474650822081507 -1.5707648436175745 1.5447815656661987 True False
4129.599 3.115532875061035 -1.0883878332427521 1.4574201742755335 -1.9395696125426234 -1.5708048979388636 1.5447564125061035 True False
4129.619 3.115567207336426 -1.0910873276046296 1.4516437689410608 -1.931169172326559 -1.570784870778219 1.544793725013733 True False
4129.639 3.115574598312378 -1.0939192336848755 1.445303742085592 -1.922227521935934 -1.5708254019366663 1.5447684526443481 True False
4129.659 3.1155996322631836 -1.0968571168235322 1.4385493437396448 -1.9128428898253382 -1.570801083241598 1.5448635816574097 True False
4129.679 3.1155996322631836 -1.1000261765769501 1.4317029158221644 -1.9026652775206507 -1.570801083241598 1.5448013544082642 True False
4129.699 3.115591049194336 -1.1032841068557282 1.4244673887835901 -1.8919698200621546 -1.5707648436175745 1.544789433479309 True False
4129.719 3.115598440170288 -1.1064833861640473 1.4171908537494105 -1.8815094433226527 -1.570784870778219 1.5447684526443481 True False
4129.739 3.115567207336426 -1.109638289814331 1.4101408163653772 -1.8714944324889125 -1.570784870778219 1.5448338985443115 True False
4129.759 3.115574598312378 -1.1125301581672211 1.403726879750387 -1.8619543514647425 -1.5707886854754847 1.5448426008224487 True False
4129.7789999999995 3.115643262863159 -1.1152541798404236 1.3977192083941858 -1.8531223736205042 -1.5708168188678187 1.544835090637207 True False
4129.799 3.1155776977539062 -1.1178104144385834 1.3919599691974085 -1.844860693017477 -1.5708254019366663 1.5448262691497803 True False
4129.8189999999995 3.1156160831451416 -1.1203245681575318 1.386552635823385 -1.8369652233519496 -1.5707967917071741 1.5447771549224854 True False
4129.839 3.1156160831451416 -1.1225949090770264 1.38147479692568 -1.8297697506346644 -1.5707891623126429 1.5448381900787354 True False
4129.8589999999995 3.1156041622161865 -1.1246017676642914 1.3767951170550745 -1.8231312237181605 -1.5708368460284632 1.5447521209716797 True False
4129.879 3.115591049194336 -1.1264856618693848 1.3726232687579554 -1.8169971905150355 -1.5707886854754847 1.5448275804519653 True False
4129.898999999999 3.115631341934204 -1.1282065969756623 1.368850056325094 -1.8114921055235804 -1.5707925001727503 1.5447851419448853 True False
4129.919 3.1156115531921387 -1.1296860736659546 1.3654382864581507 -1.8063837490477503 -1.5708048979388636 1.5448426008224487 True False
4129.938999999999 3.115565776824951 -1.1310837727836152 1.3623417059527796 -1.8019310436644496 -1.5708044211017054 1.544789433479309 True False
4129.959 3.115640163421631 -1.1322897535613556 1.3597119490252894 -1.798044343987936 -1.570756737385885 1.5447324514389038 True False
4129.978999999999 3.115631341934204 -1.1332615178874512 1.3574073950396937 -1.794711252252096 -1.5708254019366663 1.5448100566864014 True False
4129.999 3.115598440170288 -1.1341438454440613 1.355532471333639 -1.7920924625792445 -1.5707925001727503 1.5448460578918457 True False
4130.019 3.1155495643615723 -1.134846494798996 1.354034725819723 -1.7896682224669398 -1.5707724730121058 1.5448025465011597 True False
4130.039 3.115598440170288 -1.1353729230216523 1.3528693358050745 -1.788234373132223 -1.5708168188678187 1.544851303100586 True False
4130.059 3.1155953407287598 -1.1357319814017792 1.3520968596087855 -1.787093301812643 -1.5708087126361292 1.544761061668396 True False
4130.079 3.115647554397583 -1.1357886654189606 1.3516295591937464 -1.7866112194456996 -1.5707967917071741 1.5447685718536377 True False
4130.099 3.115558385848999 -1.1358679693988343 1.3516562620746058 -1.7865916691222132 -1.5708091894732874 1.5448100566864014 False False
4130.119 3.1156115531921387 -1.1358468991569062 1.351684872304098 -1.7865835628905238 -1.570801083241598 1.5447522401809692 False False
4130.139 3.1156203746795654 -1.1358422201922913 1.3516829649554651 -1.786631246606344 -1.5707767645465296 1.5448262691497803 False False
4130.159 3.1156115531921387 -1.1358307164958497 1.351684872304098 -1.7865754566588343 -1.5708044211017054 1.5447324514389038 False False
4130.179 3.115640163421631 -1.135846958761551 1.3516653219806116 -1.7866279087462367 -1.5707967917071741 1.5448057651519775 False False
4130.219 3.115631341934204 -1.1358842116645356 1.3516700903521937 -1.7865282497801722 -1.5708211104022425 1.5448262691497803 False False
4130.239 3.115640163421631 -1.1359003645232697 1.3516667524920862 -1.78649963955068 -1.5707805792437952 1.5447578430175781 False False
4130.259 3.1156773567199707 -1.1357649129680176 1.3516371885882776 -1.7865282497801722 -1.5707925001727503 1.5447685718536377 False False
4130.2789999999995 3.115640163421631 -1.1358426374248047 1.3516071478473108 -1.7864600620665492 -1.5708168188678187 1.544792652130127 False False
4130.299 3.115631341934204 -1.1358874303153534 1.3516786734210413 -1.7864600620665492 -1.570756737385885 1.5448393821716309 False False
4130.3189999999995 3.1156158447265625 -1.1358468991569062 1.3516696135150355 -1.7865001163878382 -1.570784870778219 1.5448468923568726 False False
4130.339 3.1155498027801514 -1.1358584326556702 1.3516624609576624 -1.7865039310851039 -1.5707805792437952 1.5447981357574463 False False
4130.3589999999995 3.1156606674194336 -1.1359274548343201 1.3516576925860804 -1.7864920101561488 -1.570784870778219 1.5447696447372437 False False
4130.379 3.115657329559326 -1.1358507734588166 1.3516095320331019 -1.7864958248534144 -1.5708211104022425 1.544772982597351 False False
4130.398999999999 3.115607261657715 -1.1359188717654725 1.3516038099872034 -1.7865001163878382 -1.570784870778219 1.544785976409912 False False
4130.419 3.1156203746795654 -1.1358779829791565 1.3516667524920862 -1.7864848575987757 -1.5707529226886194 1.5448187589645386 False False
4130.438999999999 3.115558624267578 -1.135902689104416 1.351617161427633 -1.786480566064352 -1.5707810560809534 1.5447851419448853 False False
4130.459 3.1156444549560547 -1.1358618003181 1.3516457716571253 -1.786480566064352 -1.5707891623126429 1.544772982597351 False False
4130.478999999999 3.1156039237976074 -1.1359189015677948 1.3516338507281702 -1.7864638767638148 -1.570784870778219 1.5447697639465332 False False
4130.499 3.1156115531921387 -1.1358499389937897 1.3515890280352991 -1.7864600620665492 -1.5708125273333948 1.5448393821716309 True False
4130.519 3.1155617237091064 -1.135922299032547 1.351556126271383 -1.7864600620665492 -1.570824925099508 1.5448187589645386 True False
4130.539 3.1156399250030518 -1.1358703535846253 1.351659123097555 -1.7865082226195277 -1.5708006064044397 1.5447981357574463 True False
4130.559 3.1156444549560547 -1.13593082249675 1.3516081015216272 -1.786448141137594 -1.5708006064044397 1.544749140739441 True False
4130.579 3.1156158447265625 -1.1358907979777833 1.3516338507281702 -1.7865082226195277 -1.570772949849264 1.544854760169983 True False
4130.599 3.1156115531921387 -1.1359189015677948 1.3516095320331019 -1.7864519558348597 -1.5708048979388636 1.544846773147583 True False
4130.619 3.1156530380249023 -1.1359274250319977 1.3516386190997522 -1.7864562473692835 -1.5708444754229944 1.5447815656661987 True False
4130.639 3.115631341934204 -1.1359316569617768 1.3516624609576624 -1.7864881954588832 -1.5708006064044397 1.5447938442230225 True False
4130.659 3.115673780441284 -1.1358337563327332 1.351617161427633 -1.7864724598326625 -1.570784870778219 1.5447609424591064 True False
4130.679 3.1156115531921387 -1.1358457070640107 1.351605240498678 -1.7864638767638148 -1.5708125273333948 1.5447815656661987 True False
4130.699 3.115640163421631 -1.1359511476806183 1.3516204992877405 -1.786480566064352 -1.570836369191305 1.5447981357574463 True False
4130.719 3.1156115531921387 -1.1358746451190491 1.351593319569723 -1.7864848575987757 -1.5708406607257288 1.5448057651519775 True False
4130.739 3.1155943870544434 -1.1358627837947388 1.351621452962057 -1.7865039310851039 -1.5707767645465296 1.5448100566864014 True False
4130.759 3.1155550479888916 -1.135878102188446 1.3516667524920862 -1.7864767513670863 -1.5707810560809534 1.5447815656661987 True False
4130.7789999999995 3.115643262863159 -1.135917918091156 1.3516128698932093 -1.7864319286742152 -1.5708487669574183 1.5448187589645386 True False
4130.799 3.1155834197998047 -1.135923133497574 1.3516595999347132 -1.786464353600973 -1.570784870778219 1.5448100566864014 True False
4130.8189999999995 3.1156158447265625 -1.135914610033371 1.351621452962057 -1.7864638767638148 -1.570784870778219 1.544777274131775 True False
4130.839 3.1155333518981934 -1.135894165640213 1.351642910634176 -1.7864886722960414 -1.5707886854754847 1.5447317361831665 True False
4130.8589999999995 3.1155834197998047 -1.1358865362456818 1.3516386190997522 -1.7864600620665492 -1.5708006064044397 1.5448187589645386 True False
4130.879 3.115640163421631 -1.135825203066208 1.351617161427633 -1.7865201435484828 -1.5708168188678187 1.5448025465011597 True False
4130.898999999999 3.115579128265381 -1.1359512370875855 1.351593319569723 -1.7864557705321253 -1.570784870778219 1.5447815656661987 True False
4130.919 3.1156444549560547 -1.1358789068511506 1.3515756765948694 -1.786487718621725 -1.5707686583148401 1.544772982597351 True False
4130.938999999999 3.1156442165374756 -1.1359307926944275 1.3515961805926722 -1.786487718621725 -1.570784870778219 1.5447665452957153 True False
4130.959 3.1155660152435303 -1.1358661514571686 1.3516128698932093 -1.7864958248534144 -1.5708125273333948 1.5447945594787598 True False
4130.978999999999 3.115579128265381 -1.1358703833869477 1.3515875975238245 -1.7864600620665492 -1.5708168188678187 1.5448187589645386 True False
4130.999 3.115558385848999 -1.1358984571746369 1.351605240498678 -1.7864767513670863 -1.570784870778219 1.5448057651519775 True False
4131.019 3.1156771183013916 -1.1359027189067383 1.3516386190997522 -1.7864438496031703 -1.5707767645465296 1.5448294878005981 True False
4131.039 3.1155455112457275 -1.135923133497574 1.351584259663717 -1.7864562473692835 -1.5708087126361292 1.5447970628738403 True False
