Andreas691667/Digital_Twin_UR/src/robot_connection_manager/robot_output/busterTest2_robot_output.csv
timestamp actual_q_0 actual_q_1 actual_q_2 actual_q_3 actual_q_4 actual_q_5 actual_qd_0 actual_qd_1 actual_qd_2 actual_qd_3 actual_qd_4 actual_qd_5 safety_status output_bit_register_65 output_bit_register_66
6691.594 3.7120537757873535 -0.8255403202823182 0.8429678122149866 -1.5883094273009242 -1.5707691351519983 2.1413002014160156 0.0 0.0 0.0 -0.0 0.0 -0.0 1 False False
6691.643999999999 3.7120611667633057 -0.8254954975894471 0.8429802099810999 -1.5882650814452113 -1.5707767645465296 2.14125919342041 0.0 0.0 0.0 -0.0 0.0 -0.0 1 False False
6691.6939999999995 3.7120862007141113 -0.8254783314517518 0.8429454008685511 -1.5882207355894984 -1.570829216633932 2.141279697418213 0.0 0.0 0.0 -0.0 0.0 -0.0 1 False False
6691.744 3.712094783782959 -0.8254501980594178 0.8429964224444788 -1.5882250271239222 -1.5707929770099085 2.1413087844848633 0.0 0.0 0.0 -0.0 0.0 -0.0 1 False False
6691.794 3.712066650390625 -0.8254913848689576 0.8429430166827601 -1.5882445774474085 -1.5708087126361292 2.141295909881592 0.0 0.0 0.0 -0.0 0.0 -0.0 1 False False
6691.844 3.712062358856201 -0.8254912060550232 0.8429563681231897 -1.5882369480528773 -1.5707362333880823 2.141312837600708 0.0 0.0 0.0 -0.0 0.0 -0.0 1 False False
6691.893999999999 3.7120699882507324 -0.8254543107799073 0.8429964224444788 -1.5883251629271449 -1.5708168188678187 2.141312837600708 0.0 0.0 0.0 -0.0 0.0 -0.0 1 False False
6691.9439999999995 3.7120862007141113 -0.8255202335170289 0.8429678122149866 -1.5883056126036585 -1.5708006064044397 2.1412665843963623 0.0 0.0 0.0 -0.0 0.0 -0.0 1 False False
6691.994 3.712118625640869 -0.8255039018443604 0.8429544607745569 -1.588341852227682 -1.5708125273333948 2.1413002014160156 0.0 0.0 0.0 -0.0 0.0 -0.0 1 False False
6692.044 3.7120416164398193 -0.8255127233317872 0.8430216948138636 -1.588297029534811 -1.5707810560809534 2.141251564025879 0.0 0.0 0.0 -0.0 0.0 -0.0 1 False False
6692.094 3.7121152877807617 -0.8254543107799073 0.8429630438434046 -1.5883013210692347 -1.5708006064044397 2.141312837600708 0.0 0.0 0.0 -0.0 0.0 -0.0 1 False False
6692.143999999999 3.7121152877807617 -0.8254617017558594 0.8429678122149866 -1.5883094273009242 -1.5707767645465296 2.141308546066284 0.0 0.0 0.0 -0.0 0.0 -0.0 1 False False
6692.1939999999995 3.712090492248535 -0.8254706424525757 0.8429964224444788 -1.5882932148375453 -1.5707691351519983 2.141308546066284 0.0 0.0 0.0 -0.0 0.0 -0.0 1 False False
6692.244 3.712045192718506 -0.8254380387118836 0.8430331389056605 -1.588268896142477 -1.5707929770099085 2.14125919342041 0.0 0.0 0.0 -0.0 0.0 -0.0 1 False False
6692.294 3.712062358856201 -0.8255290550044556 0.8429759184466761 -1.5882607899107875 -1.5708087126361292 2.1412546634674072 0.0 0.0 0.0 -0.0 0.0 -0.0 1 False False
6692.344 3.712090492248535 -0.8254913848689576 0.8429678122149866 -1.5882498226561488 -1.5708048979388636 2.1412503719329834 6.519013408107048e-34 0.0 0.0 -0.0 0.0 -0.0 1 False False
6692.393999999999 3.71209979057312 -0.8254869741252442 0.8429220358477991 -1.588280817071432 -1.5707767645465296 2.1412353515625 0.0 0.0 0.0 -0.0 0.0 -0.0 1 False False
6692.4439999999995 3.712123394012451 -0.8254869145205994 0.8429678122149866 -1.5882889233031214 -1.570784870778219 2.1412882804870605 0.0 0.0 0.0 -0.0 0.0 -0.0 1 False False
6692.494 3.712083339691162 -0.8254750531962891 0.8430212179767054 -1.588245531121725 -1.5707891623126429 2.141357183456421 0.0 0.0 0.0 -0.0 0.0 -0.0 1 False False
6692.544 3.7121071815490723 -0.8254587215236207 0.8430169264422815 -1.588245531121725 -1.5708211104022425 2.141291618347168 0.0 0.0 0.0 -0.0 0.0 -0.0 1 False False
6692.594 3.7120862007141113 -0.8254869741252442 0.8430135885821741 -1.5883013210692347 -1.5707648436175745 2.141279697418213 0.0 0.0 0.0 -0.0 0.0 -0.0 1 False False
6692.643999999999 3.7120535373687744 -0.8254261177829285 0.8430302778827112 -1.5882374248900355 -1.570813004170553 2.141317129135132 0.0 0.0 0.0 -0.0 0.0 -0.0 1 False False
6692.6939999999995 3.7120652198791504 -0.8254913848689576 0.8429845015155237 -1.5882817707457484 -1.570756737385885 2.1412503719329834 0.0 0.0 0.0 -0.0 0.0 -0.0 1 False False
6692.744 3.7121026515960693 -0.8254452508739014 0.8429635206805628 -1.5882774792113246 -1.5708377997027796 2.1413002014160156 0.0 0.0 0.0 -0.0 0.0 -0.0 1 False False
6692.794 3.7120907306671143 -0.8254794639400025 0.8429964224444788 -1.5882612667479457 -1.5707929770099085 2.141291618347168 0.0 0.0 0.0 -0.0 0.0 -0.0 1 False False
6692.844 3.7120444774627686 -0.8254913848689576 0.8430212179767054 -1.5883251629271449 -1.5708492437945765 2.141279697418213 0.0 0.0 0.0 -0.0 0.0 -0.0 1 False False
6692.893999999999 3.7120697498321533 -0.8254125875285645 0.842959229146139 -1.5882731876769007 -1.570801083241598 2.141291618347168 0.0 0.0 0.0 -0.0 0.0 -0.0 1 False False
6692.9439999999995 3.7120578289031982 -0.8255365651896973 0.8430374304400843 -1.5882932148375453 -1.5707772413836878 2.141267776489258 0.0 0.0 0.0 -0.0 0.0 -0.0 1 False False
6692.994 3.7120532989501953 -0.8254993122867127 0.8430007139789026 -1.5882731876769007 -1.5708254019366663 2.141270875930786 0.0 0.0 0.0 -0.0 0.0 -0.0 1 False False
6693.044 3.7120535373687744 -0.825451211338379 0.842959229146139 -1.5882817707457484 -1.5708006064044397 2.1413002014160156 0.0 0.0 0.0 -0.0 0.0 -0.0 1 False False
6693.094 3.7120697498321533 -0.825400785808899 0.8430169264422815 -1.5882412395873011 -1.5707686583148401 2.141291618347168 0.0 0.0 0.0 -0.0 0.0 -0.0 1 False False
6693.143999999999 3.712045669555664 -0.8254993718913575 0.8430007139789026 -1.5882846317686976 -1.5707686583148401 2.141247272491455 0.0 0.0 0.0 -0.0 0.0 -0.0 1 False False
6693.1939999999995 3.7120490074157715 -0.825463132267334 0.8429845015155237 -1.588313718835348 -1.5708091894732874 2.141287088394165 0.0 0.0 0.0 -0.0 0.0 -0.0 1 False False
6693.244 3.712062358856201 -0.8255127829364319 0.8429887930499476 -1.5883175335326136 -1.5708368460284632 2.1413002014160156 0.0 0.0 0.0 -0.0 0.0 -0.0 1 False False
6693.294 3.7121024131774902 -0.8254750531962891 0.8430331389056605 -1.5883056126036585 -1.5707925001727503 2.1412839889526367 0.0 0.0 0.0 -0.0 0.0 -0.0 1 False False
6693.344 3.712104082107544 -0.8254587215236207 0.8430007139789026 -1.5883056126036585 -1.570801083241598 2.14125919342041 0.0 0.0 0.0 -0.0 0.0 -0.0 1 False False
6693.393999999999 3.712045669555664 -0.8255157035640259 0.8429802099810999 -1.588269372979635 -1.5707605520831507 2.141279697418213 0.0 0.0 0.0 -0.0 0.0 -0.0 1 False False
6693.4439999999995 3.712095022201538 -0.825445370083191 0.8430169264422815 -1.588245531121725 -1.570784870778219 2.141270875930786 0.0 0.0 0.0 -0.0 0.0 -0.0 1 False False
6693.494 3.7120697498321533 -0.8254409593394776 0.8429759184466761 -1.588320871392721 -1.5708048979388636 2.1412839889526367 0.0 0.0 0.0 -0.0 0.0 -0.0 1 False False
6693.544 3.712033748626709 -0.8254171174815674 0.8430169264422815 -1.5882932148375453 -1.570801083241598 2.141324758529663 0.0 0.0 0.0 -0.0 0.0 -0.0 1 False False
6693.594 3.712062358856201 -0.8254437011531373 0.8429635206805628 -1.5882731876769007 -1.5708048979388636 2.1412882804870605 0.0 0.0 0.0 -0.0 0.0 -0.0 1 False False
6693.643999999999 3.7120907306671143 -0.825495795612671 0.8429878393756312 -1.5882607899107875 -1.570772949849264 2.141287088394165 0.0 0.0 0.0 -0.0 0.0 -0.0 1 False False
6693.6939999999995 3.712003707885742 -0.8254083555987854 0.8429673353778284 -1.588285585443014 -1.570784870778219 2.141308546066284 0.0 0.0 0.0 -0.0 0.0 -0.0 1 False False
6693.744 3.712050199508667 -0.8255045574954529 0.8430331389056605 -1.5882817707457484 -1.5707810560809534 2.1413257122039795 0.0 0.0 0.0 -0.0 0.0 -0.0 1 False False
6693.794 3.7120742797851562 -0.8254869741252442 0.8429673353778284 -1.5883618793883265 -1.5708168188678187 2.1412839889526367 0.0 0.0 0.0 -0.0 0.0 -0.0 1 False False
6693.844 3.712078809738159 -0.8254543107799073 0.8429964224444788 -1.5882846317686976 -1.570784870778219 2.141295909881592 0.0 0.0 0.0 -0.0 0.0 -0.0 1 False False
6693.893999999999 3.712045669555664 -0.8254675430110474 0.8429635206805628 -1.5882932148375453 -1.5708087126361292 2.141263484954834 0.0 0.0 0.0 -0.0 0.0 -0.0 1 False False
6693.9439999999995 3.7120578289031982 -0.825463132267334 0.8430092970477503 -1.588313718835348 -1.570813004170553 2.141270875930786 0.0 0.0 0.0 -0.0 0.0 -0.0 1 False False
6693.994 3.712062358856201 -0.8254706424525757 0.8429396788226526 -1.5882817707457484 -1.5707686583148401 2.1412546634674072 0.0 0.0 0.0 -0.0 0.0 -0.0 1 False False
6694.044 3.7120697498321533 -0.8254706424525757 0.8429353872882288 -1.5882846317686976 -1.570829216633932 2.141295909881592 0.0 0.0 0.0 -0.0 0.0 -0.0 1 False False
6694.094 3.71209979057312 -0.8254750531962891 0.8429520765887659 -1.5883051357665003 -1.570857350026266 2.1413257122039795 0.0 0.0 0.0 -0.0 0.0 -0.0 1 False False
6694.143999999999 3.7120907306671143 -0.8254993718913575 0.8429802099810999 -1.5882569752135218 -1.570813004170553 2.141279697418213 0.0 0.0 0.0 -0.0 0.0 -0.0 1 False False
6694.1939999999995 3.7120532989501953 -0.8255291146091004 0.8429845015155237 -1.5882607899107875 -1.5707686583148401 2.1412925720214844 0.0 0.0 0.0 -0.0 0.0 -0.0 1 False False
6694.244 3.7120578289031982 -0.8254779738238831 0.8429515997516077 -1.5882731876769007 -1.5708168188678187 2.1412546634674072 0.0 0.0 0.0 -0.0 0.0 -0.0 1 False False
6694.294 3.7120532989501953 -0.8254750531962891 0.8429935614215296 -1.5882412395873011 -1.570853058491842 2.1413204669952393 0.0 0.0 0.0 -0.0 0.0 -0.0 1 False False
6694.344 3.712036609649658 -0.8254379791072388 0.8429802099810999 -1.5883456669249476 -1.5708168188678187 2.1412267684936523 0.0 0.0 0.0 -0.0 0.0 -0.0 1 False False
6694.393999999999 3.7120742797851562 -0.8254869741252442 0.8429887930499476 -1.5883251629271449 -1.570784870778219 2.141247272491455 0.0 0.0 0.0 -0.0 0.0 -0.0 1 False False
6694.4439999999995 3.712087631225586 -0.8254779738238831 0.8430054823504847 -1.5883251629271449 -1.5708611647235315 2.1412546634674072 0.0 0.0 0.0 -0.0 0.0 -0.0 1 False False
6694.494 3.7120981216430664 -0.8254587215236207 0.8430097738849085 -1.5882817707457484 -1.5708048979388636 2.141267776489258 0.0 0.0 0.0 -0.0 0.0 -0.0 1 False False
6694.544 3.712062358856201 -0.8254869741252442 0.8430007139789026 -1.5883013210692347 -1.5708044211017054 2.141270875930786 0.0 0.0 0.0 -0.0 0.0 -0.0 1 False False
6694.594 3.712116003036499 -0.8255039614490052 0.842992130910055 -1.5882650814452113 -1.5707929770099085 2.1413002014160156 0.0 0.0 0.0 -0.0 0.0 -0.0 1 False False
6694.643999999999 3.7120323181152344 -0.8254468005946656 0.8430293242083948 -1.588313718835348 -1.5708091894732874 2.141275405883789 0.0 0.0 0.0 -0.0 0.0 -0.0 1 False False
6694.6939999999995 3.7120816707611084 -0.8254543107799073 0.8429721037494105 -1.5883127651610316 -1.570784870778219 2.141308546066284 0.0 0.0 0.0 -0.0 0.0 -0.0 1 False False
6694.744 3.7120158672332764 -0.8254615825465699 0.8430336157428187 -1.588292738000387 -1.5707967917071741 2.141312837600708 0.0 0.0 0.0 -0.0 0.0 -0.0 1 False False
6694.794 3.7120981216430664 -0.8255157035640259 0.8429964224444788 -1.5882488689818324 -1.5708211104022425 2.141312837600708 0.0 0.0 0.0 -0.0 0.0 -0.0 1 False False
6694.844 3.7120652198791504 -0.825495795612671 0.8429754416095179 -1.5882889233031214 -1.5707767645465296 2.141312837600708 0.0 0.0 0.0 -0.0 0.0 -0.0 1 False False
6694.893999999999 3.7120532989501953 -0.8255246442607422 0.8429473082171839 -1.5882374248900355 -1.5708254019366663 2.141317129135132 0.0 0.0 0.0 -0.0 0.0 -0.0 1 False False
6694.9439999999995 3.7120697498321533 -0.8254779738238831 0.8429349104510706 -1.588269372979635 -1.5708492437945765 2.141282796859741 0.0 0.0 0.0 -0.0 0.0 -0.0 1 False False
6694.994 3.7120578289031982 -0.8254750531962891 0.8429845015155237 -1.5882851086058558 -1.5707891623126429 2.1413040161132812 0.0 0.0 0.0 -0.0 0.0 -0.0 1 False False
6695.044 3.7120907306671143 -0.8254913848689576 0.8429763952838343 -1.588269372979635 -1.5707891623126429 2.1412839889526367 0.0 0.0 0.0 -0.0 0.0 -0.0 1 False False
6695.094 3.7120697498321533 -0.8254333299449463 0.8429515997516077 -1.588229318658346 -1.570801083241598 2.141267776489258 0.0 0.0 0.0 -0.0 0.0 -0.0 1 False False
6695.143999999999 3.712062358856201 -0.8254587215236207 0.8429892698871058 -1.5883246860899867 -1.5708168188678187 2.14132022857666 0.0 0.0 0.0 -0.0 0.0 -0.0 1 False False
6695.1939999999995 3.712062358856201 -0.8254795235446473 0.8429935614215296 -1.5882417164244593 -1.5707724730121058 2.141287088394165 0.0 0.0 0.0 -0.0 0.0 -0.0 1 False False
6695.244 3.7120862007141113 -0.8254423898509522 0.8430336157428187 -1.5882774792113246 -1.5707967917071741 2.1412720680236816 0.0 0.0 0.0 -0.0 0.0 -0.0 1 False False
6695.294 3.712095022201538 -0.8254615825465699 0.8430007139789026 -1.5882650814452113 -1.5707643667804163 2.1412720680236816 0.0 0.0 0.0 -0.0 0.0 -0.0 1 False False
6695.344 3.7121684551239014 -0.8255247634700318 0.8429892698871058 -1.5883246860899867 -1.5708168188678187 2.1412503719329834 0.0 0.0 0.0 -0.0 0.0 -0.0 1 False False
6695.393999999999 3.712095022201538 -0.8254675430110474 0.8429721037494105 -1.5883170566954554 -1.5707686583148401 2.1413002014160156 0.0 0.0 0.0 -0.0 0.0 -0.0 1 False False
6695.4439999999995 3.7120535373687744 -0.8255002063563843 0.8429964224444788 -1.588269372979635 -1.5708335081683558 2.141329050064087 0.0 0.0 0.0 -0.0 0.0 -0.0 1 False False
6695.494 3.712045669555664 -0.8254838746837159 0.8429563681231897 -1.5882774792113246 -1.5708048979388636 2.141267776489258 0.0 0.0 0.0 -0.0 0.0 -0.0 1 False False
6695.544 3.7120697498321533 -0.8254171174815674 0.8429515997516077 -1.5882493458189906 -1.5708254019366663 2.1413087844848633 0.0 0.0 0.0 -0.0 0.0 -0.0 1 False False
6695.594 3.712139844894409 -0.8254869741252442 0.8430126349078577 -1.5883051357665003 -1.5707686583148401 2.14125919342041 0.0 0.0 0.0 -0.0 0.0 -0.0 1 False False
6695.643999999999 3.712095022201538 -0.8254949611476441 0.8429892698871058 -1.5882812939085902 -1.5708168188678187 2.141317129135132 0.0 0.0 0.0 -0.0 0.0 -0.0 1 False False
6695.6939999999995 3.7120981216430664 -0.8254750531962891 0.8429630438434046 -1.5883051357665003 -1.5707929770099085 2.1413614749908447 0.0 0.0 0.0 -0.0 0.0 -0.0 1 False False
6695.744 3.7120862007141113 -0.825466052894928 0.8430054823504847 -1.588273664514059 -1.5707891623126429 2.141270875930786 0.0 0.0 0.0 -0.0 0.0 -0.0 1 False False
6695.794 3.712050199508667 -0.8255127829364319 0.8429558912860315 -1.5882531605162562 -1.5707529226886194 2.141275405883789 0.0 0.0 0.0 -0.0 0.0 -0.0 1 False False
6695.844 3.712099552154541 -0.8255039018443604 0.8429892698871058 -1.588245531121725 -1.570756737385885 2.1412429809570312 0.0 0.0 0.0 -0.0 0.0 -0.0 1 False False
6695.893999999999 3.712062358856201 -0.8255247634700318 0.8429802099810999 -1.5882765255370082 -1.5707610289203089 2.141287088394165 0.0 0.0 0.0 -0.0 0.0 -0.0 1 False False
6695.9439999999995 3.712103843688965 -0.825428919201233 0.8429754416095179 -1.5882488689818324 -1.570772949849264 2.141279697418213 0.0 0.0 0.0 -0.0 0.0 -0.0 1 False False
6695.994 3.7120580673217773 -0.8254838746837159 0.8430126349078577 -1.5882650814452113 -1.5708048979388636 2.141295909881592 0.0 0.0 0.0 -0.0 0.0 -0.0 1 False False
6696.044 3.712111234664917 -0.8254615229419251 0.8429964224444788 -1.5883294544615687 -1.5707281271563929 2.1412546634674072 0.0 0.0 0.0 -0.0 0.0 -0.0 1 False False
6696.094 3.7120699882507324 -0.8254333299449463 0.8429425398456019 -1.5883013210692347 -1.5707605520831507 2.1412179470062256 0.0 0.0 0.0 -0.0 0.0 -0.0 1 False False
6696.143999999999 3.7120776176452637 -0.8254496616176148 0.8429845015155237 -1.5882731876769007 -1.570772949849264 2.14125919342041 0.0 0.0 0.0 -0.0 0.0 -0.0 1 False False
6696.1939999999995 3.7120535373687744 -0.8254869741252442 0.8429721037494105 -1.5883251629271449 -1.5707605520831507 2.14125919342041 0.0 0.0 0.0 -0.0 0.0 -0.0 1 False False
6696.244 3.712066650390625 -0.8254587215236207 0.842971150075094 -1.588320871392721 -1.5708168188678187 2.141251564025879 0.0 0.0 0.0 -0.0 0.0 -0.0 1 False False
6696.294 3.712106704711914 -0.8254587215236207 0.8429935614215296 -1.5883251629271449 -1.570813004170553 2.1412839889526367 0.0 0.0 0.0 -0.0 0.0 -0.0 1 False False
6696.344 3.712094783782959 -0.8255046171000977 0.8429439703570765 -1.5882889233031214 -1.570801083241598 2.1412546634674072 0.0 0.0 0.0 -0.0 0.0 -0.0 1 False False
6696.393999999999 3.712115526199341 -0.8255171340755005 0.8429887930499476 -1.5882817707457484 -1.5707362333880823 2.141263484954834 0.0 0.0 0.0 -0.0 0.0 -0.0 1 False False
6696.4439999999995 3.712106704711914 -0.8255157035640259 0.8430169264422815 -1.5882569752135218 -1.5707529226886194 2.141287088394165 0.0 0.0 0.0 -0.0 0.0 -0.0 1 False False
6696.494 3.712094783782959 -0.8255083125880738 0.8429802099810999 -1.5883170566954554 -1.570829216633932 2.141329050064087 0.0 0.0 0.0 -0.0 0.0 -0.0 1 False False
6696.544 3.7120742797851562 -0.8254750531962891 0.8429515997516077 -1.5882607899107875 -1.5707967917071741 2.1412839889526367 0.0 0.0 0.0 -0.0 0.0 -0.0 1 False False
6696.594 3.712099313735962 -0.8254587215236207 0.8429721037494105 -1.5882607899107875 -1.5707767645465296 2.1412384510040283 0.0 0.0 0.0 -0.0 0.0 -0.0 1 False False
6696.643999999999 3.7120819091796875 -0.8254882258227845 0.8429845015155237 -1.5882817707457484 -1.570784870778219 2.141312837600708 0.0 0.0 0.0 -0.0 0.0 -0.0 1 False False
6696.6939999999995 3.712115526199341 -0.8254823845675965 0.8430054823504847 -1.5882932148375453 -1.5707886854754847 2.1412839889526367 0.0 0.0 0.0 -0.0 0.0 -0.0 1 False False
6696.744 3.7120699882507324 -0.8255112332156678 0.8429887930499476 -1.5882817707457484 -1.5708497206317347 2.141345262527466 0.0 0.0 0.0 -0.0 0.0 -0.0 1 False False
6696.794 3.7120296955108643 -0.8255044978908082 0.8429587523089808 -1.5882932148375453 -1.5707805792437952 2.141247272491455 0.0 0.0 0.0 -0.0 0.0 -0.0 1 False False
6696.844 3.7120773792266846 -0.825451211338379 0.8430050055133265 -1.5883056126036585 -1.5707686583148401 2.141308546066284 0.0 0.0 0.0 -0.0 0.0 -0.0 1 False False
6696.893999999999 3.7120492458343506 -0.8255127233317872 0.8429306189166468 -1.5882412395873011 -1.570784870778219 2.141270875930786 0.0 0.0 0.0 -0.0 0.0 -0.0 1 False False
6696.9439999999995 3.7120862007141113 -0.8254957360080262 0.8429845015155237 -1.588280817071432 -1.570813004170553 2.1412665843963623 0.0 0.0 0.0 -0.0 0.0 -0.0 1 False False
6696.994 3.7121143341064453 -0.8254511517337342 0.8429678122149866 -1.5883094273009242 -1.570801083241598 2.1413333415985107 0.0 0.0 0.0 -0.0 0.0 -0.0 1 False False
6697.044 3.7120370864868164 -0.8255289357951661 0.8429964224444788 -1.588252683679098 -1.5708087126361292 2.14121150970459 0.0 0.0 0.0 -0.0 0.0 -0.0 1 False False
6697.094 3.7120773792266846 -0.8254617613605042 0.8429439703570765 -1.5882569752135218 -1.5707891623126429 2.14125919342041 0.0 0.0 0.0 -0.0 0.0 -0.0 1 False False
6697.143999999999 3.712090492248535 -0.8254824441722413 0.8430007139789026 -1.588252683679098 -1.57074481645693 2.141317129135132 0.0 0.0 0.0 -0.0 0.0 -0.0 1 False False
6697.1939999999995 3.7121078968048096 -0.8255044382861634 0.8429678122149866 -1.588269372979635 -1.570784870778219 2.141287088394165 0.0 0.0 0.0 -0.0 0.0 -0.0 1 False False
6697.244 3.712095022201538 -0.8254794043353577 0.8429563681231897 -1.5883175335326136 -1.5708087126361292 2.141279697418213 0.0 0.0 0.0 -0.0 0.0 -0.0 1 False False
6697.294 3.7120537757873535 -0.8255156439593812 0.8430288473712366 -1.5882250271239222 -1.5707810560809534 2.1412482261657715 0.0 0.0 0.0 -0.0 0.0 -0.0 1 False False
6697.344 3.7120611667633057 -0.8254913252643128 0.8429802099810999 -1.588269372979635 -1.570784870778219 2.141239643096924 0.0 0.0 0.0 -0.0 0.0 -0.0 1 False False
6697.393999999999 3.7120580673217773 -0.8254718345454712 0.8429802099810999 -1.588280817071432 -1.570784870778219 2.1413044929504395 0.0 0.0 0.0 -0.0 0.0 -0.0 1 False False
6697.4439999999995 3.7120537757873535 -0.8255039018443604 0.8430083433734339 -1.588285585443014 -1.5708168188678187 2.141231060028076 0.0 0.0 0.0 -0.0 0.0 -0.0 1 False False
6697.494 3.712090492248535 -0.8254544299891968 0.8430288473712366 -1.5882889233031214 -1.5707762877093714 2.141291618347168 0.0 0.0 0.0 -0.0 0.0 -0.0 1 False False
6697.544 3.712110996246338 -0.8254838150790711 0.8429802099810999 -1.588269372979635 -1.5707882086383265 2.141295909881592 0.0 0.0 0.0 -0.0 0.0 -0.0 1 False False
6697.594 3.7120819091796875 -0.8254913848689576 0.8430007139789026 -1.5882774792113246 -1.570801083241598 2.141267776489258 0.0 0.0 0.0 -0.0 0.0 -0.0 1 False False
6697.643999999999 3.712062358856201 -0.8254143756679078 0.8429392019854944 -1.5882607899107875 -1.5708335081683558 2.141279697418213 0.0 0.0 0.0 -0.0 0.0 -0.0 1 False False
6697.6939999999995 3.7120578289031982 -0.8254707020572205 0.842931095753805 -1.588313718835348 -1.5707810560809534 2.1413216590881348 0.0 0.0 0.0 -0.0 0.0 -0.0 1 False False
6697.744 3.7120578289031982 -0.8254913252643128 0.842992130910055 -1.5883013210692347 -1.5707610289203089 2.141279697418213 0.0 0.0 0.0 -0.0 0.0 -0.0 1 False False
6697.794 3.7120742797851562 -0.8254750531962891 0.8430007139789026 -1.5883170566954554 -1.5708087126361292 2.1412341594696045 0.0 0.0 0.0 -0.0 0.0 -0.0 1 False False
6697.844 3.712099552154541 -0.8254824441722413 0.8430083433734339 -1.5883251629271449 -1.5707691351519983 2.141312837600708 0.0 0.0 0.0 -0.0 0.0 -0.0 1 False False
6697.893999999999 3.7120981216430664 -0.8254923981479187 0.8429802099810999 -1.5883175335326136 -1.5708048979388636 2.141275405883789 0.0 0.0 0.0 -0.0 0.0 -0.0 1 False False
6697.9439999999995 3.712078809738159 -0.8254880470088501 0.8429721037494105 -1.5882374248900355 -1.5708444754229944 2.1412997245788574 -3.5414505536397307e-22 0.0 0.0 -0.0 0.0 -0.0 1 False False
6697.994 3.712050199508667 -0.8254456085017701 0.8430126349078577 -1.5882774792113246 -1.570824925099508 2.1412546634674072 0.0 0.0 0.0 -0.0 0.0 -0.0 1 False False
6698.044 3.712111473083496 -0.8254382175258179 0.8429759184466761 -1.588297029534811 -1.5708168188678187 2.141340970993042 0.0 0.0 0.0 -0.0 0.0 -0.0 1 False False
6698.094 3.712104082107544 -0.8254469794085999 0.8429802099810999 -1.5882932148375453 -1.5708487669574183 2.1412429809570312 0.0 0.0 0.0 -0.0 0.0 -0.0 1 False False
6698.143999999999 3.71209979057312 -0.8254999679378052 0.8430083433734339 -1.588285585443014 -1.5708206335650843 2.141295909881592 0.0 0.0 0.0 -0.0 0.0 -0.0 1 False False
6698.1939999999995 3.7120535373687744 -0.8254824441722413 0.8430092970477503 -1.5883094273009242 -1.5707886854754847 2.141312837600708 0.0 0.0 0.0 -0.0 0.0 -0.0 1 False False
6698.244 3.7121355533599854 -0.8254382175258179 0.8430212179767054 -1.588268896142477 -1.5707691351519983 2.1413002014160156 0.0 0.0 0.0 -0.0 0.0 -0.0 1 False False
6698.294 3.712062358856201 -0.8255449098399659 0.8429506460772913 -1.5882650814452113 -1.570813004170553 2.1413044929504395 0.0 0.0 0.0 -0.0 0.0 -0.0 1 False False
6698.344 3.7120490074157715 -0.8254707020572205 0.8429520765887659 -1.5883456669249476 -1.5708206335650843 2.141279697418213 0.0 0.0 0.0 -0.0 0.0 -0.0 1 False False
6698.393999999999 3.7120652198791504 -0.825441376571991 0.8430083433734339 -1.5882774792113246 -1.5707691351519983 2.1413002014160156 0.0 0.0 0.0 -0.0 0.0 -0.0 1 False False
6698.4439999999995 3.712045669555664 -0.8255362671664734 0.8429892698871058 -1.588269372979635 -1.5707691351519983 2.141279697418213 0.0 0.0 0.0 -0.0 0.0 -0.0 1 False False
6698.494 3.7120578289031982 -0.8255038422397156 0.842987362538473 -1.5882498226561488 -1.5707767645465296 2.141279697418213 0.0 0.0 0.0 -0.0 0.0 -0.0 1 False False
6698.544 3.712071418762207 -0.8254544895938416 0.8430007139789026 -1.588269372979635 -1.5708168188678187 2.141221523284912 0.0 0.0 0.0 -0.0 0.0 -0.0 1 False False
6698.594 3.712087631225586 -0.8254662913135071 0.8429964224444788 -1.5883413753905238 -1.5708087126361292 2.1413040161132812 0.0 0.0 0.0 -0.0 0.0 -0.0 1 False False
6698.643999999999 3.712071418762207 -0.8254414361766358 0.8429392019854944 -1.5883013210692347 -1.5707410017596644 2.1412558555603027 0.0 0.0 0.0 -0.0 0.0 -0.0 1 False False
6698.6939999999995 3.712045669555664 -0.825463132267334 0.8430216948138636 -1.588229318658346 -1.5707967917071741 2.14131760597229 0.0 0.0 0.0 -0.0 0.0 -0.0 1 False False
6698.744 3.712087631225586 -0.8254588407329102 0.8429845015155237 -1.5883084736266078 -1.5707805792437952 2.141258955001831 0.0 0.0 0.0 -0.0 0.0 -0.0 1 False False
6698.794 3.712017059326172 -0.8254295152476807 0.8430007139789026 -1.5882650814452113 -1.5707967917071741 2.14131760597229 0.0 0.0 0.0 -0.0 0.0 -0.0 1 False False
6698.844 3.712104320526123 -0.8254631918719788 0.8429473082171839 -1.588252683679098 -1.570772949849264 2.141263246536255 0.0 0.0 0.0 -0.0 0.0 -0.0 1 False False
6698.893999999999 3.7120907306671143 -0.8255037826350708 0.8429964224444788 -1.5882536373534144 -1.570813004170553 2.141296148300171 0.0 0.0 0.0 -0.0 0.0 -0.0 1 False False
6698.9439999999995 3.712045669555664 -0.8255081337741395 0.8429892698871058 -1.5883370838561 -1.570801083241598 2.141284227371216 0.0 0.0 0.0 -0.0 0.0 -0.0 1 False False
6698.994 3.7120490074157715 -0.8254869741252442 0.8430007139789026 -1.588273664514059 -1.5707967917071741 2.141287088394165 0.0 0.0 0.0 -0.0 0.0 -0.0 1 False False
6699.044 3.712071418762207 -0.8254695695689698 0.8429845015155237 -1.588292738000387 -1.570801083241598 2.141242504119873 0.0 0.0 0.0 -0.0 0.0 -0.0 1 False False
6699.094 3.7120487689971924 -0.8255362671664734 0.8429754416095179 -1.588280817071432 -1.5708048979388636 2.141321897506714 0.0 0.0 0.0 -0.0 0.0 -0.0 1 False False
6699.143999999999 3.7120532989501953 -0.8254674238017579 0.8429630438434046 -1.588245531121725 -1.570801083241598 2.141279697418213 0.0 0.0 0.0 -0.0 0.0 -0.0 1 False False
6699.1939999999995 3.712062358856201 -0.8255199950984498 0.8429892698871058 -1.5882731876769007 -1.5707925001727503 2.1413049697875977 0.0 0.0 0.0 -0.0 0.0 -0.0 1 False False
6699.244 3.712095260620117 -0.8254955571940918 0.842938248311178 -1.5882774792113246 -1.5707686583148401 2.1413094997406006 0.0 0.0 0.0 -0.0 0.0 -0.0 1 False False
6699.294 3.7120907306671143 -0.8254588407329102 0.8429425398456019 -1.5883132419981898 -1.5707767645465296 2.141270637512207 0.0 0.0 0.0 -0.0 0.0 -0.0 1 False False
6699.344 3.7120862007141113 -0.8254717153361817 0.8429473082171839 -1.5882774792113246 -1.5707967917071741 2.141267776489258 0.0 0.0 0.0 -0.0 0.0 -0.0 1 False False
6699.393999999999 3.7120652198791504 -0.8254793447307129 0.8430174032794397 -1.5882536373534144 -1.5708087126361292 2.141270637512207 0.0 0.0 0.0 -0.0 0.0 -0.0 1 False False
6699.4439999999995 3.7120862007141113 -0.8255123657039185 0.8430126349078577 -1.5882774792113246 -1.570784870778219 2.141235113143921 0.0003321810800116509 0.0 0.0 -0.0 0.0 -0.0 1 False False
6699.494 3.712111473083496 -0.8255081337741395 0.8430083433734339 -1.5882817707457484 -1.5708168188678187 2.141258955001831 0.0 0.0 0.0 -0.0 0.0 -0.0 1 False False
6699.544 3.712066888809204 -0.8254793447307129 0.8429845015155237 -1.5882569752135218 -1.5708254019366663 2.141254186630249 0.0 0.0 0.0 -0.0 0.0 -0.0 1 False False
6699.594 3.712062358856201 -0.8254545491984864 0.8429754416095179 -1.5883046589293421 -1.5707967917071741 2.141282558441162 0.0 0.0 0.0 -0.0 0.0 -0.0 1 False False
6699.643999999999 3.7120606899261475 -0.8255123657039185 0.8429802099810999 -1.5883251629271449 -1.570784870778219 2.141313076019287 0.0 0.0 0.0 -0.0 0.0 -0.0 1 False False
6699.6939999999995 3.71209979057312 -0.8254793447307129 0.8430007139789026 -1.5883008442320765 -1.5708044211017054 2.1413204669952393 0.0 0.0 0.0 -0.0 0.0 -0.0 1 False False
6699.744 3.7120532989501953 -0.8254869145205994 0.8429845015155237 -1.5882774792113246 -1.5708254019366663 2.141287088394165 0.0 0.0 0.0 -0.0 0.0 -0.0 1 False False
6699.794 3.712036609649658 -0.8255362671664734 0.8429673353778284 -1.5882216892638148 -1.5707767645465296 2.1412994861602783 0.0 0.0 0.0 -0.0 0.0 -0.0 1 False False
6699.844 3.712078809738159 -0.8254782122424622 0.8429845015155237 -1.588273664514059 -1.57074481645693 2.141296148300171 0.0 0.0 0.0 -0.0 0.0 -0.0 1 False False
6699.893999999999 3.7120771408081055 -0.8254993718913575 0.8429673353778284 -1.5883051357665003 -1.5708087126361292 2.141267776489258 0.0 0.0 0.0 -0.0 0.0 -0.0 1 False False
6699.9439999999995 3.712050199508667 -0.8254373830607911 0.8429845015155237 -1.5883289776244105 -1.570784870778219 2.141270637512207 0.0 0.0 0.0 -0.0 0.0 -0.0 1 False False
6699.994 3.7120771408081055 -0.825438455944397 0.8429797331439417 -1.5882846317686976 -1.5707929770099085 2.14131760597229 0.0 0.0 0.0 -0.0 0.0 -0.0 1 False False
6700.044 3.7120532989501953 -0.8254869741252442 0.8429845015155237 -1.5883056126036585 -1.5707605520831507 2.141287088394165 0.0 0.0 0.0 -0.0 0.0 -0.0 1 False False
6700.094 3.7121357917785645 -0.8255112332156678 0.8429673353778284 -1.5883094273009242 -1.5708048979388636 2.141296148300171 0.0 0.0 0.0 -0.0 0.0 -0.0 1 False False
6700.143999999999 3.712095260620117 -0.8255123657039185 0.8429964224444788 -1.5882889233031214 -1.570784870778219 2.1412618160247803 0.0 0.0 0.0 -0.0 0.0 -0.0 1 False False
6700.1939999999995 3.712099552154541 -0.8254708212665101 0.8429425398456019 -1.588297029534811 -1.5707767645465296 2.141324996948242 0.0 0.0 0.0 -0.0 0.0 -0.0 1 False False
6700.244 3.7121026515960693 -0.8254707616618653 0.8429754416095179 -1.5882250271239222 -1.5707605520831507 2.1413004398345947 0.0 0.0 0.0 -0.0 0.0 -0.0 1 False False
6700.294 3.7120816707611084 -0.825483576660492 0.8429802099810999 -1.588268896142477 -1.5708087126361292 2.141258955001831 0.0 0.0 0.0 -0.0 0.0 -0.0 1 False False
6700.344 3.7120535373687744 -0.8255112332156678 0.8430174032794397 -1.5882774792113246 -1.5707967917071741 2.141334056854248 0.0 0.0 0.0 -0.0 0.0 -0.0 1 False False
6700.393999999999 3.7120535373687744 -0.825463132267334 0.8429845015155237 -1.5883056126036585 -1.5707524458514612 2.141313076019287 0.0 0.0 0.0 -0.0 0.0 -0.0 1 False False
6700.4439999999995 3.7120654582977295 -0.8254546088031312 0.8429802099810999 -1.588268896142477 -1.570801083241598 2.1413040161132812 0.0 0.0 0.0 -0.0 0.0 -0.0 1 False False
6700.494 3.7120654582977295 -0.8254869741252442 0.8429887930499476 -1.5882169208922328 -1.5707886854754847 2.141291618347168 0.0 0.0 0.0 -0.0 0.0 -0.0 1 False False
6700.544 3.712106943130493 -0.825483576660492 0.8430007139789026 -1.5883175335326136 -1.5707767645465296 2.141296148300171 0.0 0.0 0.0 -0.0 0.0 -0.0 1 False False
6700.594 3.7120654582977295 -0.8254750531962891 0.8430126349078577 -1.5882412395873011 -1.5707648436175745 2.141230583190918 0.0 0.0 0.0 -0.0 0.0 -0.0 1 False False
6700.643999999999 3.7120742797851562 -0.8254954975894471 0.8429430166827601 -1.5882817707457484 -1.5707891623126429 2.141226053237915 0.0 0.0 0.0 -0.0 0.0 -0.0 1 False False
6700.6939999999995 3.7120907306671143 -0.825438455944397 0.8430126349078577 -1.5883056126036585 -1.570801083241598 2.141263246536255 0.0 0.0 0.0 -0.0 0.0 -0.0 1 False False
6700.744 3.7120580673217773 -0.8254707616618653 0.8429802099810999 -1.5882932148375453 -1.570813004170553 2.141242504119873 0.0 0.0 0.0 -0.0 0.0 -0.0 1 False False
6700.794 3.7120819091796875 -0.8254954975894471 0.8429349104510706 -1.5882889233031214 -1.5707648436175745 2.1412558555603027 0.0 0.0 0.0 -0.0 0.0 -0.0 1 False False
6700.844 3.7120862007141113 -0.825451211338379 0.8430126349078577 -1.5882817707457484 -1.5707686583148401 2.141287088394165 0.0 0.0 0.0 -0.0 0.0 -0.0 1 False False
6700.893999999999 3.7120578289031982 -0.825482503776886 0.8429887930499476 -1.5882207355894984 -1.570824925099508 2.141254186630249 0.0 0.0 0.0 -0.0 0.0 -0.0 1 False False
6700.9439999999995 3.7120907306671143 -0.8254912060550232 0.8430083433734339 -1.5882569752135218 -1.570829216633932 2.141284227371216 0.0 0.0 0.0 -0.0 0.0 -0.0 1 False False
6700.994 3.7120370864868164 -0.8255070012858887 0.8429802099810999 -1.5882846317686976 -1.5708335081683558 2.141284227371216 0.0 0.0 0.0 -0.0 0.0 -0.0 1 False False
6701.044 3.7120580673217773 -0.8254501980594178 0.8430007139789026 -1.588268896142477 -1.570784870778219 2.1412558555603027 0.0 0.0 0.0 -0.0 0.0 -0.0 1 False False
6701.094 3.7120580673217773 -0.8254673641971131 0.8430288473712366 -1.5882889233031214 -1.5707805792437952 2.1412558555603027 0.0 0.0 0.0 -0.0 0.0 -0.0 1 False False
6701.143999999999 3.7120654582977295 -0.8255123657039185 0.8429845015155237 -1.5882774792113246 -1.5707767645465296 2.141263246536255 0.0 0.0 0.0 -0.0 0.0 -0.0 1 False False
6701.1939999999995 3.7121036052703857 -0.8254392904094239 0.8429802099810999 -1.588269372979635 -1.5707686583148401 2.141230583190918 0.0 0.0 0.0 -0.0 0.0 -0.0 1 False False
6701.244 3.7121026515960693 -0.8254869741252442 0.8429678122149866 -1.5882765255370082 -1.570829216633932 2.1412558555603027 0.0 0.0 0.0 -0.0 0.0 -0.0 1 False False
6701.294 3.71207857131958 -0.8255166572383423 0.8429964224444788 -1.5882774792113246 -1.5708168188678187 2.14131760597229 0.0 0.0 0.0 -0.0 0.0 -0.0 1 False False
6701.344 3.7121024131774902 -0.825458900337555 0.8429845015155237 -1.5883218250670375 -1.570784870778219 2.141296148300171 0.0 0.0 0.0 -0.0 0.0 -0.0 1 False False
6701.393999999999 3.7120742797851562 -0.825491265659668 0.8430331389056605 -1.5882889233031214 -1.5708449522601526 2.1413414478302 0.0 0.0 0.0 -0.0 0.0 -0.0 1 False False
6701.4439999999995 3.712033987045288 -0.8254793447307129 0.8429887930499476 -1.5883251629271449 -1.5707648436175745 2.14131760597229 0.0 0.0 0.0 -0.0 0.0 -0.0 1 False False
6701.494 3.7120416164398193 -0.825463132267334 0.8430083433734339 -1.588297029534811 -1.5708015600787562 2.1412513256073 0.0 0.0 0.0 -0.0 0.0 -0.0 1 False False
6701.544 3.7120580673217773 -0.82541777313266 0.843020264302389 -1.5882936916747035 -1.570813004170553 2.141258955001831 0.0 0.0 0.0 -0.0 0.0 -0.0 1 False False
6701.594 3.712062358856201 -0.8255037826350708 0.8429964224444788 -1.5883175335326136 -1.5708087126361292 2.141284227371216 0.0 0.0 0.0 -0.0 0.0 -0.0 1 False False
6701.643999999999 3.7120416164398193 -0.8254869741252442 0.8430331389056605 -1.5882774792113246 -1.5708211104022425 2.1412723064422607 0.0 0.0 0.0 -0.0 0.0 -0.0 1 False False
6701.6939999999995 3.7120327949523926 -0.825450138454773 0.8429964224444788 -1.5882774792113246 -1.5708211104022425 2.1413049697875977 0.0 0.0 0.0 -0.0 0.0 -0.0 1 False False
6701.744 3.7120254039764404 -0.825491265659668 0.8429759184466761 -1.588285585443014 -1.5707805792437952 2.141254186630249 0.0 0.0 0.0 -0.0 0.0 -0.0 1 False False
6701.794 3.7120327949523926 -0.8254869741252442 0.8430331389056605 -1.5882846317686976 -1.5708254019366663 2.141258955001831 0.0 0.0 0.0 -0.0 0.0 -0.0 1 False False
6701.844 3.7120862007141113 -0.8254588407329102 0.8429678122149866 -1.588285585443014 -1.5708048979388636 2.141216993331909 0.0 0.0 0.0 -0.0 0.0 1.1579562428786926e-16 1 False False
6701.893999999999 3.7120492458343506 -0.825463132267334 0.8429802099810999 -1.5883175335326136 -1.5707929770099085 2.141258955001831 0.0 0.0 0.0 -0.0 0.0 2.2069338356800472e-08 1 False False
6701.9439999999995 3.712095022201538 -0.8254750531962891 0.8429964224444788 -1.588297029534811 -1.5707643667804163 2.141287088394165 0.0 0.0 0.0 -0.0 0.0 3.3523376020745764e-27 1 False False
6701.994 3.712090492248535 -0.825450138454773 0.842992130910055 -1.5882817707457484 -1.5707772413836878 2.141345739364624 0.0 0.0 0.0 -0.0 0.0 0.0 1 False False
6702.044 3.712090492248535 -0.8254385155490418 0.8429887930499476 -1.588297029534811 -1.5707686583148401 2.1412513256073 0.0 0.0 0.0 -0.0 0.0 0.0 1 False False
6702.094 3.7120580673217773 -0.8254716557315369 0.8429845015155237 -1.5883056126036585 -1.5708048979388636 2.1412558555603027 0.0 0.0 0.0 -0.0 0.0 0.0 1 False False
6702.143999999999 3.7120862007141113 -0.82550402105365 0.842992130910055 -1.5882374248900355 -1.5708048979388636 2.141263246536255 0.0 0.0 0.0 -0.0 0.0 0.0 1 False False
6702.1939999999995 3.7120862007141113 -0.8254222434810181 0.8430169264422815 -1.5882774792113246 -1.5707486311541956 2.14123797416687 0.0 0.0 0.0 -0.0 0.0 0.0 1 False False
6702.244 3.712050199508667 -0.8254792851260682 0.8430126349078577 -1.5882536373534144 -1.570801083241598 2.141313076019287 0.0 0.0 0.0 -0.0 0.0 0.0 1 False False
6702.294 3.7120699882507324 -0.825438455944397 0.8429845015155237 -1.5882488689818324 -1.570784870778219 2.1412975788116455 0.0 0.0 0.0 -0.0 0.0 0.0 1 False False
6702.344 3.712099313735962 -0.8254501980594178 0.8430169264422815 -1.588297029534811 -1.570784870778219 2.141263246536255 0.0 0.0 0.0 -0.0 0.0 0.0 1 False False
6702.393999999999 3.7120327949523926 -0.8254501980594178 0.8429721037494105 -1.588285585443014 -1.5707805792437952 2.141286849975586 0.0 0.0 0.0 -0.0 0.0 0.0 1 False False
6702.4439999999995 3.7121024131774902 -0.8254546088031312 0.8430169264422815 -1.5882617435851039 -1.5707805792437952 2.14131760597229 0.0 0.0 0.0 -0.0 0.0 0.0 1 False False
6702.494 3.7120742797851562 -0.8254673641971131 0.8429716269122522 -1.5882889233031214 -1.5707925001727503 2.141291618347168 0.0 0.0 0.0 -0.0 0.0 0.0 1 False False
6702.544 3.7120916843414307 -0.8254416745952149 0.8429887930499476 -1.5883175335326136 -1.570756737385885 2.141279697418213 0.0 0.0 0.0 -0.0 0.0 0.0 1 False False
6702.594 3.7120370864868164 -0.825458900337555 0.8430140654193323 -1.5882331333556117 -1.5707805792437952 2.1413471698760986 0.0 0.0 0.0 -0.0 0.0 0.0 1 False False
6702.643999999999 3.712082862854004 -0.8254673641971131 0.8429935614215296 -1.5882607899107875 -1.5707967917071741 2.141221523284912 0.0 0.0 0.0 -0.0 0.0 0.0 1 False False
6702.6939999999995 3.712110996246338 -0.8254793447307129 0.8429845015155237 -1.5882731876769007 -1.5707686583148401 2.141279697418213 0.0 0.0 0.0 -0.0 0.0 0.0 1 False False
6702.744 3.712062358856201 -0.825512246494629 0.8429673353778284 -1.5882731876769007 -1.5707805792437952 2.141324996948242 0.0 0.0 0.0 -0.0 0.0 0.0 1 False False
6702.794 3.712062358856201 -0.8255199950984498 0.8429630438434046 -1.588285585443014 -1.5707805792437952 2.141287088394165 0.0 0.0 0.0 -0.0 0.0 0.0 1 False False
6702.844 3.7120323181152344 -0.8254997295192261 0.8429845015155237 -1.5882536373534144 -1.570784870778219 2.141313076019287 0.0 0.0 0.0 -0.0 0.0 0.0 1 False False
6702.893999999999 3.7121026515960693 -0.8254869741252442 0.8430126349078577 -1.5882817707457484 -1.570772949849264 2.141326427459717 0.0 0.0 0.0 -0.0 0.0 0.0 1 False False
6702.9439999999995 3.712132453918457 -0.8254146736911316 0.8429802099810999 -1.588297506371969 -1.5707648436175745 2.1413049697875977 0.0 0.0 0.0 -0.0 0.0 0.0 1 False False
6702.994 3.7120907306671143 -0.8255123060992737 0.8429678122149866 -1.5882774792113246 -1.570784870778219 2.141313076019287 0.0 0.0 0.0 -0.0 0.0 0.0 1 False False
6703.044 3.7120935916900635 -0.8254997295192261 0.8429754416095179 -1.588269372979635 -1.570756737385885 2.141313076019287 0.0 0.0 0.0 -0.0 0.0 0.0 1 False False
6703.094 3.712095022201538 -0.8254825633815308 0.8429802099810999 -1.588280817071432 -1.5707891623126429 2.141246795654297 0.0 0.0 0.0 -0.0 0.0 0.0 1 False False
6703.143999999999 3.712106943130493 -0.8254954975894471 0.8429845015155237 -1.5882846317686976 -1.5707686583148401 2.141247034072876 0.0 0.0 0.0 -0.0 0.0 0.0 1 False False
6703.1939999999995 3.712106943130493 -0.8254663509181519 0.8429349104510706 -1.5882569752135218 -1.5708487669574183 2.141308546066284 0.0 0.0 0.0 -0.0 0.0 0.0 1 False False
6703.244 3.712050199508667 -0.825491265659668 0.8430007139789026 -1.5882488689818324 -1.570801083241598 2.1413040161132812 0.0 0.0 0.0 -0.0 0.0 0.0 1 False False
6703.294 3.712078809738159 -0.8254996699145813 0.842971150075094 -1.588273664514059 -1.5708211104022425 2.141209840774536 0.0 0.0 0.0 -0.0 0.0 0.0 1 False False
6703.344 3.712062358856201 -0.8254750531962891 0.8430054823504847 -1.5882817707457484 -1.5707925001727503 2.141324996948242 0.0 0.0 0.0 -0.0 0.0 0.0 1 False False
6703.393999999999 3.712078809738159 -0.8254869741252442 0.8430007139789026 -1.588280817071432 -1.5707805792437952 2.1412723064422607 0.0 0.0 0.0 -0.0 0.0 0.0 1 False False
6703.4439999999995 3.712083101272583 -0.825483576660492 0.8430174032794397 -1.5883614025511683 -1.5707686583148401 2.141267776489258 0.0 0.0 0.0 -0.0 0.0 0.0 1 False False
6703.494 3.7120578289031982 -0.825512246494629 0.8430174032794397 -1.588269372979635 -1.5707767645465296 2.141279697418213 0.0 0.0 0.0 -0.0 0.0 0.0 1 False False
6703.544 3.71207857131958 -0.8254877489856263 0.8430007139789026 -1.5882607899107875 -1.5708406607257288 2.141267776489258 0.0 0.0 0.0 -0.0 0.0 0.0 1 False False
6703.594 3.7120368480682373 -0.8254835170558472 0.8429978529559534 -1.588280817071432 -1.5707724730121058 2.141287088394165 0.0 0.0 0.0 -0.0 0.0 0.0 1 False False
6703.643999999999 3.7120742797851562 -0.8254912060550232 0.842987362538473 -1.588292738000387 -1.570813004170553 2.141291618347168 0.0 0.0 0.0 -0.0 0.0 0.0 1 False False
6703.6939999999995 3.712066888809204 -0.8254621785930176 0.8429515997516077 -1.5883008442320765 -1.5707891623126429 2.141313076019287 0.0 0.0 0.0 -0.0 0.0 0.0 1 False False
6703.744 3.7121026515960693 -0.8255037826350708 0.8429606596576136 -1.5882374248900355 -1.5707724730121058 2.141254186630249 0.0 0.0 0.0 -0.0 0.0 0.0 1 False False
6703.794 3.71205472946167 -0.8255531948855896 0.8429473082171839 -1.5882889233031214 -1.570723835621969 2.141313076019287 0.0 0.0 0.0 -0.0 0.0 0.0 1 False False
6703.844 3.712045669555664 -0.8254674834064026 0.8429673353778284 -1.5883094273009242 -1.5708254019366663 2.141279697418213 0.0 0.0 0.0 -0.0 0.0 0.0 1 False False
6703.893999999999 3.7121071815490723 -0.8254707616618653 0.8429978529559534 -1.5882498226561488 -1.5707767645465296 2.1412768363952637 0.0 0.0 0.0 -0.0 0.0 0.0 1 False False
6703.9439999999995 3.712050199508667 -0.8254716557315369 0.8429754416095179 -1.5883051357665003 -1.5708044211017054 2.14127516746521 0.0 0.0 0.0 -0.0 0.0 0.0 1 False False
6703.994 3.712062358856201 -0.8254739803126832 0.8430007139789026 -1.5883051357665003 -1.570784870778219 2.1413204669952393 0.0 0.0 0.0 -0.0 0.0 0.0 1 False False
6704.044 3.712029218673706 -0.8255037826350708 0.8430007139789026 -1.5883094273009242 -1.5708168188678187 2.1412603855133057 0.0 0.0 0.0 -0.0 0.0 0.0 1 False False
6704.094 3.712083339691162 -0.825524167423584 0.8429811636554163 -1.588269372979635 -1.5707839171039026 2.141333818435669 0.0 0.0 0.0 -0.0 0.0 0.0 1 False False
6704.143999999999 3.7120907306671143 -0.825458900337555 0.842971150075094 -1.5882774792113246 -1.570772949849264 2.1412885189056396 0.0 0.0 0.0 -0.0 0.0 0.0 1 False False
6704.1939999999995 3.7120323181152344 -0.8254469794085999 0.8430021444903772 -1.588320871392721 -1.5707643667804163 2.1412484645843506 -0.0 0.0 0.0 -0.0 0.0 0.0 1 False False
6704.244 3.712078809738159 -0.825458900337555 0.8430007139789026 -1.5882770023741664 -1.5707967917071741 2.141296148300171 0.0 0.0 0.0 -0.0 0.0 0.0 1 False False
6704.294 3.7121071815490723 -0.8255157035640259 0.8429301420794886 -1.5883013210692347 -1.5707648436175745 2.141308546066284 0.0 0.0 0.0 -0.0 0.0 0.0 1 False False
6704.344 3.712095260620117 -0.8254706424525757 0.8429721037494105 -1.5883165798582972 -1.570784870778219 2.1412007808685303 0.0 0.0 0.0 -0.0 0.0 0.0 1 False False
6704.393999999999 3.7120487689971924 -0.825454370384552 0.8429802099810999 -1.5882612667479457 -1.5708449522601526 2.141249895095825 0.0 0.0 0.0 -0.0 0.0 0.0 1 False False
6704.4439999999995 3.712062358856201 -0.825495795612671 0.8429630438434046 -1.5883051357665003 -1.5707934538470667 2.141284227371216 0.0 0.0 0.0 -0.0 0.0 0.0 1 False False
6704.494 3.7120490074157715 -0.8254409593394776 0.8429802099810999 -1.588297029534811 -1.5707967917071741 2.141235113143921 0.0 0.0 0.0 -0.0 0.0 0.0 1 False False
6704.544 3.712116003036499 -0.825495795612671 0.8429802099810999 -1.5882817707457484 -1.5708006064044397 2.141263246536255 0.0 0.0 0.0 -0.0 0.0 0.0 1 False False
6704.594 3.712029218673706 -0.8254304689219971 0.8429887930499476 -1.5882774792113246 -1.5707686583148401 2.141308546066284 0.0 0.0 0.0 -0.0 0.0 0.0 1 False False
6704.643999999999 3.7120203971862793 -0.8254750531962891 0.8429606596576136 -1.5883218250670375 -1.5707967917071741 2.141221523284912 0.0 0.0 0.0 -0.0 0.0 0.0 1 False False
6704.6939999999995 3.7120742797851562 -0.8254904907992859 0.8429964224444788 -1.588280817071432 -1.5707767645465296 2.141313076019287 0.0 0.0 0.0 -0.0 0.0 0.0 1 False False
6704.744 3.712078809738159 -0.8255215448192139 0.8429191748248499 -1.5883013210692347 -1.570784870778219 2.141321897506714 1.5368133014085538e-16 0.0 0.0 -0.0 0.0 0.0 1 False False
6704.794 3.712095260620117 -0.8254957360080262 0.8430097738849085 -1.5883375606932582 -1.5707967917071741 2.14127516746521 0.0 0.0 0.0 -0.0 0.0 0.0 1 False False
6704.844 3.712095260620117 -0.8254380387118836 0.8429630438434046 -1.5882569752135218 -1.5707767645465296 2.1413049697875977 0.0 0.0 0.0 -0.0 0.0 0.0 1 False False
6704.893999999999 3.7120532989501953 -0.8254217070392151 0.8430498282061976 -1.588280817071432 -1.570801083241598 2.141308546066284 0.0 0.0 0.0 -0.0 0.0 0.0 1 False False
6704.9439999999995 3.7120578289031982 -0.8254869741252442 0.8429887930499476 -1.5882488689818324 -1.570784870778219 2.14131760597229 0.0 0.0 0.0 -0.0 0.0 0.0 1 False False
6704.994 3.7120907306671143 -0.8254994314960022 0.8429678122149866 -1.5882932148375453 -1.5707572142230433 2.1412975788116455 0.0 0.0 0.0 -0.0 0.0 0.0 1 False False
6705.044 3.712036609649658 -0.8254749935916443 0.8430288473712366 -1.5883084736266078 -1.5707967917071741 2.141247034072876 0.0 0.0 0.0 -0.0 0.0 0.0 1 False False
6705.094 3.7120771408081055 -0.8254869741252442 0.8430097738849085 -1.5882774792113246 -1.5707929770099085 2.1412513256073 0.0 0.0 0.0 -0.0 0.0 0.0 1 False False
6705.143999999999 3.712116003036499 -0.8254423898509522 0.8429678122149866 -1.5883332691588343 -1.570784870778219 2.141321897506714 0.0 0.0 0.0 -0.0 0.0 0.0 1 False False
6705.1939999999995 3.7120697498321533 -0.8254615825465699 0.8429763952838343 -1.5883013210692347 -1.5708168188678187 2.1412723064422607 0.0 0.0 0.0 -0.0 0.0 0.0 1 False False
6705.244 3.7120490074157715 -0.8255039614490052 0.8429802099810999 -1.5882846317686976 -1.5707886854754847 2.141279697418213 0.0 0.0 0.0 -0.0 0.0 0.0 1 False False
6705.294 3.7120490074157715 -0.825470582847931 0.8429587523089808 -1.5882650814452113 -1.5708006064044397 2.1412723064422607 0.0 0.0 0.0 -0.0 0.0 0.0 1 False False
6705.344 3.7120862007141113 -0.8254869741252442 0.8429759184466761 -1.5882889233031214 -1.5707572142230433 2.141313076019287 0.0 0.0 0.0 -0.0 0.0 0.0 1 False False
6705.393999999999 3.7120816707611084 -0.8254380387118836 0.8429878393756312 -1.588245531121725 -1.5707967917071741 2.141235113143921 0.0 0.0 0.0 -0.0 0.0 0.0 1 False False
6705.4439999999995 3.7120907306671143 -0.8254543107799073 0.8430336157428187 -1.5882727108397425 -1.5707886854754847 2.14127516746521 0.0 0.0 0.0 -0.0 0.0 0.0 1 False False
6705.494 3.712062358856201 -0.8254706424525757 0.8429845015155237 -1.5882846317686976 -1.5707929770099085 2.1413049697875977 0.0 0.0 0.0 -0.0 0.0 0.0 1 False False
6705.544 3.7120609283447266 -0.8254763644984742 0.8429635206805628 -1.588292738000387 -1.570784870778219 2.141254186630249 0.0 0.0 0.0 -0.0 0.0 0.0 1 False False
6705.594 3.712123394012451 -0.8254905504039307 0.842931095753805 -1.5882731876769007 -1.5707648436175745 2.141226291656494 0.0 0.0 0.0 -0.0 0.0 0.0 1 False False
6705.643999999999 3.7120490074157715 -0.8254706424525757 0.8429887930499476 -1.5882889233031214 -1.5707967917071741 2.141287088394165 0.0 0.0 0.0 -0.0 0.0 0.0 1 False False
6705.744 3.7120697498321533 -0.8254217070392151 0.8429964224444788 -1.5882889233031214 -1.5707886854754847 2.141338348388672 0.0 0.0 0.0 -0.0 0.0 0.0 1 False False
6705.794 3.7120697498321533 -0.8254497808269043 0.8430126349078577 -1.5882650814452113 -1.570853058491842 2.141279697418213 0.0 0.0 0.0 -0.0 0.0 0.0 1 False False
6705.844 3.7120742797851562 -0.8255483073047181 0.8429964224444788 -1.5883051357665003 -1.5707891623126429 2.1413040161132812 0.0 0.0 0.0 -0.0 0.0 0.0 1 False False
6705.893999999999 3.712095022201538 -0.825495795612671 0.8430135885821741 -1.5882607899107875 -1.5707648436175745 2.141258955001831 0.0 0.0 0.0 -0.0 0.0 0.0 1 False False
6705.9439999999995 3.712099552154541 -0.825524703865387 0.8430212179767054 -1.5882607899107875 -1.5708048979388636 2.141263246536255 0.0 0.0 0.0 -0.0 0.0 0.0 1 False False
6705.994 3.712045669555664 -0.8254779738238831 0.8430007139789026 -1.588245531121725 -1.5707486311541956 2.141291618347168 0.0 0.0 0.0 -0.0 0.0 0.0 1 False False
6706.044 3.7120578289031982 -0.8255528968623658 0.8429930845843714 -1.588313718835348 -1.570756737385885 2.1413140296936035 0.0 0.0 0.0 -0.0 0.0 0.0 1 False False
6706.094 3.7120368480682373 -0.825454370384552 0.8430374304400843 -1.588313718835348 -1.5708091894732874 2.141270637512207 0.0 0.0 0.0 -0.0 0.0 0.0 1 False False
6706.143999999999 3.7120862007141113 -0.8254869741252442 0.8429802099810999 -1.588285585443014 -1.5707925001727503 2.141291618347168 0.0 0.0 0.0 -0.0 0.0 0.0 1 False False
6706.1939999999995 3.7120580673217773 -0.8254380387118836 0.8429887930499476 -1.5882932148375453 -1.5707362333880823 2.141326427459717 0.0 0.0 0.0 -0.0 0.0 0.0 1 False False
6706.244 3.7121024131774902 -0.8255039614490052 0.8429549376117151 -1.588313718835348 -1.5707605520831507 2.141279697418213 0.0 0.0 0.0 -0.0 0.0 0.0 1 False False
6706.294 3.712062358856201 -0.8254587215236207 0.8429759184466761 -1.5882932148375453 -1.5707648436175745 2.141287088394165 0.0 0.0 0.0 -0.0 0.0 0.0 1 False False
6706.344 3.7120413780212402 -0.8255410355380555 0.8429630438434046 -1.5882774792113246 -1.5707610289203089 2.141284227371216 0.0 0.0 0.0 -0.0 0.0 0.0 1 False False
6706.393999999999 3.71207857131958 -0.8254735630801697 0.8429997603045862 -1.5882774792113246 -1.5707767645465296 2.1412975788116455 0.0 0.0 0.0 -0.0 0.0 0.0 1 False False
6706.4439999999995 3.712083101272583 -0.8254794639400025 0.8429759184466761 -1.5883051357665003 -1.5707724730121058 2.141322135925293 0.0 0.0 0.0 -0.0 0.0 0.0 1 False False
6706.494 3.71207857131958 -0.8254913252643128 0.8429721037494105 -1.5882774792113246 -1.570801083241598 2.141270637512207 0.0 0.0 0.0 -0.0 0.0 0.0 1 False False
6706.544 3.712095022201538 -0.8254587215236207 0.8430541197406214 -1.5883051357665003 -1.5708087126361292 2.141322135925293 0.0 0.0 0.0 -0.0 0.0 0.0 1 True False
6706.594 3.7121429443359375 -0.8255068820765992 0.8430245558368128 -1.5882607899107875 -1.5707362333880823 2.141197681427002 0.003923509269952774 -0.003261648816987872 0.004985285457223654 -0.0 0.0 -0.0035307712387293577 1 True False
6706.643999999999 3.712632894515991 -0.8259474200061341 0.8437674681292933 -1.588445325891012 -1.5707767645465296 2.140624523162842 0.01819015108048916 -0.017617303878068924 0.025129733607172966 -0.006532978732138872 0.0 -0.021458441391587257 1 True False
6706.6939999999995 3.7137930393218994 -0.8275948923877259 0.8457806746112269 -1.5890552006163539 -1.570801083241598 2.1389951705932617 0.03431517630815506 -0.045202020555734634 0.0618322491645813 -0.013126685284078121 0.0 -0.04557565227150917 1 True False
6706.744 3.7161810398101807 -0.8308156889728089 0.8502839247332972 -1.5900312862791957 -1.5707605520831507 2.1357386112213135 0.06336140632629395 -0.08861532062292099 0.11406902223825455 -0.025188857689499855 0.0 -0.0847664326429367 1 True False
6706.794 3.7202236652374268 -0.836516336803772 0.8576300779925745 -1.5921102962889613 -1.5708654562579554 2.130124807357788 0.1005234494805336 -0.13921664655208588 0.18643388152122498 -0.04540393874049187 0.0 -0.13791248202323914 1 True False
6706.844 3.726627826690674 -0.8450921934894104 0.8691032568560999 -1.594677587548727 -1.570784870778219 2.121443748474121 0.14826005697250366 -0.19558292627334595 0.2669663727283478 -0.0738459974527359 0.0 -0.19857157766819 1 True False
6706.893999999999 3.735093116760254 -0.8566022676280518 0.8843744436847132 -1.5985132656493128 -1.5707925001727503 2.1098928451538086 0.1898462325334549 -0.254230797290802 0.3363052308559418 -0.09028643369674683 0.0 -0.25994688272476196 1 True False
6706.9439999999995 3.7455523014068604 -0.8706027430346985 0.9030841032611292 -1.6030103168883265 -1.570784870778219 2.0955748558044434 0.22675825655460358 -0.3049696683883667 0.40744107961654663 -0.09728994220495224 0.0 -0.3092145025730133 1 True False
6706.994 3.757761240005493 -0.8872434061816712 0.9251874128924769 -1.6086093387999476 -1.5708168188678187 2.0787739753723145 0.2679101824760437 -0.3600538671016693 0.4787363111972809 -0.11164319515228271 0.0 -0.36768463253974915 1 True False
6707.044 3.7722861766815186 -0.9067182701877137 0.9509885946856897 -1.6149527035155238 -1.5707767645465296 2.059037446975708 0.3016963303089142 -0.4090184271335602 0.5438936352729797 -0.1269300878047943 8.589847055873179e-09 -0.4117017686367035 1 True False
6707.094 3.7883012294769287 -0.9285691541484375 0.9801567236529749 -1.6222931347289027 -1.5708087126361292 2.0369150638580322 0.345903605222702 -0.46638023853302 0.6144101023674011 -0.14423790574073792 1.3047996261738695e-27 -0.4735390245914459 1 True False
6707.143999999999 3.8067095279693604 -0.9534108203700562 1.012810532246725 -1.6303512058653773 -1.5707925001727503 2.0121004581451416 0.3819306492805481 -0.5244132876396179 0.6810749769210815 -0.15668164193630219 0.0 -0.5266879796981812 1 True False
6707.1939999999995 3.826488733291626 -0.9803534311107178 1.048941437398092 -1.6391369305052699 -1.5707605520831507 1.9844268560409546 0.4196125864982605 -0.5709404349327087 0.7537263035774231 -0.17689169943332672 1.0597162145131733e-05 -0.5727558135986328 1 True False
6707.244 3.84883975982666 -1.0103282493403931 1.0885265509234827 -1.649107118646139 -1.5707610289203089 1.9543203115463257 0.45932769775390625 -0.6209741234779358 0.8227595686912537 -0.21816183626651764 8.930125477490947e-05 -0.6305677890777588 1 True False
6707.294 3.8729288578033447 -1.0426377219012757 1.1317914167987269 -1.659750600854391 -1.5707648436175745 1.9214119911193848 0.5029523372650146 -0.6777642369270325 0.8919234871864319 -0.2204207479953766 0.0003001560689881444 -0.6817264556884766 1 True False
6707.344 3.8986408710479736 -1.077848420744278 1.1783579031573694 -1.671171327630514 -1.5708044211017054 1.885983943939209 0.5345224142074585 -0.7308779954910278 0.9662227630615234 -0.23439916968345642 -6.667539128102362e-05 -0.7389257550239563 1 True False
6707.393999999999 3.9266440868377686 -1.1155625444701691 1.2284300963031214 -1.6838656864561976 -1.5707925001727503 1.8477662801742554 0.5694583654403687 -0.7833824753761292 1.0275886058807373 -0.2758006155490875 8.055422440200743e-10 -0.7925527095794678 1 True False
6707.4439999999995 3.955756664276123 -1.1549131137183686 1.2807782332049769 -1.6966363392271937 -1.5707686583148401 1.8078356981277466 0.5789591073989868 -0.7835508584976196 1.0499229431152344 -0.26636627316474915 -0.0010604863055050373 -0.7967763543128967 1 True False
6707.494 3.984973907470703 -1.194359616642334 1.3332045714007776 -1.7094208202757777 -1.5707972685443323 1.768042802810669 0.5853193402290344 -0.7849552631378174 1.048964500427246 -0.24367289245128632 -8.151165275194217e-06 -0.7935194373130798 1 True False
6707.544 4.0140862464904785 -1.2336990696242829 1.3855069319354456 -1.7226044140257777 -1.5708044211017054 1.7280874252319336 0.5817631483078003 -0.792494535446167 1.0387307405471802 -0.27337947487831116 2.4637452966658202e-08 -0.7985432744026184 1 True False
6707.594 4.043252944946289 -1.2731558841517945 1.4376967589007776 -1.7354432545103968 -1.5707486311541956 1.6881895065307617 0.5819153785705566 -0.7849613428115845 1.0458199977874756 -0.2652282416820526 3.742434327124222e-27 -0.8047538995742798 1 True False
6707.643999999999 4.072397232055664 -1.3125729721835633 1.4902804533587855 -1.7484799824156703 -1.5707891623126429 1.6483367681503296 0.5878375768661499 -0.786166787147522 1.0495398044586182 -0.23170939087867737 6.108488742029294e-05 -0.7929280996322632 1 True False
6707.6939999999995 4.101561546325684 -1.3520120245269318 1.5426424185382288 -1.7614327869811 -1.5707686583148401 1.6084338426589966 0.5880993604660034 -0.7858836054801941 1.0489041805267334 -0.2597799003124237 0.0006206065299920738 -0.7976182699203491 1 True False
6707.744 4.130768299102783 -1.3913834703019639 1.594938103352682 -1.7742687664427699 -1.5707610289203089 1.568664312362671 0.5877930521965027 -0.7924642562866211 1.050652265548706 -0.2653634250164032 0.00028579746140167117 -0.8033971786499023 1 True False
6707.794 4.160002708435059 -1.4307590884021302 1.647294823323385 -1.787342210809225 -1.5707443396197718 1.5286568403244019 0.5791080594062805 -0.7810695171356201 1.0429657697677612 -0.25372496247291565 0.0011767999967560172 -0.7928990125656128 1 True False
6707.844 4.1878275871276855 -1.4685005781105538 1.6975863615619105 -1.7997976742186488 -1.5707486311541956 1.4904110431671143 0.5435620546340942 -0.730431079864502 0.9667642712593079 -0.24416153132915497 0.0007683491567149758 -0.7354738712310791 1 True False
6707.893999999999 4.2139129638671875 -1.5037545424750824 1.7442839781390589 -1.8111869297423304 -1.5708368460284632 1.454896092414856 0.50311279296875 -0.67550128698349 0.9143063426017761 -0.19366243481636047 -0.00015047352644614875 -0.6884410381317139 1 True False
6707.9439999999995 4.237798690795898 -1.5363022622517128 1.787393871937887 -1.8220769367613734 -1.5708406607257288 1.4219144582748413 0.4677106738090515 -0.6210402846336365 0.8342760801315308 -0.2054247409105301 -0.0006271899328567088 -0.638850748538971 1 True False
6707.994 4.259793281555176 -1.5661349783516307 1.8273256460772913 -1.8319035969176234 -1.5708854834186 1.3915863037109375 0.42355358600616455 -0.5712775588035583 0.7623949646949768 -0.18151628971099854 -0.0007562718237750232 -0.5773741006851196 1 True False
6708.044 4.280198097229004 -1.5935684643187464 1.8636215368853968 -1.840745588342184 -1.5708492437945765 1.3639287948608398 0.37785688042640686 -0.514240026473999 0.6983944773674011 -0.16699494421482086 -0.0017786616226658225 -0.5264209508895874 1 True False
6708.094 4.298476696014404 -1.6180931530394496 1.8962858358966272 -1.8490025005736292 -1.5707767645465296 1.3389097452163696 0.3478548526763916 -0.4665990471839905 0.6255689263343811 -0.148182675242424 -0.00017469546583015472 -0.4739176630973816 1 True False
6708.143999999999 4.314856052398682 -1.640303751031393 1.9256108442889612 -1.8562962017455042 -1.5708335081683558 1.316660761833191 0.30521801114082336 -0.4099111258983612 0.5471095442771912 -0.12834586203098297 -2.2329506880605547e-22 -0.4243117570877075 1 True False
6708.1939999999995 4.329202175140381 -1.6597854099669398 1.9514525572406214 -1.862765451470846 -1.5707686583148401 1.2969651222229004 0.2714276909828186 -0.3623366057872772 0.4769720733165741 -0.1233968660235405 5.5021293519530445e-05 -0.36727622151374817 1 True False
6708.244 4.341664791107178 -1.6762949428954066 1.9736688772784632 -1.8681360683836878 -1.570813004170553 1.2800544500350952 0.22848185896873474 -0.3143012225627899 0.41277796030044556 -0.1150771975517273 -1.1933603616398614e-07 -0.3151801824569702 1 True False
6708.294 4.352095603942871 -1.69067444423818 1.992488209401266 -1.8728066883482875 -1.5708368460284632 1.2657274007797241 0.19373652338981628 -0.25775086879730225 0.3405941426753998 -0.08988918364048004 -1.812717619280332e-26 -0.26326772570610046 1 True False
6708.344 4.3606276512146 -1.702174802819723 2.007932964955465 -1.8766404591002406 -1.570784870778219 1.253976821899414 0.15347090363502502 -0.20425739884376526 0.27658742666244507 -0.05876718834042549 -2.802596928649634e-45 -0.21190614998340607 1 True False
6708.393999999999 4.367299556732178 -1.7111145458617152 2.01970082918276 -1.8794666729369105 -1.5707967917071741 1.2449315786361694 0.11190912127494812 -0.1566953808069229 0.19872906804084778 -0.05538972094655037 -0.0 -0.15225538611412048 1 True False
6708.4439999999995 4.371872425079346 -1.7173377476134242 2.0281899611102503 -1.8815938434996546 -1.5708087126361292 1.238587737083435 0.07622944563627243 -0.09765926003456116 0.13488662242889404 -0.03453509882092476 -0.0 -0.10452470928430557 1 True False
6708.494 4.374614238739014 -1.7210022411742152 2.03294545808901 -1.8827983341612757 -1.5707891623126429 1.2348371744155884 0.03596511110663414 -0.04597628489136696 0.06591252237558365 -0.013755914755165577 -0.0 -0.04880882799625397 1 True False
6708.544 4.375333309173584 -1.7220436535277308 2.0343478361712855 -1.8830653629698695 -1.5707891623126429 1.2338380813598633 -0.0032814720179885626 0.004851687233895063 0.006222771946340799 3.782297790166922e-05 -0.0 -0.000648456800263375 1 True False
6708.594 4.375313758850098 -1.7213293514647425 2.0357969442950647 -1.8852492771544398 -1.5707886854754847 1.233850359916687 0.000418608367908746 0.02644903026521206 0.04777573049068451 -0.07282153517007828 -0.0 -0.00011755052400985733 1 True False
6708.643999999999 4.375325679779053 -1.7192145786681117 2.039363209401266 -1.8909226856627406 -1.570853058491842 1.233802080154419 0.00046703193220309913 0.05784729868173599 0.0939086526632309 -0.13759303092956543 -0.0 -0.0009425869793631136 1 True False
6708.6939999999995 4.3753662109375 -1.7157350979247035 2.044877354298727 -1.9000398121275843 -1.5708168188678187 1.2337905168533325 0.00046390140778385103 0.08305275440216064 0.13157884776592255 -0.20542575418949127 -0.0 -0.0002579246647655964 1 True False
6708.744 4.375406265258789 -1.7109557590880335 2.052633587514059 -1.9126173458495082 -1.5707724730121058 1.2338066101074219 0.00032140107941813767 0.10628713667392731 0.17741286754608154 -0.28773391246795654 -0.0 -0.00015327907749451697 1 True False
6708.794 4.375401973724365 -1.704735895196432 2.0626452604876917 -1.9286843738951625 -1.5707767645465296 1.2338289022445679 0.00027228760882280767 0.133877232670784 0.21833382546901703 -0.35252290964126587 -0.0 -0.00011523933062562719 1 True False
6708.844 4.375380992889404 -1.6972195110716761 2.0749905745135706 -1.9482370815672816 -1.5708254019366663 1.2337874174118042 0.00015188506222330034 0.1629701405763626 0.26626259088516235 -0.4228052496910095 -0.0 -7.932828884804621e-05 1 True False
6708.893999999999 4.375385284423828 -1.6885682545103968 2.088888470326559 -1.9713698826231898 -1.5707610289203089 1.2337815761566162 8.838403300615028e-05 0.18545688688755035 0.30870023369789124 -0.4903111159801483 6.586015661014244e-05 -2.299463211800825e-15 1 True False
6708.9439999999995 4.375401973724365 -1.678476949731344 2.1056206862079065 -1.9978772602477015 -1.5707967917071741 1.2338110208511353 5.927759411861189e-05 0.21463389694690704 0.34299436211586 -0.5605347752571106 3.280338351318045e-22 -3.49289008714975e-34 1 True False
6708.994 4.375433444976807 -1.6671420536436976 2.1237791220294397 -2.0276996097960414 -1.570756737385885 1.2337830066680908 1.2191940200018397e-25 0.22742849588394165 0.3689722418785095 -0.5950724482536316 4.982877209292617e-41 -0.0 1 True False
6709.044 4.375367641448975 -1.6561256847777308 2.141590420399801 -2.055946489373678 -1.5707686583148401 1.233794927597046 0.0 0.20003771781921387 0.3269386291503906 -0.5371806621551514 0.0 -0.0 1 True False
6709.094 4.375397205352783 -1.646740575829977 2.1566222349749964 -2.080851217309469 -1.5707967917071741 1.2337785959243774 0.0 0.17931905388832092 0.2925240099430084 -0.45444193482398987 0.0 -0.0 1 True False
6709.143999999999 4.375360012054443 -1.6386157474913539 2.1700409094439905 -2.102250715295309 -1.5707805792437952 1.2338155508041382 0.0 0.15172024071216583 0.24210476875305176 -0.3864104151725769 0.0 -0.0 1 True False
6709.1939999999995 4.375434398651123 -1.6318093738951625 2.180971924458639 -2.120208879510397 -1.5708048979388636 1.2337830066680908 0.0 0.12081940472126007 0.19774408638477325 -0.32599762082099915 0.0 -0.0 1 True False
6709.244 4.375439167022705 -1.626176496545309 2.1899426619159144 -2.1346012554564417 -1.5707805792437952 1.2337756156921387 0.0 0.09457308053970337 0.16042031347751617 -0.2631734013557434 0.0 -0.0 1 True False
6709.294 4.375367641448975 -1.622063776055807 2.1968920866595667 -2.145445486108297 -1.5707724730121058 1.2337710857391357 2.1626239199924902e-41 0.06950362026691437 0.11979766190052032 -0.1969129741191864 0.0 -0.0 1 True False
6709.344 4.375434875488281 -1.6193458042540492 2.201343361531393 -2.152987619439596 -1.5707529226886194 1.233818769454956 0.0 0.04557613655924797 0.06980817764997482 -0.11791900545358658 0.0 -0.0 1 True False
6709.393999999999 4.375434875488281 -1.617753644982809 2.203810993825094 -2.156699319879049 -1.570829216633932 1.2337532043457031 0.0 0.01628909260034561 0.028745079413056374 -0.04541340097784996 0.0 -0.0 1 True False
6709.4439999999995 4.3753557205200195 -1.6175834141173304 2.20421010652651 -2.1574531994261683 -1.5707972685443323 1.2337905168533325 0.0 -0.00012019624409731477 1.437734820086689e-09 0.00047265266766771674 0.0 -0.0 1 True False
6709.494 4.375360012054443 -1.6175338230528773 2.2041805426227015 -2.1574613056578578 -1.5707925001727503 1.2337543964385986 0.0 0.0 3.3831408694347626e-39 9.975618109336892e-10 0.0 -0.0 1 True False
6709.544 4.3753886222839355 -1.6175576649107875 2.2041967550860804 -2.157433172265524 -1.5708091894732874 1.2337665557861328 0.0 0.0001504961255704984 0.0 1.515298448713923e-28 0.0 -0.0 1 True False
6709.594 4.375409126281738 -1.617601057092184 2.20420486131777 -2.1574255428709925 -1.5707967917071741 1.2337830066680908 0.0 0.0003122296475339681 0.00010223645222140476 0.0 0.0 -0.0 1 True False
6709.643999999999 4.375409126281738 -1.6174975834288539 2.204249684010641 -2.1574531994261683 -1.5707610289203089 1.2338038682937622 0.0 0.00023123213031794876 0.00014119477418716997 -0.00014801941870246083 0.0 -0.0 1 True False
6709.6939999999995 4.375397205352783 -1.6174947224059046 2.204212490712301 -2.157501836816305 -1.5707686583148401 1.2337247133255005 0.0 0.0001911099680000916 0.0001329992664977908 -0.0003306718426756561 0.0 -0.0 1 True False
6709.744 4.375415325164795 -1.617502351800436 2.204232994710104 -2.157497545281881 -1.570784870778219 1.233778476715088 0.0 0.0001300481235375628 0.0001071010046871379 -0.0001605104625923559 0.0 -0.0 1 True False
6709.794 4.375385284423828 -1.6175185642638148 2.2042210737811487 -2.1575457058348597 -1.5708211104022425 1.2337710857391357 0.0 8.11752033769153e-05 9.546557703288272e-05 -0.00012221129145473242 0.0 -0.0 1 True False
6709.844 4.375364780426025 -1.617502351800436 2.204261128102438 -2.1574775181212367 -1.5707767645465296 1.2337905168533325 0.0 3.786643355851993e-05 6.772523920517415e-05 -9.382734424434602e-05 0.0 -0.0 1 True False
6709.893999999999 4.375409126281738 -1.6174527607359828 2.20420486131777 -2.1574813328185023 -1.5708335081683558 1.233757734298706 0.0 8.183286550330772e-17 3.898303475580178e-06 -3.3565891044418095e-06 0.0 -0.0 1 True False
6709.9439999999995 4.375409126281738 -1.6174694500365199 2.204244915639059 -2.1575213871397914 -1.5708254019366663 1.2338277101516724 0.0 0.0 9.173118394872238e-36 -5.098666382389859e-25 0.0 -0.0 1 True False
6709.994 4.375430107116699 -1.617472311059469 2.204244915639059 -2.1574980221190394 -1.5707805792437952 1.2337111234664917 0.0 0.0 7.321648922697932e-07 -7.707141553786494e-44 0.0 -0.0 1 True False
6710.044 4.375339031219482 -1.6175562343993128 2.2042210737811487 -2.15756954769277 -1.5707967917071741 1.2337830066680908 0.0 0.0 1.722861171586837e-36 -0.0 0.0 -0.0 1 True False
6710.094 4.375421047210693 -1.6175276241698207 2.204224411641256 -2.15748991588735 -1.5708168188678187 1.23379647731781 0.0 0.0 0.0 -0.0 0.0 -0.0 1 True False
6710.143999999999 4.375425815582275 -1.6174828014769496 2.20422870317568 -2.157553812066549 -1.5707767645465296 1.2338083982467651 0.0 0.0 -1.8854081081724684e-22 -0.0 0.0 -0.0 1 True False
6710.1939999999995 4.37539005279541 -1.6174570522704066 2.204240624104635 -2.157457014123434 -1.5707967917071741 1.2337498664855957 0.0 0.0 -0.0 -0.0 0.0 -0.0 1 True False
6710.244 4.375385284423828 -1.6174737415709437 2.20422870317568 -2.157497545281881 -1.5708254019366663 1.2337874174118042 -1.4794818064712301e-24 0.0 -0.0 -0.0 0.0 -0.0 1 True False
6710.294 4.375397205352783 -1.617498060266012 2.204200569783346 -2.157549043694967 -1.570772949849264 1.233823299407959 0.0 0.0 -0.0 -3.645163360488368e-06 0.0 -0.0 1 True False
6710.344 4.375425815582275 -1.6174904308714808 2.204261128102438 -2.157537122766012 -1.570801083241598 1.2337532043457031 -1.463843993806107e-17 -2.662035814117617e-35 7.809262125846317e-10 -1.7163553564514267e-11 0.0002957083925139159 0.00011907775478903204 1 True False
6710.393999999999 4.375364780426025 -1.6174990139403285 2.2042039076434534 -2.157541414300436 -1.5708406607257288 1.2337994575500488 0.0 4.447201773505327e-10 1.837602550281599e-39 -2.607148104756557e-30 5.269099347060546e-05 5.662542753270827e-05 1 True False
6710.4439999999995 4.375369071960449 -1.6175319157042445 2.2042492071734827 -2.157529493371481 -1.5708168188678187 1.2337905168533325 0.0 0.0 0.0 -0.0 3.0423334465012886e-05 3.714732520165853e-05 1 True False
6710.494 4.375425815582275 -1.6174527607359828 2.2042158285724085 -2.1574937305846156 -1.5708540121661585 1.2338154315948486 0.0 0.0 0.0 -0.0 2.1386242224252783e-05 6.771768562563452e-11 1 True False
6710.544 4.3753437995910645 -1.6174947224059046 2.204256836568014 -2.157469411889547 -1.5707648436175745 1.2337665557861328 0.0 0.0 0.0 -0.0 1.531769310163546e-19 1.0286334656927003e-29 1 True False
6710.594 4.375364780426025 -1.6175319157042445 2.2042210737811487 -2.157557626763815 -1.5707891623126429 1.2338110208511353 0.0 0.0 0.0 1.0809324990646019e-08 2.3267603913262454e-38 0.0 1 True False
6710.643999999999 4.375331878662109 -1.6174828014769496 2.2043054739581507 -2.1575457058348597 -1.570801083241598 1.2338066101074219 0.0 0.0 0.0 1.6419386703567105e-27 0.0 0.0 1 True False
6710.6939999999995 4.375397205352783 -1.6174990139403285 2.204256836568014 -2.1575333080687464 -1.570813004170553 1.2337696552276611 0.0 0.0 0.0 0.0 0.0 0.0 1 True False
6710.744 4.3754472732543945 -1.6175185642638148 2.204179588948385 -2.1574894390501917 -1.570784870778219 1.233774185180664 0.0 0.0 -1.9561987440021232e-21 0.0 0.0 0.0 1 True False
6710.794 4.375395774841309 -1.6174785099425257 2.2042039076434534 -2.1574775181212367 -1.5707925001727503 1.2338066101074219 0.0 0.0 -0.0 0.0 0.0 0.0 1 True False
6710.844 4.375371932983398 -1.617460390130514 2.2042201201068323 -2.1575213871397914 -1.570784870778219 1.2337976694107056 0.0 0.0 -1.4237550203688443e-05 0.0 0.0 0.0 1 True False
6710.893999999999 4.375422477722168 -1.6175276241698207 2.204244915639059 -2.1574655971922816 -1.5708487669574183 1.2337874174118042 0.0 0.0 -2.3701670215814374e-05 0.0 0.0 0.0 1 True False
6710.9439999999995 4.37539005279541 -1.6175319157042445 2.2042201201068323 -2.1576057873167933 -1.570801083241598 1.2337696552276611 0.0 0.0 -2.858373954950366e-05 0.0 0.0 0.0 1 True False
6710.994 4.3753557205200195 -1.6174904308714808 2.2042482534991663 -2.1575457058348597 -1.5707724730121058 1.233819842338562 0.0 0.0 -2.046085319307167e-05 0.0 0.0 0.0 1 True False
6711.044 4.37535285949707 -1.6174527607359828 2.204224411641256 -2.157525201837057 -1.5708044211017054 1.2338128089904785 0.0 3.6764944525202736e-05 -7.418833776473566e-12 2.798639466869868e-24 0.0 0.0 1 True False
6711.094 4.375409126281738 -1.6175271473326625 2.2042363325702112 -2.1574655971922816 -1.5707605520831507 1.2337335348129272 0.0 0.0 -1.745737626855857e-41 4.245934346904196e-43 0.0 0.0 1 True False
6711.143999999999 4.375400543212891 -1.6175362072386683 2.2042439619647425 -2.1575056515135707 -1.5708168188678187 1.2337994575500488 0.0 0.0 -0.0 0.0 0.0 0.0 1 True False
6711.1939999999995 4.375406265258789 -1.6175395450987757 2.2042868773089808 -2.1575056515135707 -1.5707767645465296 1.2338110208511353 0.0 0.0 -2.2495321900350973e-05 0.0 0.0 -1.6680393954970896e-08 1 True False
6711.244 4.375311374664307 -1.6174990139403285 2.204249684010641 -2.1574937305846156 -1.5708254019366663 1.2337815761566162 0.0 0.0 -1.3004822619917442e-22 1.2611647193423465e-14 0.0 -2.533755360765792e-27 1 True False
6711.294 4.3753437995910645 -1.617481370965475 2.20428973833193 -2.1574775181212367 -1.570784870778219 1.2337976694107056 0.0 0.0 -0.0 1.9157117760717208e-33 2.2444966816692613e-05 -0.0 1 True False
6711.344 4.375443458557129 -1.6174560985960902 2.2042210737811487 -2.1574980221190394 -1.570784870778219 1.2338110208511353 0.0 0.0 -0.0 0.0 -4.889213960268535e-05 -0.0 1 True False
6711.393999999999 4.375392913818359 -1.61749329189443 2.204203430806295 -2.157557626763815 -1.570801083241598 1.2338110208511353 0.0 0.0 -0.0 0.0 -3.8464495446532965e-05 -0.0 1 True False
6711.4439999999995 4.375364780426025 -1.6174975834288539 2.2041595617877405 -2.157409807244772 -1.5707843939410608 1.233835220336914 0.0 -0.007523690350353718 -0.012607458047568798 0.02475450001657009 -2.02425908355508e-05 -0.0 1 True False
6711.494 4.3753767013549805 -1.6184193096556605 2.202744785939352 -2.1549812755980433 -1.5708048979388636 1.233794927597046 0.0 -0.030350128188729286 -0.05215095728635788 0.08007502555847168 -2.0958178245028029e-19 -0.0 1 True False
6711.544 4.3753886222839355 -1.6206633053221644 2.1989453474627894 -2.148895402947897 -1.57074481645693 1.2337830066680908 0.0 -0.05790574476122856 -0.0949133113026619 0.16113950312137604 -3.1835525278625146e-38 -0.0 1 True False
6711.594 4.375373363494873 -1.6243206463255824 2.192892376576559 -2.1394688091673792 -1.5707967917071741 1.2338083982467651 0.0 -0.08723927289247513 -0.13785919547080994 0.21393021941184998 -0.0 -0.0 1 True False
6711.643999999999 4.375389575958252 -1.6292702160277308 2.1849754492389124 -2.126394887963766 -1.5708006064044397 1.233794927597046 0.0 -0.10856631398200989 -0.18218888342380524 0.2944084405899048 -0.0 -0.0 1 True False
6711.6939999999995 4.375372409820557 -1.6356669865050257 2.174811665211813 -2.110008855859274 -1.5708687941180628 1.233757734298706 0.0 -0.13677097856998444 -0.22472494840621948 0.3576412796974182 -0.0 -0.0 1 True False
6711.744 4.3753886222839355 -1.6431752643980921 2.1623738447772425 -2.0901252231993617 -1.5708168188678187 1.233794927597046 0.0 -0.1667623370885849 -0.2679954469203949 0.42211487889289856 -0.0 -0.0 1 True False
6711.794 4.375434398651123 -1.6521221599974574 2.14805251756777 -2.066764017144674 -1.5707891623126429 1.2338154315948486 0.0 -0.19427454471588135 -0.30790993571281433 0.502765417098999 -0.0 -0.0 1 True False
6711.844 4.375369071960449 -1.6624838314452113 2.1312978903399866 -2.0397521458067835 -1.570824925099508 1.2337994575500488 0.0 -0.21615231037139893 -0.3607252538204193 0.5617058873176575 -0.0 -0.0 1 True False
6711.893999999999 4.375380992889404 -1.6737953625121058 2.1127846876727503 -2.009754320184225 -1.5707967917071741 1.233778476715088 0.0 -0.23062114417552948 -0.36997875571250916 0.5914158821105957 -0.0 -0.0 1 True False
6711.9439999999995 4.3753767013549805 -1.6844965420165003 2.0953334013568323 -1.9818312130370082 -1.5707529226886194 1.233794927597046 0.0 -0.20170417428016663 -0.3278122842311859 0.5366144180297852 -0.0 -0.0 1 True False
6711.994 4.375397205352783 -1.6938406429686488 2.080448929463522 -1.9572440586485804 -1.5707610289203089 1.2337543964385986 0.0 -0.1738814115524292 -0.2781285345554352 0.448397696018219 -0.0 -0.0 1 True False
6712.044 4.375344276428223 -1.7018524609007777 2.0673063437091272 -1.936317583123678 -1.5707929770099085 1.2337815761566162 0.0 -0.14610005915164948 -0.23677845299243927 0.37824547290802 -0.0 -0.0 1 True False
6712.094 4.375363826751709 -1.7084948025145472 2.056579891835348 -1.9186555347838343 -1.5707967917071741 1.233819842338562 0.0 -0.12320610135793686 -0.19705887138843536 0.31966572999954224 -0.0 -0.0 1 True False
6712.143999999999 4.375380992889404 -1.7139016590514125 2.047896210347311 -1.9047519169249476 -1.5707929770099085 1.233823299407959 0.0 -0.0936884805560112 -0.1510157585144043 0.24547667801380157 -0.0 -0.0 1 True False
6712.1939999999995 4.375384330749512 -1.7178179226317347 2.0413292090045374 -1.8942347965636195 -1.5708168188678187 1.233774185180664 0.0 -0.06723447144031525 -0.11268755793571472 0.18320050835609436 -0.0 -0.0 1 True False
6712.244 4.375364780426025 -1.720525404016012 2.0370405356036585 -1.8871222935118617 -1.5707886854754847 1.2337607145309448 0.0 -0.04032991826534271 -0.0707247406244278 0.11602853983640671 -0.0 -0.0 1 True False
6712.294 4.375369071960449 -1.7219282589354457 2.0347140471087855 -1.8836590252318324 -1.570784870778219 1.2337874174118042 0.0 -0.012806132435798645 -0.022794408723711967 0.04100213572382927 -0.0 -0.0 1 True False
6712.344 4.375385284423828 -1.7219916782774867 2.034586731587545 -1.8832012615599574 -1.5707810560809534 1.2337994575500488 0.0 0.0002368545683566481 -3.064503512062444e-12 -0.00034330892958678305 -0.0 -0.0 1 True False
6712.393999999999 4.375389575958252 -1.722053667108053 2.0345404783831995 -1.8833056888976039 -1.5707767645465296 1.2337815761566162 0.0 -0.00020678086730185896 -7.211081897415509e-42 0.00026292618713341653 -0.0 -0.0 1 True False
6712.4439999999995 4.375438213348389 -1.722027441064352 2.034520928059713 -1.8832055530943812 -1.5707810560809534 1.2337156534194946 0.0 -0.0006337763625197113 -0.00012734881602227688 0.0006479088333435357 -0.0 -0.0 1 True False
6712.494 4.3753767013549805 -1.722067495385641 2.0345085302936 -1.883249422112936 -1.5707610289203089 1.233741044998169 0.0 -0.0007865906227380037 -0.00036171742249280214 0.00102687394246459 -0.0 -0.0 1 True False
6712.544 4.375409126281738 -1.7220217190184535 2.0344799200641077 -1.8831855259337367 -1.5707805792437952 1.2338083982467651 0.0 -0.00022981294023338705 -0.00030887150205671787 0.00045072619104757905 -0.0 -0.0 1 True False
6712.594 4.375356197357178 -1.722051282922262 2.0344846884356897 -1.8831492863097132 -1.5707648436175745 1.2337905168533325 0.0 -9.527051588520408e-05 -0.00017825736722443253 0.00022111607540864497 -0.0 -0.0 1 True False
6712.643999999999 4.3753886222839355 -1.7220632038512171 2.034454647694723 -1.8831693134703578 -1.5708048979388636 1.2338038682937622 0.0 -7.47575395507738e-05 -0.00013021122140344232 0.0001213307841680944 -0.0 -0.0 1 True False
6712.6939999999995 4.375380992889404 -1.7221037350096644 2.034442726765768 -1.8831097088255824 -1.5708125273333948 1.2337859869003296 0.0 -5.0707230340684664e-18 -7.010612898739055e-05 9.06361747183837e-05 -0.0 -0.0 1 True False
6712.744 4.375351905822754 -1.7220379314818324 2.0345056692706507 -1.883129735986227 -1.5707767645465296 1.233819842338562 0.0 7.866935184883128e-13 -5.0454953452572227e-05 4.412797238728672e-08 -0.0 -0.0 1 True False
6712.794 4.375360488891602 -1.722067495385641 2.034468475972311 -1.883153577844137 -1.570768181477682 1.2337993383407593 0.0 0.0 -3.547373423790898e-33 6.703047408160157e-27 -0.0 -0.0 1 True False
6712.844 4.375425338745117 -1.722123762170309 2.0344560782061976 -1.883125444451803 -1.57074481645693 1.2338110208511353 0.0 0.0 -0.0 1.401298464324817e-45 -0.0 -0.0 1 True False
6712.893999999999 4.375356197357178 -1.7220756016173304 2.034459416066305 -1.8831454716124476 -1.5707767645465296 1.2337859869003296 0.0 0.0 -0.0 0.0 -0.0 -0.0 1 True False
6712.9439999999995 4.375397205352783 -1.7220469913878382 2.034466568623678 -1.8831216297545375 -1.5707767645465296 1.2338110208511353 0.0 0.0 -0.0 0.0 -0.0 -0.0 1 True False
6712.994 4.375356197357178 -1.7220546207823695 2.0344470183001917 -1.8831454716124476 -1.570813004170553 1.2338110208511353 0.0 0.0 -0.0 0.0 -0.0 -0.0 1 True False
6713.044 4.375433921813965 -1.722116609612936 2.034450356160299 -1.8831936321654261 -1.5706918875323694 1.2338110208511353 0.0 0.0 -0.0 0.0 -0.0 -0.0 1 True False
6713.094 4.375409126281738 -1.7220546207823695 2.0344517866717737 -1.8832141361632289 -1.5708335081683558 1.2337874174118042 0.0 0.0 -0.0 0.0 -0.0 -0.0 1 True False
6713.143999999999 4.375401496887207 -1.722095628777975 2.034459416066305 -1.883141656915182 -1.5707886854754847 1.2338066101074219 0.0 0.0 -0.0 3.024825585382633e-18 -0.0 -0.0 1 True False
6713.1939999999995 4.3753767013549805 -1.7220546207823695 2.0344184080706995 -1.8831616840758265 -1.5707967917071741 1.2338154315948486 0.0 0.0 -0.0 4.594715965220363e-37 -0.0 -0.0 1 True False
6713.244 4.375385284423828 -1.722067495385641 2.0344889799701136 -1.8831411800780238 -1.5708168188678187 1.2338110208511353 0.0 0.0 -0.0 0.0 -0.0 -0.0 1 True False
6713.294 4.3753767013549805 -1.7221280537047328 2.034487549458639 -1.8831616840758265 -1.5707648436175745 1.2338199615478516 0.0 0.0 -0.0 0.0 -0.0 -0.0 1 True False
6713.344 4.375405788421631 -1.7220546207823695 2.0344560782061976 -1.883125444451803 -1.570784870778219 1.2338154315948486 0.0 0.0 -0.0 0.0 -0.0 -0.0 1 True False
6713.393999999999 4.375389575958252 -1.7221323452391566 2.0344393889056605 -1.8831654987730921 -1.5707810560809534 1.2337994575500488 0.0 0.0 -0.0 0.0 -0.0 -0.0 1 True False
6713.4439999999995 4.375433921813965 -1.7220999203123988 2.0344799200641077 -1.8831454716124476 -1.5707362333880823 1.2338199615478516 0.0 0.0 -0.0 0.0 -0.0 -0.0 1 True False
6713.494 4.375401496887207 -1.722112318078512 2.0345009008990687 -1.8831292591490687 -1.5708211104022425 1.2337905168533325 0.0 0.0 -0.0 0.0 -0.0 -0.0 1 True False
6713.544 4.375434875488281 -1.722119470635885 2.034442726765768 -1.8831454716124476 -1.5708168188678187 1.233774185180664 0.0 0.0 -0.0 0.0 -0.0 -0.0 1 True False
6713.594 4.37531852722168 -1.7221151791014613 2.0344727675067347 -1.8831011257567347 -1.5707886854754847 1.2337756156921387 0.0 0.0 -0.0 0.0 -0.0 -0.0 1 True False
6713.643999999999 4.3753886222839355 -1.722112318078512 2.034475628529684 -1.8831740818419398 -1.5708048979388636 1.2337859869003296 0.0 0.0 -0.0 0.0 -0.0 -0.0 1 True False
6713.6939999999995 4.375367641448975 -1.7221037350096644 2.03447133699526 -1.8831292591490687 -1.5708048979388636 1.2337905168533325 0.0 0.0 -0.0 0.0 -0.0 -0.0 1 True False
6713.744 4.375392913818359 -1.7220798931517542 2.0344799200641077 -1.8831573925414027 -1.570784870778219 1.2338411808013916 0.0 0.0 -0.0 0.0 -0.0 -0.0 1 True False
6713.794 4.375373363494873 -1.722119470635885 2.034405533467428 -1.8831936321654261 -1.5708325544940394 1.2337830066680908 0.0 0.0 -0.0 0.0 -0.0 -0.0 1 True False
6713.844 4.375380992889404 -1.7221042118468226 2.0344722906695765 -1.8831216297545375 -1.570813004170553 1.233774185180664 0.0 0.0 -0.0 0.0 -0.0 -0.0 1 True False
6713.893999999999 4.375410556793213 -1.7220951519408167 2.03444749513735 -1.883097311059469 -1.570801083241598 1.2337666749954224 0.0 0.0 -0.0 0.0 -0.0 -0.0 1 True False
6713.9439999999995 4.375397205352783 -1.7220798931517542 2.0344722906695765 -1.883129735986227 -1.570801083241598 1.2337905168533325 0.0 0.0 -0.0 0.0 -0.0 -0.0 1 True False
6713.994 4.375392913818359 -1.7220670185484828 2.034455124531881 -1.8831330738463343 -1.570801083241598 1.2337874174118042 0.0 0.0 -0.0 0.0 -0.0 -0.0 1 True False
6714.044 4.375371932983398 -1.722140451470846 2.0344460646258753 -1.8831850490965785 -1.5708044211017054 1.2337830066680908 0.0 0.0 -0.0 0.0 -0.0 -0.0 1 True False
6714.094 4.375330448150635 -1.722084184686178 2.0345080534564417 -1.8831454716124476 -1.570784870778219 1.233774185180664 0.0 0.0 -3.8501394324439913e-25 0.0 -0.0 -0.0 1 True False
6714.143999999999 4.3753557205200195 -1.7221318684019984 2.034491840993063 -1.8832184276976527 -1.5707925001727503 1.2338411808013916 0.0 0.0 -0.0 0.0 -0.0 -0.0 1 True False
6714.1939999999995 4.3753838539123535 -1.722116609612936 2.0345290342914026 -1.8831449947752894 -1.5708335081683558 1.233757734298706 0.0 -1.6261507832657282e-33 -0.0 0.0 -0.0 -0.0 1 True False
6714.244 4.3753275871276855 -1.7220503292479457 2.03447133699526 -1.8831411800780238 -1.570813004170553 1.233774185180664 0.0 0.0 -0.0 0.0 -0.0 -0.0 1 True False
6714.294 4.375406265258789 -1.7220713100829066 2.0344560782061976 -1.8831778965392054 -1.5707929770099085 1.2338083982467651 0.0 0.0 -0.0 0.0 -0.0 -0.0 1 True False
6714.344 4.375406265258789 -1.7221280537047328 2.034443203602926 -1.8831454716124476 -1.5707605520831507 1.233839750289917 0.0 0.0 -0.0 0.0 -0.0 -0.0 1 True False
6714.393999999999 4.375397205352783 -1.722055574456686 2.034487549458639 -1.8831292591490687 -1.5708087126361292 1.2337931394577026 0.0 0.0 -0.0 0.0 -0.0 -0.0 1 True False
6714.4439999999995 4.375401973724365 -1.722095628777975 2.034487549458639 -1.8831654987730921 -1.5708211104022425 1.2338110208511353 0.0 0.0 -0.0 0.0 -0.0 -0.0 1 True False
6714.494 4.3753557205200195 -1.7220798931517542 2.0344346205340784 -1.8831454716124476 -1.5707648436175745 1.2338038682937622 0.0 0.0 -0.0 0.0 -0.0 -0.0 1 True False
6714.544 4.375392913818359 -1.722112318078512 2.03441030183901 -1.8831778965392054 -1.570784870778219 1.2338154315948486 0.0 0.0 -0.0 0.0 -0.0 -0.0 1 True False
6714.594 4.3754425048828125 -1.7220870457091273 2.0344508329974573 -1.8831573925414027 -1.5708335081683558 1.233794927597046 0.0 0.0 -0.0 0.0 -0.0 -0.0 1 True False
6714.643999999999 4.3753557205200195 -1.7220870457091273 2.034455124531881 -1.8831454716124476 -1.5708168188678187 1.2338199615478516 0.0 0.0 -0.0 0.0 -0.0 -0.0 1 True False
6714.6939999999995 4.375406265258789 -1.7221080265440882 2.034463707600729 -1.8831812343993128 -1.5707967917071741 1.233794927597046 0.0 0.0 -0.0 0.0 -0.0 -0.0 1 True False
6714.744 4.375392913818359 -1.7221042118468226 2.03444749513735 -1.8831335506834925 -1.570801083241598 1.2337874174118042 0.0 0.0 7.96650505979768e-12 0.0 -0.0 -0.0 1 True False
6714.794 4.3753228187561035 -1.722095628777975 2.034463707600729 -1.8831654987730921 -1.5707605520831507 1.233736515045166 0.0 0.0 -6.032550659166804e-19 0.0 -0.0 -0.0 1 True False
6714.844 4.37535285949707 -1.722039361993307 2.03441030183901 -1.8831778965392054 -1.5707886854754847 1.2337875366210938 0.0 0.0 -0.0 0.0 -0.0 -0.0 1 True False
6714.893999999999 4.37539005279541 -1.7221280537047328 2.0344722906695765 -1.8831330738463343 -1.5707925001727503 1.2337498664855957 0.0 0.0 -0.0 0.0 -0.0 -0.0 1 True False
6714.9439999999995 4.375367641448975 -1.7220670185484828 2.0344842115985315 -1.8831778965392054 -1.5707724730121058 1.233790636062622 0.0 0.0 -0.0 0.0 -0.0 -0.0 1 True False
6714.994 4.3753838539123535 -1.7220546207823695 2.0344799200641077 -1.8831373653807582 -1.570780102406637 1.2337666749954224 0.0 0.0 -0.0 0.0 -0.0 -0.0 1 True False
6715.044 4.3753767013549805 -1.7220913372435511 2.03444749513735 -1.8831454716124476 -1.5708168188678187 1.2338515520095825 0.0 0.0 -0.0 0.0 -0.0 -0.0 1 True False
6715.094 4.375406265258789 -1.722067495385641 2.0344517866717737 -1.8831654987730921 -1.5707805792437952 1.2337830066680908 0.0 0.0 -0.0 0.0 -0.0 -0.0 1 True False
6715.143999999999 4.375371932983398 -1.7220870457091273 2.0344679991351526 -1.8831778965392054 -1.5707486311541956 1.2337994575500488 0.0 0.0 -0.0 0.0 -0.0 -0.0 1 True False
6715.1939999999995 4.37534236907959 -1.7220756016173304 2.03444749513735 -1.8831531010069789 -1.5707925001727503 1.2337859869003296 0.0 0.0 -0.0 0.0 -0.0 -0.0 1 True False
6715.244 4.375380992889404 -1.7220384083189906 2.034455124531881 -1.8831330738463343 -1.570829216633932 1.2338066101074219 0.0 0.0 -0.0 0.0 -0.0 -0.0 1 True False
6715.294 4.375392913818359 -1.722067495385641 2.034426514302389 -1.8831573925414027 -1.5708211104022425 1.2337920665740967 0.0 0.0 -0.0 0.0 -0.0 -0.0 1 True False
6715.344 4.3753557205200195 -1.7220713100829066 2.034459416066305 -1.8831335506834925 -1.570801083241598 1.2338234186172485 0.0 0.0 -0.0 0.0 -0.0 -0.0 1 True False
6715.393999999999 4.3754048347473145 -1.7220827541747035 2.034496609364645 -1.8831373653807582 -1.5707891623126429 1.2337905168533325 0.0 0.0 -0.0 0.0 -0.0 -0.0 1 True False
6715.4439999999995 4.375434875488281 -1.7220713100829066 2.034463707600729 -1.8831449947752894 -1.5707805792437952 1.2338485717773438 0.0 0.0 -0.0 0.0 -0.0 -0.0 1 True False
6715.494 4.375418186187744 -1.722095628777975 2.0345009008990687 -1.8831373653807582 -1.570784870778219 1.2337994575500488 0.0 0.0 -0.0 0.0 -0.0 -0.0 1 True False
6715.544 4.375392913818359 -1.722051282922262 2.0344231764422815 -1.8831378422179164 -1.5707886854754847 1.233823299407959 0.0 0.0 -0.0 0.0 -0.0 -0.0 1 True False
6715.594 4.375360012054443 -1.7221151791014613 2.0344141165362757 -1.8831740818419398 -1.5708211104022425 1.2338066101074219 0.0 0.0 -0.0 0.0 -0.0 -0.0 1 True False
6715.643999999999 4.375348091125488 -1.7220713100829066 2.034459416066305 -1.8831492863097132 -1.570801083241598 1.2338244915008545 0.0 0.0 -0.0 0.0 -0.0 -0.0 1 True False
6715.6939999999995 4.375430107116699 -1.7220546207823695 2.034454647694723 -1.8831812343993128 -1.5708168188678187 1.2338066101074219 0.0 0.0 -0.0 0.0 -0.0 -0.0 1 True False
6715.744 4.375392913818359 -1.7221533260741175 2.034454647694723 -1.8831411800780238 -1.5708487669574183 1.2337725162506104 0.0 0.0 -0.0 0.0 -0.0 -0.0 1 True False
6715.794 4.375409126281738 -1.7220756016173304 2.0344679991351526 -1.8831936321654261 -1.570801083241598 1.2337487936019897 0.0 0.0 -0.0 0.0 -0.0 -0.0 1 True False
6715.844 4.375406265258789 -1.7220503292479457 2.0345056692706507 -1.8831292591490687 -1.570784870778219 1.2338366508483887 0.0 0.0 -0.0 0.0 -0.0 -0.0 1 True False
6715.893999999999 4.3753886222839355 -1.7220756016173304 2.034438435231344 -1.8831492863097132 -1.570784870778219 1.2337931394577026 0.0 0.0 -0.0 0.0 -0.0 -0.0 1 True False
6715.9439999999995 4.375385284423828 -1.7220632038512171 2.0344608465777796 -1.8831497631468714 -1.5708211104022425 1.2337334156036377 0.0 0.0 -0.0 0.0 -0.0 -0.0 1 True False
6715.994 4.375369071960449 -1.722116609612936 2.034487549458639 -1.883226057092184 -1.5707805792437952 1.2337695360183716 0.0 0.0 -0.0 0.0 -0.0 -0.0 1 True False
6716.044 4.3754048347473145 -1.7221080265440882 2.034496609364645 -1.8831821880736292 -1.5708044211017054 1.2338066101074219 0.0 0.0 -0.0 0.0 -0.0 -0.0 1 True False
6716.094 4.375371932983398 -1.7220913372435511 2.0344679991351526 -1.883209844628805 -1.570801083241598 1.2337830066680908 0.0 0.0 -0.0 0.0 -0.0 -0.0 1 True False
6716.143999999999 4.375409126281738 -1.7220264873900355 2.034463707600729 -1.8832179508604945 -1.5707724730121058 1.2338110208511353 0.0 0.0 -0.0 0.0 -0.0 -0.0 1 True False
6716.1939999999995 4.375371932983398 -1.722084184686178 2.0344470183001917 -1.8831373653807582 -1.5708254019366663 1.2337696552276611 0.0 0.0 -0.0 0.0 -0.0 -0.0 1 True False
6716.244 4.375409126281738 -1.7220589123167933 2.034459416066305 -1.883169790307516 -1.5707686583148401 1.2338576316833496 0.0 0.0 -0.0 0.0 -0.0 -0.0 1 True False
6716.294 4.375369071960449 -1.7220713100829066 2.034463707600729 -1.8831736050047816 -1.5707724730121058 1.2337589263916016 0.0 0.0 -0.0 0.0 -0.0 -0.0 1 True False
6716.344 4.375380992889404 -1.722084184686178 2.0344093481646937 -1.8831893406310023 -1.5707610289203089 1.233794927597046 0.0 0.0 -0.0 0.0 -0.0 -0.0 1 True False
6716.393999999999 4.375425815582275 -1.7220589123167933 2.034496609364645 -1.8831497631468714 -1.570801083241598 1.233757734298706 0.0 0.0 -0.0 0.0 -0.0 -0.0 1 True False
6716.4439999999995 4.375392913818359 -1.722084184686178 2.034450356160299 -1.8831411800780238 -1.5708044211017054 1.2338244915008545 0.0 0.0 -0.0 0.0 -0.0 -0.0 1 True False
6716.494 4.375401496887207 -1.722140451470846 2.0344799200641077 -1.8831373653807582 -1.570784870778219 1.2338038682937622 0.0 0.0 -0.0 0.0 -0.0 -0.0 1 True False
6716.544 4.375360488891602 -1.7220913372435511 2.0344260374652308 -1.8831736050047816 -1.5708087126361292 1.233823299407959 0.0 0.0 -0.0 0.0 -0.0 -0.0 1 True False
6716.594 4.375392913818359 -1.7220307789244593 2.0344517866717737 -1.8831054172911585 -1.5707524458514612 1.2338110208511353 0.0 0.0 -0.0 0.0 -0.0 -0.0 1 True False
6716.643999999999 4.375409126281738 -1.7221294842162074 2.0344470183001917 -1.883193155328268 -1.5708373228656214 1.2337874174118042 0.0 0.0 -0.0 0.0 -0.0 -0.0 1 True False
6716.6939999999995 4.375364780426025 -1.722095628777975 2.034463707600729 -1.8831731281676234 -1.570813004170553 1.2338066101074219 0.0 0.0 -0.0 0.0 -0.0 -0.0 1 True False
6716.744 4.3753886222839355 -1.7221280537047328 2.03447133699526 -1.8831850490965785 -1.5707886854754847 1.2337993383407593 0.0 0.0 -0.0 0.0 -0.0 -0.0 1 True False
6716.794 4.375380992889404 -1.7220913372435511 2.034475628529684 -1.883169790307516 -1.5707805792437952 1.2338066101074219 0.0 0.0 -0.0 0.0 -0.0 -0.0 1 True False
6716.844 4.375360488891602 -1.7220546207823695 2.034492317830221 -1.8830815754332484 -1.570824925099508 1.2337993383407593 0.0 0.0 -0.0 0.0 -0.0 -0.0 1 True False
6716.893999999999 4.3753767013549805 -1.7220717869200648 2.034416977559225 -1.8831736050047816 -1.570829216633932 1.2338154315948486 0.0 0.0 -0.0 0.0 -0.0 -0.0 1 True False
6716.9439999999995 4.375373363494873 -1.722088476220602 2.034496609364645 -1.8831492863097132 -1.5707405249225062 1.233741044998169 0.0 0.0 -0.0 0.0 -0.0 -0.0 1 True False
6716.994 4.375392913818359 -1.722041746179098 2.034487549458639 -1.8831492863097132 -1.5707319418536585 1.2337532043457031 0.0 0.0 -0.0 0.0 -0.0 -0.0 1 True False
6717.044 4.375401496887207 -1.722095628777975 2.034468475972311 -1.8831454716124476 -1.5708211104022425 1.2337454557418823 0.0 0.0 -0.0 0.0 -0.0 -0.0 1 True False
6717.094 4.375406265258789 -1.7220546207823695 2.034463707600729 -1.8831411800780238 -1.5708091894732874 1.233839750289917 0.0 0.0 -0.0 0.0 -0.0 -0.0 1 True False
6717.143999999999 4.375392913818359 -1.722112318078512 2.0344679991351526 -1.8831898174681605 -1.5707767645465296 1.2337589263916016 0.0 0.0 -0.0 0.0 -0.0 -0.0 1 True False
6717.1939999999995 4.375417709350586 -1.722116609612936 2.0344799200641077 -1.883125444451803 -1.5707724730121058 1.233794927597046 0.0 0.0 -0.0 0.0 -0.0 -0.0 1 True False
6717.244 4.375372409820557 -1.7220827541747035 2.034454647694723 -1.883141656915182 -1.570784870778219 1.2338365316390991 0.0 0.0 -0.0 0.0 -0.0 -0.0 1 True False
6717.294 4.375380992889404 -1.722119470635885 2.0344846884356897 -1.8831778965392054 -1.570772949849264 1.233736515045166 0.0 0.0 -0.0 0.0 -0.0 -0.0 1 True False
6717.344 4.375397205352783 -1.7220307789244593 2.0345009008990687 -1.8832093677916468 -1.570784870778219 1.2337830066680908 0.0 0.0 -0.0 0.0 -0.0 -0.0 1 True False
6717.393999999999 4.3753485679626465 -1.7221037350096644 2.0345009008990687 -1.8831492863097132 -1.5708449522601526 1.2337275743484497 0.0 0.0 -0.0 0.0 -0.0 -0.0 1 True False
6717.4439999999995 4.375369071960449 -1.7221037350096644 2.03444749513735 -1.8831850490965785 -1.5707967917071741 1.2338066101074219 0.0 0.0 -0.0 0.0 -0.0 -0.0 1 True False
6717.494 4.375392913818359 -1.7220798931517542 2.03444749513735 -1.8831821880736292 -1.5707767645465296 1.2337905168533325 0.0 0.0 -0.0 0.0 -0.0 -0.0 1 True False
6717.544 4.375360488891602 -1.7220999203123988 2.0344679991351526 -1.8831850490965785 -1.5707805792437952 1.2338154315948486 0.0 0.0 -0.0 0.0 -0.0 -0.0 1 True False
6717.594 4.375397205352783 -1.722067495385641 2.0344517866717737 -1.8831292591490687 -1.5708087126361292 1.233708143234253 0.0 0.0 -0.0 0.0 -0.0 1.1761823272607962e-14 1 True False
6717.643999999999 4.375413417816162 -1.7221046886839808 2.03444749513735 -1.8831411800780238 -1.570813004170553 1.2337875366210938 0.0 0.0 -0.0 0.0 -0.0 1.7866237619102174e-33 1 True False
6717.6939999999995 4.3753886222839355 -1.7221037350096644 2.0345218817340296 -1.8831740818419398 -1.5708048979388636 1.2337905168533325 0.0 0.0 -0.0 0.0 -0.0 0.0 1 True False
6717.744 4.375401496887207 -1.7221080265440882 2.03447133699526 -1.8831893406310023 -1.5707605520831507 1.233774185180664 0.0 0.0 -0.0 0.0 -0.0 0.0 1 True False
6717.794 4.375401496887207 -1.722084184686178 2.034487549458639 -1.8831573925414027 -1.5707719961749476 1.2338322401046753 0.0 0.0 -0.0 0.0 -1.6394215984760763e-09 0.0 1 True False
6717.844 4.375397205352783 -1.7220756016173304 2.0345080534564417 -1.8832017383971156 -1.570772949849264 1.2337665557861328 0.0 0.0 -0.0 0.0 -2.4902854367322706e-28 0.0 1 True False
6717.893999999999 4.375401496887207 -1.7220541439452113 2.034463707600729 -1.8831616840758265 -1.5707724730121058 1.2337859869003296 0.0 0.0 -0.0 0.0 -4.248305658354764e-16 0.0 1 True False
6717.9439999999995 4.3753767013549805 -1.7220756016173304 2.034463707600729 -1.8831292591490687 -1.5708254019366663 1.2338277101516724 0.0 0.0 -0.0 0.0 -6.45318560966663e-35 0.0 1 True False
6717.994 4.375410079956055 -1.7221127949156703 2.034442726765768 -1.8831459484496058 -1.570801083241598 1.2338066101074219 0.0 0.0 -0.0 0.0 -0.0 0.0 1 True False
6718.044 4.375392913818359 -1.7220708332457484 2.0345171133624476 -1.8831411800780238 -1.5707529226886194 1.233774185180664 0.0 0.0 -0.0 0.0 -0.0 0.0 1 True False
6718.094 4.375380992889404 -1.7220798931517542 2.034417454396383 -1.883129735986227 -1.5707925001727503 1.2337695360183716 0.0 0.0 -0.0 0.0 -0.0 0.0 1 True False
6718.143999999999 4.375409126281738 -1.7220541439452113 2.0344799200641077 -1.8831411800780238 -1.5707891623126429 1.2338321208953857 0.0 0.0 -0.0 0.0 -0.0 0.0 1 True False
6718.1939999999995 4.375356197357178 -1.722058435479635 2.034443203602926 -1.8831411800780238 -1.5708449522601526 1.2338322401046753 0.0 0.0 -0.0 0.0 -0.0 0.0 1 True False
6718.244 4.3754143714904785 -1.7220632038512171 2.0344799200641077 -1.8831497631468714 -1.5707929770099085 1.2337532043457031 0.0 0.0 -0.0 0.0 -0.0 0.0 1 True False
6718.294 4.375369071960449 -1.7221480808653773 2.0344799200641077 -1.8831411800780238 -1.5707967917071741 1.233819842338562 0.0 0.0 -0.0 0.0 -0.0 0.0 1 True False
6718.344 4.375380039215088 -1.722034593621725 2.034463707600729 -1.8831573925414027 -1.5708048979388636 1.2337651252746582 0.0 0.0 -0.0 0.0 -0.0 0.0 1 True False
6718.393999999999 4.375372409820557 -1.722058435479635 2.0345123449908655 -1.883125444451803 -1.5707529226886194 1.2337905168533325 0.0 0.0 -0.0 0.0 -0.0 0.0 1 True False
6718.4439999999995 4.375360488891602 -1.7220822773375453 2.034459416066305 -1.883169790307516 -1.5707572142230433 1.2337994575500488 0.0 0.0 -0.0 0.0 -0.0 0.0 1 True False
6718.494 4.375401496887207 -1.7220870457091273 2.0344350973712366 -1.8831292591490687 -1.5707929770099085 1.2338066101074219 0.0 0.0 -0.0 0.0 -0.0 0.0 1 True False
6718.544 4.375360488891602 -1.722100397149557 2.034487549458639 -1.8831740818419398 -1.5707967917071741 1.2338066101074219 0.0 0.0 -0.0 0.0 -0.0 2.6189619122195626e-22 1 True False
6718.594 4.375360488891602 -1.7220870457091273 2.0344799200641077 -1.8831411800780238 -1.5708444754229944 1.233757734298706 0.0 0.0 -0.0 0.0 -0.0 3.978146210371723e-41 1 True False
6718.643999999999 4.375372409820557 -1.7220260105528773 2.0344722906695765 -1.8832060299315394 -1.570784870778219 1.2337578535079956 0.0 0.0 -0.0 0.0 -0.0 0.0 1 True False
6718.6939999999995 4.375371932983398 -1.7220913372435511 2.034463707600729 -1.8831531010069789 -1.5708006064044397 1.2337993383407593 0.0 0.0 -0.0 0.0 -0.0 0.0 1 True False
