Andreas691667/Digital_Twin_UR/src/robot_connection_manager/robot_output/case2_27912_miss_robot_output.csv
timestamp actual_q_0 actual_q_1 actual_q_2 actual_q_3 actual_q_4 actual_q_5 actual_qd_0 actual_qd_1 actual_qd_2 actual_qd_3 actual_qd_4 actual_qd_5 safety_status output_bit_register_65 output_bit_register_66
10342.096 3.712127923965454 -0.8255157631686707 0.8429887930499476 -1.5882655582823695 -1.5707805792437952 2.141296148300171 0.0 0.0 -0.0 -0.0 -0.0 0.0 1 False False
10342.145999999999 3.712062358856201 -0.8255292934230347 0.842959229146139 -1.5883013210692347 -1.5707724730121058 2.141242504119873 0.0 0.0 -0.0 -0.0 -0.0 0.0 1 False False
10342.196 3.712066888809204 -0.8254215878299256 0.8429964224444788 -1.5882932148375453 -1.5707886854754847 2.1413040161132812 0.0 0.0 -0.0 -0.0 -0.0 0.00023837186745367944 1 False False
10342.246 3.7121145725250244 -0.8254379791072388 0.842992130910055 -1.5883451900877894 -1.5707529226886194 2.141263246536255 0.0 0.0 -0.0 -0.0 -0.0 1.0558472496313698e-07 1 False False
10342.296 3.7120578289031982 -0.8254750531962891 0.8430050055133265 -1.588273664514059 -1.5708048979388636 2.1413159370422363 0.0 0.0 -0.0 -0.0 -0.0 1.270323402025042e-08 1 False False
10342.346 3.712095260620117 -0.8254615825465699 0.8430007139789026 -1.588273664514059 -1.5708325544940394 2.141313076019287 0.0 0.0 -0.0 -0.0 -1.1080735440316403e-08 1.7051364145379158e-19 1 False False
10342.395999999999 3.7120862007141113 -0.8255128425410767 0.8429716269122522 -1.588280817071432 -1.570829216633932 2.14127516746521 0.0 0.0 -0.0 -0.0 -1.6831664748972248e-27 2.590105991337269e-38 1 False False
10342.446 3.712036609649658 -0.8254823845675965 0.8429759184466761 -1.588273664514059 -1.5708335081683558 2.141329526901245 0.0 0.0 -0.0 -0.0 -0.0 0.0 1 False False
10342.496 3.7120862007141113 -0.8255084317973633 0.8430007139789026 -1.588273664514059 -1.5707891623126429 2.141282558441162 0.0 0.0 -0.0 -0.0 -0.0 0.0 1 False False
10342.546 3.7120935916900635 -0.8254869741252442 0.8429759184466761 -1.5882889233031214 -1.5708449522601526 2.141279697418213 6.810095185886187e-25 0.0 -0.0 -0.0 -0.0 0.0 1 False False
10342.596 3.712066888809204 -0.8254452508739014 0.8429845015155237 -1.588268896142477 -1.570801083241598 2.141226053237915 9.407364304432973e-30 0.0 -0.0 -0.0 -0.0 0.0 1 False False
10342.645999999999 3.7120490074157715 -0.8254869741252442 0.8430212179767054 -1.5882536373534144 -1.5707767645465296 2.1412885189056396 0.0 0.0 -0.0 -0.0 -0.0 0.0 1 False False
10342.696 3.7120652198791504 -0.825495795612671 0.8430331389056605 -1.5883285007872523 -1.5708211104022425 2.141261577606201 0.0 0.0 -0.0 -0.0 -0.0 0.0 1 False False
10342.746 3.712116003036499 -0.8254333895495911 0.8429835478412073 -1.588285585443014 -1.5708611647235315 2.141296148300171 0.0 0.0 -0.0 -0.0 -0.0 0.0 1 False False
10342.796 3.7120862007141113 -0.8254542511752625 0.8429678122149866 -1.5883127651610316 -1.5708168188678187 2.1412408351898193 0.0 0.0 -0.0 -0.0 -0.0 0.0 1 False False
10342.846 3.712036609649658 -0.825524703865387 0.8429759184466761 -1.5882812939085902 -1.5707805792437952 2.141313076019287 0.0 0.0 -0.0 -0.0 -0.0 0.0 1 False False
10342.895999999999 3.7120578289031982 -0.8254719537547608 0.8429964224444788 -1.58836092571401 -1.570784870778219 2.141308546066284 0.0 0.0 -0.0 -0.0 -0.0 0.0 1 False False
10342.946 3.712062358856201 -0.8254750531962891 0.8430126349078577 -1.5882612667479457 -1.5708254019366663 2.14131760597229 0.0 0.0 -0.0 -0.0 -0.0 0.0 1 False False
10342.996 3.7121222019195557 -0.8254006665996094 0.8429759184466761 -1.588320871392721 -1.5707967917071741 2.14131760597229 0.0 0.0 -0.0 -0.0 -0.0 0.0 1 False False
10343.046 3.7120907306671143 -0.8254794639400025 0.8430126349078577 -1.5882774792113246 -1.5708335081683558 2.1413183212280273 0.0 0.0 -0.0 -0.0 -0.0 0.0 1 False False
10343.096 3.7120532989501953 -0.8254794639400025 0.8429678122149866 -1.5882932148375453 -1.570772949849264 2.1413040161132812 0.0 0.0 -0.0 -0.0 -0.0 0.0 1 False False
10343.145999999999 3.7120742797851562 -0.8254659932902833 0.8430426756488245 -1.5882650814452113 -1.5707925001727503 2.141296148300171 0.0 0.0 -0.0 -0.0 -0.0 0.0 1 False False
10343.196 3.712045669555664 -0.8254913848689576 0.8429544607745569 -1.5882889233031214 -1.570801083241598 2.141334056854248 0.0 0.0 -0.0 -0.0 -0.0 0.0 1 False False
10343.246 3.7120606899261475 -0.825437919502594 0.8429754416095179 -1.5883332691588343 -1.570829216633932 2.141296148300171 0.0 0.0 -0.0 -0.0 -0.0 0.0 1 False False
10343.296 3.7121026515960693 -0.8254348796657105 0.8429964224444788 -1.588245531121725 -1.5707843939410608 2.141308546066284 0.0 0.0 -0.0 -0.0 -0.0 0.0 1 False False
10343.346 3.7120862007141113 -0.8254215878299256 0.8430126349078577 -1.5883413753905238 -1.570801083241598 2.14131760597229 0.0 0.0 -0.0 -0.0 -0.0 0.0 1 False False
10343.395999999999 3.7121191024780273 -0.8254958552173157 0.8430140654193323 -1.588269372979635 -1.5707281271563929 2.14127516746521 0.0 0.0 -0.0 -0.0 -0.0 0.0 1 False False
10343.446 3.712111711502075 -0.8255247634700318 0.8429845015155237 -1.5882412395873011 -1.5708211104022425 2.141345977783203 0.0 0.0 -0.0 -0.0 -0.0 0.0 1 False False
10343.496 3.7120981216430664 -0.8254869741252442 0.8429754416095179 -1.5882851086058558 -1.570801083241598 2.1413087844848633 0.0 0.0 -0.0 -0.0 -0.0 0.0 1 False False
10343.546 3.7121191024780273 -0.825425998573639 0.8429892698871058 -1.588313718835348 -1.5708335081683558 2.141282558441162 0.0 0.0 -0.0 -0.0 -0.0 0.0 1 False False
10343.596 3.7120816707611084 -0.8254928153804322 0.8430054823504847 -1.5883375606932582 -1.5708168188678187 2.141263246536255 0.0 0.0 -0.0 -0.0 -0.0 0.0 1 False False
10343.645999999999 3.7120652198791504 -0.8255127829364319 0.8430054823504847 -1.5883056126036585 -1.5707967917071741 2.141234874725342 0.0 0.0 -0.0 -0.0 -0.0 0.0 1 False False
10343.696 3.7120816707611084 -0.8255381149104615 0.8430216948138636 -1.5882774792113246 -1.5707767645465296 2.141263246536255 0.0 0.0 -0.0 -0.0 -0.0 0.0 1 False False
10343.746 3.7120490074157715 -0.825470582847931 0.8429587523089808 -1.5882889233031214 -1.5707767645465296 2.141308546066284 0.0 0.0 -0.0 -0.0 -0.0 0.0 1 False False
10343.796 3.7120490074157715 -0.825488345032074 0.8429721037494105 -1.588245531121725 -1.5707605520831507 2.141279697418213 0.0 0.0 -0.0 -0.0 -0.0 0.0 1 False False
10343.846 3.7120935916900635 -0.825495795612671 0.8429754416095179 -1.5883175335326136 -1.5708335081683558 2.141359329223633 0.0 0.0 -0.0 -0.0 -0.0 0.0 1 False False
10343.895999999999 3.7120773792266846 -0.8254587215236207 0.8429754416095179 -1.588269372979635 -1.570813004170553 2.141263246536255 0.0 0.0 -0.0 -0.0 -0.0 0.0 1 False False
10343.946 3.712066888809204 -0.8254423898509522 0.842971150075094 -1.588285585443014 -1.5707605520831507 2.1412930488586426 0.0 0.0 -0.0 -0.0 -0.0 0.0 1 False False
10343.996 3.7121100425720215 -0.8254587215236207 0.8430383841144007 -1.5882889233031214 -1.570784870778219 2.1412975788116455 0.0 0.0 -0.0 -0.0 -0.0 0.0 1 False False
10344.046 3.712111473083496 -0.825495795612671 0.8429935614215296 -1.5882889233031214 -1.5708044211017054 2.141284227371216 0.0 0.0 -0.0 -0.0 -0.0 0.0 1 False False
10344.096 3.7120490074157715 -0.8254615825465699 0.8429845015155237 -1.5882569752135218 -1.5708087126361292 2.14127516746521 0.0 0.0 -0.0 -0.0 -0.0 0.0 1 False False
10344.145999999999 3.712029457092285 -0.825451211338379 0.8429802099810999 -1.5883332691588343 -1.570784870778219 2.141279697418213 0.0 0.0 -0.0 -0.0 -0.0 0.0 1 False False
10344.196 3.7120249271392822 -0.8255046767047425 0.8429673353778284 -1.5883013210692347 -1.5708211104022425 2.14127516746521 0.0 0.0 -0.0 -0.0 -0.0 0.0 1 False False
10344.246 3.7121188640594482 -0.8255171936801453 0.8430040518390101 -1.5883170566954554 -1.5707967917071741 2.1412513256073 0.0 0.0 -0.0 -0.0 -0.0 0.0 1 False False
10344.296 3.712090492248535 -0.8254913848689576 0.8429754416095179 -1.5882932148375453 -1.5707562605487269 2.14127516746521 0.0 0.0 -0.0 -0.0 -0.0 0.0 1 False False
10344.346 3.7120773792266846 -0.8254794639400025 0.8430054823504847 -1.5882650814452113 -1.5707967917071741 2.141258716583252 0.0 0.0 -0.0 -0.0 -0.0 0.0 1 False False
10344.395999999999 3.7120413780212402 -0.8255202335170289 0.8429754416095179 -1.588320871392721 -1.5708254019366663 2.141234874725342 0.0 0.0 -0.0 -0.0 -0.0 0.0 1 False False
10344.446 3.7120981216430664 -0.825425998573639 0.8430126349078577 -1.588269372979635 -1.5707324186908167 2.141291618347168 0.0 0.0 -0.0 -0.0 -0.0 0.0 1 False False
10344.496 3.712062358856201 -0.8254706424525757 0.842992130910055 -1.588252683679098 -1.5707967917071741 2.141282558441162 0.0 0.0 -0.0 -0.0 -0.0 0.0 1 False False
10344.546 3.712106943130493 -0.825495795612671 0.8429721037494105 -1.5882412395873011 -1.5708611647235315 2.141296148300171 0.0 0.0 -0.0 -0.0 -0.0 0.0 1 False False
10344.596 3.71207857131958 -0.825473503475525 0.8429964224444788 -1.5882817707457484 -1.5707724730121058 2.141249656677246 0.0 0.0 -0.0 -0.0 -0.0 0.0 1 False False
10344.645999999999 3.712111234664917 -0.8255039614490052 0.8429754416095179 -1.5882331333556117 -1.5707486311541956 2.1413486003875732 0.0 0.0 -0.0 -0.0 -0.0 0.0 1 False False
10344.696 3.712123155593872 -0.8254453104785462 0.8429721037494105 -1.5883413753905238 -1.5708087126361292 2.1413116455078125 0.0 0.0 -0.0 -0.0 -0.0 0.0 1 False False
10344.746 3.712066650390625 -0.8254706424525757 0.8430245558368128 -1.5882374248900355 -1.5708091894732874 2.141226053237915 0.0 0.0 -0.0 -0.0 -0.0 0.0 1 False False
10344.796 3.712066650390625 -0.8254823845675965 0.8429539839373987 -1.5883094273009242 -1.5708335081683558 2.141284227371216 0.0 0.0 -0.0 -0.0 -0.0 0.0 1 False False
10344.846 3.712070941925049 -0.8254171174815674 0.8430336157428187 -1.5882569752135218 -1.570801083241598 2.141261577606201 0.0 0.0 -0.0 -0.0 -0.0 0.0 1 False False
10344.895999999999 3.7120535373687744 -0.8254587215236207 0.8429802099810999 -1.5882932148375453 -1.570756737385885 2.141284227371216 0.0 0.0 -0.0 -0.0 -0.0 0.0 1 False False
10344.946 3.7120742797851562 -0.8254334491542359 0.8430174032794397 -1.5882932148375453 -1.5707805792437952 2.141291618347168 0.0 0.0 -0.0 -0.0 -0.0 0.0 1 False False
10344.996 3.7120537757873535 -0.8255157035640259 0.8429845015155237 -1.5882846317686976 -1.5707805792437952 2.1412720680236816 0.0 0.0 -0.0 -0.0 -0.0 0.0 1 False False
10345.046 3.7120537757873535 -0.8254882854274292 0.8430054823504847 -1.5882889233031214 -1.5708168188678187 2.141270637512207 0.0 0.0 -0.0 -0.0 -0.0 0.0 1 False False
10345.096 3.7121317386627197 -0.8255202931216736 0.842992130910055 -1.588325639764303 -1.5707529226886194 2.141270637512207 0.0 0.0 -0.0 -0.0 -0.0 0.0 1 False False
10345.145999999999 3.712082862854004 -0.825454370384552 0.8429845015155237 -1.5882650814452113 -1.5707686583148401 2.141322135925293 0.0 0.0 -0.0 -0.0 -0.0 0.0 1 False False
10345.196 3.712066650390625 -0.8254949611476441 0.8429630438434046 -1.5882731876769007 -1.570801083241598 2.141258716583252 0.0 0.0 -0.0 -0.0 -0.0 0.0 1 False False
10345.246 3.7120819091796875 -0.8254543107799073 0.8429964224444788 -1.5882774792113246 -1.5707805792437952 2.1412439346313477 0.0 0.0 -0.0 -0.0 -0.0 0.0 1 False False
10345.296 3.7120981216430664 -0.8255127829364319 0.8430083433734339 -1.5882250271239222 -1.570772949849264 2.1413004398345947 0.0 0.0 -0.0 -0.0 -0.0 0.0 1 False False
10345.346 3.712050199508667 -0.825454370384552 0.8429935614215296 -1.5882731876769007 -1.5708091894732874 2.141284227371216 0.0 0.0 -0.0 -0.0 -0.0 0.0 1 False False
10345.395999999999 3.7120537757873535 -0.8254780334285279 0.8429668585406702 -1.5883575878539027 -1.5707925001727503 2.141247034072876 0.0 0.0 -0.0 -0.0 -0.0 0.0 1 True False
10345.446 3.7120699882507324 -0.8254706424525757 0.8429678122149866 -1.588269372979635 -1.5707805792437952 2.141362190246582 0.0 0.0 -0.0 -0.0 -0.0 0.0 1 True False
10345.496 3.712110996246338 -0.825442449455597 0.8429215590106409 -1.5883094273009242 -1.570784870778219 2.141350269317627 0.0 0.0 -0.0 -0.0 -0.0 0.0 1 True False
10345.546 3.7120580673217773 -0.8255044978908082 0.8429964224444788 -1.5882569752135218 -1.5707967917071741 2.141308546066284 0.0 0.0 -0.0 -0.0 -0.0 0.0 1 True False
10345.596 3.7121024131774902 -0.8254780930331727 0.8429148832904261 -1.5882288418211878 -1.5707805792437952 2.141258955001831 0.0 0.0 -0.0 -0.0 -0.0 0.0 1 True False
10345.645999999999 3.712082862854004 -0.825473741894104 0.8429887930499476 -1.5883056126036585 -1.570784870778219 2.141270637512207 0.0 0.0 -0.0 -0.0 -0.0 0.0 1 True False
10345.696 3.7121024131774902 -0.8255039018443604 0.8429845015155237 -1.5882765255370082 -1.570829216633932 2.1412408351898193 0.0 0.0 -0.0 -0.0 -0.0 0.0 1 True False
10345.746 3.712106704711914 -0.8255039018443604 0.8430822531329554 -1.5883218250670375 -1.5707925001727503 2.141247034072876 0.0 0.0 -0.0 -0.0 -0.0 0.0 1 True False
10345.796 3.7120494842529297 -0.8254707020572205 0.8429802099810999 -1.5882731876769007 -1.5708168188678187 2.141296148300171 0.0 0.0 -0.0 -0.0 -0.0 0.0 1 True False
10345.846 3.7120819091796875 -0.8255112928203125 0.8429520765887659 -1.5883094273009242 -1.570784870778219 2.141230583190918 0.0 0.0 -0.0 -0.0 -0.0 -3.555749117367668e-08 1 True False
10345.895999999999 3.7120819091796875 -0.8254913848689576 0.8429964224444788 -1.5882135830321253 -1.5707891623126429 2.141329526901245 0.0 0.0 -0.0 -0.0 -0.0 0.00021791628387290984 1 True False
10345.946 3.7120862007141113 -0.8254957360080262 0.8429635206805628 -1.5882288418211878 -1.5707772413836878 2.141254186630249 0.0 0.0 -0.0 -0.0 -3.1047920856508426e-07 1.2510173519331147e-06 1 True False
10345.996 3.7120611667633057 -0.8254436415484925 0.8429964224444788 -1.5883056126036585 -1.570801083241598 2.14131760597229 0.0 0.0 -0.0 -0.0 -4.716186432936353e-26 1.9002991140195065e-25 1 True False
10346.046 3.7121713161468506 -0.8255438965610047 0.843081299458639 -1.5883294544615687 -1.5707925001727503 2.141258716583252 0.02854720875620842 -0.014879385009407997 0.014573662541806698 -0.0007724626921117306 -7.006492321624085e-45 -0.007790041621774435 1 True False
10346.096 3.714329481124878 -0.8271992963603516 0.8453391234027308 -1.588959356347555 -1.5708449522601526 2.139789581298828 0.07526805251836777 -0.05772003158926964 0.08481291681528091 -0.02316596545279026 -2.166120616209355e-08 -0.04508672282099724 1 True False
10346.145999999999 3.7196078300476074 -0.8314370077899476 0.8517029921161097 -1.5907188854613246 -1.5707967917071741 2.13651704788208 0.14039281010627747 -0.11504256725311279 0.1545979082584381 -0.04441220685839653 -3.290341917164751e-27 -0.08597762882709503 1 True False
10346.196 3.7279906272888184 -0.8386015456965943 0.8611014525042933 -1.593417306939596 -1.5708254019366663 2.1311919689178467 0.19657254219055176 -0.16424348950386047 0.2292022705078125 -0.05658875033259392 -0.0 -0.12249954044818878 1 True False
10346.246 3.7394847869873047 -0.8479969066432496 0.8742654959308069 -1.596983095208639 -1.570801083241598 2.123941659927368 0.2551942765712738 -0.211517333984375 0.29209819436073303 -0.08254451304674149 -0.0 -0.15837588906288147 1 True False
10346.296 3.7538869380950928 -0.859929696922638 0.8907740751849573 -1.6015931568541468 -1.5708497206317347 2.1148557662963867 0.317740261554718 -0.26294541358947754 0.3652702569961548 -0.0993163213133812 5.761122883995995e-05 -0.19896483421325684 1 True False
10346.346 3.7714316844940186 -0.8743813794902344 0.9109161535846155 -1.6072384319701136 -1.5708048979388636 2.1038239002227783 0.37872451543807983 -0.3111734390258789 0.42906448245048523 -0.11886381357908249 2.9650213036802597e-05 -0.24238070845603943 1 True False
10346.395999999999 3.791858673095703 -0.8912958663753052 0.9342878500567835 -1.6138016186156214 -1.5707686583148401 2.0907833576202393 0.43959158658981323 -0.36238017678260803 0.5074090957641602 -0.14334453642368317 0.00012011794751742855 -0.2717960774898529 1 True False
10346.446 3.8157784938812256 -0.9107081455043335 0.9612687269793909 -1.621430059472555 -1.570756737385885 2.0758631229400635 0.5040956139564514 -0.4112008213996887 0.5720165967941284 -0.16419397294521332 0.0006332889315672219 -0.316685289144516 1 True False
10346.496 3.8422248363494873 -0.9324912589839478 0.9917681852923792 -1.6298634014525355 -1.5708172957049769 2.0590131282806396 0.5653225183486938 -0.4574549198150635 0.6449636220932007 -0.17178769409656525 -0.0001295996189583093 -0.34950152039527893 1 True False
10346.546 3.8718793392181396 -0.9572026890567322 1.0256465117083948 -1.6393948994078578 -1.5708373228656214 2.0402894020080566 0.61916583776474 -0.5136061310768127 0.7129534482955933 -0.19347411394119263 -0.000256946514127776 -0.3999249339103699 1 True False
10346.596 3.9047982692718506 -0.9839823406985779 1.063071076069967 -1.6498624287047328 -1.570740048085348 2.019545555114746 0.6809113025665283 -0.5687714219093323 0.7788342237472534 -0.2184969037771225 -0.0001372445112792775 -0.4329691231250763 1 True False
10346.645999999999 3.9405517578125 -1.0136588972857972 1.1040928999530237 -1.6613122425475062 -1.5707972685443323 1.9968093633651733 0.747870922088623 -0.621467113494873 0.8465787768363953 -0.24478761851787567 -0.00014473941700998694 -0.46566444635391235 1 True False
10346.696 3.9794256687164307 -1.0455942910960694 1.1485627333270472 -1.6735841236510218 -1.5707972685443323 1.9722425937652588 0.8139156103134155 -0.6684369444847107 0.9208107590675354 -0.2571885585784912 5.754989979323e-05 -0.5120311975479126 1 True False
10346.746 4.021425724029541 -1.0801091653159638 1.196390453969137 -1.6871377430357875 -1.5707357565509241 1.94581139087677 0.8653398156166077 -0.7161856293678284 0.9876375794410706 -0.2854016423225403 1.7362506696372293e-05 -0.5525041818618774 1 True False
10346.796 4.066315650939941 -1.1171269875815888 1.2477386633502405 -1.7013856373228968 -1.5707772413836878 1.9174416065216064 0.9116895198822021 -0.7526728510856628 1.0426126718521118 -0.28894278407096863 5.29711262613771e-23 -0.5791001319885254 1 True False
10346.846 4.1120805740356445 -1.1548365217498322 1.3001158873187464 -1.715984960595602 -1.570740048085348 1.8884377479553223 0.9196212887763977 -0.7517412304878235 1.0521981716156006 -0.2831425368785858 7.80516056693159e-05 -0.5814852714538574 1 True False
10346.895999999999 4.157933712005615 -1.192595050936081 1.352436367665426 -1.7305928669371546 -1.570784870778219 1.8594332933425903 0.9123238921165466 -0.7496232390403748 1.0476802587509155 -0.301346093416214 -0.0006677779601886868 -0.5841078162193298 1 True False
10346.946 4.203794956207275 -1.2302962404540558 1.4047835508929651 -1.7451898060240687 -1.5708087126361292 1.8304837942123413 0.9177036285400391 -0.7550914287567139 1.0461939573287964 -0.3074238896369934 -7.86459568189457e-05 -0.5744690895080566 1 True False
10346.996 4.249693870544434 -1.2680177253535767 1.4572303930865687 -1.759900232354635 -1.5708406607257288 1.8015004396438599 0.9161287546157837 -0.7582111358642578 1.0405511856079102 -0.2964591085910797 9.963841557381059e-11 -0.5753613114356995 1 True False
10347.046 4.295443534851074 -1.3057183188251038 1.5094268957721155 -1.7747475109496058 -1.570756737385885 1.7725541591644287 0.918940007686615 -0.7550235390663147 1.0396536588668823 -0.30827176570892334 0.0009640174685046077 -0.5758787393569946 1 True False
10347.096 4.341238498687744 -1.343400390153267 1.5617340246783655 -1.789096017877096 -1.5707891623126429 1.7435801029205322 0.8982702493667603 -0.7382618188858032 1.0363324880599976 -0.27965351939201355 -0.0006094579584896564 -0.5646796226501465 1 True False
10347.145999999999 4.384671688079834 -1.37934002399955 1.6116121451007288 -1.8030649624266566 -1.5708335081683558 1.7160062789916992 0.8469593524932861 -0.691419780254364 0.9681836366653442 -0.25453129410743713 0.0004023740184493363 -0.5273511409759521 1 True False
10347.196 4.425239562988281 -1.4126994919827958 1.657907787953512 -1.8160630665221156 -1.5708420912372034 1.6904911994934082 0.7808035016059875 -0.6362336874008179 0.8938414454460144 -0.2552134394645691 -0.0009697526693344116 -0.4973742663860321 1 True False
10347.246 4.462751388549805 -1.4436369848302384 1.700907055531637 -1.8280283413329066 -1.5708254019366663 1.6668026447296143 0.7137772440910339 -0.5909624695777893 0.8205371499061584 -0.2393888384103775 -0.00011921997793251649 -0.4560403823852539 1 True False
10347.296 4.497227668762207 -1.4719239857843895 1.7402241865741175 -1.8387366733946742 -1.570813004170553 1.6449798345565796 0.6572856903076172 -0.5394359827041626 0.7551448345184326 -0.18959863483905792 -0.0020642343442887068 -0.41632306575775146 1 True False
10347.346 4.528613567352295 -1.497732163672783 1.775914494191305 -1.8489862881102503 -1.5707724730121058 1.625113606452942 0.599902868270874 -0.48863279819488525 0.690481960773468 -0.19701002538204193 2.6990409907057256e-11 -0.38124313950538635 1 True False
10347.395999999999 4.557042598724365 -1.5210204024663945 1.808148209248678 -1.858150144616598 -1.5708044211017054 1.6072348356246948 0.537131667137146 -0.43756571412086487 0.60776287317276 -0.17432312667369843 -0.00024138593289535493 -0.3408488631248474 1 True False
10347.446 4.582183361053467 -1.5419068311205884 1.8371155897723597 -1.8661204777159632 -1.5707648436175745 1.5912531614303589 0.48120471835136414 -0.38899722695350647 0.5413941144943237 -0.14741680026054382 -0.0002864987473003566 -0.29496482014656067 1 True False
10347.496 4.604361534118652 -1.5600780465504904 1.8626964727984827 -1.8730341396727503 -1.5708087126361292 1.5772812366485596 0.4174211323261261 -0.3409034311771393 0.4749683737754822 -0.12186849862337112 1.9554649099973176e-07 -0.26199641823768616 1 True False
10347.546 4.623620510101318 -1.57603182415151 1.8843682448016565 -1.8794108829894007 -1.570813004170553 1.5651546716690063 0.34893903136253357 -0.2876567840576172 0.401580274105072 -0.10641554743051529 -0.00015027819608803838 -0.22738507390022278 1 True False
10347.596 4.639676570892334 -1.5893317661681117 1.90261155763735 -1.8845788441100062 -1.5707648436175745 1.5548990964889526 0.2953295111656189 -0.24694964289665222 0.32583126425743103 -0.0946049764752388 -5.087419776828028e-05 -0.1823745220899582 1 True False
10347.645999999999 4.6528191566467285 -1.5999337635436 1.9179933706866663 -1.8885113201537074 -1.5708006064044397 1.5466762781143188 0.22834055125713348 -0.18711914122104645 0.2614268362522125 -0.08786434680223465 -0.00021674062008969486 -0.1479678899049759 1 True False
10347.696 4.662725925445557 -1.6081906757750453 1.9290717283831995 -1.8918200931944789 -1.5708125273333948 1.5404261350631714 0.17163166403770447 -0.13732029497623444 0.2003084123134613 -0.05432073026895523 -3.9550257137868643e-22 -0.10959558188915253 1 True False
10347.746 4.669733047485352 -1.6138693294920863 1.9369929472552698 -1.8939587078490199 -1.5707367102252405 1.5359511375427246 0.10953567922115326 -0.09325868636369705 0.12168823927640915 -0.03384484350681305 -6.007646776253356e-41 -0.07188872247934341 1 True False
10347.796 4.673636436462402 -1.6171251736082972 1.9415815512286585 -1.8953200779356898 -1.570784870778219 1.5334888696670532 0.04857320711016655 -0.040342748165130615 0.058556556701660156 -0.015153893269598484 -0.0 -0.030999381095170975 1 True False
10347.846 4.674447536468506 -1.617786546746725 1.942587677632467 -1.895635267297262 -1.5708125273333948 1.532963514328003 0.0028792154043912888 0.009578688070178032 0.010576597414910793 -0.02534196898341179 -0.0 0.0005097278626635671 1 True False
10347.895999999999 4.674453258514404 -1.6168786487975062 1.9443071524249476 -1.8982144794859828 -1.570772949849264 1.532996654510498 0.0005462948465719819 0.030246494337916374 0.051427941769361496 -0.07751072943210602 -0.0 1.4910483600843322e-14 1 True False
10347.946 4.674509048461914 -1.6146861515440882 1.948000733052389 -1.904337545434469 -1.5708444754229944 1.532899260520935 0.00044099282240495086 0.06345395743846893 0.09623263776302338 -0.15612946450710297 -0.0 -0.0005349558778107166 1 True False
10347.996 4.674471378326416 -1.610964914361471 1.9538396040545862 -1.9137307606139125 -1.5707767645465296 1.5329352617263794 0.0007910828571766615 0.09173789620399475 0.1351788491010666 -0.2209928035736084 9.289996479337412e-14 -0.000255758932325989 1 True False
10348.046 4.67446231842041 -1.6058503590025843 1.9618900457965296 -1.9267798862852992 -1.5708525816546839 1.532899260520935 0.0002718534669838846 0.11472701281309128 0.1880870908498764 -0.2929939329624176 1.4111524624241487e-32 -0.00017244605987798423 1 True False
10348.096 4.674570083618164 -1.599589010278219 1.9719341436969202 -1.943376203576559 -1.5707967917071741 1.532936453819275 0.00020707841031253338 0.13826623558998108 0.22225265204906464 -0.35209813714027405 0.0 -0.00010903560178121552 1 True False
10348.145999999999 4.6745100021362305 -1.5917188129820765 1.9846466223346155 -1.9632398090758265 -1.5707767645465296 1.532915711402893 0.00013425791985355318 0.16528643667697906 0.2651015818119049 -0.4315047264099121 0.0 -7.245789311127737e-05 1 True False
10348.196 4.6745524406433105 -1.5828420124449671 1.9987180868731897 -1.9865833721556605 -1.570784870778219 1.532957673072815 9.659461647970602e-05 0.19418884813785553 0.316305011510849 -0.49936479330062866 0.0 -6.516094955277829e-12 1 True False
10348.246 4.674482345581055 -1.57255282024526 2.0155003706561487 -2.013759275475973 -1.570829216633932 1.5329859256744385 7.980427471920848e-05 0.2228519469499588 0.3502112030982971 -0.5700897574424744 0.0 -9.897967122059394e-31 1 True False
10348.296 4.6745076179504395 -1.5611005586436768 2.0333803335772913 -2.042995115319723 -1.5707605520831507 1.532899260520935 5.135408719070256e-05 0.21682901680469513 0.3490943908691406 -0.5747989416122437 6.980213242968603e-07 -0.0 1 True False
10348.346 4.674498558044434 -1.551087937583663 2.0497992674456995 -2.069493433038229 -1.570813004170553 1.532891869544983 1.0083055525463598e-31 0.19388826191425323 0.3018319010734558 -0.49695631861686707 3.487480717012659e-05 -0.0 1 True False
10348.395999999999 4.674563884735107 -1.5423086707345028 2.0637057463275355 -2.092513223687643 -1.5707805792437952 1.5329066514968872 0.0 0.16916637122631073 0.264918714761734 -0.42984041571617126 5.297493251524479e-24 -0.0 1 True False
10348.446 4.674544811248779 -1.5346537430635472 2.0760701338397425 -2.1119352779784144 -1.5707805792437952 1.5329275131225586 0.0 0.13735336065292358 0.21496495604515076 -0.36086469888687134 8.04345318522445e-43 -0.0 1 True False
10348.496 4.674540042877197 -1.5285009530237694 2.085611645375387 -2.1279941997923792 -1.5708211104022425 1.5329066514968872 0.0 0.1072058156132698 0.1762133240699768 -0.28535640239715576 0.0 -0.0 1 True False
10348.546 4.674530982971191 -1.5238169480911274 2.093287769948141 -2.140578886071676 -1.5707362333880823 1.5329442024230957 0.0 0.08225618302822113 0.13742400705814362 -0.21652263402938843 0.0 -0.0 1 True False
10348.596 4.6744489669799805 -1.5202839647284527 2.0989630858050745 -2.1494256458678187 -1.5707967917071741 1.5329532623291016 0.0 0.05583693087100983 0.09104881435632706 -0.14214256405830383 0.0 -2.627283451529291e-17 1 True False
10348.645999999999 4.6745076179504395 -1.5181900312057515 2.1024964491473597 -2.1550432644286097 -1.5708778540240687 1.532899260520935 0.0 0.028431935235857964 0.045622456818819046 -0.07460613548755646 0.0 -3.990850314986966e-36 1 True False
10348.696 4.674532413482666 -1.5174154576710244 2.1036985556231897 -2.156938215295309 -1.5707405249225062 1.532936453819275 0.0 1.2650466487684753e-05 0.002079147845506668 -0.006448038853704929 0.0 -0.0 1 True False
10348.746 4.6745476722717285 -1.5174384538880368 2.1036580244647425 -2.1569906673827113 -1.570784870778219 1.53296959400177 0.0 0.0005023714620620012 0.00028074035071767867 0.0001669465855229646 0.0 -0.0 1 True False
10348.796 4.674514293670654 -1.5173980940929432 2.1036704222308558 -2.156914373437399 -1.570829216633932 1.532891869544983 0.0 0.0013187346048653126 0.0001226125459652394 -7.872017886256799e-05 0.0 -0.0 1 True False
10348.846 4.674525260925293 -1.5174189370921631 2.1036747137652796 -2.1569258175291957 -1.5707648436175745 1.5329155921936035 0.0 0.00013765686890110373 3.8385463994927704e-05 -0.0004452011198736727 0.0 -0.0 1 True False
10348.895999999999 4.674531936645508 -1.5174602319351216 2.1036461035357874 -2.15700687984609 -1.5708492437945765 1.5328829288482666 0.0 0.00018079626897815615 3.715750790433958e-05 -0.0007131271413527429 0.0 -0.0 1 True False
10348.946 4.67452335357666 -1.5173980382135888 2.1036370436297815 -2.157070299188131 -1.5707967917071741 1.5329487323760986 0.0 0.00019029370741918683 3.676383494166657e-05 -0.0005341070936992764 0.0 -0.0 1 True False
10348.996 4.6744866371154785 -1.5173948568156739 2.1036861578570765 -2.1570378742613734 -1.570784870778219 1.5329561233520508 0.0 0.00016174920892808586 1.2930977767505389e-14 -0.0001973089820239693 0.0 -0.0 1 True False
10349.046 4.674526691436768 -1.5174189370921631 2.103612248097555 -2.1570779285826625 -1.570829216633932 1.5328902006149292 0.0 0.00010790472879307345 1.5098845668478364e-19 -7.790096424287185e-05 0.0 -0.0 1 True False
10349.096 4.674495697021484 -1.5173373718610783 2.1036580244647425 -2.157042165795797 -1.570784870778219 1.5329245328903198 0.0 8.600895671406761e-05 0.0 -4.3506737711140886e-05 0.0 -0.0 1 True False
10349.145999999999 4.6744914054870605 -1.5173504550806065 2.1036489645587366 -2.15708651165151 -1.5707686583148401 1.5329185724258423 0.0 1.4213790713185917e-40 0.0 -2.6783258306387638e-18 0.0 -0.0 1 True False
10349.196 4.674549102783203 -1.5174524945071717 2.1036537329303187 -2.157086034814352 -1.5707967917071741 1.5329155921936035 0.0 0.0 0.0 -4.068382881033858e-37 0.0 -0.0 1 True False
10349.246 4.674561023712158 -1.5173817959478875 2.1036747137652796 -2.1570903263487757 -1.5708211104022425 1.5329111814498901 0.0 0.0 0.0 -0.0 0.0 -0.0 1 True False
10349.296 4.674514293670654 -1.517497969125845 2.1035307089435022 -2.1571418247618617 -1.570756737385885 1.5330010652542114 -1.0962038459183532e-06 -0.00041933823376893997 -0.0006043114699423313 -0.000625095737632364 0.0004537677741609514 5.770614734501578e-05 1 True False
10349.346 4.674549102783203 -1.5174948287061234 2.1035998503314417 -2.1571699581541957 -1.5708048979388636 1.5329275131225586 0.0 0.0006262323586270213 0.00043565715895965695 -6.607944669667631e-05 0.00010918325278908014 8.765576254213454e-24 1 True False
10349.395999999999 4.67453145980835 -1.51743412510071 2.1035669485675257 -2.157194276849264 -1.5707967917071741 1.532974123954773 0.0 0.0008631403907202184 0.0007445602677762508 -6.57169181295103e-08 4.660929334932007e-05 1.3312335411085762e-42 1 True True
10349.446 4.674527645111084 -1.517654651110508 2.1033270994769495 -2.1562396488585414 -1.5707362333880823 1.5329680442810059 0.0 -0.013670443557202816 -0.021865060552954674 0.04999757185578346 -1.5953462934703566e-05 0.0 1 True True
10349.496 4.674553394317627 -1.519086056654789 2.101021114979879 -2.1522423229613246 -1.5708048979388636 1.5329397916793823 0.0 -0.050325214862823486 -0.07969265431165695 0.11095728725194931 -1.6525328250800681e-16 -7.853915917621634e-07 1 True True
10349.546 4.674531936645508 -1.5219998148134728 2.0960267225848597 -2.1445070705809535 -1.570813004170553 1.5329769849777222 0.0 -0.07378903031349182 -0.12003985792398453 0.17572304606437683 -2.5102010314744294e-35 -5.043075725552626e-05 1 True True
10349.596 4.674519062042236 -1.5264015917531033 2.0891507307635706 -2.133322855035299 -1.5708335081683558 1.5329245328903198 0.0 -0.09877380728721619 -0.15521733462810516 0.24797526001930237 -0.0 -9.2526082880795e-05 1 True True
10349.645999999999 4.674504280090332 -1.5320290748826046 2.0801685492144983 -2.1188374958434046 -1.5707925001727503 1.532915711402893 0.0 -0.12175606936216354 -0.19623175263404846 0.32297754287719727 -0.0 -9.149470088232192e-07 1 True True
10349.696 4.674565315246582 -1.5390848492136975 2.068928066884176 -2.100802084008688 -1.5707529226886194 1.5328917503356934 0.0 -0.15126855671405792 -0.2439107596874237 0.40135619044303894 -0.0 -1.3898058983546455e-25 1 True True
10349.746 4.67459774017334 -1.54723351195965 2.055755917225973 -2.079219480554098 -1.5708211104022425 1.5329082012176514 0.0 -0.18137358129024506 -0.2842954099178314 0.4665055572986603 -0.0 -2.1019476964872256e-44 1 True True
10349.796 4.674557685852051 -1.556912900214531 2.0403464476214808 -2.0540811024107875 -1.5707686583148401 1.5329111814498901 0.0 -0.20530632138252258 -0.32820379734039307 0.5292081236839294 -0.0 -0.0 1 True True
10349.846 4.674561023712158 -1.5679847668255498 2.0226290861712855 -2.025637289086813 -1.5707648436175745 1.5329785346984863 0.0 -0.23164069652557373 -0.3709333837032318 0.5969452261924744 -0.0 -0.0 1 True True
10349.895999999999 4.6744914054870605 -1.578686853448385 2.0052087942706507 -1.9972759685912074 -1.5707925001727503 1.5329397916793823 0.0 -0.20717616379261017 -0.3312005400657654 0.5420815348625183 -0.0 -0.0 1 True True
10349.946 4.674483776092529 -1.5884415111937464 1.9900901953326624 -1.9723345241942347 -1.5707843939410608 1.5329396724700928 0.0 -0.17718923091888428 -0.2808542549610138 0.4671627879142761 -0.0 -0.0 1 True True
10349.996 4.674548625946045 -1.5966512165465296 1.976795498524801 -1.951000829736227 -1.570784870778219 1.532903790473938 0.0 -0.14690335094928741 -0.23778288066387177 0.387795090675354 -0.0 -0.0 1 True True
10350.046 4.67452335357666 -1.6034313640990199 1.9657624403582972 -1.932943960229391 -1.570829216633932 1.5329606533050537 0.0 -0.12320010364055634 -0.20169460773468018 0.32828864455223083 -0.0 -0.0 1 True True
10350.096 4.674535751342773 -1.6089850864806117 1.9568846861468714 -1.918647905389303 -1.5707405249225062 1.5329201221466064 0.0 -0.09791315346956253 -0.16016314923763275 0.2498575747013092 -0.0 -0.0 1 True True
10350.145999999999 4.674454212188721 -1.6131068668761195 1.9502342383014124 -1.907675405541891 -1.5707529226886194 1.5329487323760986 0.0 -0.07261484861373901 -0.11456118524074554 0.19601207971572876 -0.0 -0.0 1 True True
10350.196 4.674531936645508 -1.6160656414427699 1.9454940001117151 -1.9001642666258753 -1.570857350026266 1.5329110622406006 -1.7568879684404237e-07 -0.04612671956419945 -0.07510429620742798 0.11773468554019928 -0.0 -0.0 1 True True
10350.246 4.6744914054870605 -1.617627283135885 1.9430812040912073 -1.8963457546629847 -1.5707925001727503 1.5329320430755615 0.0 -0.017806144431233406 -0.02626619301736355 0.04723462834954262 -0.0 2.5697247565403813e-06 1 True True
10350.296 4.674295425415039 -1.6177226505675257 1.9427316824542444 -1.8955871067442835 -1.5707891623126429 1.532974123954773 -0.025988182052969933 0.010058935731649399 -0.01043699774891138 0.0026665234472602606 -5.845448569630207e-09 3.903417865387454e-25 1 True True
10350.346 4.671304702758789 -1.6168953380980433 1.9413688818561 -1.8953315220274867 -1.5707805792437952 1.5329201221466064 -0.09352722018957138 0.027208613231778145 -0.0363711379468441 0.009835680946707726 -8.879246748809664e-28 6.581757770618424e-05 1 True True
10350.395999999999 4.664711952209473 -1.6149503193297328 1.9388998190509241 -1.894832273522848 -1.5707648436175745 1.5329936742782593 -0.16546812653541565 0.050948917865753174 -0.06372297555208206 0.009709405712783337 -9.065793710760772e-05 0.001779052778147161 1 True True
10350.446 4.6547532081604 -1.6118728123106898 1.9352472464190882 -1.8941546879210414 -1.570813004170553 1.5330235958099365 -0.23667043447494507 0.07652969658374786 -0.0909021869301796 0.012945491820573807 -6.02968102612067e-05 0.0014823003439232707 1 True True
10350.496 4.641114711761475 -1.6076227627196253 1.9299147764789026 -1.8932839832701625 -1.5708168188678187 1.5331429243087769 -0.30410486459732056 0.0971800908446312 -0.11875742673873901 0.020422866567969322 -0.0001407751115038991 0.0023566021118313074 1 True True
10350.546 4.624297618865967 -1.60231413463735 1.9234841505633753 -1.8920985660948695 -1.5707405249225062 1.5333002805709839 -0.3758070468902588 0.11498593538999557 -0.14646245539188385 0.020826594904065132 -8.162359881680459e-05 0.002916906028985977 1 True True
10350.596 4.603727340698242 -1.595870157281393 1.9157264868365687 -1.8905774555602015 -1.5708087126361292 1.5335248708724976 -0.43998464941978455 0.1348543018102646 -0.16284605860710144 0.03000687062740326 -1.88260431549514e-13 0.0035976790823042393 1 True True
10350.645999999999 4.579698085784912 -1.5885092220702113 1.9065936247455042 -1.8890563450255335 -1.5707925001727503 1.5336670875549316 -0.5115305185317993 0.15746229887008667 -0.18799830973148346 0.034693051129579544 -2.85968006160628e-32 0.003965350333601236 1 True True
10350.696 4.552331447601318 -1.5800816021361292 1.8963220755206507 -1.8868972263731898 -1.570772949849264 1.5338244438171387 -0.5864840745925903 0.1784268617630005 -0.22229714691638947 0.04337400197982788 0.0002074089425150305 0.005025272257626057 1 True True
10350.746 4.521467208862305 -1.57049763619246 1.8846352736102503 -1.884853025475973 -1.5706923643695276 1.534080147743225 -0.6547008752822876 0.2043643593788147 -0.24716393649578094 0.04669489338994026 -1.1004055444630012e-08 0.0049894810654222965 1 True True
10350.796 4.487075328826904 -1.5598507470316072 1.8714593092547815 -1.8824740848936976 -1.5707371870623987 1.5343526601791382 -0.7201054692268372 0.2200842946767807 -0.27334192395210266 0.055071376264095306 0.0012824877630919218 0.005153759848326445 1 True True
10350.846 4.449071407318115 -1.548250339259841 1.857161823903219 -1.8797322712340296 -1.5707529226886194 1.5346488952636719 -0.788917064666748 0.24630106985569 -0.3013485074043274 0.05121626704931259 0.0010486423270776868 0.0069814096204936504 1 True True
10350.895999999999 4.407583236694336 -1.5353764493814488 1.8413308302508753 -1.876920839349264 -1.5707925001727503 1.534960150718689 -0.8602588772773743 0.2652537226676941 -0.3301105797290802 0.06380636990070343 -6.336008540747118e-12 0.005203272216022015 1 True True
10350.946 4.362687587738037 -1.5214533035508175 1.824390713368551 -1.8736988506712855 -1.570784870778219 1.5353282690048218 -0.9327554106712341 0.2813965380191803 -0.34646594524383545 0.07585727423429489 -0.00017447858408559114 0.007200978696346283 1 True True
10350.996 4.3142290115356445 -1.5064553928426285 1.8058283964740198 -1.8704191646971644 -1.5707967917071741 1.53571617603302 -1.0037461519241333 0.31358495354652405 -0.3812197744846344 0.07287176698446274 2.231828211643359e-18 0.008795281872153282 1 True True
10351.046 4.262528419494629 -1.4904742327383538 1.7864416281329554 -1.8666569195189417 -1.570813004170553 1.536102294921875 -1.0494000911712646 0.32000604271888733 -0.404388427734375 0.07705052196979523 -0.00025042248307727277 0.007701441645622253 1 True True
10351.096 4.210212707519531 -1.4743524503758927 1.7666576544391077 -1.863119741479391 -1.5708254019366663 1.5364853143692017 -1.0530351400375366 0.32813745737075806 -0.40022873878479004 0.07210586965084076 -0.00041745739872567356 0.008891968056559563 1 True True
10351.145999999999 4.157817363739014 -1.458116852944233 1.746718708668844 -1.8593913517394007 -1.5708044211017054 1.5368386507034302 -1.0471367835998535 0.31747010350227356 -0.4028594195842743 0.07612457126379013 4.46494823336252e-06 0.008236192166805267 1 True True
10351.196 4.105452060699463 -1.4419633609107514 1.7268832365619105 -1.8557406864561976 -1.5708087126361292 1.537233591079712 -1.0449092388153076 0.32606327533721924 -0.3909466862678528 0.0753180980682373 6.782262200997726e-25 0.00843186117708683 1 True True
10351.246 4.053212642669678 -1.4257259380868454 1.7071650663958948 -1.851980825463766 -1.5708406607257288 1.5376659631729126 -1.0519235134124756 0.3235231637954712 -0.39319196343421936 0.07362695038318634 3.8266381352514145e-07 0.007728842087090015 1 True True
10351.296 4.000782489776611 -1.40962506950412 1.6869905630694788 -1.8485166035094203 -1.5708487669574183 1.5381197929382324 -1.0445611476898193 0.32434308528900146 -0.4009377360343933 0.06844893842935562 -3.4862668307766853e-09 0.007087944075465202 1 True True
10351.346 3.9484975337982178 -1.3933129620603104 1.6674535910235804 -1.8445526562132777 -1.5708254019366663 1.538437008857727 -1.0437278747558594 0.32133468985557556 -0.39727261662483215 0.06750298291444778 -7.279493843270757e-07 0.007489506620913744 1 True True
10351.395999999999 3.8961026668548584 -1.3772168916514893 1.647435490285055 -1.8411103687682093 -1.570768181477682 1.5387932062149048 -1.0492078065872192 0.32738956809043884 -0.3922171890735626 0.07666227966547012 -1.1057570544262226e-25 0.008242713287472725 1 True True
10351.446 3.8436601161956787 -1.3610221159509202 1.627563778554098 -1.8374859295287074 -1.5707891623126429 1.5392932891845703 -1.0470998287200928 0.32126832008361816 -0.4064910411834717 0.0574953518807888 -8.642522152513266e-05 0.009741410613059998 1 True True
10351.496 3.7913315296173096 -1.3447097551873703 1.6079676787005823 -1.8338161907591761 -1.5707724730121058 1.5396254062652588 -1.0446600914001465 0.32610034942626953 -0.39906296133995056 0.07096970081329346 -2.524123854822394e-18 0.007815959863364697 1 True True
10351.546 3.7389698028564453 -1.328722597365715 1.5878399054156702 -1.830148836175436 -1.5707925001727503 1.540084958076477 -1.0461980104446411 0.3203844130039215 -0.39652642607688904 0.06457484513521194 -3.834149004385459e-37 0.009241027757525444 1 True True
10351.596 3.686629295349121 -1.3123162549785157 1.568136994038717 -1.8264733753600062 -1.5707967917071741 1.5404232740402222 -1.048357605934143 0.3257068991661072 -0.39007994532585144 0.07003980875015259 -0.0 0.007760253269225359 1 True True
10351.645999999999 3.6342992782592773 -1.2962871354869385 1.5482619444476526 -1.8227998218932093 -1.5707686583148401 1.5408587455749512 -1.040993094444275 0.3238978683948517 -0.39531373977661133 0.07491500675678253 -0.0 0.007921364158391953 1 True True
10351.696 3.5819408893585205 -1.280031905775406 1.5282757917987269 -1.8192173443236292 -1.5707967917071741 1.5412672758102417 -1.0489367246627808 0.32313355803489685 -0.39772894978523254 0.08075319230556488 -0.0 0.007699561771005392 1 True True
10351.746 3.529572010040283 -1.2639010411551972 1.5086386839496058 -1.8154851398863734 -1.5708168188678187 1.5416457653045654 -1.0486228466033936 0.3222076892852783 -0.40178579092025757 0.07075189799070358 -0.0 0.007640388794243336 1 True True
10351.796 3.47773814201355 -1.247755543594696 1.4889896551715296 -1.8117519817748011 -1.5707967917071741 1.542039394378662 -0.9999600648880005 0.3140951097011566 -0.38074856996536255 0.08294862508773804 -4.1561264652045793e-07 0.007243878673762083 1 True True
10351.846 3.4292354583740234 -1.2329286199859162 1.4703601042376917 -1.8086148701109828 -1.5708168188678187 1.5424407720565796 -0.9398756623268127 0.2859174907207489 -0.3585969805717468 0.05938480794429779 0.0001407019153703004 0.008392812684178352 1 True True
10351.895999999999 3.384272575378418 -1.218863771562912 1.4536097685443323 -1.8052503071227015 -1.570756737385885 1.5427803993225098 -0.8662360906600952 0.2751924395561218 -0.330111026763916 0.06767626851797104 0.0010158432414755225 0.005878460127860308 1 True True
10351.946 3.3427791595458984 -1.2062022250941773 1.437545124684469 -1.8024188480772914 -1.5707648436175745 1.5430824756622314 -0.8009895086288452 0.24247464537620544 -0.3020707368850708 0.055658407509326935 6.418220792492169e-21 0.00611857557669282 1 True True
10351.996 3.30454158782959 -1.194280819301941 1.4233887831317347 -1.799692293206686 -1.5708368460284632 1.5433775186538696 -0.7267625331878662 0.22824935615062714 -0.2729603350162506 0.043031562119722366 1.4820113452412853e-12 0.004398369695991278 1 True True
10352.046 3.270008087158203 -1.1835131508162995 1.4101045767413538 -1.79718079189443 -1.5707886854754847 1.543591856956482 -0.6599259972572327 0.2015068084001541 -0.24102112650871277 0.046631813049316406 7.568850560346618e-05 0.004225306678563356 1 True True
10352.096 3.2389938831329346 -1.1741514664939423 1.3984530607806605 -1.795171400109762 -1.5707767645465296 1.5439178943634033 -0.5876784324645996 0.18262742459774017 -0.22338169813156128 0.04144562780857086 5.552893708227202e-05 0.004904869943857193 1 True True
10352.145999999999 3.2113709449768066 -1.1655469697764893 1.388015095387594 -1.7932735882201136 -1.570813004170553 1.544087290763855 -0.5160630345344543 0.16151642799377441 -0.19883814454078674 0.03243854641914368 6.8728202518237094e-15 0.0036230229306966066 1 True True
10352.196 3.1871869564056396 -1.1579091411880036 1.3787372748004358 -1.791471620599264 -1.5708487669574183 1.5442261695861816 -0.4480951130390167 0.13781210780143738 -0.16979682445526123 0.03516829386353493 1.043982981588167e-33 0.005091583356261253 1 True True
10352.246 3.1664299964904785 -1.1516013902476807 1.3709004561053675 -1.7900682888426722 -1.5708616415606897 1.5443867444992065 -0.3788832724094391 0.11708671599626541 -0.14562353491783142 0.021611180156469345 0.00012979986786376685 0.0029782126657664776 1 True True
10352.296 3.1496589183807373 -1.146361307506897 1.3645160833941858 -1.7888885937132777 -1.5707529226886194 1.5445556640625 -0.3106011748313904 0.09672190994024277 -0.12467367202043533 0.016989916563034058 0.00032254919642582536 0.0024860205594450235 1 True True
10352.346 3.135822296142578 -1.14216302454982 1.3593576590167444 -1.7878595791258753 -1.5708168188678187 1.544625997543335 -0.23632381856441498 0.07566464692354202 -0.09185118973255157 0.019171999767422676 1.842516638622254e-19 0.0020526789594441652 1 True True
10352.395999999999 3.125741958618164 -1.139051930313446 1.3555191198932093 -1.7873178921141566 -1.5708335081683558 1.5447380542755127 -0.17341069877147675 0.05105556920170784 -0.06126704439520836 0.010975662618875504 -2.2953601728659123e-05 0.0020651298109441996 1 True True
10352.446 3.1191184520721436 -1.1370148223689576 1.353009049092428 -1.7867666683592738 -1.570801083241598 1.5447516441345215 -0.099992536008358 0.03152446821331978 -0.04329695925116539 0.003886275924742222 -1.399018492520554e-05 0.0010562611278146505 1 True True
10352.496 3.1159508228302 -1.1360062223723908 1.3517330328570765 -1.7866198025145472 -1.570853058491842 1.5447561740875244 -0.029079390689730644 0.01149093359708786 -0.009254712611436844 0.002522690687328577 -1.007479841064196e-05 0.0003268124128226191 1 True True
10352.546 3.115731954574585 -1.1357830327800293 1.3519886175738733 -1.7870151005186976 -1.5707443396197718 1.544785976409912 0.0003755695070140064 0.015792667865753174 0.023329894989728928 -0.029726585373282433 -8.564420667686622e-24 0.00016242959827650338 1 True True
10352.596 3.115673065185547 -1.1344650250724335 1.3545363585101526 -1.7908431492247523 -1.5707805792437952 1.5448309183120728 -0.00035363694769330323 0.0326993353664875 0.07502259314060211 -0.11126933991909027 -1.3004049748934302e-42 0.00011287243978586048 1 True True
10352.645999999999 3.115631341934204 -1.1323158305934449 1.3595731894122522 -1.7981440029540003 -1.570772949849264 1.544801115989685 -0.0007161350804381073 0.05536160245537758 0.12837859988212585 -0.17907385528087616 -0.0 8.109056943794712e-05 1 True True
10352.696 3.115656852722168 -1.1289132994464417 1.367171589528219 -1.8090206585326136 -1.5707891623126429 1.5448473691940308 -0.0006433610105887055 0.0782635360956192 0.17550070583820343 -0.25052425265312195 -7.688958430662751e-05 1.6306456681579599e-22 1 True True
10352.746 3.115590810775757 -1.1244842273047944 1.3771641890155237 -1.8234569034972132 -1.5707805792437952 1.544838309288025 -0.0001886406826088205 0.09542030841112137 0.22045214474201202 -0.3197222650051117 -6.465406477218494e-05 2.4769351655405467e-41 1 True True
10352.796 3.115626811981201 -1.1188961428454895 1.3894999662982386 -1.8411056003966273 -1.5708373228656214 1.5448309183120728 -0.00012329453602433205 0.12051501125097275 0.2668449282646179 -0.3927099406719208 -6.48707355139777e-05 0.0 1 True True
10352.846 3.1156117916107178 -1.1124394995025177 1.4039958159076136 -1.8623348675169886 -1.5707805792437952 1.544805645942688 -5.6355031119892374e-05 0.1427730768918991 0.3186500370502472 -0.4650841951370239 -6.947686415514909e-06 0.0 1 True True
10352.895999999999 3.115598201751709 -1.1048260194114228 1.4213388601886194 -1.8871265850462855 -1.5707925001727503 1.5448505878448486 -1.3266347308407132e-33 0.16650374233722687 0.3650520145893097 -0.5273628234863281 -1.0553552767293582e-24 0.0 1 True True
10352.946 3.1156539916992188 -1.0967299205115815 1.439038101826803 -1.9131471119322718 -1.5707886854754847 1.5447770357131958 0.0 0.15570299327373505 0.33767104148864746 -0.49721431732177734 -1.5974802493302915e-43 0.0 1 True True
10352.996 3.1155998706817627 -1.0895461601069947 1.4547184149371546 -1.9357296429076136 -1.570772949849264 1.5447981357574463 0.0 0.12724052369594574 0.28371739387512207 -0.4198494851589203 -0.0 0.0 1 True True
10353.046 3.1155998706817627 -1.0837630194476624 1.4678309599505823 -1.9549199543394984 -1.570784870778219 1.5447981357574463 0.0 0.11291902512311935 0.2446872442960739 -0.3442823886871338 -0.0 -1.5332923339883564e-06 1 True True
10353.096 3.1156208515167236 -1.0789730113795777 1.478809658681051 -1.9706794224181117 -1.5708368460284632 1.54478919506073 0.0 0.08745310455560684 0.1939447969198227 -0.27207526564598083 -0.0 -2.329074844810105e-25 1 True True
10353.145999999999 3.1155953407287598 -1.0751827520183106 1.4871190229998987 -1.9828201733031214 -1.5708087126361292 1.54476797580719 0.0 0.06376020610332489 0.14214593172073364 -0.206964373588562 -0.0 -3.5032461608120427e-44 1 True True
10353.196 3.115574359893799 -1.0725029867938538 1.493209187184469 -1.991464754144186 -1.570784870778219 1.5448235273361206 0.0 0.04744690656661987 0.09847746789455414 -0.13490723073482513 -0.0 -0.0 1 True True
10353.246 3.115607261657715 -1.070806161766388 1.4966114203082483 -1.9967395267882289 -1.570784870778219 1.544793725013733 -1.4580230261606857e-40 0.020327303558588028 0.0502636581659317 -0.07276319712400436 -0.0 -0.0 1 True True
10353.296 3.1155998706817627 -1.0706401032260437 1.4975231329547327 -1.9986731014647425 -1.5708616415606897 1.5448354482650757 0.0 -0.0006092654075473547 -0.0017100811237469316 0.005559535697102547 0.0003323865821585059 -0.0 1 True True
10353.346 3.1156208515167236 -1.0706443351558228 1.4975798765765589 -1.9986735783019007 -1.5708368460284632 1.5447365045547485 0.0 0.0027092434465885162 0.004388853907585144 0.0005137306870892644 2.980966746690683e-05 -0.0 1 True True
10353.395999999999 3.115549087524414 -1.0700289768031617 1.49835712114443 -1.998178621331686 -1.5708215872394007 1.5447802543640137 0.0 0.012171726673841476 0.01764225773513317 0.021043546497821808 6.488378858193755e-05 -0.0 1 True True
10353.446 3.115581750869751 -1.0700494808009644 1.4982026259051722 -1.998314996758932 -1.5707486311541956 1.544774055480957 0.00012803965364582837 -0.003062757197767496 -0.0063675702549517155 -0.00953860767185688 5.175483539589286e-15 -0.0004979278310202062 1 True False
10353.496 3.115565538406372 -1.0701187413981934 1.498190704976217 -1.9983464680113734 -1.5707891623126429 1.544769525527954 7.811206887708977e-05 -0.004975925665348768 -0.007105628494173288 -0.0053167203441262245 7.861571220120107e-34 -0.0007285746978595853 1 True False
10353.546 3.1155412197113037 -1.0701708954623719 1.4980695883380335 -1.9984423122801722 -1.5707891623126429 1.5448263883590698 5.064178185421042e-05 -0.002074198331683874 -0.0017759640468284488 -0.0008635013364255428 -1.3152638158285546e-13 -0.0004055691824760288 1 True False
10353.596 3.115647792816162 -1.0702542227557679 1.4980037848102015 -1.9984938106932582 -1.570801083241598 1.5448100566864014 3.470397217041315e-16 -0.00047276620171032846 -0.0012547631049528718 -0.00022181522217579186 -1.9978882718832037e-32 -1.7530328306553134e-22 1 True False
10353.645999999999 3.115590810775757 -1.0704115194133301 1.4977195898639124 -1.9980832539000453 -1.5708091894732874 1.5448219776153564 5.434689650614999e-27 -0.013384561985731125 -0.021719012409448624 0.0228738933801651 -0.0 -2.66288747175645e-41 1 True False
10353.696 3.1156222820281982 -1.0714543920806427 1.4954903761493128 -1.9948998890318812 -1.570829216633932 1.5447516441345215 0.0 -0.026956645771861076 -0.06569329649209976 0.10316745191812515 -0.0 -0.0 1 True False
10353.746 3.1156163215637207 -1.0734645587256928 1.4908769766436976 -1.987964769402975 -1.570784870778219 1.5447605848312378 0.0 -0.05326404795050621 -0.12382958084344864 0.16459500789642334 -0.0 -0.0 1 True False
10353.796 3.115593671798706 -1.076711283331253 1.4836915175067347 -1.9777432880797328 -1.5707605520831507 1.5448263883590698 0.0 -0.07156390696763992 -0.16784483194351196 0.23815053701400757 -0.0 -0.0 1 True False
10353.846 3.11556077003479 -1.080943540935852 1.4739978949176233 -1.963949819604391 -1.5707324186908167 1.5448265075683594 0.0 -0.0965636596083641 -0.21351268887519836 0.2989012598991394 -0.0 -0.0 1 True False
10353.895999999999 3.115590810775757 -1.0863383275321503 1.46220571199526 -1.946667333642477 -1.5708006064044397 1.5448354482650757 0.0 -0.11807762831449509 -0.26528674364089966 0.38293999433517456 -0.0 -0.0 1 True False
10353.946 3.115626811981201 -1.0927537244609375 1.4478915373431605 -1.925906320611471 -1.5708048979388636 1.5448191165924072 0.0 -0.13776536285877228 -0.31377044320106506 0.4521876275539398 -0.0 -0.0 1 True False
10353.996 3.1156132221221924 -1.1002745491317292 1.4309456984149378 -1.9016367397704066 -1.570824925099508 1.5448144674301147 2.2153080367684925e-25 -0.16351167857646942 -0.353530615568161 0.5176829099655151 -0.0 -0.0 1 True False
10354.046 3.115644931793213 -1.1083072286895295 1.4129326979266565 -1.8754917583861292 -1.570801083241598 1.5448100566864014 0.0 -0.1539549082517624 -0.3461434245109558 0.5007034540176392 -0.0 -0.0 1 True False
10354.096 3.1156044006347656 -1.115557150249817 1.3971307913409632 -1.852255483666891 -1.570784870778219 1.5447814464569092 0.0 -0.13299085199832916 -0.2915724515914917 0.43669429421424866 -0.0 -0.0 1 True False
10354.145999999999 3.1156044006347656 -1.1216530066779633 1.3834870497332972 -1.8325454197325648 -1.5707605520831507 1.544793725013733 0.0 -0.11094991862773895 -0.24660539627075195 0.35273921489715576 -0.0 -0.0 1 True False
10354.196 3.115607261657715 -1.1266670388034363 1.372242275868551 -1.8163653812804164 -1.570784870778219 1.544793725013733 0.0 -0.08932022750377655 -0.2018209993839264 0.3092994689941406 -0.0 -0.0 1 True False
10354.246 3.115631341934204 -1.1305076342872162 1.3635008970843714 -1.8037215671935023 -1.5707886854754847 1.544805645942688 4.559158601246165e-31 -0.06791039556264877 -0.15259447693824768 0.22850565612316132 -0.0 -0.0 1 True False
10354.296 3.1156492233276367 -1.1334768694690247 1.357222859059469 -1.7944008312621058 -1.5707691351519983 1.544793725013733 0.0 -0.04567936062812805 -0.10240354388952255 0.14529526233673096 -0.0 -0.0 1 True False
10354.346 3.115598201751709 -1.1352014404586335 1.3533418814288538 -1.7887159786620082 -1.5707805792437952 1.544817566871643 0.0 -0.024144960567355156 -0.057054754346609116 0.07444635778665543 -0.0 -0.0 1 True False
10354.395999999999 3.11564040184021 -1.1358822745135804 1.351617161427633 -1.7866436443724574 -1.570784870778219 1.54487144947052 0.0 -0.0010956350015476346 -0.007589558605104685 0.009050864726305008 -0.0 -0.0 1 True False
10354.446 3.115574598312378 -1.135812686090805 1.3516033331500452 -1.7866116962828578 -1.570772949849264 1.5448026657104492 0.0 1.39080088956689e-06 -0.00032894188188947737 9.468401549383998e-05 -0.0 -0.0 1 False False
10354.496 3.1155624389648438 -1.1358788472465058 1.351722542439596 -1.786539693871969 -1.5708006064044397 1.5447814464569092 0.0 0.0 -0.00010674142686184496 0.0005824921536259353 -0.0 -0.0 1 False False
10354.546 3.1156117916107178 -1.135813520555832 1.3516200224505823 -1.7865039310851039 -1.5707691351519983 1.5447814464569092 0.0 0.0 -0.00011927350715268403 0.0013349121436476707 -0.0 -0.0 1 False False
10354.596 3.1155402660369873 -1.1358627837947388 1.3516653219806116 -1.7864724598326625 -1.5707691351519983 1.5448100566864014 0.0 0.0 -0.0001429787080269307 0.0007017761818133295 -0.0 -0.0 1 False False
10354.645999999999 3.11558198928833 -1.1358465415290375 1.3516457716571253 -1.7865001163878382 -1.57074481645693 1.5448235273361206 0.0 -0.00021797542285639793 -0.00013811634562443942 0.0001555755006847903 -0.0 -0.0 1 False False
10354.696 3.1156387329101562 -1.1358788174441834 1.3516500631915491 -1.7865120373167933 -1.5708006064044397 1.5448309183120728 0.0 -0.00036464439472183585 -0.00021759710216429085 0.00011679679300868884 -0.0 -0.0 1 False False
10354.746 3.115644693374634 -1.1359069806388398 1.3516534010516565 -1.7865001163878382 -1.5708368460284632 1.5448338985443115 0.0 -0.0002693910792004317 -0.00015257319319061935 9.120952745433897e-05 -0.0 -0.0 1 False False
10354.796 3.115644693374634 -1.1359234613231202 1.351617161427633 -1.7865239582457484 -1.570784870778219 1.5448416471481323 0.0 -0.0001488020207034424 -0.00011993886437267065 6.842774018878117e-05 -0.0 -0.0 1 False False
10354.846 3.1156160831451416 -1.1359441739371796 1.3516586462603968 -1.786487718621725 -1.5708406607257288 1.544805645942688 0.0 -6.983431376283988e-05 -7.60025141062215e-05 4.118594791520944e-15 -0.0 -0.0 1 False False
10354.895999999999 3.115631341934204 -1.135870025759079 1.3516295591937464 -1.7865001163878382 -1.5708087126361292 1.5447949171066284 0.0 -6.0371748986653984e-05 -5.3404066420625895e-05 6.256153585808991e-34 -0.0 -0.0 1 False False
10354.946 3.115631341934204 -1.1358744663051148 1.3516009489642542 -1.7864638767638148 -1.5708087126361292 1.5448235273361206 0.0 0.0 -2.9868950914290205e-27 0.0 -0.0 -0.0 1 False False
10354.996 3.115640163421631 -1.135939822798111 1.3515804449664515 -1.7865601978697718 -1.5708368460284632 1.5448055267333984 0.0 0.0 -0.0 0.0 -0.0 -0.0 1 False False
10355.046 3.1155788898468018 -1.1358863872340699 1.351605240498678 -1.786464353600973 -1.5707886854754847 1.5448384284973145 0.0 0.0 -0.0 0.0 -0.0 -0.0 1 False False
10355.096 3.115656614303589 -1.1358744663051148 1.3515966574298304 -1.786555906335348 -1.5707886854754847 1.544817566871643 0.0 0.0 -0.0 0.0 -0.0 -0.0 1 False False
10355.145999999999 3.1155953407287598 -1.1359278720668335 1.3516095320331019 -1.7864848575987757 -1.5707281271563929 1.5447649955749512 0.0 0.0 -0.0 0.0 -0.0 -0.0 1 False False
10355.196 3.1156489849090576 -1.1358819764903565 1.3516009489642542 -1.7864848575987757 -1.5708048979388636 1.544784665107727 0.0 0.0 -0.0 0.0 -0.0 -0.0 1 False False
10355.246 3.1156609058380127 -1.1359146398356934 1.3516467253314417 -1.786448141137594 -1.570784870778219 1.5448145866394043 -8.730736047906988e-37 0.0 -0.0 0.0 -0.0 -0.0 1 False False
10355.296 3.115558385848999 -1.1359070998481293 1.3516338507281702 -1.7864562473692835 -1.5707529226886194 1.544834017753601 0.0 0.0 -0.0 0.0 -0.0 -0.0 1 False False
10355.346 3.115598440170288 -1.13591022909198 1.3516019026385706 -1.786487718621725 -1.5707772413836878 1.5448384284973145 0.0 0.0 -0.0 0.0 -0.0 -0.0 1 True False
10355.395999999999 3.115593910217285 -1.135939822798111 1.351621452962057 -1.7864757976927699 -1.5707967917071741 1.5448263883590698 -1.994066042243503e-05 0.0 -0.0 0.0 -0.0 -0.0 1 True False
10355.446 3.115598440170288 -1.1358612340739747 1.3515804449664515 -1.7864958248534144 -1.570784870778219 1.5447725057601929 0.0 0.0 -0.0 0.0 -0.0 -0.0 1 True False
10355.496 3.115607261657715 -1.135840432052948 1.3515890280352991 -1.7864958248534144 -1.5707648436175745 1.54478919506073 0.0 0.0 -0.0 0.0 -0.0 -0.0 1 True False
10355.546 3.1155459880828857 -1.1358907979777833 1.351593319569723 -1.7864848575987757 -1.570784870778219 1.544801115989685 0.0 0.0 -0.0 0.0 -0.0 -0.0 1 True False
10355.596 3.115631341934204 -1.1358832877925416 1.3515961805926722 -1.7865444622435511 -1.5707805792437952 1.544856309890747 0.0 0.0 -2.7264150393038018e-15 0.0 -0.0 -8.551880175158841e-19 1 True False
10355.645999999999 3.115558385848999 -1.1359894436648865 1.3516338507281702 -1.7864600620665492 -1.5707605520831507 1.5448219776153564 0.0 0.0 -7.006492321624085e-45 0.0 -0.0 -1.2990321508139005e-37 1 True False
10355.696 3.115598440170288 -1.1358581346324463 1.351593319569723 -1.7864319286742152 -1.5707648436175745 1.5448026657104492 0.0 0.0 -0.0 0.0 -0.0 -0.0 1 True False
10355.746 3.1155505180358887 -1.1359309715083619 1.3516081015216272 -1.7865077457823695 -1.570772949849264 1.5447903871536255 0.0 0.0 -0.0 0.0 -0.0 -0.0005238751764409244 1 True False
10355.796 3.115591049194336 -1.1359190505794068 1.351642910634176 -1.786515852014059 -1.570784870778219 1.544774055480957 0.0 0.0 -0.0 0.0 -2.4753525829081387e-25 3.3196215554198716e-07 1 True False
10355.846 3.115591049194336 -1.1358789068511506 1.3515961805926722 -1.7864767513670863 -1.5708406607257288 1.5448100566864014 0.0 0.0 -0.0 0.0 7.54003792995811e-13 0.00035097694490104914 1 True False
10355.895999999999 3.1155834197998047 -1.135917530660965 1.3516095320331019 -1.7864638767638148 -1.570784870778219 1.544774055480957 0.0 0.0 -0.0 0.0 1.145333164120584e-31 4.561217792797834e-05 1 True False
10355.946 3.1156115531921387 -1.1358820062926789 1.3516095320331019 -1.7865077457823695 -1.570801083241598 1.5448100566864014 0.0 0.0 -0.0 0.0 0.0 2.011575452343095e-05 1 True False
10355.996 3.1167123317718506 -1.1364543300918122 1.3520577589618128 -1.7865892849364222 -1.5708368460284632 1.5447171926498413 0.05950329080224037 -0.0245041586458683 0.02224780060350895 -0.0038420450873672962 -0.00014064252900425345 -0.008511158637702465 1 True False
10356.046 3.121314287185669 -1.138176367884018 1.35417348543276 -1.7868505916991175 -1.5708368460284632 1.5441467761993408 0.13223379850387573 -0.04711034893989563 0.06172966584563255 -0.009224312379956245 -8.104972015277875e-22 -0.016125764697790146 1 True False
10356.096 3.129551887512207 -1.1412719053081055 1.3578951994525355 -1.7874523601927699 -1.5708335081683558 1.5432701110839844 0.1955307126045227 -0.07695117592811584 0.09142837673425674 -0.01598777249455452 -1.2311528047864978e-40 -0.022149616852402687 1 True False
10356.145999999999 3.1412620544433594 -1.1458150011352082 1.3633483091937464 -1.7883144817748011 -1.5708087126361292 1.5418705940246582 0.26387372612953186 -0.10174238681793213 0.1252092570066452 -0.018316075205802917 7.649331382708624e-05 -0.029050340875983238 1 True False
10356.196 3.156315803527832 -1.1516733926585694 1.370373551045553 -1.789455076257223 -1.5707605520831507 1.5401611328125 0.3352823853492737 -0.12717509269714355 0.15350912511348724 -0.02809445932507515 7.790303513388608e-09 -0.038164470344781876 1 True False
10356.246 3.1749753952026367 -1.1588651698878785 1.3789666334735315 -1.790785928765768 -1.570784870778219 1.5381273031234741 0.40595588088035583 -0.1552368402481079 0.18733085691928864 -0.027559923008084297 1.1833489431368549e-27 -0.04629345238208771 1 True False
10356.296 3.196899890899658 -1.1673333805850525 1.3891180197345179 -1.7924887142577113 -1.5707886854754847 1.5355602502822876 0.47305694222450256 -0.18277932703495026 0.2170664668083191 -0.03437250852584839 0.0 -0.05453406274318695 1 True False
10356.346 3.222785711288452 -1.1772898894599457 1.4008410612689417 -1.7941752872862757 -1.5708091894732874 1.5327033996582031 0.5415245890617371 -0.21233704686164856 0.25177833437919617 -0.03419250622391701 0.0005097409593872726 -0.06265926361083984 1 True False
10356.395999999999 3.251821279525757 -1.188633070593216 1.4142726103412073 -1.7962800465025843 -1.570772949849264 1.5293729305267334 0.6219491958618164 -0.2356513887643814 0.2826206386089325 -0.037694841623306274 0.0003862312878482044 -0.0684538334608078 1 True False
10356.446 3.284294605255127 -1.2010600429824372 1.429098908101217 -1.7989522419371546 -1.5708006064044397 1.5256726741790771 0.6900138258934021 -0.2721959054470062 0.3182395100593567 -0.04863159358501434 0.000385590479709208 -0.0747697502374649 1 True False
10356.496 3.3202996253967285 -1.2150400441936036 1.4458888212787073 -1.8014232120909632 -1.5707767645465296 1.5216259956359863 0.7591714859008789 -0.29116392135620117 0.34663310647010803 -0.05068721994757652 1.464669043601402e-13 -0.08497722446918488 1 True False
10356.546 3.3597846031188965 -1.2303348642638703 1.4638193289386194 -1.8043223820128382 -1.570784870778219 1.5170800685882568 0.8252146244049072 -0.3220512866973877 0.3783726394176483 -0.05959019809961319 2.224835676471884e-32 -0.09462723881006241 1 True False
10356.596 3.402937412261963 -1.24699221671138 1.483877960835592 -1.8074685535826625 -1.5708091894732874 1.512178897857666 0.8919603228569031 -0.3428884744644165 0.4089623987674713 -0.06623514741659164 -0.0002286087692482397 -0.1051231175661087 1 True False
10356.645999999999 3.449481964111328 -1.265036092405655 1.5048921743976038 -1.8108679256834925 -1.570784870778219 1.5069279670715332 0.9667956829071045 -0.3742101788520813 0.44486480951309204 -0.06956380605697632 -1.4422647520717646e-09 -0.11039768904447556 1 True False
10356.696 3.499492883682251 -1.2843168836883088 1.5280020872699183 -1.814615388909811 -1.570801083241598 1.501240611076355 1.032071828842163 -0.4058944880962372 0.47305765748023987 -0.07362984865903854 -2.1908033303800554e-28 -0.11659413576126099 1 True False
10356.746 3.5517497062683105 -1.3042586010745545 1.5522401968585413 -1.818129678765768 -1.5707686583148401 1.4952905178070068 1.042561650276184 -0.40078991651535034 0.4842202961444855 -0.0779256671667099 -0.0 -0.11715961992740631 1 True False
10356.796 3.604088544845581 -1.3249604415944596 1.5760124365436 -1.822324892083639 -1.5707405249225062 1.4893395900726318 1.0523370504379272 -0.4051807224750519 0.48381495475769043 -0.05789698287844658 -0.00011256613652221859 -0.11825583130121231 1 True False
10356.846 3.656454563140869 -1.345018134718277 1.6001322905169886 -1.8260656795897425 -1.570784870778219 1.483427882194519 1.0467795133590698 -0.40604913234710693 0.4715561866760254 -0.09688358753919601 -0.0005052456399425864 -0.12181472778320312 1 True False
10356.895999999999 3.7087981700897217 -1.3649826359799881 1.624279801045553 -1.829719682733053 -1.5707767645465296 1.477524757385254 1.0453678369522095 -0.40236005187034607 0.4883994162082672 -0.07492655515670776 1.6727314289255446e-07 -0.11844515055418015 1 True False
10356.946 3.7612006664276123 -1.3855158549598237 1.6482651869403284 -1.8337747059264125 -1.570801083241598 1.4715617895126343 1.0470515489578247 -0.40138331055641174 0.4806206524372101 -0.08848143368959427 -2.418225793979579e-17 -0.11760624498128891 1 True False
10356.996 3.8135805130004883 -1.4057315301946183 1.6725290457354944 -1.8373519382872523 -1.5707967917071741 1.4656107425689697 1.0454412698745728 -0.40299564599990845 0.4823828935623169 -0.07311082631349564 -2.01497432156467e-14 -0.11856502294540405 1 True False
10357.046 3.865943670272827 -1.4259241235307236 1.6965182463275355 -1.8414422474303187 -1.570813004170553 1.4596935510635376 1.0480304956436157 -0.4058772027492523 0.47868216037750244 -0.0760452002286911 3.7910501760052284e-07 -0.12405416369438171 1 True False
10357.096 3.918198823928833 -1.446338252430298 1.720304314290182 -1.8452521763243617 -1.570813004170553 1.4537492990493774 1.0537985563278198 -0.4075853228569031 0.4802184998989105 -0.06768365204334259 4.8636681487801425e-11 -0.11825034022331238 1 True False
10357.145999999999 3.9704980850219727 -1.4662395280650635 1.7447860876666468 -1.8489252529540003 -1.5707648436175745 1.4477981328964233 1.0462334156036377 -0.4045177102088928 0.4778197407722473 -0.08620309084653854 4.7584117623955535e-07 -0.11740023642778397 1 True False
10357.196 4.0229172706604 -1.486582950954773 1.7687233130084437 -1.852614542047018 -1.570813004170553 1.441900610923767 1.0426563024520874 -0.3970620632171631 0.4924149513244629 -0.06663990020751953 3.8863508962094784e-05 -0.11781062930822372 1 True False
10357.246 4.075337886810303 -1.5071041521481057 1.7925642172442835 -1.8567806682982386 -1.5707324186908167 1.4359008073806763 1.051277995109558 -0.40632832050323486 0.47758597135543823 -0.06855660676956177 3.9829627494287233e-22 -0.11650053411722183 1 True False
10357.296 4.127725601196289 -1.5271561604789277 1.8167584578143519 -1.86037077526235 -1.570813004170553 1.4299813508987427 1.042815089225769 -0.4126504063606262 0.47663185000419617 -0.09038122743368149 -0.0018476371187716722 -0.11966191977262497 1 True False
10357.346 4.178659915924072 -1.5466986310533066 1.8403061071978968 -1.8641120396056117 -1.570784870778219 1.4241143465042114 0.9820692539215088 -0.37814369797706604 0.4542454779148102 -0.0771288275718689 -2.4418305918927352e-11 -0.11534490436315536 1 True False
10357.395999999999 4.226158618927002 -1.5652131203426798 1.8621504942523401 -1.8675266704955042 -1.5708048979388636 1.4187818765640259 0.9202784895896912 -0.3505978584289551 0.4231760799884796 -0.06626979261636734 0.0007930326391942799 -0.10235443711280823 1 True False
10357.446 4.270216464996338 -1.5822626552977503 1.8822162787066858 -1.8709856472411097 -1.570756737385885 1.4138060808181763 0.8475297093391418 -0.3289448320865631 0.3892929255962372 -0.06884269416332245 0.00022645073477178812 -0.09566932916641235 1 True False
10357.496 4.310770034790039 -1.5979391537108363 1.9007166067706507 -1.8738638363280238 -1.5708325544940394 1.4092082977294922 0.7741242051124573 -0.29970046877861023 0.3580061197280884 -0.06266223639249802 1.8905410570368986e-06 -0.0865260511636734 1 True False
10357.546 4.347775936126709 -1.6121016941466273 1.918112579976217 -1.876516958276266 -1.5707686583148401 1.405015468597412 0.7124818563461304 -0.27542930841445923 0.32576003670692444 -0.046359311789274216 0.0005687158554792404 -0.07892860472202301 1 True False
10357.596 4.381354808807373 -1.6253210506834925 1.9332788626300257 -1.8789864979186 -1.5707772413836878 1.4011807441711426 0.6408888101577759 -0.2496492713689804 0.2915695011615753 -0.04169716686010361 0.0012834931258112192 -0.07013063877820969 1 True False
10357.645999999999 4.411472320556641 -1.6368609867491664 1.9471476713763636 -1.8811985454955042 -1.5707290808307093 1.3977389335632324 0.5688947439193726 -0.21862466633319855 0.2603025734424591 -0.04396795481443405 0.0001488622510805726 -0.06268231570720673 1 True False
10357.696 4.438109874725342 -1.6470819912352503 1.9593284765826624 -1.8831707439818324 -1.5707209745990198 1.3947463035583496 0.49759888648986816 -0.19817997515201569 0.23011961579322815 -0.03446653112769127 0.00032912043388932943 -0.058367662131786346 1 True False
10357.746 4.46115255355835 -1.6560527286925257 1.9699209372149866 -1.8847986660399378 -1.570784870778219 1.3921778202056885 0.42888113856315613 -0.16386330127716064 0.2013891637325287 -0.03566239774227142 0.0004682215512730181 -0.04842061921954155 1 True False
10357.796 4.480680465698242 -1.6635433636107386 1.9791272322284144 -1.8861438236632289 -1.5708335081683558 1.389912724494934 0.36088502407073975 -0.13491840660572052 0.16387894749641418 -0.02062000147998333 -7.034497684799135e-05 -0.04297685623168945 1 True False
10357.846 4.496838569641113 -1.669755598107809 1.9863842169391077 -1.887432714501852 -1.5707967917071741 1.3880982398986816 0.28739577531814575 -0.11231845617294312 0.12932619452476501 -0.02033163607120514 -0.0002479548566043377 -0.03260486572980881 1 True False
10357.895999999999 4.509353160858154 -1.6746603451170863 1.9922001997577112 -1.8884107075133265 -1.5707925001727503 1.3866322040557861 0.2228032648563385 -0.0865299180150032 0.10135019570589066 -0.01394219882786274 5.250436515780166e-05 -0.026354746893048286 1 True False
10357.946 4.518498420715332 -1.678204198876852 1.9962928930865687 -1.8889810047545375 -1.5707486311541956 1.3855631351470947 0.1512758582830429 -0.05719047784805298 0.06983117759227753 -0.006857534404844046 4.545352203422226e-05 -0.01786830648779869 1 True False
10357.996 4.524205684661865 -1.6804043255248011 1.9989050070392054 -1.8893443546690882 -1.570784870778219 1.3849848508834839 0.0783097967505455 -0.03127703443169594 0.034968554973602295 -0.0071134744212031364 3.2033149182097986e-05 -0.00846415851265192 1 True False
10358.046 4.526346683502197 -1.681160112420553 1.9999478499041956 -1.8894602260985316 -1.5708211104022425 1.3848460912704468 0.009875339455902576 -0.0007063904777169228 0.0015230183489620686 -0.0004846581141464412 1.4918287650394524e-19 -0.0007331632659770548 1 True False
10358.096 4.526242256164551 -1.6806398830809535 2.000801388417379 -1.8910051784911097 -1.570723835621969 1.3847728967666626 0.0006339982501231134 0.020374631509184837 0.04274885356426239 -0.047398898750543594 4.073915388431333e-18 -0.0018287249840795994 1 True False
10358.145999999999 4.526249408721924 -1.6789900265135707 2.003845993672506 -1.8958798847594203 -1.5708335081683558 1.3847371339797974 0.0005678178276866674 0.04833207651972771 0.08319924771785736 -0.13821497559547424 6.188290067055379e-37 -0.00047291142982430756 1 True False
10358.196 4.526294231414795 -1.6757294140257777 2.0090892950641077 -1.9041673145689906 -1.5708254019366663 1.3847085237503052 0.0006902663153596222 0.07933821529150009 0.1226726770401001 -0.21097218990325928 0.0 -0.00015920554869808257 1 True False
10358.246 4.52626895904541 -1.671124120751852 2.016360108052389 -1.9158946476378382 -1.5707891623126429 1.38473379611969 0.0004768908256664872 0.10648692399263382 0.1621483564376831 -0.268456369638443 0.0 -0.00010136941273231059 1 True False
10358.296 4.526310920715332 -1.6651979885497035 2.025710407887594 -1.931190629998678 -1.5707886854754847 1.3847084045410156 0.0001196160665131174 0.13006548583507538 0.21459783613681793 -0.34526339173316956 7.90318226790987e-05 -6.899028085172176e-05 1 True False
10358.346 4.526346683502197 -1.657971521417135 2.0373199621783655 -1.950076242486471 -1.5707648436175745 1.3847248554229736 0.00016150450392160565 0.1570284068584442 0.25283515453338623 -0.4001349210739136 5.4917993111303076e-05 -8.167833678287759e-15 1 True False
10358.395999999999 4.526304721832275 -1.6494184933104457 2.0510905424701136 -1.9723683796324671 -1.5708087126361292 1.3847085237503052 5.154895188752562e-05 0.1801835000514984 0.29187270998954773 -0.4786111116409302 1.4566902049965033e-17 -1.2406951653715612e-33 1 True False
10358.446 4.526318073272705 -1.6396247349181117 2.067047897969381 -1.9981008968748988 -1.5707772413836878 1.3847293853759766 3.0003411666257307e-05 0.21383768320083618 0.34505969285964966 -0.5473589897155762 2.2127156541500377e-36 -0.0 1 True False
10358.496 4.526330471038818 -1.6283136806883753 2.085170571004049 -2.027376791039938 -1.5707925001727503 1.3847174644470215 2.1178242604946718e-05 0.2288041114807129 0.367322713136673 -0.6023982763290405 0.0 -0.0 1 True False
10358.546 4.526309490203857 -1.6175667248167933 2.1026137510882776 -2.0559383831419886 -1.570784870778219 1.3847757577896118 3.923635700109488e-44 0.2060186117887497 0.33513784408569336 -0.544014573097229 0.0 -0.0 1 True False
10358.596 4.526333332061768 -1.607985635797018 2.117972199116842 -2.081054826776022 -1.5707648436175745 1.3846760988235474 0.0 0.18189315497875214 0.2845010757446289 -0.47014909982681274 0.0 -0.0 1 True False
10358.645999999999 4.5263352394104 -1.5995446644225062 2.131432835255758 -2.1024896107115687 -1.570801083241598 1.3847383260726929 0.0 0.15071862936019897 0.24549178779125214 -0.3935869038105011 0.0 -4.963519018019724e-08 1 True False
10358.696 4.526341915130615 -1.592607160607809 2.1425889174090784 -2.1206184826292933 -1.5707686583148401 1.3847415447235107 0.0 0.12541736662387848 0.204112708568573 -0.3267408609390259 0.0 -7.539595109176174e-27 1 True False
10358.746 4.526417255401611 -1.5871063671507777 2.1514795462237757 -2.1353002987303675 -1.5707925001727503 1.3847248554229736 0.0 0.09821975976228714 0.15953607857227325 -0.25427448749542236 0.0 -1.401298464324817e-45 1 True False
10358.796 4.526279449462891 -1.5828000507750453 2.158271614705221 -2.1464959583678187 -1.570772949849264 1.3847625255584717 0.0 0.07153136283159256 0.11548352241516113 -0.19601741433143616 2.521002351456019e-21 -0.0 1 True False
10358.846 4.526324272155762 -1.5799056492247523 2.163100544606344 -2.1541010342040003 -1.5707967917071741 1.3847712278366089 0.0 0.048196133226156235 0.07225001603364944 -0.11550812423229218 3.829412391368287e-40 -0.0 1 True False
10358.895999999999 4.526301860809326 -1.5782839260497035 2.1656797567950647 -2.1582213840880335 -1.5708168188678187 1.384713053703308 0.0 0.01984638348221779 0.030330460518598557 -0.0550653338432312 0.0 -0.0 1 True False
10358.946 4.526297569274902 -1.5780874691405238 2.1660450140582483 -2.158938547173971 -1.570784870778219 1.3847174644470215 0.0 -0.0006783776334486902 -1.3886224392578583e-09 0.0003290025924798101 0.0 -0.0 1 True False
10358.996 4.526330471038818 -1.5780965290465296 2.1661012808429163 -2.1589185200133265 -1.5708048979388636 1.3847593069076538 0.0 7.702826405875385e-05 0.0001216652526636608 3.0905237508704886e-05 0.0 -0.0 1 True False
10359.046 4.526355743408203 -1.5780712566771449 2.166117493306295 -2.1589628658690394 -1.5707767645465296 1.3847382068634033 0.0 0.00017799410852603614 0.00011315687879687175 -1.7724249119055457e-05 0.0 -0.0 1 True False
10359.096 4.526271820068359 -1.5779391727843226 2.1661251227008265 -2.158982893029684 -1.570829216633932 1.3846969604492188 0.0 0.000507200718857348 0.00024142267648130655 2.3065147014555976e-11 0.0 -0.0 1 True False
10359.145999999999 4.526318073272705 -1.5779525242247523 2.166199032460348 -2.158962389031881 -1.5707805792437952 1.384766936302185 0.0 0.0002230976097052917 0.0002534961677156389 3.503599844998727e-30 0.0 -0.0 1 True False
10359.196 4.526309490203857 -1.5780393085875453 2.166210953389303 -2.1589914760985316 -1.5707891623126429 1.3847039937973022 0.0 0.00012820289703086019 0.00016328632773365825 0.0 0.0 -0.0 1 True False
10359.246 4.526341915130615 -1.578019758264059 2.1661699453936976 -2.158959051171774 -1.5708335081683558 1.3847039937973022 0.0 5.619840158033185e-05 9.51141701079905e-05 0.0 0.0 -0.0 1 True False
10359.296 4.526341915130615 -1.57800354580068 2.166173283253805 -2.158926626245016 -1.5707529226886194 1.3846715688705444 0.0 3.15626930387225e-05 8.712057751836255e-05 0.0 0.0 -0.0 1 True False
10359.346 4.526330471038818 -1.577970644036764 2.1661980787860315 -2.1590029201903285 -1.5707925001727503 1.3847655057907104 0.0 2.347819463466294e-05 6.962038367683276e-13 -5.7298948377138004e-05 0.0 -0.0 1 True False
10359.395999999999 4.526276588439941 -1.5780278644957484 2.166173283253805 -2.15889896968984 -1.5707648436175745 1.3847579956054688 8.968898328021169e-05 -1.780688953282893e-38 5.349671846488491e-05 -6.350747683135259e-15 0.0 -0.0 1 True False
10359.446 4.526297569274902 -1.5779525242247523 2.1661699453936976 -2.1589347324767054 -1.5707972685443323 1.3847326040267944 3.349411615398464e-39 0.0 1.1687069836974532e-26 -9.646805510973454e-34 0.0 -0.0 1 True False
10359.496 4.526317119598389 -1.577949663201803 2.1661980787860315 -2.1589914760985316 -1.5708087126361292 1.3847174644470215 0.0 0.0 0.0 -5.131042416905984e-05 0.0 -0.0 1 True False
10359.546 4.526350975036621 -1.5781399212279261 2.166147534047262 -2.1590873203673304 -1.570756737385885 1.3847683668136597 0.0 -0.0019327986519783735 -0.00045188088552094996 -0.0008838457870297134 0.0 0.0008461936376988888 1 True False
10359.596 4.52629280090332 -1.5780493221678675 2.1660946051227015 -2.1590825519957484 -1.5708087126361292 1.3847490549087524 0.0 0.0003243479586672038 -8.201659511541948e-06 -0.0001597500522620976 0.0 6.2320453779437836e-21 1 True False
10359.645999999999 4.52629280090332 -1.5780493221678675 2.1660893599139612 -2.159070154229635 -1.5707805792437952 1.3847293853759766 0.0 0.0006383744766935706 0.0007266761967912316 6.138841126812622e-05 0.0 9.466485788730945e-40 1 True True
10359.696 4.526331901550293 -1.5784274540343226 2.1655853430377405 -2.1572963200011195 -1.570813004170553 1.3847415447235107 0.0 -0.020061053335666656 -0.030610524117946625 0.07206156849861145 4.038811646234208e-11 0.0 1 True True
10359.746 4.5263590812683105 -1.5802623234190882 2.1624296347247522 -2.1526552639403285 -1.570784870778219 1.3848026990890503 0.0 -0.05508197098970413 -0.09038296341896057 0.13495944440364838 6.13496181682855e-30 0.0 1 True True
10359.796 4.526330471038818 -1.5834914646544398 2.157079521809713 -2.1441251240172328 -1.5707724730121058 1.384732723236084 0.0 -0.07909350842237473 -0.12850813567638397 0.19765032827854156 0.0 0.0 1 True True
10359.846 4.526297569274902 -1.5881978474059046 2.1497061888324183 -2.132259031335348 -1.5708211104022425 1.3847084045410156 0.0 -0.10551285743713379 -0.16217771172523499 0.2663578987121582 0.0 0.0 1 True True
10359.895999999999 4.526350021362305 -1.594163557092184 2.140172783528463 -2.1167813740172328 -1.5708168188678187 1.3847578763961792 0.0 -0.12888433039188385 -0.21368078887462616 0.3418304920196533 0.0 -1.0073226803797297e-06 1 True True
10359.946 4.526322841644287 -1.6013666592040003 2.1283443609820765 -2.0978905163206996 -1.5707925001727503 1.3847293853759766 0.0 -0.15596744418144226 -0.25070807337760925 0.41315218806266785 0.0 -1.5301252714279317e-25 1 True True
10359.996 4.526280879974365 -1.6099502048888148 2.1147053877459925 -2.0754600963988246 -1.570813004170553 1.3847460746765137 0.0 -0.1862528771162033 -0.2923981249332428 0.47365349531173706 0.0 -2.382207389352189e-44 1 True True
10360.046 4.5263352394104 -1.6198655567564906 2.0986345450030726 -2.0495335064330042 -1.570801083241598 1.3847757577896118 0.0 -0.21597374975681305 -0.34337669610977173 0.5404539704322815 0.0 -0.0 1 True True
10360.096 4.526322841644287 -1.6312200031676234 2.080536190663473 -2.020217081109518 -1.5707925001727503 1.38473379611969 0.0 -0.22418327629566193 -0.3652563691139221 0.6106579303741455 0.0 -0.0 1 True True
10360.145999999999 4.526297569274902 -1.6420556507506312 2.0629270712481897 -1.9918376408019007 -1.570813004170553 1.3847159147262573 0.0 -0.2087397426366806 -0.33298608660697937 0.5319049954414368 0.0 -0.0 1 True True
10360.196 4.526309490203857 -1.6516386471190394 2.047664467488424 -1.9668437443175257 -1.5707925001727503 1.3846850395202637 0.0 -0.18157893419265747 -0.2934799790382385 0.4664284586906433 0.0 -0.0 1 True True
10360.246 4.526341915130615 -1.6598407230772914 2.0344865957843226 -1.9453479252257289 -1.5708168188678187 1.3847578763961792 0.0 -0.1489861011505127 -0.2495756298303604 0.3973757028579712 0.0 -0.0 1 True True
10360.296 4.526272296905518 -1.666678091088766 2.0234554449664515 -1.9273706875243128 -1.5707967917071741 1.3847293853759766 0.0 -0.12215488404035568 -0.20316851139068604 0.33234089612960815 0.0 -0.0 1 True True
10360.346 4.526284217834473 -1.6722876034178675 2.01447564760317 -1.9128185711302699 -1.5708044211017054 1.3847460746765137 0.0 -0.09902539849281311 -0.161330446600914 0.2666327655315399 0.0 -0.0 1 True True
10360.395999999999 4.5263543128967285 -1.6764475307860316 2.0076316038714808 -1.901919504205221 -1.5707967917071741 1.3847461938858032 0.0 -0.07288672029972076 -0.11767693608999252 0.18301214277744293 0.0 -0.0 1 True True
10360.446 4.526318073272705 -1.6793271503844203 2.003042523060934 -1.894296785394186 -1.570784870778219 1.3847174644470215 0.0 -0.04412749409675598 -0.07117031514644623 0.13034997880458832 0.0 -0.0 1 True True
10360.496 4.526301860809326 -1.6809522114195765 2.000394646321432 -1.8903857670226039 -1.5708568731891077 1.384671688079834 0.0 -0.01921139657497406 -0.029086623340845108 0.050730638206005096 0.0 -0.0 1 True True
10360.546 4.526089191436768 -1.6810714207091273 2.0001052061664026 -1.889651437798971 -1.5707610289203089 1.3847204446792603 -0.026306720450520515 0.00634037796407938 -0.0035573672503232956 -1.0720536920416635e-05 0.0 -0.0 1 True True
10360.596 4.5232720375061035 -1.6805182896056117 1.9992664496051233 -1.8895756206908167 -1.57074481645693 1.3847490549087524 -0.09419293701648712 0.017612427473068237 -0.02153680846095085 0.0032419345807284117 0.0 0.002363475738093257 1 True True
10360.645999999999 4.516685485839844 -1.6791922054686488 1.997805420552389 -1.889412065545553 -1.570829216633932 1.3849760293960571 -0.161226287484169 0.03644290938973427 -0.039062026888132095 0.002298568608239293 0.0 0.005741086322814226 1 True True
10360.696 4.506806373596191 -1.6769386730589808 1.995356861745016 -1.8892117939391078 -1.5707643667804163 1.385238766670227 -0.23133304715156555 0.052343424409627914 -0.05696502700448036 0.004531568847596645 -3.5676850529853255e-05 0.006451055407524109 1 True True
10360.746 4.493366241455078 -1.6739632091917933 1.9921887556659144 -1.8890086613097132 -1.5707891623126429 1.3856569528579712 -0.30292966961860657 0.06875961273908615 -0.07184004783630371 0.0050531914457678795 -3.835986161961763e-13 0.00880612712353468 1 True True
10360.796 4.476341724395752 -1.670222898522848 1.9882071653949183 -1.8887373409666957 -1.5707891623126429 1.386139154434204 -0.36934715509414673 0.08543820679187775 -0.09205372631549835 0.0053624846041202545 -1.51693748193793e-05 0.011162413284182549 1 True True
10360.846 4.455975532531738 -1.6656800709166468 1.9834020773517054 -1.8883892498412074 -1.570784870778219 1.3867783546447754 -0.44370943307876587 0.09897938370704651 -0.10353062301874161 0.007449739146977663 -2.3042309524991403e-24 0.012596899643540382 1 True True
10360.895999999999 4.432246208190918 -1.6604114971556605 1.9776132742511194 -1.8880988560118617 -1.5707762877093714 1.3874232769012451 -0.5143904089927673 0.11379372328519821 -0.11523980647325516 0.00944612268358469 0.00010503365774638951 0.015658747404813766 1 True True
10360.946 4.404862403869629 -1.6542512379088343 1.97109300294985 -1.8876482448973597 -1.5707572142230433 1.388146162033081 -0.5831303000450134 0.12538348138332367 -0.13638535141944885 0.006010700482875109 4.253777014737994e-15 0.017939727753400803 1 True True
10360.996 4.373902797698975 -1.647466321984762 1.9638250509845179 -1.8871809444823207 -1.5707886854754847 1.389046549797058 -0.6473088264465332 0.14147502183914185 -0.15118198096752167 0.009937405586242676 -1.8718390492722392e-05 0.017938800156116486 1 True True
10361.046 4.339502334594727 -1.6398865185179652 1.9556964079486292 -1.8867136440672816 -1.5707925001727503 1.3899694681167603 -0.7192825675010681 0.16185039281845093 -0.1670903116464615 0.01331328321248293 0.00028248102171346545 0.02224208414554596 1 True True
10361.096 4.301664352416992 -1.6314264736571253 1.9467838446246546 -1.885998865167135 -1.5707686583148401 1.391119122505188 -0.787603497505188 0.17203253507614136 -0.18803809583187103 0.016984496265649796 -1.9521887679729844e-06 0.02269928529858589 1 True True
10361.145999999999 4.260282516479492 -1.6222392521300257 1.9369285742389124 -1.8854443035521449 -1.570740048085348 1.3922927379608154 -0.857295036315918 0.18862101435661316 -0.2050996571779251 0.013293053954839706 0.00025054000434465706 0.025151729583740234 1 True True
10361.196 4.2154388427734375 -1.612422605554098 1.9263265768634241 -1.8848659000792445 -1.5708168188678187 1.393533706665039 -0.933519184589386 0.20574484765529633 -0.22635073959827423 0.01589987799525261 -0.0006941604078747332 0.025619521737098694 1 True True
10361.246 4.16706657409668 -1.6017071209349574 1.9148290793048304 -1.8839675388731898 -1.570772949849264 1.3949240446090698 -0.9980694055557251 0.22259128093719482 -0.2294217050075531 0.015584785491228104 4.474784258412523e-12 0.027405960485339165 1 True True
10361.296 4.115561008453369 -1.5901409588255824 1.9025715033160608 -1.8832289181151332 -1.5708850065814417 1.3963667154312134 -1.0500571727752686 0.23105764389038086 -0.24445335566997528 0.018550317734479904 -0.0021506212651729584 0.027618372812867165 1 True True
10361.346 4.0632100105285645 -1.5786191425719203 1.8903496901141565 -1.8824554882445277 -1.5708444754229944 1.397822380065918 -1.0477733612060547 0.2332758754491806 -0.25236204266548157 0.01826576702296734 8.064233725235681e-08 0.03014359623193741 1 True True
10361.395999999999 4.0107245445251465 -1.5670620387284835 1.877775017415182 -1.881620546380514 -1.5707891623126429 1.3993009328842163 -1.0448987483978271 0.2287917584180832 -0.255504310131073 0.01204666867852211 0.0014547138707712293 0.028945578262209892 1 True True
10361.446 3.958451509475708 -1.5553889538026233 1.8654688040362757 -1.8806663952269496 -1.5707805792437952 1.400777816772461 -1.0512727499008179 0.2310463935136795 -0.24186506867408752 0.013220177963376045 -0.0003049112856388092 0.02771013043820858 1 True True
10361.496 3.9060897827148438 -1.5439230252853413 1.8530052343951624 -1.8799082241454066 -1.570768181477682 1.4023157358169556 -1.0477194786071777 0.2387189418077469 -0.24027681350708008 0.014650936238467693 3.760187610168941e-05 0.029930338263511658 1 True True
10361.546 3.85365629196167 -1.5321848292699833 1.8405807654010218 -1.8791419468321742 -1.5708168188678187 1.403829574584961 -1.0434237718582153 0.2302320897579193 -0.2482861876487732 0.02022414468228817 4.833990499553131e-11 0.029028207063674927 1 True True
10361.596 3.801290273666382 -1.5207054030946274 1.828266445790426 -1.8784319363036097 -1.570829216633932 1.4052767753601074 -1.04856276512146 0.22789695858955383 -0.25752317905426025 0.017441000789403915 7.342845644953847e-30 0.02902880683541298 1 True True
10361.645999999999 3.7489471435546875 -1.5091608737460156 1.8157628218280237 -1.877577920953268 -1.5707805792437952 1.4067614078521729 -1.0477733612060547 0.23393340408802032 -0.249784454703331 0.009623738937079906 5.158771818969399e-05 0.029054023325443268 1 True True
10361.696 3.696653127670288 -1.4973811891726037 1.8034451643573206 -1.8766709766783656 -1.5708125273333948 1.4082202911376953 -1.0461291074752808 0.23176367580890656 -0.24242664873600006 0.01250748336315155 6.550582817146116e-22 0.029248379170894623 1 True True
10361.746 3.644272804260254 -1.4859219801476975 1.7909954229937952 -1.875941892663473 -1.5708335081683558 1.4097247123718262 -1.0482646226882935 0.2315310835838318 -0.2429894208908081 0.020520174875855446 -4.7992893087211996e-05 0.029548533260822296 1 True True
10361.796 3.591994285583496 -1.4743281316808243 1.7784903685199183 -1.8751269779601039 -1.5708048979388636 1.4112675189971924 -1.0496697425842285 0.23421710729599 -0.25340908765792847 0.020874299108982086 -5.973250987801156e-23 0.032198235392570496 1 True True
10361.846 3.539416790008545 -1.4626356822303315 1.7662957350360315 -1.874192853967184 -1.5708335081683558 1.4126801490783691 -1.0420925617218018 0.22733435034751892 -0.2547375559806824 0.01591932401061058 -9.342635166831315e-05 0.02967779152095318 1 True True
10361.895999999999 3.4871788024902344 -1.4511050444892426 1.7538002173053187 -1.873385568658346 -1.570829216633932 1.4141557216644287 -1.0501843690872192 0.2331312596797943 -0.2467736303806305 0.013288455083966255 -1.9194037635325567e-15 0.02761283703148365 1 True True
10361.946 3.4347994327545166 -1.4394508463195343 1.7414100805865687 -1.8726984463133753 -1.570772949849264 1.4156534671783447 -1.0495821237564087 0.23601384460926056 -0.24363820254802704 0.013314815238118172 -2.9155795566994813e-34 0.030128497630357742 1 True True
10361.996 3.38254451751709 -1.428000198011734 1.7289107481585901 -1.871854921380514 -1.570836369191305 1.4171051979064941 -1.0261298418045044 0.2244490087032318 -0.24483901262283325 0.015607071109116077 -0.0 0.02943449281156063 1 True True
10362.046 3.3325836658477783 -1.4170047056725998 1.7171819845782679 -1.8710519276061 -1.5707886854754847 1.4185612201690674 -0.9694821834564209 0.21584491431713104 -0.23031756281852722 0.018054457381367683 4.5293763832887635e-05 0.026750970631837845 1 True True
10362.096 3.2860617637634277 -1.406504065995552 1.70630389848818 -1.870296140710348 -1.5707967917071741 1.4198459386825562 -0.8941879868507385 0.19701999425888062 -0.21355782449245453 0.010635405778884888 0.0008186132763512433 0.024686643853783607 1 True True
10362.145999999999 3.243006706237793 -1.3970143806985398 1.6959980169879358 -1.869640966454977 -1.570813004170553 1.4210543632507324 -0.8286691904067993 0.18262165784835815 -0.19847556948661804 0.015782956033945084 -0.00028039119206368923 0.023144159466028214 1 True True
10362.196 3.2033612728118896 -1.3883575809052964 1.6864684263812464 -1.8690720997252406 -1.570784870778219 1.422143578529358 -0.7535957098007202 0.16867205500602722 -0.17247150838375092 0.011461458168923855 0.0002261055342387408 0.020820461213588715 1 True True
10362.246 3.167332172393799 -1.3803081971457978 1.6780675093280237 -1.868500371972555 -1.5708048979388636 1.4231910705566406 -0.6857131123542786 0.15261496603488922 -0.1612890064716339 0.012610938400030136 3.0658605680053167e-18 0.019855665042996407 1 True True
10362.296 3.1348726749420166 -1.3731185805848618 1.6703923384295862 -1.868023534814352 -1.5708211104022425 1.4241504669189453 -0.615189254283905 0.13553035259246826 -0.15185904502868652 0.008198617957532406 -1.6215537801400615e-09 0.016141433268785477 1 True True
10362.346 3.105743169784546 -1.3666883420995255 1.6634915510760706 -1.867542406121725 -1.5707972685443323 1.4249128103256226 -0.544730544090271 0.12477674335241318 -0.1325199007987976 0.007840052247047424 1.4610528318028207e-20 0.015759196132421494 1 True True
10362.395999999999 3.0802001953125 -1.3609987956336518 1.6574013868915003 -1.8670879803099574 -1.5707529226886194 1.4257094860076904 -0.47610703110694885 0.10468070954084396 -0.11161525547504425 0.009867807850241661 2.2193442779329658e-39 0.013142582960426807 1 True True
10362.446 3.0581939220428467 -1.3561170560172577 1.6521433035479944 -1.8667780361571253 -1.5707648436175745 1.4263646602630615 -0.4045793116092682 0.09092767536640167 -0.09339363127946854 0.005599068943411112 0.0003419538261368871 0.01174602285027504 1 True True
10362.496 3.0394349098205566 -1.3518943649581452 1.647780720387594 -1.8665324650206507 -1.5707843939410608 1.426828145980835 -0.3374047875404358 0.07264058291912079 -0.08417259156703949 0.004692434798926115 -0.00015520518354605883 0.008657908998429775 1 True True
10362.546 3.0243706703186035 -1.3485673528960724 1.6441410223590296 -1.866349836389059 -1.5707486311541956 1.4272819757461548 -0.272988885641098 0.0625082403421402 -0.0619761124253273 0.007018065545707941 -3.882905671889247e-20 0.008876060135662556 1 True True
10362.596 3.0127041339874268 -1.3459950250438233 1.6413229147540491 -1.866145750085348 -1.570784870778219 1.427587628364563 -0.19755777716636658 0.0418294295668602 -0.05230007693171501 0.001904990873299539 -5.898142307758693e-39 0.0071808407083153725 1 True True
10362.645999999999 3.0047051906585693 -1.3441904497197648 1.6395509878741663 -1.8659993610777796 -1.570813004170553 1.4278233051300049 -0.12945769727230072 0.027012409642338753 -0.030562691390514374 0.0011566831963136792 -0.0 0.004549437202513218 1 True True
10362.696 3.0000722408294678 -1.3432232302478333 1.6384394804583948 -1.8659593067564906 -1.570829216633932 1.427945852279663 -0.059035129845142365 0.01355629600584507 -0.011798817664384842 0.0024402476847171783 -0.0 0.0015404135920107365 1 True True
10362.746 2.998833179473877 -1.343031407599785 1.6382139364825647 -1.8659678898253382 -1.5707925001727503 1.4279204607009888 -0.005675984546542168 0.010271796956658363 0.007557504344731569 -0.00810168031603098 -0.0 0.00030641345074400306 1 True True
10362.796 2.9988536834716797 -1.341994733815529 1.6394737402545374 -1.8683096371092738 -1.5707929770099085 1.4279890060424805 -0.00022155337501317263 0.029892871156334877 0.048408493399620056 -0.09047071635723114 -0.00021573672711383551 0.0006681227823719382 1 True True
10362.846 2.998821258544922 -1.3399760735085984 1.6430628935443323 -1.8740831814207972 -1.5707562605487269 1.4280176162719727 -0.0007690602215006948 0.05393233150243759 0.10149795562028885 -0.14409592747688293 -9.810851042857394e-05 0.00023779491311870515 1 True True
10362.895999999999 2.9987919330596924 -1.3366572719863434 1.6492546240436 -1.8834592304625453 -1.5707724730121058 1.4279594421386719 -0.0007096086628735065 0.07827144861221313 0.14306733012199402 -0.2308443784713745 -9.104020136874169e-05 9.514080011285841e-05 1 True True
10362.946 2.998805046081543 -1.3320391935161133 1.6574156920062464 -1.8963204822936 -1.5707929770099085 1.4279934167861938 -0.00032025156542658806 0.10786156356334686 0.18963894248008728 -0.29705750942230225 -7.924308738438413e-05 6.224049866432324e-05 1 True True
10362.996 2.998760461807251 -1.3261167717031022 1.6681187788592737 -1.9126187763609828 -1.5707805792437952 1.4280041456222534 -0.00023617020633537322 0.1295681595802307 0.22718611359596252 -0.3619977831840515 -3.974618869941666e-19 2.68137873016272e-10 1 True True
10363.046 2.998756170272827 -1.3189931374839325 1.6805556456195276 -1.932429929772848 -1.5707686583148401 1.428026556968689 -0.00014266914513427764 0.1543961465358734 0.2768266201019287 -0.4377150237560272 -6.681251397822052e-05 4.073022248378857e-29 1 True True
10363.096 2.998792886734009 -1.3105296355536957 1.6956327597247522 -1.955759664575094 -1.5708048979388636 1.4280041456222534 -0.00011015601921826601 0.17614640295505524 0.3143286108970642 -0.4977814257144928 -1.2864705962651772e-16 0.0 1 True True
10363.145999999999 2.998810052871704 -1.3009443146041413 1.7125237623797815 -1.9824892483153285 -1.5707686583148401 1.4279608726501465 -9.044857870321721e-05 0.19942253828048706 0.35750457644462585 -0.572708249092102 -2.4945964469225146e-05 0.0 1 True True
10363.196 2.9987778663635254 -1.2915114623359223 1.7294147650348108 -2.0086175403990687 -1.570829216633932 1.4279844760894775 -6.019922511768527e-05 0.17782986164093018 0.31093496084213257 -0.504586935043335 3.509161955158116e-14 0.0 1 True True
10363.246 2.9987614154815674 -1.2832029324821015 1.7438033262835901 -2.03149475673818 -1.570772949849264 1.4279654026031494 -3.9723501090074764e-23 0.1490871012210846 0.2688347399234772 -0.42487281560897827 5.3304260705975155e-33 9.976300167913177e-12 1 True True
10363.296 2.9987852573394775 -1.2762610775283356 1.7561143080340784 -2.050695081750387 -1.5707891623126429 1.4280056953430176 0.0 0.1270814687013626 0.23053541779518127 -0.3605804145336151 0.0 1.515401425780637e-30 1 True True
10363.346 2.9987778663635254 -1.2706201535514374 1.7661989370929163 -2.0665232143797816 -1.5707724730121058 1.428010106086731 0.0 0.10043992102146149 0.1764918863773346 -0.27098581194877625 0.0 0.0 1 True True
10363.395999999999 2.9987807273864746 -1.2661755245975037 1.7740605513202112 -2.07875980953359 -1.5707686583148401 1.4279890060424805 0.0 0.07738695293664932 0.137228861451149 -0.21195483207702637 0.0 0.0 1 True True
10363.446 2.9987897872924805 -1.2630143028548737 1.7796323935138147 -2.0875560245909632 -1.5707724730121058 1.4280712604522705 0.0 0.051268789917230606 0.09118308871984482 -0.13478340208530426 0.0 0.0 1 True True
10363.496 2.9988017082214355 -1.2610451144031067 1.783205811177389 -2.0928899250426234 -1.5708044211017054 1.4279309511184692 0.0 0.02650650590658188 0.048382580280303955 -0.07197799533605576 0.0 0.0 1 True True
10363.546 2.9988059997558594 -1.2605179113200684 1.7841036955462855 -2.0947748623290003 -1.570756737385885 1.428010106086731 0.0 2.6764718441540936e-08 0.0007531740120612085 -0.0013808943331241608 0.0 -3.3933795773322117e-09 1 True True
