Andreas691667/Digital_Twin_UR/src/robot_connection_manager/robot_output/case1_13_miss_stock_robot_output.csv
timestamp actual_q_0 actual_q_1 actual_q_2 actual_q_3 actual_q_4 actual_q_5 actual_qd_0 actual_qd_1 actual_qd_2 actual_qd_3 actual_qd_4 actual_qd_5 safety_status output_bit_register_65 output_bit_register_66
13162.546 3.712078809738159 -0.8254707616618653 0.8429802099810999 -1.5882412395873011 -1.5708087126361292 2.141284227371216 0.0 0.0 -0.0 -0.0 0.0 0.0 1 False False
13162.596 3.712045669555664 -0.8255040806582947 0.8429349104510706 -1.5882731876769007 -1.5708254019366663 2.1413004398345947 0.0 0.0 -0.0 -0.0 0.0 0.0 1 False False
13162.645999999999 3.7120490074157715 -0.8254546088031312 0.842992130910055 -1.588353773156637 -1.570784870778219 2.141284227371216 0.0 0.0 -0.0 -0.0 0.0 0.0 1 False False
13162.696 3.712127923965454 -0.8254997295192261 0.8430293242083948 -1.5882774792113246 -1.5708168188678187 2.141267776489258 0.0 0.0 -0.0 -0.0 0.0 0.0 1 False False
13162.746 3.7120490074157715 -0.8255040806582947 0.8429964224444788 -1.5882932148375453 -1.5708087126361292 2.141239643096924 0.0 0.0 -0.0 -0.0 0.0 0.0 1 False False
13162.796 3.7120368480682373 -0.8254426878741761 0.8430336157428187 -1.5882774792113246 -1.5707967917071741 2.141266107559204 0.0 0.0 -0.0 -0.0 0.0 0.0 1 False False
13162.846 3.712095022201538 -0.825458900337555 0.8429630438434046 -1.588297029534811 -1.5708048979388636 2.141287088394165 0.0 0.0 -0.0 -0.0 0.0 0.0 1 False False
13162.895999999999 3.7120532989501953 -0.8254954975894471 0.8429964224444788 -1.588280817071432 -1.5707605520831507 2.14123797416687 0.0 0.0 -0.0 -0.0 0.0 0.0 1 False False
13162.946 3.7120907306671143 -0.825491265659668 0.8429845015155237 -1.5883094273009242 -1.570784870778219 2.141308546066284 0.0 0.0 -0.0 -0.0 0.0 0.0 1 False False
13162.996 3.712041139602661 -0.8254588407329102 0.8430469671832483 -1.5882817707457484 -1.570824925099508 2.1412930488586426 0.0 0.0 -0.0 -0.0 0.0 0.0 1 False False
13163.046 3.7120742797851562 -0.825457827453949 0.8429425398456019 -1.588245531121725 -1.570772949849264 2.141230583190918 0.0 0.0 -0.0 -0.0 0.0 0.0 1 False False
13163.096 3.7120580673217773 -0.825483576660492 0.8430455366717737 -1.5882498226561488 -1.570784870778219 2.141287088394165 0.0 0.0 -0.0 -0.0 0.0 0.0 1 False False
13163.145999999999 3.7120935916900635 -0.8254221838763733 0.8429563681231897 -1.5882369480528773 -1.570784870778219 2.14127516746521 0.0 0.0 -0.0 -0.0 0.0 0.0 1 False False
13163.196 3.7121145725250244 -0.8254630726626893 0.8429630438434046 -1.5882765255370082 -1.5707810560809534 2.1413049697875977 0.0 0.0 -0.0 -0.0 0.0 0.0 1 False False
13163.246 3.712041139602661 -0.8254750531962891 0.8429935614215296 -1.5882250271239222 -1.5708206335650843 2.14121413230896 0.0 0.0 -0.0 -0.0 0.0 0.0 1 False False
13163.296 3.712095260620117 -0.8255081337741395 0.8430264631854456 -1.588313718835348 -1.5707529226886194 2.141321897506714 0.0 0.0 -0.0 -0.0 0.0 0.0 1 False False
13163.346 3.712078809738159 -0.82541777313266 0.8430126349078577 -1.5882932148375453 -1.5707967917071741 2.141286849975586 0.0 0.0 -0.0 -0.0 0.0 0.0 1 False False
13163.395999999999 3.712106943130493 -0.8254546088031312 0.8429845015155237 -1.588285585443014 -1.5708006064044397 2.141266107559204 0.0 0.0 -0.0 -0.0 0.0 0.0 1 False False
13163.446 3.7121071815490723 -0.8254707616618653 0.8430007139789026 -1.5883051357665003 -1.570784870778219 2.141230583190918 0.0 0.0 -0.0 -0.0 0.0 0.0 1 False False
13163.496 3.712066888809204 -0.8255199950984498 0.8430054823504847 -1.5882846317686976 -1.570829216633932 2.141270637512207 0.0 0.0 -0.0 -0.0 0.0 0.0 1 False False
13163.546 3.712062358856201 -0.8255038422397156 0.8430007139789026 -1.5882898769774378 -1.5707929770099085 2.1412723064422607 0.0 0.0 -0.0 -0.0 0.0 0.0 1 False False
13163.596 3.712062358856201 -0.8254869741252442 0.8429845015155237 -1.5882488689818324 -1.5708006064044397 2.1413004398345947 0.0 0.0 -0.0 -0.0 0.0 0.0 1 False False
13163.645999999999 3.712083339691162 -0.825482503776886 0.8429802099810999 -1.5883175335326136 -1.5708649794207972 2.141258955001831 0.0 0.0 -0.0 -0.0 0.0 0.0 1 False False
13163.696 3.712050199508667 -0.8254674238017579 0.8429935614215296 -1.5882288418211878 -1.570784870778219 2.14127516746521 0.0 0.0 -0.0 -0.0 0.0 0.0 1 False False
13163.746 3.712062358856201 -0.8254500788501282 0.842992130910055 -1.588269372979635 -1.5707648436175745 2.1413004398345947 0.0 0.0 -0.0 -0.0 0.0 0.0 1 False False
13163.796 3.7120444774627686 -0.825425462131836 0.8430336157428187 -1.5883013210692347 -1.5707686583148401 2.1412723064422607 0.0 0.0 -0.0 -0.0 0.0 0.0 1 False False
13163.846 3.712095022201538 -0.8255210083774109 0.8429887930499476 -1.588320871392721 -1.5707929770099085 2.141270637512207 0.0 0.0 -0.0 -0.0 0.0 0.0 1 False False
13163.895999999999 3.712041139602661 -0.825438455944397 0.8429845015155237 -1.5883170566954554 -1.5708006064044397 2.141296148300171 0.0 0.0 -0.0 -0.0 0.0 0.0 1 False False
13163.946 3.7120742797851562 -0.8255274456790467 0.8429763952838343 -1.588320871392721 -1.5708087126361292 2.14127516746521 0.0 0.0 -0.0 -0.0 0.0 0.0 1 False False
13163.996 3.712078809738159 -0.8254707616618653 0.8430336157428187 -1.588285585443014 -1.5707929770099085 2.14121413230896 0.0 0.0 -0.0 -0.0 0.0 0.0 1 False False
13164.046 3.712045669555664 -0.8254707616618653 0.8430097738849085 -1.5882650814452113 -1.570824925099508 2.141267776489258 0.0 0.0 -0.0 -0.0 0.0 0.0 1 False False
13164.096 3.712036609649658 -0.8255199950984498 0.8430054823504847 -1.5882731876769007 -1.5707886854754847 2.141296148300171 0.0 0.0 -0.0 -0.0 0.0 0.0 1 False False
13164.145999999999 3.7121071815490723 -0.8254134219935914 0.8429721037494105 -1.5882650814452113 -1.5707767645465296 2.141247034072876 0.0 0.0 -0.0 -0.0 0.0 0.0 1 False False
13164.196 3.7120862007141113 -0.8254954975894471 0.8430545965777796 -1.5882607899107875 -1.5707772413836878 2.141270637512207 0.0 0.0 -0.0 -0.0 0.0 0.0 1 False False
13164.246 3.712078809738159 -0.8254264754107972 0.842971150075094 -1.5882846317686976 -1.5708091894732874 2.141249656677246 0.0 0.0 -0.0 -0.0 0.0 0.0 1 False False
13164.296 3.71209979057312 -0.8254588407329102 0.8430007139789026 -1.5882569752135218 -1.570772949849264 2.14127516746521 0.0 0.0 -0.0 -0.0 0.0 0.0 1 False False
13164.346 3.7120742797851562 -0.8254750531962891 0.8429349104510706 -1.5882731876769007 -1.5707929770099085 2.141237735748291 0.0 0.0 -0.0 -0.0 0.0 0.0 1 False False
13164.395999999999 3.7120816707611084 -0.8254739803126832 0.8429887930499476 -1.5882817707457484 -1.5707929770099085 2.141313076019287 0.0 0.0 -0.0 -0.0 0.0 0.0 1 False False
13164.446 3.7120907306671143 -0.8254426878741761 0.8429678122149866 -1.5883094273009242 -1.5707929770099085 2.141266107559204 0.0 0.0 -0.0 -0.0 0.0 0.0 1 False False
13164.496 3.7120532989501953 -0.8254426282695313 0.8430126349078577 -1.588297506371969 -1.5707967917071741 2.141267776489258 0.0 0.0 -0.0 -0.0 0.0 0.0 1 False False
13164.546 3.7120742797851562 -0.8254878681949158 0.8430421988116663 -1.5882374248900355 -1.5707929770099085 2.141258955001831 0.0 0.0 -0.0 -0.0 0.0 0.0 1 False False
13164.596 3.7120277881622314 -0.8254663509181519 0.8430245558368128 -1.588313718835348 -1.570784870778219 2.14127516746521 0.0 0.0 -0.0 -0.0 0.0 0.0 1 False False
13164.645999999999 3.7121071815490723 -0.8254577678493042 0.8429964224444788 -1.588297029534811 -1.5707767645465296 2.141221523284912 0.0 0.0 -0.0 -0.0 0.0 0.0 1 False False
13164.696 3.7120490074157715 -0.8255081337741395 0.8429763952838343 -1.588297029534811 -1.5707929770099085 2.1413049697875977 0.0 0.0 -0.0 -0.0 0.0 0.0 1 False False
13164.746 3.7120578289031982 -0.8255123657039185 0.8430331389056605 -1.5882817707457484 -1.5708168188678187 2.141263246536255 0.0 0.0 -0.0 -0.0 0.0 0.0 1 False False
13164.796 3.7120816707611084 -0.8254869741252442 0.8429964224444788 -1.588252683679098 -1.5708006064044397 2.141237735748291 0.0 0.0 -0.0 -0.0 0.0 0.0 1 False False
13164.846 3.7120158672332764 -0.8254500788501282 0.8430169264422815 -1.5882650814452113 -1.5707491079913538 2.141267776489258 0.0 0.0 -0.0 -0.0 0.0 0.0 1 False False
13164.895999999999 3.7120652198791504 -0.825463132267334 0.8429845015155237 -1.5882607899107875 -1.5707967917071741 2.141242504119873 0.0 0.0 -0.0 -0.0 0.0 0.0 1 False False
13164.946 3.7120652198791504 -0.8254588407329102 0.8429845015155237 -1.5882774792113246 -1.5708368460284632 2.141263246536255 0.0 0.0 -0.0 -0.0 0.0 0.0 1 False False
13164.996 3.7120606899261475 -0.8254416745952149 0.8429845015155237 -1.588292738000387 -1.570824925099508 2.1413040161132812 0.0 0.0 -0.0 -0.0 0.0 0.0 1 False False
13165.046 3.7120862007141113 -0.8254501980594178 0.8430007139789026 -1.5883246860899867 -1.5708125273333948 2.141267776489258 0.0 0.0 -0.0 -0.0 0.0 0.0 1 False False
13165.096 3.7120862007141113 -0.825450138454773 0.8429606596576136 -1.5883051357665003 -1.5707967917071741 2.141291618347168 0.0 0.0 -0.0 -0.0 0.0 0.0 1 False False
13165.145999999999 3.712078809738159 -0.8254997891238709 0.8429678122149866 -1.5882889233031214 -1.5707648436175745 2.141342878341675 0.0 0.0 -0.0 -0.0 0.0 0.0 1 False False
13165.196 3.7120981216430664 -0.825450138454773 0.8430331389056605 -1.588280817071432 -1.570784870778219 2.141270637512207 0.0 0.0 -0.0 -0.0 0.0 0.0 1 False False
13165.246 3.7121400833129883 -0.8254869741252442 0.8430288473712366 -1.588245531121725 -1.570784870778219 2.141230583190918 3.97904409074612e-12 0.0 -0.0 -0.0 0.0 0.0 1 False False
13165.296 3.7120578289031982 -0.8254546088031312 0.8429549376117151 -1.5883094273009242 -1.5707929770099085 2.141308546066284 0.0 0.0 -0.0 -0.0 0.0 0.0 1 False False
13165.346 3.7120981216430664 -0.8254545491984864 0.8429845015155237 -1.5882612667479457 -1.570756737385885 2.141308546066284 0.0 0.0 -0.0 -0.0 0.0 0.0 1 False False
13165.395999999999 3.7120490074157715 -0.8255037826350708 0.8429964224444788 -1.5883051357665003 -1.5707724730121058 2.141296148300171 0.0 0.0 -0.0 -0.0 0.0 0.0 1 False False
13165.446 3.7120816707611084 -0.8254759472659607 0.8429887930499476 -1.5882498226561488 -1.5707562605487269 2.141313076019287 0.0 0.0 -0.0 -0.0 0.0 0.0 1 False False
13165.496 3.7120862007141113 -0.8254545491984864 0.8429845015155237 -1.5882531605162562 -1.570813004170553 2.141258955001831 0.0 0.0 -0.0 -0.0 0.0 0.0 1 False False
13165.546 3.712099552154541 -0.825430766945221 0.8429930845843714 -1.588349004785055 -1.5707772413836878 2.141254425048828 0.0 0.0 -0.0 -0.0 0.0 0.0 1 False False
13165.596 3.712099552154541 -0.8254955571940918 0.8429649511920374 -1.5882851086058558 -1.5707529226886194 2.141263246536255 0.0 0.0 -0.0 -0.0 0.0 0.0 1 False False
13165.645999999999 3.7120280265808105 -0.825491265659668 0.8429887930499476 -1.588268896142477 -1.5708048979388636 2.141226053237915 0.0 0.0 -0.0 -0.0 0.0 0.0 1 False False
13165.696 3.7120413780212402 -0.8254545491984864 0.8429887930499476 -1.588268896142477 -1.5707648436175745 2.141263246536255 0.0 0.0 -0.0 -0.0 0.0 0.0 1 False False
13165.746 3.712087631225586 -0.8254264754107972 0.8429964224444788 -1.5883008442320765 -1.5708335081683558 2.141258955001831 0.0 0.0 -0.0 -0.0 0.0 0.0 1 False False
13165.796 3.7120535373687744 -0.8255199950984498 0.8430212179767054 -1.588269372979635 -1.5707967917071741 2.141308546066284 0.0 0.0 -0.0 -0.0 0.0 0.0 1 False False
13165.846 3.712106943130493 -0.8254793447307129 0.842992130910055 -1.5882889233031214 -1.570813004170553 2.1412930488586426 0.0 0.0 -0.0 -0.0 0.0 0.0 1 True False
13165.895999999999 3.7120368480682373 -0.8254997891238709 0.8429845015155237 -1.5883327923216761 -1.5707605520831507 2.141284227371216 0.0 0.0 -0.0 -0.0 0.0 0.0 1 True False
13165.946 3.712095022201538 -0.8254793447307129 0.8429887930499476 -1.5882774792113246 -1.5708377997027796 2.141254186630249 0.0 0.0 -0.0 -0.0 0.0 0.0 1 True False
13165.996 3.7120535373687744 -0.8255112928203125 0.8430255095111292 -1.5883094273009242 -1.570801083241598 2.1412885189056396 0.0 0.0 -0.0 -0.0 0.0 0.0 1 True False
13166.046 3.7120370864868164 -0.8254825633815308 0.8430092970477503 -1.5882569752135218 -1.5707562605487269 2.1412723064422607 0.0 0.0 -0.0 -0.0 0.0 0.0 1 True False
13166.096 3.7120981216430664 -0.8255041402629395 0.8429845015155237 -1.5882417164244593 -1.5707929770099085 2.1413040161132812 0.0 0.0 -0.0 -0.0 0.0 0.0 1 True False
13166.145999999999 3.7120699882507324 -0.8255199950984498 0.8429802099810999 -1.5882774792113246 -1.5708091894732874 2.141205072402954 0.0 0.0 -0.0 -0.0 0.0 0.0 1 True False
13166.196 3.7120580673217773 -0.8254469198039551 0.8429678122149866 -1.5882612667479457 -1.5707767645465296 2.141237735748291 0.0 0.0 -0.0 -0.0 0.0 0.0 1 True False
13166.246 3.7120447158813477 -0.8254869741252442 0.8429759184466761 -1.5882498226561488 -1.5707605520831507 2.1411755084991455 0.0 0.0 -0.0 -0.0 0.0 0.0 1 True False
13166.296 3.7120413780212402 -0.8253897589496155 0.8429845015155237 -1.5882774792113246 -1.5707319418536585 2.141267776489258 0.0 0.0 -0.0 -0.0 0.0 -4.2053918150486425e-05 1 True False
13166.346 3.7120535373687744 -0.8254717153361817 0.8430541197406214 -1.588297029534811 -1.5708006064044397 2.141249895095825 0.0 0.0 -0.0 -0.0 0.0 0.00020074947678949684 1 True False
13166.395999999999 3.712095022201538 -0.8254836362651368 0.8430126349078577 -1.5882731876769007 -1.5707925001727503 2.141258955001831 0.0 0.0 -0.0 -0.0 0.0 -7.913412588912691e-17 1 True False
13166.446 3.71207857131958 -0.8254750531962891 0.8429716269122522 -1.5883218250670375 -1.5708211104022425 2.141329526901245 0.0 0.0 -0.0 -0.0 0.0 -1.2020491585082217e-35 1 True False
13166.496 3.714094400405884 -0.8262703579715271 0.8442953268634241 -1.588724275628561 -1.5708211104022425 2.1404402256011963 0.072556272149086 -0.03438710793852806 0.055398304015398026 -0.01344101969152689 0.0 -0.03560635820031166 1 True False
13166.546 3.7195825576782227 -0.829043523674347 0.8486231009112757 -1.590219636956686 -1.5708168188678187 2.138049840927124 0.14682814478874207 -0.0776432529091835 0.11573480814695358 -0.036243610084056854 0.0 -0.06615608185529709 1 True False
13166.596 3.7286243438720703 -0.8337545555881043 0.8557809034930628 -1.592659135858053 -1.5708254019366663 2.1340417861938477 0.2134362757205963 -0.11319296061992645 0.17041204869747162 -0.051899224519729614 0.0 -0.09399859607219696 1 True False
13166.645999999999 3.741105079650879 -0.8403890293887635 0.8655617872821253 -1.5958806476988734 -1.5707767645465296 2.1285104751586914 0.279396653175354 -0.14284539222717285 0.21985825896263123 -0.06560472398996353 9.19013618840836e-05 -0.12319903075695038 1 True False
13166.696 3.75689697265625 -0.8485658925822754 0.8778794447528284 -1.600199361840719 -1.5707767645465296 2.1214559078216553 0.35010215640068054 -0.1806584894657135 0.2729261517524719 -0.09155086427927017 0.00010418787132948637 -0.14973084628582 1 True False
13166.746 3.776559352874756 -0.8584880393794556 0.8929966131793421 -1.6051155529417933 -1.5707967917071741 2.112952470779419 0.4222477078437805 -0.21905647218227386 0.3285985589027405 -0.11903747916221619 0.0001058392517734319 -0.18564236164093018 1 True False
13166.796 3.7991292476654053 -0.8701739472201844 0.9109342733966272 -1.6112405262389125 -1.5707605520831507 2.1028032302856445 0.49397069215774536 -0.2493218183517456 0.3783975839614868 -0.12695519626140594 3.0395816793316044e-05 -0.2193201333284378 1 True False
13166.846 3.825822353363037 -0.8837966483882447 0.9312499205218714 -1.6182624302306117 -1.570784870778219 2.0912134647369385 0.5576504468917847 -0.2918705940246582 0.4345587491989136 -0.14693231880664825 0.00011115416418761015 -0.24514369666576385 1 True False
13166.895999999999 3.8557398319244385 -0.8990509074977417 0.9546363989459437 -1.626124998132223 -1.570784870778219 2.0780189037323 0.6375923752784729 -0.31950777769088745 0.49267035722732544 -0.17535270750522614 -1.0459432209231068e-09 -0.2816014885902405 1 True False
13166.946 3.8890857696533203 -0.9162959021380921 0.9804742972003382 -1.6350895367064417 -1.5707486311541956 2.0632920265197754 0.701698362827301 -0.35664796829223633 0.5416571497917175 -0.18657773733139038 7.747025539569895e-17 -0.3067554533481598 1 True False
13166.996 3.9259891510009766 -0.93500109136615 1.009240452443258 -1.644787927667135 -1.5707605520831507 2.0470480918884277 0.7710942029953003 -0.39979231357574463 0.5969868302345276 -0.19468779861927032 1.176775169007766e-35 -0.3458397090435028 1 True False
13167.046 3.9663078784942627 -0.9559905093959351 1.0405600706683558 -1.6554395161070765 -1.570829216633932 2.029155969619751 0.8376157283782959 -0.4320716857910156 0.6562680006027222 -0.23074820637702942 -6.690608032987802e-17 -0.36202335357666016 1 True False
13167.096 4.010276794433594 -0.9783730071834107 1.074683968220846 -1.6669522724547328 -1.5707810560809534 2.0099358558654785 0.9159265756607056 -0.47350889444351196 0.6985816359519958 -0.23859752714633942 -0.00014223335892893374 -0.40406534075737 1 True False
13167.145999999999 4.057621479034424 -1.002677635555603 1.111347500477926 -1.6794549427428187 -1.5707891623126429 1.988953709602356 0.9748024344444275 -0.497793585062027 0.7620313763618469 -0.24966789782047272 -7.172718324000016e-05 -0.4302102327346802 1 True False
13167.196 4.108452796936035 -1.0287013214877625 1.150839630757467 -1.6929551563658656 -1.5707686583148401 1.9665758609771729 1.05120050907135 -0.5299655199050903 0.8135694861412048 -0.2787390947341919 -1.6962982044788077e-05 -0.45820459723472595 1 True False
13167.246 4.160738468170166 -1.0554359716228028 1.191446606312887 -1.7067204914488734 -1.570772949849264 1.9435250759124756 1.0440152883529663 -0.5400634407997131 0.8154748678207397 -0.26469743251800537 -0.0009221083601005375 -0.4668252468109131 1 True False
13167.296 4.2131452560424805 -1.0823592704585572 1.2320612112628382 -1.7206536732115687 -1.570784870778219 1.9204659461975098 1.0407617092132568 -0.5393125414848328 0.8139989972114563 -0.26517751812934875 -4.4853498085833943e-13 -0.46534788608551025 1 True False
13167.346 4.265571117401123 -1.1092055898955842 1.2727792898761194 -1.734248777429098 -1.5707805792437952 1.8973478078842163 1.0492846965789795 -0.5393251180648804 0.8121806383132935 -0.27619895339012146 4.523991447058506e-05 -0.4599166214466095 1 True False
13167.395999999999 4.317879676818848 -1.1360805195621033 1.3133352438556116 -1.7482143841185511 -1.5707767645465296 1.8742314577102661 1.0491080284118652 -0.5340349078178406 0.8142648339271545 -0.27290108799934387 3.1879893005788875e-20 -0.4617448151111603 1 True False
13167.446 4.370157241821289 -1.1629247528365632 1.3541515509234827 -1.7621032200255335 -1.5707686583148401 1.8512117862701416 1.0431954860687256 -0.5369895100593567 0.8075917959213257 -0.2798169255256653 4.8425623914628444e-39 -0.46603354811668396 1 True False
13167.496 4.422479629516602 -1.1895810526660462 1.3948505560504358 -1.7755781612791957 -1.5707686583148401 1.8281899690628052 1.029648780822754 -0.5237053036689758 0.7979632019996643 -0.2569983899593353 -2.3095955839380622e-05 -0.4548816978931427 1 True False
13167.546 4.472136497497559 -1.2151236695102234 1.433227841054098 -1.7888909778990687 -1.5708091894732874 1.8061747550964355 0.9601627588272095 -0.48879384994506836 0.7514629364013672 -0.2595979571342468 -0.0004990256275050342 -0.42140087485313416 1 True False
13167.596 4.518399238586426 -1.2388445299914856 1.4690511862384241 -1.8012825451292933 -1.5708048979388636 1.7857853174209595 0.8907606601715088 -0.4578881561756134 0.695006251335144 -0.24220415949821472 3.653400881376001e-06 -0.3940616250038147 1 True False
13167.645999999999 4.561328411102295 -1.2607931655696412 1.5023015181170862 -1.8124052486815394 -1.570813004170553 1.7671183347702026 0.8149496912956238 -0.42171284556388855 0.6373460292816162 -0.2174643725156784 -1.0025741088021123e-12 -0.3653615713119507 1 True False
13167.696 4.600569725036621 -1.280824677353241 1.532914940510885 -1.822731157342428 -1.5707805792437952 1.7496415376663208 0.7558820843696594 -0.3838902413845062 0.5867053866386414 -0.1915997415781021 -1.193767047880101e-06 -0.33272677659988403 1 True False
13167.746 4.6362714767456055 -1.2991673213294526 1.5605414549456995 -1.8322731457152308 -1.5708048979388636 1.7338906526565552 0.6861883401870728 -0.3510810434818268 0.5339277386665344 -0.1702844649553299 0.00043025045306421816 -0.3010146915912628 1 True False
13167.796 4.668628215789795 -1.3158441942981263 1.5857442061053675 -1.840844293633932 -1.5707686583148401 1.7195948362350464 0.613323986530304 -0.3112483322620392 0.47284674644470215 -0.1809549629688263 0.00011280537728453055 -0.2668265700340271 1 True False
13167.846 4.697506427764893 -1.3304317456534882 1.60832387605776 -1.8483010731139125 -1.570772949849264 1.7070719003677368 0.5444490313529968 -0.27717939019203186 0.42286330461502075 -0.1488790363073349 0.0006215475150384009 -0.23829242587089539 1 True False
13167.895999999999 4.722858905792236 -1.3437058937600632 1.6275342146502894 -1.855187555352682 -1.570772949849264 1.6959099769592285 0.4761030673980713 -0.24134905636310577 0.3689934015274048 -0.1341814547777176 0.002345823450013995 -0.2149425745010376 1 True False
13167.946 4.744665145874023 -1.3546271336129685 1.644834343587057 -1.8607527218260707 -1.5708048979388636 1.6861482858657837 0.40340766310691833 -0.20556294918060303 0.3130926489830017 -0.1228264719247818 0.00038691831286996603 -0.17348475754261017 1 True False
13167.996 4.762784481048584 -1.3641392451575776 1.6588910261737269 -1.8657027683653773 -1.5708449522601526 1.6780920028686523 0.33617115020751953 -0.1678755283355713 0.26886186003685 -0.07917860150337219 8.864795833160577e-13 -0.14889861643314362 1 True False
13168.046 4.777763843536377 -1.3717863273671647 1.6704757849322718 -1.8696452579894007 -1.5707648436175745 1.6716086864471436 0.25715452432632446 -0.13493169844150543 0.19987884163856506 -0.06466975808143616 -0.00012129587412346154 -0.1158590242266655 1 True False
13168.096 4.789000511169434 -1.3775998812964936 1.6792977491961878 -1.872535844842428 -1.570796314870016 1.666576623916626 0.19433726370334625 -0.09748134016990662 0.15322783589363098 -0.050978872925043106 -6.250352070740538e-17 -0.08521348983049393 1 True False
13168.145999999999 4.797032356262207 -1.3815745425275345 1.6854084173785608 -1.8747736416258753 -1.5708091894732874 1.6630761623382568 0.12241046130657196 -0.06404732167720795 0.09938716143369675 -0.03676843270659447 -9.494296540994096e-36 -0.05384189635515213 1 True False
13168.196 4.801323890686035 -1.3837920737317582 1.6888793150531214 -1.8758393726744593 -1.5707805792437952 1.6612424850463867 0.05340782180428505 -0.026708057150244713 0.04187128320336342 -0.01547064445912838 -0.0 -0.02603616751730442 1 True False
13168.246 4.802277565002441 -1.3842923802188416 1.6896651426898401 -1.8762012920775355 -1.5708211104022425 1.6607884168624878 0.0013698135735467076 0.0049383132718503475 0.014295261353254318 -0.025966478511691093 -0.0 0.00044569894089363515 1 True False
13168.296 4.802304267883301 -1.3834885221770783 1.6914132277118128 -1.8787552318968714 -1.5707886854754847 1.6608091592788696 0.000551530160009861 0.0312936007976532 0.052102163434028625 -0.08828238397836685 -0.0 -0.0005211440729908645 1 True False
13168.346 4.802286624908447 -1.381209672694542 1.695310417805807 -1.8849755726256312 -1.570813004170553 1.6607481241226196 0.0005811169976368546 0.059629108756780624 0.09401919692754745 -0.15281842648983002 0.00013015694275964051 -0.0005523054278455675 1 True False
13168.395999999999 4.802323341369629 -1.3776411426118393 1.701449219380514 -1.8944837055602015 -1.570801083241598 1.6607660055160522 0.0004315617843531072 0.08619365096092224 0.13938364386558533 -0.21778646111488342 7.553218893008307e-05 -0.00030784078990109265 1 True False
13168.446 4.802349090576172 -1.3727881473353882 1.7095797697650355 -1.907583852807516 -1.570813004170553 1.6607208251953125 0.0002525080635678023 0.11050156503915787 0.1872004270553589 -0.2897730767726898 6.384612061083317e-05 -0.0001362795301247388 1 True False
13168.496 4.802298545837402 -1.3666977000287552 1.7200148741351526 -1.9241110287108363 -1.5708211104022425 1.6607362031936646 0.0002500999253243208 0.1371404379606247 0.2320735901594162 -0.3716258406639099 2.255068833230014e-19 -9.748236334417015e-05 1 True False
13168.546 4.802351951599121 -1.359247775082924 1.7330639998065394 -1.9441749058165492 -1.570829216633932 1.6607986688613892 0.00016746640903875232 0.16058418154716492 0.27140724658966064 -0.4296414256095886 3.425455879161979e-38 -7.029069820418954e-05 1 True False
13168.596 4.802285194396973 -1.3507143271020432 1.7475345770465296 -1.967797418633932 -1.5707767645465296 1.6607288122177124 0.00010106151603395119 0.18675734102725983 0.31973856687545776 -0.501592755317688 4.3558714807486085e-18 6.221741205081344e-05 1 True False
13168.645999999999 4.8023552894592285 -1.3407015663436432 1.764928166066305 -1.9947310886778773 -1.5707772413836878 1.6607542037963867 9.822447464102879e-05 0.20882298052310944 0.35489004850387573 -0.5806825757026672 6.616580239198565e-37 6.204133767604444e-20 1 True False
13168.696 4.802285194396973 -1.3310985428145905 1.7813552061664026 -2.021365304986471 -1.5707691351519983 1.6607614755630493 0.00010172424663323909 0.18488988280296326 0.31424078345298767 -0.49888303875923157 0.0 9.424096510185119e-39 1 True False
13168.746 4.802362442016602 -1.3225906950286408 1.7961629072772425 -2.04433073619985 -1.5707805792437952 1.660768985748291 8.704423089511693e-05 0.15724416077136993 0.26728567481040955 -0.4292900860309601 0.0 0.0 1 True False
13168.796 4.802375793457031 -1.3153678935817261 1.808368984852926 -2.0639263592162074 -1.5708406607257288 1.6607451438903809 3.501184983178973e-05 0.13298191130161285 0.23119603097438812 -0.3597278296947479 0.0 0.0 1 True False
13168.846 4.802366733551025 -1.309486286049225 1.818533722554342 -2.0799857578673304 -1.5708087126361292 1.660757064819336 5.605193857299268e-43 0.10370631515979767 0.183147594332695 -0.2858884930610657 0.0 0.0 1 True False
13168.895999999999 4.802366733551025 -1.3048696380904694 1.8266757170306605 -2.092574258843893 -1.5708325544940394 1.6607733964920044 0.0 0.07877204567193985 0.1311035305261612 -0.21579155325889587 0.0 0.0 1 True False
13168.946 4.8023295402526855 -1.3015158337405701 1.8323314825641077 -2.1014720402159632 -1.5707605520831507 1.6607407331466675 0.0 0.054451800882816315 0.09668774902820587 -0.14191074669361115 0.0 0.0 1 True False
13168.996 4.802350997924805 -1.2995365124991913 1.8357041517840784 -2.107204576531881 -1.5708335081683558 1.6607451438903809 0.0 0.029376544058322906 0.05000099167227745 -0.0757438912987709 0.0 0.0 1 True False
13169.046 4.8022685050964355 -1.2987137001803895 1.8372233549701136 -2.1092969379820765 -1.5707724730121058 1.6607542037963867 0.0 1.3899536497774534e-05 0.002583547029644251 -0.014687957242131233 0.0 0.0 1 True False
13169.096 4.802308559417725 -1.2987843316844483 1.8372533957110804 -2.109196802178854 -1.5708006064044397 1.6608105897903442 0.0 0.0001835976872825995 -2.5183213729597454e-23 1.5509370133212027e-17 0.0 0.0 1 True False
13169.145999999999 4.802366733551025 -1.2987335485270997 1.8371952215777796 -2.1092683277525843 -1.5707925001727503 1.6607451438903809 0.0 0.00016806401254143566 9.30181922740303e-05 -3.5338969610165805e-05 0.0 0.0 1 True False
13169.196 4.8023552894592285 -1.2987076205066224 1.8371828238116663 -2.1092807255186976 -1.570772949849264 1.660768985748291 0.0 0.0002646746579557657 6.661309453193098e-05 -4.638212703866884e-05 0.0 0.0 1 True False
13169.246 4.8023295402526855 -1.2987255913070221 1.8371780554400843 -2.1092807255186976 -1.5708168188678187 1.6607437133789062 0.0 0.00022299883130472153 4.555340274237096e-05 -5.698741733795032e-05 0.0 3.497407723549209e-24 1 True False
13169.296 4.802343368530273 -1.298742638235428 1.837191406880514 -2.1092645130553187 -1.570784870778219 1.6607587337493896 0.0 0.00017195200780406594 9.235766318393956e-11 -0.00015966033970471472 0.0 5.310921179791057e-43 1 True False
13169.346 4.802310466766357 -1.2986510258964081 1.8372109572040003 -2.1092564068236292 -1.570829216633932 1.6607288122177124 0.0 0.00014348278637044132 2.1732737883213588e-40 -0.00014544236182700843 0.0 0.0 1 True False
13169.395999999999 4.802310466766357 -1.2987300616553803 1.8372200171100062 -2.1092683277525843 -1.5707805792437952 1.660757064819336 -3.8258320273598656e-05 0.00010720283898990601 0.0 -8.945767331169918e-05 0.0 0.0 1 True False
13169.446 4.802343368530273 -1.2987389725497742 1.8372038046466272 -2.10924830059194 -1.5707605520831507 1.6607378721237183 -1.8547249055700377e-05 8.358613558812067e-05 0.0 -7.170852768467739e-05 0.0 0.0 1 True False
13169.496 4.802343368530273 -1.2986837786487122 1.8371780554400843 -2.109328886071676 -1.5708449522601526 1.6607495546340942 -1.2240820069564506e-05 1.9758104082852657e-24 6.653005402768031e-05 -2.0696476216858217e-12 0.0 0.0 1 True False
13169.546 4.8022847175598145 -1.2986734968474885 1.8372367064105433 -2.109276433984274 -1.5708449522601526 1.6607614755630493 -2.590166646399921e-21 0.0 2.3356275050900877e-05 -3.1437989857657055e-31 0.0 0.0 1 True False
13169.596 4.802350997924805 -1.2986853879741211 1.8372200171100062 -2.109300275842184 -1.5707524458514612 1.660836100578308 0.0 0.0 2.8331205612630583e-05 -5.31541502368782e-07 0.0 0.0 1 True False
13169.645999999999 4.802334308624268 -1.2987454694560547 1.8370779196368616 -2.1093198261656703 -1.5707686583148401 1.6607614755630493 0.0 7.536571366983935e-09 9.963961389303222e-08 -0.0011834574397653341 0.0 0.0004217711684759706 1 True False
13169.696 4.802301406860352 -1.2987619203380127 1.8371074835406702 -2.109459539453024 -1.570784870778219 1.6607393026351929 0.0 0.00027244846569374204 0.00015821009583305568 -0.00015900401922408491 0.0 -0.00015311900642700493 1 True False
13169.746 4.802255153656006 -1.2987842422774811 1.8371122519122522 -2.1094638309874476 -1.5708211104022425 1.6607526540756226 0.0 0.00024910271167755127 0.0005895265494473279 0.0005245324573479593 0.0 -6.331388431135565e-05 1 True False
13169.796 4.802383899688721 -1.298905388717987 1.8368499914752405 -2.1083809338011683 -1.5707805792437952 1.6607481241226196 0.0 -0.012004012241959572 -0.022312192246317863 0.048792995512485504 0.0 -4.9550730182090774e-05 1 True True
13169.846 4.802366733551025 -1.300244228248932 1.8344600836383265 -2.104560991326803 -1.5707486311541956 1.6607779264450073 0.0 -0.04922337085008621 -0.08160670101642609 0.10873942822217941 0.0 -4.236855238559656e-05 1 True True
13169.895999999999 4.802338600158691 -1.3030486863902588 1.829642120991842 -2.0968901119627894 -1.5707925001727503 1.660780906677246 0.0 -0.0684308260679245 -0.12280513346195221 0.1818895936012268 8.499731680208095e-14 -0.0001045515964506194 1 True True
13169.946 4.802350997924805 -1.3073161405375977 1.8223112265216272 -2.085841318170065 -1.5707929770099085 1.6607600450515747 0.0 -0.09237445890903473 -0.1630341112613678 0.2676476538181305 1.2911108323813829e-32 -7.93745566625148e-05 1 True True
13169.996 4.8023552894592285 -1.312643365269043 1.8129876295672815 -2.071430822412008 -1.5708091894732874 1.6607362031936646 0.0 -0.11812260001897812 -0.21045583486557007 0.32875552773475647 -1.5732194392260336e-16 -4.9588907131692395e-05 1 True True
13170.046 4.802287578582764 -1.3191740077785035 1.8018177191363733 -2.053347250024313 -1.5707686583148401 1.6607331037521362 0.0 -0.14347794651985168 -0.24747100472450256 0.3836490213871002 -2.3897233355014255e-35 -4.531217200565152e-05 1 True True
13170.096 4.802374839782715 -1.3270580184510727 1.7883241812335413 -2.0319115124144496 -1.5707805792437952 1.6607451438903809 0.0 -0.1722268909215927 -0.2898963391780853 0.46308091282844543 -0.0 -3.7717643863288686e-05 1 True True
13170.145999999999 4.802413463592529 -1.33636790633712 1.772379223500387 -2.0069357357420863 -1.5707967917071741 1.6607779264450073 0.0 -0.1961727887392044 -0.3413238823413849 0.5248476266860962 -0.0 -3.6833633203059435e-05 1 True True
13170.196 4.8024001121521 -1.3465008449605484 1.7548211256610315 -1.979321142236227 -1.5707967917071741 1.6607898473739624 0.0 -0.19486111402511597 -0.33576881885528564 0.5379486083984375 -0.0 -2.4367151127080433e-05 1 True True
13170.246 4.802379131317139 -1.3555759948543091 1.7392638365374964 -1.954186578790182 -1.5707810560809534 1.660719871520996 0.0 -0.16828769445419312 -0.29704251885414124 0.4646792411804199 -0.0 -3.539898330018332e-08 1 True True
13170.296 4.802404880523682 -1.3636164677194138 1.7253592650042933 -1.9325572452940882 -1.570813004170553 1.6607288122177124 0.0 -0.14750121533870697 -0.253924161195755 0.39532116055488586 -0.0 1.0021471845406617e-21 1 True True
13170.346 4.8023176193237305 -1.3703466367772599 1.7140644232379358 -1.9145122967162074 -1.5707686583148401 1.660773515701294 0.0 -0.12037747353315353 -0.202108234167099 0.3351622223854065 -0.0 1.5222585477653353e-40 1 True True
13170.395999999999 4.802362442016602 -1.3756031704000016 1.7048161665545862 -1.899792810479635 -1.5707767645465296 1.6607378721237183 0.0 -0.09536495804786682 -0.16927148401737213 0.2697431147098541 -0.0 0.0 1 True True
13170.446 4.802346706390381 -1.3797579121640702 1.6977933088885706 -1.8886667690672816 -1.5708211104022425 1.6607706546783447 0.0 -0.06695158034563065 -0.1230166032910347 0.18140918016433716 -0.0 0.0 1 True True
13170.496 4.802358150482178 -1.3825019162944336 1.692803684865133 -1.881115575829977 -1.5707319418536585 1.6607823371887207 0.0 -0.042295511811971664 -0.07412336021661758 0.12682124972343445 -0.0 0.0 1 True True
13170.546 4.802358150482178 -1.3840536636165162 1.690164868031637 -1.876937051812643 -1.5707247892962855 1.6607407331466675 0.0 -0.0210422333329916 -0.03274496644735336 0.05030304193496704 -0.0 0.0 1 True True
13170.596 4.80217170715332 -1.3843582284501572 1.689695183430807 -1.8761607609190882 -1.570784870778219 1.6607117652893066 -0.02600753866136074 -2.4365276019011617e-08 -7.950509370857617e-07 -4.333410834078677e-05 -0.0 -0.0007468655821867287 1 True True
13170.645999999999 4.799537181854248 -1.3842922461083909 1.6896351019488733 -1.8761774502196253 -1.5707891623126429 1.6602838039398193 -0.09017207473516464 0.001067361794412136 -0.0014038439840078354 0.005058020818978548 -0.0 -0.012002118863165379 1 True True
13170.696 4.792932510375977 -1.3842681360295792 1.6894643942462366 -1.8760816059508265 -1.5707891623126429 1.6595711708068848 -0.15784887969493866 0.003320312360301614 -0.0050986167043447495 0.000392497779102996 -0.0 -0.01978343166410923 1 True True
13170.746 4.783219337463379 -1.3840161275914689 1.6891325155841272 -1.875981946984762 -1.5707443396197718 1.6582703590393066 -0.2328251749277115 0.005853875074535608 -0.0069347950629889965 0.0010492696892470121 -0.0 -0.029288796707987785 1 True True
13170.796 4.769786834716797 -1.3836728048375626 1.688749138508932 -1.8759347401061 -1.570801083241598 1.656536340713501 -0.2997959554195404 0.00954067800194025 -0.010532454587519169 0.0019415657734498382 -0.0 -0.03813701868057251 1 True True
13170.846 4.7530694007873535 -1.3833141785911103 1.6882060209857386 -1.8757950268187464 -1.5707767645465296 1.6543961763381958 -0.3720513582229614 0.0097581772133708 -0.009652306325733662 0.003197993617504835 -7.460770575562492e-05 -0.04717614874243736 1 True True
13170.895999999999 4.732659339904785 -1.3828226935914536 1.6876419226275843 -1.8757525883116664 -1.5707767645465296 1.6517549753189087 -0.4392894208431244 0.010343988426029682 -0.011467155069112778 0.0016837345901876688 -8.011419413378462e-05 -0.058787133544683456 1 True True
13170.946 4.709036350250244 -1.3823141616633912 1.6870611349688929 -1.8755165539183558 -1.5707362333880823 1.6486977338790894 -0.5121800899505615 0.011289355345070362 -0.013478288426995277 0.0033669453114271164 -3.6720164644066244e-05 -0.06399747729301453 1 True True
13170.996 4.681882858276367 -1.3816606414369126 1.6862548033343714 -1.8753816090025843 -1.5707247892962855 1.6452054977416992 -0.5775757431983948 0.01279523316770792 -0.017773011699318886 0.004033769480884075 0.00026104768039658666 -0.07321308553218842 1 True True
13171.046 4.651036262512207 -1.3808512401631852 1.6853564421283167 -1.87526335338735 -1.5707653204547327 1.6411808729171753 -0.645903468132019 0.01562028843909502 -0.016326194629073143 0.006302007474005222 0.00013800064334645867 -0.08273950219154358 1 True True
13171.096 4.616796493530273 -1.380093978052475 1.6843155066119593 -1.875075479547018 -1.570756737385885 1.6368231773376465 -0.7147395014762878 0.015780944377183914 -0.020059844478964806 0.006382020190358162 0.0004592009645421058 -0.09511320292949677 1 True True
13171.145999999999 4.579007625579834 -1.379266084437706 1.6832531134234827 -1.8748089275755824 -1.5708091894732874 1.6319056749343872 -0.7821152806282043 0.015522472560405731 -0.021669628098607063 0.007012858055531979 0.00141170434653759 -0.1007341593503952 1 True True
13171.196 4.537666320800781 -1.3783021879247208 1.6820672194110315 -1.874582906762594 -1.570784870778219 1.6265701055526733 -0.8561815023422241 0.020439282059669495 -0.0240849070250988 0.004684262443333864 4.9010990615526274e-17 -0.10918023437261581 1 True True
13171.246 4.493024826049805 -1.377263219361641 1.6809166113482874 -1.8743282757201136 -1.5707524458514612 1.6208542585372925 -0.9335142374038696 0.021609269082546234 -0.02475721575319767 0.003737375373020768 -0.0013407785445451736 -0.1207609474658966 1 True True
13171.296 4.44486141204834 -1.3761594903520127 1.6794851461993616 -1.8740340671935023 -1.570756737385885 1.6146199703216553 -0.9969792366027832 0.022438853979110718 -0.03157820925116539 0.004696717485785484 0.000177724301465787 -0.12776058912277222 1 True True
13171.346 4.393321514129639 -1.3749497842839737 1.677948300038473 -1.8737074337401332 -1.5708254019366663 1.6079624891281128 -1.0449215173721313 0.024029698222875595 -0.03006596677005291 0.006821881514042616 7.769388253692932e-20 -0.13819566369056702 1 True True
13171.395999999999 4.341029644012451 -1.373850778942444 1.6763880888568323 -1.8734814129271449 -1.57082444826235 1.6012808084487915 -1.0517327785491943 0.024278955534100533 -0.030355533584952354 0.005348496604710817 0.0002581869484856725 -0.13560375571250916 1 True True
13171.446 4.288596153259277 -1.372577966456749 1.6749513784991663 -1.8731991253294886 -1.570801083241598 1.594411015510559 -1.0428578853607178 0.02431698516011238 -0.028875086456537247 0.004163318779319525 -1.7209536588135783e-19 -0.13255015015602112 1 True True
13171.496 4.236199855804443 -1.3714068096927186 1.673563305531637 -1.8728848896422328 -1.5707653204547327 1.5876874923706055 -1.0436623096466064 0.023101499304175377 -0.026995308697223663 0.009359903633594513 -2.3158274416346103e-05 -0.13246867060661316 1 True True
13171.546 4.183836936950684 -1.3701745730689545 1.672049347554342 -1.8726545772948207 -1.5708406607257288 1.5809917449951172 -1.0487173795700073 0.023696377873420715 -0.0325220562517643 0.0044407956302165985 -3.517748501990333e-24 -0.13470178842544556 1 True True
13171.596 4.131527423858643 -1.3690244269422074 1.670497242604391 -1.8722921810545863 -1.5707767645465296 1.574259877204895 -1.0428783893585205 0.02465624175965786 -0.030596116557717323 0.004116244148463011 -5.338947149077553e-43 -0.13681836426258087 1 True True
13171.645999999999 4.079099655151367 -1.3677906704000016 1.6689766089068812 -1.871990819970602 -1.5707886854754847 1.5673844814300537 -1.0456610918045044 0.02439466305077076 -0.028768468648195267 0.008938196115195751 5.974424066579331e-09 -0.13175246119499207 1 True True
13171.696 4.026787281036377 -1.3665776264718552 1.6674798170672815 -1.8716756306090296 -1.5708406607257288 1.5606900453567505 -1.0510891675949097 0.024606619030237198 -0.030058356001973152 0.005368477199226618 -7.642211858183146e-05 -0.13730226457118988 1 True True
13171.746 3.9743802547454834 -1.3654067677310486 1.6660140196429651 -1.8714062176146449 -1.5707925001727503 1.5538535118103027 -1.0431721210479736 0.02459465153515339 -0.02965601347386837 0.0046516298316419125 0.00013242074055597186 -0.13467451930046082 1 True True
13171.796 3.92209792137146 -1.3642059129527588 1.6645029226886194 -1.871120115319723 -1.5707967917071741 1.5471465587615967 -1.0492442846298218 0.022604668512940407 -0.030078032985329628 0.008711588568985462 6.707649592457983e-21 -0.13473530113697052 1 True True
13171.846 3.869738817214966 -1.3629314315370102 1.662922207509176 -1.8708530865111292 -1.570813004170553 1.5403715372085571 -1.0516941547393799 0.024679305031895638 -0.02877577766776085 0.006151729729026556 1.0188939224998248e-39 -0.13641075789928436 1 True True
13171.895999999999 3.8173635005950928 -1.3617169272950669 1.6614330450641077 -1.870491167108053 -1.570829216633932 1.5336791276931763 -1.0468744039535522 0.025425143539905548 -0.028600281104445457 0.0036203099880367517 0.0 -0.13443154096603394 1 True True
13171.946 3.7650234699249268 -1.3606000256589432 1.6599739233600062 -1.8702131710448207 -1.570784870778219 1.5268477201461792 -1.0454456806182861 0.023486902937293053 -0.028212832286953926 0.0071542756631970406 0.0 -0.13420778512954712 1 True True
13171.996 3.7126944065093994 -1.359264002447464 1.6585353056537073 -1.8699313602843226 -1.5707724730121058 1.5200902223587036 -1.0509201288223267 0.024774275720119476 -0.031092455610632896 0.006433692295104265 0.0 -0.1365143209695816 1 True True
13172.046 3.660281181335449 -1.3581923258355637 1.6569321791278284 -1.8696729145445765 -1.57074481645693 1.5133776664733887 -1.0428519248962402 0.023811370134353638 -0.032331906259059906 0.005726214032620192 0.0 -0.13539943099021912 1 True True
13172.096 3.6078426837921143 -1.3569690001061936 1.6554797331439417 -1.8693386516966761 -1.570829216633932 1.506601333618164 -1.0464051961898804 0.025811364874243736 -0.029858825728297234 0.008021080866456032 0.0 -0.13607951998710632 1 True True
13172.145999999999 3.5555520057678223 -1.3557618421367188 1.6539934317218226 -1.8690606556334437 -1.5708282629596155 1.4998630285263062 -1.050368309020996 0.02446524240076542 -0.031001156195998192 0.005924695171415806 0.0 -0.13247792422771454 1 True True
13172.196 3.503167152404785 -1.354516015653946 1.6526125113116663 -1.868702074090475 -1.5707967917071741 1.4931647777557373 -1.044613242149353 0.023703735321760178 -0.028850477188825607 0.006237747613340616 0.0 -0.1343987137079239 1 True True
13172.246 3.4508275985717773 -1.3533450973084946 1.6510980764972132 -1.8684445820250453 -1.5707967917071741 1.4862933158874512 -1.0448389053344727 0.022835565730929375 -0.03160187602043152 0.007610928267240524 0.0 -0.13656705617904663 1 True True
13172.296 3.3984837532043457 -1.3521486085704346 1.6494868437396448 -1.868157526055807 -1.5708044211017054 1.4795256853103638 -1.0505146980285645 0.023734822869300842 -0.03053431212902069 0.0051394859328866005 0.0 -0.1377602219581604 1 True True
13172.346 3.347515344619751 -1.3509505850127717 1.6480496565448206 -1.8678766689696253 -1.5707767645465296 1.472947597503662 -0.9847202301025391 0.02235412411391735 -0.027881504967808723 0.007160107605159283 -2.6254276974668755e-08 -0.13006092607975006 1 True True
13172.395999999999 3.299849510192871 -1.3498081427863617 1.6466897169696253 -1.867589613000387 -1.570801083241598 1.4669026136398315 -0.918674886226654 0.022435680031776428 -0.02485300973057747 0.006016422063112259 -3.988029298818471e-27 -0.12009501457214355 1 True True
13172.446 3.255681276321411 -1.3488367956927796 1.645479981099264 -1.8673469028868617 -1.570833985005514 1.4611438512802124 -0.8453389406204224 0.019276026636362076 -0.024090351536870003 0.006184778641909361 0.00010217814997304231 -0.10723085701465607 1 True True
13172.496 3.2152087688446045 -1.3479327720454712 1.644226376210348 -1.8671170673766078 -1.5707796255694788 1.4559024572372437 -0.7849320769309998 0.01696982979774475 -0.02443445287644863 0.004317115060985088 -0.00041748068179003894 -0.10488615930080414 1 True True
13172.546 3.1780824661254883 -1.3470493418029328 1.6432207266436976 -1.8669382534422816 -1.5707967917071741 1.4510923624038696 -0.7096660137176514 0.01614471524953842 -0.02143111824989319 0.006087447050958872 3.1883367473950486e-12 -0.09188008308410645 1 True True
13172.596 3.1444427967071533 -1.3462400299361725 1.6422207991229456 -1.8666945896544398 -1.5707767645465296 1.4467570781707764 -0.6338164806365967 0.016019729897379875 -0.016719520092010498 0.005333589855581522 -2.434821544738952e-05 -0.08072058856487274 1 True True
13172.645999999999 3.114290475845337 -1.345590667133667 1.6413515249835413 -1.866552015344137 -1.5708211104022425 1.442850947380066 -0.5682403445243835 0.012279686518013477 -0.017020663246512413 0.0030726406257599592 1.9642048184204943e-15 -0.07370813190937042 1 True True
13172.696 3.0876927375793457 -1.344950557952263 1.6405847708331507 -1.8664003811278285 -1.5708168188678187 1.4394292831420898 -0.49918919801712036 0.011633616872131824 -0.012750986963510513 0.004355219192802906 2.9836328735949183e-34 -0.06489531695842743 1 True True
13172.746 3.0643444061279297 -1.3444226843169709 1.6399405638324183 -1.8662859402098597 -1.5708044211017054 1.4364111423492432 -0.4253096580505371 0.009177332744002342 -0.011510081589221954 0.003056812332943082 -0.00017412226588930935 -0.055504485964775085 1 True True
13172.796 3.0446958541870117 -1.3440346431783219 1.639399830495016 -1.866162439385885 -1.5707925001727503 1.4339228868484497 -0.363322913646698 0.009440584108233452 -0.011067126877605915 0.00138655467890203 0.00015232992882374674 -0.0467296838760376 1 True True
13172.846 3.028693199157715 -1.3436613839915772 1.6389935652362269 -1.8660465679564417 -1.5707891623126429 1.4318102598190308 -0.29258063435554504 0.007222116459161043 -0.008082142099738121 0.0012387882452458143 -5.387736020127584e-14 -0.03557981178164482 1 True True
13172.895999999999 3.015937566757202 -1.3433700662902375 1.6386750380145472 -1.8660193882384242 -1.5707767645465296 1.4302330017089844 -0.215544193983078 0.0050178696401417255 -0.00803731195628643 0.0013606174616143107 -8.183984157624713e-33 -0.02799047902226448 1 True True
13172.946 3.006767749786377 -1.3432083439878006 1.6384089628802698 -1.865915437737936 -1.5707967917071741 1.429023265838623 -0.14707863330841064 0.0034430830273777246 -0.004868926480412483 0.001994406571611762 -0.0 -0.02072065882384777 1 True True
13172.996 3.001044988632202 -1.3429984611323853 1.6381357351886194 -1.8659798107542933 -1.5707886854754847 1.4282503128051758 -0.07954566925764084 0.0022435246501117945 -0.0025086472742259502 0.0004594963975250721 -0.0 -0.010918406769633293 1 True True
13173.046 2.998772382736206 -1.3430254322341462 1.6380894819842737 -1.865915914575094 -1.570824925099508 1.4280846118927002 -0.01219327375292778 0.0005419428343884647 -0.0007718211272731423 0.00032151269260793924 -0.0 -0.0007974283653311431 1 True True
13173.096 2.998893976211548 -1.342362867002823 1.638749901448385 -1.8671051464476527 -1.570784870778219 1.4280771017074585 -0.002659231424331665 0.024419935420155525 0.03773576021194458 -0.061648935079574585 -0.00033999825245700777 -0.002370207104831934 1 True True
13173.145999999999 2.9988691806793213 -1.3408020299724122 1.6415470282184046 -1.871960302392477 -1.570784870778219 1.4280292987823486 -0.0025817055720835924 0.046107806265354156 0.08644768595695496 -0.1297454684972763 -4.7896573960315436e-05 -0.0003664851246867329 1 True True
13173.196 2.99877667427063 -1.3377899092486878 1.647156063710348 -1.8801423511900843 -1.5707772413836878 1.4280011653900146 -0.002126004546880722 0.07004577666521072 0.12838658690452576 -0.1928005814552307 -1.909888487716671e-05 -0.0001711416116449982 1 True True
13173.246 2.998792886734009 -1.3335319471410294 1.6547272841082972 -1.8920098743834437 -1.570824925099508 1.427964448928833 -0.0004717784468084574 0.09880875796079636 0.17448773980140686 -0.2654518783092499 -3.7324611184885725e-05 -3.559536025932175e-07 1 True True
13173.296 2.998760461807251 -1.3280677658370514 1.664673153554098 -1.9073049030699671 -1.5707610289203089 1.4280097484588623 -0.00020852124725934118 0.12410309910774231 0.21609477698802948 -0.33885547518730164 -2.479323968351821e-10 -5.406940158641488e-26 1 True True
13173.346 2.9988186359405518 -1.3212683957866211 1.6764643828021448 -1.9260107479491175 -1.5707810560809534 1.427952527999878 -0.000101096709840931 0.1484035700559616 0.25976431369781494 -0.41272324323654175 -3.130908889353162e-13 -8.407790785948902e-45 1 True True
13173.395999999999 2.998810052871704 -1.3132167321494599 1.6908028761493128 -1.9482060871519984 -1.5707967917071741 1.4279731512069702 -9.05041306396015e-05 0.17190423607826233 0.3087269365787506 -0.476863294839859 -4.7558573623534404e-32 -0.0 1 True True
13173.446 2.998771905899048 -1.3039269906333466 1.7072199026690882 -1.9739519558348597 -1.5707810560809534 1.4280173778533936 -2.001215165803316e-12 0.19495531916618347 0.3496933877468109 -0.5563766360282898 -0.0 -0.0 1 True True
13173.496 2.9987733364105225 -1.29428984344516 1.7244003454791468 -2.00101961712026 -1.570801083241598 1.4279687404632568 0.0 0.18570879101753235 0.32857438921928406 -0.5223745703697205 -5.4997475672280416e-05 -0.0 1 True True
13173.546 2.9988059997558594 -1.285574809913971 1.7397139708148401 -2.024858614007467 -1.5707967917071741 1.4280097484588623 -7.31563915679147e-35 0.16150356829166412 0.28290867805480957 -0.43914103507995605 -1.4558726064441661e-15 -0.0 1 True True
13173.596 2.9987568855285645 -1.2782249313643952 1.752559010182516 -2.045199056664938 -1.570772949849264 1.4279569387435913 2.268429489049595e-05 0.13290879130363464 0.2418268471956253 -0.3719593584537506 -2.211472904647576e-34 -0.0 1 True True
13173.645999999999 2.9987688064575195 -1.272198424940445 1.7634595076190394 -2.0620066128172816 -1.570784870778219 1.428005576133728 1.3915752788307145e-05 0.10837861150503159 0.19188791513442993 -0.3071100115776062 -0.0 -0.0 1 True True
13173.696 2.9988059997558594 -1.2673724454692383 1.7719085852252405 -2.075338979760641 -1.5707891623126429 1.4279483556747437 2.0072588085895404e-05 0.08424312621355057 0.15192605555057526 -0.23882591724395752 -0.0 -0.0 1 True True
13173.746 2.9988436698913574 -1.263879047041275 1.7781580130206507 -2.0853282413878382 -1.5708125273333948 1.4280054569244385 0.0 0.05978003144264221 0.10102562606334686 -0.15967774391174316 -0.0 -0.0 1 True True
13173.796 2.9987852573394775 -1.2614484292319794 1.782320801411764 -2.0917207203307093 -1.5707529226886194 1.4280139207839966 0.0 0.0358165018260479 0.06388092786073685 -0.09039037674665451 -0.0 -0.0 1 True True
13173.846 2.9987807273864746 -1.2608294647983094 1.7836435476886194 -2.0946561298766078 -1.5708168188678187 1.4279974699020386 0.0 0.008252248167991638 0.015572255477309227 -0.01950225420296192 0.0005167225026525557 -0.0 1 True True
13173.895999999999 2.9988138675689697 -1.2607625287822266 1.7837713400470179 -2.0948268375792445 -1.5708649794207972 1.428046464920044 0.0 0.004823625553399324 0.0052342284470796585 0.00029158766847103834 -9.213061275659129e-05 -0.0 1 True True
13173.946 2.9987852573394775 -1.2605668169311066 1.7839468161212366 -2.0949541531004847 -1.5708406607257288 1.427964448928833 -1.4219614286048454e-06 0.009469795040786266 0.008869108743965626 0.0001514399773441255 -1.3777374078927096e-05 -0.0 1 True True
13173.996 2.9987971782684326 -1.2599389118007203 1.785036865864889 -2.0941783390440882 -1.570732895527975 1.427992582321167 0.0 -0.01648608036339283 -0.021123504266142845 -0.025904064998030663 0.00021422890131361783 2.9911805540905334e-05 1 True False
13174.046 2.9987852573394775 -1.2600449186614533 1.7847660223590296 -2.0945168934264125 -1.5707853476153772 1.4279817342758179 0.0 -0.005880285054445267 -0.002489641075953841 0.000134202215122059 -0.00014456237840931863 -0.00020629496430046856 1 True False
13174.096 2.9987449645996094 -1.260302649145462 1.7845185438739222 -2.094612260858053 -1.5707247892962855 1.4279654026031494 4.264301242073998e-05 -0.000902858970221132 -0.0009774130303412676 -0.0007392549887299538 -0.00040502662886865437 -0.0006207657279446721 1 True False
13174.145999999999 2.9988138675689697 -1.2603781682303925 1.7842853705035608 -2.0946957073607386 -1.5707529226886194 1.428030252456665 3.3066469768527895e-05 -0.00021418351389002055 -0.0008547541219741106 -0.0009309237939305604 -0.00048064891598187387 -2.7046447763703907e-13 1 True False
13174.196 2.9987761974334717 -1.260439620619156 1.7843626181231897 -2.094772001306051 -1.570801083241598 1.4279816150665283 2.0079790877549006e-37 8.785724392821523e-23 -0.00018298890790902078 -0.0001175564611912705 -0.00011061928671551868 -4.108359515216412e-32 1 True False
13174.246 2.998809337615967 -1.2607068878463288 1.7838390509234827 -2.0942141018309535 -1.5708048979388636 1.4279974699020386 0.0 -0.018568003550171852 -0.027586739510297775 0.03377790376543999 -4.269865166861564e-05 -0.0 1 True False
13174.296 2.9988138675689697 -1.2619821292212983 1.7814505735980433 -2.090111394921774 -1.5707967917071741 1.428017497062683 0.0 -0.04030585661530495 -0.07256710529327393 0.11292135715484619 -0.00014664589252788574 -0.0 1 True False
13174.346 2.9987435340881348 -1.2647261184505005 1.7765987555133265 -2.082663198510641 -1.5708044211017054 1.4279683828353882 3.088705402554126e-10 -0.06740020215511322 -0.1115444079041481 0.17602886259555817 -0.00012168376997578889 -0.0 1 True False
13174.395999999999 2.9987897872924805 -1.2686780256083985 1.7694829146014612 -2.071709772149557 -1.5708335081683558 1.427984595298767 0.0 -0.09348752349615097 -0.16085150837898254 0.25006991624832153 -7.783301407471299e-05 -0.0 1 True False
13174.446 2.9987897872924805 -1.2739224594882508 1.7604330221759241 -2.05712952236318 -1.5708168188678187 1.4279654026031494 0.0 -0.11505657434463501 -0.2070598006248474 0.3177727460861206 -6.79701628314433e-08 -0.0 1 True False
13174.496 2.9987733364105225 -1.2804078322700043 1.7488024870501917 -2.039396425286764 -1.5708206335650843 1.4279683828353882 0.0 -0.1372801959514618 -0.24598875641822815 0.38646218180656433 -3.799064174359046e-09 -0.0 1 True False
13174.546 2.998788356781006 -1.2881166499904175 1.7352693716632288 -2.0178729496397914 -1.5708330313311976 1.4279565811157227 0.0 -0.16759105026721954 -0.29397153854370117 0.45706966519355774 -5.770785225953971e-28 -0.0 1 True False
13174.596 2.9987881183624268 -1.2970607441714783 1.7191851774798792 -1.9929968319334925 -1.5707810560809534 1.4279639720916748 0.0 -0.1938861757516861 -0.33774131536483765 0.525714635848999 -0.0 -0.0 1 True False
13174.645999999999 2.9987943172454834 -1.3069713872722168 1.7018144766436976 -1.965642591516012 -1.5708168188678187 1.4280000925064087 0.0 -0.1911696195602417 -0.3442959487438202 0.5309901237487793 -0.0 -0.0 1 True False
13174.696 2.9987435340881348 -1.3158386510661622 1.6860335508929651 -1.9410387478270472 -1.5707572142230433 1.4279595613479614 0.0 -0.16510257124900818 -0.28831711411476135 0.47030502557754517 -3.055008335195453e-08 -0.0 1 True False
13174.746 2.9987568855285645 -1.3233560782722016 1.6725814978228968 -1.9198276005186976 -1.570772949849264 1.4279803037643433 0.0 -0.14046023786067963 -0.2413315325975418 0.3972528278827667 -1.8043230212878847e-13 -0.0 1 True False
13174.796 2.9987897872924805 -1.3298138839057465 1.6613214651690882 -1.902142187158102 -1.5708206335650843 1.428046464920044 0.0 -0.11714688688516617 -0.20361363887786865 0.3156661093235016 -2.740771167307325e-32 -0.0 1 True False
13174.846 2.998771905899048 -1.3349473190358658 1.652315918599264 -1.888040681878561 -1.5708048979388636 1.4280339479446411 0.0 -0.09080340713262558 -0.1561538577079773 0.2440444678068161 -0.0 -0.0 1 True False
13174.895999999999 2.9987926483154297 -1.3388408583453675 1.6454713980304163 -1.877348085443014 -1.570772949849264 1.4279890060424805 0.0 -0.06591536849737167 -0.11059623956680298 0.17964068055152893 -0.0 -0.0 1 True False
13174.946 2.9988017082214355 -1.34137016654525 1.6408427397357386 -1.8701802692809046 -1.570813004170553 1.4279773235321045 0.0 -0.04016689583659172 -0.07461918145418167 0.10767873376607895 -0.0 -0.0 1 True False
13174.996 2.9987852573394775 -1.3427688640407105 1.6384781042682093 -1.8663398228087367 -1.5707925001727503 1.4279968738555908 0.0 -0.012574460357427597 -0.021208232268691063 0.042341362684965134 -0.0 -0.0 1 True False
13175.046 2.9987761974334717 -1.3428514313748856 1.6382196585284632 -1.8658720455565394 -1.570768181477682 1.4279520511627197 0.0 0.0009104793425649405 -0.00048326177056878805 -0.0004906096146441996 -0.0 -0.0 1 False False
13175.096 2.9988105297088623 -1.3428875368884583 1.6381490866290491 -1.8658958874144496 -1.5707486311541956 1.427992582321167 0.0 -0.00035857115290127695 -0.0012910687364637852 -0.0001315655099460855 -0.0 -0.0 1 False False
13175.145999999999 2.9987807273864746 -1.3429443699172516 1.638080898915426 -1.8658558330931605 -1.570801083241598 1.4279729127883911 0.0 -0.0008376326295547187 -0.0010780241573229432 -7.600444951094687e-05 -0.0 -0.0 1 False False
13175.196 2.9987478256225586 -1.3428694021752854 1.6380613485919397 -1.8658596477904261 -1.5707405249225062 1.4279844760894775 0.0 -0.0003563871723599732 -0.0002606192429084331 -5.343906377675012e-05 -0.0 -0.0 1 False False
13175.246 2.9988017082214355 -1.3429399144700547 1.638036076222555 -1.8659197292723597 -1.5707925001727503 1.4279844760894775 0.0 -0.00012487474305089563 -0.0001472325820941478 -2.4885770087688465e-19 -0.0 -0.0 1 False False
13175.296 2.9987568855285645 -1.3429730397513886 1.6380370298968714 -1.8659559688963832 -1.570801083241598 1.4280011653900146 0.0 -0.00018804450519382954 -9.322007099399343e-05 -3.7801547885294197e-38 -0.0 -0.0 1 False False
13175.346 2.9988300800323486 -1.3429219734719773 1.6380613485919397 -1.8659197292723597 -1.5707529226886194 1.4279922246932983 0.0 -6.677713827230036e-05 0.00011410284787416458 -0.0 -0.0 -0.0 1 False False
13175.395999999999 2.9987852573394775 -1.3429518353990098 1.6380170027362269 -1.8658720455565394 -1.570801083241598 1.4279890060424805 0.0 -5.1967694162158296e-05 2.7354657504474744e-05 -0.0 -0.0 -0.0 1 False False
13175.446 2.9987614154815674 -1.342898116712906 1.6381028334247034 -1.8658997021117152 -1.5708006064044397 1.4280295372009277 0.0 -3.50854461430572e-05 1.5543448171229102e-05 -0.0 -0.0 -0.0 1 False False
13175.496 2.9987733364105225 -1.342944399719574 1.638052765523092 -1.865915437737936 -1.5707686583148401 1.4279967546463013 0.0 -7.133904514552814e-28 1.085616895579733e-05 -0.0 -0.0 -0.0 1 False False
13175.546 2.9988348484039307 -1.3429640096477051 1.6380980650531214 -1.865892072717184 -1.5708211104022425 1.4280086755752563 0.0 0.0 1.8122287412232488e-26 -0.0 -0.0 -0.0 1 False False
13175.596 2.9988059997558594 -1.3430266839316864 1.638040844594137 -1.865903993646139 -1.5707648436175745 1.4279978275299072 0.0 0.0 0.0 -0.0 -0.0 -0.0 1 False False
13175.645999999999 2.9987807273864746 -1.3429803860238572 1.6380613485919397 -1.8658844433226527 -1.570801083241598 1.4279932975769043 0.0 0.0 0.0 -0.0 -0.0 -0.0 1 False False
13175.696 2.9987940788269043 -1.3428981763175507 1.6380170027362269 -1.8658887348570765 -1.5707529226886194 1.428010106086731 0.0 0.0 0.0 -0.0 -0.0 -0.0 1 False False
13175.746 2.9987435340881348 -1.3429550689509888 1.6380732695208948 -1.8659078083434046 -1.5708254019366663 1.4279967546463013 0.0 0.0 0.0 -0.0 -0.0 -0.0 1 False False
13175.796 2.9988181591033936 -1.3429685843041916 1.6380775610553187 -1.865892072717184 -1.5707767645465296 1.4279967546463013 0.0 0.0 0.0 -0.0 -0.0 -0.0 1 False False
13175.846 2.9987852573394775 -1.3429399293712159 1.6380284468280237 -1.8658520183958949 -1.5707886854754847 1.4280294179916382 0.0 0.0 0.0 -0.0 -0.0 -0.0 1 False False
13175.895999999999 2.9988017082214355 -1.342893586759903 1.6380613485919397 -1.8658553562560023 -1.5707686583148401 1.4279890060424805 0.0 0.0 8.148819006237318e-07 -0.0 -0.0 -0.0 1 False False
13175.946 2.998809337615967 -1.3429428201964875 1.6380580107318323 -1.8659078083434046 -1.5707724730121058 1.4280308485031128 0.0 0.0 1.9175027390034273e-36 -0.0 -0.0 -0.0 1 False False
13175.996 2.9987940788269043 -1.3429730397513886 1.6381352583514612 -1.8658720455565394 -1.570784870778219 1.4280471801757812 0.0 0.0 0.0 -0.0 -0.0 -0.0 1 True False
13176.046 2.998743772506714 -1.3429354441216965 1.6380484739886683 -1.8658558330931605 -1.570784870778219 1.4280471801757812 0.0 0.0 0.0 -0.0 -0.0 -0.0 1 True False
13176.096 2.9987525939941406 -1.3429607611945649 1.6381056944476526 -1.8659116230406703 -1.5707886854754847 1.4279729127883911 0.0 0.0 0.0 -0.0 -0.0 -0.0 1 True False
13176.145999999999 2.998788356781006 -1.3428813976100464 1.6380484739886683 -1.8658720455565394 -1.570801083241598 1.4280011653900146 0.0 0.0 0.0 -0.0 -0.0 -0.0 1 True False
13176.196 2.9988181591033936 -1.3430013370564957 1.6380861441241663 -1.8659001789488734 -1.570801083241598 1.427952527999878 0.0 0.0 0.0 -0.0 -0.0 -0.0 1 True False
13176.246 2.9987971782684326 -1.342959539299347 1.638057057057516 -1.86586393932485 -1.570829216633932 1.4280380010604858 0.0 0.0 0.0 -0.0 -0.0 -0.0 1 True False
13176.296 2.9987971782684326 -1.3429055672935029 1.6380818525897425 -1.865915437737936 -1.5707805792437952 1.4280173778533936 0.0 0.0 0.0 -0.0 -0.0 -0.0 1 True False
13176.346 2.9987852573394775 -1.3429730397513886 1.638019863759176 -1.8658324680724085 -1.5708091894732874 1.428030252456665 0.0 0.0 0.0 -0.0 -0.0 -0.0 1 True False
13176.395999999999 2.9987971782684326 -1.3429775100997468 1.6380732695208948 -1.86586393932485 -1.5708044211017054 1.4280250072479248 0.0 0.0 0.0 -0.0 -0.0 -0.0 1 True False
13176.446 2.9988269805908203 -1.3429472905448456 1.638057057057516 -1.865903993646139 -1.5707686583148401 1.428010106086731 0.0 0.0 3.8846916135260035e-12 -0.0 1.1878505574713927e-06 0.001603770419023931 1 True False
13176.496 2.998792886734009 -1.3429640096477051 1.6380699316607874 -1.8659402332701625 -1.570784870778219 1.4279967546463013 0.0 0.0 2.6298196043924074e-23 -2.3615267089062476e-24 1.804347496927146e-25 0.0002940250560641289 1 True False
13176.546 2.9988017082214355 -1.3430147630027314 1.6380775610553187 -1.865903993646139 -1.5708406607257288 1.4279934167861938 0.0 0.0 0.0 -3.587324068671532e-43 2.4862254122126615e-07 -4.445267222763505e-06 1 True False
13176.596 2.998809337615967 -1.342939944272377 1.6381338278399866 -1.865903993646139 -1.5708048979388636 1.4279974699020386 0.0 0.0 0.0 -0.0 3.776580679852219e-26 -4.891611005142238e-10 1 True False
13176.645999999999 2.998743772506714 -1.342956320648529 1.6380656401263636 -1.8658596477904261 -1.570784870778219 1.427964448928833 0.0 0.0 0.0 -0.0 5.605193857299268e-45 -7.43036832757031e-29 1 True False
13176.696 3.000718832015991 -1.3431093853763123 1.6381643454181116 -1.865903993646139 -1.5707925001727503 1.42812180519104 0.07198239862918854 -0.006963716819882393 0.009150559082627296 -0.0 0.0 0.006652080919593573 1 True False
13176.746 3.006269693374634 -1.3435006004622956 1.6386569182025355 -1.86588778118276 -1.570824925099508 1.4285081624984741 0.14721593260765076 -0.010796342976391315 0.011279874481260777 -0.0011015810305252671 0.0 0.00916256383061409 1 True False
13176.796 3.0152745246887207 -1.3440314096263428 1.6392486731158655 -1.8661424122252406 -1.5707767645465296 1.429063320159912 0.21162699162960052 -0.013532961718738079 0.0174407958984375 -0.0033546185586601496 0.0 0.012995127588510513 1 True False
13176.846 3.027712106704712 -1.344896526341774 1.6402137915240687 -1.8663011989989222 -1.5707805792437952 1.4298704862594604 0.2789042890071869 -0.01783853769302368 0.02366056479513645 -0.00485772080719471 0.0 0.018299678340554237 1 True False
13176.895999999999 3.0436055660247803 -1.3458349269679566 1.6415022055255335 -1.8664723835387171 -1.5708091894732874 1.4309685230255127 0.3536543846130371 -0.02277982607483864 0.028877029195427895 -0.004603204317390919 7.929824641905725e-05 0.02275395579636097 1 True False
13176.946 3.063131332397461 -1.3472280216268082 1.643106762562887 -1.8667870960631312 -1.570813004170553 1.4321681261062622 0.4233819246292114 -0.027042202651500702 0.03506678715348244 -0.005316220223903656 -3.4441830897707915e-12 0.026808427646756172 1 True False
13176.996 3.0861167907714844 -1.3486101192286988 1.6449597517596644 -1.8671008549132289 -1.5708335081683558 1.4336707592010498 0.4927481412887573 -0.03201775625348091 0.04064863547682762 -0.00694986991584301 -5.231721455651059e-31 0.031801387667655945 1 True False
13177.046 3.112428903579712 -1.3503899437240143 1.6470368544207972 -1.867514272729391 -1.5707843939410608 1.4354594945907593 0.5629715919494629 -0.038418516516685486 0.0449020080268383 -0.007152773439884186 -0.0 0.037055034190416336 1 True False
13177.096 3.142221689224243 -1.3522716474584122 1.649346176777975 -1.8679162464537562 -1.5707600752459925 1.4373644590377808 0.6301805973052979 -0.03985726460814476 0.049560897052288055 -0.008855042979121208 -0.0 0.0400705523788929 1 True False
13177.145999999999 3.1757023334503174 -1.354491875772812 1.652027432118551 -1.8683778248228968 -1.5708168188678187 1.4396116733551025 0.6963107585906982 -0.04434366524219513 0.05444123595952988 -0.012105492874979973 -0.0010376502759754658 0.04476545378565788 1 True False
13177.196 3.2127435207366943 -1.3569479149631043 1.654815975819723 -1.868821760217184 -1.5708487669574183 1.4419103860855103 0.7665936350822449 -0.04872210696339607 0.05946150794625282 -0.012077728286385536 -0.0005527831963263452 0.050445523113012314 1 True False
13177.246 3.253044605255127 -1.359591306453087 1.6581915060626429 -1.8693186245360316 -1.570784870778219 1.4446377754211426 0.8436650037765503 -0.05656563490629196 0.06860942393541336 -0.013807499781250954 5.07908443978522e-05 0.05236729979515076 1 True False
13177.296 3.2969038486480713 -1.3624790620854874 1.6616066137896937 -1.869859357873434 -1.5707805792437952 1.4475070238113403 0.9129878878593445 -0.06038295477628708 0.07173378020524979 -0.012481292709708214 0.00017406440747436136 0.06117658317089081 1 True False
13177.346 3.3443150520324707 -1.3655146074346085 1.6654275099383753 -1.8705550632872523 -1.5707529226886194 1.450546145439148 0.9800392389297485 -0.06421837210655212 0.07714436948299408 -0.011841260828077793 0.00012553382839541882 0.0635964497923851 1 True False
13177.395999999999 3.395169734954834 -1.3688657891801377 1.6693876425372522 -1.8712793789305628 -1.5707805792437952 1.453913688659668 1.047675371170044 -0.07011497765779495 0.08033478260040283 -0.013210286386311054 5.605200294390338e-15 0.06962599605321884 1 True False
13177.446 3.447446823120117 -1.3722886157086869 1.6734479109393519 -1.8718825779356898 -1.5707767645465296 1.4573243856430054 1.0514965057373047 -0.06705339252948761 0.07984652370214462 -0.014329110272228718 -0.0003602923243306577 0.06576938927173615 1 True False
13177.496 3.4998202323913574 -1.3757533890059968 1.6774595419513147 -1.8726149998106898 -1.5708335081683558 1.4607350826263428 1.0441635847091675 -0.06745342910289764 0.08179862797260284 -0.014071299694478512 -9.473523823544383e-05 0.06855209916830063 1 True False
13177.546 3.552232503890991 -1.3791016054204484 1.68170673051943 -1.873338361779684 -1.5707805792437952 1.464129090309143 1.0448046922683716 -0.06819446384906769 0.07938043028116226 -0.015635674819350243 -5.676742875948548e-05 0.06720444560050964 1 True False
13177.596 3.604559898376465 -1.3825858992389222 1.685845200215475 -1.8740741215147914 -1.5707648436175745 1.467530369758606 1.0517171621322632 -0.06760668009519577 0.08542168140411377 -0.016176454722881317 -0.00010104604734806344 0.06801319867372513 1 True False
13177.645999999999 3.6568751335144043 -1.3859720838120957 1.6899612585650843 -1.8747898540892542 -1.5708087126361292 1.4709442853927612 1.0463464260101318 -0.06963320821523666 0.08375100046396255 -0.01247271429747343 -7.505663234042004e-05 0.0647733062505722 1 True False
13177.696 3.7092857360839844 -1.389343948369362 1.6941850821124476 -1.8754331074156703 -1.570756737385885 1.4744080305099487 1.0458059310913086 -0.06706082820892334 0.08020097017288208 -0.013811266981065273 -7.135062679575199e-11 0.0671534612774849 1 True False
13177.746 3.7616896629333496 -1.3928743463805695 1.6982019583331507 -1.8761526546873988 -1.570829216633932 1.4777376651763916 1.04933500289917 -0.0685538649559021 0.0804702639579773 -0.012968553230166435 -1.0838180542152169e-29 0.06764353066682816 1 True False
13177.796 3.8140809535980225 -1.3962692630342026 1.7023795286761683 -1.8767911396422328 -1.5707648436175745 1.4812241792678833 1.046586513519287 -0.06991620361804962 0.07917261868715286 -0.01208422053605318 -7.85330994403921e-05 0.06896694004535675 1 True False
13177.846 3.866455316543579 -1.3996844750693818 1.706435505543844 -1.8775774441161097 -1.570801083241598 1.4847028255462646 1.0461421012878418 -0.06721997261047363 0.08581812679767609 -0.014944121241569519 -3.838574761155735e-23 0.06562888622283936 1 True False
13177.895999999999 3.9187262058258057 -1.4031168979457398 1.7105291525470179 -1.8782760105528773 -1.5708449522601526 1.4881138801574707 1.0533524751663208 -0.06718122214078903 0.08133680373430252 -0.016032792627811432 -5.830802910055564e-42 0.06786105781793594 1 True False
13177.946 3.970970392227173 -1.406522200708725 1.7147558371173304 -1.8789307079710902 -1.5708044211017054 1.491498589515686 1.0449411869049072 -0.0673978328704834 0.0837274044752121 -0.015398714691400528 -0.0 0.06935412436723709 1 True False
13177.996 4.023498058319092 -1.4099877041629334 1.7187097708331507 -1.8796683750548304 -1.5707648436175745 1.49490487575531 1.0432751178741455 -0.0666695162653923 0.08453471213579178 -0.014920282177627087 7.658535469090566e-05 0.06783892214298248 1 True False
13178.046 4.075727939605713 -1.4133564692786713 1.7230590025531214 -1.8803960285582484 -1.5707886854754847 1.4982904195785522 1.048983097076416 -0.06831897050142288 0.07849321514368057 -0.016020560637116432 2.3424090445089973e-10 0.06750009208917618 1 True False
13178.096 4.1282267570495605 -1.416731910114624 1.72722036043276 -1.8810936413206996 -1.5708048979388636 1.5017518997192383 1.0426892042160034 -0.06877783685922623 0.08424857258796692 -0.014556110836565495 3.5581230721876067e-29 0.06697286665439606 1 True False
13178.145999999999 4.180638313293457 -1.420224056845047 1.7312982718097132 -1.8819333515562953 -1.5708091894732874 1.505151629447937 1.0435622930526733 -0.07039564102888107 0.0794885903596878 -0.01421818882226944 2.338734412092613e-15 0.06770307570695877 1 True False
13178.196 4.232949256896973 -1.4235855054906388 1.7354500929461878 -1.8824788532652796 -1.570784870778219 1.5085517168045044 1.052295446395874 -0.07038331031799316 0.08402252942323685 -0.013617882505059242 1.4049797783521889e-11 0.06956291198730469 1 True False
13178.246 4.28524923324585 -1.4270704847625275 1.7394002119647425 -1.8832131824889125 -1.5707805792437952 1.511964201927185 1.046345591545105 -0.07101210951805115 0.08331197500228882 -0.014996612444519997 2.1341666057257986e-30 0.06984266638755798 1 True False
13178.296 4.335877418518066 -1.4302926075509568 1.743511978779928 -1.8839408359923304 -1.5707972685443323 1.5152759552001953 0.9758294224739075 -0.06320824474096298 0.0725863128900528 -0.016323115676641464 3.602060678531416e-05 0.06215589493513107 1 True False
13178.346 4.383066177368164 -1.433403806095459 1.7471287886248987 -1.884514947930807 -1.5708048979388636 1.5183327198028564 0.9137336015701294 -0.05683257430791855 0.0737629383802414 -0.009274890646338463 -0.00034144677920266986 0.05963706970214844 1 True False
13178.395999999999 4.426856994628906 -1.4363095623305817 1.750592056904928 -1.8851014576353968 -1.570784870778219 1.5212315320968628 0.8403213024139404 -0.0540119968354702 0.06592840701341629 -0.013112069107592106 9.464075105825032e-07 0.055359579622745514 1 True False
13178.446 4.467089653015137 -1.4389045399478455 1.7538111845599573 -1.885660787621969 -1.570784870778219 1.5239026546478271 0.768509566783905 -0.048063743859529495 0.06294383108615875 -0.011675724759697914 -0.00015086719940882176 0.04999278485774994 1 True False
13178.496 4.503873825073242 -1.4413094979575654 1.7567923704730433 -1.8861714802184046 -1.5707886854754847 1.5262465476989746 0.7010080814361572 -0.047432444989681244 0.05316657945513725 -0.008289199322462082 -1.735520671292155e-18 0.04365604743361473 1 True False
13178.546 4.537137508392334 -1.4435070914081116 1.7593467871295374 -1.886590143243307 -1.570756737385885 1.52841055393219 0.6360280513763428 -0.04122435674071312 0.05126018449664116 -0.006208870559930801 -2.636260334648981e-37 0.0382913313806057 1 True False
13178.596 4.566939830780029 -1.4455259603312989 1.7617409865008753 -1.8869930706419886 -1.570784870778219 1.5303667783737183 0.5641641020774841 -0.03971947729587555 0.04522882029414177 -0.004480783827602863 1.9618151598052777e-17 0.03592405840754509 1 True False
13178.645999999999 4.5933122634887695 -1.4472183001092453 1.763733212147848 -1.8873735866942347 -1.5707891623126429 1.5320460796356201 0.4907563328742981 -0.03280743956565857 0.03639435023069382 -0.004015262704342604 0.0013032958377152681 0.03096536174416542 1 True False
13178.696 4.615900993347168 -1.4485988330892106 1.7655399481402796 -1.8876120052733363 -1.5707362333880823 1.5335547924041748 0.42741504311561584 -0.028723105788230896 0.03407609462738037 -0.001996769569814205 0.000328499503666535 0.02730388008058071 1 True False
13178.746 4.635040760040283 -1.4499034372023125 1.7670391241656702 -1.887991567651266 -1.5708087126361292 1.5348570346832275 0.3553873598575592 -0.022295380011200905 0.028481975197792053 -0.005010880064219236 3.5014637131576543e-13 0.02251308225095272 1 True False
13178.796 4.6510443687438965 -1.4509116050652047 1.7683113257037562 -1.8881756267943324 -1.5707686583148401 1.5358985662460327 0.27759698033332825 -0.017878172919154167 0.021214496344327927 -0.005533389747142792 -0.0002642872277647257 0.017790328711271286 1 True False
13178.846 4.6632819175720215 -1.4517652702382584 1.7692535559283655 -1.888339181939596 -1.5708335081683558 1.536700963973999 0.21309009194374084 -0.014724986627697945 0.01596502587199211 -0.004469004925340414 -5.320601475821242e-19 0.013962351717054844 1 True False
13178.895999999999 4.672139644622803 -1.4523800325444718 1.7700188795672815 -1.8884183369078578 -1.570801083241598 1.5372921228408813 0.14222340285778046 -0.007391112856566906 0.010496838018298149 -0.002019667299464345 -8.08200626909434e-38 0.008641083724796772 1 True False
13178.946 4.677434921264648 -1.4525706705502053 1.7702916304217737 -1.8884498081602992 -1.570801083241598 1.5375702381134033 0.07353445887565613 -0.003973763901740313 0.0043278904631733894 -0.000893399294000119 -0.0 0.005309864412993193 1 True False
13178.996 4.679323196411133 -1.452727535074093 1.7704351584063929 -1.88855042080068 -1.5708044211017054 1.5376498699188232 0.0014076497172936797 -0.0006654461612924933 0.0007857091841287911 -0.00031610840233042836 -0.0 0.0004845787480007857 1 True False
13179.046 4.679225921630859 -1.4523022782853623 1.771670166646139 -1.8902064762511195 -1.570801083241598 1.537668228149414 0.0013640753459185362 0.02067890204489231 0.044762853533029556 -0.0567651204764843 -0.0 0.0013523957459256053 1 True False
13179.096 4.6792826652526855 -1.4504845079830666 1.7748411337481897 -1.8953577480711878 -1.5707925001727503 1.5376888513565063 0.0010378819424659014 0.053073249757289886 0.08842774480581284 -0.13809634745121002 -0.0 0.00037531432462856174 1 True False
13179.145999999999 4.679266452789307 -1.4471156758121033 1.7801926771747034 -1.904055734673971 -1.5708254019366663 1.537733554840088 0.0010566645069047809 0.08042929321527481 0.1284140795469284 -0.21727748215198517 -0.0 0.00011778205953305587 1 True False
13179.196 4.679295063018799 -1.4423669886640091 1.7878802458392542 -1.9160663090147914 -1.5707767645465296 1.5377249717712402 0.0006888361531309783 0.10692980140447617 0.17236554622650146 -0.2765868604183197 -0.0 5.6953897001221776e-05 1 True False
13179.246 4.6793036460876465 -1.4365347933820267 1.797572437916891 -1.9317294559874476 -1.5708044211017054 1.5377216339111328 0.00017197280249092728 0.12844352424144745 0.2171236127614975 -0.34942981600761414 -0.0 4.081177758052945e-05 1 True False
13179.296 4.679315090179443 -1.4293431353620072 1.8094809691058558 -1.9508010349669398 -1.570829216633932 1.537746548652649 0.00012333989434409887 0.15825757384300232 0.260856956243515 -0.4025211036205292 -0.0 1.9412537804635984e-22 1 True False
13179.346 4.679301738739014 -1.4209520679763337 1.8237670103656214 -1.9734651050963343 -1.5707767645465296 1.537733554840088 4.898464976577088e-05 0.18417710065841675 0.30361977219581604 -0.48580843210220337 -0.0 1.0786502189321098e-17 1 True False
13179.395999999999 4.679339408874512 -1.4111712735942383 1.839872185383932 -1.9995838604369105 -1.5707929770099085 1.537717342376709 4.4933141907677054e-05 0.20731063187122345 0.34438884258270264 -0.5497817397117615 -0.0 1.6384720633643908e-36 1 True False
13179.446 4.679318904876709 -1.4005150359920044 1.8576377073871058 -2.027428289453024 -1.5707648436175745 1.5377216339111328 3.598904368118383e-05 0.19540449976921082 0.3326697051525116 -0.5281998515129089 -0.0 0.0 1 True False
13179.496 4.679321765899658 -1.3912979823401947 1.8728259245501917 -2.052426954308981 -1.5707724730121058 1.537742257118225 -6.633473503825371e-08 0.17834466695785522 0.2975483238697052 -0.45737919211387634 4.1108035078481356e-18 0.0 1 True False
13179.546 4.679323196411133 -1.3831947606853028 1.8863046805011194 -2.0739757023253382 -1.5707686583148401 1.537704348564148 0.0 0.15025381743907928 0.24788767099380493 -0.3955627977848053 4.1583195250164274e-16 -3.377783079280827e-13 1 True False
13179.596 4.679301738739014 -1.376413272028305 1.8973234335528772 -2.091973444024557 -1.5707686583148401 1.5377378463745117 0.0 0.11803039908409119 0.20468159019947052 -0.3302317261695862 6.316495361297671e-35 -5.130861219164065e-32 1 True False
13179.645999999999 4.679281234741211 -1.3708991420320054 1.9064424673663538 -2.1063114605345667 -1.5707805792437952 1.5377137660980225 0.0 0.09431715309619904 0.16529476642608643 -0.2577979564666748 0.0 -0.0 1 True False
13179.696 4.679290294647217 -1.3668406468680878 1.9133737722979944 -2.1172505817809046 -1.5707925001727503 1.5376845598220825 0.0 0.07137682288885117 0.12041032314300537 -0.19093511998653412 0.0 -0.0 1 True False
13179.746 4.67927360534668 -1.3639614296010514 1.918084446583883 -2.1248980961241664 -1.5707967917071741 1.5377018451690674 0.0 0.043325867503881454 0.06932810693979263 -0.12509916722774506 0.0 -0.0 1 True False
13179.796 4.67929744720459 -1.3625281912139435 1.9206350485431116 -2.128714223901266 -1.5707805792437952 1.5377466678619385 0.0 0.017706699669361115 0.028925446793437004 -0.04657536372542381 0.0 -7.921482847450534e-08 1 True False
13179.846 4.679314136505127 -1.3623136144927521 1.9208911100970667 -2.129472871819967 -1.57074481645693 1.5377216339111328 0.0 -1.2240643374394292e-14 1.2546062855278706e-08 0.0004384109051898122 0.0 -1.203275731380853e-26 1 True False
13179.895999999999 4.679347038269043 -1.3623390060714264 1.9209559599505823 -2.129550119439596 -1.5707805792437952 1.537733554840088 0.0 7.421696500387043e-05 -9.046939629212673e-20 -0.00011153295781696215 0.0 -5.1478891691658646e-05 1 True False
13179.946 4.679348468780518 -1.3623034071973343 1.9209678808795374 -2.129444261590475 -1.570801083241598 1.5376770496368408 0.0 0.00017074710922315717 6.46767730358988e-05 -0.00024278354248963296 0.0 -3.486115747364238e-05 1 True False
13179.996 4.679257392883301 -1.3622569006732483 1.9209955374347132 -2.129484315911764 -1.5708006064044397 1.5377216339111328 -4.203895392974451e-45 0.0003274502814747393 7.004386861808598e-05 -0.000879404426086694 0.0 -1.7993380291053858e-14 1 True False
13180.046 4.6792802810668945 -1.3622943621924897 1.920999828969137 -2.129540582696432 -1.570784870778219 1.5376975536346436 0.0 0.000311641808366403 0.00011706627265084535 -0.0012898819986730814 0.0 -2.7331986694335263e-33 1 True False
13180.096 4.679271221160889 -1.3622717720321198 1.9210041205035608 -2.1295529804625453 -1.5707805792437952 1.5377628803253174 0.0 0.0002064068103209138 8.857270586304367e-05 -0.00024538941215723753 0.0 -0.0 1 True False
13180.145999999999 4.679271221160889 -1.3622717571309586 1.9210289160357874 -2.1295968494811 -1.5708168188678187 1.5377137660980225 0.0 0.00010746951738838106 2.4089723271725205e-11 -0.00014331910642795265 0.0 -0.0 1 True False
13180.196 4.679315090179443 -1.3622178447297593 1.920987908040182 -2.129584928552145 -1.5707805792437952 1.537742257118225 0.0 8.075125515460968e-05 5.187297210795805e-05 -9.56949224928394e-05 0.0 -0.0 1 True False
13180.246 4.679295063018799 -1.3622060132077713 1.920999828969137 -2.1295563183226527 -1.5708335081683558 1.5376845598220825 0.0 2.1317241305496282e-07 3.2542882136977995e-30 -2.3689700374973643e-12 0.0 -0.0 1 True False
13180.296 4.679332256317139 -1.3622642767480393 1.921011749898092 -2.1295443973936976 -1.570801083241598 1.5377137660980225 0.0 0.0 0.0 -3.598469856313479e-31 0.0 -0.0 1 True False
13180.346 4.6792778968811035 -1.3623033326915284 1.9209750334369105 -2.1294762096800746 -1.5707562605487269 1.5376845598220825 0.0 0.0 0.0 -0.0 0.0 -0.0 1 True False
13180.395999999999 4.6793036460876465 -1.362210438852646 1.9210322538958948 -2.1295324764647425 -1.5707843939410608 1.5377260446548462 0.0 -2.2682886992697604e-05 0.0 -0.0 0.0 -0.0 1 True False
13180.446 4.679332256317139 -1.362279163008072 1.9210041205035608 -2.1295043430724085 -1.5708254019366663 1.5377050638198853 0.0 0.0 0.0 -0.0 0.0 -0.0 1 True False
13180.496 4.67927360534668 -1.3623089504292984 1.9210074583636683 -2.129552503625387 -1.5707686583148401 1.5377260446548462 0.0 0.0 0.0 -0.0 0.0 -0.0 1 True False
13180.546 4.679344177246094 -1.3622598362020035 1.92104417482485 -2.129536291162008 -1.5708168188678187 1.5377748012542725 0.0 0.0 0.0 -0.0 0.0 -0.0 1 True False
13180.596 4.679245471954346 -1.3622761976769944 1.9209750334369105 -2.129552503625387 -1.5708006064044397 1.5377216339111328 0.0 0.0 0.0 -0.0 0.0 -0.0 1 True False
13180.645999999999 4.679360389709473 -1.3622431320003052 1.9210365454303187 -2.1295324764647425 -1.5708449522601526 1.5377790927886963 0.0 0.0 0.0 -0.0 0.0 -0.0 1 True False
13180.696 4.679262161254883 -1.3622268003276368 1.9210389296161097 -2.129540105859274 -1.5708568731891077 1.5377042293548584 0.0 0.0 0.0015904484316706657 -0.003452291479334235 0.0 0.0007640356197953224 1 True False
13180.746 4.679263114929199 -1.36223420620475 1.9210322538958948 -2.129576345483297 -1.5707443396197718 1.5377094745635986 -1.4053291679232832e-13 -0.00010972042218782008 -2.1817086754086474e-30 -6.75859102968333e-17 0.00012053956743329763 -0.00014138463302515447 1 True False
13180.796 4.679330825805664 -1.3622598362020035 1.9210150877581995 -2.1295205555357875 -1.5707767645465296 1.5377627611160278 0.0 3.229796163850551e-07 -0.0 -1.0266315226770318e-35 -1.6957716494577814e-14 -6.121504702605307e-05 1 True False
13180.846 4.679345607757568 -1.3622880590013047 1.9210193792926233 -2.129536291162008 -1.5708168188678187 1.537668228149414 0.0 0.0 -0.0 -0.0 -2.575880791095041e-33 -3.906873462256044e-05 1 True False
13180.895999999999 4.679286003112793 -1.3622464847615738 1.9210107962237757 -2.129508157769674 -1.5707843939410608 1.5377260446548462 0.0 0.0 -0.0 -0.0 -0.0 -5.9439493327317905e-08 1 False False
13180.946 4.67936897277832 -1.3622998756221314 1.921027962361471 -2.1295887432494105 -1.5708335081683558 1.537745475769043 0.0 0.0 -1.0053581095880934e-13 -0.0 -0.0 -6.171123123483433e-16 1 False False
13180.996 4.6793107986450195 -1.3622089934400101 1.9210150877581995 -2.129556795159811 -1.5707648436175745 1.5376932621002197 0.0 0.0 -2.368194404708941e-43 -0.0 -0.0 -9.373952149983484e-35 1 False False
13181.046 4.679315090179443 -1.3622431320003052 1.9209869543658655 -2.129540105859274 -1.5707605520831507 1.5376932621002197 0.0 0.0 -0.0 -0.0 -0.0 -0.0 1 False False
13181.096 4.6793107986450195 -1.3622104090503235 1.9210236708270472 -2.129512449304098 -1.5707767645465296 1.5377180576324463 0.0 0.0 -0.0 -0.0 -0.0 -6.347333692247048e-05 1 False False
13181.145999999999 4.679330825805664 -1.3622268003276368 1.921056095753805 -2.1295324764647425 -1.570801083241598 1.5376726388931274 0.0 0.0 -0.0 -0.0 -0.0 -3.6058382946180245e-09 1 False False
13181.196 4.679286003112793 -1.362250880604126 1.9210236708270472 -2.1295205555357875 -1.5708087126361292 1.5376931428909302 0.0 0.0 -0.0 -0.0 -0.0 -5.477278317254217e-28 1 False False
13181.246 4.679278373718262 -1.362295464878418 1.9210522810565394 -2.1295563183226527 -1.5707805792437952 1.53773033618927 0.0 0.0 -1.0807059393866338e-32 -0.0 -0.0 -0.0 1 False False
13181.296 4.6793107986450195 -1.3622465145638962 1.921016041432516 -2.1295486889281214 -1.5707967917071741 1.5376683473587036 0.0 0.0 -0.0 -0.0 -0.0 -0.0 1 False False
13181.346 4.679269313812256 -1.362276093368866 1.9210322538958948 -2.129556795159811 -1.5708487669574183 1.537742257118225 -4.875348750214414e-27 0.0 -0.0 -0.0 -0.0 -0.0 1 False False
13181.395999999999 4.679340839385986 -1.362270326619484 1.9210236708270472 -2.129568716088766 -1.5707805792437952 1.5377050638198853 0.0 0.0 -0.0 -0.0 -0.0 -0.0 1 False False
13181.446 4.67934513092041 -1.3622060877135773 1.9210365454303187 -2.129536291162008 -1.5707767645465296 1.5377061367034912 0.0 0.0 -0.0 -0.0 -0.0 -0.0 1 False False
13181.496 4.679306507110596 -1.3622553509524842 1.9210518042193812 -2.1295048199095667 -1.5707686583148401 1.5377018451690674 0.0 0.0 -2.3455688545918506e-18 -0.0 -0.0 -0.0 1 False False
13181.546 4.679299354553223 -1.3622016322663804 1.921016041432516 -2.1295200786986292 -1.5707686583148401 1.5377050638198853 0.0 0.0 -0.0 -0.0 -0.0 -0.0 1 False False
13181.596 4.679323673248291 -1.3622071009925385 1.920950714741842 -2.129536291162008 -1.570784870778219 1.5376651287078857 -5.869710495431946e-09 0.0 -0.0 -0.0 0.00010653136996552348 1.7003480934363324e-06 1 False False
13181.645999999999 4.679323673248291 -1.3622210931828995 1.921011749898092 -2.1295162640013636 -1.5708053747760218 1.5377106666564941 0.0 0.0 -0.0 -0.0 2.603790198918432e-05 -0.0002332868316443637 1 False False
13181.696 4.679306507110596 -1.3622179639390488 1.921016041432516 -2.129528661767477 -1.5708296934710901 1.5377347469329834 0.0 0.0 -0.0 -0.0 3.011693843291141e-05 0.0006105312495492399 1 False False
13181.746 4.679327487945557 -1.3622387212565918 1.920987908040182 -2.129524370233053 -1.5707605520831507 1.5376888513565063 0.0 0.0 -0.0 -0.0 1.0640947948559187e-05 1.6198442059904393e-20 1 False False
13181.796 4.679339408874512 -1.3622834992459794 1.921016041432516 -2.1295281849303187 -1.5708091894732874 1.5377086400985718 0.0 0.0 -0.0 -0.0 5.3168242331022005e-20 2.460546980000268e-39 1 False False
13181.846 4.679327487945557 -1.3625475329211731 1.9205883185016077 -2.128725667993063 -1.5708091894732874 1.5377224683761597 0.0 -0.016663821414113045 -0.02829333022236824 0.03877280279994011 8.076267391363544e-39 0.0 1 False False
13181.895999999999 4.679286956787109 -1.3639508497766037 1.9180572668658655 -2.124688287774557 -1.570824925099508 1.5376932621002197 0.0 -0.04453827440738678 -0.07249175012111664 0.11615407466888428 0.0 0.0 1 False False
13181.946 4.679315090179443 -1.366891698246338 1.913215462361471 -2.117096563378805 -1.5708330313311976 1.5377007722854614 0.0 -0.07014960795640945 -0.11977386474609375 0.18169860541820526 0.0 0.0 1 False False
13181.996 4.679339408874512 -1.3711181294969101 1.906152073537008 -2.105875154534811 -1.570784870778219 1.5377378463745117 0.0 -0.09542471915483475 -0.15878163278102875 0.25341495871543884 0.0 0.0 1 False False
13182.046 4.679295063018799 -1.376587764625885 1.897181812916891 -2.09121098140859 -1.5707491079913538 1.53773033618927 0.0 -0.12286792695522308 -0.20680470764636993 0.3224245309829712 0.0 0.0 1 False False
13182.096 4.6793107986450195 -1.3833903831294556 1.8860543409930628 -2.0734478435912074 -1.570784870778219 1.5377216339111328 0.0 -0.14683860540390015 -0.2448979914188385 0.392868310213089 0.0 0.0 1 False False
13182.145999999999 4.679286479949951 -1.3915482324412842 1.87230092683901 -2.05188049892568 -1.5708087126361292 1.5377137660980225 0.0 -0.17645497620105743 -0.28883442282676697 0.4627254903316498 0.0 0.0 1 False False
13182.196 4.6793107986450195 -1.400878832941391 1.856809441243307 -2.026755472222799 -1.5707762877093714 1.5377007722854614 0.0 -0.2058735489845276 -0.34254083037376404 0.5288995504379272 0.0 0.0 1 False False
13182.246 4.679299354553223 -1.4115428638509293 1.839189354573385 -1.998848100701803 -1.570784870778219 1.537742257118225 0.0 -0.2097037434577942 -0.35107406973838806 0.5458579659461975 0.0 0.0 1 False False
13182.296 4.679295063018799 -1.4210777592710038 1.8232529799090784 -1.9727207622923792 -1.5707648436175745 1.5377260446548462 0.0 -0.18512389063835144 -0.301724910736084 0.4832836985588074 0.0 0.0 1 False False
13182.346 4.679297924041748 -1.4297420394471665 1.808997933064596 -1.9502750835814417 -1.5708048979388636 1.5376975536346436 0.0 -0.15690168738365173 -0.2589901089668274 0.4086504578590393 0.0 0.0 1 False False
13182.395999999999 4.6793107986450195 -1.4368092727712174 1.797218147908346 -1.9311758480467738 -1.5707805792437952 1.537726879119873 0.0 -0.12900987267494202 -0.21302065253257751 0.33871063590049744 0.0 0.0 1 False False
13182.446 4.679302215576172 -1.442567066555359 1.7875917593585413 -1.9157458744444789 -1.5707610289203089 1.537746548652649 0.0 -0.1016385555267334 -0.17666468024253845 0.2739845812320709 0.0 0.0 1 False False
13182.496 4.679336071014404 -1.447092243736126 1.7800100485431116 -1.90358366588735 -1.5707529226886194 1.5377585887908936 0.0 -0.07540232688188553 -0.1265769749879837 0.2028154879808426 0.0 0.0 1 False False
13182.546 4.6793036460876465 -1.4503347438624878 1.7747457663165491 -1.8952108822264613 -1.5707886854754847 1.5377466678619385 0.0 -0.05122923478484154 -0.08716960996389389 0.13631346821784973 0.0 0.0 1 False False
13182.596 4.679352283477783 -1.4521775853684922 1.771569554005758 -1.890142103234762 -1.5708206335650843 1.537656307220459 0.0 -0.026289425790309906 -0.04304441064596176 0.06653948873281479 0.0 0.0 1 False False
13182.645999999999 4.6793437004089355 -1.452783891265728 1.7706497351275843 -1.8886224232115687 -1.5708087126361292 1.53773033618927 0.0 -1.335782542355446e-07 0.0018476638942956924 -0.004562512971460819 0.0 0.0 1 False False
13182.696 4.6793036460876465 -1.452709549372532 1.7705791632281702 -1.8886224232115687 -1.570829216633932 1.537770390510559 0.0 0.0 9.290449064592125e-19 -7.303972233785316e-05 0.0 0.0 1 False False
13182.746 4.6793437004089355 -1.4528122332743187 1.7705701033221644 -1.8886014423766078 -1.5708211104022425 1.5377094745635986 0.0 -0.0004541100934147835 -0.0006336251390166581 -6.580748454264984e-20 0.0 0.0 1 False False
13182.796 4.679347991943359 -1.4528525930694123 1.770597283040182 -1.888634820977682 -1.5707691351519983 1.5376975536346436 0.0 -0.0007054237648844719 -0.000947224092669785 0.0003572647401597351 0.0 0.0 1 False False
13182.846 4.679282188415527 -1.4528231632760544 1.7705686728106897 -1.8885828457274378 -1.5707929770099085 1.5377378463745117 0.0 -0.0007099722279235721 -0.0007947263075038791 0.0006411284557543695 0.0 0.0 1 False False
13182.895999999999 4.679380416870117 -1.4527703386596222 1.7705686728106897 -1.8885952434935511 -1.570836369191305 1.5377260446548462 0.0 -0.00018290942534804344 -0.00020145509915892035 0.00032349704997614026 0.0 0.0 1 False False
13182.946 4.679339408874512 -1.4528027486852189 1.770536247883932 -1.888538499871725 -1.570784870778219 1.5377216339111328 0.0 -0.0001084372925106436 -0.00013937396579422057 0.00016185235290322453 0.0 0.0 1 False False
13182.996 4.679258346557617 -1.4528146472624321 1.770564381276266 -1.8884855709471644 -1.570824925099508 1.5377540588378906 0.0 -8.585391333326697e-05 -8.01309579401277e-05 0.00011262791667832062 0.0 0.0 1 False False
13183.046 4.6793107986450195 -1.452789844279625 1.7706063429461878 -1.8885218105711878 -1.570829216633932 1.5377007722854614 0.0 -5.405408228398301e-05 -5.544368104892783e-05 8.096411329461262e-05 0.0 0.0 1 False False
13183.096 4.679327487945557 -1.452770361011364 1.7705853621112269 -1.8885299168028773 -1.5707529226886194 1.5377378463745117 0.0 -3.879740120282804e-07 -1.074242855053929e-23 1.6281442848908127e-22 0.0 0.0 1 False False
13183.145999999999 4.6792826652526855 -1.4528267619064827 1.7705686728106897 -1.888578554193014 -1.5707686583148401 1.5377137660980225 0.0 0.0 -0.0 2.4731516596868696e-41 0.0 0.0 1 False False
13183.196 4.679306507110596 -1.4528354120305558 1.7705519835101526 -1.8885137043394984 -1.570813004170553 1.5376975536346436 0.0 0.0 -0.0 0.0 0.0 0.0 1 False False
13183.246 4.679312229156494 -1.4528231632760544 1.7705734411822718 -1.888562341729635 -1.570824925099508 1.537717342376709 0.0 0.0 -0.0 0.0 0.0 0.0 1 False False
13183.296 4.6793317794799805 -1.452838734989502 1.7705720106707972 -1.888517519036764 -1.5707805792437952 1.5377498865127563 0.0 0.0 -6.460291337387109e-18 0.0 0.0 0.0 1 False False
13183.346 4.679312229156494 -1.4527865585735817 1.7705472151385706 -1.8885146580138148 -1.5708168188678187 1.5376770496368408 0.0 0.0 -0.0 0.0 0.0 0.0 1 False False
13183.395999999999 4.679332256317139 -1.4527950671366234 1.77053147951235 -1.8885261021056117 -1.5708335081683558 1.537660837173462 0.0 0.0 -0.0 0.0 0.0 0.0 1 False False
13183.446 4.6792778968811035 -1.4528354120305558 1.770536247883932 -1.8884617290892542 -1.570772949849264 1.5376769304275513 2.0089926944244496e-10 0.0 -0.0 0.0 0.0 0.0 1 False False
13183.496 4.679319858551025 -1.452774630194046 1.7705686728106897 -1.8885299168028773 -1.5707686583148401 1.5377659797668457 0.0 0.0 -0.0 0.0 0.0 0.0 1 False False
13183.546 4.679326057434082 -1.4527984869531174 1.77053147951235 -1.888510366479391 -1.5708091894732874 1.5377378463745117 0.0 0.0 -0.0 0.0 0.0 0.0 1 False False
13183.596 4.679290294647217 -1.452778899376728 1.7705324331866663 -1.8885022602477015 -1.5708335081683558 1.5377216339111328 0.0 0.0 -0.0 0.0 0.0 0.0 1 False False
13183.645999999999 4.679360389709473 -1.4528027337840577 1.770536247883932 -1.8885261021056117 -1.570813004170553 1.537668228149414 0.0 0.0 -0.0 0.0 0.0 0.0 1 False False
13183.696 4.679306507110596 -1.452834428553917 1.7705429236041468 -1.8884817562498988 -1.5707925001727503 1.5377137660980225 0.0 0.0 -0.0 0.0 0.0 0.0 1 False False
13183.746 4.67929744720459 -1.452822507624962 1.770536247883932 -1.888517519036764 -1.5707724730121058 1.5376932621002197 0.0 0.0 -0.0 8.252164624949977e-22 0.0 0.0 1 False False
13183.796 4.6793646812438965 -1.4528103035739441 1.770613972340719 -1.8885423145689906 -1.570784870778219 1.537729263305664 0.0 4.5573189709102735e-05 -0.0 1.2535035152924786e-40 0.0 0.0 1 False False
13183.846 4.679290294647217 -1.452789918785431 1.7705448309527796 -1.888470312158102 -1.570801083241598 1.5377094745635986 0.0 0.0 -0.0 0.0 0.0 0.0 1 False False
13183.895999999999 4.679332256317139 -1.4528036278537293 1.7705028692828577 -1.8885585270323695 -1.5708254019366663 1.5376964807510376 0.0 0.0 -0.0 0.0 0.0 0.0 1 False False
13183.946 4.679253101348877 -1.4528230738690873 1.7705519835101526 -1.888477464715475 -1.5707805792437952 1.5376651287078857 0.0 0.0 -0.0 0.0 0.0 0.0 1 False False
13183.996 4.679301738739014 -1.4527788919261475 1.7705405394183558 -1.8885022602477015 -1.5707886854754847 1.5376975536346436 0.0 0.0 -0.0 0.0 0.0 0.0 1 False False
13184.046 4.679319858551025 -1.4527704057148476 1.7705686728106897 -1.8885704479613246 -1.5707724730121058 1.53773033618927 0.0 0.0 -0.0 0.0 0.0 0.0 1 False False
13184.096 4.679301738739014 -1.4527984869531174 1.7705720106707972 -1.8885704479613246 -1.5707886854754847 1.537746548652649 0.0 0.0 -0.0 0.0 0.0 0.0 1 False False
13184.145999999999 4.679318904876709 -1.4527941581657906 1.770564381276266 -1.8884936771788539 -1.5708211104022425 1.5376888513565063 0.0 0.0 -0.0 0.0 0.0 0.0 1 False False
13184.196 4.679323196411133 -1.4528311428478737 1.770597283040182 -1.888517519036764 -1.5708368460284632 1.537746548652649 2.6055739309167143e-15 0.0 -0.0 0.0 0.0 0.0 1 False False
13184.246 4.679301738739014 -1.4527746450952073 1.770576302205221 -1.888466020623678 -1.5708335081683558 1.5376845598220825 0.0 0.0 -0.0 0.0 0.0 0.0 1 False False
13184.296 4.679295063018799 -1.4528273877552529 1.7705429236041468 -1.888562341729635 -1.570784870778219 1.5376932621002197 0.0 0.0 -0.0 0.0 0.0 0.0 1 False False
13184.346 4.6793694496154785 -1.4527941581657906 1.770564381276266 -1.8885299168028773 -1.5707805792437952 1.5376899242401123 0.0 0.0 -0.0 0.0 0.0 0.0 1 False False
13184.395999999999 4.679332256317139 -1.452835389678814 1.7705777327166956 -1.8885261021056117 -1.5707886854754847 1.5377172231674194 0.0 0.0 -0.0 0.0 0.0 0.0 1 False False
13184.446 4.6792778968811035 -1.4527737510255356 1.7705562750445765 -1.8885022602477015 -1.5707486311541956 1.5376888513565063 0.0 0.0 -0.0 0.0 0.0 0.0 1 False False
13184.496 4.679281234741211 -1.4527823266438027 1.770564381276266 -1.8885299168028773 -1.5708168188678187 1.5377378463745117 0.0 0.0 -0.0 0.0 0.0 0.0 1 False False
13184.546 4.679348468780518 -1.4528311428478737 1.7705562750445765 -1.888578554193014 -1.5707772413836878 1.5377050638198853 0.0 0.0 -0.0 0.0 0.0 0.0 1 False False
13184.596 4.679299354553223 -1.452814669614174 1.7705476919757288 -1.888517519036764 -1.5708044211017054 1.5377476215362549 0.0 0.0 -0.0 0.0 0.0 3.103058088260724e-11 1 False False
13184.645999999999 4.679351329803467 -1.4528311428478737 1.7706063429461878 -1.8885542354979457 -1.5707886854754847 1.5377007722854614 0.0 0.0 -0.0 0.0 0.0 4.7135529193396634e-30 1 False False
13184.696 4.679268836975098 -1.4528112796000023 1.7705805937396448 -1.8885461292662562 -1.570801083241598 1.5377875566482544 0.0 0.0 -0.0 0.0 0.0 0.0 1 False False
13184.746 4.679356098175049 -1.452757680123188 1.7705476919757288 -1.888517519036764 -1.570784870778219 1.5377260446548462 0.0 0.0 -0.0 0.0 0.0 0.0 1 False False
13184.796 4.6793084144592285 -1.45282735050235 1.7705519835101526 -1.8885137043394984 -1.570801083241598 1.5376801490783691 0.0 0.0 -0.0 0.0 0.0 0.0 1 False False
13184.846 4.679344177246094 -1.4528438460877915 1.770597283040182 -1.888517519036764 -1.5707805792437952 1.5376888513565063 0.0 0.0 -0.0 0.0 0.0 0.0 1 False False
13184.895999999999 4.6793365478515625 -1.4527618822506447 1.770536247883932 -1.8885342083373011 -1.5707648436175745 1.5377094745635986 0.0 0.0 -0.0 0.0 0.0 0.0 1 True False
13184.946 4.679295063018799 -1.4528111976436158 1.770564381276266 -1.8885423145689906 -1.5708087126361292 1.5377486944198608 -5.9945993481635984e-12 0.0 1.1838221375404245e-11 0.0 0.0 0.005697978660464287 1 True False
13184.996 4.679422855377197 -1.4528120544603844 1.7705414930926722 -1.8885871372618617 -1.5707767645465296 1.5385726690292358 0.006206562742590904 0.0018884198507294059 -0.003880508942529559 0.0 0.0 0.02191784791648388 1 True False
13185.046 4.679844856262207 -1.452518605892994 1.7701523939715784 -1.8885261021056117 -1.5708735624896448 1.5405179262161255 0.01273415144532919 0.008930361829698086 -0.011468295939266682 0.0024617125745862722 0.0 0.05688582360744476 1 True False
