Andreas691667/Digital_Twin_UR/src/robot_connection_manager/robot_output/case1_1_3_miss_robot_output.csv
timestamp actual_q_0 actual_q_1 actual_q_2 actual_q_3 actual_q_4 actual_q_5 actual_qd_0 actual_qd_1 actual_qd_2 actual_qd_3 actual_qd_4 actual_qd_5 safety_status output_bit_register_65 output_bit_register_66
9802.238 3.7120654582977295 -0.825495795612671 0.8429673353778284 -1.5882650814452113 -1.5708254019366663 2.141279697418213 0.0 0.0 -0.0 -0.0 -0.0 0.0 1 False False
9802.288 3.7120907306671143 -0.8254719537547608 0.8429845015155237 -1.5882932148375453 -1.5708044211017054 2.141247272491455 0.0 0.0 -0.0 -0.0 -0.0 0.0 1 False False
9802.338 3.7120697498321533 -0.825495795612671 0.8430007139789026 -1.5882498226561488 -1.5707967917071741 2.141291618347168 0.0 0.0 -0.0 -0.0 -0.0 0.0 1 False False
9802.387999999999 3.7121026515960693 -0.8255083721927186 0.8429587523089808 -1.5882650814452113 -1.5707891623126429 2.141270875930786 0.0 0.0 -0.0 -0.0 -0.0 0.0 1 False False
9802.438 3.7120862007141113 -0.8254587215236207 0.8429673353778284 -1.5882774792113246 -1.5707929770099085 2.141295909881592 0.0 0.0 -0.0 -0.0 -0.0 0.0 1 False False
9802.488 3.7121024131774902 -0.8255171340755005 0.8430174032794397 -1.5882932148375453 -1.5707886854754847 2.141287088394165 0.0 0.0 -0.0 -0.0 -0.0 0.0 1 False False
9802.538 3.7120206356048584 -0.8254750531962891 0.8429892698871058 -1.5882731876769007 -1.5708335081683558 2.1413002014160156 0.0 0.0 -0.0 -0.0 -0.0 0.0 1 False False
9802.588 3.7120413780212402 -0.825495795612671 0.8429935614215296 -1.5882889233031214 -1.5707967917071741 2.141291618347168 0.0 0.0 -0.0 -0.0 -0.0 0.0 1 False False
9802.637999999999 3.7120535373687744 -0.8254779738238831 0.8429964224444788 -1.5883013210692347 -1.570801083241598 2.141231060028076 0.0 0.0 -0.0 -0.0 -0.0 0.0 1 False False
9802.688 3.712062358856201 -0.8254913848689576 0.8429964224444788 -1.588269372979635 -1.5707925001727503 2.1413419246673584 0.0 0.0 -0.0 -0.0 -0.0 0.0 1 False False
9802.738 3.7120819091796875 -0.8255039614490052 0.8429892698871058 -1.5882932148375453 -1.5708048979388636 2.141279697418213 0.0 0.0 -0.0 -0.0 -0.0 0.0 1 False False
9802.788 3.712083101272583 -0.8255045574954529 0.8429802099810999 -1.5882932148375453 -1.5708211104022425 2.141267776489258 0.0 0.0 -0.0 -0.0 -0.0 0.0 1 False False
9802.838 3.712111473083496 -0.8255127233317872 0.8429721037494105 -1.588313718835348 -1.5707767645465296 2.1412298679351807 0.0 0.0 -0.0 -0.0 -0.0 0.0 1 False False
9802.887999999999 3.7120907306671143 -0.8254423898509522 0.8429349104510706 -1.5882650814452113 -1.570813004170553 2.1412546634674072 0.0 0.0 -0.0 -0.0 -0.0 0.0 1 False False
9802.938 3.712066888809204 -0.8255201739123841 0.8430145422564905 -1.5883008442320765 -1.5707605520831507 2.141275405883789 0.0 0.0 -0.0 -0.0 -0.0 0.0 1 False False
9802.988 3.7120580673217773 -0.8254993122867127 0.8429301420794886 -1.5882731876769007 -1.5707891623126429 2.1412601470947266 0.0 0.0 -0.0 -0.0 -0.0 0.0 1 False False
9803.038 3.7120535373687744 -0.8254706424525757 0.8429802099810999 -1.588280817071432 -1.570801083241598 2.141312837600708 0.0 0.0 -0.0 -0.0 -0.0 0.0 1 False False
9803.088 3.7120697498321533 -0.8254630726626893 0.8429587523089808 -1.5882889233031214 -1.5707767645465296 2.1413040161132812 0.0 0.0 -0.0 -0.0 -0.0 0.0 1 False False
9803.137999999999 3.712062358856201 -0.8254706424525757 0.8429763952838343 -1.588269372979635 -1.570801083241598 2.141312837600708 0.0 0.0 -0.0 -0.0 -0.0 0.0 1 False False
9803.188 3.712050199508667 -0.8254869741252442 0.8429425398456019 -1.588292738000387 -1.5707967917071741 2.1412839889526367 0.0 0.0 -0.0 -0.0 -0.0 0.0 1 False False
9803.238 3.712066650390625 -0.8255290550044556 0.8429258505450647 -1.588245531121725 -1.5707929770099085 2.141312837600708 0.0 0.0 -0.0 -0.0 -0.0 0.0 1 False False
9803.288 3.7120654582977295 -0.8254750531962891 0.8429964224444788 -1.5882770023741664 -1.5707648436175745 2.141291618347168 0.0 0.0 -0.0 -0.0 -0.0 0.0 1 False False
9803.338 3.712066650390625 -0.825466052894928 0.8429892698871058 -1.5882889233031214 -1.570801083241598 2.141275405883789 0.0 0.0 -0.0 -0.0 -0.0 0.0 1 False False
9803.387999999999 3.7120580673217773 -0.8254993718913575 0.8430126349078577 -1.5883170566954554 -1.5707686583148401 2.1413087844848633 0.0 0.0 -0.0 -0.0 -0.0 0.0 1 False False
9803.438 3.7120208740234375 -0.8254957360080262 0.8429630438434046 -1.588273664514059 -1.5707610289203089 2.141279697418213 0.0 0.0 -0.0 -0.0 -0.0 0.0 1 False False
9803.488 3.712062358856201 -0.8254869145205994 0.8429802099810999 -1.5882774792113246 -1.5708335081683558 2.141317129135132 0.0 0.0 -0.0 -0.0 -0.0 0.0 1 False False
9803.538 3.7120413780212402 -0.8254380387118836 0.8430054823504847 -1.5883246860899867 -1.570756737385885 2.1413002014160156 0.0 0.0 -0.0 -0.0 -0.0 0.0 1 False False
9803.588 3.7120580673217773 -0.8254823845675965 0.8430007139789026 -1.5883051357665003 -1.5707967917071741 2.141345262527466 0.0 0.0 -0.0 -0.0 -0.0 0.0 1 False False
9803.637999999999 3.712111234664917 -0.8254587215236207 0.842987362538473 -1.588280817071432 -1.5707805792437952 2.141312837600708 0.0 0.0 -0.0 -0.0 -0.0 0.0 1 False False
9803.688 3.7120580673217773 -0.8255039614490052 0.8429630438434046 -1.588273664514059 -1.5708087126361292 2.1413002014160156 0.0 0.0 -0.0 -0.0 -0.0 0.0 1 False False
9803.738 3.712062358856201 -0.8254289788058777 0.842992130910055 -1.58825745205068 -1.5707767645465296 2.1413214206695557 0.0 0.0 -0.0 -0.0 -0.0 0.0 1 False False
9803.788 3.7120537757873535 -0.8254823845675965 0.8429845015155237 -1.5883413753905238 -1.5707967917071741 2.14125919342041 0.0 0.0 -0.0 -0.0 -0.0 0.0 1 False False
9803.838 3.7120730876922607 -0.8255290550044556 0.8430174032794397 -1.5882774792113246 -1.5707686583148401 2.1412429809570312 0.0 0.0 -0.0 -0.0 -0.0 0.0 1 False False
9803.887999999999 3.7120580673217773 -0.8255202335170289 0.8429587523089808 -1.5883213482298792 -1.5707967917071741 2.141287088394165 0.0 0.0 -0.0 -0.0 -0.0 0.0 1 False False
9803.938 3.712083101272583 -0.8255039614490052 0.8429754416095179 -1.588273664514059 -1.5708168188678187 2.141279697418213 0.0 0.0 -0.0 -0.0 -0.0 0.0 1 False False
9803.988 3.7120537757873535 -0.825481728916504 0.8429630438434046 -1.588273664514059 -1.570784870778219 2.141275405883789 0.0 0.0 -0.0 -0.0 -0.0 0.0 1 False False
9804.038 3.7120981216430664 -0.8254497808269043 0.842987362538473 -1.588285585443014 -1.5708087126361292 2.141247272491455 0.0 0.0 -0.0 -0.0 -0.0 0.0 1 False False
9804.088 3.71207857131958 -0.8254468005946656 0.8430336157428187 -1.5882817707457484 -1.570784870778219 2.141291618347168 0.0 0.0 -0.0 -0.0 -0.0 0.0 1 False False
9804.137999999999 3.7120416164398193 -0.8254334491542359 0.8430293242083948 -1.5882774792113246 -1.5707529226886194 2.1412429809570312 0.0 0.0 -0.0 -0.0 -0.0 0.0 1 False False
9804.188 3.712099075317383 -0.825466052894928 0.8429964224444788 -1.588297029534811 -1.5707929770099085 2.1412353515625 0.0 0.0 -0.0 -0.0 -0.0 0.0 1 False False
9804.238 3.7120862007141113 -0.8255083125880738 0.8430169264422815 -1.5882417164244593 -1.5707724730121058 2.1413333415985107 0.0 0.0 -0.0 -0.0 -0.0 0.0 1 False False
9804.288 3.712127208709717 -0.8255542081645508 0.8429845015155237 -1.5882498226561488 -1.5707772413836878 2.141317129135132 0.0 0.0 -0.0 -0.0 -0.0 0.0 1 False False
9804.338 3.7120776176452637 -0.8255127233317872 0.8429964224444788 -1.588269372979635 -1.5708087126361292 2.1413044929504395 0.0 0.0 -0.0 -0.0 -0.0 0.0 1 False False
9804.387999999999 3.7120535373687744 -0.8254380387118836 0.8430216948138636 -1.5882655582823695 -1.5708168188678187 2.1412785053253174 0.0 0.0 -0.0 -0.0 -0.0 0.0 1 False False
9804.438 3.7121198177337646 -0.8255157035640259 0.8429630438434046 -1.588308950463766 -1.5707648436175745 2.1412839889526367 0.0 0.0 -0.0 -0.0 -0.0 0.0 1 True False
9804.488 3.7120773792266846 -0.8254914444736023 0.8430054823504847 -1.588273664514059 -1.5707805792437952 2.141317129135132 0.0 0.0 -0.0 -0.0 -0.0 0.0 1 True False
9804.538 3.7120730876922607 -0.825470582847931 0.8429606596576136 -1.5882846317686976 -1.5708168188678187 2.141279697418213 0.0 0.0 -0.0 -0.0 -0.0 0.0 1 True False
9804.588 3.712122917175293 -0.8254779738238831 0.8429845015155237 -1.588320871392721 -1.5707891623126429 2.141295909881592 0.0 0.0 -0.0 -0.0 -0.0 0.0 1 True False
9804.637999999999 3.712106704711914 -0.8254823845675965 0.8429878393756312 -1.588320871392721 -1.5708091894732874 2.141295909881592 0.0 0.0 -0.0 -0.0 -0.0 0.0 1 True False
9804.688 3.7120699882507324 -0.825495795612671 0.8430007139789026 -1.588320871392721 -1.5707767645465296 2.141263484954834 0.0 0.0 -0.0 -0.0 -0.0 0.0 1 True False
9804.738 3.712094783782959 -0.8254543107799073 0.8430007139789026 -1.588313718835348 -1.5707967917071741 2.141231060028076 0.0 0.0 -0.0 -0.0 -0.0 0.0 1 True False
9804.788 3.712094783782959 -0.8254706424525757 0.8430169264422815 -1.588269372979635 -1.5707925001727503 2.1412763595581055 0.0 0.0 -0.0 -0.0 -0.0 0.0 1 True False
9804.838 3.7120776176452637 -0.8254706424525757 0.8429520765887659 -1.588320871392721 -1.5707648436175745 2.141317129135132 0.0 0.0 -0.0 -0.0 -0.0 0.0004428673710208386 1 True False
9804.887999999999 3.7121024131774902 -0.8255045574954529 0.8429716269122522 -1.588297029534811 -1.5707324186908167 2.1412925720214844 0.0 0.0 -0.0 -0.0 -0.0 0.00011470171011751518 1 True False
9804.938 3.712050199508667 -0.825495795612671 0.8429630438434046 -1.588297029534811 -1.5707891623126429 2.1412558555603027 0.0 0.0 -0.0 -0.0 -0.0 -1.620571177252117e-10 1 True False
9804.988 3.712082862854004 -0.8254823249629517 0.8429716269122522 -1.5882650814452113 -1.5707967917071741 2.1412882804870605 0.0 0.0 -0.0 -0.0 -0.0 -2.461652184859235e-29 1 True False
9805.038 3.712155818939209 -0.8254949015429993 0.8429759184466761 -1.588229318658346 -1.5707529226886194 2.141279697418213 0.0 0.0 -0.0 -0.0 -0.0 -0.0 1 True False
9805.088 3.713141441345215 -0.8258931797793885 0.8436396757708948 -1.5885769329466761 -1.5708487669574183 2.1408610343933105 0.0561385378241539 -0.0222915168851614 0.03740784153342247 -0.0135095389559865 -0.0 -0.02387254498898983 1 True False
9805.137999999999 3.717764377593994 -0.8280057472041626 0.8471339384662073 -1.589729448358053 -1.5707758108722132 2.138864278793335 0.12461306899785995 -0.06410394608974457 0.09788717329502106 -0.031710296869277954 -0.0 -0.0549803301692009 1 True False
9805.188 3.7257096767425537 -0.8322285574725647 0.8535831610309046 -1.5919538937010707 -1.5708211104022425 2.1353492736816406 0.19419245421886444 -0.10190366208553314 0.15075212717056274 -0.05359714850783348 -0.0 -0.0853293165564537 1 True False
9805.238 3.737201452255249 -0.8384106916240235 0.8624094168292444 -1.5948764286436976 -1.5708254019366663 2.13022780418396 0.26053327322006226 -0.13266237080097198 0.20862191915512085 -0.06554805487394333 0.00011196125706192106 -0.11516392230987549 1 True False
9805.288 3.752232313156128 -0.846064643268921 0.87415057817568 -1.5989042721190394 -1.5708053747760218 2.12359881401062 0.3302994966506958 -0.1680251806974411 0.25710153579711914 -0.09687381237745285 0.00013743505405727774 -0.14240649342536926 1 True False
9805.338 3.7706336975097656 -0.8554980319789429 0.8884447256671351 -1.6036731205382289 -1.570813004170553 2.1154446601867676 0.4043124318122864 -0.20681747794151306 0.31332579255104065 -0.10099625587463379 7.792665564920753e-05 -0.17865337431430817 1 True False
9805.387999999999 3.7924997806549072 -0.866762713795044 0.9055903593646448 -1.609507223168844 -1.5707805792437952 2.1058311462402344 0.470668762922287 -0.2429666817188263 0.3698294162750244 -0.12110912054777145 8.701151091372594e-05 -0.2051004320383072 1 True False
9805.438 3.8181657791137695 -0.8797880572131653 0.925241772328512 -1.616232534448141 -1.5707443396197718 2.0945348739624023 0.5470598340034485 -0.28186821937561035 0.4194377362728119 -0.139385387301445 0.00019188810256309807 -0.23497700691223145 1 True False
9805.488 3.8470067977905273 -0.8945726317218323 0.9478490988360804 -1.6238285503783167 -1.570801083241598 2.081857204437256 0.6167336702346802 -0.3124532699584961 0.4794425070285797 -0.14958205819129944 -2.705377710299217e-06 -0.2708074748516083 1 True False
9805.538 3.8793458938598633 -0.9112918537906189 0.9728568235980433 -1.6323939762511195 -1.5707724730121058 2.067566156387329 0.6839232444763184 -0.35560229420661926 0.5255129337310791 -0.18174664676189423 -0.0003925017372239381 -0.3034529983997345 1 True False
9805.588 3.9152886867523193 -0.9295135897449036 1.0008862654315394 -1.6418968639769496 -1.5707853476153772 2.051755666732788 0.7601233720779419 -0.3859831690788269 0.5857530236244202 -0.2054080218076706 -7.590666064061224e-05 -0.33027806878089905 1 True False
9805.637999999999 3.9546337127685547 -0.9500129383853455 1.03131610551943 -1.652365346948141 -1.5707967917071741 2.034317970275879 0.8248307108879089 -0.42516854405403137 0.6388199329376221 -0.20688454806804657 -4.043135617970428e-12 -0.36257439851760864 1 True False
9805.688 3.9977316856384277 -0.9718327087214966 1.0648282209979456 -1.663591047326559 -1.5708087126361292 2.015538454055786 0.8845817446708679 -0.45417675375938416 0.6915780305862427 -0.24155089259147644 -6.1415324540914546e-31 -0.398668110370636 1 True False
9805.738 4.043973445892334 -0.9956584733775635 1.1008647123919886 -1.6758457622923792 -1.5708420912372034 1.9950053691864014 0.9663758277893066 -0.4928874373435974 0.7519034743309021 -0.2662954032421112 -9.898979624267668e-05 -0.4166463017463684 1 True False
9805.788 4.093841075897217 -1.0211975139430542 1.1395157019244593 -1.689101358453268 -1.5707810560809534 1.9730156660079956 1.0293182134628296 -0.5317124724388123 0.8020429015159607 -0.27171874046325684 -4.146522473643543e-16 -0.45475852489471436 1 True False
9805.838 4.146162509918213 -1.047908441429474 1.1800454298602503 -1.702871938745016 -1.570676628743307 1.9500412940979004 1.0468028783798218 -0.5379395484924316 0.8065378665924072 -0.2884071171283722 -6.298576534081694e-35 -0.46652141213417053 1 True False
9805.887999999999 4.198503494262695 -1.0748237830451508 1.22060472169985 -1.716649671594137 -1.5707767645465296 1.9269626140594482 1.0530247688293457 -0.5402770638465881 0.8107935786247253 -0.28774914145469666 0.00010494821617612615 -0.4601009786128998 1 True False
9805.938 4.2508955001831055 -1.1016313594630738 1.2615063826190394 -1.7304960689940394 -1.5708087126361292 1.9037466049194336 1.0431383848190308 -0.5393781661987305 0.808620810508728 -0.29061242938041687 8.43858447783172e-20 -0.45380333065986633 1 True False
9805.988 4.30322265625 -1.1286557477763672 1.302060906087057 -1.7441941700377406 -1.5708087126361292 1.8807721138000488 1.046470046043396 -0.5288054347038269 0.8137099742889404 -0.28014323115348816 -8.951345080276951e-05 -0.46509748697280884 1 True False
9806.038 4.355553150177002 -1.1553636652282258 1.3427212874041956 -1.7581001720824183 -1.570784870778219 1.857679843902588 1.0528345108032227 -0.5314427018165588 0.814793050289154 -0.2923552393913269 -0.00013126290286891162 -0.4658947288990021 1 True False
9806.088 4.4079508781433105 -1.1822163325599213 1.3834570089923304 -1.772050519982809 -1.5707967917071741 1.8345706462860107 1.0453904867172241 -0.538804292678833 0.818098783493042 -0.27871742844581604 -1.0468240993011593e-13 -0.45961445569992065 1 True False
9806.137999999999 4.458591938018799 -1.208204523926117 1.4226511160479944 -1.7853738270201625 -1.5707610289203089 1.812172293663025 0.9791430234909058 -0.5056140422821045 0.7620635032653809 -0.25865259766578674 -1.5901286772397408e-32 -0.4316355288028717 1 True False
9806.188 4.505844593048096 -1.2324015659144898 1.4594000021563929 -1.7977177105345667 -1.5707648436175745 1.791437029838562 0.9103086590766907 -0.4707004427909851 0.7054640054702759 -0.23330149054527283 2.8517697501229122e-05 -0.40516990423202515 1 True False
9806.238 4.549696922302246 -1.2548668545535584 1.4934099356280726 -1.809291502038473 -1.5708335081683558 1.7721010446548462 0.8433987498283386 -0.42359933257102966 0.6550699472427368 -0.22806647419929504 -5.419852095656097e-05 -0.370944082736969 1 True False
9806.288 4.589870929718018 -1.2753509444049378 1.5246194044696253 -1.8199206791319789 -1.5708211104022425 1.7544095516204834 0.7701724171638489 -0.3921540081501007 0.6029189229011536 -0.212871253490448 7.967068671455024e-10 -0.3453264832496643 1 True False
9806.338 4.626561641693115 -1.2943653625300904 1.5530465284930628 -1.829735895196432 -1.5707767645465296 1.7382092475891113 0.7017983794212341 -0.3578125238418579 0.5416842103004456 -0.18609298765659332 0.0001397520099999383 -0.30850258469581604 1 True False
9806.387999999999 4.660048484802246 -1.3114473086646576 1.5791075865374964 -1.838466306725973 -1.5707767645465296 1.72342050075531 0.6328142881393433 -0.32268470525741577 0.4864450693130493 -0.15517736971378326 -2.0548983229673468e-05 -0.27960941195487976 1 True False
9806.438 4.689780235290527 -1.326592819099762 1.6020901838885706 -1.8463460407652796 -1.5708330313311976 1.7104063034057617 0.5653225183486938 -0.28984081745147705 0.437966912984848 -0.1400168389081955 -1.9618380520114442e-06 -0.24820241332054138 1 True False
9806.488 4.715992450714111 -1.3401509684375306 1.6223810354815882 -1.853262563745016 -1.5708211104022425 1.6988893747329712 0.4934389591217041 -0.2569499611854553 0.3809666335582733 -0.12932437658309937 1.6248792269373327e-14 -0.22341680526733398 1 True False
9806.538 4.738715648651123 -1.3517332088998337 1.6404698530780237 -1.8591305218138636 -1.5708044211017054 1.6887162923812866 0.42375046014785767 -0.2097645252943039 0.32415568828582764 -0.11051224917173386 -0.0005242684273980558 -0.1845736801624298 1 True False
9806.588 4.757970809936523 -1.3617906135371705 1.6550610701190394 -1.8644453487791957 -1.5707805792437952 1.6802237033843994 0.3504701256752014 -0.17894072830677032 0.2751177251338959 -0.08340089023113251 4.7645292511333537e-07 -0.1517048478126526 1 True False
9806.637999999999 4.774078369140625 -1.3697983485511322 1.6676724592791956 -1.8686720333495082 -1.570845905934469 1.6732879877090454 0.2786015272140503 -0.14649692177772522 0.21264633536338806 -0.08266093581914902 0.0002634740376379341 -0.1263805478811264 1 True False
9806.688 4.786289215087891 -1.3760995727828522 1.6770613829242151 -1.871768137017721 -1.570829216633932 1.6677998304367065 0.2126394659280777 -0.1066669225692749 0.16780853271484375 -0.05895539000630379 7.022019220751656e-22 -0.09458968788385391 1 True False
9806.738 4.795132637023926 -1.3806695354035874 1.6839597860919397 -1.874157568017477 -1.5708254019366663 1.6639795303344727 0.14541877806186676 -0.0740264281630516 0.10860951244831085 -0.04427434876561165 1.0666403650747643e-40 -0.06326116621494293 1 True False
9806.788 4.800459384918213 -1.383472741847374 1.6882103125201624 -1.875580450097555 -1.5707605520831507 1.661599040031433 0.07591968029737473 -0.037703726440668106 0.05682491138577461 -0.014014407061040401 0.0 -0.03459972143173218 1 True False
9806.838 4.802334308624268 -1.3844003093293686 1.6895888487445276 -1.8759857616820277 -1.5707805792437952 1.6608295440673828 0.0029574839863926172 0.00034047928056679666 0.0002738548500929028 -0.000446574849775061 0.0 0.0004578173684421927 1 True False
9806.887999999999 4.802299976348877 -1.3838167947581788 1.690709416066305 -1.8776985607542933 -1.5708335081683558 1.6607723236083984 0.00150306336581707 0.021578172221779823 0.04322004318237305 -0.06321673095226288 -2.431622480308243e-17 2.0883652140923914e-08 1 True False
9806.938 4.802302837371826 -1.3820267182639618 1.6940625349627894 -1.8829237423338832 -1.570784870778219 1.6607235670089722 0.001638865447603166 0.05119337886571884 0.08650320023298264 -0.14299175143241882 0.00010019275941886008 -0.0009595854789949954 1 True False
9806.988 4.802351951599121 -1.3788211208632966 1.699505631123678 -1.8915096722044886 -1.5708087126361292 1.6608014106750488 0.001227557542733848 0.07453162968158722 0.13360829651355743 -0.19730527698993683 6.92937828716822e-05 -0.0002746859972830862 1 True False
9807.038 4.802340030670166 -1.3743005853942414 1.7069981733905237 -1.9035450420775355 -1.5708048979388636 1.6607646942138672 0.00026490233722142875 0.0990440621972084 0.17807841300964355 -0.2844924032688141 2.887613845814485e-05 -0.0001445048546884209 1 True False
9807.088 4.802334308624268 -1.3685971957496186 1.7169268766986292 -1.9190203152098597 -1.570813004170553 1.660707712173462 0.00019941659411415458 0.12460329383611679 0.22038790583610535 -0.3492059111595154 3.0915034585632384e-05 -9.617938485462219e-05 1 True False
9807.137999999999 4.8023176193237305 -1.3615192931941529 1.7291696707354944 -1.9381934605040492 -1.5708211104022425 1.6607775688171387 9.453452366869897e-05 0.1544472873210907 0.26534226536750793 -0.4214242994785309 8.227598612837181e-22 -6.654656317550689e-05 1 True False
9807.188 4.802362442016602 -1.3533316117576142 1.7431467215167444 -1.9609748325743617 -1.5707686583148401 1.6607787609100342 0.00017998288967646658 0.17649388313293457 0.30498406291007996 -0.4945950210094452 4.2557807319099084e-05 -8.329473187370534e-17 1 True False
9807.238 4.802310466766357 -1.3435665530017395 1.7599366346942347 -1.9867240391173304 -1.5708335081683558 1.6607484817504883 0.00011559544509509578 0.20056352019309998 0.3505587577819824 -0.5576383471488953 2.6779513246164304e-18 -1.2652490555274865e-35 1 True False
9807.288 4.802371501922607 -1.3337011200240632 1.777003590260641 -2.0142132244505824 -1.570801083241598 1.6607494354248047 7.391117833321914e-05 0.1840442568063736 0.3277819752693176 -0.5288965106010437 4.0678124965069396e-37 -0.0 1 True False
9807.338 4.802310466766357 -1.3248620343259354 1.7924369017230433 -2.038236280480856 -1.5707605520831507 1.6607484817504883 6.287584255915135e-05 0.16738738119602203 0.2805878221988678 -0.4506247937679291 0.0 -2.539806054357996e-08 1 True False
9807.387999999999 4.802350997924805 -1.3172444862178345 1.8050530592547815 -2.0588561497130335 -1.570813004170553 1.6607246398925781 1.401298464324817e-45 0.1389991194009781 0.2394440770149231 -0.3768743872642517 0.0 -3.857972020045979e-27 1 True False
9807.438 4.802416801452637 -1.31090800583873 1.8159211317645472 -2.0757891140379847 -1.5707929770099085 1.66078519821167 0.0 0.10891392081975937 0.19171780347824097 -0.3114813566207886 0.0 -0.0 1 True False
9807.488 4.802350997924805 -1.3060259085944672 1.8246968428241175 -2.0892278156676234 -1.570772949849264 1.660752773284912 0.0 0.08481743186712265 0.1483847051858902 -0.2445605844259262 0.0 -0.0 1 True False
9807.538 4.802321910858154 -1.3023840647986908 1.8308294455157679 -2.099499841729635 -1.5707524458514612 1.6607980728149414 0.0 0.06264891475439072 0.10745476931333542 -0.15987391769886017 0.0 -0.0 1 True False
9807.588 4.802374839782715 -1.2999231082252045 1.8350103537188929 -2.106011529962057 -1.5708168188678187 1.6607701778411865 0.0 0.033976856619119644 0.059177059680223465 -0.09470231831073761 0.0 -0.0 1 True False
9807.637999999999 4.802383899688721 -1.2987976235202332 1.8370474020587366 -2.108939310113424 -1.5708254019366663 1.6607980728149414 0.0 0.011022149585187435 0.020334580913186073 -0.031946636736392975 0.0 -0.0 1 True False
9807.688 4.802365779876709 -1.2987409991076966 1.8371556440936487 -2.1092282734312953 -1.5707925001727503 1.6607775688171387 0.0 -0.0001155494901468046 -6.475237751146778e-05 3.062527445182872e-12 0.0 -0.0 1 True False
9807.738 4.802304267883301 -1.2987290781787415 1.8372176329242151 -2.109248777429098 -1.5708168188678187 1.660768985748291 4.5567014050895693e-10 4.296386396163143e-05 -2.9604386710965156e-34 -0.0005777677288278937 0.0 -0.0 1 True False
9807.788 4.8023552894592285 -1.2987573903850098 1.8371871153460901 -2.109312673608297 -1.5707843939410608 1.660768985748291 0.0 4.663065919885412e-05 3.885914702550508e-05 -0.00012471865920815617 0.0 -0.0 1 True False
9807.838 4.802325248718262 -1.298721120958664 1.8371871153460901 -2.1092645130553187 -1.5708254019366663 1.6607539653778076 0.0 0.00018594526045490056 -2.4268283596029505e-05 -0.0002187258069170639 0.0 -0.0 1 True False
9807.887999999999 4.802305698394775 -1.2986884278110047 1.8372200171100062 -2.109272619287008 -1.5708087126361292 1.660740852355957 0.0 0.00010167440632358193 -5.576406774086179e-30 -0.000159531002282165 0.0 -0.0 1 True False
9807.938 4.802379131317139 -1.2987300914577027 1.8372152487384241 -2.1092645130553187 -1.5708373228656214 1.6607613563537598 0.0 0.00015594065189361572 -0.0 -0.0001070464204531163 0.0 -0.0 1 True False
9807.988 4.802375793457031 -1.2986852687648316 1.8372038046466272 -2.109248777429098 -1.570857350026266 1.6607322692871094 0.0 0.0001045808894559741 -0.0 -8.586343028582633e-05 0.0 -0.0 1 True False
9808.038 4.802371501922607 -1.298701749449112 1.8372152487384241 -2.109312673608297 -1.5708254019366663 1.660752773284912 0.0 0.00010583794937701896 -0.0 -8.35213148642211e-12 0.0 -0.0 1 True False
9808.088 4.8023600578308105 -1.2986809772304078 1.8372367064105433 -2.1092363796629847 -1.5707686583148401 1.660728931427002 0.0 6.646717520197853e-05 -0.0 -1.2686904581814685e-30 0.0 -0.0 1 True False
9808.137999999999 4.802364349365234 -1.298772321348526 1.8372395674334925 -2.1092525921263636 -1.570801083241598 1.6607863903045654 0.0 4.7227239896585615e-09 -0.0 -0.0 0.0 -0.0 1 True False
9808.188 4.802350997924805 -1.298730031853058 1.8372324148761194 -2.1092969379820765 -1.5707772413836878 1.660728931427002 0.0 0.0 -0.0 -0.0 0.0 -0.0 1 True False
9808.238 4.802341938018799 -1.298802064066269 1.8370750586139124 -2.109392305413717 -1.570813004170553 1.6608209609985352 0.0 -0.001129262032918632 -0.0007782383472658694 -0.001350755337625742 5.473209776021837e-13 0.0019257041858509183 1 True False
9808.287999999999 4.802325248718262 -1.2987001699260254 1.83708364168276 -2.109471937219137 -1.5707767645465296 1.6607484817504883 0.0 0.00022663506388198584 0.00019897520542144775 -0.0001737588463583961 8.313814863810745e-32 2.151775300472308e-20 1 True False
9808.338 4.802346706390381 -1.298729107981064 1.8370955626117151 -2.109427591363424 -1.570801083241598 1.6607160568237305 -2.802596928649634e-45 0.0003463779285084456 0.00032922945683822036 0.0004863359790761024 0.0 3.268549687514601e-39 1 True True
9808.387999999999 4.8023881912231445 -1.299098179941513 1.8364728132831019 -2.1072732410826625 -1.570784870778219 1.6607775688171387 3.301708223315457e-16 -0.02058073878288269 -0.0384872741997242 0.06253062933683395 0.0 -6.371898052748293e-05 1 True True
9808.438 4.802305698394775 -1.3011762660792847 1.8328154722796839 -2.102262636224264 -1.5707805792437952 1.6607656478881836 0.0 -0.05540536344051361 -0.0902092456817627 0.1477586030960083 0.0 -6.675368702246942e-09 1 True True
9808.488 4.802305698394775 -1.30441568911586 1.8271597067462366 -2.093375345269674 -1.5708091894732874 1.660752773284912 0.0 -0.08181837946176529 -0.14055316150188446 0.21166452765464783 0.0 -7.631004700670019e-05 1 True True
9808.537999999999 4.8023295402526855 -1.3089695137790223 1.8193305174456995 -2.081052442590231 -1.5707486311541956 1.6608220338821411 0.0 -0.09875170886516571 -0.17463812232017517 0.275381475687027 0.0 -6.438989657908678e-05 1 True True
9808.588 4.802310466766357 -1.3149021428874512 1.809228245412008 -2.0654150448241175 -1.5708044211017054 1.6608057022094727 0.0 -0.12592533230781555 -0.2196100801229477 0.3684110641479492 0.0 3.834069346730917e-12 1 True True
9808.637999999999 4.802371025085449 -1.3219160598567505 1.7971604506122034 -2.0460688076415003 -1.5708211104022425 1.6607451438903809 0.0 -0.15549258887767792 -0.26202377676963806 0.4148936867713928 0.0 5.823959019482344e-31 1 True True
9808.688 4.802305698394775 -1.3302837920239945 1.782682243977682 -2.0233174763121546 -1.5707925001727503 1.6606957912445068 0.0 -0.18263335525989532 -0.3024168610572815 0.48868197202682495 0.0 0.0 1 True True
9808.738 4.802384853363037 -1.3399856996587296 1.766235653554098 -1.997080465356344 -1.5707886854754847 1.6607539653778076 0.0 -0.20282037556171417 -0.3616224229335785 0.5593059062957764 0.0 0.0 1 True True
9808.787999999999 4.8023223876953125 -1.350027785902359 1.7487910429583948 -1.969933649102682 -1.5707324186908167 1.6607656478881836 0.0 -0.18539445102214813 -0.3209002614021301 0.5232225656509399 0.0 0.0 1 True True
9808.838 4.802356243133545 -1.358599231844284 1.734037224446432 -1.9459802112975062 -1.5707524458514612 1.6607494354248047 0.0 -0.1657242327928543 -0.28051796555519104 0.4365784227848053 0.0 0.0 1 True True
9808.887999999999 4.8023176193237305 -1.3661488604596634 1.7209680716144007 -1.9255825481810511 -1.5707767645465296 1.6607494354248047 0.0 -0.13690155744552612 -0.23042511940002441 0.3737730383872986 0.0 0.0 1 True True
9808.938 4.802358150482178 -1.3722973328879853 1.7105453650103968 -1.9088098011412562 -1.5707967917071741 1.660740852355957 0.0 -0.11062845587730408 -0.19031600654125214 0.3063930869102478 0.0 0.0 1 True True
9808.988 4.802338600158691 -1.3772358012250443 1.7019885222064417 -1.8954559765257777 -1.5708168188678187 1.6607451438903809 0.0 -0.08387000113725662 -0.1526627093553543 0.2260676473379135 0.0 0.0 1 True True
9809.037999999999 4.802313327789307 -1.3807971191457291 1.6956413427936 -1.8855940304198207 -1.5708044211017054 1.6607365608215332 0.0 -0.0599784329533577 -0.10616225004196167 0.16737958788871765 0.0 0.0 1 True True
9809.088 4.802325248718262 -1.3832258147052308 1.691683594380514 -1.878991266290182 -1.570801083241598 1.6607202291488647 0.0 -0.03535899147391319 -0.05974677577614784 0.09618638455867767 0.0 0.0 1 True True
9809.137999999999 4.80233097076416 -1.3843088907054444 1.6897080580340784 -1.8763309917845667 -1.5707805792437952 1.6608058214187622 0.0 -0.00982927717268467 -0.0157932061702013 0.021641146391630173 0.0 0.0 1 True True
9809.188 4.80159330368042 -1.38435813904319 1.6896875540362757 -1.8762484989561976 -1.570824925099508 1.6607162952423096 -0.04636925086379051 7.684913071642002e-29 -0.00019029136456083506 0.0005289583350531757 5.660207003620188e-13 -0.007884720340371132 1 True True
9809.238 4.7975664138793945 -1.3842681807330628 1.6896279493915003 -1.876010080377096 -1.5707405249225062 1.6600286960601807 -0.11832702159881592 0.001256805844604969 -0.003801882965490222 0.0018650972051545978 5.344286546460353e-05 -0.012453553266823292 1 True True
9809.287999999999 4.78990364074707 -1.3842392277768631 1.689355198537008 -1.8759938679137171 -1.570772949849264 1.6591310501098633 -0.18431192636489868 0.004906713962554932 -0.005716137588024139 0.0021203982178121805 8.255546856614781e-20 -0.0239971112459898 1 True True
9809.338 4.7788405418396 -1.3838919711164017 1.6889422575580042 -1.8759170971312464 -1.5707967917071741 1.6577167510986328 -0.25665295124053955 0.007138420827686787 -0.007161375135183334 0.002191432286053896 1.254019473387043e-38 -0.03288247436285019 1 True True
9809.387999999999 4.7641682624816895 -1.383574591284134 1.6886113325702112 -1.875883241693014 -1.570784870778219 1.6558923721313477 -0.32012248039245605 0.008126070722937584 -0.009843319654464722 0.002117364201694727 -0.00020530410984065384 -0.04125945270061493 1 True True
9809.438 4.746267795562744 -1.3830585491708298 1.688026253377096 -1.875763555566305 -1.5708254019366663 1.6535142660140991 -0.3999602794647217 0.010113869793713093 -0.011017290875315666 0.001727421535179019 4.545171032077633e-05 -0.05259159952402115 1 True True
9809.488 4.724636077880859 -1.382622854118683 1.6874883810626429 -1.8756357632079066 -1.5707648436175745 1.6507527828216553 -0.4594872295856476 0.009839079342782497 -0.012604832649230957 0.0029522909317165613 1.9798537521210175e-15 -0.0592874214053154 1 True True
9809.537999999999 4.699517726898193 -1.3820293557694932 1.6867154280291956 -1.8754564724364222 -1.5708087126361292 1.6475286483764648 -0.5350434184074402 0.012288679368793964 -0.015240919776260853 0.002338794991374016 3.00740196629927e-34 -0.06973278522491455 1 True True
9809.588 4.6710710525512695 -1.3813804400018235 1.6859682242022913 -1.8753301105894984 -1.570784870778219 1.643798589706421 -0.6062979102134705 0.016293244436383247 -0.017818914726376534 0.0025769115891307592 -1.4469884166735947e-14 -0.07812674343585968 1 True True
9809.637999999999 4.639002323150635 -1.3806249660304566 1.6849749724017542 -1.8751031361021937 -1.570772949849264 1.6397422552108765 -0.6744706630706787 0.015447533689439297 -0.020235491916537285 0.0031021812465041876 0.0004765735357068479 -0.08685875684022903 1 True True
9809.688 4.603574752807617 -1.3798211079886933 1.683995548878805 -1.874932428399557 -1.5707247892962855 1.6350984573364258 -0.7433384656906128 0.018273036926984787 -0.019726118072867393 0.0041437591426074505 0.0005241516046226025 -0.09656742960214615 1 True True
9809.738 4.5646233558654785 -1.3789321345141907 1.6828535238849085 -1.8746901951231898 -1.570801083241598 1.630024790763855 -0.8175956010818481 0.018209310248494148 -0.02437845803797245 0.004366892855614424 0.0001356231514364481 -0.10510893166065216 1 True True
9809.787999999999 4.52210807800293 -1.377972201710083 1.6816147009478968 -1.8744274578490199 -1.570756737385885 1.62456476688385 -0.8835005760192871 0.02105666697025299 -0.024724740535020828 0.007016167975962162 -0.00022152175370138139 -0.11325953900814056 1 True True
9809.838 4.4759907722473145 -1.3768181663802643 1.6803706328021448 -1.874232908288473 -1.5707891623126429 1.6186500787734985 -0.9494611024856567 0.022121774032711983 -0.02626238949596882 0.007442260626703501 -8.094082915022227e-08 -0.12669280171394348 1 True True
9809.887999999999 4.426596641540527 -1.3757191759398957 1.678924862538473 -1.8739425144591273 -1.5707686583148401 1.6121872663497925 -1.023479700088501 0.022545084357261658 -0.029512546956539154 0.005914105102419853 -0.0003033009998034686 -0.13228684663772583 1 True True
9809.938 4.374467849731445 -1.3745166820338746 1.6773503462420862 -1.8736120663084925 -1.5708406607257288 1.6055076122283936 -1.0479096174240112 0.024789130315184593 -0.03137108311057091 0.004762834869325161 -3.650782673503272e-05 -0.1356295794248581 1 True True
9809.988 4.322094440460205 -1.3733127576163788 1.675885025654928 -1.8733540974059046 -1.5707886854754847 1.598741888999939 -1.0452848672866821 0.025147033855319023 -0.030464205890893936 0.005940506234765053 -7.681942984483859e-20 -0.1332458108663559 1 True True
9810.037999999999 4.269675254821777 -1.3721744430116196 1.674415413533346 -1.8731042347350062 -1.5707767645465296 1.592035174369812 -1.0482255220413208 0.023140106350183487 -0.028349027037620544 0.0063687339425086975 -1.166888696693176e-38 -0.13301043212413788 1 True True
9810.088 4.217428684234619 -1.3709630233100434 1.6730192343341272 -1.872789045373434 -1.570824925099508 1.5852322578430176 -1.0503547191619873 0.024015437811613083 -0.028618376702070236 0.006079290062189102 0.00017829641001299024 -0.13313938677310944 1 True True
9810.137999999999 4.164951324462891 -1.3697207433036347 1.6714499632464808 -1.8724552593626917 -1.5707686583148401 1.5785192251205444 -1.044108510017395 0.024436870589852333 -0.032322466373443604 0.004912424832582474 -3.616003232309595e-05 -0.1340804100036621 1 True True
9810.188 4.112654685974121 -1.368600295191147 1.669966999684469 -1.8722335300841273 -1.5707529226886194 1.5717705488204956 -1.0467371940612793 0.022933686152100563 -0.027458056807518005 0.0073563214391469955 -2.3014672478893772e-05 -0.13520923256874084 1 True True
9810.238 4.060401916503906 -1.3673081111959 1.6684215704547327 -1.8719474277892054 -1.5708168188678187 1.5649908781051636 -1.050675630569458 0.025356832891702652 -0.02864963375031948 0.005551488138735294 -1.595338021088695e-23 -0.13778634369373322 1 True True
9810.287999999999 4.007941722869873 -1.3660820585540314 1.6669352690326136 -1.87160124401235 -1.5708449522601526 1.5582324266433716 -1.0447922945022583 0.023198187351226807 -0.02863898314535618 0.004944461397826672 -2.4228450448176087e-42 -0.1340433955192566 1 True True
9810.338 3.9556217193603516 -1.364895836716034 1.6654341856585901 -1.8712707958617152 -1.5707967917071741 1.551458716392517 -1.0473402738571167 0.023193737491965294 -0.030252687633037567 0.006784470286220312 -0.0 -0.1349809616804123 1 True True
9810.387999999999 3.903198480606079 -1.3636977535537262 1.6638701597796839 -1.871023794213766 -1.5707925001727503 1.5447263717651367 -1.0502941608428955 0.025386998429894447 -0.03094770945608616 0.007195740472525358 -0.0 -0.1344912350177765 1 True True
9810.438 3.8508424758911133 -1.362579123382904 1.6623714605914515 -1.870730539361471 -1.570772949849264 1.537960171699524 -1.046233057975769 0.02430509775876999 -0.029435155913233757 0.005039033479988575 -0.0 -0.13555260002613068 1 True True
9810.488 3.7984366416931152 -1.3613425505212327 1.6609514395343226 -1.870392461816305 -1.5707886854754847 1.5312002897262573 -1.0477653741836548 0.022785533219575882 -0.02891632914543152 0.008755953051149845 -0.0 -0.13253654539585114 1 True True
9810.537999999999 3.7461376190185547 -1.3601026248982926 1.659431282673971 -1.8700939617552699 -1.5707724730121058 1.5244232416152954 -1.0516328811645508 0.02518308535218239 -0.027023624628782272 0.005343661643564701 -0.0 -0.13257119059562683 1 True True
9810.588 3.6937992572784424 -1.358914927845337 1.6580217520343226 -1.8698073826231898 -1.5707767645465296 1.5176905393600464 -1.04460608959198 0.024685818701982498 -0.032218508422374725 0.004100057762116194 -0.0 -0.13559602200984955 1 True True
9810.637999999999 3.6414802074432373 -1.3577308815768738 1.656400505696432 -1.8695131740965785 -1.5707805792437952 1.510900616645813 -1.0465589761734009 0.02301871031522751 -0.030336927622556686 0.004913776181638241 -0.0 -0.13778695464134216 1 True True
9810.688 3.589162588119507 -1.3564847123673935 1.654938046132223 -1.869239946404928 -1.5708254019366663 1.5041694641113281 -1.0542658567428589 0.025227874517440796 -0.02985316887497902 0.0073234280571341515 -0.0 -0.13470400869846344 1 True True
9810.738 3.5366575717926025 -1.355272338991501 1.6534841696368616 -1.8689247570433558 -1.5707967917071741 1.497399926185608 -1.0420840978622437 0.02427780255675316 -0.028337912634015083 0.006649897899478674 -0.0 -0.13445591926574707 1 True True
9810.787999999999 3.4842467308044434 -1.3540680718472977 1.6520498434649866 -1.8686429462828578 -1.5708044211017054 1.490647792816162 -1.0446189641952515 0.023301007226109505 -0.03077591583132744 0.008002876304090023 -0.0 -0.13692782819271088 1 True True
9810.838 3.4319474697113037 -1.3528699588826676 1.6505120436297815 -1.8683730564513148 -1.570813004170553 1.4838417768478394 -1.0505621433258057 0.02369370311498642 -0.032502349466085434 0.0041143326088786125 -0.0 -0.13342082500457764 1 True True
9810.887999999999 3.3796873092651367 -1.3516826790622254 1.6489570776568812 -1.8680468998351039 -1.5708087126361292 1.4771631956100464 -1.0267030000686646 0.02403235249221325 -0.028594670817255974 0.006626576650887728 -0.0 -0.13274841010570526 1 True True
9810.938 3.329965591430664 -1.350575940018036 1.647538963948385 -1.867784162560934 -1.570813004170553 1.4707489013671875 -0.9666403532028198 0.02119801752269268 -0.027411917224526405 0.00557603919878602 -4.757979729338221e-15 -0.12194380164146423 1 True True
9810.988 3.283625364303589 -1.3494756680778046 1.6462848822223108 -1.8675223789610804 -1.5708168188678187 1.4648101329803467 -0.8921336531639099 0.020432734861969948 -0.02428257279098034 0.005795840639621019 0.0005833761533722281 -0.11439083516597748 1 True True
9811.037999999999 3.240750789642334 -1.3484934133342286 1.6451190153705042 -1.8672310314574183 -1.5707882086383265 1.4592385292053223 -0.821627676486969 0.01856464147567749 -0.02454170398414135 0.005282009020447731 -9.428038174519315e-05 -0.10510257631540298 1 True True
9811.088 3.2012898921966553 -1.3475879591754456 1.64380389848818 -1.8670484028258265 -1.5708168188678187 1.4541821479797363 -0.7506322860717773 0.016754161566495895 -0.020892512053251266 0.0038152076303958893 2.0860423111113136e-10 -0.09599074721336365 1 True True
9811.137999999999 3.1655080318450928 -1.3468261522105713 1.6427934805499476 -1.8667942486205042 -1.570824925099508 1.4495673179626465 -0.680970311164856 0.014640930108726025 -0.02020901069045067 0.0033620030153542757 0.0004358233418315649 -0.0892612636089325 1 True True
9811.188 3.1331980228424072 -1.3459898990443726 1.6419337431537073 -1.8666240177550257 -1.5707805792437952 1.4453908205032349 -0.6142663359642029 0.014647840522229671 -0.016812555491924286 0.003350713988766074 -4.592491317789715e-11 -0.07877498120069504 1 True True
9811.238 3.1043307781219482 -1.345415250664093 1.6410444418536585 -1.8664804897704066 -1.5707324186908167 1.4416106939315796 -0.5420815348625183 0.011703786440193653 -0.015987616032361984 0.0034103209618479013 0.0002755442401394248 -0.07071755826473236 1 True True
9811.287999999999 3.0789713859558105 -1.344811276798584 1.6404073874102991 -1.8662806950011195 -1.5707891623126429 1.438286304473877 -0.47397539019584656 0.01111255306750536 -0.01387803629040718 0.0033294735476374626 0.0006427993648685515 -0.059355076402425766 1 True True
9811.338 3.057088613510132 -1.3442702752402802 1.6397574583636683 -1.8662096462645472 -1.5707686583148401 1.4355272054672241 -0.40194812417030334 0.00733710965141654 -0.010028988122940063 0.004357349593192339 0.0014810635475441813 -0.05281601846218109 1 True True
9811.387999999999 3.038515329360962 -1.343890519147255 1.6392119566546839 -1.8661819897093714 -1.5708449522601526 1.4331282377243042 -0.3359103202819824 0.007437281776219606 -0.009070669300854206 0.0024728369899094105 -0.000392544869100675 -0.04327160120010376 1 True True
9811.438 3.0236730575561523 -1.3436083954623719 1.63884145418276 -1.8660627804198207 -1.5707967917071741 1.431252121925354 -0.26715487241744995 0.007394850719720125 -0.00703659700229764 0.0007593297050334513 4.2897110688500106e-05 -0.03490838035941124 1 True True
9811.488 3.01216459274292 -1.3433246475509186 1.6385229269610804 -1.8659831486144007 -1.5708087126361292 1.4297266006469727 -0.1900174617767334 0.00406257389113307 -0.006940822117030621 0.0011612672824412584 3.9089645724743605e-05 -0.02633342333137989 1 True True
9811.537999999999 3.0043511390686035 -1.3431527775577088 1.6382764021502894 -1.8659445248045863 -1.5707805792437952 1.4286600351333618 -0.12673436105251312 0.0030056119430810213 -0.004446550738066435 0.0007696399698033929 4.5692142605834533e-23 -0.014998960308730602 1 True True
9811.588 2.9999475479125977 -1.3430107545903702 1.6381567160235804 -1.865892072717184 -1.570813004170553 1.4281606674194336 -0.055941734462976456 0.0011856863275170326 -0.0016518060583621264 0.0005679159075953066 6.940631293800819e-42 -0.00606564711779356 1 True True
9811.637999999999 2.998849630355835 -1.3429311674884339 1.6381672064410608 -1.865932127038473 -1.5707891623126429 1.4280883073806763 -0.001403391477651894 0.011886609718203545 0.004885522648692131 -0.008253535255789757 0.0 -0.00036332683521322906 1 True True
9811.688 2.998891592025757 -1.3417981576970597 1.6395342985736292 -1.8685127697386683 -1.5707529226886194 1.428004503250122 -0.00046459719305858016 0.02792864665389061 0.05238313972949982 -0.08898966014385223 -0.00012479872384574264 -0.0016442289343103766 1 True True
9811.738 2.998849630355835 -1.3397627782872696 1.6432488600360315 -1.8744689426817835 -1.5707886854754847 1.4279975891113281 -0.0005661240429617465 0.05403110384941101 0.10657023638486862 -0.1534625142812729 -7.71819322835654e-05 -0.00023701034660916775 1 True True
9811.787999999999 2.99882435798645 -1.336396501665451 1.6496403853045862 -1.884118219415182 -1.5707524458514612 1.4280184507369995 -0.0005453869816847146 0.07912594079971313 0.1451241672039032 -0.23151834309101105 -6.280959496507421e-05 -4.608885865309276e-05 1 True True
9811.838 2.998825788497925 -1.3317632389119645 1.6580174604998987 -1.897118707696432 -1.5707925001727503 1.4280346632003784 -0.00029576598899438977 0.10867900401353836 0.19436751306056976 -0.3010162115097046 -6.365936860674992e-05 -2.8099657356506214e-05 1 True True
9811.887999999999 2.9987881183624268 -1.3258059334805985 1.6687710920916956 -1.913544317285055 -1.5707405249225062 1.4279803037643433 -0.00014239839219953865 0.13146330416202545 0.23099155724048615 -0.36320987343788147 -1.2536996225567746e-19 -1.0105728506459855e-05 1 True True
9811.938 2.9987897872924805 -1.3185238105109711 1.6813419500934046 -1.933603426019186 -1.57074481645693 1.4279402494430542 -0.0002032356132986024 0.15704821050167084 0.2801959812641144 -0.4336249828338623 -6.971557741053402e-05 -1.3212580814448793e-23 1 True True
9811.988 2.9987361431121826 -1.3100657922080536 1.6964805761920374 -1.957022329370016 -1.570829216633932 1.4279524087905884 -0.00013961504737380892 0.17861980199813843 0.3198661506175995 -0.49720048904418945 -6.029949145158753e-05 -2.006659400913138e-42 1 True True
9812.037999999999 2.9987449645996094 -1.3003544372371216 1.713452164326803 -1.9839402637877406 -1.5707886854754847 1.4279273748397827 -8.295772568089887e-05 0.19261182844638824 0.34714046120643616 -0.5567541718482971 -3.3328117379026637e-23 -0.0 1 True True
9812.088 2.998783826828003 -1.2910083097270508 1.7303078810321253 -2.0100351772704066 -1.5708006064044397 1.4279481172561646 -5.678649904439226e-05 0.17651382088661194 0.3064981698989868 -0.4959375262260437 -5.062891351605564e-42 -0.0 1 True True
9812.137999999999 2.9987897872924805 -1.2827913624099274 1.7445009390460413 -2.0326277218260707 -1.5708373228656214 1.4279890060424805 -3.555726413179444e-32 0.14971278607845306 0.2647554874420166 -0.4141923785209656 -4.983434488908898e-15 -0.0 1 True True
9812.188 2.9987852573394775 -1.2758750182441254 1.756730858479635 -2.0516849956908167 -1.5708048979388636 1.4279890060424805 0.0 0.12214753776788712 0.22492407262325287 -0.3568236827850342 -7.569848878912036e-34 4.970345712291451e-15 1 True True
9812.238 2.9987971782684326 -1.2703397136977692 1.7666962782489222 -2.067254682580465 -1.5707805792437952 1.4279803037643433 0.0 0.10206802934408188 0.17329467833042145 -0.2695578634738922 -0.0 7.549965116461388e-34 1 True True
9812.287999999999 2.998771905899048 -1.2659520667842408 1.7744291464435022 -2.0793172321715296 -1.570801083241598 1.428005576133728 0.0 0.07628072798252106 0.13565169274806976 -0.20279604196548462 -0.0 0.0 1 True True
9812.338 2.9987986087799072 -1.2629108291915436 1.7798431555377405 -2.0879465542235316 -1.5708654562579554 1.4279359579086304 0.0 0.050027720630168915 0.09003758430480957 -0.13406994938850403 -0.0 0.0 1 True True
9812.387999999999 2.9987852573394775 -1.2610397201827546 1.7832277456866663 -2.093156953851217 -1.570892635975973 1.4279968738555908 0.0 0.026251688599586487 0.04527721181511879 -0.07518990337848663 -0.0 0.0 1 True True
9812.438 2.9987807273864746 -1.260745422249176 1.783755127583639 -2.094794889489645 -1.570853058491842 1.4279154539108276 0.0 4.8011144826887175e-05 2.047340103672468e-06 0.0011293635470792651 -5.2994484576629475e-05 -8.017010586174363e-20 1 True True
9812.488 2.9987688064575195 -1.260657177572586 1.783811394368307 -2.094863077203268 -1.5708325544940394 1.4279931783676147 0.0 0.005209408234804869 0.00579565716907382 0.00011308830289635807 -2.1429266780614853e-05 -1.217785678605457e-38 1 True True
9812.537999999999 2.9987659454345703 -1.2599999767592927 1.784717861806051 -2.094703813592428 -1.5707362333880823 1.4279968738555908 0.0 0.01478881761431694 0.0236070416867733 0.019024012610316277 0.0010080095380544662 -0.0 1 True True
9812.588 2.9987404346466064 -1.2601052683642884 1.7846625486956995 -2.0945879421629847 -1.5707805792437952 1.4279413223266602 0.0 -0.007445106282830238 -0.01502646692097187 -0.01598803885281086 1.9392100512050092e-05 -0.0014862032840028405 1 True False
9812.637999999999 2.9988017082214355 -1.2602222722819825 1.7846010367022913 -2.094617029229635 -1.570732895527975 1.4279731512069702 0.0 -0.007631209678947926 -0.008893891237676144 2.1980508080332584e-08 -0.00024694085004739463 0.0005206908099353313 1 True False
9812.688 2.9987642765045166 -1.2603385609439393 1.784466568623678 -2.094628473321432 -1.5707934538470667 1.4279931783676147 0.0 -0.0026494793128222227 -0.0039601693861186504 -0.0003497818543110043 -5.9606933064060286e-05 7.648155887635336e-19 1 True False
9812.738 2.9987568855285645 -1.2604025167277833 1.784346882496969 -2.0947395763792933 -1.5707686583148401 1.4279816150665283 0.0 1.0407504576261551e-17 -0.0009197049657814205 -0.0006156648742035031 -4.891087155556306e-05 -4.479595573305156e-19 1 True False
9812.787999999999 2.99880313873291 -1.2603332561305542 1.7843387762652796 -2.094731946984762 -1.5707934538470667 1.4280011653900146 0.0 0.0 -0.00012832118954975158 -0.0001478364720242098 -3.366429154993966e-05 -6.804514205650778e-38 1 True False
9812.838 2.9987523555755615 -1.2611625653556366 1.7831433455096644 -2.0931230984129847 -1.570772949849264 1.4279890060424805 0.0 -0.024225587025284767 -0.043960731476545334 0.07131572812795639 -2.9212909868903125e-11 -0.0 1 True False
9812.887999999999 2.9987761974334717 -1.2628564101508637 1.77993089357485 -2.0877396068968714 -1.5708048979388636 1.4280140399932861 -3.735137976690339e-09 -0.05152634531259537 -0.0941755622625351 0.14374811947345734 -4.437446411529256e-30 -0.0 1 True False
9812.938 2.9988017082214355 -1.2659126681140442 1.7743456999408167 -2.079002996484274 -1.5707719961749476 1.4279439449310303 0.0 -0.07448983192443848 -0.1320190578699112 0.2135755717754364 -9.443211456527933e-05 -0.0 1 True False
9812.988 2.998788356781006 -1.270441011791565 1.766494099293844 -2.0669871769347132 -1.5707925001727503 1.4279931783676147 0.0 -0.10087458789348602 -0.18071916699409485 0.2888634204864502 -7.665625889785588e-05 -0.0 1 True False
9813.037999999999 2.9987282752990723 -1.276089535360672 1.7564447561847132 -2.051150461236471 -1.5708168188678187 1.427992582321167 0.0 -0.12510672211647034 -0.2225552797317505 0.3484500050544739 -1.1160028002628606e-17 -0.0 1 True False
9813.088 2.9988017082214355 -1.2829621595195313 1.744274918233053 -2.031968732873434 -1.5707648436175745 1.428021788597107 0.0 -0.1511606127023697 -0.26952818036079407 0.4204014241695404 -4.1304706877021147e-10 -0.0 1 True False
9813.137999999999 2.9987688064575195 -1.291243241434433 1.7296713034259241 -2.0092884502806605 -1.5708168188678187 1.4279931783676147 0.0 -0.17687931656837463 -0.31219789385795593 0.4873982071876526 -6.27419526706198e-29 -0.0 1 True False
9813.188 2.9987480640411377 -1.3005998891643067 1.7130373159991663 -1.983147760430807 -1.5707767645465296 1.4280259609222412 0.0 -0.20242689549922943 -0.3515284061431885 0.5582407116889954 -0.0 -0.0 1 True False
9813.238 2.9987926483154297 -1.310321794157364 1.6959660688983362 -1.9563309154906214 -1.5707486311541956 1.4280140399932861 0.0 -0.17841514945030212 -0.32253968715667725 0.502765417098999 -0.0 -0.0 1 True False
9813.287999999999 2.9988017082214355 -1.318748639231064 1.680877987538473 -1.9329916439452113 -1.5707805792437952 1.4279974699020386 9.325133678576003e-31 -0.1561090648174286 -0.2768767476081848 0.4362305998802185 -0.0 -0.0 1 True False
9813.338 2.9987897872924805 -1.3258709919503708 1.6683576742755335 -1.9130259952940882 -1.5707967917071741 1.4280011653900146 0.0 -0.13221724331378937 -0.234080508351326 0.37906578183174133 -0.0 -0.0 1 True False
9813.387999999999 2.9988303184509277 -1.3319136959365387 1.6577118078814905 -1.8967019520201625 -1.570756737385885 1.4279968738555908 0.0 -0.10632330179214478 -0.18631955981254578 0.28270775079727173 -0.0 -0.0 1 True False
9813.438 2.998750925064087 -1.3365457963994523 1.649682346974508 -1.8837982616820277 -1.5708172957049769 1.4280140399932861 0.0 -0.08370283246040344 -0.1451500505208969 0.22639043629169464 -0.0 -0.0 1 True False
9813.488 2.9988465309143066 -1.339950905447342 1.643566910420553 -1.874402185479635 -1.570768181477682 1.4280335903167725 0.0 -0.05398049205541611 -0.09923948347568512 0.15679776668548584 -0.0 -0.0 1 True False
9813.537999999999 2.9987733364105225 -1.3420818460038682 1.6397212187396448 -1.868479391137594 -1.5708168188678187 1.4280139207839966 0.0 -0.032836638391017914 -0.05577801167964935 0.08458777517080307 -0.0 -0.0 1 True False
9813.588 2.9987435340881348 -1.3428800863078614 1.6382601896869105 -1.8658763370909632 -1.5708444754229944 1.428021788597107 0.0 -0.002246825024485588 -0.011148672550916672 0.01290728896856308 -0.0 -0.0 1 True False
9813.637999999999 2.9988017082214355 -1.342844085102417 1.6382091681109827 -1.865847726861471 -1.5707410017596644 1.4279674291610718 0.0 2.652959274485056e-08 -0.00041589117608964443 -0.00020004155521746725 -0.0 -0.0 1 False False
9813.688 2.9987778663635254 -1.3428877008012314 1.6380999724017542 -1.865903993646139 -1.5707367102252405 1.427992582321167 0.0 -0.00032592425122857094 -0.001489463378675282 -8.37065017549321e-05 -0.0 -0.0 1 False False
9813.738 2.998804807662964 -1.3429039281657715 1.638064209614889 -1.8658844433226527 -1.570824925099508 1.4280173778533936 0.0 -0.0007149922894313931 -0.0004123392573092133 -5.293350841384381e-05 -0.0 -0.0 1 False False
9813.787999999999 2.998776435852051 -1.3429312270930787 1.63804799715151 -1.865847726861471 -1.5707691351519983 1.4280498027801514 0.0 -0.00010022080095950514 -0.0001775015116436407 -3.3944439792321646e-07 -0.0 -0.0 1 False False
9813.838 2.9988181591033936 -1.3429236871055146 1.6380866209613245 -1.86586393932485 -1.5707810560809534 1.428005576133728 0.0 -0.00021535763517022133 -0.00011366985563654453 -5.156167131698759e-26 -0.0 -0.0 1 False False
9813.887999999999 2.9988272190093994 -1.3429759305766602 1.638057057057516 -1.8658801517882289 -1.5707810560809534 1.427964448928833 0.0 -8.093145879684016e-05 -7.833488780306652e-05 -8.407790785948902e-45 -0.0 -0.0 1 False False
9813.938 2.9988181591033936 -1.3429312419942399 1.6381014029132288 -1.865903993646139 -1.5707410017596644 1.428005576133728 0.0 -4.626339432434179e-05 -1.1642391679018543e-22 -0.0 -0.0 -0.0 1 False False
9813.988 2.9987642765045166 -1.3429442209056397 1.6380165258990687 -1.8658958874144496 -1.5707810560809534 1.4280380010604858 0.0 -3.238921271986328e-05 -0.0 -0.0 -0.0 -0.0 1 False False
9814.037999999999 2.998804807662964 -1.3429268908551713 1.6381314436541956 -1.8658720455565394 -1.5708006064044397 1.4280744791030884 0.0 -8.112537199515663e-41 -0.0 -0.0 -0.0 -0.0 1 False False
9814.088 2.9987971782684326 -1.3429193955710907 1.6380522886859339 -1.8658925495543421 -1.570772949849264 1.4279273748397827 0.0 0.0 -0.0 -0.0 -0.0 -0.0 1 False False
9814.137999999999 2.9987943172454834 -1.3429312270930787 1.6380823294269007 -1.8659082851805628 -1.570772949849264 1.4279968738555908 0.0 0.0 -4.0170466372767624e-14 -0.0 -0.0 -0.0 1 False False
9814.188 2.998805046081543 -1.3429735165885468 1.6380894819842737 -1.8659197292723597 -1.570772949849264 1.4279569387435913 0.0 0.0 -9.388699710976274e-44 -0.0 -0.0 -0.0 1 False False
9814.238 2.9987778663635254 -1.3429640543511887 1.6380236784564417 -1.8658763370909632 -1.5707886854754847 1.4279803037643433 0.0 0.0 -0.0 -0.0 -0.0 -0.0 1 False False
9814.287999999999 2.9988181591033936 -1.343005196457245 1.6380942503558558 -1.8658958874144496 -1.5707691351519983 1.4280292987823486 0.0 3.29666953458041e-11 -0.0 -0.0 -0.0 -0.0 1 False False
9814.338 2.9988017082214355 -1.3429802519134064 1.638064209614889 -1.8659240208067835 -1.57074481645693 1.4280011653900146 0.0 0.0 -0.0 -0.0 -0.0 -0.0 1 False False
9814.387999999999 2.9987926483154297 -1.3429399293712159 1.6380236784564417 -1.8658958874144496 -1.5707529226886194 1.4280140399932861 0.0 0.0 -0.0 -0.0 -0.0 -0.0 1 False False
9814.438 2.9987525939941406 -1.3429640096477051 1.638036076222555 -1.8658720455565394 -1.5707886854754847 1.4279154539108276 0.0 0.0 -0.0 -0.0 -0.0 -0.0 1 False False
9814.488 2.9988136291503906 -1.3429802519134064 1.6380942503558558 -1.8658887348570765 -1.570784870778219 1.4280061721801758 0.0 0.0 -0.0 -0.0 -0.0 -0.0 1 True False
9814.537999999999 2.9987645149230957 -1.3429474544576188 1.6380985418902796 -1.865920206109518 -1.5708125273333948 1.4280173778533936 0.0 0.0 -0.0 -0.0 -0.0 -0.0 1 True False
9814.588 2.9988017082214355 -1.342956156735756 1.637998406087057 -1.865903993646139 -1.5708125273333948 1.4279439449310303 0.0 0.0 -0.0 -0.0 -0.0 -3.181335424188594e-21 1 True False
9814.637999999999 2.998788356781006 -1.343045399790146 1.6380732695208948 -1.865915437737936 -1.570784870778219 1.427992582321167 2.8162637590867234e-06 0.0 -0.0 -0.0 -0.0 -4.832447819147348e-40 1 True False
9814.688 2.9987568855285645 -1.3429149997285386 1.6380775610553187 -1.8659001789488734 -1.5708006064044397 1.427984595298767 0.0 0.0 -0.0 -0.0 -0.0 -0.0 1 True False
9814.738 2.9987733364105225 -1.3429269355586548 1.638068977986471 -1.8659445248045863 -1.57084829012026 1.4280259609222412 0.0 2.6493201220741325e-18 -0.0 -0.0 -0.0 -0.0 1 True False
9814.787999999999 2.9988255500793457 -1.3429726970246811 1.6381061712848108 -1.86588778118276 -1.5708087126361292 1.428058385848999 0.0 -4.391809517040409e-41 -0.0 -0.0 -0.0 -0.0 1 True False
9814.838 2.9988059997558594 -1.3429964196733017 1.6380866209613245 -1.8659082851805628 -1.570829216633932 1.4280140399932861 0.0 0.0 -0.0 -0.0 -0.0 -1.005448939771359e-21 1 True False
9814.887999999999 2.9987645149230957 -1.3429769736579438 1.63808519044985 -1.8659082851805628 -1.5708044211017054 1.4279974699020386 0.0 0.0 -0.0 -0.0 -0.0 -1.5272751962676181e-40 1 True False
9814.938 2.998809337615967 -1.342991055255272 1.638057057057516 -1.865948339501852 -1.5708487669574183 1.4279860258102417 0.0 0.0 -0.0 -0.0 -6.76281530775924e-11 0.00023224340111482888 1 True False
9814.988 2.9988138675689697 -1.3429312717965622 1.638052765523092 -1.8658801517882289 -1.5707925001727503 1.428021788597107 0.0 0.0 -0.0 -0.0 -1.0272732024378383e-29 0.0018039924325421453 1 True False
9815.037999999999 2.998792886734009 -1.3429802072099228 1.6381357351886194 -1.8658844433226527 -1.5707886854754847 1.4279860258102417 0.0 0.0 7.486365305453546e-09 -0.0 3.389147423149552e-06 -0.0004974748007953167 1 True False
9815.088 2.998788356781006 -1.3429150742343445 1.6380537191974085 -1.865892072717184 -1.570784870778219 1.4279860258102417 0.0 0.0 1.761620364040054e-38 -1.5239883921107133e-23 -4.986474557919229e-13 -3.533700242142057e-12 1 True False
9815.137999999999 2.9989585876464844 -1.342980222111084 1.6380775610553187 -1.8659001789488734 -1.5708006064044397 1.428046464920044 0.0258017648011446 0.0 0.0 -2.3149450630645978e-42 -7.574465945215577e-32 -5.367697940176778e-31 1 True False
9815.188 3.0014281272888184 -1.3431440156749268 1.6382244269000452 -1.865944047967428 -1.5708368460284632 1.4281809329986572 0.08884899318218231 -0.007890117354691029 0.007416553795337677 -0.0 0.00017880398081615567 0.005906459875404835 1 True False
9815.238 3.007833957672119 -1.3435636174729844 1.6387065092669886 -1.8659240208067835 -1.570801083241598 1.4285621643066406 0.1584930270910263 -0.012252243235707283 0.010848373174667358 -0.0017230514204129577 0.00010249840852338821 0.011023529805243015 1 True False
9815.287999999999 3.017526388168335 -1.3441349875978013 1.6393983999835413 -1.8661228619017542 -1.5707405249225062 1.42923903465271 0.22801655530929565 -0.014906706288456917 0.01970607414841652 -0.0018705582479014993 5.9908699768129736e-05 0.015429527498781681 1 True False
9815.338 3.030582904815674 -1.345068798666336 1.6404531637774866 -1.866321702996725 -1.5707886854754847 1.4300754070281982 0.29601022601127625 -0.01854676939547062 0.025502260774374008 -0.0034639467485249043 3.43499232258182e-05 0.020229659974575043 1 True False
9815.387999999999 3.047201633453369 -1.3461483430913468 1.641804043446676 -1.8665477238097132 -1.5707405249225062 1.4311444759368896 0.3630163073539734 -0.023630784824490547 0.029116038233041763 -0.006097425241023302 -9.994149877456948e-05 0.025368472561240196 1 True False
9815.438 3.067359447479248 -1.3475037825158616 1.6433804670916956 -1.866833826104635 -1.5707891623126429 1.432454228401184 0.43658846616744995 -0.02886832505464554 0.03586269170045853 -0.007214841432869434 -2.5018276838227604e-14 0.0297702606767416 1 True False
9815.488 3.091181993484497 -1.3489909929088135 1.6454060713397425 -1.867136617700094 -1.5707486311541956 1.4339690208435059 0.5053278207778931 -0.031636472791433334 0.040891941636800766 -0.006315191742032766 -3.8002795640023744e-33 0.03350740671157837 1 True False
9815.537999999999 3.1182398796081543 -1.3507452023080369 1.6474741140948694 -1.86755432705068 -1.5707967917071741 1.4357801675796509 0.5795101523399353 -0.03897993639111519 0.04756560176610947 -0.005853827111423016 -0.0 0.03781747445464134 1 True False
9815.588 3.1487834453582764 -1.352728472357132 1.6498730818377894 -1.8679710827269496 -1.5708044211017054 1.4378259181976318 0.6485241651535034 -0.04247407242655754 0.05043470859527588 -0.005551604554057121 9.95168032182081e-14 0.04144931212067604 1 True False
9815.637999999999 3.1828670501708984 -1.3548741799644013 1.6525538603412073 -1.8684083424010218 -1.5708211104022425 1.4399768114089966 0.7130575776100159 -0.04703356325626373 0.05331911891698837 -0.009075448848307133 -0.00011962518328800797 0.0440540611743927 1 True False
9815.688 3.2205419540405273 -1.3574724060348053 1.6553972403155726 -1.8689376316466273 -1.5707648436175745 1.4424525499343872 0.7830418348312378 -0.05274968221783638 0.06571832299232483 -0.008545669727027416 0.00035523634869605303 0.05242417752742767 1 True False
9815.738 3.2615392208099365 -1.3600271356156846 1.6588380972491663 -1.8694263897337855 -1.5707925001727503 1.4451416730880737 0.857155978679657 -0.05779556185007095 0.06807631999254227 -0.010296111926436424 0.0001014858644339256 0.054410189390182495 1 True False
9815.787999999999 3.3060853481292725 -1.3629781317761918 1.6623299757586878 -1.869979044000143 -1.5707643667804163 1.448083519935608 0.9208316802978516 -0.058208610862493515 0.0732368677854538 -0.014067196287214756 4.480162062777784e-20 0.05801593139767647 1 True False
9815.838 3.3541362285614014 -1.366235615020134 1.6662266890155237 -1.8706666431822718 -1.5707648436175745 1.451198935508728 1.00032377243042 -0.06513004004955292 0.08030132204294205 -0.014306656084954739 6.805379367322652e-39 0.06496676057577133 1 True False
9815.887999999999 3.4056320190429688 -1.3695297700217743 1.6701372305499476 -1.8713661632933558 -1.5707443396197718 1.4545481204986572 1.040858268737793 -0.06879609078168869 0.07902414351701736 -0.012839855626225471 0.0 0.07104845345020294 1 True False
9815.938 3.4579973220825195 -1.3729571414044877 1.6743019262896937 -1.872014661828512 -1.5707486311541956 1.4580062627792358 1.0467143058776855 -0.06685928255319595 0.0805632546544075 -0.012432406656444073 1.0034529122611522e-14 0.06738576292991638 1 True False
9815.988 3.5103156566619873 -1.3764489752105256 1.67833120027651 -1.8727733097472132 -1.5707686583148401 1.4614351987838745 1.0529934167861938 -0.06807038187980652 0.08473679423332214 -0.011558792553842068 -0.00028028892120346427 0.06733185052871704 1 True False
9816.037999999999 3.562716007232666 -1.379826844935753 1.6824682394610804 -1.8735014400877894 -1.5707967917071741 1.4648044109344482 1.0418661832809448 -0.06792241334915161 0.07852461189031601 -0.016241222620010376 -9.95167151267816e-16 0.0690377950668335 1 True False
9816.088 3.615043878555298 -1.3831989777139206 1.6866453329669397 -1.8742090664305628 -1.5707405249225062 1.4682437181472778 1.046461820602417 -0.06914927810430527 0.08714870363473892 -0.018029270693659782 -9.323142876382917e-05 0.06857102364301682 1 True False
9816.137999999999 3.6673879623413086 -1.386683316235878 1.6908162275897425 -1.8749562702574671 -1.570784870778219 1.4716325998306274 1.052587628364563 -0.06993337720632553 0.08340516686439514 -0.012839965522289276 -6.670967559330165e-05 0.06930306553840637 1 True False
9816.188 3.7197821140289307 -1.3900961589864274 1.6950181166278284 -1.875620504418844 -1.5707605520831507 1.4750515222549438 1.0446959733963013 -0.06900931894779205 0.07912493497133255 -0.01238320767879486 -5.719573891838081e-05 0.06852119415998459 1 True False
9816.238 3.7721619606018066 -1.3935688000968476 1.699118439351217 -1.8763157329955042 -1.5708168188678187 1.4784801006317139 1.0445668697357178 -0.06730272620916367 0.08308544009923935 -0.012431887909770012 -3.292311157565564e-05 0.06911378353834152 1 True False
9816.287999999999 3.824449300765991 -1.3969770234874268 1.7030957380877894 -1.876986642877096 -1.5707805792437952 1.4818874597549438 1.0508296489715576 -0.06926491856575012 0.07999391108751297 -0.014265483245253563 3.5931268939748406e-05 0.06850861012935638 1 True False
9816.338 3.8768539428710938 -1.400379092698433 1.7072790304767054 -1.8776852093138636 -1.570784870778219 1.4852793216705322 1.0448194742202759 -0.06883222609758377 0.08553200960159302 -0.012883665971457958 4.587086659930656e-19 0.06922976672649384 1 True False
9816.387999999999 3.929304599761963 -1.4037843209556122 1.711374584828512 -1.8784319363036097 -1.5707486311541956 1.4888266324996948 1.0467145442962646 -0.06645150482654572 0.08321850746870041 -0.0161146130412817 6.967794063233291e-38 0.0680294930934906 1 True False
9816.438 3.9814741611480713 -1.4071790438941498 1.715508762990133 -1.8790747127928675 -1.5707772413836878 1.4921693801879883 1.0525126457214355 -0.06594749540090561 0.07916508615016937 -0.013636204414069653 0.0005770307616330683 0.06975100189447403 1 True False
9816.488 4.033858776092529 -1.4105994713357468 1.7195923964129847 -1.8798409901061 -1.5708406607257288 1.4956018924713135 1.0449224710464478 -0.06749135255813599 0.08913759887218475 -0.013586495071649551 1.7300606588638457e-17 0.06871330738067627 1 True False
9816.537999999999 4.086190700531006 -1.414008767609932 1.7237947622882288 -1.8805719814696253 -1.5707967917071741 1.4990490674972534 1.0449215173721313 -0.06806634366512299 0.08138709515333176 -0.01629328727722168 6.812315405113623e-05 0.06459984183311462 1 True False
9816.588 4.138608455657959 -1.4174861472896119 1.728098217641012 -1.8812457523741664 -1.5708335081683558 1.5023882389068604 1.0490243434906006 -0.06641656160354614 0.08302641659975052 -0.01419857982546091 2.7845540398627847e-22 0.06739477813243866 1 True False
9816.637999999999 4.190990447998047 -1.42092581213031 1.7320674101458948 -1.8819519482054652 -1.5707486311541956 1.5058574676513672 1.0395326614379883 -0.06971567124128342 0.08192654699087143 -0.012506690807640553 0.00010922517685685307 0.06972554326057434 1 True False
9816.688 4.243424892425537 -1.424300105576851 1.7362430731402796 -1.8826710186400355 -1.5708373228656214 1.5092666149139404 1.0459022521972656 -0.0689781978726387 0.0784323588013649 -0.016136828809976578 3.0595948138315704e-14 0.06921011954545975 1 True False
9816.738 4.295721530914307 -1.427730382685997 1.7403066794024866 -1.883345743218893 -1.5707972685443323 1.512632966041565 1.0314264297485352 -0.06823527812957764 0.08446159958839417 -0.01213793084025383 4.589082163874991e-05 0.066829614341259 1 True False
9816.787999999999 4.345627784729004 -1.4310516578010102 1.7442124525653284 -1.884043355981344 -1.5707805792437952 1.515909194946289 0.9675057530403137 -0.06447263062000275 0.07552968710660934 -0.013110782019793987 6.166922528194618e-11 0.06324467062950134 1 True False
9816.838 4.392151355743408 -1.4339482647231598 1.7478473822223108 -1.8845941028990687 -1.570853058491842 1.519007682800293 0.8974649310112 -0.05773424357175827 0.07155618816614151 -0.013763011433184147 -0.00016944680828601122 0.06056469678878784 1 True False
9816.887999999999 4.435269832611084 -1.436886803512909 1.751235310231344 -1.8852607212462367 -1.5708368460284632 1.5218420028686523 0.8245565295219421 -0.052622903138399124 0.06565098464488983 -0.012653451412916183 4.768227590545848e-09 0.05373763665556908 1 True False
9816.938 4.474700450897217 -1.4394055020860215 1.7544501463519495 -1.8857718906798304 -1.5707886854754847 1.5243359804153442 0.7606189250946045 -0.04878266900777817 0.06136325001716614 -0.010316945612430573 1.432656770994356e-10 0.048042938113212585 1 True False
9816.988 4.510748863220215 -1.441805661921837 1.757265869771139 -1.8862234554686488 -1.5708048979388636 1.5266917943954468 0.6898032426834106 -0.046432625502347946 0.05163625255227089 -0.008147896267473698 1.59328035790815e-13 0.04479106888175011 1 True False
9817.037999999999 4.543301105499268 -1.4439044755748291 1.759899918233053 -1.8866421184935511 -1.5707843939410608 1.5288870334625244 0.6162350177764893 -0.03947428613901138 0.04907161369919777 -0.008003465831279755 2.420196078486031e-32 0.042695898562669754 1 True False
9817.088 4.572391033172607 -1.4459036749652405 1.762139145527975 -1.8870450458922328 -1.570801083241598 1.530716896057129 0.5470795035362244 -0.03383590653538704 0.0407395139336586 -0.007817065343260765 0.00038369125104509294 0.03651460260152817 1 True False
9817.137999999999 4.598081111907959 -1.447488197391369 1.764120880757467 -1.8873607120909632 -1.570772949849264 1.5323898792266846 0.4747743606567383 -0.032293468713760376 0.0352126806974411 -0.007145809009671211 0.0006275572231970727 0.03137928247451782 1 True False
9817.188 4.620260238647461 -1.448901892905571 1.7658913771258753 -1.8876801929869593 -1.5707967917071741 1.5338387489318848 0.40838655829429626 -0.02736351452767849 0.03468655049800873 -0.003500232007354498 0.0009197641629725695 0.025549285113811493 1 True False
9817.238 4.638559818267822 -1.45016215116296 1.7673099676715296 -1.887975355187887 -1.570829216633932 1.535048007965088 0.3445802330970764 -0.022555721923708916 0.02856195531785488 -0.002519979840144515 -1.393207821820397e-05 0.023271437734365463 1 True False
9817.287999999999 4.653839588165283 -1.4511170995286484 1.768580738698141 -1.8882066212096156 -1.5708087126361292 1.5360907316207886 0.2672984302043915 -0.017351141199469566 0.02155245468020439 -0.0038940811064094305 -0.00012510955275502056 0.01624925620853901 1 True False
9817.338 4.665266990661621 -1.4518753674677392 1.7694466749774378 -1.88830628017568 -1.5707967917071741 1.5368443727493286 0.19849184155464172 -0.014197923243045807 0.01637319102883339 -0.0031037665903568268 -2.493626561772544e-05 0.012394169345498085 1 True False
9817.387999999999 4.673467636108398 -1.4523864549449463 1.7700770537005823 -1.888430734673971 -1.5707805792437952 1.5373677015304565 0.12737025320529938 -0.0072250389494001865 0.009389671497046947 -0.002229905454441905 -1.4731232113263104e-05 0.00854366272687912 1 True False
9817.438 4.6780877113342285 -1.4526470464519043 1.7703688780414026 -1.8884865246214808 -1.5708168188678187 1.5376019477844238 0.059008754789829254 -0.002881704829633236 0.0036757157649844885 -0.0008587496122345328 -1.0453479262650944e-05 0.0036415401846170425 1 True False
9817.488 4.679286956787109 -1.4526983884027977 1.7704818884478968 -1.8885661564269007 -1.5708335081683558 1.5376986265182495 0.003616762813180685 -9.486240014666691e-05 0.02121558226644993 -0.02320653572678566 -2.393430744602455e-21 0.0003182270156685263 1 True False
9817.537999999999 4.679312705993652 -1.4521630120328446 1.772116486226217 -1.8909508190550746 -1.5708335081683558 1.537770390510559 0.00010108610877068713 0.028514500707387924 0.04892966151237488 -0.07508568465709686 -2.2284535599204763e-13 0.0007413841085508466 1 True False
9817.588 4.679263114929199 -1.4498507317951699 1.7757886091815394 -1.8968826733031214 -1.5708611647235315 1.5377130508422852 0.0001879880001069978 0.06077161058783531 0.09597224742174149 -0.15504994988441467 -3.3850249439096716e-32 0.00023670634254813194 1 True False
9817.637999999999 4.679276466369629 -1.4462521162680169 1.7815120855914515 -1.906278749505514 -1.5708087126361292 1.5376640558242798 0.0003270970773883164 0.08582589775323868 0.13814620673656464 -0.2218177318572998 -0.0 3.1347630654460223e-12 1 True False
9817.688 4.679266452789307 -1.44142039239917 1.7897747198687952 -1.9189726314940394 -1.570784870778219 1.5377497673034668 0.00041728810174390674 0.10556815564632416 0.18450376391410828 -0.2936263084411621 -0.0 4.761714145406977e-31 1 True False
9817.938 4.679253101348877 -1.3985231679729004 1.8608391920672815 -2.0327521763243617 -1.5707281271563929 1.5377130508422852 5.6768902140902355e-05 0.1935601681470871 0.32011085748672485 -0.5253006815910339 0.0 0.0 1 True False
9817.988 4.679295063018799 -1.3894514453462143 1.875711743031637 -2.0569430790343226 -1.5707967917071741 1.5376802682876587 1.596711596097208e-18 0.17386622726917267 0.28545674681663513 -0.4512385427951813 0.0 0.0 1 True False
9818.037999999999 4.6793107986450195 -1.3817194414189835 1.8887551466571253 -2.0777670345702113 -1.570829216633932 1.537742257118225 0.0 0.1441597193479538 0.23591050505638123 -0.3824045658111572 0.0 0.0 1 True False
9818.088 4.679348468780518 -1.375273422603943 1.8992880026446741 -2.095116754571432 -1.5707805792437952 1.5377497673034668 0.0 0.11377201229333878 0.19540388882160187 -0.30290940403938293 0.0 0.0 1 True False
9818.137999999999 4.679339408874512 -1.3700127464583893 1.9079692999469202 -2.1088177166380824 -1.5707486311541956 1.537733554840088 0.0 0.08700387179851532 0.15313735604286194 -0.23386158049106598 0.0 0.0 1 True False
9818.188 4.679318904876709 -1.3661399644664307 1.9145572821246546 -2.1191288433470667 -1.5708449522601526 1.5377789735794067 0.0 0.06473272293806076 0.11058507859706879 -0.17080862820148468 0.0 -4.136313509661704e-05 1 True False
9818.238 4.679299354553223 -1.3635866355947037 1.9187591711627405 -2.12593998531484 -1.5707843939410608 1.5377094745635986 0.0 0.037009190768003464 0.06082687899470329 -0.10043284296989441 0.0 -1.9245608200435527e-05 1 True False
9818.287999999999 4.679295063018799 -1.3623903703740616 1.9208405653582972 -2.129089494744772 -1.5708335081683558 1.5376888513565063 0.0 0.012055238708853722 0.020111404359340668 -0.03171185404062271 0.0 -1.2540776879177429e-05 1 True False
9818.338 4.679348468780518 -1.362343506222107 1.9209592978106897 -2.1295048199095667 -1.5708168188678187 1.5377050638198853 0.0 -0.0003590960113797337 -0.0002297999890288338 6.977564771659672e-05 0.0 -1.2762108037023268e-10 1 True False
9818.387999999999 4.679335117340088 -1.3623152089169999 1.9209230581866663 -2.1294647655882777 -1.5708087126361292 1.5376888513565063 0.0 0.00015339998935814947 -7.181001325783481e-29 4.918840264571053e-14 0.0 -1.938567505477785e-29 1 True False
9818.438 4.67929744720459 -1.3622656476548691 1.9209802786456507 -2.129484315911764 -1.5707767645465296 1.537729263305664 0.0 0.00026129078469239175 4.323687244323082e-05 -0.0008152010850608349 0.0 -0.0 1 True False
9818.488 4.679315090179443 -1.3622988027385254 1.9210084120379847 -2.129528661767477 -1.5707925001727503 1.5377137660980225 0.0 0.0003074010310228914 5.89279479754623e-05 -0.0013431533006951213 0.0 -0.0 1 True False
9818.537999999999 4.679339408874512 -1.3622836631587525 1.9210251013385218 -2.129516740838522 -1.570801083241598 1.5376964807510376 0.0 0.00019598918152041733 5.083365977043286e-05 -0.00029890972655266523 0.0 -0.0 1 True False
9818.588 4.679327964782715 -1.362319753771164 1.9210041205035608 -2.129528661767477 -1.570784870778219 1.5377508401870728 0.0 0.00015012262156233191 2.094659794238396e-05 -0.00024197733728215098 0.0 -0.0 1 True False
9818.637999999999 4.6792778968811035 -1.3622104090503235 1.9210236708270472 -2.129556795159811 -1.5707891623126429 1.5377216339111328 0.0 0.00012673260062001646 1.0085393207569191e-29 -0.00013056059833616018 0.0 -0.0 1 True False
9818.688 4.679332256317139 -1.3622296911529084 1.9209583441363733 -2.1295200786986292 -1.5708406607257288 1.5376752614974976 0.0 7.774505502311513e-05 3.915934939868748e-05 -9.49328241404146e-05 0.0 -0.0 1 True False
9818.738 4.6793413162231445 -1.362238736157753 1.921027962361471 -2.1295443973936976 -1.5707648436175745 1.5376766920089722 0.0 4.806446668226272e-05 2.1231925106945937e-09 -1.4079962056712247e-05 0.0 -0.0 1 True False
9818.787999999999 4.6793060302734375 -1.362244726424553 1.9209941069232386 -2.1295486889281214 -1.5707929770099085 1.5377172231674194 0.0 3.326182559248991e-05 4.996094256408129e-39 -4.2370638198008237e-07 0.0 -0.0 1 True False
9818.838 4.6793036460876465 -1.3621892494014283 1.921016041432516 -2.1294919453062953 -1.5708168188678187 1.5377246141433716 0.0 2.0324145940641653e-36 0.0 -6.436109666008197e-26 0.0 -0.0 1 True False
9818.887999999999 4.679344177246094 -1.3622132998755951 1.9209912459002894 -2.1295162640013636 -1.570784870778219 1.5377470254898071 0.0 0.0 0.0 -9.80908925027372e-45 0.0 -0.0 1 True False
9818.938 4.679332256317139 -1.3622177702239533 1.9210694471942347 -2.1295486889281214 -1.5707405249225062 1.5377379655838013 0.0 0.0 0.0 -0.0 0.0 -0.0 1 True False
9818.988 4.679372310638428 -1.3622268301299592 1.9210484663592737 -2.129523893395895 -1.5707805792437952 1.537733554840088 0.0 0.0 0.0 -0.0 0.0 -0.0 1 True False
9819.037999999999 4.679360389709473 -1.3622014087489625 1.9210355917560022 -2.129528661767477 -1.5707929770099085 1.5377216339111328 0.0 0.0 7.295263912965311e-06 -0.0 0.0 -0.0 1 True False
9819.088 4.6792778968811035 -1.3622599405101319 1.920999828969137 -2.1295772991576136 -1.5708254019366663 1.537713885307312 0.0 0.0 1.7166528050606313e-35 -0.0 0.0 -0.0 1 True False
9819.137999999999 4.679271221160889 -1.3622628164342423 1.9210313002215784 -2.1295649013915003 -1.5707281271563929 1.5377261638641357 0.0 0.0 0.0 -0.0 0.0 -0.0 1 True False
9819.188 4.679257392883301 -1.3622341615012665 1.9210236708270472 -2.1295443973936976 -1.5708211104022425 1.5377424955368042 -2.388365374066722e-22 0.0 -1.8180026017944328e-07 -0.0036605477798730135 1.7970789244724228e-13 6.959305028431118e-05 1 True False
9819.238 4.679332256317139 -1.362259880905487 1.92104417482485 -2.129552503625387 -1.570784870778219 1.5376677513122559 3.157424319461228e-29 0.0 -4.277952111048106e-37 6.664648352508809e-15 2.7297673646892776e-32 1.0571201557895639e-23 1 True False
9819.287999999999 4.679323196411133 -1.3622733813575287 1.92106801668276 -2.1294919453062953 -1.5707686583148401 1.5377410650253296 0.0 0.0 -0.0 1.0123615407025744e-33 0.0 1.6058880401162404e-42 1 True False
9819.338 4.679318904876709 -1.362201453452446 1.9210270086871546 -2.1295486889281214 -1.570829216633932 1.5377498865127563 0.0 0.0 -0.0 0.0 0.0 0.0 1 True False
9819.387999999999 4.679299354553223 -1.36224319160495 1.921011749898092 -2.129580637017721 -1.5707891623126429 1.5377246141433716 0.0 0.0 -0.0 0.0 0.0 0.0 1 False False
9819.438 4.679306507110596 -1.3623090845397492 1.9210103193866175 -2.1295968494811 -1.5708211104022425 1.5377633571624756 0.0 0.0 -0.0 0.0 0.0 -2.8667824671449025e-20 1 False False
9819.488 4.679339408874512 -1.362264336352684 1.9210413138019007 -2.1295443973936976 -1.5708048979388636 1.537679672241211 0.0 0.0 -0.0 6.289362364242379e-09 0.0 -4.3546484830649794e-39 1 False False
9819.537999999999 4.6792826652526855 -1.3622718018344422 1.9210203329669397 -2.1295281849303187 -1.570824925099508 1.5377963781356812 0.0 -3.4665691774562985e-28 -0.0 9.553551415008579e-28 0.0 -0.0 1 False False
9819.588 4.6792778968811035 -1.3622598958066483 1.9210088888751429 -2.1295486889281214 -1.5708335081683558 1.5377140045166016 0.0 0.0 -0.0 0.0 0.0 -0.0 1 False False
9819.637999999999 4.6793365478515625 -1.3622554403594513 1.921027962361471 -2.129580637017721 -1.5708048979388636 1.5377140045166016 0.0 0.0 -0.0 0.0 0.0 -0.0 1 False False
9819.688 4.679291248321533 -1.3622927230647583 1.9210074583636683 -2.1295486889281214 -1.570813004170553 1.5377172231674194 0.0 0.0 -0.0 0.0 0.0 -0.0 1 False False
9819.738 4.679315090179443 -1.362246425156929 1.9210193792926233 -2.1295529804625453 -1.5707767645465296 1.5377200841903687 0.0 0.0 -0.0 0.0 0.0 -0.0 1 False False
9819.787999999999 4.679348468780518 -1.3622522217086335 1.9210236708270472 -2.1295324764647425 -1.5708087126361292 1.537733554840088 0.0 0.0 -0.0 3.4165251804421128e-15 0.0 -0.0 1 False False
9819.838 4.679357528686523 -1.3622268003276368 1.92104417482485 -2.129536291162008 -1.5707605520831507 1.5376886129379272 0.0 0.0 -0.0 5.189709754076991e-34 0.0 -0.0 1 False False
9819.887999999999 4.679269313812256 -1.3622508657029648 1.9210251013385218 -2.1295043430724085 -1.570756737385885 1.537681221961975 0.0 0.0 -0.0 0.0 0.0 -0.0 1 False False
9819.938 4.679351329803467 -1.3622583162835618 1.921011749898092 -2.1295486889281214 -1.57074481645693 1.5377306938171387 0.0 0.0 -0.0 0.0 0.0 -0.0 1 False False
9819.988 4.679323196411133 -1.3622089189342041 1.921039883290426 -2.1294924221434535 -1.5707767645465296 1.5377424955368042 0.0 0.0 -5.4848056606715545e-05 0.0 0.0 -0.0 1 False False
9820.037999999999 4.6793365478515625 -1.3622027200511475 1.921027962361471 -2.1295443973936976 -1.5708168188678187 1.5377424955368042 0.0 0.0 -4.298075194394301e-22 1.9121697315860906e-16 0.0 -0.0 1 False False
9820.088 4.679299354553223 -1.3622672718814393 1.921011749898092 -2.1295200786986292 -1.570829216633932 1.537652611732483 0.0 0.0 -0.0 2.9045897176686247e-35 2.2813937424871797e-17 4.648312984523173e-11 1 False False
9820.137999999999 4.679327487945557 -1.3621758085540314 1.9210322538958948 -2.12951197246694 -1.5707805792437952 1.5377049446105957 0.0 0.0 -0.0 0.0 3.4654418635791615e-36 0.0002531504142098129 1 False False
9820.188 4.679315090179443 -1.3622267854264756 1.9209750334369105 -2.12948002437734 -1.5707247892962855 1.5376766920089722 0.0 0.0 -0.0 0.0 0.0 -0.00011233364057261497 1 False False
9820.238 4.679306507110596 -1.3622475874475022 1.921011749898092 -2.129512449304098 -1.570756737385885 1.5376975536346436 0.0 0.0 -0.0 0.0 0.0 -1.4492388104965525e-21 1 False False
9820.287999999999 4.679290294647217 -1.3622431469014664 1.9210236708270472 -2.129573484460348 -1.5707929770099085 1.5377005338668823 0.0 0.0 -0.0 0.0 0.0 -2.201397848500358e-40 1 False False
9820.338 4.67927360534668 -1.3627394449761887 1.9202521483050745 -2.128326555291647 -1.570784870778219 1.5377663373947144 0.0 -0.021628810092806816 -0.036837246268987656 0.05650888755917549 0.0 -0.0 1 False False
9820.387999999999 4.679314613342285 -1.3644156616977234 1.917319122944967 -2.123453279534811 -1.5707405249225062 1.5377379655838013 0.0 -0.05016564950346947 -0.08156216144561768 0.1317811906337738 0.0 -0.0 1 False False
9820.438 4.6793107986450195 -1.367568240766861 1.9119656721698206 -2.115056654016012 -1.5707886854754847 1.5377470254898071 0.0 -0.07531996816396713 -0.12903380393981934 0.20884639024734497 0.0 -0.0 1 False False
9820.488 4.6793036460876465 -1.37216009319339 1.9045308271991175 -2.103294988671774 -1.5708168188678187 1.5377049446105957 0.0 -0.0981944277882576 -0.16516652703285217 0.26034364104270935 0.0 -0.0 1 False False
9820.537999999999 4.679344177246094 -1.3777547043612977 1.8950608412372034 -2.0880896053709925 -1.570784870778219 1.5377305746078491 0.0 -0.12526118755340576 -0.21337561309337616 0.33118975162506104 0.0 -0.0 1 False False
9820.588 4.67936897277832 -1.3848292839578171 1.883439842854635 -2.0693212948241175 -1.5708373228656214 1.5377424955368042 0.0 -0.15354284644126892 -0.25779351592063904 0.41125965118408203 0.0 -0.0 1 False False
9820.637999999999 4.679318904876709 -1.3932395440391083 1.8694141546832483 -2.047030588189596 -1.5707967917071741 1.5377005338668823 0.0 -0.17918337881565094 -0.29980897903442383 0.47270792722702026 0.0 -0.0 1 False False
9820.688 4.679314613342285 -1.4029734295657654 1.8534000555621546 -2.0212465725340785 -1.5708006064044397 1.5377453565597534 0.0 -0.20618584752082825 -0.34075766801834106 0.5521165728569031 0.0 -0.0 1 False False
9820.738 4.679295063018799 -1.4135238093188782 1.8358367125140589 -1.9932199917235316 -1.5707686583148401 1.5377216339111328 0.0 -0.20236815512180328 -0.33738118410110474 0.5432633757591248 0.0 -0.0 1 False False
9820.787999999999 4.679347991943359 -1.4229021531394501 1.82007342973818 -1.9678880176939906 -1.5708487669574183 1.5376975536346436 0.0 -0.1802491545677185 -0.29865437746047974 0.4750312566757202 0.0 -0.0 1 False False
9820.838 4.679323196411133 -1.431222678428032 1.806479279194967 -1.9460412464537562 -1.570784870778219 1.537679672241211 0.0 -0.15271364152431488 -0.2489628940820694 0.40677887201309204 0.0 4.096100488782279e-20 1 False False
9820.887999999999 4.679335117340088 -1.438088060622551 1.7951605955706995 -1.9278413257994593 -1.5707162062274378 1.5377633571624756 0.0 -0.12185738980770111 -0.21037498116493225 0.3429903984069824 0.0 6.221985185461087e-39 1 False False
9820.938 4.6793437004089355 -1.443603591328003 1.785867993031637 -1.9130016765990199 -1.570784870778219 1.537713885307312 0.0 -0.09871010482311249 -0.1701580137014389 0.2707519233226776 0.0 0.0 1 False False
9820.988 4.6793437004089355 -1.4478128415397187 1.7788141409503382 -1.9016953907408656 -1.5707772413836878 1.5377542972564697 0.0 -0.06895382702350616 -0.12042654305696487 0.19204597175121307 0.0 0.0 1 False False
9821.037999999999 4.679286479949951 -1.4507972461036225 1.7739594618426722 -1.893785139123434 -1.5708006064044397 1.537735104560852 -7.750466836892444e-32 -0.04559436812996864 -0.07981361448764801 0.13272908329963684 0.0 0.0 1 False False
9821.088 4.679319381713867 -1.452512727384903 1.7712028662311 -1.8895265064635218 -1.5707967917071741 1.5376975536346436 -2.469375456798913e-21 -0.020253267139196396 -0.033004533499479294 0.05168719217181206 0.0 0.0 1 False False
9821.137999999999 4.679271221160889 -1.452673503463604 1.7706525961505335 -1.8886376820006312 -1.5707967917071741 1.5376960039138794 0.0 -2.24571954277053e-06 -0.00019374505791347474 -0.0009296800708398223 0.0 0.0 1 False False
9821.188 4.6793437004089355 -1.4526854169419785 1.7706525961505335 -1.8886338673033656 -1.5707691351519983 1.5377063751220703 0.0 0.0 -0.00030776573112234473 -9.097785368794575e-05 0.0 0.0 1 False False
9821.238 4.679351329803467 -1.4527667176774521 1.7705839315997522 -1.8886295757689417 -1.570784870778219 1.5376677513122559 0.0 -0.0004250951169524342 -0.0005580715951509774 0.00027592945843935013 0.0 0.0 1 False False
9821.287999999999 4.679352283477783 -1.4527461689761658 1.7706134955035608 -1.888585706750387 -1.570784870778219 1.5377049446105957 0.0 -0.0006336520309560001 -0.0007988722645677626 0.0010479125194251537 0.0 0.0 1 False False
9821.338 4.679323673248291 -1.4527703312090416 1.7705405394183558 -1.888538499871725 -1.570784870778219 1.5377544164657593 0.0 -0.0004938924685120583 -0.0006032075616531074 0.00035496550844982266 0.0 0.0 1 False False
9821.387999999999 4.679286956787109 -1.452758089905121 1.770564381276266 -1.8885542354979457 -1.5707691351519983 1.537712812423706 0.0 -0.00019069125119131058 -0.00017507560551166534 0.00017462186224292964 0.0 0.0 1 False False
9821.438 4.679299354553223 -1.4527333986810227 1.7705686728106897 -1.8885065517821253 -1.5707767645465296 1.5377379655838013 0.0 -0.00010501402721274644 -0.00011281223123660311 0.00010645833390299231 0.0 0.0 1 False False
9821.488 4.67932653427124 -1.4528027188828965 1.770564381276266 -1.8885461292662562 -1.5707929770099085 1.537718415260315 0.0 -5.7990993809653446e-05 -7.792659744154662e-05 6.689225119771436e-05 0.0 0.0 1 False False
9821.537999999999 4.679278373718262 -1.4528311651996155 1.7705076376544397 -1.8885380230345667 -1.5707810560809534 1.5377049446105957 0.0 -2.2410818928619847e-05 -5.87401481027925e-23 1.5566084812235204e-06 0.0 0.0 1 False False
9821.588 4.6792826652526855 -1.4528472659042855 1.770515267048971 -1.8885580501952113 -1.5707767645465296 1.5377216339111328 0.0 -2.74723661277676e-05 -0.0 2.3644922342641997e-25 0.0 0.0 1 False False
9821.637999999999 4.679295063018799 -1.452855908577778 1.7705238501178187 -1.8885461292662562 -1.570813004170553 1.5377261638641357 0.0 -1.8897590052802116e-05 -0.0 3.6433760072445244e-44 0.0 0.0 1 False False
9821.688 4.6793036460876465 -1.4527984795025368 1.7705848852740687 -1.8885303936400355 -1.5708048979388636 1.5376975536346436 0.0 0.0 -0.0 0.0 0.0 0.0 1 False False
9821.738 4.679380416870117 -1.4527908128551026 1.7705805937396448 -1.8884827099242152 -1.570813004170553 1.5377171039581299 0.0 0.0 -0.0 0.0 0.0 0.0 1 False False
9821.787999999999 4.679323673248291 -1.4528103184751053 1.7705281416522425 -1.8885380230345667 -1.5707767645465296 1.5377049446105957 0.0 0.0 -1.2626766299206338e-10 0.0 0.0 0.0 1 False False
9821.838 4.6793036460876465 -1.4528396365097542 1.7705891768084925 -1.8885580501952113 -1.5708335081683558 1.5377261638641357 0.0 0.0 -2.9712151728618394e-40 0.0 0.0 0.0 1 False False
9821.887999999999 4.6793317794799805 -1.4528224927238007 1.7705729643451136 -1.8885423145689906 -1.570784870778219 1.5377094745635986 0.0 0.0 -0.0 0.0 0.0 0.0 1 False False
9821.938 4.679290771484375 -1.4528311428478737 1.770536247883932 -1.8885499439635218 -1.570772949849264 1.5377094745635986 0.0 0.0 -0.0 0.0 0.0 0.0 1 False False
9821.988 4.6793437004089355 -1.4527746450952073 1.770536247883932 -1.8885051212706507 -1.5707686583148401 1.5377172231674194 0.0 0.0 -0.0 0.0 0.0 0.0 1 False False
9822.037999999999 4.679356575012207 -1.4528600585511704 1.7705686728106897 -1.888538499871725 -1.5708168188678187 1.537713885307312 0.0 0.0 -0.0 0.0 0.0 0.0 1 False False
9822.088 4.679315090179443 -1.4528225821307679 1.7705062071429651 -1.8885146580138148 -1.570784870778219 1.5377470254898071 0.0 0.0 -0.0 0.0 0.0 0.0 1 False False
9822.137999999999 4.6793036460876465 -1.4528472808054467 1.7705405394183558 -1.888538499871725 -1.5708168188678187 1.5377305746078491 0.0 0.0 -0.0 0.0 0.0 0.0 1 False False
9822.188 4.679302215576172 -1.4528522801450272 1.7705476919757288 -1.8885299168028773 -1.5708254019366663 1.537679672241211 0.0 0.0 -0.0 0.0 0.0 0.0 1 False False
9822.238 4.679262638092041 -1.4528804507902642 1.7706058661090296 -1.8885261021056117 -1.5707805792437952 1.5377424955368042 0.0 0.0 -0.0 0.0 0.0 0.0 1 False False
9822.287999999999 4.6792778968811035 -1.4527941581657906 1.770531956349508 -1.8885585270323695 -1.5708091894732874 1.537733554840088 0.0 0.0 -0.0 0.0 0.0 0.0 1 False False
9822.338 4.6793036460876465 -1.452794225221016 1.770564381276266 -1.8884979687132777 -1.5707767645465296 1.537687063217163 0.0 0.0 -0.0 0.0 0.0 0.0 1 False False
9822.387999999999 4.679295063018799 -1.4528760623982926 1.7705238501178187 -1.8884898624815882 -1.570768181477682 1.5377261638641357 0.0 0.0 -0.0 0.0 0.0 0.0 1 False False
9822.438 4.679332256317139 -1.4528069508126755 1.770564381276266 -1.888578554193014 -1.570784870778219 1.5377498865127563 0.0 0.0 -0.0 0.0 0.0 0.0 1 False False
9822.488 4.679299354553223 -1.4527950522354622 1.770560089741842 -1.888510366479391 -1.5707967917071741 1.5377216339111328 0.0 0.0 -0.0 0.0 0.0 0.0 1 False False
9822.537999999999 4.6793107986450195 -1.4528599765947838 1.7705853621112269 -1.8884865246214808 -1.5708449522601526 1.5377049446105957 -3.134632093823586e-12 0.0 -0.0 0.0 0.0 0.0 1 False False
9822.588 4.679339408874512 -1.4528069135597725 1.7705853621112269 -1.8885461292662562 -1.5707686583148401 1.5377261638641357 0.0 0.0 -0.0 0.0 0.0 0.0 1 False False
9822.637999999999 4.679332256317139 -1.4527704504183312 1.7705734411822718 -1.8885299168028773 -1.5707529226886194 1.5377261638641357 0.0 0.0 -0.0 0.0 0.0 0.0 1 False False
9822.688 4.679301738739014 -1.4528183874538918 1.770527187977926 -1.8885137043394984 -1.5707805792437952 1.5377171039581299 0.0 0.0 -0.0 1.6321392592999473e-07 0.0 0.0 1 False False
9822.738 4.679332256317139 -1.4527823415449639 1.7705448309527796 -1.8885094128050746 -1.5707967917071741 1.5376975536346436 0.0 0.0 -0.0 2.4792237329112361e-26 0.0 0.0 1 False False
9822.787999999999 4.679344177246094 -1.4528472435525437 1.77053147951235 -1.8885299168028773 -1.5708449522601526 1.5377216339111328 0.0 0.0 -0.0 4.203895392974451e-45 0.0 0.0 1 False False
9822.838 4.679290294647217 -1.4528188717416306 1.7705190817462366 -1.8885423145689906 -1.5707724730121058 1.5377379655838013 0.0 0.0 -0.0 0.0 0.0 0.0 1 False False
9822.887999999999 4.6793084144592285 -1.4528027337840577 1.7706015745746058 -1.8885299168028773 -1.570813004170553 1.5377261638641357 0.0 0.0 -0.0 0.0 0.0 0.0 1 False False
9822.938 4.679339408874512 -1.452814669614174 1.7705429236041468 -1.888494154016012 -1.5708168188678187 1.5377470254898071 0.0 0.0 -0.0 0.0 0.0 0.0 1 False False
9822.988 4.679295063018799 -1.4527985242060204 1.770571533833639 -1.8885218105711878 -1.5707648436175745 1.5377246141433716 0.0 0.0 -0.0 0.0 0.0 0.0 1 False False
9823.037999999999 4.6792778968811035 -1.4527985391071816 1.77055532137026 -1.8885661564269007 -1.5708449522601526 1.5376886129379272 0.0 0.0 -0.0 0.0 0.0 0.0 1 False False
9823.088 4.679348468780518 -1.4527780649117013 1.7705734411822718 -1.888510366479391 -1.5708044211017054 1.5377182960510254 0.0 0.0 -0.0 0.0 0.0 0.0 1 False False
9823.137999999999 4.679385662078857 -1.4528027412346383 1.7705610434161585 -1.88855042080068 -1.5707805792437952 1.5377379655838013 0.0 0.0 -0.0 0.0 0.0 0.0 1 False False
9823.188 4.679360389709473 -1.4527661514333268 1.7705429236041468 -1.8885542354979457 -1.5707805792437952 1.5377005338668823 0.0 0.0 -0.0 0.0 0.0 0.0 1 False False
9823.238 4.679315090179443 -1.4528311502984543 1.7705519835101526 -1.8885218105711878 -1.5707805792437952 1.5376677513122559 0.0 0.0 -0.0 0.0 0.0 0.0 1 False False
9823.287999999999 4.679348468780518 -1.4527823415449639 1.7705944220172327 -1.8885261021056117 -1.5708335081683558 1.5377182960510254 0.0 0.0 -0.0 0.0 0.0 0.0 1 False False
9823.338 4.6793694496154785 -1.4528353375247498 1.7705476919757288 -1.888538499871725 -1.5707605520831507 1.5377126932144165 0.0 0.0 -0.0 0.0 0.0 0.0 1 True False
9823.387999999999 4.679299354553223 -1.4527823713472863 1.770564381276266 -1.8884817562498988 -1.5708335081683558 1.5377379655838013 0.0 0.0 -0.0 0.0 0.0 0.0 1 True False
9823.438 4.67902946472168 -1.4529079136303444 1.7706049124347132 -1.8885218105711878 -1.570813004170553 1.5375089645385742 -0.016056014224886894 -0.004753166809678078 0.004014247562736273 -7.558342218771941e-08 0.0 -0.01253493968397379 1 True False
9823.488 4.67802619934082 -1.453413077895977 1.7710841337787073 -1.888578554193014 -1.5707767645465296 1.536332607269287 -0.03463833034038544 -0.014645367860794067 0.015249884687364101 -0.0008037092047743499 0.0 -0.036833617836236954 1 True False
9823.537999999999 4.675243377685547 -1.4544738319567223 1.7722943464862269 -1.8886896572508753 -1.570784870778219 1.5336205959320068 -0.07457201927900314 -0.029914624989032745 0.03276759758591652 -0.0022608439903706312 0.0 -0.07431881129741669 1 True False
9823.588 4.670009613037109 -1.4565370243838807 1.7745655218707483 -1.8889528713622035 -1.570829216633932 1.5284613370895386 -0.1328362375497818 -0.05287537723779678 0.061743225902318954 -0.006639452651143074 0.0 -0.12813957035541534 1 True False
9823.637999999999 4.661517143249512 -1.4600062829307099 1.7784741560565394 -1.889336725274557 -1.5707605520831507 1.5199792385101318 -0.21202954649925232 -0.0843006893992424 0.09279905259609222 -0.010471956804394722 0.0 -0.21014432609081268 1 True False
9823.688 4.648705959320068 -1.4651514527252694 1.7843034903155726 -1.8898588619627894 -1.570824925099508 1.507267951965332 -0.28986677527427673 -0.11562439799308777 0.12984465062618256 -0.011938828974962234 1.811810130951298e-23 -0.28972625732421875 1 True False
9823.738 4.63248872756958 -1.4717502903989335 1.7917607466327112 -1.8905979595580042 -1.5707767645465296 1.490837812423706 -0.35752132534980774 -0.142830029129982 0.15829618275165558 -0.01397024281322956 -0.00013978549395687878 -0.35555601119995117 1 True False
9823.787999999999 4.6125168800354 -1.479790599351265 1.8003581205951136 -1.8914958439269007 -1.5708254019366663 1.4710724353790283 -0.40717267990112305 -0.1675737053155899 0.18154799938201904 -0.021374350413680077 -2.4064753233687952e-05 -0.42237696051597595 1 True False
9823.838 4.593764781951904 -1.487293266957142 1.8089984099017542 -1.892250200311178 -1.570801083241598 1.4520610570907593 -0.35099849104881287 -0.1418706625699997 0.15671588480472565 -0.014985489659011364 0.0006394521915353835 -0.3479706346988678 1 True False
9823.887999999999 4.578063488006592 -1.4936294120601197 1.8158863226519983 -1.8931008778014125 -1.5708325544940394 1.436499834060669 -0.2740010917186737 -0.11007697880268097 0.1260925680398941 -0.011101609095931053 0.00019634219643194228 -0.27145060896873474 1 True False
9823.938 4.566107749938965 -1.4985149142197152 1.82133657137026 -1.8936149082579554 -1.5708368460284632 1.4244729280471802 -0.2101999670267105 -0.08618813753128052 0.08853528648614883 -0.007755665574222803 8.517208334524184e-05 -0.21036948263645172 1 True False
9823.988 4.5575175285339355 -1.5019383367947121 1.825301472340719 -1.8939186535277308 -1.5708492437945765 1.4158481359481812 -0.13709013164043427 -0.05463056638836861 0.060907233506441116 -0.00646864902228117 5.851463720318861e-05 -0.1380784660577774 1 True False
9824.037999999999 4.552405834197998 -1.504060873096325 1.8274243513690394 -1.8942462406554164 -1.570813004170553 1.410757064819336 -0.0656493678689003 -0.02812560647726059 0.03105500154197216 -0.002956140786409378 5.060135663370602e-05 -0.07038506120443344 1 True False
9824.088 4.550864219665527 -1.5046362441829224 1.828057114277975 -1.8941699467101039 -1.5708211104022425 1.4093096256256104 0.008468124084174633 -0.00038199868868105114 4.7646020107094955e-07 -0.0004247165925335139 4.1553030314389616e-05 0.0026404850650578737 1 True False
9824.137999999999 4.5508599281311035 -1.5040564847043534 1.8293445746051233 -1.896313806573385 -1.5707724730121058 1.4092901945114136 -0.00021722086239606142 0.024955909699201584 0.045836079865694046 -0.06390568614006042 5.36650768481195e-05 -0.00011725106014637277 1 True False
9824.188 4.5509185791015625 -1.5020364683917542 1.8327034155475062 -1.9015642605223597 -1.570801083241598 1.4092575311660767 -0.0007088412530720234 0.056011464446783066 0.0865703821182251 -0.14035619795322418 2.8621751130372734e-23 -0.0011338948970660567 1 True False
9824.238 4.550864219665527 -1.498577283029892 1.8382580916034144 -1.9105340443053187 -1.5707925001727503 1.409196376800537 -0.0007496791076846421 0.08269151300191879 0.1342388540506363 -0.21804988384246826 4.3482291347999074e-42 -0.00032969078165479004 1 True False
9824.287999999999 4.550856590270996 -1.4939469707063218 1.845820728932516 -1.9228764973082484 -1.5707486311541956 1.4092782735824585 -0.00048171367961913347 0.10485760867595673 0.17525668442249298 -0.2763155698776245 -8.288385288324207e-05 -0.00011698980233632028 1 True False
9824.338 4.550824165344238 -1.487778292303421 1.8559868971454065 -1.9386540851988734 -1.5707805792437952 1.4092336893081665 -0.00015167213859967887 0.1338832527399063 0.2151992917060852 -0.35894790291786194 -5.6753793614916503e-05 -8.093382348306477e-05 1 True False
9824.387999999999 4.550819396972656 -1.4804833021811028 1.8676517645465296 -1.958107133904928 -1.570784870778219 1.4092708826065063 -0.0001039551934809424 0.16100859642028809 0.26261720061302185 -0.4170317053794861 -1.4429300488892388e-15 -4.6261833631433547e-05 1 True False
9824.438 4.550828456878662 -1.4716724169305344 1.881967846547262 -1.9809533558287562 -1.570857350026266 1.4092497825622559 -7.359588198596612e-05 0.1843443065881729 0.3001960515975952 -0.49833935499191284 -2.191813909573775e-34 -3.238790304749273e-05 1 True False
9824.488 4.550828456878662 -1.4616853830269356 1.8981764952289026 -2.007217069665426 -1.5707767645465296 1.4092082977294922 -4.203895392974451e-45 0.2083328664302826 0.3447326123714447 -0.5673624873161316 -0.0 -8.725178304302972e-06 1 True False
