Andreas691667/Digital_Twin_UR/src/robot_connection_manager/robot_output/demo_heart_robot_output.csv
timestamp actual_q_0 actual_q_1 actual_q_2 actual_q_3 actual_q_4 actual_q_5 actual_qd_0 actual_qd_1 actual_qd_2 actual_qd_3 actual_qd_4 actual_qd_5 safety_status output_bit_register_65 output_bit_register_66
1765.105 3.7120580673217773 -0.8254957360080262 0.8429806868182581 -1.588313718835348 -1.570813004170553 2.141258955001831 0.0 0.0 0.0 -1.3184538595390662e-31 -0.0 0.0 1 False False
1765.155 3.7120697498321533 -0.8255438965610047 0.8429649511920374 -1.5882722340025843 -1.5707767645465296 2.141221284866333 0.0 0.0 0.0 -0.0 -0.0 0.0 1 False False
1765.205 3.712012767791748 -0.8254862588695069 0.8430169264422815 -1.5883013210692347 -1.5708335081683558 2.141246795654297 0.0 0.0 0.0 -0.0 -0.0 0.0 1 False False
1765.2549999999999 3.7120862007141113 -0.825518862610199 0.842959229146139 -1.5883170566954554 -1.5707529226886194 2.141279697418213 0.0 0.0 0.0 -0.0 -0.0 0.0 1 False False
1765.3049999999998 3.7120816707611084 -0.8254587811282654 0.8430126349078577 -1.588269372979635 -1.5707805792437952 2.141266107559204 0.0 0.0 0.0 -0.0 -0.0 0.0 1 False False
1765.355 3.7121071815490723 -0.8255245250514527 0.8429258505450647 -1.588280817071432 -1.5708168188678187 2.1413443088531494 0.0 0.0 0.0 -0.0 -0.0 0.0 1 False False
1765.405 3.7120606899261475 -0.8254869145205994 0.8429721037494105 -1.5883127651610316 -1.570813004170553 2.141336679458618 0.0 0.0 0.0 -0.0 -0.0 -7.10420278160484e-10 1 False False
1765.455 3.7120981216430664 -0.8254574698260804 0.8429563681231897 -1.588269372979635 -1.5707925001727503 2.141270637512207 0.0 0.0 0.0 -0.0 -0.0 -1.079129964572386e-28 1 False False
1765.5049999999999 3.7120158672332764 -0.825473741894104 0.8430174032794397 -1.5882889233031214 -1.570784870778219 2.141279697418213 0.0 0.0 0.0 -0.0 -0.0 -0.0 1 False False
1765.5549999999998 3.7121188640594482 -0.8255156439593812 0.8429935614215296 -1.5882932148375453 -1.5707529226886194 2.1412453651428223 0.0 0.0 0.0 -0.0 -0.0 -0.0 1 False False
1765.605 3.712045669555664 -0.8255112928203125 0.8429887930499476 -1.588297506371969 -1.5707925001727503 2.1413114070892334 0.0 0.0 0.0 -0.0 -0.0 -0.0 1 False False
1765.655 3.71209979057312 -0.8254131239703675 0.8429563681231897 -1.588280817071432 -1.5708172957049769 2.1413040161132812 0.0 0.0 0.0 -0.0 -0.0 -0.0 1 False False
1765.705 3.7120697498321533 -0.8254499596408387 0.8429763952838343 -1.5883013210692347 -1.5707686583148401 2.141242504119873 0.0 0.0 0.0 -0.0 -0.0 -0.0 1 False False
1765.7549999999999 3.7120981216430664 -0.8254531782916565 0.8429763952838343 -1.5883013210692347 -1.5707891623126429 2.1412885189056396 0.0 0.0 0.0 -0.0 -0.0 -0.0 1 False False
1765.8049999999998 3.7120652198791504 -0.8255288165858765 0.8429673353778284 -1.588273664514059 -1.570784870778219 2.1413040161132812 0.0 0.0 0.0 -0.0 -0.0 -1.8992134087625345e-08 1 False False
1765.855 3.7121026515960693 -0.8254750531962891 0.8430216948138636 -1.5882607899107875 -1.5708006064044397 2.141263246536255 3.615350037958028e-42 0.0 0.0 -0.0 -0.0 -2.8849097823399277e-27 1 False False
1765.905 3.7121026515960693 -0.825490729217865 0.8429473082171839 -1.5883246860899867 -1.5707810560809534 2.1413114070892334 0.0 0.0 0.0 -0.0 -0.0 -0.0 1 False False
1765.955 3.7120606899261475 -0.8254499596408387 0.8430259863482874 -1.588280817071432 -1.570824925099508 2.1412994861602783 0.0 0.0 0.0 -0.0 -0.0 -0.0 1 False False
1766.0049999999999 3.7120981216430664 -0.8254499596408387 0.8429563681231897 -1.5882607899107875 -1.5707810560809534 2.141270637512207 0.0 0.0 0.0 -0.0 -0.0 -0.0 1 False False
1766.0549999999998 3.7121191024780273 -0.825463132267334 0.8430007139789026 -1.5883370838561 -1.5707967917071741 2.1412513256073 0.0 0.0 0.0 -0.0 -0.0 -0.0 1 False False
1766.105 3.7120697498321533 -0.8255329889110108 0.8429301420794886 -1.5882774792113246 -1.5707967917071741 2.141270637512207 0.0 -1.9173591880861096e-10 0.0 -0.0 -0.0 -0.0 1 False False
1766.155 3.712095022201538 -0.8255070012858887 0.8429721037494105 -1.588273664514059 -1.570784870778219 2.14127516746521 0.0 0.0 0.0 -0.0 -0.0 -0.0 1 False False
1766.205 3.7121312618255615 -0.8255318564227601 0.8429606596576136 -1.5883165798582972 -1.570784870778219 2.1412453651428223 0.0 0.0 0.0 -0.0 -0.0 -0.0 1 False False
1766.2549999999999 3.712123394012451 -0.8254869741252442 0.8429845015155237 -1.588252683679098 -1.5707886854754847 2.141279697418213 0.0 0.0 0.0 -0.0 -0.0 -0.0 1 False False
1766.3049999999998 3.7121145725250244 -0.8254869145205994 0.8430097738849085 -1.5882650814452113 -1.5708087126361292 2.141193389892578 0.0 0.0 0.0 -0.0 -0.0 -0.0 1 False False
1766.355 3.7121355533599854 -0.8254993718913575 0.8429515997516077 -1.588297029534811 -1.5707929770099085 2.141279697418213 0.0 0.0 0.0 -0.0 -0.0 -0.0 1 False False
1766.405 3.7120862007141113 -0.8254782122424622 0.8429563681231897 -1.588269372979635 -1.5707886854754847 2.141270637512207 0.0 0.0 0.0 -0.0 -1.0500379943323424e-07 -0.0 1 False False
1766.455 3.712111473083496 -0.8255038422397156 0.8429845015155237 -1.5882932148375453 -1.5708168188678187 2.141247034072876 0.0 0.0 0.0 -0.0 -1.595010498366799e-26 -0.0 1 False False
1766.5049999999999 3.712050199508667 -0.8255317968181153 0.8429935614215296 -1.588313718835348 -1.5707929770099085 2.141333818435669 0.0 0.0 0.0 -0.0 -2.802596928649634e-45 -0.0 1 False False
1766.5549999999998 3.712095022201538 -0.8255480092814942 0.8429763952838343 -1.5882889233031214 -1.5708006064044397 2.141333818435669 0.0 0.0 0.0 -0.0 -0.0 -0.0 1 False False
1766.605 3.7120535373687744 -0.8255286377719422 0.8430126349078577 -1.5882731876769007 -1.5707805792437952 2.141338348388672 0.0 0.0 0.0 -0.0 -0.0 -0.0 1 False False
1766.655 3.7120773792266846 -0.8255317372134705 0.8429587523089808 -1.5883013210692347 -1.5707810560809534 2.14127516746521 0.0 0.0 0.0 -0.0 -0.0 -0.0 1 False False
1766.705 3.7120742797851562 -0.825463132267334 0.8429845015155237 -1.588269372979635 -1.5708134810077112 2.14127516746521 0.0 0.0 0.0 -0.0 -0.0 -0.0 1 False False
1766.7549999999999 3.7120370864868164 -0.825491265659668 0.8429515997516077 -1.588292738000387 -1.5708125273333948 2.1412723064422607 0.0 0.0 0.0 -0.0 -0.0 -0.0 1 False False
1766.8049999999998 3.7120981216430664 -0.8255038422397156 0.8429563681231897 -1.5882889233031214 -1.5707891623126429 2.141226291656494 0.0 0.0 0.0 -0.0 -0.0 -0.0 1 False False
1766.855 3.7120981216430664 -0.825482503776886 0.8429587523089808 -1.5883251629271449 -1.5707805792437952 2.141254425048828 0.0 0.0 0.0 -0.0 -0.0 -0.0 1 False False
1766.905 3.7120935916900635 -0.8254383963397522 0.8429763952838343 -1.5883494816222132 -1.570801083241598 2.141230821609497 0.0 0.0 0.0 -0.0 -0.0 -0.0 1 False False
1766.955 3.7120611667633057 -0.8255478900722046 0.8429845015155237 -1.5883056126036585 -1.570824925099508 2.14123797416687 0.0 0.0 0.0 -0.0 -0.0 -0.0 1 False False
1767.0049999999999 3.7120862007141113 -0.8255275052836915 0.8430054823504847 -1.588269372979635 -1.5707605520831507 2.141313076019287 0.0 0.0 0.0 -0.0 -0.0 -0.0 1 False False
1767.0549999999998 3.7120492458343506 -0.825491265659668 0.8429191748248499 -1.5882412395873011 -1.5707925001727503 2.141295909881592 0.0 0.0 0.0 -0.0 -0.0 -0.0 1 False False
1767.105 3.7120742797851562 -0.8254869741252442 0.8429721037494105 -1.5882932148375453 -1.570829216633932 2.1413004398345947 0.0 0.0 0.0 -0.0 -0.0 -0.0 1 False False
1767.155 3.712090492248535 -0.825478271847107 0.8430264631854456 -1.5882650814452113 -1.5707853476153772 2.141279697418213 0.0 0.0 0.0 -0.0 -0.0 -0.0 1 False False
1767.205 3.7120449542999268 -0.8255316776088257 0.8429430166827601 -1.5883013210692347 -1.570845905934469 2.141313076019287 8.45465692691505e-05 0.0 0.0 -0.0 -0.0 -0.0 1 False False
1767.2549999999999 3.712045907974243 -0.825405017738678 0.8429845015155237 -1.5882774792113246 -1.5708416144000452 2.141275405883789 2.5247421945095994e-05 0.0 0.0 -0.0 -0.0 -0.0 1 False False
1767.3049999999998 3.7120580673217773 -0.8255037826350708 0.8429721037494105 -1.5882932148375453 -1.570772949849264 2.141254425048828 1.4839970390312374e-05 0.0 0.0 -0.0 -0.0 -0.0 1 False False
1767.355 3.7121036052703857 -0.825478271847107 0.8429587523089808 -1.5882765255370082 -1.5707724730121058 2.141270875930786 1.050831087923143e-05 0.0 0.0 -0.0 -0.0 -0.0 1 False False
1767.405 3.7120492458343506 -0.8254825633815308 0.8429678122149866 -1.588269372979635 -1.5708091894732874 2.141247034072876 0.0 0.0 0.0 -0.0 -0.0 -0.0 1 False False
1767.455 3.712094783782959 -0.8254696887782593 0.8429935614215296 -1.588297029534811 -1.5708168188678187 2.141258955001831 0.0 0.0 0.0 -0.0 -0.0 -0.0 1 False False
1767.5049999999999 3.7120699882507324 -0.8255027693561097 0.8429887930499476 -1.5883170566954554 -1.5708048979388636 2.1412265300750732 0.0 0.0 0.0 -0.0 -0.0 -0.0 1 False False
1767.5549999999998 3.71207857131958 -0.8254631918719788 0.8429887930499476 -1.5883094273009242 -1.5707686583148401 2.141214609146118 0.0 0.0 0.0 -0.0 -0.0 -0.0 1 False False
1767.605 3.7120981216430664 -0.8255037826350708 0.8429887930499476 -1.588269372979635 -1.5707891623126429 2.141279697418213 0.0 0.0 0.0 -0.0 -0.0 -0.0 1 False False
1767.655 3.7120416164398193 -0.8255199950984498 0.8429887930499476 -1.5882207355894984 -1.5708048979388636 2.1412765979766846 0.0 0.0 0.0 -0.0 -0.0 -0.0 1 False False
1767.705 3.712062358856201 -0.825491265659668 0.8429887930499476 -1.5882889233031214 -1.5708087126361292 2.141267776489258 0.0 0.0 0.0 -0.0 -0.0 -0.0 1 False False
1767.7549999999999 3.712110996246338 -0.8254620593837281 0.8429802099810999 -1.5883013210692347 -1.5707891623126429 2.141263484954834 0.0 0.0 0.0 -0.0 -0.0 -0.0 1 False False
1767.8049999999998 3.7120656967163086 -0.8254780334285279 0.8429845015155237 -1.5883056126036585 -1.5707929770099085 2.141238212585449 0.0 0.0 0.0 -0.0 -0.0 -0.0 1 False False
1767.855 3.7120981216430664 -0.8255155247500916 0.8429721037494105 -1.5883251629271449 -1.570784870778219 2.1413702964782715 0.0 0.0 0.0 -0.0 -0.0 -0.0 1 False False
1767.905 3.7120537757873535 -0.8254751128009339 0.8429473082171839 -1.5883170566954554 -1.5707843939410608 2.141270875930786 0.0 0.0 0.0 -0.0 -0.0 -0.0 1 False False
1767.955 3.7120537757873535 -0.825478271847107 0.8429606596576136 -1.5882889233031214 -1.5708087126361292 2.141279697418213 0.0 0.0 0.0 -0.0 -0.0 -0.0 1 False False
1768.0049999999999 3.7120089530944824 -0.8254950803569336 0.8429721037494105 -1.588280817071432 -1.5707886854754847 2.141340970993042 0.0 0.0 0.0 -0.0 -0.0 -0.0 1 False False
1768.0549999999998 3.7121143341064453 -0.8254954975894471 0.8429930845843714 -1.5882765255370082 -1.570829216633932 2.141295909881592 0.0 0.0 0.0 -0.0 -0.0 -0.0 1 False False
1768.105 3.71201229095459 -0.8255447310260315 0.8430255095111292 -1.5882817707457484 -1.5708168188678187 2.141263484954834 0.0 0.0 0.0 -0.0 -0.0 -0.0 1 False False
1768.155 3.7120537757873535 -0.8255361479571839 0.8429721037494105 -1.5883094273009242 -1.570829216633932 2.1412882804870605 0.0 0.0 0.0 -0.0 -0.0 -0.0 1 False False
1768.205 3.712090492248535 -0.825463132267334 0.8429930845843714 -1.588269372979635 -1.570784870778219 2.141287088394165 0.0 0.0 0.0 -0.0 -0.0 -0.0 1 False False
1768.2549999999999 3.7120819091796875 -0.8255285185626526 0.8429802099810999 -1.5883165798582972 -1.5707767645465296 2.141291618347168 0.0 0.0 0.0 -0.0 -0.0 -0.0 1 False False
1768.3049999999998 3.712094783782959 -0.8254950803569336 0.8429930845843714 -1.5882774792113246 -1.5707767645465296 2.1412720680236816 0.0 0.0 0.0 -0.0 -0.0 -0.0 1 False False
1768.355 3.712111234664917 -0.8254707616618653 0.8429887930499476 -1.5882894001402796 -1.5708168188678187 2.141312837600708 0.0 0.0 6.974251105476754e-23 -0.0 -0.0 -0.0 1 False False
1768.405 3.7120611667633057 -0.8254535359195252 0.8429721037494105 -1.5882569752135218 -1.5708373228656214 2.141312837600708 0.0 0.0 0.0 -0.0 -0.0 -0.0 1 False False
1768.455 3.7120981216430664 -0.8254416149905701 0.8429763952838343 -1.588273664514059 -1.570784870778219 2.141312837600708 0.0 0.0 0.0 -0.0 -0.0 -0.0 1 False False
1768.5049999999999 3.71207332611084 -0.8255847257426758 0.8430126349078577 -1.5883013210692347 -1.570784870778219 2.1412997245788574 0.0 0.0 0.0 -0.0 -0.0 -0.0 1 False False
1768.5549999999998 3.7120981216430664 -0.8255155843547364 0.8429802099810999 -1.588273664514059 -1.5708611647235315 2.141263484954834 0.0 0.0 0.0 -0.0 -0.0 -0.0 1 False False
1768.605 3.712135076522827 -0.8255037826350708 0.8429802099810999 -1.588297506371969 -1.5707925001727503 2.1413002014160156 2.1891098631597546e-21 0.0 0.0 -0.0 -0.0 -0.0 1 False False
1768.655 3.7121024131774902 -0.8254750531962891 0.8429806868182581 -1.5883094273009242 -1.5708048979388636 2.141270875930786 0.0 0.0 0.0 -0.0 -0.0 -0.0 1 False False
1768.705 3.7121026515960693 -0.8254708212665101 0.8429396788226526 -1.5882774792113246 -1.570813004170553 2.141287088394165 0.0 -2.9986354111583013e-12 0.0 -0.0 -0.0 -0.0 1 False False
1768.7549999999999 3.712045669555664 -0.8254950803569336 0.8429721037494105 -1.5882889233031214 -1.5707686583148401 2.141279697418213 0.0 0.0 0.0 -0.0 -0.0 -0.0 1 False False
1768.8049999999998 3.712123394012451 -0.82545359552417 0.8429887930499476 -1.5883013210692347 -1.5708211104022425 2.141308546066284 0.0 0.0 0.0 -0.0 -0.0 -0.0 1 False False
1768.855 3.7120907306671143 -0.8254869741252442 0.8429649511920374 -1.588269372979635 -1.5707648436175745 2.1412546634674072 0.0 0.0 0.0 -0.0 -0.0 -0.0 1 False False
1768.905 3.7120816707611084 -0.8254825633815308 0.8430092970477503 -1.5882889233031214 -1.5708048979388636 2.141267776489258 0.0 0.0 0.0 -0.0 -0.0 -0.0 1 False False
1768.955 3.7120652198791504 -0.8255123060992737 0.8429759184466761 -1.5883413753905238 -1.5707886854754847 2.141251564025879 0.0 0.0 0.0 -0.0 -0.0 -0.0 1 False False
1769.0049999999999 3.7120907306671143 -0.8254792851260682 0.8429678122149866 -1.5882731876769007 -1.5708091894732874 2.141247272491455 0.0 0.0 0.0 -0.0 -0.0 -0.0 1 False False
1769.0549999999998 3.7120535373687744 -0.8254869741252442 0.8429930845843714 -1.5882774792113246 -1.5707686583148401 2.141312837600708 0.0 0.0 0.0 -0.0 -0.0 -0.0 1 False False
1769.105 3.7120652198791504 -0.8255362075618287 0.8429520765887659 -1.5882331333556117 -1.5708087126361292 2.1412763595581055 0.0 0.0 0.0 -0.0 -0.0 -0.0 1 False False
1769.155 3.7120490074157715 -0.8254954975894471 0.8429802099810999 -1.5883056126036585 -1.570801083241598 2.1412882804870605 0.0 0.0 0.0 -0.0 -0.0 -0.0 1 False False
1769.205 3.712078809738159 -0.8255112928203125 0.8430092970477503 -1.5882774792113246 -1.5708254019366663 2.141275405883789 0.0 0.0 0.0 -0.0 -0.0 -0.0 1 False False
1769.2549999999999 3.712045907974243 -0.8254740995219727 0.8429845015155237 -1.5882774792113246 -1.5708087126361292 2.1412665843963623 0.0 0.0 0.0 -0.0 -0.0 -0.0 1 False False
1769.3049999999998 3.7120816707611084 -0.8254136008075257 0.8429563681231897 -1.5883375606932582 -1.570784870778219 2.141312837600708 0.0 0.0 0.0 -0.0 -0.0 -0.0 1 False False
1769.355 3.7120742797851562 -0.825463132267334 0.8430054823504847 -1.588269372979635 -1.5708091894732874 2.1412429809570312 0.0 0.0 0.0 -0.0 -0.0 -0.0 1 False False
1769.405 3.7120742797851562 -0.8254825633815308 0.8430054823504847 -1.5882889233031214 -1.5708168188678187 2.1412546634674072 7.871814489135431e-08 0.0 0.0 -0.0 -0.0 -3.653898005622427e-24 1 False False
1769.455 3.712078809738159 -0.8254417341998597 0.8429349104510706 -1.588313718835348 -1.5708335081683558 2.141263484954834 0.0 0.0 0.0 -0.0 -0.0 -5.5491419187262756e-43 1 False False
1769.5049999999999 3.7120323181152344 -0.8254494828036805 0.8429630438434046 -1.5883251629271449 -1.570829216633932 2.141275405883789 0.0 0.0 0.0 -0.0 -0.0 -0.0 1 False False
1769.5549999999998 3.7120862007141113 -0.8254909080317994 0.8429563681231897 -1.5882846317686976 -1.570784870778219 2.141308546066284 0.0 0.0 0.0 -0.0 -0.0 -0.0 1 False False
1769.605 3.7120652198791504 -0.8255199950984498 0.8429845015155237 -1.5882445774474085 -1.5708044211017054 2.141291618347168 0.0 0.0 0.0 -0.0 -0.0 -0.0 1 False False
1769.655 3.7120578289031982 -0.825457827453949 0.8429845015155237 -1.588292738000387 -1.5708048979388636 2.14127516746521 0.0 0.0 0.0 -0.0 -0.0 -0.0 1 False False
1769.705 3.712045669555664 -0.825487033729889 0.8430054823504847 -1.588252683679098 -1.5707805792437952 2.1413137912750244 0.0 0.0 0.0 -0.0 -0.0 -0.0 1 False False
1769.7549999999999 3.7120578289031982 -0.8254907888225098 0.8429802099810999 -1.5882898769774378 -1.5707891623126429 2.141287088394165 0.0 0.0 0.0 -0.0 -0.0 -0.0 1 False False
1769.8049999999998 3.7120697498321533 -0.8254502576640625 0.8429845015155237 -1.588297029534811 -1.5708091894732874 2.14127516746521 0.0 0.0 0.0 -0.0 -0.0 -0.0 1 False False
1769.855 3.7120907306671143 -0.8254374426654358 0.8429935614215296 -1.5883094273009242 -1.5708006064044397 2.141296148300171 0.0 0.0 0.0 -0.0 -0.0 -0.0 1 True False
1769.905 3.712036609649658 -0.8254621785930176 0.8429845015155237 -1.5882731876769007 -1.5708044211017054 2.141230583190918 0.0 0.0 0.0 -0.0 -0.0 -0.0 1 True False
1769.955 3.712106943130493 -0.8254621189883729 0.8429721037494105 -1.5883056126036585 -1.5707967917071741 2.141296148300171 0.0 0.0 0.0 -0.0 -0.0 -0.0 1 True False
1770.0049999999999 3.7120652198791504 -0.8254869741252442 0.8429349104510706 -1.5883127651610316 -1.5707805792437952 2.141263246536255 0.0 0.0 0.0 -0.0 -0.0 -0.0 1 True False
1770.0549999999998 3.7120652198791504 -0.8255123060992737 0.8429845015155237 -1.5882731876769007 -1.570813004170553 2.14123797416687 0.0 0.0 0.0 -0.0 -0.0 -0.0 1 True False
1770.105 3.7120907306671143 -0.825482503776886 0.8429349104510706 -1.5882731876769007 -1.5707724730121058 2.141284227371216 0.0 0.0 0.0 -0.0 -0.0 -0.0 1 True False
1770.155 3.7121100425720215 -0.8254954379848023 0.8429673353778284 -1.5882889233031214 -1.5708168188678187 2.141284227371216 0.0 0.0 0.0 -0.0 -0.0 -0.0 1 True False
1770.205 3.7120907306671143 -0.8254459065249939 0.8429887930499476 -1.5883575878539027 -1.570784870778219 2.1412994861602783 0.0 0.0 0.0 -0.0 -0.0 -0.0 1 True False
1770.2549999999999 3.7121267318725586 -0.8255232733539124 0.8429439703570765 -1.5882774792113246 -1.5707805792437952 2.141308546066284 1.814869051486312e-06 0.0 0.0 -0.0 -0.0 0.0004725739418063313 1 True False
1770.3049999999998 3.7121429443359375 -0.825487033729889 0.8430126349078577 -1.5882889233031214 -1.5708168188678187 2.141226053237915 0.0 0.0 0.0 -0.0 -0.0 -1.8727112915950528e-10 1 True False
1770.355 3.7120862007141113 -0.825445370083191 0.8429563681231897 -1.588280817071432 -1.5708087126361292 2.141235113143921 0.0 0.0 0.0 -0.0 -0.0 3.003917845489923e-05 1 True False
1770.405 3.7120816707611084 -0.8255320352366944 0.8429721037494105 -1.5882932148375453 -1.570784870778219 2.141247034072876 0.0 0.0 0.0 -0.0 0.0001260790741071105 1.2951829389326185e-15 1 True False
1770.455 3.712062358856201 -0.8255365651896973 0.842971150075094 -1.5882846317686976 -1.570824925099508 2.1412603855133057 0.0 0.0 0.0 -0.0 1.9144384419200913e-22 1.9673863240628762e-34 1 True False
1770.5049999999999 3.7133514881134033 -0.826176182632782 0.8438394705401819 -1.5886723003783167 -1.570756737385885 2.142514228820801 0.06048082932829857 -0.029578305780887604 0.041997797787189484 -0.012406683526933193 2.9079745731668604e-41 0.061158549040555954 1 True False
1770.5549999999998 3.7180581092834473 -0.828388051395752 0.8475354353534144 -1.589860578576559 -1.570784870778219 2.147366762161255 0.13430504500865936 -0.06424292922019958 0.10097169131040573 -0.0331379733979702 0.0 0.12982961535453796 1 True False
1770.605 3.7264811992645264 -0.8326519888690491 0.8541715780841272 -1.5922180614867152 -1.570784870778219 2.155655860900879 0.20150409638881683 -0.10521683096885681 0.1553441435098648 -0.05595894530415535 5.5669733711738445e-08 0.19452036917209625 1 True False
1770.655 3.7382893562316895 -0.8388763827136536 0.8632763067828577 -1.5951601467528285 -1.5707886854754847 2.167459011077881 0.268150269985199 -0.13356910645961761 0.21743443608283997 -0.07014469057321548 8.456246088439146e-27 0.2695223093032837 1 True False
1770.705 3.7535400390625 -0.8466857236674805 0.8751562277423304 -1.5993157825865687 -1.5707805792437952 2.182607889175415 0.3377511501312256 -0.17306560277938843 0.2604881525039673 -0.09610943496227264 8.553569932701066e-05 0.3369901180267334 1 True False
1770.7549999999999 3.7722835540771484 -0.856281654243805 0.8897431532489222 -1.6040431461729945 -1.5708211104022425 2.201401948928833 0.4086771309375763 -0.21273688971996307 0.3177887499332428 -0.10266245156526566 5.105958553031087e-05 0.40802887082099915 1 True False
1770.8049999999998 3.794389486312866 -0.8677971524051209 0.9071324507342737 -1.610002180139059 -1.5708254019366663 2.223752498626709 0.4737764894962311 -0.24495205283164978 0.3695922791957855 -0.12292046844959259 -9.917921852320433e-05 0.4747491180896759 1 True False
1770.855 3.8202948570251465 -0.8809650105289002 0.9270303885089319 -1.6167880497374476 -1.5707319418536585 2.249424457550049 0.5538690090179443 -0.281572163105011 0.43143489956855774 -0.14112626016139984 0.0004285990144126117 0.5478723645210266 1 True False
1770.905 3.849459648132324 -0.8959980768016358 0.9498499075519007 -1.6243826351561488 -1.5708254019366663 2.278590202331543 0.6259753704071045 -0.3176541030406952 0.47772127389907837 -0.1513926386833191 0.000979563221335411 0.6205384731292725 1 True False
1770.955 3.88203501701355 -0.9128216069987793 0.9750993887530726 -1.633176942864889 -1.5708168188678187 2.311276912689209 0.691601574420929 -0.35548922419548035 0.5348944067955017 -0.1893751621246338 -6.827042670920491e-05 0.6882484555244446 1 True False
1771.0049999999999 3.918303966522217 -0.9311259549907227 1.0032179991351526 -1.6428200207152308 -1.570829216633932 2.347562551498413 0.7618001699447632 -0.3896734416484833 0.587517261505127 -0.20497775077819824 -5.561590796787641e-07 0.7546510696411133 1 True False
1771.0549999999998 3.95798659324646 -0.9516399067691346 1.0339120070086878 -1.6532021961607875 -1.570772949849264 2.3872499465942383 0.8278319835662842 -0.4296836853027344 0.6428160667419434 -0.21019382774829865 -8.448071671383188e-26 0.817102313041687 1 True False
1771.105 4.001246452331543 -0.9737096589854737 1.0676410833941858 -1.6645971737303675 -1.570784870778219 2.4303417205810547 0.8929241895675659 -0.4603428840637207 0.692622721195221 -0.24426892399787903 9.343873452749563e-10 0.8983010649681091 1 True False
1771.155 4.04788875579834 -0.9976434272578736 1.10388690630068 -1.6768833599486292 -1.5708087126361292 2.477231502532959 0.9698169231414795 -0.49777668714523315 0.7494509816169739 -0.26238155364990234 1.4193359799692909e-28 0.9675815105438232 1 True False
1771.205 4.0979108810424805 -1.023291901951172 1.1427810827838343 -1.6901947460570277 -1.5708325544940394 2.5271124839782715 1.0379682779312134 -0.5331980586051941 0.8111229538917542 -0.2657604217529297 0.0 1.042782187461853 1 True False
1771.2549999999999 4.150284767150879 -1.0500821632197876 1.1832941214190882 -1.7040487728514613 -1.5707886854754847 2.579474687576294 1.041444182395935 -0.5373265743255615 0.8151030540466309 -0.2862239181995392 -8.499100945594251e-13 1.037670373916626 1 True False
1771.3049999999998 4.202727317810059 -1.0769833785346528 1.2239702383624476 -1.7178698978819789 -1.5707691351519983 2.631965160369873 1.0504297018051147 -0.5448800325393677 0.8124392628669739 -0.2935868501663208 -7.589763450436416e-18 1.04302978515625 1 True False
1771.355 4.255068778991699 -1.1038461190513154 1.2647932211505335 -1.7315360508360804 -1.570801083241598 2.684206247329712 1.047016978263855 -0.540297269821167 0.8105347752571106 -0.27758312225341797 -0.00017889538139570504 1.0482650995254517 1 True False
1771.405 4.307463645935059 -1.1307598811439057 1.3053315321551722 -1.745434423486227 -1.5708087126361292 2.736602783203125 1.0445185899734497 -0.5311463475227356 0.8103829026222229 -0.28357502818107605 2.203766316157651e-19 1.0414011478424072 1 True False
1771.455 4.35977029800415 -1.157486693268158 1.3459394613849085 -1.75921692470693 -1.5707605520831507 2.7891077995300293 1.0499014854431152 -0.530529797077179 0.8171703815460205 -0.2864372432231903 0.0002398637734586373 1.0482869148254395 1 True False
1771.5049999999999 4.412125587463379 -1.1842829448035737 1.3867223898517054 -1.7731310329832972 -1.5708048979388636 2.8412530422210693 1.0484397411346436 -0.5381719470024109 0.8117480874061584 -0.2793515920639038 7.972122790128863e-21 1.0579965114593506 1 True False
1771.5549999999998 4.462454795837402 -1.2101957362941285 1.4257763067828577 -1.786375185052389 -1.5708368460284632 2.8918042182922363 0.9687814116477966 -0.5018597841262817 0.7620096206665039 -0.25532859563827515 -0.0004567753348965198 0.9677885174751282 1 True False
1771.605 4.50949764251709 -1.2341731947711487 1.4620865027057093 -1.7987381420531214 -1.570772949849264 2.9387431144714355 0.9080564975738525 -0.4670432209968567 0.6986954212188721 -0.24522079527378082 7.557313663753007e-10 0.907977819442749 1 True False
1771.655 4.55299711227417 -1.2564998132041474 1.4959691206561487 -1.8102723560728968 -1.5707805792437952 2.9822940826416016 0.8341802954673767 -0.42308536171913147 0.6451378464698792 -0.22675633430480957 0.0001486918336013332 0.8285025954246521 1 True False
1771.705 4.592952251434326 -1.2769727271846314 1.527001682912008 -1.8208242855467738 -1.5707648436175745 3.0219738483428955 0.7647190093994141 -0.39008164405822754 0.5993211269378662 -0.2178235501050949 6.449517309103925e-11 0.7691248655319214 1 True False
1771.7549999999999 4.6294732093811035 -1.2956546407989045 1.5551579634295862 -1.8304273090758265 -1.5707805792437952 3.0586185455322266 0.6964690089225769 -0.35542482137680054 0.5436910390853882 -0.18293897807598114 0.002389108994975686 0.7025958299636841 1 True False
1771.8049999999998 4.66251802444458 -1.312738375072815 1.5809877554522913 -1.839038988152975 -1.5707805792437952 3.091587543487549 0.6295022964477539 -0.31964877247810364 0.48489999771118164 -0.15608073770999908 -1.7470640489847256e-09 0.6350153088569641 1 True False
1771.855 4.692033290863037 -1.3278141480735322 1.6038420836078089 -1.8469897709288539 -1.570772949849264 3.1211307048797607 0.5583299994468689 -0.2879951298236847 0.4384528398513794 -0.1417894810438156 -4.301395165384747e-06 0.5612342953681946 1 True False
1771.905 4.717978000640869 -1.3412308108857651 1.6238725821124476 -1.853708406487936 -1.5707967917071741 3.1469566822052 0.4885914921760559 -0.25216445326805115 0.37693583965301514 -0.1316319704055786 -3.7580197385977954e-05 0.4991343915462494 1 True False
1771.955 4.740454196929932 -1.3526572597077866 1.6416690985309046 -1.8595153294005335 -1.5708449522601526 3.1697826385498047 0.41876351833343506 -0.20915961265563965 0.3205128610134125 -0.10608997941017151 9.018863780796416e-12 0.40943077206611633 1 True False
1772.0049999999999 4.7594380378723145 -1.3623888057521363 1.6561763922320765 -1.8648678265013636 -1.5708087126361292 3.188746929168701 0.34720200300216675 -0.17608119547367096 0.2720697522163391 -0.0874965712428093 1.0603936289044213e-06 0.3444537818431854 1 True False
1772.0549999999998 4.775154113769531 -1.3703860503486176 1.6684630552874964 -1.86895813564443 -1.5708211104022425 3.2042250633239746 0.2714090943336487 -0.14208510518074036 0.21032007038593292 -0.07681597024202347 1.610740692965697e-25 0.2803058326244354 1 True False
1772.105 4.787045955657959 -1.3765601974776764 1.6776507536517542 -1.8720270595946253 -1.5707686583148401 3.216320037841797 0.20737393200397491 -0.10526653379201889 0.16089871525764465 -0.05057065933942795 -1.2225332508483677e-12 0.20552527904510498 1 True False
1772.155 4.795709133148193 -1.3809213203242798 1.6843865553485315 -1.8743649921812953 -1.570801083241598 3.224940299987793 0.13784512877464294 -0.07016048580408096 0.10580425709486008 -0.04797228425741196 -1.6834162952505949e-09 0.13796377182006836 1 True False
1772.205 4.8007493019104 -1.3835497063449402 1.6883400122271937 -1.8757006130614222 -1.5707648436175745 3.2300140857696533 0.06788713485002518 -0.032925862818956375 0.05303046107292175 -0.014710080809891224 -2.5571132798725633e-28 0.06870754808187485 1 True False
1772.2549999999999 4.80239200592041 -1.3843865555575867 1.6895273367511194 -1.8759619198241175 -1.5707929770099085 3.2314705848693848 -0.012959887273609638 0.0032686819322407246 -0.0034649560693651438 -2.5139283934549894e-06 -0.0 -0.008044200018048286 1 True False
1772.455 4.802363872528076 -1.3739079248956223 1.7077363173114222 -1.9047476253905238 -1.5707724730121058 3.231581211090088 0.0004728927742689848 0.10052581131458282 0.18313094973564148 -0.2856534719467163 1.0098723350893124e-06 0.00017728346574585885 1 True False
1772.5049999999999 4.802335262298584 -1.3680428576520463 1.7178686300860804 -1.920485635797018 -1.5707767645465296 3.231518030166626 0.00015358597738668323 0.13028311729431152 0.2241620421409607 -0.35031867027282715 3.407441387357521e-15 0.0001136598875746131 1 True False
1772.5549999999998 4.802342891693115 -1.3609538984349747 1.7302106062518519 -1.9399634800352992 -1.5707891623126429 3.2315478324890137 0.00013983953977003694 0.1563635766506195 0.2671752870082855 -0.4212414622306824 5.1759100932468105e-34 8.688220987096429e-05 1 True False
1772.605 4.802359580993652 -1.352620707159378 1.744458023701803 -1.9628530941405238 -1.5707724730121058 3.2315855026245117 0.0001374360144836828 0.17973993718624115 0.30500563979148865 -0.49106258153915405 0.0 2.7797131263440633e-10 1 True False
1772.655 4.802298545837402 -1.3427674931338807 1.7613752524005335 -1.9890185795226039 -1.570784870778219 3.231527090072632 7.79320762376301e-05 0.2044604867696762 0.35469508171081543 -0.5657891631126404 0.0 4.2223919581875625e-29 1 True False
1772.705 4.802338123321533 -1.332997427587845 1.7782262007342737 -2.0162960491576136 -1.570784870778219 3.231576681137085 7.937313785078004e-05 0.184864342212677 0.3164917528629303 -0.5177168846130371 0.0 0.0 1 True False
1772.7549999999999 4.802359580993652 -1.324215756063797 1.793448273335592 -2.0399233303465785 -1.5708211104022425 3.231538772583008 6.610048876609653e-05 0.16290883719921112 0.2766263484954834 -0.4392632842063904 0.0 0.0 1 True False
1772.8049999999998 4.80232572555542 -1.3166964513114472 1.8059819380389612 -2.0602642498412074 -1.5707767645465296 3.231510877609253 -2.6699569204841067e-12 0.13540220260620117 0.23519177734851837 -0.36272233724594116 0.0 0.0 1 True False
1772.855 4.80232572555542 -1.3105549377254029 1.8165958563434046 -2.077055116693014 -1.570801083241598 3.231546401977539 0.0 0.10775111615657806 0.1927616000175476 -0.3138888478279114 0.0 0.0 1 True False
1772.905 4.802313804626465 -1.3056903642467041 1.825275723134176 -2.09023441890859 -1.5708006064044397 3.231494665145874 0.0 0.0833825096487999 0.1486492156982422 -0.24339662492275238 0.0 0.0 1 True False
1772.955 4.8023681640625 -1.3021696966937562 1.8312462011920374 -2.1000801525511683 -1.570784870778219 3.2315421104431152 0.0 0.06054046377539635 0.10275264829397202 -0.1609819382429123 0.0 0.0 1 True False
1773.0049999999999 4.802387714385986 -1.2998378735831757 1.835177246724264 -2.1063295803465785 -1.5708087126361292 3.2315597534179688 0.0 0.032897964119911194 0.05711541324853897 -0.08877474814653397 0.0 9.414676341455046e-20 1 True False
1773.0549999999998 4.80232572555542 -1.2987211507609864 1.8370841185199183 -2.109098096887106 -1.5708087126361292 3.231550931930542 0.0 0.007100256159901619 0.015776176005601883 -0.029083603993058205 0.0 1.4300916445205312e-38 1 True False
1773.105 4.802375793457031 -1.2987573903850098 1.8371194044696253 -2.1092645130553187 -1.570801083241598 3.231581211090088 0.0 -3.2931228588495287e-07 -4.5399193996862045e-21 0.00012196748139103875 0.0 0.0 1 True False
1773.155 4.8022565841674805 -1.2987573903850098 1.8371270338641565 -2.109244485894674 -1.5707648436175745 3.2315316200256348 -4.6148102228471544e-08 7.751869270578027e-05 4.792079562321305e-05 1.2424217210593724e-09 0.0 0.0 1 True False
1773.205 4.802343368530273 -1.2987381976893921 1.8370688597308558 -2.1092525921263636 -1.5708406607257288 3.2315521240234375 0.0 0.00012432943913154304 5.403528848546557e-05 1.8872412618112774e-28 0.0 0.0 1 True False
1773.2549999999999 4.8023176193237305 -1.298683689241745 1.837184254323141 -2.1092363796629847 -1.5708087126361292 3.2315478324890137 0.0 0.0002372559392824769 0.00023051608877722174 -0.00014505123544950038 0.0 0.0 1 True False
1773.3049999999998 4.802301406860352 -1.2987120014480134 1.8371380011187952 -2.1093207798399867 -1.5707767645465296 3.2315564155578613 0.0 0.00016903180221561342 0.00029983179410919547 -0.00011264783825026825 0.0 0.0 1 True False
1773.355 4.802350997924805 -1.298691139822342 1.8372152487384241 -2.1092282734312953 -1.5707767645465296 3.2315597534179688 -2.298021304461201e-26 0.00023837317712605 0.0002561764558777213 -0.00010216474038315937 0.0 0.0 1 True False
1773.405 4.802379131317139 -1.298716501598694 1.8371871153460901 -2.109300752679342 -1.5707805792437952 3.2315685749053955 0.0 0.00013949768617749214 0.00015624136722180992 -0.00012394825171213597 0.0 0.0 1 True False
1773.455 4.802347660064697 -1.2987345916083832 1.8371904532061976 -2.1092969379820765 -1.5707648436175745 3.2315640449523926 0.0 0.00011002221435774118 6.945731001906097e-05 -0.00011735381849575788 0.0 0.0 1 True False
1773.5049999999999 4.802351951599121 -1.2987300914577027 1.8371828238116663 -2.1092525921263636 -1.570829216633932 3.231515407562256 0.0 7.658808317501098e-05 6.013592428644188e-05 -8.001182868611068e-05 0.0 0.0 1 True False
1773.5549999999998 4.802375793457031 -1.2986645561507721 1.8372018972979944 -2.109328886071676 -1.5707967917071741 3.2315597534179688 0.0 4.622588240091292e-38 1.0865198058761062e-33 -7.754530088277534e-05 0.0 0.0 1 True False
1773.605 4.802326679229736 -1.298697368507721 1.8371484915362757 -2.1093646488585414 -1.5708168188678187 3.2316057682037354 0.0 0.0 0.0 -7.108259465199706e-17 0.0 0.0 1 True False
1773.655 4.802321910858154 -1.2988519233516236 1.8370912710772913 -2.1094848118224085 -1.5708449522601526 3.231632709503174 0.0 8.046745236280073e-14 -0.001601679832674563 -0.0021760030649602413 0.0028127876576036215 0.0 1 True False
1773.705 4.802347660064697 -1.2987528902343293 1.8370750586139124 -2.1094676456847132 -1.570813004170553 3.23154354095459 0.0 0.00016564612451475114 -2.716495459619564e-18 -0.00014540058327838778 0.00014839453797321767 1.1542656111396647e-18 1 True False
1773.7549999999999 4.802301406860352 -1.2987648707679291 1.8370712439166468 -2.1094237766661585 -1.5707925001727503 3.231511116027832 0.0 0.00022566193365491927 -0.0 0.0008418753277510405 8.332353172590956e-05 1.7533321040131119e-37 1 True True
1773.8049999999998 4.80233097076416 -1.2988889974406739 1.8368633429156702 -2.108372827569479 -1.570772949849264 3.2315521240234375 0.0 -0.012179126031696796 -0.021095391362905502 0.04570717364549637 0.00010868402023334056 0.0 1 True True
1773.855 4.802379131317139 -1.3001126211932679 1.8346236387835901 -2.104783674279684 -1.5707529226886194 3.231518507003784 0.0 -0.04676075652241707 -0.0779590830206871 0.10496322065591812 0.00016134251200128347 0.0 1 True True
1773.905 4.802326679229736 -1.30288381994281 1.829883877431051 -2.097271581689352 -1.570772949849264 3.2315726280212402 0.0 -0.06722649186849594 -0.11748886853456497 0.17832785844802856 0.00010340690641896799 0.0 1 True True
1773.955 4.8023295402526855 -1.3071246308139344 1.8227136770831507 -2.08640255550527 -1.5707648436175745 3.231560707092285 0.0 -0.09185868501663208 -0.16244739294052124 0.26554495096206665 5.0364530324031875e-08 -3.1296498725907895e-10 1 True True
1774.0049999999999 4.802326679229736 -1.3123842936805268 1.8133896032916468 -2.0721150837340296 -1.5708373228656214 3.2315478324890137 0.0 -0.11515337973833084 -0.20988169312477112 0.331686407327652 1.863868170914884e-08 -4.7539474191322243e-29 1 True True
1774.0549999999998 4.802366733551025 -1.318911389713623 1.8022549788104456 -2.0541373691954554 -1.570784870778219 3.2315521240234375 0.0 -0.14203429222106934 -0.2434130758047104 0.37778404355049133 2.831220825873239e-27 -0.0 1 True True
1774.105 4.802362442016602 -1.3268096458962937 1.7888167540179651 -2.0327464542784632 -1.5708087126361292 3.231494903564453 0.0 -0.17196182906627655 -0.2873515188694 0.4564671516418457 0.0 -0.0 1 True True
1774.155 4.802325248718262 -1.3359708350947876 1.7729890982257288 -2.007916112939352 -1.5708087126361292 3.2315726280212402 0.0 -0.1966424435377121 -0.3331282138824463 0.5241290926933289 0.0 -0.0 1 True True
1774.205 4.802383899688721 -1.3461506378701706 1.755446736012594 -1.9803368053831996 -1.5707925001727503 3.2315726280212402 0.0 -0.1974627673625946 -0.3394085764884949 0.5442734360694885 0.0 -0.0 1 True True
1774.2549999999999 4.80238676071167 -1.3553132724813004 1.7397635618792933 -1.9550839863219203 -1.57074481645693 3.2315683364868164 0.0 -0.1684463918209076 -0.29511430859565735 0.4694824516773224 -7.270753485499881e-06 -0.0 1 True True
1774.3049999999998 4.802308559417725 -1.363316537146904 1.7259400526629847 -1.9333178005614222 -1.5707686583148401 3.2315521240234375 0.0 -0.150340735912323 -0.2527488172054291 0.40019625425338745 -1.1044290317441863e-24 -0.0 1 True True
1774.355 4.802371501922607 -1.3699985605529328 1.714505974446432 -1.9151584110655726 -1.5707925001727503 3.2315521240234375 0.0 -0.11875157058238983 -0.20261250436306 0.3273885250091553 -1.6815581571897805e-43 -1.3360033565557039e-11 1 True True
1774.405 4.802334308624268 -1.3754356068423768 1.7052157560931605 -1.9003259144225062 -1.5708449522601526 3.231522798538208 0.0 -0.09542698413133621 -0.16908378899097443 0.2769737243652344 -0.0 -2.0293928194064987e-30 1 True True
1774.455 4.802308559417725 -1.379601613884308 1.6981151739703577 -1.888958593408102 -1.570824925099508 3.2315402030944824 0.0 -0.0698932409286499 -0.12254446744918823 0.18877100944519043 -0.0 -0.0 1 True True
1774.5049999999999 4.802384853363037 -1.3824221354774018 1.6930869261371058 -1.8814240894713343 -1.570801083241598 3.2315521240234375 0.0 -0.045092999935150146 -0.07675715535879135 0.12705937027931213 -0.0 -0.0 1 True True
1774.5549999999998 4.802346706390381 -1.3840262603810807 1.6902607123004358 -1.8770624599852503 -1.570784870778219 3.231515407562256 0.0 -0.021007487550377846 -0.03511597588658333 0.05121834576129913 -0.0 -0.0 1 True True
1774.605 4.8022236824035645 -1.384303243165352 1.6896966139422815 -1.8761888943114222 -1.570784870778219 3.2313625812530518 -0.028322802856564522 0.0012394585646688938 -0.0009568430250510573 0.0012887722114101052 -0.0 -0.021800603717565536 1 True True
1774.655 4.799661636352539 -1.3840087217143555 1.6890037695514124 -1.876005312005514 -1.5707486311541956 3.2287545204162598 -0.08546783030033112 0.011053650639951229 -0.016827929764986038 0.01035795547068119 -0.0 -0.08708718419075012 1 True True
1774.705 4.7932562828063965 -1.3831197631410141 1.6878660360919397 -1.8755728207030238 -1.5707882086383265 3.222583770751953 -0.15518023073673248 0.021390605717897415 -0.03113832138478756 0.007793591823428869 -0.0001758139842422679 -0.1580805629491806 1 True True
1774.7549999999999 4.783735752105713 -1.3816998910954972 1.686026398335592 -1.875023981133932 -1.5707843939410608 3.21277117729187 -0.22977963089942932 0.034003209322690964 -0.0466184988617897 0.012204599566757679 -0.00010916577593889087 -0.22452312707901 1 True True
1774.8049999999998 4.77039909362793 -1.3797580760768433 1.68323260942568 -1.8743239841856898 -1.57074481645693 3.199766159057617 -0.2962069809436798 0.04573637247085571 -0.05980401113629341 0.01836572214961052 -2.0184495951980352e-05 -0.29868149757385254 1 True True
1774.855 4.753891468048096 -1.37723662078891 1.6799348036395472 -1.8734451733031214 -1.5708335081683558 3.1830077171325684 -0.3656650185585022 0.05552569776773453 -0.06996796280145645 0.0186912938952446 -0.00010673471115296707 -0.36486679315567017 1 True True
1774.905 4.733515739440918 -1.3742723923972626 1.6758058706866663 -1.872479101220602 -1.5708296934710901 3.162860631942749 -0.4364525377750397 0.061020899564027786 -0.0924404188990593 0.01726493425667286 -5.7314882724313065e-05 -0.43717873096466064 1 True True
1774.955 4.710048675537109 -1.3707806032947083 1.6712458769427698 -1.8711677990355433 -1.5707648436175745 3.1393637657165527 -0.5081307888031006 0.07622069865465164 -0.0998016893863678 0.029925614595413208 -8.876963875081856e-07 -0.5142565965652466 1 True True
1775.0049999999999 4.682993412017822 -1.366882787351944 1.6657050291644495 -1.8698278866209925 -1.5707572142230433 3.1121037006378174 -0.575922966003418 0.08577778935432434 -0.11143867671489716 0.03009224124252796 -1.348412394505436e-25 -0.5710960626602173 1 True True
1775.0549999999998 4.652293682098389 -1.362296075826027 1.6594560782061976 -1.868106027642721 -1.5707605520831507 3.0815839767456055 -0.6437383890151978 0.09231306612491608 -0.1262684017419815 0.03730379790067673 -0.00023831870930735022 -0.6422166228294373 1 True True
1775.105 4.618269443511963 -1.3573186856559296 1.652762238179342 -1.8661853275694789 -1.5707929770099085 3.047477960586548 -0.7150644659996033 0.10477068275213242 -0.13936012983322144 0.03599764406681061 -3.2336680305888876e-05 -0.7119876146316528 1 True True
1775.155 4.58050012588501 -1.3516593438437958 1.6451824347125452 -1.86430086712026 -1.5707362333880823 3.0099151134490967 -0.781306803226471 0.11644834280014038 -0.15002764761447906 0.04159822687506676 -8.772245564614423e-06 -0.7947601675987244 1 True True
1775.205 4.539403438568115 -1.3455975216678162 1.6369784514056605 -1.8621264896788539 -1.570772949849264 2.9686279296875 -0.8524901270866394 0.1245010644197464 -0.16679483652114868 0.04360974207520485 -5.244944922822015e-09 -0.8515232801437378 1 True True
1775.2549999999999 4.494978904724121 -1.3390607696822663 1.6278942267047327 -1.859645505944723 -1.5707967917071741 2.9240846633911133 -0.9295775294303894 0.1350356936454773 -0.18474097549915314 0.05684617534279823 -0.0017702922923490405 -0.9195553064346313 1 True True
1775.3049999999998 4.446832180023193 -1.3320364964059372 1.6184409300433558 -1.8572718105711878 -1.5708048979388636 2.8759992122650146 -0.992605984210968 0.1477435678243637 -0.1986267864704132 0.04530733823776245 -3.2493259708459163e-19 -0.9999104738235474 1 True True
1775.355 4.3953938484191895 -1.3244925004294892 1.6081321875201624 -1.8545729122557582 -1.5708087126361292 2.824640989303589 -1.0413151979446411 0.15197329223155975 -0.21460574865341187 0.05928782746195793 0.00016093364683911204 -1.0449491739273071 1 True True
1775.405 4.3431220054626465 -1.3166542214206238 1.5975616613971155 -1.8515955410399378 -1.570813004170553 2.7721216678619385 -1.0517340898513794 0.1561174839735031 -0.2086489051580429 0.04752321168780327 -0.0003648677375167608 -1.040915608406067 1 True True
1775.455 4.290744781494141 -1.3089275521091004 1.5871618429767054 -1.8489796123900355 -1.5707805792437952 2.7198357582092285 -1.0447274446487427 0.15262651443481445 -0.21275503933429718 0.058147892355918884 0.00033454905496910214 -1.0499181747436523 1 True True
1775.5049999999999 4.238315105438232 -1.3013199728778382 1.5766342321978968 -1.8460413418211878 -1.5708335081683558 2.6675989627838135 -1.0468766689300537 0.15151171386241913 -0.21068206429481506 0.05994910001754761 -0.00017148662300314754 -1.0439244508743286 1 True True
1775.5549999999998 4.186030864715576 -1.2936552327922364 1.5660775343524378 -1.843365331689352 -1.5707925001727503 2.615082025527954 -1.052409052848816 0.15752331912517548 -0.21462619304656982 0.05633537471294403 0.00011482444097055122 -1.0440889596939087 1 True True
1775.605 4.133598327636719 -1.2858057779124756 1.555633846913473 -1.8405634365477503 -1.5707886854754847 2.5627365112304688 -1.0440336465835571 0.15801425278186798 -0.20078250765800476 0.0536763072013855 0.00032098518568091094 -1.0506749153137207 1 True True
1775.655 4.081261157989502 -1.2781656247428437 1.5451868216144007 -1.8377090893187464 -1.5708125273333948 2.5104944705963135 -1.0479986667633057 0.15000492334365845 -0.21151718497276306 0.05568690225481987 6.339706602050354e-19 -1.0459650754928589 1 True True
1775.705 4.028926372528076 -1.2705024641803284 1.5345919767962855 -1.8350135288634242 -1.570853058491842 2.4580209255218506 -1.0531541109085083 0.1530987173318863 -0.20668871700763702 0.048176512122154236 -8.410360896959901e-05 -1.0417667627334595 1 True True
1775.7549999999999 3.9764318466186523 -1.26279969633136 1.524257008229391 -1.8320752582945765 -1.5707925001727503 2.4056732654571533 -1.0436744689941406 0.15524466335773468 -0.21040809154510498 0.06482425332069397 -2.596688739347703e-19 -1.0490672588348389 1 True True
1775.8049999999998 3.9241602420806885 -1.2550124687007447 1.5136855284320276 -1.829477926293844 -1.5707772413836878 2.3534352779388428 -1.050048828125 0.15548692643642426 -0.20746088027954102 0.05340595170855522 -0.00035664314054884017 -1.043953776359558 1 True True
1775.855 3.8718652725219727 -1.2472226184657593 1.5031464735614222 -1.8266831837096156 -1.5708254019366663 2.3009932041168213 -1.0513899326324463 0.15402665734291077 -0.2127608060836792 0.054838936775922775 -1.2635361823767716e-22 -1.041672706604004 1 True True
1775.905 3.819474935531616 -1.239557759170868 1.4927390257464808 -1.8238736591734828 -1.5707929770099085 2.2485811710357666 -1.0461316108703613 0.1569337099790573 -0.20242004096508026 0.048771537840366364 0.00030866111046634614 -1.0501976013183594 1 True True
1775.955 3.7671689987182617 -1.2319719952395936 1.4822371641742151 -1.8211337528624476 -1.5708335081683558 2.1963298320770264 -1.046603798866272 0.15246428549289703 -0.21198782324790955 0.06055717170238495 2.0125994482238762e-19 -1.045220136642456 1 True True
1776.0049999999999 3.7147116661071777 -1.2241924566081543 1.4716241995440882 -1.8182593784727992 -1.5707648436175745 2.143946409225464 -1.0502312183380127 0.15661796927452087 -0.2067439705133438 0.06050312891602516 3.057141393395773e-38 -1.0433571338653564 1 True True
1776.0549999999998 3.6623637676239014 -1.216422752743103 1.4612157980548304 -1.8155847988524378 -1.570813004170553 2.0914831161499023 -1.046261191368103 0.1515323370695114 -0.20956484973430634 0.05803205445408821 0.0 -1.0507831573486328 1 True True
1776.105 3.6099910736083984 -1.2087464195540925 1.4507463614093226 -1.8128248653807582 -1.5707772413836878 2.0392847061157227 -1.0458587408065796 0.15471459925174713 -0.21019114553928375 0.05367990583181381 0.0 -1.0507339239120483 1 True True
1776.155 3.5576584339141846 -1.201072023516037 1.440160099660055 -1.809866567651266 -1.5708325544940394 1.9868017435073853 -1.0513157844543457 0.15476103127002716 -0.21254651248455048 0.05014839768409729 0.0 -1.0424892902374268 1 True True
1776.205 3.505249261856079 -1.1933332246593018 1.4296734968768519 -1.8072382412352503 -1.5708254019366663 1.934430480003357 -1.0439547300338745 0.15774130821228027 -0.20340827107429504 0.05412425100803375 0.0 -1.0531792640686035 1 True True
1776.2549999999999 3.4550018310546875 -1.1858321589282532 1.4196222464190882 -1.80436434368276 -1.5707724730121058 1.8841911554336548 -0.9730967879295349 0.14016665518283844 -0.19834935665130615 0.058686479926109314 0.0003608797851484269 -0.9761804342269897 1 True True
1776.3049999999998 3.407958745956421 -1.1789891880801697 1.41016132036318 -1.8021050892271937 -1.5708406607257288 1.8371706008911133 -0.9048981666564941 0.12939879298210144 -0.1741442233324051 0.04371396452188492 0.0001370593236060813 -0.8994612097740173 1 True True
1776.355 3.36452054977417 -1.172655777340271 1.4015124479876917 -1.7996756039061488 -1.5707605520831507 1.7937320470809937 -0.8349177241325378 0.1234416738152504 -0.16439056396484375 0.043217144906520844 9.411066275788471e-05 -0.8336344957351685 1 True True
1776.405 3.3246102333068848 -1.1668169063380738 1.3935568968402308 -1.7974792919554652 -1.5707486311541956 1.7538962364196777 -0.7607603669166565 0.11464839428663254 -0.1593817174434662 0.04543643444776535 0.00010249228944303468 -0.7739447951316833 1 True True
1776.455 3.2881877422332764 -1.1613083642772217 1.3863142172442835 -1.795605321923727 -1.5707767645465296 1.7172881364822388 -0.6937017440795898 0.10440899431705475 -0.14012059569358826 0.032047584652900696 8.578815322834998e-05 -0.6956225037574768 1 True True
1776.5049999999999 3.255153179168701 -1.1564487975886841 1.3795445601092737 -1.7939192257323207 -1.5707805792437952 1.6842750310897827 -0.6250053644180298 0.09306175261735916 -0.12503670156002045 0.03229828178882599 4.5290084926818963e-07 -0.6245949864387512 1 True True
1776.5549999999998 3.2257370948791504 -1.1521162551692505 1.37360126176943 -1.7923718891539515 -1.5707967917071741 1.6549054384231567 -0.5571271181106567 0.08136890828609467 -0.11141223460435867 0.03174011409282684 0.00011934983922401443 -0.5561836361885071 1 True True
1776.605 3.1997108459472656 -1.1483645004085083 1.3685115019427698 -1.790901323358053 -1.570784870778219 1.6290090084075928 -0.48296499252319336 0.0685221254825592 -0.0935550183057785 0.02321065030992031 2.6046801850648242e-23 -0.48918023705482483 1 True True
1776.655 3.177351951599121 -1.1450175207904358 1.3639348188983362 -1.78977694133901 -1.5708168188678187 1.606420874595642 -0.41493138670921326 0.06071723252534866 -0.08402235060930252 0.022733591496944427 3.9558655647889586e-42 -0.41638633608818054 1 True True
1776.705 3.158252716064453 -1.1421909493258973 1.360257927571432 -1.7888008556761683 -1.570784870778219 1.5874061584472656 -0.3419656753540039 0.05174124613404274 -0.06849910318851471 0.01818292960524559 2.1234764977211967e-13 -0.344594269990921 1 True True
1776.7549999999999 3.1427218914031982 -1.1400306981853028 1.3570101896869105 -1.7879110775389613 -1.5708048979388636 1.5719830989837646 -0.27776116132736206 0.04106055572628975 -0.055471863597631454 0.016259366646409035 3.225566196484751e-32 -0.28031113743782043 1 True True
1776.8049999999998 3.1307730674743652 -1.1382087630084534 1.3548153082477015 -1.7872854671873988 -1.5708254019366663 1.559923768043518 -0.20567038655281067 0.029221907258033752 -0.03987710922956467 0.01136940810829401 0.0 -0.20461103320121765 1 True True
1776.855 3.12221360206604 -1.1369596880725403 1.3529370466815394 -1.7869063816466273 -1.5707686583148401 1.551417589187622 -0.1368294358253479 0.021835850551724434 -0.03077898919582367 0.007772205397486687 0.0 -0.13796475529670715 1 True True
1776.905 3.1171650886535645 -1.136117772465088 1.3519280592547815 -1.7866431675352992 -1.5708168188678187 1.546438455581665 -0.06827612221240997 0.011048845946788788 -0.013590511865913868 0.002839442575350404 0.0 -0.06510516256093979 1 True True
1776.955 3.115643262863159 -1.1359985929778595 1.3517091909991663 -1.7865234814085902 -1.5707319418536585 1.5448490381240845 0.01172841340303421 -0.0024320560041815042 -0.00021369349269662052 0.000545046990737319 0.0 0.009124202653765678 1 True True
1777.0049999999999 3.115661859512329 -1.1352966588786622 1.3528316656695765 -1.7883311710753382 -1.5708048979388636 1.5448325872421265 -0.0015714627224951982 0.02529158629477024 0.04814895614981651 -0.07494951039552689 0.0 -0.0009103731717914343 1 True True
1777.0549999999998 3.1156511306762695 -1.133605257873871 1.356483284627096 -1.7939807377257289 -1.570857350026266 1.5447964668273926 -0.0010348286014050245 0.044426869601011276 0.09647192060947418 -0.1401701420545578 0.0 -0.0007760226726531982 1 True True
1777.105 3.1156749725341797 -1.1308341187289734 1.3627584616290491 -1.8028484783568324 -1.5707405249225062 1.5448085069656372 -0.00063928565941751 0.06584598869085312 0.14571979641914368 -0.21212594211101532 0.0 -0.00026641073054634035 1 True True
1777.155 3.115659713745117 -1.1270136696151276 1.3715007940875452 -1.8153072796263636 -1.5707443396197718 1.544793725013733 -0.0009618978365324438 0.0881291925907135 0.1999657303094864 -0.2789452373981476 -6.194996240083128e-05 -0.0001875980815384537 1 True True
1777.205 3.1156270503997803 -1.1220412713340302 1.3825815359698694 -1.831125398675436 -1.5708254019366663 1.544793725013733 -0.00027291206060908735 0.10568392276763916 0.24532566964626312 -0.3474833369255066 -3.753624910896036e-10 -0.00012289592996239662 1 True True
1777.2549999999999 3.115598678588867 -1.1160761576941987 1.3959105650531214 -1.8506986103453578 -1.570756737385885 1.5448265075683594 -0.00011539508705027401 0.1265287697315216 0.29186123609542847 -0.42976903915405273 -6.543626659549773e-05 -8.613440877525136e-05 1 True True
1777.3049999999998 3.115582227706909 -1.1090251368335267 1.4117563406573694 -1.873490949670309 -1.5707686583148401 1.5447981357574463 -0.00010293856757925823 0.1505923569202423 0.3441902995109558 -0.48413294553756714 -9.939779934416826e-24 -1.4587529659695421e-18 1 True True
1777.355 3.1155834197998047 -1.1009322863868256 1.4296940008746546 -1.8996640644469203 -1.5708087126361292 1.5447769165039062 -9.16826247703284e-05 0.15927110612392426 0.3570655584335327 -0.5216977596282959 -1.509198446077828e-42 -2.2158488229916154e-37 1 True True
1777.405 3.1155953407287598 -1.0933758479407807 1.4466760794269007 -1.9239798984923304 -1.5708044211017054 1.544859528541565 -7.279867680898278e-11 0.14264130592346191 0.31087201833724976 -0.45459988713264465 -2.584099638625048e-05 -0.0 1 True True
1777.455 3.115541934967041 -1.0867616397193451 1.460944954548971 -1.9452792606749476 -1.570829216633932 1.5447814464569092 0.0 0.1148177981376648 0.262680321931839 -0.394382506608963 -6.293673138202394e-09 -0.0 1 True True
1777.5049999999999 3.115541934967041 -1.0814251762679596 1.4731600920306605 -1.9626599750914515 -1.5708168188678187 1.5448384284973145 0.0 0.09868049621582031 0.22143420577049255 -0.3126538395881653 -9.560104391644356e-28 7.035896123852581e-05 1 True True
1777.5549999999998 3.115574836730957 -1.0770674806884308 1.4829686323748987 -1.9767114124693812 -1.570756737385885 1.5447769165039062 0.0 0.0765356570482254 0.1669652909040451 -0.24183475971221924 -0.0 2.380302430537995e-05 1 True True
1777.605 3.1155877113342285 -1.0738421839526673 1.4901817480670374 -1.987321516076559 -1.5708335081683558 1.54478919506073 0.0 0.058005474507808685 0.12561699748039246 -0.19040293991565704 -0.0 1.432817862223601e-05 1 True True
1777.655 3.1156563758850098 -1.0715485674193879 1.495051685963766 -1.9944073162474574 -1.5707967917071741 1.5447936058044434 -1.8789055034051927e-10 0.03576439619064331 0.07026299089193344 -0.10764938592910767 -0.0 2.0407802367117256e-05 1 True True
1777.705 3.1156158447265625 -1.0709122282317658 1.496864144002096 -1.9981352291502894 -1.5708368460284632 1.544774055480957 3.269768785685301e-05 0.007561968639492989 0.025768818333745003 -0.036873411387205124 -0.0009049216751009226 8.712439440955542e-15 1 True True
1777.7549999999999 3.1155779361724854 -1.0709041220000763 1.497153107319967 -1.9986487827696742 -1.5708044211017054 1.544805645942688 1.713468554953579e-05 0.0008865239797160029 0.004254471976310015 0.0008029894670471549 -3.522695988067426e-05 1.3234213149946489e-33 1 True True
1777.8049999999998 3.1155834197998047 -1.0703811210444947 1.4977553526507776 -1.9984332523741664 -1.5708087126361292 1.5448263883590698 9.668959403841238e-43 0.021033240482211113 0.02334638684988022 0.017490843310952187 -2.0683242837549187e-05 6.769063933508013e-13 1 True True
1777.855 3.1155953407287598 -1.0697784584811707 1.498476807271139 -1.9980393848814906 -1.5707529226886194 1.5447173118591309 0.0 -0.011363815516233444 -0.015039431862533092 -0.02153608202934265 4.8887712182477117e-05 -0.0033101458102464676 1 True False
1777.905 3.115549087524414 -1.0698509377292176 1.4984305540667933 -1.9983025989928187 -1.5707362333880823 1.544837236404419 0.0 -0.004907970316708088 -2.732002068623891e-15 -0.0001320083683822304 7.426052571824726e-24 0.0031128372065722942 1 True False
1777.955 3.115647792816162 -1.0701394242099305 1.4983027617083948 -1.998486181298727 -1.570756737385885 1.5448144674301147 0.0 -0.0032547570299357176 -0.001750642666593194 -0.0006039489526301622 1.1280452637814777e-42 0.00014535490481648594 1 True False
1778.0049999999999 3.115598440170288 -1.0703120988658448 1.4980905691729944 -1.998425622979635 -1.570801083241598 1.544838309288025 0.0 -0.00319371884688735 -0.0021663587540388107 -7.522606756538153e-05 0.0 2.1678552558629513e-15 1 True False
1778.0549999999998 3.11558198928833 -1.0703678292087098 1.4979260603534144 -1.9983140430846156 -1.5707772413836878 1.5447355508804321 0.0 -0.01175265945494175 -0.027139917016029358 0.019920002669095993 0.0 3.2929766098057846e-34 1 True False
1778.105 3.115626811981201 -1.0713713330081482 1.4960501829730433 -1.9960290394225062 -1.5707767645465296 1.5448144674301147 0.0 -0.023302866145968437 -0.057190507650375366 0.08749883621931076 0.0 0.0 1 True False
1778.155 3.11564040184021 -1.0728995961001893 1.4920786062823694 -1.9897314510741175 -1.5707805792437952 1.544817566871643 0.0 -0.04752305522561073 -0.10863902419805527 0.1542382836341858 -3.7004613204771886e-06 0.0 1 True False
1778.205 3.1155893802642822 -1.0760229986957093 1.4853313604937952 -1.980300088922018 -1.5708211104022425 1.544756293296814 0.0 -0.07310662418603897 -0.1521500051021576 0.2225446254014969 -5.621005207363229e-25 0.0 1 True False
1778.2549999999999 3.115644693374634 -1.0799499315074463 1.4763091246234339 -1.9671279392638148 -1.5707886854754847 1.5448307991027832 0.0 -0.09126578271389008 -0.20824477076530457 0.29051047563552856 -8.547920632381384e-44 0.0 1 True False
1778.3049999999998 3.1156117916107178 -1.085132287149765 1.4648640791522425 -1.9507304630675257 -1.5707529226886194 1.5447564125061035 0.0 -0.11210649460554123 -0.24348272383213043 0.3533492088317871 -5.695729123544879e-05 0.0 1 True False
1778.355 3.1156492233276367 -1.091271386747696 1.451167408620016 -1.930643697778219 -1.5708211104022425 1.544789433479309 0.0 -0.1352582424879074 -0.2910363972187042 0.4285590946674347 -3.062671555133353e-16 0.0 1 True False
1778.405 3.1155788898468018 -1.098524497156479 1.4347379843341272 -1.9073082409300746 -1.5708048979388636 1.5447771549224854 0.0 -0.15889985859394073 -0.35436683893203735 0.509884774684906 -4.6522054342307737e-35 0.0 1 True False
1778.455 3.115577459335327 -1.1067132514766236 1.4167340437518519 -1.880944391290182 -1.5708487669574183 1.544785976409912 0.0 -0.16207410395145416 -0.35147517919540405 0.5100153684616089 -0.0 0.0 1 True False
1778.5049999999999 3.115626811981201 -1.11406763017688 1.4002488295184534 -1.8570219479002894 -1.5708006064044397 1.5448144674301147 0.0 -0.1393905133008957 -0.309162974357605 0.4471296966075897 -0.0 0.0 1 True False
1778.5549999999998 3.1156117916107178 -1.120401756172516 1.3862879912005823 -1.8364726505675257 -1.5708048979388636 1.5448013544082642 0.0 -0.11399916559457779 -0.262052059173584 0.38113319873809814 -0.0 0.0 1 True False
1778.605 3.115644693374634 -1.1256736677936097 1.3744075934039515 -1.819742342034811 -1.570796314870016 1.5447850227355957 9.568822591258529e-32 -0.09275483340024948 -0.20922888815402985 0.2964395582675934 -0.0 0.0 1 True False
1778.655 3.115598201751709 -1.1297935408404847 1.365284268056051 -1.8060909710326136 -1.5708335081683558 1.5448057651519775 0.0 -0.0709897056221962 -0.1611049622297287 0.22781166434288025 -0.0 0.0 1 True False
1778.705 3.1155953407287598 -1.1329139035991211 1.3583720366107386 -1.796061178246969 -1.570813004170553 1.5448426008224487 0.0 -0.05012224242091179 -0.11694898456335068 0.17206543684005737 -0.0 0.0 1 True False
1778.7549999999999 3.1155624389648438 -1.1348951023868104 1.3540046850787562 -1.7896048031248988 -1.5708406607257288 1.5448263883590698 0.0 -0.031490448862314224 -0.06443627178668976 0.10581133514642715 -0.0 0.0 1 True False
1778.8049999999998 3.115607261657715 -1.1359393757632752 1.351804558430807 -1.7867547474303187 -1.5708087126361292 1.5448188781738281 0.0 -0.00847548060119152 -0.020322656258940697 0.025215866044163704 -4.695053225966564e-22 0.0 1 True False
1778.855 3.11558198928833 -1.135793076162674 1.3517416159259241 -1.7866236172118128 -1.5707925001727503 1.5447522401809692 0.0 0.0001656419044593349 0.000223594339331612 0.00027940020663663745 -7.131768404334724e-41 0.0 1 False False
1778.905 3.115565538406372 -1.13583396494899 1.351692024861471 -1.786595960656637 -1.570756737385885 1.5448100566864014 0.0 3.109593396213915e-40 -0.0001884304074337706 0.0011522267013788223 -0.0 0.0 1 False False
1778.955 3.115631341934204 -1.135875628595688 1.3516891638385218 -1.7865640125670375 -1.5707686583148401 1.5448100566864014 0.0 2.2841959435027093e-05 -0.0004224776348564774 0.0023198442067950964 -0.0 0.0 1 False False
1779.0049999999999 3.1155669689178467 -1.1358594757369538 1.3516338507281702 -1.7864791355528773 -1.570813004170553 1.5447685718536377 0.0 0.0 -0.0004564968985505402 0.0019620745442807674 -0.0 0.0 1 False False
1779.0549999999998 3.1155788898468018 -1.135804997091629 1.3516400496112269 -1.7865201435484828 -1.5707805792437952 1.5448100566864014 0.0 0.0 -0.00014958495739847422 0.00030279142083600163 -0.0 0.0 1 False False
1779.105 3.1155893802642822 -1.135838196878769 1.3516204992877405 -1.7864958248534144 -1.5707605520831507 1.5447938442230225 0.0 0.0 -0.00012369935575406998 0.00011891630128957331 -0.0 0.0 1 False False
1779.155 3.1155998706817627 -1.13590361297641 1.3515756765948694 -1.7864724598326625 -1.5708125273333948 1.544785976409912 0.0 0.0 -0.00011730326514225453 8.947327296482399e-05 -0.0 0.0 1 False False
1779.205 3.115607261657715 -1.1358626943877717 1.3516128698932093 -1.786480566064352 -1.5707491079913538 1.5448143482208252 0.0 -0.00012064680777257308 -9.410385973751545e-05 1.2006691640920053e-08 -0.0 0.0 1 False False
1779.2549999999999 3.1156044006347656 -1.1358874303153534 1.3516009489642542 -1.7864562473692835 -1.5707686583148401 1.5447815656661987 0.0 -0.00015253348101396114 -7.647171150892973e-05 1.8238200276307412e-27 -0.0 0.0 1 False False
1779.3049999999998 3.1156163215637207 -1.1358950597098847 1.351621452962057 -1.7864686451353968 -1.5707610289203089 1.5448511838912964 2.0965696379755598e-21 -0.00016871458501555026 -7.244954031193629e-05 0.0 -0.0 0.0 1 False False
1779.355 3.115661144256592 -1.1358788472465058 1.3515475432025355 -1.7865082226195277 -1.5707610289203089 1.544772982597351 0.0 -0.00012311591126490384 -6.199003109941259e-05 0.0 -0.0 0.0 1 False False
1779.405 3.1156044006347656 -1.1359757345965882 1.3516009489642542 -1.786480566064352 -1.5707610289203089 1.5448187589645386 0.0 -0.00010456976451678202 -1.9716309077980528e-30 0.0 -0.0 0.0 1 False False
1779.455 3.115631341934204 -1.1358984571746369 1.351638142262594 -1.7864681682982386 -1.5708087126361292 1.5448100566864014 0.0 -7.328570063691586e-05 -0.0 0.0 -0.0 0.0 1 False False
1779.5049999999999 3.115598201751709 -1.1359427136233826 1.3516095320331019 -1.7864600620665492 -1.5708330313311976 1.5448262691497803 0.0 -6.249776924960315e-05 -0.0 0.0 -0.0 0.0 1 False False
1779.5549999999998 3.115607261657715 -1.135922299032547 1.351638142262594 -1.7864724598326625 -1.5707529226886194 1.5447970628738403 0.0 -0.0 -1.1740609352772768e-11 0.0 -0.0 0.0 1 False False
1779.605 3.1155953407287598 -1.1358584326556702 1.3515847365008753 -1.7864796123900355 -1.5708168188678187 1.5448555946350098 0.0 0.0 -2.762659922416377e-41 0.0 -0.0 0.0 1 False False
1779.655 3.1156044006347656 -1.1359384816936036 1.351593319569723 -1.7864438496031703 -1.5708168188678187 1.5448014736175537 0.0 0.0 -0.0 1.1940397672341452e-12 -0.0 0.0 1 False False
1779.705 3.1155893802642822 -1.1359146398356934 1.3515976111041468 -1.7864886722960414 -1.570784870778219 1.5448014736175537 0.0 0.0 -0.0 1.8137486393569072e-31 -0.0 0.0 1 False False
1779.7549999999999 3.115590810775757 -1.1359350842288514 1.3516095320331019 -1.786487718621725 -1.5707886854754847 1.5448100566864014 0.0 0.0 -0.0 0.0 -0.0 0.0 1 False False
1779.8049999999998 3.115598201751709 -1.1358993512443085 1.351577107106344 -1.7864958248534144 -1.5707929770099085 1.5447696447372437 0.0 0.0 -0.0 0.0 -0.0 0.0 1 True False
1779.855 3.115590810775757 -1.135898308163025 1.351621452962057 -1.7865001163878382 -1.5707600752459925 1.544854760169983 0.0 0.0 -0.0 0.0 -0.0 0.0 1 True False
1779.905 3.115598201751709 -1.135939822798111 1.3516095320331019 -1.7865201435484828 -1.5708444754229944 1.5447815656661987 0.0 0.0 -0.0 0.0 -0.0 0.0 1 True False
1779.955 3.1155669689178467 -1.135893927221634 1.3516467253314417 -1.7865082226195277 -1.5707491079913538 1.5448143482208252 0.0 0.0 -0.0 0.0 -0.0 0.0 1 True False
1780.0049999999999 3.1155788898468018 -1.1359279316714783 1.3515685240374964 -1.7864848575987757 -1.5707810560809534 1.5448068380355835 8.08329445045608e-12 0.0 -0.0 0.0 -0.0 0.0 1 True False
1780.0549999999998 3.1156089305877686 -1.1359529060176392 1.3516128698932093 -1.7864848575987757 -1.5708168188678187 1.5448025465011597 3.212414594599977e-05 0.0 -0.0 0.0 -0.0 0.0 1 True False
1780.105 3.11556077003479 -1.13596864164386 1.3516500631915491 -1.7864958248534144 -1.5708048979388636 1.5447697639465332 1.6975853213807568e-05 0.0 -0.0 0.0 -0.0 0.0 1 True False
1780.155 3.1155998706817627 -1.135833041076996 1.3516300360309046 -1.7865039310851039 -1.5707767645465296 1.544776439666748 1.1536089914443437e-05 0.0 -0.0 0.0 -0.0 0.0 1 True False
1780.205 3.115689754486084 -1.1359146398356934 1.3515685240374964 -1.786487718621725 -1.5707891623126429 1.5448014736175537 7.113020779702541e-35 0.0 -0.0 0.0 -0.0 0.002132446737959981 1 True False
1780.2549999999999 3.11555814743042 -1.1359190505794068 1.3515608946429651 -1.7864915333189906 -1.570813004170553 1.5448393821716309 0.0 0.0 -0.0 0.0 -0.0 -3.0916734450325833e-11 1 True False
1780.3049999999998 3.115631341934204 -1.1358775955489655 1.3515608946429651 -1.786487718621725 -1.5708091894732874 1.5448143482208252 0.0 0.0 -3.534291636242415e-06 0.0 -0.0003611485008150339 -0.0006887849885970354 1 True False
1780.355 3.11558198928833 -1.1358744663051148 1.3516181151019495 -1.7864843807616175 -1.5707605520831507 1.5448468923568726 0.0 0.0 -8.316560112628889e-36 0.0 -1.0530243343964685e-06 -5.32781814399641e-05 1 True False
1780.405 3.115631341934204 -1.1359190803817292 1.3516128698932093 -1.7864886722960414 -1.5708335081683558 1.5448057651519775 0.0 0.0 -0.0 0.0 -1.5995460171635122e-25 -2.147797931684181e-05 1 True False
1780.455 3.117417573928833 -1.1364923280528565 1.352076832448141 -1.7865802250304164 -1.570801083241598 1.5466111898422241 0.06924138963222504 -0.02104816399514675 0.02036753110587597 -0.005962404888123274 -2.382207389352189e-44 0.07224190980195999 1 True False
1780.5049999999999 3.1227688789367676 -1.1378706854632874 1.353813950215475 -1.7869779072203578 -1.570829216633932 1.5519417524337769 0.1443944275379181 -0.035322580486536026 0.050478387624025345 -0.010272552259266376 -0.0 0.13972333073616028 1 True False
1780.5549999999998 3.1315901279449463 -1.1399909418872376 1.3567145506488245 -1.7876764736571253 -1.5707805792437952 1.560843825340271 0.2119532823562622 -0.054079458117485046 0.07029901444911957 -0.016359904780983925 -0.0 0.21277950704097748 1 True False
1780.605 3.1440627574920654 -1.143205003147461 1.3609164396869105 -1.7886415920653285 -1.5708006064044397 1.5731840133666992 0.2766075134277344 -0.07138460874557495 0.09631559997797012 -0.022316476330161095 -0.0 0.27978813648223877 1 True False
1780.655 3.1597437858581543 -1.1472155314734955 1.3662412802325647 -1.7897378406920375 -1.570772949849264 1.5889089107513428 0.34904932975769043 -0.09013349562883377 0.12034694105386734 -0.029119156301021576 5.0767466746037826e-05 0.34521055221557617 1 True False
1780.705 3.1791818141937256 -1.152238206272461 1.372655216847555 -1.7913409672179164 -1.570824925099508 1.6082905530929565 0.4204442501068115 -0.10604868084192276 0.1419597566127777 -0.03704069182276726 1.3138392205291893e-05 0.42454808950424194 1 True False
1780.7549999999999 3.201808452606201 -1.158184902077057 1.3803203741656702 -1.7930308781065882 -1.5708168188678187 1.6311321258544922 0.4923650622367859 -0.1253383755683899 0.16307660937309265 -0.03350256383419037 1.4490442179493357e-10 0.4863967001438141 1 True False
1780.8049999999998 3.2281434535980225 -1.1648707848838349 1.3891142050372522 -1.7949253521361292 -1.5708211104022425 1.6573567390441895 0.5557241439819336 -0.14192822575569153 0.18235035240650177 -0.04707563668489456 9.385451267007738e-05 0.560585618019104 1 True False
1780.855 3.2579870223999023 -1.1725057524493714 1.3989627997027796 -1.7970134220519007 -1.5707247892962855 1.6871753931045532 0.6347115635871887 -0.16374017298221588 0.21080802381038666 -0.045284900814294815 0.0002108724002027884 0.6280131340026855 1 True False
1780.905 3.2912850379943848 -1.181046501999237 1.4099276701556605 -1.799760480920309 -1.5707362333880823 1.720486044883728 0.7035629749298096 -0.18325884640216827 0.2342269867658615 -0.04978974163532257 0.00016602806863375008 0.6972535252571106 1 True False
1780.955 3.327972650527954 -1.1904847484878083 1.4222734610186976 -1.8023449383177699 -1.5707686583148401 1.757205843925476 0.769344687461853 -0.19531695544719696 0.2526405155658722 -0.058367833495140076 6.386620667479182e-19 0.7654642462730408 1 True False
1781.0049999999999 3.368166446685791 -1.200887219314911 1.435437027608053 -1.8054191074767054 -1.5708044211017054 1.797417163848877 0.8365495800971985 -0.21618176996707916 0.28256022930145264 -0.06725509464740753 9.701293525126454e-38 0.8349920511245728 1 True False
1781.0549999999998 3.4119153022766113 -1.2120732826045533 1.4502108732806605 -1.8086873493590296 -1.5708048979388636 1.8411316871643066 0.9119976758956909 -0.23271727561950684 0.3008303940296173 -0.06871489435434341 9.239997655896559e-11 0.9068335294723511 1 True False
1781.105 3.4592323303222656 -1.2242595118335267 1.465665642415182 -1.8122850857176722 -1.5708087126361292 1.8883705139160156 0.9754982590675354 -0.24975736439228058 0.3260182738304138 -0.08018611371517181 4.608993727817123e-16 0.9753211140632629 1 True False
1781.155 3.5098226070404053 -1.237176702623703 1.4827011267291468 -1.8159996471800746 -1.5707805792437952 1.9390451908111572 1.0513625144958496 -0.26966941356658936 0.34621116518974304 -0.07553816586732864 7.001072161942248e-35 1.0460273027420044 1 True False
1781.205 3.5621678829193115 -1.2507178348353882 1.499749008809225 -1.8201147518553675 -1.5707724730121058 1.9914406538009644 1.0421019792556763 -0.2651665508747101 0.3506065905094147 -0.08251384645700455 -0.00030753432656638324 1.0496881008148193 1 True False
1781.2549999999999 3.6145381927490234 -1.2640764278224488 1.51740008989443 -1.8238793812193812 -1.5707686583148401 2.043907642364502 1.0469642877578735 -0.2645518183708191 0.34391286969184875 -0.07356487959623337 -7.490561256418005e-05 1.0422508716583252 1 True False
1781.3049999999998 3.666901111602783 -1.2776006621173401 1.5345600287066858 -1.8279944858946742 -1.5708091894732874 2.096184253692627 1.0524404048919678 -0.2675141394138336 0.349491149187088 -0.07878272235393524 -9.53498383751139e-05 1.0500788688659668 1 True False
1781.355 3.7192461490631104 -1.2910029155066987 1.5520623365985315 -1.8317352734007777 -1.570813004170553 2.1483652591705322 1.0456198453903198 -0.26831719279289246 0.3453289866447449 -0.08194015175104141 -0.00019457247981335968 1.0489495992660522 1 True False
1781.405 3.7716920375823975 -1.304450975065567 1.5694778601275843 -1.8357778988280238 -1.5707648436175745 2.200864553451538 1.043972373008728 -0.27346107363700867 0.35190120339393616 -0.06653747707605362 3.402826962428662e-07 1.0429767370224 1 True False
1781.455 3.824022054672241 -1.3179959219745179 1.5868037382708948 -1.8396898708739222 -1.5707443396197718 2.2532176971435547 1.051427960395813 -0.27015435695648193 0.34617385268211365 -0.09090984612703323 0.0001816171279642731 1.05214524269104 1 True False
1781.5049999999999 3.876446008682251 -1.3313491654447098 1.6043403784381312 -1.843602796594137 -1.5707805792437952 2.305589199066162 1.0460232496261597 -0.2704258859157562 0.35405418276786804 -0.07635070383548737 -1.5576505607269378e-14 1.051009178161621 1 True False
1781.5549999999998 3.928746461868286 -1.344906286602356 1.6215084234820765 -1.8476692638792933 -1.5708373228656214 2.357971429824829 1.0464973449707031 -0.26706987619400024 0.34682637453079224 -0.08474548161029816 -2.6414334261537498e-11 1.0428733825683594 1 True False
1781.605 3.9810731410980225 -1.3582719725421448 1.6391356627093714 -1.8513413868346156 -1.570801083241598 2.410332441329956 1.0516453981399536 -0.26770466566085815 0.34722650051116943 -0.07597210258245468 -2.8192509944346966e-06 1.0485615730285645 1 True False
1781.655 4.033435344696045 -1.3717805308154603 1.6561945120440882 -1.8555518589415492 -1.5707886854754847 2.462529182434082 1.0444658994674683 -0.26752766966819763 0.3464198708534241 -0.07720651477575302 -0.001113472506403923 1.0520539283752441 1 True False
1781.705 4.085783004760742 -1.3851528030684968 1.6738031546222132 -1.8592139683165492 -1.5708168188678187 2.515010356903076 1.044003963470459 -0.26573336124420166 0.34704598784446716 -0.07849985361099243 -7.735031249467283e-05 1.039470911026001 1 True False
1781.7549999999999 4.138171195983887 -1.3987212938121338 1.6911075750934046 -1.8633367023863734 -1.5708168188678187 2.567444086074829 1.0490306615829468 -0.26893872022628784 0.3487566113471985 -0.06909574568271637 0.00012209908163640648 1.0492606163024902 1 True False
1781.8049999999998 4.189907550811768 -1.4119347792914887 1.7083123365985315 -1.8670813045897425 -1.5707686583148401 2.619015693664551 0.9977957606315613 -0.2561287581920624 0.33267128467559814 -0.08697362244129181 1.9115683244308457e-05 1.0084960460662842 1 True False
1781.855 4.238301753997803 -1.4243433785489579 1.7243040243731897 -1.870798727075094 -1.5708091894732874 2.667632579803467 0.9368102550506592 -0.239493265748024 0.3137916326522827 -0.0685587003827095 0.00038380728801712394 0.9324470162391663 1 True False
1781.905 4.2832794189453125 -1.436019853954651 1.7393048445331019 -1.8741103611388148 -1.5707805792437952 2.712313652038574 0.864867091178894 -0.22359444200992584 0.28646671772003174 -0.06949569284915924 -7.587037559445809e-17 0.8785382509231567 1 True False
1781.955 4.324750900268555 -1.4465618667057534 1.7529714743243616 -1.8773189983763636 -1.570829216633932 2.753971815109253 0.7959023118019104 -0.20269188284873962 0.26686638593673706 -0.05513438582420349 0.0006254768231883645 0.7949942946434021 1 True False
1782.0049999999999 4.362711429595947 -1.4562470999411126 1.7657526175128382 -1.880028863946432 -1.5708368460284632 2.7920780181884766 0.725729763507843 -0.1892668455839157 0.23922057449817657 -0.05560355260968208 0.0001805502106435597 0.7203197479248047 1 True False
1782.0549999999998 4.397198677062988 -1.465334342127182 1.7770326773272913 -1.882866998712057 -1.5708044211017054 2.826486349105835 0.6522935032844543 -0.16766446828842163 0.2203594595193863 -0.04732148349285126 -7.893525616964325e-05 0.646443784236908 1 True False
1782.105 4.428149223327637 -1.473174975519516 1.7873404661761683 -1.8851024113097132 -1.5707686583148401 2.857543706893921 0.5848115086555481 -0.14966507256031036 0.1937965601682663 -0.04642608016729355 2.8676290231288704e-09 0.5795643329620361 1 True False
1782.155 4.4556074142456055 -1.4801202428391953 1.7965558210956019 -1.8871051273741664 -1.5707925001727503 2.8850088119506836 0.5162377953529358 -0.13216713070869446 0.16964022815227509 -0.04298171028494835 -0.000999441952444613 0.5121979117393494 1 True False
1782.205 4.479674339294434 -1.4863550004414101 1.8044427076922815 -1.8890286884703578 -1.5708492437945765 2.908984661102295 0.4455450773239136 -0.11505355685949326 0.15123191475868225 -0.03723299875855446 -0.0014356240862980485 0.4484691917896271 1 True False
1782.2549999999999 4.500293254852295 -1.4917416882565995 1.8113177458392542 -1.8904863796629847 -1.5708168188678187 2.92944073677063 0.3722596764564514 -0.09502453356981277 0.12620021402835846 -0.02781674452126026 0.00019521148351486772 0.3832671344280243 1 True False
1782.3049999999998 4.517393112182617 -1.4960967388800164 1.8170083204852503 -1.8917037449278773 -1.5708087126361292 2.9465889930725098 0.30939188599586487 -0.07551737129688263 0.10453620553016663 -0.0242727342993021 9.360253170598298e-05 0.3043377995491028 1 True False
1782.355 4.53085470199585 -1.4995873433402558 1.821552578602926 -1.8927294216551722 -1.5707805792437952 2.9600205421447754 0.23693980276584625 -0.06149449571967125 0.07875438034534454 -0.015086675994098186 4.1655536658913306e-11 0.2485579252243042 1 True False
1782.405 4.5408806800842285 -1.5021232825568696 1.824968163167135 -1.8935243091978968 -1.570768181477682 2.970172643661499 0.17158569395542145 -0.04196176305413246 0.05563202500343323 -0.012011634185910225 6.327485598159897e-30 0.1658649444580078 1 True False
1782.455 4.5475263595581055 -1.503899098639824 1.8269904295550745 -1.8939587078490199 -1.5708006064044397 2.9767208099365234 0.09804266691207886 -0.02657986432313919 0.03137866035103798 -0.005886130500584841 0.0 0.09722018241882324 1 True False
1782.5049999999999 4.550573348999023 -1.5046082001975556 1.8280137220965784 -1.8941546879210414 -1.5708044211017054 2.979764223098755 0.027475327253341675 -0.004630440380424261 0.009147918783128262 -0.0029508997686207294 0.0 0.02784350886940956 1 True False
1782.5549999999998 4.550709247589111 -1.5042721417597313 1.828547779713766 -1.8952723942198695 -1.5708006064044397 2.979942798614502 -2.794691811303096e-09 0.014639315195381641 0.027552789077162743 -0.03971502557396889 -0.00023219229478854686 0.0002582016459200531 1 True False
1782.605 4.550719738006592 -1.5030271124890824 1.830965820943014 -1.8989373646178187 -1.5707362333880823 2.9799611568450928 -1.8657941944916212e-12 0.04216036573052406 0.07012912631034851 -0.10723978281021118 8.444914419669658e-05 0.001024290337227285 1 True False
1782.655 4.5508012771606445 -1.5001628038338204 1.8355382124530237 -1.9063741169371546 -1.570829216633932 2.9800119400024414 0.0002922411367762834 0.06738751381635666 0.11243020743131638 -0.17772358655929565 5.82861975999549e-05 0.0003713606274686754 1 True False
1782.705 4.550796985626221 -1.4959858518889924 1.8423016707049769 -1.9170600376524867 -1.5707967917071741 2.979994058609009 0.0005461201071739197 0.09698164463043213 0.15781855583190918 -0.2603110671043396 3.7854730180697516e-05 0.00023799858172424138 1 True False
1782.7549999999999 4.5508036613464355 -1.4905572843602677 1.851239029561178 -1.9315225086607875 -1.570829216633932 2.980029582977295 0.0002191627718275413 0.12488680332899094 0.2022150307893753 -0.3325800895690918 2.0644032701966353e-05 0.00012794601207133383 1 True False
1782.8049999999998 4.550804138183594 -1.483770952825882 1.86243182817568 -1.949425836602682 -1.570784870778219 2.9800519943237305 9.587116073817015e-05 0.1480257511138916 0.23953424394130707 -0.3827103078365326 1.1390414359761572e-20 8.034832717385143e-05 1 True False
1782.855 4.550837516784668 -1.4756085512093087 1.8756430784808558 -1.970792909661764 -1.570796314870016 2.980067491531372 0.00016525245155207813 0.1770092099905014 0.2910670042037964 -0.45674270391464233 5.261653495836072e-05 1.8692718413149123e-06 1 True False
1782.905 4.550783634185791 -1.4660929602435608 1.8911803404437464 -1.9955398044981898 -1.5707967917071741 2.9800431728363037 0.00010338632273487747 0.2026681751012802 0.3274335563182831 -0.5276026725769043 -3.2501296792775136e-11 2.8394286539618716e-25 1 True False
1782.955 4.550853729248047 -1.4554404851845284 1.9083197752581995 -2.0238944492735804 -1.5708044211017054 2.9800267219543457 6.992006819928065e-05 0.21203985810279846 0.34886884689331055 -0.5741446614265442 -4.936954022041122e-30 4.344025239406933e-44 1 True False
1783.0049999999999 4.550841808319092 -1.4451964658549805 1.9252060095416468 -2.0506941280760707 -1.5707891623126429 2.980038642883301 7.142181129893288e-05 0.19462192058563232 0.30597320199012756 -0.5094781517982483 -0.0 3.684492618990667e-22 1 True False
1783.0549999999998 4.550807476043701 -1.4362475884011765 1.9395530859576624 -2.0740796528258265 -1.5708168188678187 2.9800639152526855 0.0 0.16449779272079468 0.2735930383205414 -0.4328143894672394 -0.0 5.596786066513319e-41 1 True False
1783.105 4.550832748413086 -1.4287561190179368 1.9520333448993128 -2.094114442864889 -1.5707967917071741 2.980088472366333 4.527690907707438e-05 0.13889257609844208 0.22401197254657745 -0.3607596457004547 -0.0 0.0 1 True False
1783.155 4.550905704498291 -1.4225147676518937 1.9619987646686 -2.1104608974852503 -1.570829216633932 2.9800267219543457 -2.183331707783509e-05 0.11485753208398819 0.18522031605243683 -0.3048909306526184 -0.0 0.0 1 True False
1783.205 4.550844669342041 -1.417603151207306 1.97001821199526 -2.1234899959959925 -1.5708211104022425 2.980029582977295 -1.3590793059847783e-05 0.08489350229501724 0.14354877173900604 -0.2309693843126297 -0.0 -4.249961784807965e-05 1 True False
1783.2549999999999 4.550832748413086 -1.4140089315227051 1.9761412779437464 -2.133008142510885 -1.5707925001727503 2.980025053024292 -1.959809651452815e-06 0.058727871626615524 0.09961503744125366 -0.16138246655464172 -0.0 -3.0497882107738405e-05 1 True False
1783.3049999999998 4.550840377807617 -1.411654145722725 1.9798992315875452 -2.139060159722799 -1.5707767645465296 2.9799983501434326 0.0 0.031843967735767365 0.04839889705181122 -0.084894560277462 -0.0 -9.432279839450458e-23 1 True False
1783.355 4.550840377807617 -1.4107014548829575 1.9814379850970667 -2.1413947544493617 -1.5707967917071741 2.980088472366333 0.0 0.00292463437654078 0.010036172345280647 -0.0159068014472723 -0.0 -1.4328276797721255e-41 1 True False
1783.405 4.55079984664917 -1.410713331108429 1.98145038286318 -2.1414109669127406 -1.5707886854754847 2.980005979537964 0.0 -4.444471481168108e-20 -8.859057061272324e-07 -0.00010825044591911137 -0.0 -0.0 1 True False
1783.455 4.550828456878662 -1.4107133460095902 1.9814055601703089 -2.141414781610006 -1.5707805792437952 2.980001449584961 0.0 0.0007511578151024878 -2.0846293514471035e-36 -0.0004495854373089969 -0.0 -0.0001531758316559717 1 True False
1783.5049999999999 4.550807476043701 -1.4107509118369599 1.9814217726336878 -2.1414948902525843 -1.570813004170553 2.980017900466919 -3.2171982241555684e-17 0.00028166879201307893 -0.0 -0.0006001948495395482 -0.0 3.2474468753207475e-05 1 True False
1783.5549999999998 4.550803184509277 -1.4107342523387452 1.9814251104937952 -2.141482015649313 -1.5707967917071741 2.979994058609009 0.0 0.00020763579232152551 8.418016659561545e-05 -0.000632147362921387 -0.0 1.7071515685529448e-05 1 True False
1783.605 4.550821304321289 -1.4106817257455369 1.9813926855670374 -2.141478200952047 -1.5708125273333948 2.9800431728363037 0.0 0.000205418182304129 8.421588427154347e-05 -0.0004107723943889141 -0.0 1.1579914826143067e-05 1 True False
1783.655 4.550844669342041 -1.4107476633838196 1.9814375082599085 -2.141566892663473 -1.5707805792437952 2.980005979537964 0.0 9.616475290386006e-05 0.00010185681458096951 -0.00019734234956558794 -0.0 3.887890121743185e-15 1 True False
1783.705 4.550807476043701 -1.4107238364270707 1.981401268635885 -2.1415544948973597 -1.5708206335650843 2.979980707168579 0.0 7.52148698666133e-05 8.318434993270785e-05 -0.00012048443022649735 -0.0 5.905713924244905e-34 1 True False
1783.7549999999999 4.550853729248047 -1.4106535923532029 1.9813969771014612 -2.1415707073607386 -1.5708087126361292 2.9800028800964355 0.0 5.08429657202214e-05 3.5256471164757386e-05 -0.0001010388441500254 -0.0 0.0 1 True False
1783.8049999999998 4.550810813903809 -1.4106984746507187 1.9814122358905237 -2.1415425739684046 -1.570784870778219 2.980038642883301 0.0 -9.80908925027372e-45 4.563822653125271e-10 -7.212111086118966e-05 -0.0 0.0 1 True False
1783.855 4.550828456878662 -1.4106833648732682 1.9813969771014612 -2.1415306530394496 -1.570784870778219 2.9800429344177246 0.0 0.0 1.0739159067015387e-39 -1.9194144502924806e-21 -0.0 0.0 1 True False
1783.905 4.550816535949707 -1.41069848955188 1.9814131895648401 -2.1415230236449183 -1.5707691351519983 2.979992628097534 0.0 0.0 0.0 -2.9155976368127874e-40 -0.0 0.0 1 True False
1783.955 4.550799369812012 -1.4107913982919236 1.9813135305987757 -2.1416384182372035 -1.5708168188678187 2.980074882507324 -3.222337227271055e-06 -0.0030350498855113983 -0.00351528893224895 -0.0009661217918619514 -0.002912297146394849 0.0005388637073338032 1 True False
1784.0049999999999 4.550862789154053 -1.4107252967408677 1.981354061757223 -2.1417299709715785 -1.5708168188678187 2.980038642883301 4.195359900466655e-20 0.0004450604028534144 -5.228104588761913e-22 -2.3982152015378233e-06 0.00019840241293422878 -0.00012072492972947657 1 True False
1784.0549999999998 4.550831317901611 -1.4107431185296555 1.9813302198993128 -2.1417585812010707 -1.570768181477682 2.9800593852996826 0.0 0.00043940782779827714 0.00022193498443812132 0.0007313169771805406 0.00010438383469590917 -4.508483107201755e-05 1 True True
1784.105 4.550840377807617 -1.4109686774066468 1.9809296766864222 -2.1400767765440882 -1.570829216633932 2.980034351348877 0.0 -0.017314141616225243 -0.026181774213910103 0.059344395995140076 0.0002938452525995672 -4.158486262895167e-05 1 True True
1784.155 4.550840377807617 -1.412835956817009 1.9778144995318812 -2.135520120660299 -1.5707853476153772 2.9800429344177246 0.0 -0.05287659540772438 -0.08166719228029251 0.13293074071407318 0.00013993102766107768 -3.0023935323697515e-05 1 True True
1784.205 4.550873279571533 -1.416025237446167 1.972548786793844 -2.1271220646300257 -1.5707486311541956 2.980038642883301 0.0 -0.07754650712013245 -0.13305595517158508 0.19639617204666138 8.996894757729024e-05 -1.0789144893346479e-23 1 True True
1784.2549999999999 4.550821304321289 -1.4205477398684998 1.965304199849264 -2.115380426446432 -1.570772949849264 2.9800429344177246 0.0 -0.10277390480041504 -0.16697201132774353 0.27010485529899597 2.2088705009082332e-05 -2.1687836463247893e-14 1 True True
1784.3049999999998 4.550849437713623 -1.4264100951007386 1.9557936827289026 -2.100341936151022 -1.5707452932940882 2.9800548553466797 0.0 -0.12789250910282135 -0.2059813141822815 0.34542304277420044 7.578778491901712e-18 -3.294389407078679e-33 1 True True
1784.355 4.550803184509277 -1.4335229110768815 1.944251839314596 -2.081395288506979 -1.570772949849264 2.9800310134887695 0.0 -0.15405221283435822 -0.2530810236930847 0.3989640772342682 1.1512178526523667e-36 -0.0 1 True True
1784.405 4.550893783569336 -1.4420240831426163 1.9304378668414515 -2.059198041955465 -1.5707810560809534 2.980050563812256 0.0 -0.1821480393409729 -0.29470518231391907 0.484920471906662 0.0 -0.0 1 True True
1784.455 4.550865650177002 -1.4517008152655144 1.9143975416766565 -2.033571859399313 -1.570824925099508 2.9800429344177246 0.0 -0.20755840837955475 -0.3323231041431427 0.5479539036750793 0.0 -0.0 1 True True
1784.5049999999999 4.550893783569336 -1.462554008965828 1.8966863791095179 -2.005200525323385 -1.5707805792437952 2.980018138885498 0.0 -0.2130366414785385 -0.34763556718826294 0.5476588010787964 -2.2700563931721263e-05 -0.0 1 True True
1784.5549999999998 4.550840377807617 -1.4724936869791527 1.8806780020343226 -1.9789897404112757 -1.5707529226886194 2.980038642883301 0.0 -0.18444718420505524 -0.30671918392181396 0.4816950559616089 -2.9421722501865588e-05 -0.0 1 True True
1784.605 4.550836086273193 -1.4810215693763276 1.8667390982257288 -1.9563805065550746 -1.5707967917071741 2.980034351348877 0.0 -0.15572358667850494 -0.24993547797203064 0.41618841886520386 -1.6188725567189977e-05 -0.0 1 True True
1784.655 4.550812244415283 -1.4882848274758835 1.8549407164203089 -1.9373427830138148 -1.570813004170553 2.980038642883301 0.0 -0.13611266016960144 -0.21636967360973358 0.3429527282714844 -1.1166859621880576e-05 -0.0 1 True True
1784.705 4.550844669342041 -1.4942601931146164 1.845207993184225 -1.9218036137022914 -1.570813004170553 2.9801042079925537 0.0 -0.1062684953212738 -0.16840018332004547 0.2831578552722931 -3.304332768137414e-17 -0.0 1 True True
1784.7549999999999 4.550812244415283 -1.4987700444510956 1.8378632704364222 -1.909750600854391 -1.570801083241598 2.980006217956543 0.0 -0.07852670550346375 -0.12627942860126495 0.20475910604000092 -5.019287696600167e-36 -0.0 1 True True
1784.8049999999998 4.550824165344238 -1.5020693105510254 1.8324478308307093 -1.9010540447630824 -1.5707767645465296 2.979994297027588 0.0 -0.05205387994647026 -0.08819206058979034 0.15280339121818542 -0.0 -0.0 1 True True
1784.855 4.550837516784668 -1.5040300276926537 1.829320255910055 -1.8959175548949183 -1.5708168188678187 2.9800472259521484 0.0 -0.028110193088650703 -0.04636716470122337 0.0669572725892067 -0.0 -0.0 1 True True
1784.905 4.550832748413086 -1.5046647277525445 1.8282745520221155 -1.894114156762594 -1.5707605520831507 2.9800634384155273 0.0 0.003264537313953042 -5.685147925760248e-07 -0.007481519598513842 -0.0 -0.0 1 True True
1784.955 4.549020290374756 -1.5045044136098404 1.827956501637594 -1.894238134423727 -1.5707972685443323 2.9781646728515625 -0.06947416812181473 0.006804449018090963 -0.014662596397101879 -0.0005345164681784809 -0.00044253040687181056 -0.07048244774341583 1 True True
1785.0049999999999 4.543537616729736 -1.5039438244751473 1.8272107283221644 -1.8942061863341273 -1.5708168188678187 2.9727578163146973 -0.14079590141773224 0.014333443716168404 -0.0155504634603858 -1.099732344300719e-06 -0.0005232619005255401 -0.14116635918617249 1 True True
1785.0549999999998 4.534739017486572 -1.503060058956482 1.8261969725238245 -1.8940540752806605 -1.5708048979388636 2.9639341831207275 -0.21270446479320526 0.023462602868676186 -0.024883827194571495 0.005353734828531742 -0.00011028404696844518 -0.20628876984119415 1 True True
1785.105 4.522377967834473 -1.5017860171249886 1.824831787739889 -1.893743177453512 -1.5707686583148401 2.9516913890838623 -0.2817789316177368 0.028800426051020622 -0.03652063384652138 0.005902266129851341 -2.7785495151975263e-18 -0.28332701325416565 1 True True
1785.155 4.506706237792969 -1.5001955342343827 1.8227751890765589 -1.893418928185934 -1.5707805792437952 2.935737371444702 -0.34895482659339905 0.03930874913930893 -0.045447707176208496 0.007501994725316763 2.135798058588989e-05 -0.3467421233654022 1 True True
1785.205 4.487288475036621 -1.4981169042042275 1.8203070799456995 -1.8930603466429652 -1.570801083241598 2.916515588760376 -0.4202657639980316 0.04404241591691971 -0.04854067414999008 0.009270370937883854 3.2442806000798326e-24 -0.4253728985786438 1 True True
1785.2549999999999 4.464564800262451 -1.4957372930696984 1.8175948301898401 -1.8926249943175257 -1.570756737385885 2.8938939571380615 -0.4915209710597992 0.05019218102097511 -0.058302320539951324 0.011592710390686989 -4.777919215825932e-08 -0.4929609000682831 1 True True
1785.3049999999998 4.4383134841918945 -1.4929993984154244 1.8142240683185022 -1.8922177753844203 -1.5707605520831507 2.867415189743042 -0.5605427026748657 0.05716739222407341 -0.06951268017292023 0.010921434499323368 0.00025539667694829404 -0.5529694557189941 1 True True
1785.355 4.408362865447998 -1.4898171213320275 1.8106353918658655 -1.891691347161764 -1.5708406607257288 2.837533950805664 -0.627097487449646 0.06483069807291031 -0.0758441761136055 0.011628114618360996 -0.0005355259636417031 -0.6256203055381775 1 True True
1785.405 4.375064373016357 -1.4864138078740616 1.8064683119403284 -1.891064783135885 -1.5708087126361292 2.80432391166687 -0.7001120448112488 0.07429792732000351 -0.08589497208595276 0.01274307444691658 -0.0009228173876181245 -0.6939530968666077 1 True True
1785.455 4.338321685791016 -1.4825024393251915 1.8021505514727991 -1.8904057941832484 -1.570864502583639 2.7676925659179688 -0.7730420827865601 0.08221778273582458 -0.09694571793079376 0.01168410386890173 -0.0004916774341836572 -0.7661172747612 1 True True
1785.5049999999999 4.29809045791626 -1.478386790757515 1.7971766630755823 -1.889723917047018 -1.5707772413836878 2.727459669113159 -0.8353937864303589 0.08793263137340546 -0.09647973626852036 0.017086975276470184 -2.7821433832286857e-05 -0.8455392718315125 1 True True
1785.5549999999998 4.254395008087158 -1.4737367194942017 1.7918089071856897 -1.888904710809225 -1.5707767645465296 2.6835477352142334 -0.9092262983322144 0.09259791672229767 -0.11447245627641678 0.01589491404592991 4.657239514926914e-06 -0.9092446565628052 1 True True
1785.605 4.207172870635986 -1.4688221898726006 1.7860105673419397 -1.8879839382567347 -1.5707891623126429 2.636429786682129 -0.9817154407501221 0.10043921321630478 -0.12479954212903976 0.016354242339730263 -0.0002537136897444725 -0.9788862466812134 1 True True
1785.655 4.15645170211792 -1.4635379326394578 1.7797821203814905 -1.8870378933348597 -1.5707686583148401 2.5855300426483154 -1.04727041721344 0.11016175895929337 -0.12772327661514282 0.019976936280727386 0.0003626980760600418 -1.0423845052719116 1 True True
1785.705 4.1040544509887695 -1.458112933938839 1.7734296957599085 -1.8860589466490687 -1.5707486311541956 2.5332868099212646 -1.0446511507034302 0.1118147224187851 -0.12870846688747406 0.02241683006286621 0.0017128068720921874 -1.0548993349075317 1 True True
1785.7549999999999 4.051743030548096 -1.4527973991683503 1.7670801321612757 -1.8851491413512171 -1.570768181477682 2.4810447692871094 -1.049899697303772 0.10862138122320175 -0.1341562122106552 0.020802205428481102 -0.00019119698845315725 -1.0436097383499146 1 True True
1785.8049999999998 3.999410629272461 -1.447252520625927 1.7607043425189417 -1.8841711483397425 -1.5708091894732874 2.428513765335083 -1.0502495765686035 0.11161144077777863 -0.12829971313476562 0.02283262461423874 0.00011796241597039625 -1.0436850786209106 1 True True
1785.855 3.9469950199127197 -1.4418063920787354 1.754185978566305 -1.8832694492735804 -1.5708048979388636 2.376262664794922 -1.0446009635925293 0.10520070046186447 -0.12897010147571564 0.020479733124375343 -2.405716372777533e-07 -1.0530967712402344 1 True True
1785.905 3.8946897983551025 -1.4363539528897782 1.7477996985064905 -1.882310529748434 -1.5708254019366663 2.3239216804504395 -1.0481947660446167 0.10596123337745667 -0.1260189712047577 0.019977711141109467 2.2769276741829714e-10 -1.0466837882995605 1 True True
1785.955 3.842277765274048 -1.4308639925769349 1.7414973417865198 -1.8813048801817835 -1.5708487669574183 2.2713863849639893 -1.0509862899780273 0.10586682707071304 -0.12927357852458954 0.018398044630885124 -5.682072590218468e-10 -1.0425628423690796 1 True True
1786.0049999999999 3.7898452281951904 -1.425387130384781 1.7349699179278772 -1.8803554973998011 -1.5707925001727503 2.2190873622894287 -1.0456149578094482 0.10995146632194519 -0.12502515316009521 0.017105111852288246 0.0004216576344333589 -1.0511597394943237 1 True True
1786.0549999999998 3.7374746799468994 -1.4200446021607895 1.7284858862506312 -1.879408975640768 -1.5708282629596155 2.166830062866211 -1.0481325387954712 0.10807197540998459 -0.124735526740551 0.01932760886847973 -0.0011563936714082956 -1.0439854860305786 1 True True
1786.105 3.6852331161499023 -1.4144826990417023 1.722100083027975 -1.8784829578795375 -1.5707967917071741 2.1143317222595215 -1.0512672662734985 0.10997147113084793 -0.1264285445213318 0.01798572577536106 0.000106306943052914 -1.0409321784973145 1 True True
1786.155 3.6329262256622314 -1.408950300221779 1.7157452742206019 -1.877453466454977 -1.5707972685443323 2.062058925628662 -1.0459429025650024 0.10860728472471237 -0.12872323393821716 0.018948376178741455 -8.838389220500176e-08 -1.0535222291946411 1 True True
1786.205 3.5805180072784424 -1.403527410035469 1.7094033400165003 -1.8765717945494593 -1.5708368460284632 2.0098204612731934 -1.0489485263824463 0.10813332349061966 -0.12793004512786865 0.017925189808011055 -1.3425529760575114e-26 -1.0471551418304443 1 True True
1786.2549999999999 3.5281827449798584 -1.398125947718956 1.702895466481344 -1.8755442104735316 -1.570784870778219 1.957362413406372 -1.0488722324371338 0.11080987751483917 -0.13103434443473816 0.017263000831007957 0.00014275097055360675 -1.045182466506958 1 True True
1786.3049999999998 3.47579026222229 -1.3926708710244675 1.6965797583209437 -1.8745585880675257 -1.5707767645465296 1.9048994779586792 -1.0434173345565796 0.10951917618513107 -0.13215084373950958 0.020320618525147438 2.1338379468330976e-13 -1.0513607263565063 1 True True
1786.355 3.4233598709106445 -1.3872738045505066 1.6900137106524866 -1.873540540734762 -1.5707805792437952 1.8526241779327393 -1.0452897548675537 0.11112233996391296 -0.13017183542251587 0.022310886532068253 7.0317884848236645e-09 -1.048155426979065 1 True True
1786.405 3.3712949752807617 -1.3817211550525208 1.6836679617511194 -1.872725626031393 -1.5708325544940394 1.8004751205444336 -1.0293002128601074 0.10756509751081467 -0.1283292919397354 0.01670880615711212 1.452817031122322e-07 -1.0187509059906006 1 True True
1786.455 3.3220884799957275 -1.3766538959792634 1.6776240507708948 -1.8718353710570277 -1.570784870778219 1.7513267993927002 -0.9500507116317749 0.100847527384758 -0.11744929850101471 0.02013557218015194 2.4732297806973058e-11 -0.9599125981330872 1 True True
1786.5049999999999 3.276343584060669 -1.3718995314887543 1.6720464865313929 -1.8710681400694789 -1.5708168188678187 1.7054637670516968 -0.8870308995246887 0.09309843927621841 -0.10678725689649582 0.01834658905863762 0.00023324450012296438 -0.8771064877510071 1 True True
1786.5549999999998 3.2341132164001465 -1.3675229114345093 1.6668947378741663 -1.8701697788634242 -1.5707891623126429 1.663304328918457 -0.8095963597297668 0.0806422010064125 -0.09783906489610672 0.012857858091592789 5.076874504968782e-15 -0.8125211000442505 1 True True
1786.605 3.1951842308044434 -1.3634369385293503 1.6621573607074183 -1.8694740734496058 -1.5707805792437952 1.6244244575500488 -0.7414417862892151 0.07647128403186798 -0.09377571940422058 0.010406000539660454 0.0004797574947588146 -0.7476133704185486 1 True True
1786.655 3.1599209308624268 -1.3598212909749527 1.657837216054098 -1.8688417873778285 -1.5708368460284632 1.5891486406326294 -0.6761829853057861 0.07169906795024872 -0.07856715470552444 0.012177684344351292 -0.00031655756174586713 -0.671697199344635 1 True True
1786.705 3.1281509399414062 -1.3564530473998566 1.6538365522967737 -1.8683096371092738 -1.5708168188678187 1.5573489665985107 -0.6069735288619995 0.06478895992040634 -0.07660737633705139 0.006961948238313198 -9.427719970802814e-14 -0.6024650931358337 1 True True
1786.7549999999999 3.0998170375823975 -1.3533956420472641 1.65062123933901 -1.8676806888976039 -1.570813004170553 1.5289883613586426 -0.5356001257896423 0.05969066545367241 -0.0675840824842453 0.0054941559210419655 2.633131225593388e-05 -0.5291765332221985 1 True True
1786.8049999999998 3.074979305267334 -1.3509468001178284 1.6473811308490198 -1.867307802239889 -1.5707810560809534 1.504218578338623 -0.4630926847457886 0.04771194979548454 -0.05570666491985321 0.009071103297173977 3.9997318654581504e-24 -0.46750715374946594 1 True True
1786.855 3.0538876056671143 -1.3487539005330582 1.6449301878558558 -1.8668538532652796 -1.5707247892962855 1.4829015731811523 -0.39302539825439453 0.04139655828475952 -0.05031343176960945 0.006228971760720015 0.00023255017003975809 -0.3900199234485626 1 True True
