Andreas691667/Digital_Twin_UR/src/robot_connection_manager/robot_output/demo_square_robot_output.csv
timestamp actual_q_0 actual_q_1 actual_q_2 actual_q_3 actual_q_4 actual_q_5 actual_qd_0 actual_qd_1 actual_qd_2 actual_qd_3 actual_qd_4 actual_qd_5 safety_status output_bit_register_65 output_bit_register_66
2894.571 3.71207857131958 -0.8254662913135071 0.842971150075094 -1.588320871392721 -1.570784870778219 2.1413040161132812 0.0 0.0 0.0 -0.0 0.00019052557763643563 4.597323847191612e-18 1 False False
2894.621 3.712110996246338 -0.8255686920932312 0.8429845015155237 -1.5882569752135218 -1.5708168188678187 2.141263484954834 0.0 0.0 0.0 -0.0 6.717035284964368e-05 6.983345561486491e-37 1 False False
2894.671 3.7120654582977295 -0.8254782122424622 0.8429763952838343 -1.5883289776244105 -1.5707772413836878 2.1412839889526367 0.0 0.0 0.0 -0.0 2.342522202525288e-05 0.0 1 False False
2894.721 3.712090492248535 -0.8254955571940918 0.8429673353778284 -1.5882650814452113 -1.5707562605487269 2.141251564025879 0.0 0.0 0.0 -0.0 1.4190401088853832e-05 0.0 1 False False
2894.7709999999997 3.7120537757873535 -0.8255038422397156 0.8429892698871058 -1.5883456669249476 -1.5707891623126429 2.1413214206695557 0.0 0.0 0.0 -0.0 1.0178214324696455e-05 0.0 1 False False
2894.821 3.712094783782959 -0.8254619997790833 0.8429892698871058 -1.5883127651610316 -1.5708211104022425 2.141287088394165 0.0 0.0 0.0 -0.0 4.8416322280721495e-23 0.0 1 False False
2894.871 3.712094783782959 -0.8255038422397156 0.8429678122149866 -1.5882774792113246 -1.5707529226886194 2.1413002014160156 0.0 0.0 0.0 -0.0 7.35401434077664e-42 0.0 1 False False
2894.921 3.712110996246338 -0.8254739803126832 0.8429425398456019 -1.5882569752135218 -1.5707886854754847 2.1412882804870605 0.0 0.0 0.0 -0.0 0.0 0.0 1 False False
2894.971 3.7120327949523926 -0.8254782122424622 0.8430007139789026 -1.5882889233031214 -1.570801083241598 2.141287088394165 0.0 0.0 0.0 -0.0 0.0 0.0 1 False False
2895.0209999999997 3.7120494842529297 -0.8254950803569336 0.8429845015155237 -1.588297029534811 -1.5707486311541956 2.1413495540618896 0.0 0.0 0.0 -0.0 0.0 0.0 1 False False
2895.071 3.7120699882507324 -0.8255200547030945 0.8429630438434046 -1.5883332691588343 -1.570813004170553 2.141291618347168 0.0 0.0 0.0 -0.0 0.0 0.0 1 False False
2895.121 3.712094783782959 -0.8254750531962891 0.8430145422564905 -1.5883094273009242 -1.570784870778219 2.141279697418213 0.0 0.0 0.0 -0.0 0.0 0.0 1 False False
2895.171 3.7120862007141113 -0.8254254025271912 0.8429763952838343 -1.5882731876769007 -1.5708487669574183 2.141270875930786 0.0 0.0 0.0 -0.0 0.0 0.0 1 False False
2895.221 3.712099075317383 -0.8254950803569336 0.8429515997516077 -1.588297029534811 -1.5707686583148401 2.1412839889526367 0.0 0.0 0.0 -0.0 0.0 0.0 1 False False
2895.2709999999997 3.7120742797851562 -0.825487033729889 0.8429845015155237 -1.5882851086058558 -1.5708048979388636 2.1413331031799316 0.0 0.0 0.0 -0.0 0.0 0.0 1 False False
2895.321 3.712062358856201 -0.8254993718913575 0.8429892698871058 -1.5882932148375453 -1.5708254019366663 2.141275405883789 0.0 0.0 0.0 -0.0 0.0 0.0 1 False False
2895.371 3.712062358856201 -0.8254954975894471 0.8429721037494105 -1.5882488689818324 -1.5707805792437952 2.141270875930786 0.0 0.0 0.0 -0.0 0.0 0.0 1 False False
2895.421 3.7120208740234375 -0.8255038422397156 0.8429845015155237 -1.5882765255370082 -1.5707767645465296 2.1412925720214844 0.0 0.0 0.0 -0.0 0.0 0.0 1 False False
2895.471 3.7120699882507324 -0.8255232137492676 0.8429649511920374 -1.5882731876769007 -1.5708335081683558 2.141279697418213 0.0 0.0 0.0 -0.0 0.0 0.0 1 False False
2895.5209999999997 3.7120490074157715 -0.8255437177470704 0.8429802099810999 -1.5883289776244105 -1.5707967917071741 2.141296148300171 0.0 0.0 0.0 -0.0 0.0 0.0 1 False False
2895.571 3.7121236324310303 -0.8254908484271546 0.8430007139789026 -1.5883294544615687 -1.5707805792437952 2.1412513256073 0.0 0.0 0.0 -0.0 0.0 0.0 1 False False
2895.621 3.712062358856201 -0.8254577678493042 0.8429802099810999 -1.5883094273009242 -1.5708091894732874 2.141258955001831 0.0 0.0 0.0 -0.0 0.0 0.0 1 False False
2895.671 3.7120399475097656 -0.8254587811282654 0.8429845015155237 -1.588292738000387 -1.5707925001727503 2.141254425048828 0.0 0.0 0.0 -0.0 0.0 0.0 1 False False
2895.721 3.7120413780212402 -0.8254545491984864 0.8429439703570765 -1.5883695087828578 -1.5707886854754847 2.141247034072876 0.0 0.0 0.0 -0.0 0.0 0.0 1 False False
2895.7709999999997 3.7120323181152344 -0.8254663509181519 0.8429887930499476 -1.5883289776244105 -1.5708048979388636 2.1413004398345947 0.0 0.0 0.0 -0.0 0.0 0.0 1 False False
2895.821 3.712078809738159 -0.8255070012858887 0.8429515997516077 -1.5883132419981898 -1.570801083241598 2.141284227371216 0.0 0.0 0.0 -0.0 0.0 0.0 1 False False
2895.871 3.7120578289031982 -0.8255317968181153 0.8429887930499476 -1.588217397729391 -1.5708168188678187 2.14127516746521 -1.9127759001268813e-14 0.0 0.0 -0.0 0.0 0.0 1 False False
2895.921 3.7120862007141113 -0.8255275052836915 0.8429887930499476 -1.5883246860899867 -1.570813004170553 2.141336679458618 0.0 0.0 0.0 -0.0 0.0 0.0 1 False False
2895.971 3.712062358856201 -0.8255771559527894 0.8430169264422815 -1.5883289776244105 -1.5707929770099085 2.1412930488586426 -1.6607196812401526e-05 0.0 0.0 -0.0 0.0 0.0 1 False False
2896.0209999999997 3.712083339691162 -0.8254869741252442 0.8430054823504847 -1.588273664514059 -1.570756737385885 2.1412558555603027 -1.1364623787812889e-05 0.0 0.0 -0.0 0.0 0.0 1 False False
2896.071 3.7120654582977295 -0.8254950803569336 0.8429678122149866 -1.588273664514059 -1.5707724730121058 2.141284227371216 -7.115452445887561e-33 0.0 0.0 -0.0 0.0 0.0 1 False False
2896.121 3.7120578289031982 -0.8254415553859253 0.8429845015155237 -1.5882336101927699 -1.5707967917071741 2.1412930488586426 0.0 0.0 0.0 -0.0 0.0 0.0 1 False False
2896.171 3.7120535373687744 -0.8254869741252442 0.8430169264422815 -1.5883132419981898 -1.5708168188678187 2.141317367553711 0.0 0.0 0.0 -0.0 0.0 0.0 1 False False
2896.221 3.7120490074157715 -0.8254955571940918 0.8429148832904261 -1.5883013210692347 -1.5708134810077112 2.141326427459717 0.0 0.0 0.0 -0.0 0.0 0.0 1 False False
2896.2709999999997 3.7120490074157715 -0.8254993718913575 0.8429964224444788 -1.5882379017271937 -1.570756737385885 2.141287088394165 0.0 0.0 0.0 -0.0 0.0 0.0 1 False False
2896.321 3.712111473083496 -0.825482503776886 0.8429802099810999 -1.5883251629271449 -1.5708254019366663 2.1412558555603027 0.0 0.0 0.0 -0.0 0.0 0.0 1 False False
2896.371 3.712062358856201 -0.8254457873157044 0.8430007139789026 -1.588280817071432 -1.5708211104022425 2.141235113143921 0.0 0.0 0.0 -0.0 0.0 0.0 1 False False
2896.421 3.712078809738159 -0.8254950803569336 0.8429563681231897 -1.588269372979635 -1.570784870778219 2.1413004398345947 0.0 0.0 0.0 -0.0 0.0 0.0 1 False False
2896.471 3.712062358856201 -0.8255275052836915 0.842992130910055 -1.5883013210692347 -1.5707967917071741 2.1413087844848633 0.0 0.0 0.0 -0.0 0.0 0.0 1 False False
2896.5209999999997 3.712008237838745 -0.8254612249187012 0.8430083433734339 -1.5882889233031214 -1.5707925001727503 2.1413049697875977 0.0 0.0 0.0 -0.0 0.0 0.0 1 False False
2896.571 3.7120742797851562 -0.8255166572383423 0.8430288473712366 -1.588297029534811 -1.5707686583148401 2.141263246536255 0.0 0.0 0.0 -0.0 0.0 0.0 1 False False
2896.621 3.71209979057312 -0.8254631918719788 0.8429759184466761 -1.588297029534811 -1.5708211104022425 2.14127516746521 0.0 0.0 0.0 -0.0 0.0 0.0 1 False False
2896.671 3.7120742797851562 -0.8254955571940918 0.8429678122149866 -1.5882932148375453 -1.5707967917071741 2.141267776489258 0.0 0.0 0.0 -0.0 0.0 0.0 1 False False
2896.721 3.7120697498321533 -0.825478271847107 0.8429887930499476 -1.5882932148375453 -1.570772949849264 2.141247034072876 0.0 0.0 0.0 -0.0 0.0 0.0 1 False False
2896.7709999999997 3.7120742797851562 -0.825552300815918 0.8429930845843714 -1.5882774792113246 -1.570829216633932 2.1413137912750244 0.0 0.0 0.0 -0.0 0.0 0.0 1 False False
2896.821 3.712062358856201 -0.825482503776886 0.8429845015155237 -1.588269372979635 -1.5707886854754847 2.141258955001831 0.0 0.0 0.0 -0.0 0.0 0.0 1 False False
2896.871 3.712106943130493 -0.8255199950984498 0.8429520765887659 -1.5882846317686976 -1.5707686583148401 2.1412885189056396 0.0 0.0 0.0 -0.0 0.0 0.0 1 False False
2896.921 3.7120652198791504 -0.8255362075618287 0.8429878393756312 -1.5882607899107875 -1.570801083241598 2.141287088394165 0.0 0.0 0.0 -0.0 0.0 0.0 1 False False
2896.971 3.712066888809204 -0.8254954975894471 0.8429520765887659 -1.5883127651610316 -1.570801083241598 2.141279697418213 0.0 0.0 0.0 -0.0 0.0 0.0 1 False False
2897.0209999999997 3.712066888809204 -0.8255285185626526 0.8429635206805628 -1.5882932148375453 -1.5707648436175745 2.1412723064422607 0.0 0.0 0.0 -0.0 0.0 0.0 1 False False
2897.071 3.712099552154541 -0.8254869741252442 0.8429606596576136 -1.5883013210692347 -1.570829216633932 2.141254186630249 0.0 0.0 0.0 -0.0 0.0 0.0 1 False False
2897.121 3.712066888809204 -0.8255155843547364 0.8430050055133265 -1.5882932148375453 -1.5708254019366663 2.1413040161132812 0.0 0.0 0.0 -0.0 0.0 0.0 1 False False
2897.171 3.712062358856201 -0.8255155843547364 0.8429678122149866 -1.5883056126036585 -1.5708211104022425 2.141263246536255 0.0 0.0 0.0 -0.0 0.0 0.0 1 False False
2897.221 3.7120368480682373 -0.8254869741252442 0.8429930845843714 -1.5882774792113246 -1.5707805792437952 2.141258955001831 0.0 0.0 0.0 -0.0 0.0 0.0 1 False False
2897.2709999999997 3.7120862007141113 -0.8255037826350708 0.8429763952838343 -1.588252683679098 -1.5707886854754847 2.141291618347168 0.0 0.0 0.0 -0.0 0.0 0.0 1 False False
2897.321 3.712095260620117 -0.8255070012858887 0.8430050055133265 -1.588320871392721 -1.5708449522601526 2.1412484645843506 0.0 0.0 0.0 -0.0 0.0 0.0 1 False False
2897.371 3.7120862007141113 -0.8254908484271546 0.8430007139789026 -1.5882932148375453 -1.5708377997027796 2.141254186630249 0.0 0.0 0.0 -0.0 0.0 0.0 1 False False
2897.421 3.7121026515960693 -0.8255770963481446 0.8429802099810999 -1.5883013210692347 -1.570801083241598 2.141254186630249 0.0 0.0 0.0 -0.0 0.0 0.0 1 False False
2897.471 3.712045669555664 -0.8254211705974122 0.8429520765887659 -1.5882932148375453 -1.5707648436175745 2.141287088394165 0.0 0.0 0.0 -0.0 0.0 0.0 1 False False
2897.5209999999997 3.7120862007141113 -0.8254869741252442 0.8429845015155237 -1.5882898769774378 -1.5707891623126429 2.1413159370422363 0.0 0.0 0.0 -0.0 0.0 0.0 1 False False
2897.571 3.7120742797851562 -0.8255361479571839 0.8429802099810999 -1.588269372979635 -1.5707967917071741 2.141234874725342 0.0 0.0 0.0 -0.0 0.0 0.0 1 False False
2897.621 3.7120652198791504 -0.8255155843547364 0.8429892698871058 -1.588297029534811 -1.570784870778219 2.141237735748291 0.0 0.0 0.0 -0.0 0.0 0.0 1 False False
2897.671 3.7120444774627686 -0.8254416149905701 0.8430007139789026 -1.5883251629271449 -1.5708168188678187 2.141279697418213 0.0 0.0 0.0 -0.0 0.0 0.0 1 False False
2897.721 3.7120532989501953 -0.825491265659668 0.8430174032794397 -1.5883170566954554 -1.5708449522601526 2.1412723064422607 0.0 0.0 0.0 -0.0 0.0 0.0 1 False False
2897.7709999999997 3.712095022201538 -0.8255393666080018 0.8429144064532679 -1.5883499584593714 -1.5708335081683558 2.141254186630249 0.0 0.0 0.0 -0.0 0.0 0.0 1 False False
2897.821 3.7120697498321533 -0.8254502576640625 0.8429678122149866 -1.5882774792113246 -1.5707967917071741 2.141313076019287 0.0 0.0 0.0 -0.0 0.0 0.0 1 False False
2897.871 3.7120742797851562 -0.825457827453949 0.8429673353778284 -1.5882889233031214 -1.5707967917071741 2.141249895095825 0.0 0.0 0.0 -0.0 0.0 0.0 1 False False
2897.921 3.7121026515960693 -0.8255155247500916 0.8429649511920374 -1.588297029534811 -1.5707686583148401 2.141291618347168 0.0 0.0 0.0 -0.0 0.0 0.0 1 False False
2897.971 3.712078809738159 -0.8254740399173279 0.8430336157428187 -1.5882774792113246 -1.570801083241598 2.141270637512207 0.0 0.0 0.0 -0.0 0.0 0.0 1 False False
2898.0209999999997 3.712095260620117 -0.8255242866328736 0.8429563681231897 -1.5882846317686976 -1.5707967917071741 2.141284227371216 0.0 0.0 0.0 -0.0 0.0 0.0 1 False False
2898.071 3.7120535373687744 -0.8254825633815308 0.8429935614215296 -1.5882569752135218 -1.5707967917071741 2.141287088394165 0.0 0.0 0.0 -0.0 0.0 0.0 1 False False
2898.121 3.7120161056518555 -0.8254697483829041 0.8430021444903772 -1.5882932148375453 -1.570801083241598 2.141230583190918 0.0 0.0 0.0 -0.0 0.0 0.0 1 False False
2898.171 3.7120609283447266 -0.8255273860744019 0.8429721037494105 -1.5882650814452113 -1.570801083241598 2.141326427459717 0.0 0.0 0.0 -0.0 0.0 0.0 1 False False
2898.221 3.712132215499878 -0.8254750531962891 0.8430216948138636 -1.5882817707457484 -1.570829216633932 2.141267776489258 0.0 0.0 0.0 -0.0 0.0 0.0 1 False False
2898.2709999999997 3.7120981216430664 -0.8254993718913575 0.8429935614215296 -1.5883094273009242 -1.5707805792437952 2.141267776489258 0.0 0.0 0.0 -0.0 0.0 0.0 1 False False
2898.321 3.7120935916900635 -0.825478271847107 0.8430216948138636 -1.5883056126036585 -1.570784870778219 2.1413004398345947 0.0 0.0 0.0 -0.0 0.0 0.0 1 False False
2898.371 3.71207857131958 -0.825478271847107 0.8429763952838343 -1.588245531121725 -1.5707524458514612 2.141357898712158 0.0 0.0 0.0 -0.0 0.0 0.0 1 False False
2898.421 3.712071180343628 -0.8255361479571839 0.8429673353778284 -1.588273664514059 -1.5708048979388636 2.141226053237915 0.0 0.0 0.0 -0.0 0.0 0.0 1 False False
2898.471 3.7120535373687744 -0.825552300815918 0.8430007139789026 -1.5883056126036585 -1.5707967917071741 2.1412811279296875 0.0 0.0 0.0 -0.0 0.0 0.0 1 False False
2898.5209999999997 3.7120919227600098 -0.8254654568484803 0.8429563681231897 -1.5883013210692347 -1.570801083241598 2.141279697418213 0.0 0.0 0.0 -0.0 0.0 0.0 1 False False
2898.571 3.7120413780212402 -0.8255362075618287 0.8429964224444788 -1.5883165798582972 -1.5707805792437952 2.1412723064422607 0.0 0.0 0.0 -0.0 0.0 0.0 1 False False
2898.621 3.712062358856201 -0.8255199950984498 0.8429935614215296 -1.5883494816222132 -1.5707767645465296 2.141230583190918 0.0 0.0 0.0 -0.0 0.0 0.0 1 False False
2898.671 3.7120742797851562 -0.8255404394916077 0.8429845015155237 -1.5883013210692347 -1.5708168188678187 2.141205072402954 0.0 0.0 0.0 -0.0 0.0 0.0 1 False False
2898.721 3.712066650390625 -0.8254908484271546 0.8430264631854456 -1.5882932148375453 -1.5708048979388636 2.141247034072876 0.0 0.0 0.0 -0.0 0.0 0.0 1 False False
2898.7709999999997 3.712071180343628 -0.8254663509181519 0.8429721037494105 -1.5883051357665003 -1.5707767645465296 2.141258955001831 0.0 0.0 0.0 -0.0 0.0 0.0 1 False False
2898.821 3.71207857131958 -0.8254339855960389 0.8430054823504847 -1.5883051357665003 -1.570784870778219 2.141279697418213 0.0 0.0 0.0 -0.0 0.0 0.0 1 False False
2898.871 3.712094783782959 -0.8254865568927308 0.8429887930499476 -1.5883013210692347 -1.5708373228656214 2.1412439346313477 0.0 0.0 0.0 -0.0 0.0 0.0 1 False False
2898.921 3.7121081352233887 -0.8255404394916077 0.842992130910055 -1.588297506371969 -1.5707886854754847 2.141247034072876 0.0 0.0 0.0 -0.0 0.0 0.0 1 False False
2898.971 3.712066888809204 -0.8255080145648499 0.8429854551898401 -1.588292738000387 -1.5707891623126429 2.141279697418213 0.0 0.0 0.0 -0.0 0.0 0.0 1 False False
2899.0209999999997 3.7120370864868164 -0.8255285185626526 0.8429802099810999 -1.5883051357665003 -1.570784870778219 2.141230583190918 0.0 0.0 0.0 -0.0 0.0 0.0 1 False False
2899.071 3.712094783782959 -0.825478271847107 0.8430097738849085 -1.5883285007872523 -1.5707967917071741 2.141246795654297 0.0 0.0 0.0 -0.0 0.0 0.0 1 False False
2899.121 3.7121024131774902 -0.8255037826350708 0.8429892698871058 -1.5882417164244593 -1.5707805792437952 2.141313076019287 0.0 0.0 0.0 -0.0 0.0 0.0 1 False False
2899.171 3.712045907974243 -0.8255200547030945 0.8430097738849085 -1.5883127651610316 -1.5707805792437952 2.141258955001831 0.0 0.0 0.0 -0.0 0.0 0.0 1 False False
2899.221 3.7120370864868164 -0.8255436581424256 0.8429606596576136 -1.5882607899107875 -1.570784870778219 2.141287088394165 0.0 0.0 0.0 -0.0 0.0 0.0 1 False False
2899.2709999999997 3.712045907974243 -0.8255317372134705 0.8429802099810999 -1.5883127651610316 -1.5707805792437952 2.14127516746521 0.0 0.0 0.0 -0.0 0.0 0.0 1 False False
2899.321 3.7120742797851562 -0.8255070012858887 0.8429754416095179 -1.5883332691588343 -1.570784870778219 2.1413040161132812 0.0 0.0 0.0 -0.0 0.0 0.0 1 False False
2899.371 3.712050199508667 -0.8255361479571839 0.8430097738849085 -1.588349004785055 -1.5707686583148401 2.141223192214966 0.0 0.0 0.0 -0.0 0.0 0.0 1 False False
2899.421 3.712066650390625 -0.8254950803569336 0.8429721037494105 -1.5883051357665003 -1.570784870778219 2.14127516746521 0.0 0.0 0.0 -0.0 0.0 0.0 1 True False
2899.471 3.7120862007141113 -0.8254708212665101 0.8429630438434046 -1.5883094273009242 -1.5708053747760218 2.141279697418213 0.0 0.0 0.0 -0.0 0.0 0.0 1 True False
2899.5209999999997 3.712090492248535 -0.8255242866328736 0.8429349104510706 -1.5882889233031214 -1.5708006064044397 2.141279697418213 0.0 0.0 0.0 -0.0 0.0 0.0 1 True False
2899.571 3.7120730876922607 -0.8255317372134705 0.8430007139789026 -1.588285585443014 -1.5708125273333948 2.141291618347168 3.127338722501311e-35 0.0 0.0 -0.0 0.0 7.733176765611915e-09 1 True False
2899.621 3.7121024131774902 -0.8255155247500916 0.8429721037494105 -1.5883056126036585 -1.5707648436175745 2.141279697418213 -2.2971173166297376e-05 0.0 0.0 -0.0 0.0 -3.329234823468141e-05 1 True False
2899.671 3.712090492248535 -0.8255199950984498 0.8430054823504847 -1.5882889233031214 -1.5707886854754847 2.141308546066284 -1.4023151379660703e-05 0.0 0.0 -0.0 0.0 -1.7294798453804106e-05 1 True False
2899.721 3.7120370864868164 -0.8254993718913575 0.8429935614215296 -1.5882932148375453 -1.570813004170553 2.141282558441162 -1.0092026059282944e-05 0.0 0.0 -0.0 0.0 -1.1682212971209083e-05 1 True False
2899.7709999999997 3.7120862007141113 -0.8255027693561097 0.8430259863482874 -1.588285585443014 -1.5707810560809534 2.141342878341675 0.0 0.0 0.0 -0.0 0.0 -1.425385688386821e-14 1 True False
2899.821 3.7120981216430664 -0.8255362075618287 0.8429473082171839 -1.5883170566954554 -1.5707967917071741 2.141206741333008 0.0 0.0 0.0 -0.0 0.0 -7.559929245115615e-12 1 True False
2899.871 3.7120580673217773 -0.825486497288086 0.8429649511920374 -1.5882889233031214 -1.5707934538470667 2.141270637512207 0.0 0.0 0.0 -0.0 0.0 1.3090026129702892e-07 1 True False
2899.921 3.7120862007141113 -0.8255199950984498 0.8429763952838343 -1.5882817707457484 -1.5708168188678187 2.1412997245788574 0.0 0.0 0.0 -0.0 5.529453119379468e-05 5.2755881260746484e-12 1 True False
2899.971 3.7120656967163086 -0.8255285781672974 0.8429520765887659 -1.5882650814452113 -1.5708048979388636 2.141291618347168 0.0 0.0 0.0 -0.0 6.032254189363459e-16 8.013630869781654e-31 1 True False
2900.0209999999997 3.7124180793762207 -0.8256318730166932 0.8431685606585901 -1.5883614025511683 -1.570881191884176 2.141615390777588 0.028329957276582718 -0.013368111103773117 0.021101007238030434 -0.00553093571215868 1.7880025779959396e-06 0.03409929573535919 1 True False
2900.071 3.715801954269409 -0.8269481819919129 0.8454950491534632 -1.5890943012633265 -1.570801083241598 2.1448378562927246 0.09651046246290207 -0.047510478645563126 0.07663872838020325 -0.027611687779426575 0.00030870517366565764 0.09767673164606094 1 True False
2900.121 3.722438097000122 -0.8305022281459351 0.8509514967547815 -1.591008802453512 -1.5707643667804163 2.1515893936157227 0.16768528521060944 -0.0869472548365593 0.13380718231201172 -0.04700221121311188 0.00015853015065658838 0.1658552587032318 1 True False
2900.171 3.7326252460479736 -0.835991696720459 0.8588507811175745 -1.5937520466246546 -1.5708211104022425 2.161846160888672 0.24036924540996552 -0.1257077157497406 0.18542182445526123 -0.056596431881189346 8.471300679957494e-05 0.2328340858221054 1 True False
2900.221 3.746431350708008 -0.8430531185916443 0.8696201483355921 -1.5972172222533167 -1.5707805792437952 2.1755571365356445 0.3064729571342468 -0.15448880195617676 0.2443283200263977 -0.08581520617008209 7.184840069385245e-05 0.3081827759742737 1 True False
2900.2709999999997 3.763474702835083 -0.8519640129855652 0.8830221335040491 -1.6018058262267054 -1.5708377997027796 2.1928443908691406 0.3781867027282715 -0.19318361580371857 0.29371824860572815 -0.08922739326953888 2.5604094844311476e-05 0.3760848939418793 1 True False
2900.321 3.7842938899993896 -0.8625342410853882 0.899212662373678 -1.607424875298971 -1.5707972685443323 2.2133820056915283 0.44852733612060547 -0.231657013297081 0.34883713722229004 -0.11883942782878876 5.0307924539083615e-05 0.4506876468658447 1 True False
2900.371 3.8085079193115234 -0.8749234241298218 0.9179943243609827 -1.6137048206725062 -1.5707648436175745 2.2375991344451904 0.5183546543121338 -0.26035961508750916 0.4005689024925232 -0.14166809618473053 1.7029514944980394e-19 0.5253646373748779 1 True False
2900.421 3.836029052734375 -0.8891260188869019 0.9393757025348108 -1.6211730442442835 -1.570813004170553 2.2653253078460693 0.581484854221344 -0.30356261134147644 0.4544297754764557 -0.15770995616912842 -0.00045390138984657824 0.5858295559883118 1 True False
2900.471 3.8673818111419678 -0.9051164549640198 0.9636214415179651 -1.629326959649557 -1.5707929770099085 2.29647159576416 0.6520801186561584 -0.3361128866672516 0.5086551308631897 -0.1775984764099121 -0.00016017885354813188 0.6539682149887085 1 True False
2900.5209999999997 3.9019832611083984 -0.9227690857699891 0.9904163519488733 -1.638407369653219 -1.5708048979388636 2.3310394287109375 0.7213022112846375 -0.3702559173107147 0.5691356658935547 -0.1861565262079239 -6.233916064957157e-05 0.72775799036026 1 True False
2900.571 3.9400839805603027 -0.9424002331546326 1.020167652760641 -1.6485134563841761 -1.570801083241598 2.369260311126709 0.7937467694282532 -0.40811818838119507 0.6132204532623291 -0.22212280333042145 -5.548987610382028e-05 0.7990267872810364 1 True False
2900.621 3.981682062149048 -0.9637131255916138 1.0525739828692835 -1.659475942651266 -1.5707648436175745 2.4109842777252197 0.8726775646209717 -0.43520310521125793 0.6774359941482544 -0.22349102795124054 5.3418554302187e-13 0.8645274639129639 1 True False
2900.671 4.026957988739014 -0.9868429464152833 1.087384049092428 -1.671398778954977 -1.5708044211017054 2.4559571743011475 0.9297087788581848 -0.48017287254333496 0.7265328764915466 -0.25057458877563477 1.850969510996947e-07 0.9335046410560608 1 True False
2900.721 4.075453281402588 -1.0118054312518616 1.1252148787127894 -1.6842481098570765 -1.5708172957049769 2.504727602005005 1.0103034973144531 -0.5173773169517517 0.7799413204193115 -0.26638415455818176 2.811626915360829e-26 1.0069687366485596 1 True False
2900.7709999999997 4.127350807189941 -1.0383580488017579 1.1655486265765589 -1.6979171238341273 -1.570784870778219 2.5564560890197754 1.0481981039047241 -0.5391521453857422 0.8109778761863708 -0.2843114733695984 0.00014976605598349124 1.0495688915252686 1 True False
2900.821 4.179645538330078 -1.0651875299266358 1.2062209288226526 -1.711623331109518 -1.5708335081683558 2.6088764667510986 1.0477453470230103 -0.5331357717514038 0.816135048866272 -0.2717771530151367 1.378505771754135e-06 1.0409338474273682 1 True False
2900.871 4.2319207191467285 -1.0919671219638367 1.2468045393573206 -1.7255011997618617 -1.5708211104022425 2.6612160205841064 1.0496776103973389 -0.5321331024169922 0.8161488175392151 -0.2758531868457794 -2.9680002171517117e-06 1.0518798828125 1 True False
2900.921 4.2843403816223145 -1.1187750858119507 1.2874119917498987 -1.7394591770567835 -1.5707929770099085 2.713435649871826 1.04312264919281 -0.5377753973007202 0.8195505142211914 -0.2784394323825836 6.703289479048635e-09 1.0557557344436646 1 True False
2900.971 4.3367719650268555 -1.1457461279681702 1.3281009832965296 -1.7532998524107875 -1.5707967917071741 2.765902042388916 1.0459160804748535 -0.5384945273399353 0.8157193064689636 -0.2656019926071167 1.0182311689882624e-27 1.0368777513504028 1 True False
2901.0209999999997 4.389043807983398 -1.1726014179042359 1.3686335722552698 -1.7670232258238734 -1.5708048979388636 2.8183491230010986 1.0528874397277832 -0.5365368723869324 0.8144731521606445 -0.27826568484306335 -7.068539957799658e-07 1.0503623485565186 1 True False
2901.071 4.440817832946777 -1.1989878577044983 1.4087613264666956 -1.7807218037047328 -1.5707891623126429 2.8699114322662354 1.003867745399475 -0.5151759386062622 0.7790278792381287 -0.2780945301055908 -0.0003748350718524307 1.0103105306625366 1 True False
2901.121 4.4892897605896 -1.2238553625396271 1.4466493765460413 -1.7934562168517054 -1.5708211104022425 2.9185919761657715 0.9393839836120605 -0.4785616397857666 0.7256190180778503 -0.26401060819625854 0.0001400564069626853 0.9363877773284912 1 True False
2901.171 4.534218788146973 -1.2469368439963837 1.481539551411764 -1.805279394189352 -1.5708087126361292 2.9634106159210205 0.8662700653076172 -0.4462260901927948 0.6764408349990845 -0.2214491069316864 -0.0004742670862469822 0.8773193359375 1 True False
2901.221 4.575751304626465 -1.2683260303786774 1.51357347169985 -1.8164049587645472 -1.5707891623126429 3.005094528198242 0.7974287271499634 -0.41199424862861633 0.6173781752586365 -0.20136989653110504 -0.00028594955801963806 0.7960261702537537 1 True False
2901.2709999999997 4.613775730133057 -1.2877964836410065 1.5431669394122522 -1.8263279400267542 -1.5708654562579554 3.0431721210479736 0.7252253293991089 -0.37511107325553894 0.5624415874481201 -0.19623708724975586 0.0002885889552999288 0.7224072217941284 1 True False
2901.321 4.648319244384766 -1.30537901938472 1.5701177755938929 -1.835498949090475 -1.5708282629596155 3.0775907039642334 0.6546905040740967 -0.3375946581363678 0.5135186314582825 -0.18181833624839783 -0.0005058926763013005 0.6518057584762573 1 True False
2901.371 4.6793365478515625 -1.3213980060866852 1.593966309224264 -1.8437549076476039 -1.5708044211017054 3.1086502075195312 0.583858847618103 -0.2973083555698395 0.4542120099067688 -0.14687857031822205 -0.0010730907088145614 0.580458402633667 1 True False
2901.421 4.7068867683410645 -1.335324541931488 1.6155388990985315 -1.8508874378600062 -1.5708373228656214 3.136240005493164 0.5160760879516602 -0.2627953290939331 0.39919644594192505 -0.13869209587574005 2.749556360370775e-09 0.5132619738578796 1 True False
2901.471 4.731064796447754 -1.3479161870530625 1.6340792814837855 -1.8573032818236292 -1.5707925001727503 3.160244941711426 0.4451485872268677 -0.22659528255462646 0.3477737009525299 -0.10862909257411957 -0.002108172047883272 0.4473308026790619 1 True False
2901.5209999999997 4.751575946807861 -1.358323023920395 1.6501782576190394 -1.86273254970693 -1.5707967917071741 3.1808106899261475 0.37666797637939453 -0.19948869943618774 0.2890889346599579 -0.09904365986585617 0.00038075889460742474 0.38464808464050293 1 True False
2901.571 4.768761157989502 -1.3670766812613984 1.6634185949908655 -1.8670817814269007 -1.5707562605487269 3.1978869438171387 0.3079231083393097 -0.15734317898750305 0.242181196808815 -0.07676590234041214 -4.0508079109713435e-05 0.3019927740097046 1 True False
2901.621 4.782235145568848 -1.3740945768407364 1.6739466826068323 -1.8708239994444789 -1.5707562605487269 3.2114601135253906 0.24002741277217865 -0.12229440361261368 0.1808934211730957 -0.06231270357966423 0.00014447853027377278 0.2459658831357956 1 True False
2901.671 4.792295455932617 -1.3791814011386414 1.6818011442767542 -1.8733755550780238 -1.5707767645465296 3.2216227054595947 0.1729414165019989 -0.0852898582816124 0.13021938502788544 -0.041122086346149445 4.485512887365236e-20 0.17035633325576782 1 True False
2901.721 4.798966407775879 -1.3826312136701127 1.6868522802936 -1.875286718408102 -1.5708335081683558 3.2281885147094727 0.09838273376226425 -0.05023682862520218 0.079469233751297 -0.02393905632197857 6.813502694520343e-39 0.0967627763748169 1 True False
2901.7709999999997 4.802105903625488 -1.3841527265361329 1.6893733183490198 -1.8759938679137171 -1.570813004170553 3.231261730194092 0.029021522030234337 -0.016620147973299026 0.020666008815169334 -0.006629398092627525 0.0 0.030576221644878387 1 True False
2901.821 4.802204132080078 -1.3841159653714676 1.6900809446917933 -1.8767391643919886 -1.570813004170553 3.2315402030944824 -0.0007801638566888869 0.013396432623267174 0.029372472316026688 -0.03234462812542915 -0.000571710173971951 -0.0001973374601220712 1 True False
2901.871 4.802206039428711 -1.3828997176936646 1.6925566832171839 -1.8805366955199183 -1.5708168188678187 3.231549024581909 0.0003514803247526288 0.041486628353595734 0.0709397941827774 -0.11209132522344589 -0.00010562701208982617 7.36258807592094e-05 1 True False
2901.921 4.80228328704834 -1.3801650416902085 1.697259251271383 -1.8879581890501917 -1.5707114378558558 3.2315447330474854 0.0002701125340536237 0.0720304325222969 0.11190392076969147 -0.17617802321910858 -4.904086472156242e-21 0.00049239193322137 1 True False
2901.971 4.802286624908447 -1.376067416076996 1.7041667143451136 -1.8989435635008753 -1.5707767645465296 3.2315359115600586 0.0010000990005210042 0.09337231516838074 0.157198965549469 -0.25024715065956116 -7.44931664933537e-40 0.00025619036750867963 1 True False
2902.0209999999997 4.802334308624268 -1.370800406937935 1.7131193319903772 -1.9131485424437464 -1.5708087126361292 3.231502056121826 0.00024308779393322766 0.11971528828144073 0.2058403044939041 -0.31645312905311584 -0.0 0.0001299094728892669 1 True False
2902.071 4.802326679229736 -1.3642570835402985 1.7243402639972132 -1.9309197864928187 -1.5707886854754847 3.2315316200256348 0.000193220708752051 0.14488756656646729 0.24682798981666565 -0.3849695324897766 -0.0 9.053864050656557e-05 1 True False
2902.121 4.8023552894592285 -1.356458769445755 1.7380340735064905 -1.9522372684874476 -1.5708006064044397 3.2315359115600586 0.00012312510807532817 0.17105379700660706 0.2842467725276947 -0.46496379375457764 -0.0 -1.852805547875036e-10 1 True False
2902.171 4.802338600158691 -1.3472361874631424 1.7535694281207483 -1.9770924053587855 -1.570772949849264 3.231580972671509 8.772913133725524e-05 0.1938157081604004 0.33860865235328674 -0.529238760471344 -0.0 -2.8144152935862e-29 1 True False
2902.221 4.802371501922607 -1.3370042455247422 1.7710679213153284 -2.0047136745848597 -1.5708335081683558 3.2315316200256348 8.372923912247643e-05 0.19783811271190643 0.34401121735572815 -0.5359881520271301 -0.0 -0.0 1 True False
2902.2709999999997 4.802371501922607 -1.3278790575316926 1.7869609037982386 -2.0299602947630824 -1.570784870778219 3.2315597534179688 3.0889965273672715e-05 0.1779247522354126 0.30008989572525024 -0.47064661979675293 4.587963360336289e-07 -0.0 1 True False
2902.321 4.802310466766357 -1.3198741537383576 1.800713364277975 -2.051708837548727 -1.5708087126361292 3.2316017150878906 1.662486647546757e-05 0.14910714328289032 0.252128928899765 -0.41250452399253845 -3.4512588172219694e-05 -0.0 1 True False
2902.371 4.8023552894592285 -1.3130502563766022 1.8122556845294397 -2.070057054559225 -1.5707724730121058 3.2315139770507812 1.137292474595597e-05 0.12118066847324371 0.21057383716106415 -0.34290021657943726 -1.7621445294935256e-05 -0.0 1 True False
2902.421 4.802369117736816 -1.3076602977565308 1.821789566670553 -2.084935804406637 -1.5708048979388636 3.2315597534179688 7.120000874341274e-33 0.0930657833814621 0.1688387244939804 -0.263408362865448 -1.1830303265014663e-05 -0.0 1 True False
2902.471 4.802366733551025 -1.3035406929305573 1.8288643995868128 -2.096201559106344 -1.570801083241598 3.2315897941589355 0.0 0.07032735645771027 0.11912571638822556 -0.19462145864963531 -8.062918822188125e-14 -0.0 1 True False
2902.5209999999997 4.8024210929870605 -1.3006326717189332 1.833839241658346 -2.103978773156637 -1.5707886854754847 3.2315521240234375 0.0 0.04799274355173111 0.07898638397455215 -0.12935364246368408 -1.2247585843812803e-32 -0.0 1 True False
2902.571 4.802366733551025 -1.2990811628154297 1.8364642302142542 -2.10821070293569 -1.5707486311541956 3.2315683364868164 0.0 0.020889893174171448 0.034940969198942184 -0.05174873024225235 -0.0 -0.0 1 True False
2902.621 4.802366733551025 -1.2987487477115174 1.8371079603778284 -2.1092449627318324 -1.5707486311541956 3.2315564155578613 0.0 -0.0003420022258069366 -7.789500955368567e-08 0.0006612301804125309 -0.0 -0.0 1 True False
2902.671 4.802371501922607 -1.2987445157817383 1.8370779196368616 -2.1092006168761195 -1.570784870778219 3.23149037361145 0.0 -1.673581635019942e-31 -1.8329520890940137e-37 -4.1302508288487694e-13 -0.0 -0.0 1 True False
2902.721 4.802313327789307 -1.2987368267825623 1.8371270338641565 -2.1092363796629847 -1.5708377997027796 3.2315597534179688 0.0 0.0 -0.0 -6.27385902865787e-32 -0.0 8.440851351210199e-10 1 True False
2902.7709999999997 4.8023600578308105 -1.2987292867949982 1.837156120930807 -2.1092568836607875 -1.570813004170553 3.23154354095459 0.0 0.00018939260917250067 -0.0 -0.00013191849575378 -0.0 1.2821676382113862e-28 1 True False
2902.821 4.8023223876953125 -1.2987166506103058 1.8371089140521448 -2.1092969379820765 -1.5707967917071741 3.231499195098877 0.0 0.000493824016302824 7.652420026715845e-05 -0.00021398886747192591 -0.0 0.0 1 True False
2902.871 4.802337646484375 -1.2986767453006287 1.8371289412127894 -2.1093012295165003 -1.5708048979388636 3.2315478324890137 0.0 0.00019889406394213438 0.0001351488899672404 -0.0001580568787176162 -0.0 0.0 1 True False
2902.921 4.802346706390381 -1.2987254124930878 1.8371871153460901 -2.1092807255186976 -1.5707648436175745 3.231576919555664 0.0 0.00011338480544509366 0.00012148793030064553 -0.0001409771793987602 -0.0 0.0 1 True False
2902.971 4.802342891693115 -1.2987178427032013 1.8371709028827112 -2.109312673608297 -1.5708449522601526 3.2315196990966797 0.0 8.674701530253515e-05 8.471985347568989e-05 -0.0001545330451335758 -0.0 0.0 1 True False
2903.0209999999997 4.802368640899658 -1.2987254422954102 1.8371332327472132 -2.1092683277525843 -1.5707686583148401 3.2315120697021484 0.0 6.686168099690893e-19 6.912375829415396e-05 -0.00011363108933437616 -0.0 0.0 1 True False
2903.071 4.802350997924805 -1.2987166804126282 1.8372233549701136 -2.1092683277525843 -1.5707805792437952 3.231546640396118 0.0 0.0 1.0664327173407315e-19 -9.927709470503032e-05 -0.0 0.0 1 True False
2903.121 4.802334308624268 -1.2986887258342286 1.8371871153460901 -2.109312673608297 -1.5707805792437952 3.2315196990966797 -4.506566122377467e-25 0.0 0.0 -6.252340972423553e-05 -0.0 0.0 1 True False
2903.171 4.802318096160889 -1.2987092298320313 1.8371871153460901 -2.1092244587340296 -1.570784870778219 3.2315316200256348 0.0 0.0 0.0 -4.966910216452902e-10 -0.0 0.0 1 True False
2903.221 4.802276611328125 -1.29880644500766 1.8370221296893519 -2.1094356975951136 -1.5708044211017054 3.2315142154693604 0.0 -0.00048241086187772453 -0.0004510653088800609 -0.00569450668990612 0.0003916879359167069 0.0 1 True False
2903.2709999999997 4.802350997924805 -1.298748479490616 1.8370912710772913 -2.1094552479186 -1.5708487669574183 3.2315196990966797 3.0086758522524517e-24 0.00024000994744710624 5.831356640530939e-31 -0.00011988731421297416 5.949746088269191e-23 0.0 1 True False
2903.321 4.802297115325928 -1.298741028910019 1.837066952382223 -2.1094514332213343 -1.5708168188678187 3.2315683364868164 0.0 0.0006400109268724918 0.00012796936789527535 0.001013773842714727 6.605736416531727e-05 0.0 1 True True
2903.371 4.802318096160889 -1.2990273994258423 1.8363636175738733 -2.107335229913229 -1.5708172957049769 3.2315478324890137 0.0 -0.020059799775481224 -0.037512075155973434 0.06353121250867844 9.077538561541587e-05 0.0 1 True True
2903.421 4.802326679229736 -1.3011206549457093 1.832850758229391 -2.1022969684996546 -1.570801083241598 3.23154354095459 0.0 -0.055899813771247864 -0.08985728770494461 0.1470242291688919 0.0001033588414429687 0.0 1 True True
2903.471 4.802310466766357 -1.3043949466994782 1.8272517363177698 -2.093292852441305 -1.5707972685443323 3.2315402030944824 0.0 -0.08205637335777283 -0.14050571620464325 0.2119096964597702 5.8254910982213914e-05 0.0 1 True True
2903.5209999999997 4.802359580993652 -1.309054211979248 1.8193343321429651 -2.08105530361318 -1.570801083241598 3.2315402030944824 0.0 -0.10159739851951599 -0.1768854707479477 0.27455925941467285 4.623037047038654e-14 0.0 1 True True
2903.571 4.80233097076416 -1.3148852449706574 1.809181038533346 -2.065411230126852 -1.5708168188678187 3.231527328491211 0.0 -0.12568634748458862 -0.2218945175409317 0.3657021224498749 7.022405455864253e-33 0.0 1 True True
2903.621 4.802342891693115 -1.321933002477028 1.797133747731344 -2.046004911462301 -1.5708048979388636 3.23154354095459 0.0 -0.15687744319438934 -0.2598377466201782 0.4173036813735962 0.0 0.0 1 True True
2903.671 4.802330017089844 -1.3302195233157654 1.782694164906637 -2.0233336887755335 -1.5707925001727503 3.231576919555664 0.0 -0.18286965787410736 -0.30565306544303894 0.49267423152923584 0.0 0.0 1 True True
2903.721 4.802335262298584 -1.3399452877095719 1.7661779562579554 -1.997056623498434 -1.570801083241598 3.2315640449523926 0.0 -0.20248684287071228 -0.36186015605926514 0.559028685092926 1.695166923498803e-11 0.0 1 True True
2903.7709999999997 4.80233097076416 -1.3499715340188523 1.7488215605365198 -1.969889303246969 -1.5708487669574183 3.2315239906311035 0.0 -0.18605339527130127 -0.3207763731479645 0.5224343538284302 2.5749628813519465e-30 0.0 1 True True
2903.821 4.802338600158691 -1.3586735886386414 1.7340357939349573 -1.945967813531393 -1.5708168188678187 3.23154354095459 0.0 -0.16581587493419647 -0.2784040868282318 0.4376113712787628 0.0 0.0 1 True True
2903.871 4.802346706390381 -1.3661491137794037 1.7209652105914515 -1.9256307087340296 -1.5708406607257288 3.231592893600464 0.0 -0.13645054399967194 -0.23241369426250458 0.374570369720459 0.0 0.0 1 True True
2903.921 4.802375316619873 -1.3723813158324738 1.7105467955218714 -1.9088078937926234 -1.5707967917071741 3.231560707092285 0.0 -0.11017847806215286 -0.1903926432132721 0.30673742294311523 0.0 0.0 1 True True
2903.971 4.802338600158691 -1.3772270542434235 1.7020915190326136 -1.8954688511290492 -1.5708211104022425 3.2315444946289062 0.0 -0.08348499238491058 -0.15086154639720917 0.22332902252674103 0.0 0.0 1 True True
2904.0209999999997 4.8023552894592285 -1.3808239263347168 1.695735279713766 -1.8855263195433558 -1.570801083241598 3.231576681137085 0.0 -0.059697773307561874 -0.1057245209813118 0.16910791397094727 0.0 0.0 1 True True
2904.071 4.802371025085449 -1.3832427126220246 1.6917174498187464 -1.8790646992125453 -1.5708368460284632 3.2315726280212402 0.0 -0.03486835956573486 -0.059797532856464386 0.09695165604352951 0.0 0.0 1 True True
2904.121 4.802256107330322 -1.3843132567456742 1.6897099653827112 -1.8763681850829066 -1.5708168188678187 3.231580972671509 0.0 -0.010040405206382275 -0.015926610678434372 0.022292202338576317 0.0 0.0 1 True True
2904.171 4.801576614379883 -1.3843412411263962 1.6897199789630335 -1.8761846027769984 -1.570829216633932 3.230867862701416 -0.046095382422208786 -2.0935445904122292e-27 -7.643172021047127e-18 -1.0473482324468986e-11 -2.2512284123996605e-14 -0.044672153890132904 1 True True
2904.221 4.797539234161377 -1.384325073366501 1.6896589438067835 -1.8761092625060023 -1.5707362333880823 3.226654052734375 -0.11872288584709167 0.0 -2.7424097424955107e-05 0.002496217843145132 -3.4196206977435315e-33 -0.11334747821092606 1 True True
2904.2709999999997 4.789867401123047 -1.3843620133451005 1.6896756331073206 -1.8760487041869105 -1.5708044211017054 3.219066858291626 -0.18432407081127167 0.0 -4.417531454237178e-05 0.000662211561575532 -0.0 -0.18530310690402985 1 True True
2904.321 4.7788496017456055 -1.3843165350011368 1.6896961371051233 -1.876073499719137 -1.5707653204547327 3.208094835281372 -0.25653696060180664 0.0 -0.00013196203508414328 0.00019916266319341958 -8.156536205206066e-05 -0.2583988308906555 1 True True
2904.371 4.7641496658325195 -1.3843208116343995 1.6896689573871058 -1.8760529957213343 -1.5708406607257288 3.1934475898742676 -0.3204747438430786 0.0 -0.000456612411653623 0.0001265231694560498 -7.59821487008594e-05 -0.3244835436344147 1 True True
2904.421 4.74618673324585 -1.3843654108098526 1.6895960013019007 -1.8760487041869105 -1.5707967917071741 3.1753971576690674 -0.39814120531082153 0.0 -0.0013335245894268155 0.0001598703966010362 -3.328175411773885e-19 -0.3913421630859375 1 True True
2904.471 4.724567413330078 -1.3843336713365098 1.6894548575030726 -1.8760901890196742 -1.570772949849264 3.15378475189209 -0.46006345748901367 0.0006129485554993153 -0.001246193889528513 0.0001410136028425768 -5.055504827140415e-38 -0.4588853716850281 1 True True
2904.5209999999997 4.6995391845703125 -1.3842399728349228 1.6894643942462366 -1.8760572872557582 -1.5708087126361292 3.128774881362915 -0.5351036787033081 0.0018121645553037524 -0.0016493351431563497 0.00021165436191949993 -0.00019988698477391154 -0.5331957936286926 1 True True
2904.571 4.67101526260376 -1.3842006486705323 1.6894248167621058 -1.87603821376943 -1.5707724730121058 3.100313663482666 -0.6055445075035095 0.002167021855711937 -0.001961751142516732 0.00046182985533960164 0.00011155504762427881 -0.6066722869873047 1 True True
2904.621 4.639050483703613 -1.3841235947659989 1.6893609205829065 -1.8760425053038539 -1.570801083241598 3.0683085918426514 -0.6747728586196899 0.0014957478269934654 -0.0013888637768104672 0.0005533756921067834 0.00045840180246159434 -0.6782731413841248 1 True True
2904.671 4.603578090667725 -1.3840651673129578 1.6892684141742151 -1.8759776554503382 -1.5707805792437952 3.0327088832855225 -0.7434468865394592 0.0022434666752815247 -0.0013962460216134787 0.0008050763863138855 4.777684807777405e-05 -0.7447709441184998 1 True True
2904.721 4.5646748542785645 -1.3839925539544602 1.6891968886004847 -1.8759900532164515 -1.5708540121661585 2.9936182498931885 -0.8169445395469666 0.0014249228406697512 -0.0016471811104565859 0.0009071552776731551 -0.00014554888184648007 -0.8102322816848755 1 True True
2904.7709999999997 4.522107124328613 -1.3839539897492905 1.689051930104391 -1.8759857616820277 -1.5707677046405237 2.9513936042785645 -0.8837794065475464 0.0013344184262678027 -0.0018526877975091338 0.00037722825072705746 -0.0001292401138925925 -0.8867054581642151 1 True True
2904.821 4.4760541915893555 -1.3838210713914414 1.6889851729022425 -1.875929971734518 -1.570801083241598 2.9052295684814453 -0.9503521919250488 0.002460822695866227 -0.003019623225554824 0.0002726116217672825 -7.336554475045887e-09 -0.9495397806167603 1 True True
2904.871 4.4265289306640625 -1.3837122035077591 1.6888816992389124 -1.875986715356344 -1.5708211104022425 2.8559517860412598 -1.0228465795516968 0.0017793190199881792 -0.0014244368067011237 0.0004219790571369231 -5.876699235578167e-16 -1.0152729749679565 1 True True
2904.921 4.3744683265686035 -1.383664832716324 1.6887415091144007 -1.875890394250387 -1.570813004170553 2.803588390350342 -1.0482181310653687 0.003238538047298789 -0.003562504192814231 0.000605610606726259 -8.926721319299981e-35 -1.043136477470398 1 True True
2904.971 4.322103977203369 -1.3835321974805375 1.6886499563800257 -1.8759266338744105 -1.5708335081683558 2.7512965202331543 -1.044832468032837 0.0016039290931075811 -0.0029522955883294344 0.0008750459528528154 -1.4656392011147545e-07 -1.0512597560882568 1 True True
2905.0209999999997 4.26967191696167 -1.3834406000426789 1.6885302702533167 -1.8758870563902796 -1.5707925001727503 2.6990966796875 -1.0480666160583496 0.0016503935912624002 -0.0015913937240839005 0.0004738588468171656 4.1918340798474674e-08 -1.0479081869125366 1 True True
2905.071 4.217395305633545 -1.3833115857890625 1.6884196440326136 -1.8758708439269007 -1.5708211104022425 2.646437883377075 -1.0505682229995728 0.002554014092311263 -0.0030054969247430563 0.0002646564971655607 8.521312702214345e-05 -1.0371689796447754 1 True True
2905.121 4.164992332458496 -1.3832648557475586 1.6882780233966272 -1.875899454156393 -1.5707891623126429 2.594212532043457 -1.0435994863510132 0.0020256764255464077 -0.0038139973767101765 0.0002963176229968667 -1.0453074850147459e-07 -1.0523033142089844 1 True True
2905.171 4.112667083740234 -1.3831884425929566 1.6881983915912073 -1.8757506809630335 -1.5707443396197718 2.542019844055176 -1.0467756986618042 0.0017791447462514043 -0.0013455465668812394 0.00040931609692052007 -0.00015432958025485277 -1.0466634035110474 1 True True
2905.221 4.0603532791137695 -1.383088157778122 1.6880634466754358 -1.875803133050436 -1.5708254019366663 2.4894211292266846 -1.0513131618499756 0.0025576374027878046 -0.0034009176306426525 0.0005550355999730527 -1.8371236823466752e-11 -1.0443989038467407 1 True True
2905.2709999999997 4.007963180541992 -1.3828976315310975 1.68799335161318 -1.8758155308165492 -1.5708125273333948 2.437103748321533 -1.045817494392395 0.0019552186131477356 -0.0029876974876970053 0.000393402500776574 -1.487864231819458e-08 -1.0540341138839722 1 True True
2905.321 3.955655574798584 -1.3828765612891694 1.6878464857684534 -1.8757511578001917 -1.570784870778219 2.3849077224731445 -1.0455478429794312 0.0014603215968236327 -0.0011016471544280648 0.0003527450026012957 -2.968858421060203e-16 -1.0484195947647095 1 True True
2905.371 3.903242588043213 -1.382777677183487 1.6877239386187952 -1.875740190545553 -1.570813004170553 2.332418203353882 -1.0518357753753662 0.002433082787320018 -0.002853844314813614 0.0002758917980827391 -6.7615518219155124e-12 -1.041517972946167 1 True True
2905.421 3.8508479595184326 -1.3827685427716752 1.687622372304098 -1.8757358990111292 -1.5707810560809534 2.279982328414917 -1.0450352430343628 0.002431864384561777 -0.003920838702470064 0.0008809806895442307 -2.78578546897279e-08 -1.0497572422027588 1 True True
2905.471 3.7984607219696045 -1.3825798344663163 1.6875203291522425 -1.875688215295309 -1.5707882086383265 2.2278125286102295 -1.047516942024231 0.001737504731863737 -0.0018720404477789998 0.0003810127091128379 1.5375865913824782e-08 -1.0482046604156494 1 True True
2905.5209999999997 3.74617600440979 -1.3824674052051087 1.6874349753009241 -1.8756801090636195 -1.5708044211017054 2.175285816192627 -1.052007794380188 0.0023457189090549946 -0.0028369249776005745 0.0005145947798155248 3.7390545912785456e-05 -1.042871117591858 1 True True
2905.571 3.6938164234161377 -1.3824176651290436 1.6872971693622034 -1.8756400547423304 -1.5707357565509241 2.1229591369628906 -1.0440075397491455 0.0025634802877902985 -0.0033891790080815554 0.0006045177578926086 -5.3540887279268645e-09 -1.0538430213928223 1 True True
2905.621 3.6414730548858643 -1.3823114198497315 1.6871607939349573 -1.8756324253477992 -1.5707767645465296 2.0707030296325684 -1.0472944974899292 0.0013866914669051766 -0.0015893088420853019 0.0003658566565718502 -3.744995410670526e-05 -1.0462042093276978 1 True True
2905.671 3.589174747467041 -1.3822215360454102 1.6870744864093226 -1.8756524525084437 -1.5708492437945765 2.018249273300171 -1.0532623529434204 0.0020378734916448593 -0.002542249159887433 0.0005912163178436458 4.285551767679863e-05 -1.0443651676177979 1 True True
2905.721 3.536672353744507 -1.382090986972191 1.6869171301471155 -1.8755847416319789 -1.570813004170553 1.9658515453338623 -1.0412663221359253 0.002668675035238266 -0.003240988589823246 0.0006959381280466914 -1.743982203095129e-08 -1.0468008518218994 1 True True
2905.7709999999997 3.4843008518218994 -1.3820294004729767 1.6867616812335413 -1.875552316705221 -1.5707929770099085 1.9135990142822266 -1.044901728630066 0.0015709269791841507 -0.001793333562090993 0.00036434430512599647 -0.00014919454406481236 -1.0485800504684448 1 True True
2905.821 3.4319839477539062 -1.3819201749614258 1.6866701284991663 -1.875528474847311 -1.5708487669574183 1.861147165298462 -1.0516693592071533 0.002582511631771922 -0.002389613538980484 0.0005017691873945296 1.6349119391634304e-08 -1.0424365997314453 1 True True
2905.871 3.379633665084839 -1.3818705391934891 1.6865461508380335 -1.8755046329894007 -1.5708211104022425 1.8087985515594482 -1.046148419380188 0.002922726096585393 -0.0033541391603648663 0.0003636461915448308 3.168763214489445e-05 -1.0553637742996216 1 True True
2905.921 3.327284336090088 -1.3817776155522843 1.6863964239703577 -1.8754774532713832 -1.570841137562887 1.7565842866897583 -1.047175645828247 0.0019310977077111602 -0.0018768470035865903 0.0004243893490638584 4.8133614253812915e-24 -1.0511478185653687 1 True True
2905.971 3.2749526500701904 -1.3817116034081955 1.6863511244403284 -1.8754569492735804 -1.570784870778219 1.704060435295105 -1.0516587495803833 0.0022157100029289722 -0.0019810586236417294 0.0006748426239937544 7.314777983775545e-43 -1.0422199964523315 1 True True
2906.0209999999997 3.22259783744812 -1.3815272760442276 1.6862509886371058 -1.8754731617369593 -1.5707648436175745 1.6516880989074707 -1.0474802255630493 0.0018001426942646503 -0.0031122039072215557 0.0009486490162089467 0.0 -1.0457844734191895 1 True True
2906.071 3.170152425765991 -1.3815285128406067 1.6860864798175257 -1.8754455051817835 -1.5707691351519983 1.5994155406951904 -1.0458159446716309 0.002021054271608591 -0.0019149489235132933 0.00043788927723653615 0.0 -1.0460243225097656 1 True True
2906.121 3.119215250015259 -1.3814071428826828 1.6859834829913538 -1.875441690484518 -1.570768181477682 1.54835844039917 -0.990958571434021 0.0019290308700874448 -0.001858640112914145 0.00041944795520976186 0.00028227889561094344 -0.9851312637329102 1 True True
2906.171 3.071514129638672 -1.3812783521464844 1.6858962217914026 -1.8754216633238734 -1.570772949849264 1.500811219215393 -0.9135836362838745 0.0018370201578363776 -0.00210422370582819 0.0002712132700253278 1.4815844731619343e-11 -0.9267814755439758 1 True True
2906.221 3.0274293422698975 -1.3812170338681717 1.68579608598818 -1.8753777943053187 -1.5708006064044397 1.4566162824630737 -0.852220892906189 0.0016416334547102451 -0.0023912719916552305 0.0005406239069998264 4.4462851178650453e-07 -0.8475373983383179 1 True True
2906.2709999999997 2.9868526458740234 -1.3811836403659363 1.6857665220843714 -1.8753615818419398 -1.5707691351519983 1.4160898923873901 -0.7776014804840088 0.0016614028718322515 -0.0021866715978831053 0.0002965486783068627 -3.373943854967365e-06 -0.7851336598396301 1 True True
2906.321 2.9497010707855225 -1.3811029654792328 1.6856854597674769 -1.8753138981261195 -1.5708048979388636 1.378988265991211 -0.7047102451324463 0.0010893542785197496 -0.0009931288659572601 0.00019945022359024733 -5.125027155613951e-25 -0.7124962210655212 1 True True
2906.371 2.9160871505737305 -1.3810385030559083 1.6855266729937952 -1.8753382168211878 -1.5707691351519983 1.345306396484375 -0.6383270621299744 0.0012620239285752177 -0.0007453368743881583 0.0003638587368186563 9.0645036462975e-19 -0.6413971781730652 1 True True
2906.421 2.8860220909118652 -1.3809782576612015 1.6854594389544886 -1.8753181896605433 -1.570772949849264 1.3151681423187256 -0.5679178237915039 0.0007337902789004147 -0.0009436914115212858 0.00019671430345624685 -3.5490346772526493e-10 -0.5749551057815552 1 True True
2906.471 2.8593897819519043 -1.380963147883751 1.6854208151446741 -1.8753382168211878 -1.570756737385885 1.2884904146194458 -0.4990190863609314 0.0006237264606170356 -0.0004889991832897067 0.0008863081457093358 0.0008022377733141184 -0.49974876642227173 1 True True
2906.5209999999997 2.8362340927124023 -1.3809063595584412 1.6854007879840296 -1.8752747974791468 -1.5707929770099085 1.2653814554214478 -0.4258677065372467 0.0006534574786201119 -0.0004383040068205446 0.00014288464444689453 0.00039195409044623375 -0.4272526800632477 1 True True
2906.571 2.8163766860961914 -1.3808346551707764 1.6853740851031702 -1.8752943478026332 -1.5707967917071741 1.2455768585205078 -0.3559107780456543 0.0012479318538680673 -0.000711209315340966 0.00011093841021647677 -0.00019960262579843402 -0.35957038402557373 1 True True
2906.621 2.800304889678955 -1.3808435511640091 1.685338322316305 -1.875286718408102 -1.5707767645465296 1.2295312881469727 -0.2918999195098877 0.0010127224959433079 -0.0007008419488556683 0.00012609665282070637 -0.0001171397088910453 -0.2935939133167267 1 True True
2906.671 2.7875282764434814 -1.380765513782837 1.6852529684649866 -1.8753425083556117 -1.5708368460284632 1.216756820678711 -0.22257447242736816 0.0013978397473692894 -0.0007615017821080983 4.382771294331178e-05 -0.00013655419752467424 -0.2224792093038559 1 True True
2906.721 2.778343439102173 -1.380753682260849 1.6852076689349573 -1.8753344021239222 -1.5707843939410608 1.20760977268219 -0.14988502860069275 0.0004798605223186314 -0.000613220501691103 0.0001355701679131016 1.4213251409156413e-10 -0.1499667465686798 1 True True
2906.7709999999997 2.772653818130493 -1.3807777625373383 1.6852167288409632 -1.8752500019469203 -1.570801083241598 1.2018928527832031 -0.08185375481843948 0.000234033796004951 -0.00036390824243426323 0.00010516702604945749 2.158995152901042e-29 -0.0822623148560524 1 True True
2906.821 2.7704384326934814 -1.38077004373584 1.6852362791644495 -1.875230451623434 -1.5707891623126429 1.199676275253296 -0.012057331390678883 0.00014344151713885367 -0.00021468556951731443 8.014289051061496e-05 0.0 -0.010901964269578457 1 True True
2906.871 2.770543336868286 -1.3800772738507767 1.6858051458941858 -1.876458307305807 -1.5707319418536585 1.1997268199920654 -0.0014633330283686519 0.024198459461331367 0.03685501217842102 -0.06200253218412399 -3.7906753033538614e-15 0.0002198028814746067 1 True True
2906.921 2.7705087661743164 -1.378492758875229 1.6887190977679651 -1.881289621392721 -1.5707843939410608 1.1996524333953857 -0.0014899810776114464 0.04576675593852997 0.08224518597126007 -0.13848599791526794 -7.121975068002939e-05 -6.704136467305943e-05 1 True True
2906.971 2.770505905151367 -1.3754372757724305 1.6942299048053187 -1.8895369968810023 -1.5707529226886194 1.199644923210144 -0.0007468548137694597 0.07124380767345428 0.13150182366371155 -0.21212992072105408 -5.734780279453844e-05 -0.0004029711417388171 1 True True
2907.0209999999997 2.770427703857422 -1.3711703431657334 1.7017839590655726 -1.9013921223082484 -1.5708373228656214 1.1996524333953857 -0.00021007214672863483 0.09664507955312729 0.165164515376091 -0.2600458860397339 -5.1289454859215766e-05 -0.00023720059834886342 1 True True
2907.071 2.77046537399292 -1.3656118673137208 1.7113569418536585 -1.916544576684469 -1.5707724730121058 1.1996822357177734 -0.0002265555231133476 0.12451384961605072 0.2146250307559967 -0.33463189005851746 -3.0682852092400736e-11 -0.000151702988659963 1 True True
2907.121 2.7704203128814697 -1.358755813246109 1.7231953779803675 -1.9353538952269496 -1.5707891623126429 1.199615240097046 -0.00014254248526412994 0.14835387468338013 0.25708258152008057 -0.40681469440460205 -4.66073203366569e-30 -0.00011524140427354723 1 True True
2907.171 2.7704455852508545 -1.350498379474022 1.7375147978412073 -1.9574533901610316 -1.5707967917071741 1.199628472328186 -0.00010018568718805909 0.17611077427864075 0.3021593391895294 -0.47312217950820923 -0.0 -9.037368727149442e-05 1 True True
2907.221 2.770394802093506 -1.341116578584053 1.7535532156573694 -1.9831868610777796 -1.5707843939410608 1.1996241807937622 -7.16864233254455e-05 0.20294280350208282 0.35025259852409363 -0.5450907945632935 6.067330882500444e-13 -1.4946896911971074e-15 1 True True
2907.2709999999997 2.7703919410705566 -1.331069902782776 1.7709844748126429 -2.0107156238951625 -1.5708211104022425 1.199591040611267 3.2682015427276667e-10 0.1897388994693756 0.32665082812309265 -0.5356326103210449 9.216293598688451e-32 -6.138546236332033e-16 1 True True
2907.321 2.7704248428344727 -1.3221141260913392 1.7863972822772425 -2.035036703149313 -1.570801083241598 1.1995762586593628 0.0 0.1694851815700531 0.2859426736831665 -0.4599602222442627 0.0 -9.324462575075794e-35 1 True True
2907.371 2.7704291343688965 -1.3143884402564545 1.7995570341693323 -2.055910726586813 -1.5707724730121058 1.199661374092102 0.0 0.14129602909088135 0.23780936002731323 -0.39057910442352295 0.0 -0.0 1 True True
2907.421 2.770399332046509 -1.3081049484065552 1.810439411793844 -2.073233266870016 -1.5708254019366663 1.1996045112609863 0.0 0.1134495660662651 0.20169195532798767 -0.3163493573665619 0.0 -0.0 1 True True
2907.471 2.77044415473938 -1.3030774754336854 1.819226090108053 -2.0871478519835414 -1.5707724730121058 1.1996241807937622 0.0 0.09018266946077347 0.15042297542095184 -0.23369911313056946 0.0 -0.0 1 True True
2907.5209999999997 2.7704455852508545 -1.2992512744716187 1.8259685675250452 -2.0975595913329066 -1.5708087126361292 1.1996331214904785 0.0 0.06205890700221062 0.10734131187200546 -0.18161065876483917 0.0 -0.0 1 True True
2907.571 2.770432233810425 -1.2967586380294343 1.8301437536822718 -2.104364057580465 -1.5707925001727503 1.1996420621871948 0.0 0.039200909435749054 0.06706371903419495 -0.10963527113199234 0.0 -0.0 1 True True
2907.621 2.7704529762268066 -1.2958524984172364 1.831822697316305 -2.1078888378539027 -1.5708373228656214 1.1996208429336548 1.1701476477295383e-21 0.011671170592308044 0.01826787367463112 -0.030474284663796425 -0.0001227223256137222 -0.0 1 True True
2907.671 2.770448684692383 -1.295715556745865 1.8320038954364222 -2.1081630192198695 -1.5708335081683558 1.1996376514434814 2.72824563580798e-05 0.0053360676392912865 0.0026776075828820467 0.0005066171288490295 -7.835592987248674e-05 -0.0 1 True True
2907.721 2.7704453468322754 -1.2949048441699524 1.8330162207232874 -2.107657094995016 -1.5707443396197718 1.199661374092102 4.5764425848300585e-35 0.013203821144998074 0.023405639454722404 0.020048439502716064 0.0022974784951657057 -0.0 1 True True
2907.7709999999997 2.770456314086914 -1.2951256197742005 1.8329146544085901 -2.107936044732565 -1.5707443396197718 1.1996911764144897 0.00014882191317155957 -0.0011233641998842359 -0.0016346597112715244 -0.0028699985705316067 -2.5915229343809187e-05 -0.0 1 True False
2907.821 2.7704739570617676 -1.2951677602580567 1.8328822294818323 -2.1079913578429164 -1.5708168188678187 1.19959557056427 7.318560528801754e-05 -0.003873293986544013 -0.0026714392006397247 -0.003574895905330777 -7.425700459862128e-05 -0.0 1 True False
2907.871 2.770416021347046 -1.2952725452235718 1.8328588644610804 -2.108047147790426 -1.5707805792437952 1.1996045112609863 3.6393252230482176e-05 -0.0027860780246555805 -0.0034293653443455696 -0.0037264139391481876 -0.0002581952721811831 0.00016132947348523885 1 True False
2907.921 2.7704145908355713 -1.295345054273941 1.8327587286578577 -2.1081072292723597 -1.570801083241598 1.1995582580566406 2.4146138687181737e-22 -0.0007735634571872652 -0.0019251586636528373 -0.0002912673226092011 1.892110303946659e-17 -3.6301520933066987e-22 1 True False
2907.971 2.7704529762268066 -1.295298771267273 1.8327119986163538 -2.1081072292723597 -1.570824925099508 1.1996119022369385 0.0 -0.0001405918155796826 -0.0016282233409583569 -0.00012790062464773655 2.8741195610011797e-36 -5.514249586964588e-41 1 True False
2908.0209999999997 2.770460605621338 -1.2961424452117463 1.8314407507525843 -2.1066180668272914 -1.570784870778219 1.1996285915374756 0.0 -0.025295361876487732 -0.044769201427698135 0.06580273807048798 0.0 -0.0 1 True False
2908.071 2.77044415473938 -1.297747091656067 1.8283894697772425 -2.101302286187643 -1.5707805792437952 1.1995954513549805 0.0 -0.05130770802497864 -0.09069761633872986 0.14653801918029785 0.0 -0.0 1 True False
2908.121 2.770465135574341 -1.3009212476066132 1.822906796132223 -2.0925690136351527 -1.5707967917071741 1.19965398311615 0.0 -0.07733166217803955 -0.1292959600687027 0.2109970599412918 0.0 -0.0 1 True False
2908.171 2.7704246044158936 -1.3055012387088318 1.8149636427508753 -2.080565115014547 -1.5708616415606897 1.1996568441390991 0.0 -0.10291915386915207 -0.1781930774450302 0.27916014194488525 0.0 -0.0 1 True False
2908.221 2.770411491394043 -1.3111638289741059 1.8051336447345179 -2.065000196496481 -1.5708048979388636 1.1996253728866577 0.0 -0.12558984756469727 -0.2157975137233734 0.36095938086509705 0.0 -0.0 1 True False
2908.2709999999997 2.7704484462738037 -1.3181956571391602 1.793246094380514 -2.0457850895323695 -1.570813004170553 1.1995941400527954 0.0 -0.15137606859207153 -0.26139703392982483 0.4230717122554779 -0.00011017941869795322 -0.0 1 True False
2908.321 2.770416021347046 -1.326516942386963 1.7787488142596644 -2.0232554874815882 -1.5707605520831507 1.199637532234192 0.0 -0.17997825145721436 -0.3121115565299988 0.4935341775417328 -6.52963572065346e-05 -0.0 1 True False
2908.371 2.7704365253448486 -1.335971162920334 1.7624166647540491 -1.9972120724120082 -1.5708368460284632 1.1996030807495117 0.0 -0.20716026425361633 -0.34929120540618896 0.5579065084457397 -5.38214371772483e-05 -0.0 1 True False
2908.421 2.7704365253448486 -1.346106917863228 1.7450888792621058 -1.9699245891966761 -1.5707925001727503 1.1996731758117676 0.0 -0.1843894124031067 -0.3275390565395355 0.5238847732543945 0.00047217257088050246 -0.0 1 True False
2908.471 2.770460605621338 -1.3547649395516892 1.7299845854388636 -1.9459926090636195 -1.5708325544940394 1.199600100517273 0.0 -0.1632407158613205 -0.2840801775455475 0.44639620184898376 -0.0001370296668028459 -0.0 1 True False
2908.5209999999997 2.7704408168792725 -1.3622719508460541 1.7170494238482874 -1.9254194698729457 -1.5708087126361292 1.1996285915374756 0.0 -0.1398134082555771 -0.2401183694601059 0.37702056765556335 -2.3588616386405192e-05 -0.0 1 True False
2908.571 2.770427942276001 -1.3686016660979767 1.706404987965719 -1.908656736413473 -1.570813004170553 1.1996315717697144 0.0 -0.11271121352910995 -0.19259969890117645 0.30455756187438965 -1.4250202184484806e-05 -0.0 1 True False
2908.621 2.770399570465088 -1.3734281969121476 1.6979034582721155 -1.8950182400145472 -1.5708087126361292 1.199644923210144 0.0 -0.08598604053258896 -0.15223786234855652 0.23078352212905884 -1.1276087232834083e-17 -0.0 1 True False
2908.671 2.770399570465088 -1.3771657657674332 1.6913555304156702 -1.8850404224791468 -1.5707967917071741 1.1996119022369385 0.0 -0.05976231396198273 -0.1083647683262825 0.1662539690732956 -1.7128405198996134e-36 -0.0 1 True False
2908.721 2.770432233810425 -1.3796637815288086 1.6872337500201624 -1.8785349331297816 -1.5707925001727503 1.199615240097046 0.0 -0.03761506825685501 -0.05729392170906067 0.09099853038787842 -0.0 -0.0 1 True False
2908.7709999999997 2.77044415473938 -1.3806021821549912 1.6854479948626917 -1.8756286106505335 -1.5708211104022425 1.1996583938598633 0.0 -0.01065357867628336 -0.017129840329289436 0.02537430450320244 -0.0 -0.0 1 True False
2908.821 2.7704365253448486 -1.380673961048462 1.6853368918048304 -1.87530579189443 -1.5708087126361292 1.199644923210144 0.0 -1.076914226237713e-34 0.0004980321391485631 -2.7327999418957916e-08 -0.0 -0.0 1 False False
2908.871 2.770387649536133 -1.3806739312461396 1.6853745619403284 -1.875373979608053 -1.5707967917071741 1.1996495723724365 0.0 -2.644938103912864e-05 -9.843066800385714e-05 0.0006037931307218969 -0.0 -0.0 1 False False
2908.921 2.770378828048706 -1.380702407365181 1.6853092352496546 -1.87530579189443 -1.5707925001727503 1.1996196508407593 0.0 -7.084922981448472e-05 -0.0003394312516320497 0.0009178551845252514 -0.0 -0.0 1 False False
2908.971 2.7704246044158936 -1.3807188880494614 1.6853135267840784 -1.875338693658346 -1.5707686583148401 1.199644923210144 0.0 -0.00042628758819773793 -0.00032180731068365276 0.001468132482841611 -0.0 -0.0 1 False False
2909.0209999999997 2.770432233810425 -1.3807429534247895 1.6852572599994105 -1.8752581081786097 -1.5707929770099085 1.1996361017227173 0.0 -0.0003451943339314312 -0.0004986835410818458 0.0005908821476623416 -0.0 -0.0 1 False False
2909.071 2.7704691886901855 -1.3807369035533448 1.6852291266070765 -1.8752266369261683 -1.570784870778219 1.1996331214904785 0.0 -0.00011159794667037204 -0.00048454495845362544 0.0001911396684590727 -0.0 -0.0 1 False False
2909.121 2.770456314086914 -1.380729616885521 1.6852496306048792 -1.8752948246397914 -1.570784870778219 1.199661374092102 0.0 -0.00011022094986401498 -0.0001949399447767064 9.13095791474916e-05 -0.0 -0.0 1 False False
2909.171 2.770399570465088 -1.3806965363076706 1.6852052847491663 -1.8752623997130335 -1.5707648436175745 1.1996405124664307 0.0 -7.459845073753968e-05 -0.000108706510218326 7.269314664881676e-05 -0.0 -0.0 1 False False
2909.221 2.770416021347046 -1.3807218831828614 1.6852343718158167 -1.8752948246397914 -1.5707886854754847 1.1996748447418213 0.0 -6.328924064291641e-05 -8.132944640237838e-05 1.004933636306049e-11 -0.0 -0.0 1 False False
2909.2709999999997 2.770366668701172 -1.3807250422290345 1.685213867818014 -1.875242372552389 -1.570801083241598 1.19965398311615 0.0 -1.401298464324817e-44 -4.550442099571228e-06 1.5264964937800822e-30 -0.0 -0.0 1 False False
2909.321 2.7704570293426514 -1.3807536673596879 1.6852095762835901 -1.8752385578551234 -1.57074481645693 1.1996419429779053 0.0 0.0 -1.0707676621305624e-35 0.0 -0.0 -0.0 1 False False
2909.371 2.7704124450683594 -1.3807414335063477 1.685221020375387 -1.8752385578551234 -1.5707686583148401 1.1996045112609863 0.0 0.0 -0.0 0.0 -0.0 -0.0 1 False False
2909.421 2.7704694271087646 -1.380729616885521 1.6851633230792444 -1.8752185306944789 -1.570784870778219 1.1996331214904785 0.0 0.0 -0.0 0.0 -0.0 -0.0 1 False False
2909.471 2.770387649536133 -1.3807414186051865 1.685218636189596 -1.8752948246397914 -1.570784870778219 1.1996153593063354 0.0 0.0 -0.0 0.0 -0.0 -0.0 1 False False
2909.5209999999997 2.770439863204956 -1.3807459336570282 1.6851633230792444 -1.8752747974791468 -1.570784870778219 1.19959557056427 0.0 0.0 -0.0 0.0 -0.0 -0.0 1 False False
2909.571 2.770383358001709 -1.3807369780591507 1.6852377096759241 -1.8752309284605921 -1.5707767645465296 1.199637532234192 0.0 0.0 -0.0 0.0 -0.0 -0.0 1 False False
2909.621 2.7704451084136963 -1.3807369780591507 1.68524676958193 -1.875242372552389 -1.5707925001727503 1.1995985507965088 0.0 0.0 -0.0 0.0 -0.0 -0.0 1 False False
2909.671 2.770460605621338 -1.3807716828635712 1.6851971785174769 -1.8752342663206996 -1.5707686583148401 1.1996538639068604 0.0 0.0 -0.0 0.0 -0.0 -0.0 1 False False
2909.721 2.770427942276001 -1.3807581228068848 1.685258690510885 -1.8753024540343226 -1.5707805792437952 1.1996197700500488 0.0 0.0 -0.0 0.0 -0.0 -0.0 1 True False
2909.7709999999997 2.770460605621338 -1.380732463007309 1.6852334181415003 -1.8752466640868128 -1.5707891623126429 1.1996687650680542 0.0 0.0 -0.0 0.0 -0.0 -0.0 1 True False
2909.821 2.7704365253448486 -1.3807295870831986 1.6852424780475062 -1.8752786121764125 -1.5708168188678187 1.199644923210144 0.0 0.0 -0.0 0.0 -0.0 -0.0 1 True False
2909.871 2.7704203128814697 -1.380712867980339 1.6852377096759241 -1.875282426873678 -1.5707925001727503 1.1996089220046997 0.0 0.0 -0.0 0.0 -0.0 -0.0 1 True False
2909.921 2.7704203128814697 -1.3806993824294587 1.685213867818014 -1.8752953014769496 -1.5708211104022425 1.1996538639068604 0.0 0.0 -0.0 0.0 -0.0 -0.0 1 True False
2909.971 2.7704410552978516 -1.3807834696820755 1.685188118611471 -1.875253816644186 -1.5707891623126429 1.1995867490768433 0.0 0.0 -0.0 0.0 -0.0 -0.0 1 True False
2910.0209999999997 2.77046537399292 -1.3807250571301957 1.6852052847491663 -1.8753067455687464 -1.5708373228656214 1.199661374092102 0.0 0.0 -0.0 0.0 -0.0 -0.0 1 True False
2910.071 2.770448684692383 -1.380730779176094 1.68524676958193 -1.8752790890135707 -1.570801083241598 1.1996777057647705 0.0 0.0 -0.0 0.0 -0.0 -0.0 1 True False
2910.121 2.770493745803833 -1.3807626229575654 1.685213867818014 -1.875249525109762 -1.5708492437945765 1.1995792388916016 2.9302798409958086e-08 0.0 -3.945425532947411e-07 0.0 5.16569428717364e-17 1.3880684594319617e-17 1 True False
2910.171 2.770448684692383 -1.380712867980339 1.6852300802813929 -1.8752747974791468 -1.5707810560809534 1.1996480226516724 -3.446174014243297e-05 0.0 2.419481444620314e-13 0.0 -1.182385062747926e-06 -1.6790195331850555e-06 1 True False
2910.221 2.7704367637634277 -1.3807504040053864 1.685213867818014 -1.8753143749632777 -1.570801083241598 1.1996153593063354 -1.760693521646317e-05 0.0 5.689271765158757e-43 0.0 -3.562509731658281e-10 -2.5504343917148115e-25 1 True False
2910.2709999999997 2.7704803943634033 -1.3807790291360398 1.6852052847491663 -1.8752509556212367 -1.5707529226886194 1.1996285915374756 0.028513740748167038 0.0 0.0 0.0 -5.411461105852242e-29 0.005608832463622093 1 True False
2910.321 2.772646188735962 -1.3806292873672028 1.6849969069110315 -1.875253816644186 -1.5708168188678187 1.2019150257110596 0.07835276424884796 0.00417328579351306 -0.010791407898068428 0.0 -1.0214463823376985e-12 0.08048826456069946 1 True False
2910.371 2.7785494327545166 -1.3802257192185898 1.6843579451190394 -1.875071188012594 -1.5708211104022425 1.2076486349105835 0.1490401327610016 0.0129789337515831 -0.013600384816527367 0.006828248966485262 -1.5515794273367984e-31 0.14486946165561676 1 True False
2910.421 2.787801742553711 -1.3796323251775284 1.683582607899801 -1.8748170338072718 -1.5707271734820765 1.216992735862732 0.2215946614742279 0.01475861668586731 -0.02102331444621086 0.0049673449248075485 -0.0 0.21709351241588593 1 True False
2910.471 2.8005409240722656 -1.3786681455424805 1.6823027769671839 -1.8744703731932582 -1.5707843939410608 1.2296983003616333 0.28630635142326355 0.022228732705116272 -0.026941625401377678 0.007223805412650108 -1.1642774522258037e-09 0.2890585660934448 1 True False
2910.5209999999997 2.816626787185669 -1.3773261469653626 1.6807459036456507 -1.874141355554098 -1.5707767645465296 1.2459195852279663 0.3589324653148651 0.02765410766005516 -0.03317730501294136 0.008972495794296265 0.00015564709610771388 0.3539413511753082 1 True False
2910.571 2.836522340774536 -1.375873328452446 1.6788767019854944 -1.873723646203512 -1.5708373228656214 1.2655893564224243 0.4291174113750458 0.030061965808272362 -0.042111463844776154 0.009730243124067783 4.340555963700671e-15 0.4323877692222595 1 True False
2910.621 2.8596761226654053 -1.3741581600955506 1.676565949116842 -1.8732263050475062 -1.5708487669574183 1.2888749837875366 0.49753615260124207 0.036225348711013794 -0.048575837165117264 0.012789621949195862 6.5933152121610745e-34 0.4943309426307678 1 True False
2910.671 2.886326313018799 -1.3722089690021058 1.6739586035357874 -1.8726541004576625 -1.5708168188678187 1.3155744075775146 0.5667716860771179 0.04303065314888954 -0.05033187195658684 0.013090834952890873 0.0 0.5648100972175598 1 True False
2910.721 2.9165358543395996 -1.3699976664832612 1.6711891333209437 -1.8719827137389125 -1.5707562605487269 1.3458547592163086 0.6384658217430115 0.04552563652396202 -0.06619980186223984 0.011040091514587402 7.476320752175525e-05 0.6375061869621277 1 True False
2910.7709999999997 2.9501166343688965 -1.367537037735321 1.6678808371173304 -1.871167322198385 -1.5707805792437952 1.3794015645980835 0.7074596285820007 0.052922140806913376 -0.06778237968683243 0.015045461244881153 -1.7448034856864885e-15 0.7065926194190979 1 True False
2910.821 2.98744535446167 -1.3647711139968415 1.6643112341510218 -1.8703013859190882 -1.5708335081683558 1.4166145324707031 0.7736663818359375 0.05662008002400398 -0.07614311575889587 0.014969388954341412 0.00010238424874842167 0.7753442525863647 1 True False
2910.871 3.0281529426574707 -1.3618203562549134 1.660267178212301 -1.869418283502096 -1.5707805792437952 1.4572503566741943 0.844072699546814 0.0644448846578598 -0.08187299966812134 0.019139273092150688 9.610627603251487e-05 0.8453512787818909 1 True False
2910.921 3.0721991062164307 -1.3585745704225083 1.6560700575457972 -1.868352552453512 -1.5708053747760218 1.5015610456466675 0.923456609249115 0.06720319390296936 -0.09249252825975418 0.02329244464635849 0.0001570011954754591 0.9120160341262817 1 True False
2910.971 3.1198863983154297 -1.355042265062668 1.6515563170062464 -1.8672920666136683 -1.5707882086383265 1.549132227897644 0.9830980896949768 0.0768774226307869 -0.09192895144224167 0.02447604201734066 -0.000315879617119208 0.9883120059967041 1 True False
2911.0209999999997 3.171035051345825 -1.3513090771487732 1.6465986410724085 -1.866110464135641 -1.5707815329181116 1.600237488746643 1.0383310317993164 0.07720986753702164 -0.10720960795879364 0.019875865429639816 -0.0001001118725980632 1.042006254196167 1 True False
2911.071 3.2233245372772217 -1.3473585408977051 1.641618553792135 -1.8649255237975062 -1.570772949849264 1.6524627208709717 1.0499787330627441 0.07623686641454697 -0.10145393013954163 0.020210256800055504 -8.932134733186103e-06 1.0483818054199219 1 True False
2911.121 3.275721311569214 -1.3436055344394227 1.6365974585162562 -1.8637010059752406 -1.5708172957049769 1.7047808170318604 1.0449482202529907 0.07679980993270874 -0.09809399396181107 0.02879142574965954 -1.8713277997496613e-13 1.0455958843231201 1 True False
2911.171 3.328030824661255 -1.3396969747594376 1.6313484350787562 -1.8626119099059046 -1.570728603993551 1.7572532892227173 1.0503594875335693 0.07395830750465393 -0.09680458158254623 0.01959458738565445 -2.7069486652209207e-09 1.042067289352417 1 True False
2911.221 3.3804588317871094 -1.335918740635254 1.6262877623187464 -1.8613392315306605 -1.5708606878863733 1.8096098899841309 1.0472681522369385 0.07607272267341614 -0.10093560814857483 0.023140324279665947 -2.4031991415540688e-05 1.040991187095642 1 True False
2911.2709999999997 3.43274188041687 -1.3319954735091706 1.6213825384723108 -1.8600594005980433 -1.5708087126361292 1.861964225769043 1.0433224439620972 0.08084851503372192 -0.10067670047283173 0.025673583149909973 -0.00010033605940407142 1.0449447631835938 1 True False
2911.321 3.485102415084839 -1.3282202643207093 1.6164115110980433 -1.8589025936522425 -1.5707810560809534 1.9143892526626587 1.0513547658920288 0.07698122411966324 -0.09989579766988754 0.023700661957263947 -2.5465097661917342e-20 1.0478641986846924 1 True False
2911.371 3.537447214126587 -1.3243851077607651 1.6112139860736292 -1.8578335247435511 -1.570784870778219 1.966649055480957 1.049928069114685 0.07716619968414307 -0.10082486271858215 0.023790568113327026 -5.420226695206822e-17 1.0526421070098877 1 True False
2911.421 3.5899176597595215 -1.3204589647105713 1.6062896887408655 -1.8565651379027308 -1.570813004170553 2.0188729763031006 1.041338324546814 0.0771809071302414 -0.10338430106639862 0.021998412907123566 -6.368680624291301e-05 1.0468504428863525 1 True False
2911.471 3.6421937942504883 -1.316569374208786 1.601206127797262 -1.8553644619383753 -1.5707204977618616 2.071439027786255 1.0505682229995728 0.07789058983325958 -0.10127431899309158 0.024842871353030205 -2.108758945240652e-09 1.0464046001434326 1 True False
2911.5209999999997 3.6945130825042725 -1.3127948206714173 1.5960691610919397 -1.8541561565794886 -1.5707610289203089 2.1237659454345703 1.04922354221344 0.07600829005241394 -0.09992293268442154 0.02667493000626564 -3.203209090917281e-28 1.050386667251587 1 True False
2911.571 3.7469699382781982 -1.3089295786670228 1.5910604635821741 -1.8529111347594203 -1.5707767645465296 2.176135301589966 1.0427032709121704 0.07354221493005753 -0.1012154072523117 0.021265685558319092 -4.4855620411586583e-13 1.046812653541565 1 True False
2911.621 3.7992260456085205 -1.3050989371589203 1.5861414114581507 -1.8518263302245082 -1.5708006064044397 2.2286176681518555 1.050819993019104 0.07551973313093185 -0.10220830142498016 0.018409794196486473 -6.813578443630292e-32 1.0470411777496338 1 True False
2911.671 3.851609230041504 -1.3011852663806458 1.5810392538653772 -1.8506018124022425 -1.5707967917071741 2.2808494567871094 1.0501675605773926 0.07882777601480484 -0.10110600292682648 0.027684247121214867 0.0009617392206564546 1.0520168542861938 1 True False
2911.721 3.90399169921875 -1.2973602575114747 1.5759199301349085 -1.8494569263853968 -1.5708211104022425 2.3330636024475098 1.0455645322799683 0.07445409893989563 -0.0967424064874649 0.023616736754775047 5.142362963164867e-16 1.0453587770462036 1 True False
2911.7709999999997 3.95631742477417 -1.2935803991607209 1.570826832448141 -1.848231931725973 -1.5707967917071741 2.385678291320801 1.0489882230758667 0.07779846340417862 -0.10244748741388321 0.02151375077664852 2.5383701217351895e-12 1.038507342338562 1 True False
2911.821 4.008751392364502 -1.28962858140979 1.5658581892596644 -1.8468357525267542 -1.5707686583148401 2.4379124641418457 1.0508830547332764 0.07706404477357864 -0.10036133974790573 0.02880026027560234 0.00021665192616637796 1.047766089439392 1 True False
2911.871 4.061097145080566 -1.285794125204422 1.560756031666891 -1.845760007897848 -1.5707767645465296 2.4902586936950684 1.0419301986694336 0.07889214903116226 -0.09673044830560684 0.02527732029557228 -7.69306207075715e-05 1.043784260749817 1 True False
2911.921 4.113485336303711 -1.2819549900344391 1.5556324164019983 -1.8446546993651332 -1.570813004170553 2.5426907539367676 1.0499104261398315 0.07376234233379364 -0.09785153716802597 0.019707947969436646 -1.8728938400158768e-09 1.0444995164871216 1 True False
2912.171 4.375234127044678 -1.262679473762848 1.5304749647723597 -1.8385359249510707 -1.5707805792437952 2.8043785095214844 1.043494462966919 0.07957044243812561 -0.10266085714101791 0.019190635532140732 -2.1484575999774352e-13 1.0445842742919922 1 True False
2912.221 4.427149772644043 -1.2588260036757966 1.5256202856646937 -1.8374344311156214 -1.5708211104022425 2.8563733100891113 1.013547658920288 0.07828395813703537 -0.09656640142202377 0.019575346261262894 -0.0007285357569344342 1.0112249851226807 1 True False
2912.2709999999997 4.47584867477417 -1.2553588908961792 1.5208266417132776 -1.8363648853697718 -1.5707891623126429 2.9049484729766846 0.9459395408630371 0.06862958520650864 -0.08625523746013641 0.024838194251060486 -0.0002016482612816617 0.9548701047897339 1 True False
2912.321 4.5210652351379395 -1.2518375676921387 1.5165041128741663 -1.8353234730162562 -1.570829216633932 2.950382947921753 0.8717933893203735 0.06139842048287392 -0.08745439350605011 0.015778085216879845 -4.358844620911459e-23 0.8659465312957764 1 True False
2912.371 4.563021659851074 -1.2487775844386597 1.5125358740436 -1.8342615566649378 -1.5707767645465296 2.9921035766601562 0.7961492538452148 0.059269651770591736 -0.07357064634561539 0.020334377884864807 -4.4155062398300065e-18 0.8035740852355957 1 True False
2912.421 4.601333141326904 -1.246161774998047 1.5086754004107874 -1.833470960656637 -1.5708091894732874 3.030378580093384 0.7351177930831909 0.05098399147391319 -0.07065855711698532 0.016907915472984314 -6.707161068763538e-37 0.7431724667549133 1 True False
2912.471 4.635990142822266 -1.2434647244266053 1.5054381529437464 -1.8325654468932093 -1.5707529226886194 3.0653269290924072 0.6662412881851196 0.04751847684383392 -0.06346157938241959 0.015386936254799366 6.468818400861762e-14 0.6616142988204956 1 True False
2912.5209999999997 4.667418003082275 -1.2412752372077485 1.5022123495685022 -1.831876894036764 -1.5708087126361292 3.096669912338257 0.5925464630126953 0.042937520891427994 -0.05538811907172203 0.015118880197405815 -2.2911283981130737e-10 0.595584511756897 1 True False
2912.571 4.695324420928955 -1.2391593617251893 1.499747101460592 -1.8312965832152308 -1.5707362333880823 3.1244781017303467 0.5254898071289062 0.03722517192363739 -0.051310669630765915 0.009807592257857323 -3.4802282337337573e-29 0.52163165807724 1 True False
2912.621 4.719586372375488 -1.2373950642398377 1.4972994963275355 -1.8307763538756312 -1.570756737385885 3.148655891418457 0.4566826820373535 0.034053266048431396 -0.04590747505426407 0.011170868761837482 0.00014955106598790735 0.4700438380241394 1 True False
2912.671 4.740403652191162 -1.2358396810344239 1.4952996412860315 -1.8303781948485316 -1.5708377997027796 3.1696903705596924 0.3837500214576721 0.028808550909161568 -0.03679054230451584 0.009392822161316872 -0.00015592236013617367 0.3782906234264374 1 True False
2912.721 4.757694721221924 -1.2345395249179383 1.4937270323382776 -1.8299123249449671 -1.5708168188678187 3.18703293800354 0.3112202286720276 0.024130970239639282 -0.028685230761766434 0.006835122127085924 -2.39619748754194e-05 0.31364792585372925 1 True False
2912.7709999999997 4.771762371063232 -1.2335302394679566 1.492451016102926 -1.8295465908446253 -1.570813004170553 3.2008402347564697 0.24539132416248322 0.017247965559363365 -0.025542745366692543 0.0046908063814044 -3.534652037728847e-08 0.24757400155067444 1 True False
2912.821 4.781957626342773 -1.2327765983394166 1.4913447538958948 -1.829315801660055 -1.5708048979388636 3.2112512588500977 0.1734076738357544 0.013236764818429947 -0.01812819391489029 0.005695727653801441 -5.369145632375635e-27 0.17539237439632416 1 True False
2912.871 4.7888898849487305 -1.2322943073562165 1.4906142393695276 -1.8291613064207972 -1.5707686583148401 3.218122959136963 0.10456787794828415 0.006913090590387583 -0.010548943653702736 0.0031102632638067007 -1.401298464324817e-45 0.10304779559373856 1 True False
2912.921 4.7922444343566895 -1.2322194439223786 1.4903457800494593 -1.8290783367552699 -1.5707724730121058 3.2214670181274414 0.03547258302569389 0.0016914152074605227 -0.0015520661836490035 0.0011856909841299057 -0.0 0.03454213961958885 1 True False
2912.971 4.792551040649414 -1.2318670612624665 1.49052602449526 -1.8295046291747035 -1.5707724730121058 3.221870183944702 -0.001543525722809136 0.02024730294942856 0.01860886998474598 -0.02561124972999096 2.5816524029664834e-08 1.245559645007832e-13 1 True False
2913.0209999999997 4.792612552642822 -1.2304681998542328 1.4927685896502894 -1.8331276379027308 -1.5708449522601526 3.2218422889709473 0.0002985189203172922 0.03687093406915665 0.06519826501607895 -0.11638201028108597 3.921536952674491e-27 1.8920079692215878e-32 1 True False
2913.071 4.792640686035156 -1.2281784576228638 1.4973042646991175 -1.8401605091490687 -1.5707724730121058 3.221912145614624 0.00034921179758384824 0.05912848562002182 0.12054182589054108 -0.18002496659755707 0.0 0.0 1 True False
2913.121 4.7926483154296875 -1.2246020299247284 1.5045245329486292 -1.8508249721922816 -1.570784870778219 3.2219109535217285 0.000908074842300266 0.08231206238269806 0.16542358696460724 -0.23989196121692657 0.0 0.0005030212341807783 1 True False
2913.171 4.792675495147705 -1.2198605102351685 1.5140531698810022 -1.8648516140379847 -1.5707891623126429 3.221890449523926 0.00030663388315588236 0.10724812000989914 0.21205781400203705 -0.321145236492157 0.0 0.0002278966421727091 1 True False
2913.221 4.792748928070068 -1.2139818233302613 1.5255573431598108 -1.8823334179320277 -1.5707767645465296 3.2219152450561523 0.00015725767298135906 0.1307121068239212 0.2509227693080902 -0.38386574387550354 0.0 0.00013271038187667727 1 True False
2913.2709999999997 4.792724132537842 -1.206915871506073 1.539609734212057 -1.9035216770567835 -1.5708087126361292 3.221895217895508 8.920964319258928e-05 0.1527966558933258 0.29783350229263306 -0.4491977393627167 2.1243227820377797e-05 8.755677845329046e-05 1 True False
2913.321 4.792712211608887 -1.1986305874637146 1.5558303038226526 -1.927929540673727 -1.5707772413836878 3.2219271659851074 8.350717689609155e-05 0.17710214853286743 0.35072824358940125 -0.5291869044303894 4.183542849934511e-20 6.624095716389888e-10 1 True False
2913.371 4.792720794677734 -1.1895181101611634 1.5736835638629358 -1.9545523128905238 -1.5707767645465296 3.2219033241271973 1.9735783263539428e-24 0.17126615345478058 0.33830010890960693 -0.5063014030456543 -2.9653104722415064e-23 1.0062019188891791e-28 1 True False
2913.421 4.792737007141113 -1.1815785330585022 1.58909780183901 -1.978389402429098 -1.5707605520831507 3.2218990325927734 1.413715065151644e-13 0.14205937087535858 0.2917087972164154 -0.4346737265586853 -4.503773264339962e-42 0.0 1 True False
2913.471 4.792728424072266 -1.1747919482043763 1.6025422255145472 -1.9986621342101039 -1.570813004170553 3.2219152450561523 0.0 0.12704229354858398 0.24567961692810059 -0.36863991618156433 -0.0 0.0 1 True False
2913.5209999999997 4.7927165031433105 -1.1691699188998719 1.6135647932635706 -2.015444417993063 -1.5708048979388636 3.2219152450561523 0.0 0.099412702023983 0.19707751274108887 -0.30407676100730896 -0.0 0.0 1 True False
2913.571 4.7927165031433105 -1.1646157664111634 1.6223371664630335 -2.0286137066283167 -1.5708168188678187 3.2219185829162598 0.0 0.08139844238758087 0.15754897892475128 -0.24156257510185242 -0.0 0.0 1 True False
2913.621 4.7927446365356445 -1.1613599520972748 1.6287229696856897 -2.03847660640859 -1.570784870778219 3.2218821048736572 0.0 0.056403808295726776 0.10728960484266281 -0.15957479178905487 -0.0 0.0 1 True False
2913.671 4.792700290679932 -1.1590520602515717 1.6331127325641077 -2.044677873651022 -1.570829216633932 3.2218947410583496 0.0 0.027707522734999657 0.057015012949705124 -0.08963192254304886 -0.0 0.0 1 True False
2913.721 4.792683124542236 -1.1582207840732117 1.634949032460348 -2.047544618646139 -1.5707805792437952 3.221951961517334 0.0 0.0071581024676561356 0.015640201047062874 -0.02488112263381481 -0.0 0.0 1 True False
2913.7709999999997 4.792720794677734 -1.1583196383765717 1.6350262800799769 -2.0476042232909144 -1.5707486311541956 3.2219228744506836 0.0 2.3622220499119884e-11 -0.000207378005143255 1.280527470726156e-07 -0.0 0.0 1 True False
2913.821 4.792691707611084 -1.158256546860077 1.6349924246417444 -2.047680517236227 -1.5707967917071741 3.2219650745391846 0.0 0.000139822339406237 -3.2783084533415982e-31 1.9451242244361857e-26 -0.0 -1.6442068882552524e-16 1 True False
2913.871 4.792719841003418 -1.158269928102829 1.6350253264056605 -2.047648092309469 -1.5707843939410608 3.2219607830047607 0.0 0.00018153933342546225 0.00015786258154548705 2.802596928649634e-45 -0.0 -2.4975538487238466e-35 1 True False
2913.921 4.792724132537842 -1.158286229973175 1.6350210348712366 -2.0476566753783167 -1.5707686583148401 3.221919536590576 0.0 0.00016257923562079668 9.465985931456089e-05 -0.00010114067845279351 -0.0 -0.0 1 True False
2913.971 4.7926926612854 -1.158278689985611 1.6350491682635706 -2.0476566753783167 -1.5707648436175745 3.2218947410583496 0.0 0.0003467617789283395 0.00024198855680879205 -0.00011157897097291425 -0.0 -0.0 1 True False
2914.0209999999997 4.792663097381592 -1.158238725071289 1.6350210348712366 -2.0476886234679164 -1.5707891623126429 3.2218539714813232 1.8603216189738703e-11 0.00040831186925061047 0.00013864398351870477 -8.942735439632088e-05 -0.0 -0.0 1 True False
2914.071 4.792757511138916 -1.1581934255412598 1.6350191275226038 -2.047603746453756 -1.5707925001727503 3.2218947410583496 0.0 0.00016887801757548004 0.00011426271521486342 -7.184381684055552e-05 -0.0 -0.0 1 True False
2914.121 4.79268741607666 -1.158160762195923 1.6350281874286097 -2.04763187984609 -1.5707605520831507 3.2219078540802 0.0 1.417224214682301e-20 8.403282117797062e-05 -3.61225155690037e-12 -0.0 -0.0 1 True False
2914.171 4.792768478393555 -1.1582097870162507 1.6350401083575647 -2.0476719341673792 -1.5708335081683558 3.2219433784484863 0.0 0.0 7.057970651658252e-05 -6.260885129449889e-05 -0.0 -0.0 1 True False
2914.221 4.7927045822143555 -1.1581564408591767 1.6350701490985315 -2.0476399860777796 -1.5708044211017054 3.2219066619873047 0.0 0.0 4.962359320229872e-33 -7.64801832975337e-10 -0.0 -0.0 1 True False
2914.2709999999997 4.792741298675537 -1.158172683124878 1.6350653807269495 -2.0476280651488246 -1.5708087126361292 3.2219109535217285 0.0 0.0 3.543072643915734e-17 -1.1617356276702066e-28 -0.0 -0.0 1 True False
2914.321 4.792728424072266 -1.158325509434082 1.63501483598818 -2.047824045220846 -1.570853058491842 3.221954345703125 0.0 -0.000832551100756973 -0.0005277499440126121 -0.0068432241678237915 -0.0043182335793972015 -0.0 1 True False
2914.371 4.792724132537842 -1.1583106082728882 1.6349518934832972 -2.047892232934469 -1.5707805792437952 3.221919536590576 0.0 0.00026325767976231873 -8.83880209960691e-29 -4.31481639679987e-05 0.00018335050845053047 -0.0 1 True False
2914.421 4.792688369750977 -1.1582994920066376 1.6349933783160608 -2.04782833675527 -1.57074481645693 3.221951961517334 0.0 0.00020283386402297765 -0.0 0.0004426688828971237 9.081742609851062e-05 -0.0 1 True True
2914.471 4.792667388916016 -1.1583934885314484 1.634763542805807 -2.0467940769591273 -1.5707891623126429 3.221935749053955 0.0 -0.011492717079818249 -0.021513132378458977 0.04459739476442337 6.036066770320758e-05 -0.0 1 True True
2914.5209999999997 4.792712211608887 -1.1594066184810181 1.6323397795306605 -2.0431281528868617 -1.570845905934469 3.2219033241271973 0.0 -0.04058533534407616 -0.07792043685913086 0.10805150121450424 5.4285365265471786e-12 -0.0 1 True True
2914.571 4.792700290679932 -1.1619905990413208 1.6273077170001429 -2.035672803918356 -1.5707925001727503 3.221963882446289 0.0 -0.062107738107442856 -0.12640316784381866 0.17683769762516022 8.245956513673651e-31 -0.0 1 True True
2914.621 4.792752742767334 -1.1658416551402588 1.6199420134173792 -2.02482332805776 -1.570784870778219 3.2219152450561523 0.0 -0.08260896801948547 -0.1698230504989624 0.2629189193248749 0.0 -0.0 1 True True
2914.671 4.792717933654785 -1.1707250636867066 1.6104839483844202 -2.010524412194723 -1.5707767645465296 3.221951961517334 0.0 -0.11086735874414444 -0.2103702425956726 0.32300540804862976 0.0 -0.0 1 True True
2914.721 4.7927165031433105 -1.176731900577881 1.598595921193258 -1.992439409295553 -1.5707767645465296 3.221935749053955 0.0 -0.13062795996665955 -0.2570517957210541 0.3876115381717682 0.0 -0.0 1 True True
2914.7709999999997 4.792679309844971 -1.1840263170054932 1.5843923727618616 -1.9712425671019496 -1.570784870778219 3.2219552993774414 0.0 -0.15733866393566132 -0.3037930130958557 0.46550416946411133 1.539849904474977e-06 -0.0 1 True True
2914.821 4.792733192443848 -1.1924228531173249 1.567862335835592 -1.9463535747923792 -1.5708168188678187 3.221951961517334 0.0 -0.1782599687576294 -0.3462003469467163 0.5289365649223328 -5.047830168723906e-15 -0.0 1 True True
2914.871 4.792691230773926 -1.2014081341079255 1.5502455870257776 -1.9197832546629847 -1.570857350026266 3.221886396408081 0.0 -0.16515646874904633 -0.3326752185821533 0.5205434560775757 -7.6676642434023545e-34 -0.0 1 True True
2914.921 4.792670726776123 -1.2092373234084626 1.534748379384176 -1.896228929559225 -1.570829216633932 3.2219033241271973 0.0 -0.14967797696590424 -0.2880488932132721 0.42977380752563477 -0.0 -0.0 1 True True
2914.971 4.7927165031433105 -1.2159627240947266 1.5217135588275355 -1.8763958416380824 -1.570784870778219 3.221968173980713 0.0 -0.12364618480205536 -0.24121543765068054 0.3694004714488983 -0.0 -0.0 1 True True
2915.0209999999997 4.792724132537842 -1.2216142875007172 1.510918919240133 -1.8599969349303187 -1.570801083241598 3.221902370452881 0.0 -0.09885173290967941 -0.19637000560760498 0.2986694276332855 -0.0 -0.0 1 True True
2915.071 4.7927374839782715 -1.2259009641459961 1.502221409474508 -1.847117086450094 -1.570829216633932 3.221886396408081 0.0 -0.07519232481718063 -0.15115603804588318 0.22295668721199036 -0.0 -0.0 1 True True
2915.121 4.792721271514893 -1.228998379116394 1.4960029760943812 -1.83744539837026 -1.570784870778219 3.2218947410583496 0.0 -0.05009222403168678 -0.1056661307811737 0.15844310820102692 -0.0 -0.0 1 True True
2915.171 4.792695999145508 -1.2311355632594605 1.4921086470233362 -1.8315264187254847 -1.570784870778219 3.2219510078430176 0.0 -0.030791258439421654 -0.0577540248632431 0.10035991668701172 -0.0 2.650544783655562e-10 1 True True
2915.221 4.792700290679932 -1.2318992179683228 1.4903853575335901 -1.829200883904928 -1.5707925001727503 3.2219109535217285 0.0 -0.003627290716394782 -0.014153084717690945 0.01781030371785164 -0.0 4.026184534911021e-29 1 True True
2915.2709999999997 4.791656017303467 -1.231936292057373 1.4903691450702112 -1.829193731347555 -1.5707767645465296 3.22087025642395 -0.054711248725652695 -0.0048793526366353035 0.0019185742130503058 0.0003566979430615902 -2.3947326326795304e-13 -0.05463310703635216 1 True True
2915.321 4.7872185707092285 -1.2324370306781312 1.4907987753497522 -1.829233785668844 -1.5707724730121058 3.2163541316986084 -0.1275075078010559 -0.011317954398691654 0.012151581235229969 2.9944656489533372e-05 -3.6376042966916196e-32 -0.12338453531265259 1 True True
2915.371 4.779097080230713 -1.2330717009356995 1.491481129323141 -1.8292609653868617 -1.570801083241598 3.2083539962768555 -0.1951436549425125 -0.014541295357048512 0.02012813277542591 -0.003774737473577261 -0.0 -0.20032119750976562 1 True True
2915.421 4.767512321472168 -1.233804540043213 1.4925559202777308 -1.8296147785582484 -1.5707767645465296 3.1968281269073486 -0.2627136707305908 -0.018105769529938698 0.02345455437898636 -0.008211581967771053 -6.163139187265188e-05 -0.26709800958633423 1 True True
2915.471 4.752656936645508 -1.2348985236934205 1.4939726034747522 -1.8299852810301722 -1.570784870778219 3.1817777156829834 -0.3335345685482025 -0.025024544447660446 0.03245211020112038 -0.008340548723936081 -1.7624998886029385e-14 -0.33024147152900696 1 True True
2915.5209999999997 4.734043598175049 -1.2362354558757325 1.4957216421710413 -1.830386301080221 -1.5708006064044397 3.1633293628692627 -0.40432485938072205 -0.029063047841191292 0.039103951305150986 -0.010737556964159012 -8.99575898074545e-05 -0.39979657530784607 1 True True
2915.571 4.712209701538086 -1.237817035322525 1.497856918965475 -1.8308993778624476 -1.57074481645693 3.141503095626831 -0.47220075130462646 -0.03599478304386139 0.04777079448103905 -0.01157051045447588 -3.54252804868338e-09 -0.480662077665329 1 True True
2915.621 4.686758041381836 -1.2396966379931946 1.500416103993551 -1.8314677677550257 -1.5708168188678187 3.1158692836761475 -0.5404754877090454 -0.03940199315547943 0.055454619228839874 -0.014271911233663559 -0.00010297624248778448 -0.5350770354270935 1 True True
2915.671 4.657730579376221 -1.2419006687453766 1.5031364599811 -1.8322106800475062 -1.5708172957049769 3.086928129196167 -0.6160198450088501 -0.04526085406541824 0.05814449489116669 -0.015525026246905327 -0.00025165974511764944 -0.6059876680374146 1 True True
2915.721 4.625308990478516 -1.2442197066596528 1.506371800099508 -1.8330027065672816 -1.5708325544940394 3.0544819831848145 -0.686514675617218 -0.04988608881831169 0.0639507919549942 -0.016810482367873192 -0.0017129761399701238 -0.6779494881629944 1 True True
2915.7709999999997 4.58939266204834 -1.2467978459647675 1.50978929201235 -1.8338304958739222 -1.5708044211017054 3.0187339782714844 -0.7578864693641663 -0.05403762310743332 0.06821659952402115 -0.018029795959591866 -0.0010028674732893705 -0.7501181364059448 1 True True
2915.821 4.549985885620117 -1.2496673625758667 1.5135329405414026 -1.8346325359740199 -1.5707891623126429 2.979228973388672 -0.8216797709465027 -0.05784282460808754 0.07925224304199219 -0.019743483513593674 8.155284012900665e-05 -0.826617956161499 1 True True
2915.871 4.507126808166504 -1.2527769964984437 1.517569367085592 -1.835602422753805 -1.5707357565509241 2.9362096786499023 -0.8902602791786194 -0.06489910185337067 0.08597708493471146 -0.02123728208243847 0.00020443643734324723 -0.8938574194908142 1 True True
2915.921 4.460686683654785 -1.2561206680587311 1.5221508185016077 -1.8366834125914515 -1.570801083241598 2.890066385269165 -0.9635447263717651 -0.07021323591470718 0.0929790735244751 -0.01919039711356163 6.501268501324375e-08 -0.9633345007896423 1 True True
2915.971 4.410757541656494 -1.2597603362849732 1.5267918745623987 -1.8378693066039027 -1.570801083241598 2.8398239612579346 -1.029211163520813 -0.07339884340763092 0.09959740191698074 -0.026281483471393585 2.6160331361010578e-14 -1.030342936515808 1 True True
2916.0209999999997 4.358628273010254 -1.2635812026313324 1.531773869191305 -1.839053293267721 -1.5707934538470667 2.7878201007843018 -1.0450717210769653 -0.07828754186630249 0.09939754754304886 -0.023120282217860222 0.001701541361398995 -1.0554814338684082 1 True True
2916.071 4.306229114532471 -1.2673224669745942 1.5369518438922327 -1.8403088055052699 -1.5708001295672815 2.735441207885742 -1.0498384237289429 -0.07872574031352997 0.10188434273004532 -0.02644442580640316 -0.00016054230218287557 -1.0415374040603638 1 True True
2916.121 4.253875255584717 -1.271260843878128 1.5420916716205042 -1.8414942226805628 -1.5708125273333948 2.682987928390503 -1.0464510917663574 -0.07439852505922318 0.10124765336513519 -0.02269700914621353 -6.218948689351578e-10 -1.0511351823806763 1 True True
2916.171 4.201451301574707 -1.2751803261092682 1.5469563643084925 -1.8426467380919398 -1.5707319418536585 2.63069748878479 -1.0420807600021362 -0.07907295972108841 0.10091979801654816 -0.02104143612086773 5.612726394765843e-10 -1.0525187253952026 1 True True
2916.221 4.1490607261657715 -1.2788514655879517 1.5518859068499964 -1.8439156017699183 -1.5708168188678187 2.578399658203125 -1.0503891706466675 -0.0769636482000351 0.10299444943666458 -0.02547438256442547 -0.0004005496739409864 -1.0424790382385254 1 True True
2916.2709999999997 4.096677303314209 -1.282641516332962 1.556948486958639 -1.845044275323385 -1.5707929770099085 2.5258686542510986 -1.0451692342758179 -0.0724266767501831 0.09985615313053131 -0.02564699575304985 5.1196151616750285e-05 -1.0453495979309082 1 True True
2916.321 4.044410228729248 -1.2865147155574341 1.561939541493551 -1.8462797604002894 -1.5708048979388636 2.473623275756836 -1.0444598197937012 -0.07674495875835419 0.10124082863330841 -0.02335396595299244 -1.8360955209573149e-06 -1.055509328842163 1 True True
2916.371 3.9920480251312256 -1.2902892094901581 1.5670445601092737 -1.847572465936178 -1.5708254019366663 2.4212169647216797 -1.0503555536270142 -0.07695240527391434 0.09862316399812698 -0.02482413500547409 -0.00028314735391177237 -1.0404937267303467 1 True True
2916.421 3.9396965503692627 -1.2941681307605286 1.5721257368670862 -1.8487588367857875 -1.5708254019366663 2.368699550628662 -1.0459705591201782 -0.07661569863557816 0.09462441504001617 -0.027356348931789398 -6.008435970983328e-10 -1.0471280813217163 1 True True
2916.471 3.8873324394226074 -1.2978495818427582 1.5771449247943323 -1.849778791467184 -1.570789639149801 2.316566228866577 -1.0430972576141357 -0.0777440220117569 0.09858333319425583 -0.02291426993906498 0.0017164372839033604 -1.052382230758667 1 True True
2916.5209999999997 3.8349435329437256 -1.3018025916865845 1.5819280783282679 -1.8511868915953578 -1.5708125273333948 2.264207124710083 -1.05098295211792 -0.07950899004936218 0.10272012650966644 -0.023014122620224953 -0.00039862224366515875 -1.04627525806427 1 True True
2916.571 3.7825751304626465 -1.3055336636355896 1.5870807806598108 -1.8523155651488246 -1.5707967917071741 2.211664915084839 -1.0493998527526855 -0.07519696652889252 0.09702888131141663 -0.026608865708112717 -8.795713568070381e-21 -1.0409561395645142 1 True True
2916.621 3.730163335800171 -1.309376285677292 1.591996971760885 -1.853528162042135 -1.5707929770099085 2.1594247817993164 -1.0438669919967651 -0.07511621713638306 0.10109715163707733 -0.026325952261686325 -9.883944585453719e-06 -1.0499107837677002 1 True True
