Andreas691667/Digital_Twin_UR/src/robot_connection_manager/robot_output/E10_robot_output.csv
timestamp actual_q_0 actual_q_1 actual_q_2 actual_q_3 actual_q_4 actual_q_5 actual_qd_0 actual_qd_1 actual_qd_2 actual_qd_3 actual_qd_4 actual_qd_5 safety_status output_bit_register_65 output_bit_register_66
8287.993999999999 3.7121009826660156 -0.8255361479571839 0.8430126349078577 -1.5882889233031214 -1.570801083241598 2.141345977783203 0.0 0.0 0.0 -0.0 0.0 0.0 1 False False
8288.044 3.7120487689971924 -0.825552300815918 0.8429549376117151 -1.5883127651610316 -1.570784870778219 2.141291618347168 0.0 0.0 0.0 -0.0 0.0 0.0 1 False False
8288.094 3.7120771408081055 -0.8254383963397522 0.8429721037494105 -1.5883289776244105 -1.5707724730121058 2.141247034072876 0.0 0.0 0.0 -0.0 0.0 0.0 1 False False
8288.144 3.7120816707611084 -0.8255317372134705 0.8429802099810999 -1.5882488689818324 -1.5707929770099085 2.141324996948242 0.0 0.0 0.0 -0.0 0.0 0.0 1 False False
8288.194 3.712066888809204 -0.825463132267334 0.8429563681231897 -1.588292738000387 -1.5707610289203089 2.1411917209625244 0.0 0.0 0.0 -0.0 0.0 -0.0005134949460625648 1 False False
8288.243999999999 3.7121071815490723 -0.8254793447307129 0.8429845015155237 -1.5882336101927699 -1.5708335081683558 2.141261577606201 0.0 0.0 0.0 -0.0 0.0 -9.854917880147696e-05 1 False False
8288.294 3.7120742797851562 -0.8254740399173279 0.8429563681231897 -1.588268896142477 -1.5708492437945765 2.141324996948242 0.0 0.0 0.0 -0.0 0.0 -5.1760609494522214e-05 1 False False
8288.344 3.7121026515960693 -0.8254663509181519 0.8429721037494105 -1.5882569752135218 -1.5707648436175745 2.141291618347168 0.0 0.0 0.0 -0.0 0.0 -4.6509099774993956e-05 1 False False
8288.394 3.712106943130493 -0.8254950803569336 0.8429845015155237 -1.5882531605162562 -1.570853058491842 2.1412765979766846 0.0 0.0 0.0 -0.0 0.0 -3.6919953720756724e-14 1 False False
8288.444 3.7120907306671143 -0.8254783314517518 0.8429678122149866 -1.588297029534811 -1.5708048979388636 2.141242504119873 0.0 0.0 0.0 -0.0 0.0 -5.608148365922789e-33 1 False False
8288.493999999999 3.7120742797851562 -0.8254951399615784 0.8429563681231897 -1.5883008442320765 -1.5707805792437952 2.1413087844848633 0.0 0.0 0.0 -0.0 0.0 -0.0 1 False False
8288.544 3.712132453918457 -0.8255436581424256 0.842992130910055 -1.5883408985533656 -1.5707724730121058 2.141308546066284 0.0 0.0 0.0 -0.0 0.0 -0.0 1 False False
8288.594 3.7120742797851562 -0.8255070608905335 0.8429477850543421 -1.588269372979635 -1.570824925099508 2.141230583190918 0.0 0.0 0.0 -0.0 0.0 -0.0 1 False False
8288.644 3.7120742797851562 -0.8254993718913575 0.8429678122149866 -1.5882569752135218 -1.5707805792437952 2.141287088394165 0.0 0.0 0.0 -0.0 0.0 -0.0 1 False False
8288.694 3.712017297744751 -0.8254739803126832 0.8429845015155237 -1.5882488689818324 -1.5707967917071741 2.141287088394165 0.0 0.0 0.0 -0.0 0.0 -0.0 1 False False
8288.743999999999 3.7120535373687744 -0.8255112928203125 0.8429721037494105 -1.5882889233031214 -1.5707805792437952 2.1413004398345947 0.0 0.0 0.0 -0.0 0.0 -1.1840520974231894e-21 1 False False
8288.794 3.7120862007141113 -0.8255361479571839 0.8429473082171839 -1.588297029534811 -1.5707805792437952 2.141291618347168 0.0 0.0 0.0 -0.0 0.0 -1.798580591945546e-40 1 False False
8288.844 3.712010145187378 -0.8255155247500916 0.8429563681231897 -1.5883094273009242 -1.570801083241598 2.1412723064422607 0.0 0.0 0.0 -0.0 0.0 -0.0 1 False False
8288.894 3.712111473083496 -0.825519935493805 0.8430007139789026 -1.588268896142477 -1.5708091894732874 2.1412994861602783 0.0 0.0 0.0 -0.0 0.0 -0.0 1 False False
8288.944 3.7120742797851562 -0.825552300815918 0.8430216948138636 -1.5883165798582972 -1.5707925001727503 2.141308546066284 0.0 0.0 0.0 -0.0 0.0 -0.0 1 False False
8289.194 3.7120580673217773 -0.825524167423584 0.8429845015155237 -1.5882932148375453 -1.5707648436175745 2.141279697418213 0.0 0.0 0.0 -0.0 0.0 -0.0 1 False False
8289.243999999999 3.712050199508667 -0.825478271847107 0.8429721037494105 -1.5882765255370082 -1.5707929770099085 2.141329526901245 0.0 0.0 0.0 -0.0 0.0 -0.0 1 False False
8289.294 3.712045907974243 -0.8255070608905335 0.8430293242083948 -1.588320871392721 -1.5707805792437952 2.141267776489258 0.0 0.0 0.0 -0.0 0.0 -0.0 1 False False
8289.344 3.7120580673217773 -0.8255360883525391 0.842992130910055 -1.588320871392721 -1.5708449522601526 2.141334056854248 0.0 0.0 0.0 -0.0 0.0 -0.0 1 False False
8289.394 3.71207857131958 -0.8255112332156678 0.8429887930499476 -1.5883056126036585 -1.5708044211017054 2.1412513256073 0.0 0.0 0.0 -0.0 0.0 -0.0 1 False False
8289.444 3.712087392807007 -0.8254954975894471 0.8429887930499476 -1.588280817071432 -1.570784870778219 2.141263246536255 0.0 0.0 0.0 -0.0 0.0 -0.0 1 False False
8289.493999999999 3.7120251655578613 -0.8255360883525391 0.8430007139789026 -1.5882331333556117 -1.5707562605487269 2.1413204669952393 0.0 0.0 0.0 -0.0 0.0 -0.0 1 False False
8289.544 3.7120580673217773 -0.8254664105227967 0.8429630438434046 -1.588320871392721 -1.5708048979388636 2.141242504119873 0.0 0.0 0.0 -0.0 0.0 -0.0 1 False False
8289.594 3.712127447128296 -0.8255199950984498 0.8429935614215296 -1.588280817071432 -1.5707767645465296 2.141254186630249 0.0 0.0 0.0 -0.0 0.0 -0.0 1 False False
8289.644 3.7120537757873535 -0.8255242270282288 0.8429473082171839 -1.5882932148375453 -1.5708211104022425 2.141237735748291 0.0 0.0 0.0 -0.0 0.0 -0.0 1 False False
8289.694 3.7119998931884766 -0.8254912060550232 0.8429606596576136 -1.5882288418211878 -1.5707805792437952 2.141279697418213 0.0 0.0 0.0 -0.0 0.0 -0.0 1 False False
8289.743999999999 3.7120580673217773 -0.8255080145648499 0.8429845015155237 -1.5883165798582972 -1.5707686583148401 2.141216993331909 0.0 0.0 0.0 -0.0 0.0 -0.0 1 False False
8289.794 3.712090492248535 -0.825512246494629 0.8429630438434046 -1.5883251629271449 -1.5707891623126429 2.141263246536255 0.0 0.0 0.0 -0.0 0.0 -0.0 1 False False
8289.844 3.7120742797851562 -0.8254954975894471 0.8430097738849085 -1.588252683679098 -1.570784870778219 2.141284227371216 0.0 0.0 0.0 -0.0 0.0 -0.0 1 False False
8289.894 3.71207857131958 -0.8255361479571839 0.8429515997516077 -1.5882846317686976 -1.5707891623126429 2.141322135925293 0.0 0.0 0.0 -0.0 0.0 -0.0 1 False False
8289.944 3.7120537757873535 -0.825495795612671 0.8429425398456019 -1.5882288418211878 -1.5707767645465296 2.141263246536255 0.0 0.0 0.0 -0.0 0.0 -0.0 1 False False
8289.993999999999 3.7120580673217773 -0.8254993718913575 0.8429964224444788 -1.5883332691588343 -1.5707891623126429 2.1412930488586426 0.0 0.0 0.0 -0.0 0.0 -0.0 1 False False
8290.044 3.7120537757873535 -0.8254750531962891 0.8429845015155237 -1.5883094273009242 -1.5707529226886194 2.1412930488586426 0.0 0.0 0.0 -0.0 0.0 -0.0 1 False False
8290.094 3.7120981216430664 -0.8254780334285279 0.8430126349078577 -1.5882932148375453 -1.570813004170553 2.141287088394165 0.0 0.0 0.0 -0.0 0.0 -0.0 1 False False
8290.144 3.7121024131774902 -0.8255068224719544 0.8430054823504847 -1.5882889233031214 -1.570801083241598 2.141291618347168 0.0 0.0 0.0 -0.0 0.0 -0.0 1 False False
8290.194 3.7120492458343506 -0.8254497808269043 0.8429630438434046 -1.5882889233031214 -1.5707967917071741 2.141313076019287 0.0 0.0 0.0 -0.0 0.0 -0.0 1 False False
8290.243999999999 3.7120742797851562 -0.8255202931216736 0.8430054823504847 -1.588252683679098 -1.5707891623126429 2.141329526901245 0.0 0.0 0.0 -0.0 0.0 -0.0 1 False False
8290.294 3.712094783782959 -0.8254823845675965 0.8429892698871058 -1.5882607899107875 -1.570756737385885 2.141230583190918 0.0 0.0 0.0 -0.0 0.0 -0.0 1 False False
8290.344 3.7121143341064453 -0.8255156439593812 0.8429630438434046 -1.5882889233031214 -1.5707767645465296 2.14131760597229 0.0 0.0 0.0 -0.0 0.0 -0.0 1 False False
8290.394 3.712110996246338 -0.8255275648883362 0.8429587523089808 -1.588297029534811 -1.5708087126361292 2.141338348388672 0.0 0.0 0.0 -0.0 0.0 -0.0 1 False False
8290.444 3.712106704711914 -0.8254779738238831 0.8430054823504847 -1.588269372979635 -1.5707967917071741 2.1413040161132812 0.0 0.0 0.0 -0.0 0.0 -0.0 1 False False
8290.493999999999 3.7120611667633057 -0.8254543107799073 0.8429935614215296 -1.588245531121725 -1.5707648436175745 2.141249656677246 0.0 0.0 0.0 -0.0 0.0 -7.655200917611182e-09 1 False False
8290.544 3.7120862007141113 -0.8255039614490052 0.8429845015155237 -1.5882774792113246 -1.5707967917071741 2.1412885189056396 0.0 0.0 0.0 -0.0 0.0 -3.241362719563767e-05 1 False False
8290.844 3.712090492248535 -0.8254706424525757 0.8429473082171839 -1.5882650814452113 -1.5707648436175745 2.1412513256073 0.0 0.0 0.0 -0.0 0.0 -0.0 1 False False
8290.894 3.7120981216430664 -0.8255409163287659 0.8429887930499476 -1.588297029534811 -1.5707967917071741 2.141258955001831 0.0 0.0 0.0 -0.0 0.0 -0.0 1 False False
8290.944 3.712099075317383 -0.8254706424525757 0.8429763952838343 -1.5882774792113246 -1.570784870778219 2.14127516746521 0.0 0.0 0.0 -0.0 0.0 -0.0 1 False False
8290.993999999999 3.712110996246338 -0.8254993718913575 0.8429845015155237 -1.588269372979635 -1.570784870778219 2.141308546066284 0.0 0.0 0.0 -0.0 0.0 -0.0 1 False False
8291.044 3.7120609283447266 -0.825412706737854 0.8429759184466761 -1.5882774792113246 -1.5708335081683558 2.1413636207580566 0.0 0.0 0.0 -0.0 0.0 -0.0 1 False False
8291.094 3.7120697498321533 -0.8254260581782837 0.8429887930499476 -1.588313718835348 -1.570801083241598 2.141258716583252 0.0 0.0 0.0 -0.0 0.0 -0.0 1 False False
8291.144 3.7120862007141113 -0.8254661721042176 0.8429978529559534 -1.5883332691588343 -1.570829216633932 2.141291618347168 0.0 0.0 0.0 -0.0 0.0 -0.0 1 False False
8291.194 3.712050199508667 -0.8254750531962891 0.8429473082171839 -1.5882889233031214 -1.5707886854754847 2.141263246536255 1.1690945029840805e-05 0.0 0.0 -0.0 0.0 -0.0 1 False False
8291.243999999999 3.712083339691162 -0.8255395454219361 0.8429802099810999 -1.588297029534811 -1.570756737385885 2.141313076019287 2.34524025215041e-30 0.0 0.0 -0.0 0.0 -0.0 1 False False
8291.294 3.7120368480682373 -0.8255335253528138 0.8429845015155237 -1.5883056126036585 -1.5707805792437952 2.141296148300171 0.0 0.0 0.0 -0.0 0.0 -0.0 1 False False
8291.344 3.7120697498321533 -0.8254736226848145 0.8430331389056605 -1.5882889233031214 -1.5708168188678187 2.1412723064422607 0.0 0.0 0.0 -0.0 0.0 -0.0 1 False False
8291.394 3.7120535373687744 -0.8254750531962891 0.8429191748248499 -1.5882846317686976 -1.5708335081683558 2.141249895095825 0.0 0.0 0.0 -0.0 0.0 -0.0 1 False False
8291.444 3.712099552154541 -0.8255084317973633 0.8430541197406214 -1.5882774792113246 -1.5707772413836878 2.141284227371216 0.0 0.0 0.0 -0.0 0.0 -0.0 1 False False
8291.493999999999 3.7120697498321533 -0.825457291012146 0.8430379072772425 -1.5883013210692347 -1.5707805792437952 2.141267776489258 0.0 0.0 0.0 -0.0 0.0 -0.0 1 False False
8291.544 3.7120368480682373 -0.8255157035640259 0.8429802099810999 -1.5883413753905238 -1.570801083241598 2.141279697418213 0.0 0.0 0.0 -0.0 0.0 -0.0 1 False False
8291.594 3.7120368480682373 -0.825464741592743 0.842959229146139 -1.5882607899107875 -1.5708044211017054 2.1412885189056396 0.0 0.0 0.0 -0.0 0.0 -0.0 1 False False
8291.644 3.712062358856201 -0.825524703865387 0.8429678122149866 -1.588280817071432 -1.57074481645693 2.1412274837493896 0.0 0.0 0.0 -0.0 0.0 -0.0 1 False False
8291.694 3.7120323181152344 -0.8255365651896973 0.8430083433734339 -1.5882774792113246 -1.5707643667804163 2.1413004398345947 0.0 0.0 0.0 -0.0 0.0 -0.0 1 False False
8291.743999999999 3.712123394012451 -0.8254950207522889 0.8429678122149866 -1.5883051357665003 -1.5707843939410608 2.14127516746521 0.0 0.0 0.0 -0.0 0.0 -0.0 1 False False
8291.794 3.7120578289031982 -0.8254869741252442 0.8429845015155237 -1.588292738000387 -1.5707891623126429 2.141247034072876 0.0 0.0 0.0 -0.0 0.0 -0.0 1 False False
8291.844 3.712062358856201 -0.8255319756320496 0.8430331389056605 -1.588292738000387 -1.5708335081683558 2.14127516746521 0.0 0.0 0.0 -0.0 0.0 -0.0 1 False False
8291.894 3.712062358856201 -0.8254823845675965 0.8429678122149866 -1.5883289776244105 -1.5707967917071741 2.141324996948242 0.0 0.0 0.0 -0.0 0.0 -0.0 1 False False
8291.944 3.7120578289031982 -0.8255039614490052 0.8430245558368128 -1.5883165798582972 -1.5707967917071741 2.141291618347168 0.0 0.0 0.0 -0.0 0.0 -0.0 1 False False
8291.993999999999 3.712050199508667 -0.8254453104785462 0.842931095753805 -1.5883165798582972 -1.5708168188678187 2.141263246536255 0.0 0.0 0.0 -0.0 0.0 -0.0 1 False False
8292.044 3.7121071815490723 -0.8254496616176148 0.8429678122149866 -1.5882774792113246 -1.5707491079913538 2.141282558441162 0.0 0.0 0.0 -0.0 0.0 -0.0 1 False False
8292.094 3.712099552154541 -0.8255112928203125 0.8429721037494105 -1.5883327923216761 -1.5707810560809534 2.1412394046783447 0.0 0.0 0.0 -0.0 0.0 -0.0 1 False False
8292.144 3.712078809738159 -0.8254543107799073 0.8429973761187952 -1.5883051357665003 -1.5707925001727503 2.1412513256073 0.0 0.0 0.0 -0.0 0.0 -0.0 1 False False
8292.194 3.7120578289031982 -0.8254949611476441 0.8429845015155237 -1.588320871392721 -1.5708206335650843 2.141284227371216 0.0 0.0 0.0 -0.0 0.0 -0.0 1 False False
8292.243999999999 3.71209979057312 -0.8254543107799073 0.8429802099810999 -1.588269372979635 -1.5707691351519983 2.141266107559204 0.0 0.0 0.0 -0.0 0.0 -0.0 1 False False
8292.294 3.7120652198791504 -0.8254949611476441 0.842959229146139 -1.5882655582823695 -1.5707767645465296 2.1413204669952393 0.0 0.0 0.0 -0.0 0.0 -0.0 1 False False
8292.344 3.712045669555664 -0.8255529564670105 0.8429477850543421 -1.588280817071432 -1.5707886854754847 2.141296148300171 0.0 0.0 0.0 -0.0 0.0 -0.0 1 False False
8292.394 3.712116003036499 -0.825466052894928 0.8430050055133265 -1.5883127651610316 -1.570824925099508 2.141267776489258 0.0 0.0 0.0 -0.0 0.0 -0.0 1 False False
8292.444 3.712111711502075 -0.825440840130188 0.8430007139789026 -1.5883170566954554 -1.570772949849264 2.141291618347168 0.0 0.0 0.0 -0.0 0.0 -0.0 1 False False
8292.493999999999 3.712062358856201 -0.825527624492981 0.8430169264422815 -1.5882774792113246 -1.5708168188678187 2.141329526901245 0.0 0.0 0.0 -0.0 0.0 -0.0 1 False False
8292.544 3.712033748626709 -0.825549916630127 0.8429353872882288 -1.5883528194823207 -1.5708006064044397 2.141324996948242 0.0 0.0 0.0 -0.0 0.0 -0.0 1 False False
8292.594 3.712062358856201 -0.8255202931216736 0.8429964224444788 -1.5882655582823695 -1.5707967917071741 2.141329526901245 0.0 0.0 0.0 -0.0 0.0 -0.0 1 False False
8292.644 3.7120742797851562 -0.8254949611476441 0.8429721037494105 -1.588273664514059 -1.570784870778219 2.1413040161132812 0.0 0.0 0.0 -0.0 0.0 -0.0 1 False False
8292.694 3.712095260620117 -0.8255157035640259 0.8429763952838343 -1.588297506371969 -1.570756737385885 2.141235113143921 0.0 0.0 0.0 -0.0 0.0 -0.0 1 False False
8292.743999999999 3.7120726108551025 -0.8255558770946045 0.8429845015155237 -1.5883008442320765 -1.5707810560809534 2.14131760597229 0.0 0.0 0.0 -0.0 0.0 -0.0 1 False False
8292.794 3.7120771408081055 -0.8254905504039307 0.8429721037494105 -1.5883132419981898 -1.5708087126361292 2.14131760597229 0.0 0.0 0.0 -0.0 0.0 -0.0 1 False False
8292.844 3.7120697498321533 -0.8254690927318116 0.8429392019854944 -1.588308950463766 -1.570784870778219 2.1412951946258545 0.0 0.0 0.0 -0.0 0.0 -0.0 1 False False
8292.894 3.712066888809204 -0.8254816693118592 0.8429892698871058 -1.588320871392721 -1.5708087126361292 2.14127516746521 0.0 0.0 0.0 -0.0 0.0 -0.0 1 False False
8292.944 3.7120532989501953 -0.8255083721927186 0.8429887930499476 -1.5882889233031214 -1.5707967917071741 2.141270637512207 0.0 0.0 0.0 -0.0 0.0 -0.0 1 False False
8292.993999999999 3.7120862007141113 -0.8255366247943421 0.8429935614215296 -1.588320871392721 -1.5708444754229944 2.1413040161132812 0.0 0.0 0.0 -0.0 0.0 -0.0 1 False False
8293.044 3.7120578289031982 -0.8254959148219605 0.8429306189166468 -1.5883127651610316 -1.5707967917071741 2.1412723064422607 4.5266769272199655e-38 0.0 0.0 -0.0 0.0 -0.0 1 False False
8293.094 3.712153673171997 -0.8254289788058777 0.8429845015155237 -1.588273664514059 -1.570772949849264 2.1413114070892334 0.0 0.0 0.0 -0.0 0.0 -0.0 1 False False
8293.144 3.7120683193206787 -0.8254779142192383 0.8430007139789026 -1.5882731876769007 -1.5707810560809534 2.141329526901245 0.0 0.0 0.0 -0.0 0.0 -0.0 1 False False
8293.194 3.7120697498321533 -0.8255202931216736 0.8429425398456019 -1.5882607899107875 -1.570784870778219 2.141251564025879 0.0 0.0 0.0 -0.0 0.0 -0.0 1 False False
8293.243999999999 3.7121071815490723 -0.8255112928203125 0.8430174032794397 -1.5882569752135218 -1.570784870778219 2.1412885189056396 0.0 0.0 0.0 -0.0 0.0 -0.0 1 False False
8293.294 3.7120890617370605 -0.8255156439593812 0.8429563681231897 -1.588269372979635 -1.5708211104022425 2.141308546066284 0.0 0.0 0.0 -0.0 0.0 -0.0 1 False False
8293.344 3.7121026515960693 -0.8255247634700318 0.8429630438434046 -1.5883251629271449 -1.5708048979388636 2.14121413230896 0.0 0.0 0.0 -0.0 0.0 -0.0 1 False False
8293.394 3.712111473083496 -0.8254126471332093 0.8430097738849085 -1.5883170566954554 -1.5708048979388636 2.141279697418213 0.0 0.0 0.0 -0.0 0.0 -0.0 1 False False
8293.444 3.7120819091796875 -0.8255084317973633 0.842910114918844 -1.5883084736266078 -1.5707767645465296 2.1412885189056396 0.0 0.0 0.0 -0.0 0.0 -0.0 1 False False
8293.493999999999 3.7120490074157715 -0.8254994314960022 0.8429721037494105 -1.5882846317686976 -1.5707767645465296 2.1412513256073 0.0 0.0 0.0 -0.0 0.0 -0.0 1 False False
8293.544 3.7120697498321533 -0.8255083721927186 0.8429845015155237 -1.588269372979635 -1.570801083241598 2.1412885189056396 0.0 0.0 0.0 -0.0 0.0 -0.0 1 False False
8293.594 3.7120907306671143 -0.825495795612671 0.8429763952838343 -1.5883251629271449 -1.5707810560809534 2.141313076019287 0.0 0.0 0.0 -0.0 0.0 -0.0 1 False False
8293.644 3.712078809738159 -0.8254869741252442 0.8429630438434046 -1.5883013210692347 -1.5707605520831507 2.141230583190918 0.0 0.0 0.0 -0.0 0.0 -0.0 1 False False
8293.694 3.7120907306671143 -0.8255112332156678 0.842971150075094 -1.5882846317686976 -1.570801083241598 2.1412558555603027 0.0 0.0 0.0 -0.0 0.0 -0.0 1 False False
8293.743999999999 3.712078809738159 -0.8254779142192383 0.8429892698871058 -1.5882765255370082 -1.5707686583148401 2.141296148300171 0.0 0.0 0.0 -0.0 0.0 -0.0 1 False False
8293.794 3.712066888809204 -0.8254779142192383 0.8429473082171839 -1.5882932148375453 -1.5707767645465296 2.141313076019287 0.0 0.0 0.0 -0.0 0.0 -0.0 1 False False
8293.844 3.7120935916900635 -0.8254958552173157 0.8429845015155237 -1.588269372979635 -1.5707925001727503 2.141284227371216 0.0 0.0 0.0 -0.0 0.0 -0.0 1 False False
8293.894 3.7121024131774902 -0.8254993718913575 0.8429845015155237 -1.5882774792113246 -1.5708044211017054 2.141279697418213 0.0 0.0 0.0 -0.0 0.0 -0.0 1 False False
8293.944 3.712062358856201 -0.8255455058864136 0.8429673353778284 -1.5883094273009242 -1.5707772413836878 2.141313076019287 0.0 0.0 0.0 -0.0 0.0 -0.0 1 False False
8293.993999999999 3.712083101272583 -0.8255366843989869 0.8429439703570765 -1.5882889233031214 -1.5708654562579554 2.141324996948242 0.0 0.0 0.0 -0.0 0.0 -0.0 1 False False
8294.044 3.712012767791748 -0.8254706424525757 0.8429763952838343 -1.5883251629271449 -1.5707767645465296 2.141263484954834 0.0 0.0 0.0 -0.0 0.0 -0.0 1 False False
8294.094 3.7120535373687744 -0.8254497212222596 0.8429673353778284 -1.5883170566954554 -1.5707605520831507 2.141282558441162 0.0 0.0 0.0 -0.0 0.0 -0.0 1 False False
8294.144 3.712111473083496 -0.8255558770946045 0.8429721037494105 -1.588245531121725 -1.570784870778219 2.1413049697875977 0.0 0.0 0.0 -0.0 0.0 -0.0 1 False False
8294.194 3.712071180343628 -0.8255157631686707 0.8430054823504847 -1.5883494816222132 -1.5707686583148401 2.1412439346313477 0.0 0.0 0.0 -0.0 0.0 -0.0 1 False False
8294.243999999999 3.7120580673217773 -0.825524703865387 0.8429630438434046 -1.588313718835348 -1.5708211104022425 2.141296148300171 0.0 0.0 0.0 -0.0 0.0 -0.0 1 False False
8294.294 3.7120819091796875 -0.8255039614490052 0.8429892698871058 -1.5882774792113246 -1.5708044211017054 2.141317367553711 0.0 0.0 0.0 -0.0 0.0 -0.0 1 False False
8294.344 3.712095022201538 -0.8254779738238831 0.8429978529559534 -1.5882650814452113 -1.5707362333880823 2.1412885189056396 0.0 0.0 0.0 -0.0 0.0 -0.0 1 False False
8294.394 3.712029457092285 -0.825524703865387 0.8429515997516077 -1.5883094273009242 -1.5708406607257288 2.14127516746521 0.0 0.0 0.0 -0.0 0.0 -0.0 1 False False
8294.444 3.712111234664917 -0.825527624492981 0.8430054823504847 -1.5883094273009242 -1.570801083241598 2.141230583190918 0.0 0.0 0.0 -0.0 0.0 -0.0 1 False False
8294.493999999999 3.71207857131958 -0.8254949611476441 0.8430097738849085 -1.5882846317686976 -1.5708048979388636 2.141258716583252 0.0 0.0 0.0 -0.0 0.0 -0.0 1 False False
8294.544 3.712090492248535 -0.8254905504039307 0.8430126349078577 -1.5883251629271449 -1.570784870778219 2.141291618347168 0.0 0.0 0.0 -0.0 0.0 -0.0 1 False False
8294.594 3.712029457092285 -0.8255365651896973 0.8429887930499476 -1.5882569752135218 -1.5708487669574183 2.141254186630249 0.0 0.0 0.0 -0.0 0.0 -0.0 1 False False
8294.644 3.712050199508667 -0.8254913848689576 0.8429763952838343 -1.5882731876769007 -1.5708168188678187 2.141267776489258 0.0 0.0 0.0 -0.0 0.0 -0.0 1 False False
8294.694 3.712083101272583 -0.8254321378520508 0.8430259863482874 -1.5883413753905238 -1.5708087126361292 2.141263246536255 0.0 0.0 0.0 -0.0 0.0 -0.0 1 False False
8294.743999999999 3.7120580673217773 -0.8255408567241211 0.842992130910055 -1.588313718835348 -1.570784870778219 2.141263246536255 0.0 0.0 0.0 -0.0 0.0 -0.0 1 False False
8294.794 3.712082862854004 -0.8254949611476441 0.8429802099810999 -1.5882889233031214 -1.5707648436175745 2.14123797416687 0.0 0.0 0.0 -0.0 0.0 -0.0 1 False False
8294.844 3.712110996246338 -0.8255039614490052 0.8429802099810999 -1.5883251629271449 -1.5707767645465296 2.141193389892578 0.0 0.0 0.0 -0.0 0.0 -0.0 1 False False
8294.894 3.7121024131774902 -0.8254993718913575 0.8429845015155237 -1.5882731876769007 -1.5708048979388636 2.141263246536255 0.0 0.0 0.0 -0.0 0.0 -0.0 1 False False
8294.944 3.7120819091796875 -0.8254780334285279 0.8430054823504847 -1.5883013210692347 -1.570801083241598 2.1413092613220215 0.0 0.0 0.0 -0.0 0.0 -0.0 1 False False
8294.993999999999 3.7120254039764404 -0.8254706424525757 0.8430050055133265 -1.5883056126036585 -1.5707805792437952 2.141267776489258 0.0 0.0 0.0 -0.0 0.0 -0.0 1 False False
8295.044 3.7121143341064453 -0.8254869741252442 0.8429930845843714 -1.5882932148375453 -1.57074481645693 2.141258955001831 0.0 0.0 0.0 -0.0 0.0 -0.0 1 False False
8295.094 3.7121198177337646 -0.8254573506167908 0.8429964224444788 -1.5882898769774378 -1.5707648436175745 2.141263246536255 0.0 0.0 0.0 -0.0 0.0 -0.0 1 False False
8295.144 3.7120819091796875 -0.8254862588695069 0.8430331389056605 -1.5883094273009242 -1.5708335081683558 2.141267776489258 0.0 0.0 0.0 -0.0 0.0 -0.0 1 False False
8295.194 3.712094783782959 -0.8254217070392151 0.8429759184466761 -1.5882569752135218 -1.570824925099508 2.1412665843963623 0.0 0.0 0.0 -0.0 0.0 -0.0 1 False False
8295.243999999999 3.712062358856201 -0.8254750531962891 0.8429763952838343 -1.5882569752135218 -1.5708091894732874 2.141263484954834 0.0 0.0 0.0 -0.0 0.0 -0.0 1 False False
8295.294 3.712094783782959 -0.8254994314960022 0.8430212179767054 -1.5883013210692347 -1.5707929770099085 2.141312599182129 0.0 0.0 0.0 -0.0 0.0 -0.0 1 False False
8295.344 3.712094783782959 -0.8254913252643128 0.8429802099810999 -1.588297029534811 -1.5708168188678187 2.141263484954834 0.0 0.0 0.0 -0.0 0.0 -0.0 1 False False
8295.394 3.7120580673217773 -0.8254869741252442 0.8429434935199183 -1.5882650814452113 -1.5707686583148401 2.1413040161132812 0.0 0.0 0.0 -0.0 0.0 -0.0 1 False False
8295.444 3.7120285034179688 -0.8255083125880738 0.8429845015155237 -1.5883251629271449 -1.5707843939410608 2.1412882804870605 0.0 0.0 0.0 -0.0 0.0 -0.0 1 False False
8295.493999999999 3.712127208709717 -0.8254487079432984 0.8430050055133265 -1.5883251629271449 -1.570813004170553 2.14125919342041 0.0 0.0 0.0 -0.0 0.0 -0.0 1 False False
8295.544 3.7120537757873535 -0.8254497808269043 0.8429845015155237 -1.588269372979635 -1.5708087126361292 2.1412503719329834 0.0 0.0 0.0 -0.0 0.0 -0.0 1 False False
8295.594 3.7120580673217773 -0.8255365651896973 0.8429964224444788 -1.5882932148375453 -1.5708211104022425 2.141329050064087 0.0 0.0 0.0 -0.0 0.0 -0.0 1 False False
8295.644 3.7121024131774902 -0.8255156439593812 0.8429635206805628 -1.5883056126036585 -1.570784870778219 2.1412720680236816 0.0 0.0 0.0 -0.0 0.0 -0.0 1 False False
8295.694 3.7120656967163086 -0.8254454892924805 0.8430135885821741 -1.5882498226561488 -1.5707529226886194 2.141279697418213 0.0 0.0 0.0 -0.0 0.0 -0.0 1 False False
8295.743999999999 3.712066650390625 -0.8254956764033814 0.8429635206805628 -1.588313718835348 -1.5708168188678187 2.141317129135132 0.0 0.0 0.0 -0.0 0.0 -0.0 1 False False
8295.794 3.7120537757873535 -0.8255245846560975 0.8429845015155237 -1.5882412395873011 -1.5707967917071741 2.1412148475646973 0.0 0.0 0.0 -0.0 0.0 -0.0 1 False False
8295.844 3.7120537757873535 -0.8255201739123841 0.8429759184466761 -1.5882731876769007 -1.5707767645465296 2.1413257122039795 0.0 0.0 0.0 -0.0 0.0 -0.0 1 False False
8295.894 3.7120537757873535 -0.8255038422397156 0.8429845015155237 -1.5883094273009242 -1.5708211104022425 2.141291618347168 0.0 0.0 0.0 -0.0 0.0 -0.0 1 False False
8295.944 3.712094783782959 -0.8255112928203125 0.8429678122149866 -1.588280817071432 -1.5707967917071741 2.1412546634674072 0.0 0.0 0.0 -0.0 0.0 -0.0 1 False False
8295.993999999999 3.712099075317383 -0.8254780334285279 0.8429845015155237 -1.5882774792113246 -1.5708335081683558 2.141324758529663 0.0 0.0 0.0 -0.0 0.0 -0.0 1 False False
8296.044 3.712094783782959 -0.8254780930331727 0.8430212179767054 -1.5883056126036585 -1.5708087126361292 2.1412546634674072 0.0 0.0 0.0 -0.0 0.0 -0.0 1 False False
8296.094 3.712062358856201 -0.8254499596408387 0.8429196516620081 -1.588320871392721 -1.5707772413836878 2.141275405883789 0.0 0.0 0.0 -0.0 0.0 -0.0 1 False False
8296.144 3.712094783782959 -0.8255070012858887 0.8429887930499476 -1.5882650814452113 -1.5707805792437952 2.1412546634674072 0.0 0.0 0.0 -0.0 0.0 -0.0 1 False False
8296.194 3.712066888809204 -0.8254824441722413 0.8430092970477503 -1.5883094273009242 -1.5708168188678187 2.141329050064087 0.0 0.0 0.0 -0.0 0.0 -0.0 1 False False
8296.243999999999 3.712062358856201 -0.82550002754245 0.8429887930499476 -1.5882889233031214 -1.5707648436175745 2.141231060028076 0.0 0.0 0.0 -0.0 0.0 -0.0 1 False False
8296.294 3.712087631225586 -0.8254425686648865 0.842959229146139 -1.5882684193053187 -1.5708168188678187 2.1412353515625 0.0 0.0 0.0 -0.0 0.0 -0.0 1 False False
8296.344 3.7120490074157715 -0.8254707020572205 0.8429678122149866 -1.5883251629271449 -1.5708406607257288 2.1412839889526367 0.0 0.0 0.0 -0.0 0.0 -0.0 1 False False
8296.394 3.7120862007141113 -0.8255201739123841 0.8430169264422815 -1.5882488689818324 -1.570756737385885 2.141267776489258 0.0 0.0 0.0 -0.0 0.0 -0.0 1 False False
8296.444 3.7120742797851562 -0.8255364459804078 0.8429520765887659 -1.5882889233031214 -1.570784870778219 2.141295909881592 0.0 0.0 0.0 -0.0 0.0 -0.0 1 False False
8296.493999999999 3.712008237838745 -0.8254869741252442 0.8429678122149866 -1.5883456669249476 -1.570784870778219 2.141295909881592 0.0 0.0 0.0 -0.0 0.0 -0.0 1 False False
8296.544 3.712095022201538 -0.8255364459804078 0.8429978529559534 -1.588280817071432 -1.5708335081683558 2.1413087844848633 0.0 0.0 0.0 -0.0 0.0 -0.0 1 False False
8296.594 3.712106943130493 -0.8255081933787842 0.8430007139789026 -1.5882336101927699 -1.570801083241598 2.1412601470947266 0.0 0.0 0.0 -0.0 0.0 -0.0 1 False False
8296.644 3.712099552154541 -0.8255245846560975 0.8430174032794397 -1.5882774792113246 -1.5707724730121058 2.141329050064087 0.0 0.0 0.0 -0.0 0.0 -0.0 1 False False
8296.694 3.7120907306671143 -0.8254587811282654 0.8429721037494105 -1.588280817071432 -1.570772949849264 2.1412546634674072 0.0 0.0 0.0 -0.0 0.0 -0.0 1 False False
8296.743999999999 3.712062358856201 -0.8254707020572205 0.8429845015155237 -1.5883332691588343 -1.5707686583148401 2.141291618347168 0.0 0.0 0.0 -0.0 0.0 -0.0 1 False False
8296.794 3.7120907306671143 -0.8254694503596802 0.8430007139789026 -1.588297029534811 -1.570772949849264 2.1412763595581055 0.0 0.0 0.0 -0.0 0.0 -0.0 1 False False
8296.844 3.712104082107544 -0.8254263562015076 0.8430007139789026 -1.5883127651610316 -1.5707281271563929 2.141291618347168 0.0 0.0 0.0 -0.0 0.0 -0.0 1 False False
8296.894 3.7120490074157715 -0.8254293364337464 0.8430126349078577 -1.5883370838561 -1.5708044211017054 2.141247272491455 0.0 0.0 0.0 -0.0 0.0 -0.0 1 False False
8296.944 3.7120742797851562 -0.8254956167987366 0.8429802099810999 -1.5883094273009242 -1.570784870778219 2.141317129135132 0.0 0.0 0.0 -0.0 0.0 -0.0 1 False False
8296.993999999999 3.7120578289031982 -0.8254293364337464 0.8429630438434046 -1.5882817707457484 -1.5707967917071741 2.141287088394165 0.0 0.0 0.0 -0.0 0.0 -0.0 1 False False
8297.044 3.712041139602661 -0.825490729217865 0.8429606596576136 -1.5883132419981898 -1.5707805792437952 2.141317129135132 0.0 0.0 0.0 -0.0 0.0 -0.0 1 False False
8297.094 3.712092161178589 -0.825504259472229 0.8429763952838343 -1.588280817071432 -1.570784870778219 2.1413257122039795 0.0 0.0 0.0 -0.0 0.0 -0.0 1 False False
8297.144 3.712083339691162 -0.8254532378963013 0.8429630438434046 -1.588273664514059 -1.5708211104022425 2.1412546634674072 0.0 0.0 0.0 -0.0 0.0 -0.0 1 False False
8297.194 3.7120578289031982 -0.8255200547030945 0.8429515997516077 -1.588292738000387 -1.5707805792437952 2.141263484954834 0.0 0.0 0.0 -0.0 0.0 -0.0 1 False False
8297.243999999999 3.712144613265991 -0.825482503776886 0.8429721037494105 -1.588269372979635 -1.570829216633932 2.141291618347168 0.0 0.0 0.0 -0.0 0.0 -0.0 1 False False
8297.294 3.7120578289031982 -0.8254662317088624 0.8429630438434046 -1.5883370838561 -1.5707605520831507 2.14125919342041 0.0 0.0 0.0 -0.0 0.0 -0.0 1 False False
8297.344 3.7120323181152344 -0.8255231541446229 0.8429892698871058 -1.5882531605162562 -1.5707805792437952 2.1413214206695557 0.0 0.0 0.0 -0.0 0.0 -0.0 1 False False
8297.394 3.7120697498321533 -0.8254869741252442 0.8429721037494105 -1.5883408985533656 -1.5707929770099085 2.1412839889526367 0.0 0.0 0.0 -0.0 0.0 -0.0 1 False False
8297.444 3.7120862007141113 -0.8254781526378174 0.8430140654193323 -1.5883051357665003 -1.5708416144000452 2.141263484954834 0.0 0.0 0.0 -0.0 0.0 -0.0 1 False False
8297.493999999999 3.7120862007141113 -0.8254993718913575 0.8429349104510706 -1.588280817071432 -1.5707805792437952 2.14125919342041 0.0 0.0 0.0 -0.0 0.0 -0.0 1 False False
8297.544 3.712045669555664 -0.825528697376587 0.8429845015155237 -1.5883413753905238 -1.570784870778219 2.141275405883789 0.0 0.0 0.0 -0.0 0.0 -0.0 1 False False
8297.594 3.7120652198791504 -0.8254338067821045 0.8429811636554163 -1.5883289776244105 -1.570829216633932 2.1413257122039795 0.0 0.0 0.0 -0.0 0.0 -0.0 1 False False
8297.644 3.71209979057312 -0.825491265659668 0.8430007139789026 -1.5882374248900355 -1.5707724730121058 2.141251564025879 0.0 0.0 0.0 -0.0 0.0 -0.0 1 False False
8297.694 3.7120277881622314 -0.8254739207080384 0.8429854551898401 -1.5882412395873011 -1.5707767645465296 2.1413614749908447 0.0 0.0 0.0 -0.0 0.0 -0.0 1 False False
8297.743999999999 3.712123394012451 -0.8255210679820557 0.8429845015155237 -1.5882889233031214 -1.570853058491842 2.1413040161132812 0.0 0.0 0.0 -0.0 0.0 -0.0 1 False False
8297.794 3.712111473083496 -0.8254588407329102 0.8429811636554163 -1.5882374248900355 -1.5708168188678187 2.1413214206695557 0.0 0.0 0.0 -0.0 0.0 -0.0 1 False False
8297.844 3.7120606899261475 -0.8254662913135071 0.8430145422564905 -1.5882569752135218 -1.5707805792437952 2.141239643096924 0.0 0.0 0.0 -0.0 0.0 -0.0 1 False False
8297.894 3.712083339691162 -0.825540618305542 0.8429563681231897 -1.5882774792113246 -1.570801083241598 2.141275405883789 0.0 0.0 0.0 -0.0 0.0 -0.0 1 False False
8297.944 3.712095260620117 -0.8254662913135071 0.8429301420794886 -1.5882374248900355 -1.5708211104022425 2.14125919342041 0.0 0.0 0.0 -0.0 0.0 -0.0 1 False False
8297.993999999999 3.7121145725250244 -0.8254750531962891 0.8429606596576136 -1.588269372979635 -1.5707972685443323 2.1412546634674072 0.0 0.0 0.0 -0.0 0.0 -0.0 1 False False
8298.044 3.712083339691162 -0.8253841561130066 0.8429892698871058 -1.5882846317686976 -1.570829216633932 2.141295909881592 0.0 0.0 0.0 -0.0 0.0 -0.0 1 False False
8298.094 3.7120487689971924 -0.8254739207080384 0.8429587523089808 -1.588269372979635 -1.5708211104022425 2.141267776489258 0.0 0.0 0.0 -0.0 0.0 -0.0 1 False False
8298.144 3.7120816707611084 -0.8255567115596314 0.8429673353778284 -1.588280817071432 -1.5707529226886194 2.141247272491455 0.0 0.0 0.0 -0.0 0.0 -0.0 1 False False
8298.194 3.7120771408081055 -0.8254998487285157 0.8429678122149866 -1.5883251629271449 -1.570756737385885 2.141291618347168 0.0 0.0 0.0 -0.0 0.0 -0.0 1 False False
8298.243999999999 3.71213698387146 -0.825482503776886 0.8429802099810999 -1.5883094273009242 -1.5708211104022425 2.141270875930786 0.0 0.0 0.0 -0.0 0.0 -0.0 1 False False
8298.294 3.7120697498321533 -0.8254869741252442 0.8429845015155237 -1.588252683679098 -1.5707686583148401 2.1412839889526367 0.0 0.0 0.0 -0.0 0.0 -0.0 1 False False
8298.344 3.7120606899261475 -0.8255362671664734 0.8429678122149866 -1.588269372979635 -1.5707929770099085 2.141279697418213 0.0 0.0 0.0 -0.0 0.0 -0.0 1 False False
8298.394 3.712095260620117 -0.8255080741694947 0.8429802099810999 -1.5882889233031214 -1.5707805792437952 2.141267776489258 0.0 0.0 0.0 -0.0 0.0 -0.0 1 False False
8298.444 3.712007999420166 -0.8254546088031312 0.8430007139789026 -1.5882569752135218 -1.5707967917071741 2.1412429809570312 0.0 0.0 0.0 -0.0 0.0 -0.0 1 False False
8298.493999999999 3.7120816707611084 -0.8254662317088624 0.8429845015155237 -1.5883013210692347 -1.5707925001727503 2.141279697418213 0.0 0.0 0.0 -0.0 0.0 -0.0 1 False False
8298.544 3.7120773792266846 -0.8254869741252442 0.8429845015155237 -1.5882607899107875 -1.5707805792437952 2.141317129135132 0.0 0.0 0.0 -0.0 0.0 -0.0 1 False False
8298.594 3.7120728492736816 -0.825463132267334 0.8430054823504847 -1.5882774792113246 -1.5707405249225062 2.1413002014160156 0.0 0.0 0.0 -0.0 0.0 -0.0 1 False False
8298.644 3.7120578289031982 -0.8255155843547364 0.8429587523089808 -1.588320871392721 -1.5708087126361292 2.141308546066284 0.0 0.0 0.0 -0.0 0.0 -0.0 1 False False
8298.694 3.7120907306671143 -0.8254750531962891 0.8430169264422815 -1.5883127651610316 -1.5708168188678187 2.14125919342041 0.0 0.0 0.0 -0.0 0.0 -0.0 1 False False
8298.743999999999 3.7120697498321533 -0.8255027097514649 0.8429845015155237 -1.5883170566954554 -1.5708525816546839 2.141287088394165 0.0 0.0 0.0 -0.0 0.0 -0.0 1 False False
8298.794 3.7120862007141113 -0.8254339259913941 0.8429887930499476 -1.5882650814452113 -1.570829216633932 2.141279697418213 0.0 0.0 0.0 -0.0 0.0 -0.0 1 False False
8298.844 3.7120323181152344 -0.8255524200252076 0.8429845015155237 -1.588285585443014 -1.5708168188678187 2.1413159370422363 0.0 0.0 0.0 -0.0 0.0 -0.0 1 False False
8298.894 3.712106943130493 -0.8254907888225098 0.8429349104510706 -1.588320871392721 -1.570784870778219 2.141295909881592 0.0 0.0 0.0 -0.0 0.0 -0.0 1 False False
8298.944 3.712066888809204 -0.8254993718913575 0.842992130910055 -1.5882607899107875 -1.5707929770099085 2.1412925720214844 0.0 0.0 0.0 -0.0 0.0 -0.0 1 False False
8298.993999999999 3.7120862007141113 -0.8254546088031312 0.8430169264422815 -1.5882498226561488 -1.5708006064044397 2.141270875930786 0.0 0.0 0.0 -0.0 0.0 -0.0 1 False False
8299.044 3.7120862007141113 -0.8254545491984864 0.8429964224444788 -1.5883013210692347 -1.570829216633932 2.1413214206695557 0.0 0.0 0.0 -0.0 0.0 -0.0 1 False False
8299.094 3.7120697498321533 -0.8254865568927308 0.8429678122149866 -1.5882650814452113 -1.570784870778219 2.1412971019744873 0.0 0.0 0.0 -0.0 0.0 -0.0 1 False False
8299.144 3.712062358856201 -0.8254825633815308 0.8429845015155237 -1.588285585443014 -1.5707886854754847 2.141263484954834 0.0 0.0 0.0 -0.0 0.0 -0.0 1 False False
8299.194 3.7120697498321533 -0.8254707616618653 0.8429477850543421 -1.5883094273009242 -1.5707767645465296 2.141312837600708 0.0 0.0 0.0 -0.0 0.0 -0.0 1 False False
8299.243999999999 3.712066888809204 -0.8254993718913575 0.8429635206805628 -1.5883094273009242 -1.570824925099508 2.141275405883789 0.0 0.0 0.0 -0.0 0.0 -0.0 1 False False
8299.294 3.712033987045288 -0.8254993122867127 0.8430584112750452 -1.5883056126036585 -1.5708006064044397 2.141263484954834 0.0 0.0 0.0 -0.0 0.0 -0.0 1 False False
8299.344 3.7120742797851562 -0.825429694061615 0.8430245558368128 -1.5883094273009242 -1.5708125273333948 2.141329050064087 0.0 0.0 0.0 -0.0 0.0 -0.0 1 False False
8299.394 3.7120413780212402 -0.8255274456790467 0.8429606596576136 -1.588269372979635 -1.5708330313311976 2.1413333415985107 0.0 0.0 0.0 -0.0 0.0 -0.0 1 False False
8299.444 3.7120699882507324 -0.8255232137492676 0.8429434935199183 -1.5883175335326136 -1.5707886854754847 2.141279697418213 0.0 0.0 0.0 -0.0 0.0 -0.0 1 False False
8299.493999999999 3.712083101272583 -0.8255608838847657 0.8429845015155237 -1.588313718835348 -1.5707886854754847 2.1412839889526367 0.0 0.0 0.0 -0.0 0.0 -0.0 1 False False
8299.544 3.712095022201538 -0.8254954975894471 0.843029801045553 -1.588313718835348 -1.5707610289203089 2.1413116455078125 0.0 0.0 0.0 -0.0 0.0 -0.0 1 False False
8299.594 3.7120742797851562 -0.8255037826350708 0.8430050055133265 -1.588320871392721 -1.5707767645465296 2.141295909881592 0.0 0.0 0.0 -0.0 0.0 -0.0 1 False False
8299.644 3.7121200561523438 -0.8255274456790467 0.8430374304400843 -1.5882374248900355 -1.5707491079913538 2.141267776489258 0.0 0.0 0.0 -0.0 0.0 -0.0 1 False False
8299.694 3.712029457092285 -0.8254825633815308 0.8429802099810999 -1.588252683679098 -1.5708602110492151 2.141287088394165 0.0 0.0 0.0 -0.0 0.0 -0.0 1 False False
8299.743999999999 3.7120413780212402 -0.8255435985377808 0.8429802099810999 -1.5883127651610316 -1.570784870778219 2.1413214206695557 0.0 0.0 0.0 -0.0 0.0 -0.0 1 False False
8299.794 3.7120535373687744 -0.825482503776886 0.8429392019854944 -1.5883170566954554 -1.5707491079913538 2.1412763595581055 0.0 0.0 0.0 -0.0 0.0 -0.0 1 False False
8299.844 3.712090492248535 -0.8255404990962525 0.8429845015155237 -1.5883375606932582 -1.5708087126361292 2.1412179470062256 0.0 0.0 0.0 -0.0 0.0 -0.0 1 False False
8299.894 3.7120862007141113 -0.8255080741694947 0.8429520765887659 -1.588269372979635 -1.5707967917071741 2.141317129135132 0.0 0.0 0.0 -0.0 0.0 -0.0 1 False False
8299.944 3.7120537757873535 -0.8254908484271546 0.8430050055133265 -1.5883251629271449 -1.5708211104022425 2.1412882804870605 0.0 0.0 0.0 -0.0 0.0 -0.0 1 False False
8299.993999999999 3.7120416164398193 -0.8255242866328736 0.8429802099810999 -1.5882488689818324 -1.5707929770099085 2.1412460803985596 0.0 0.0 0.0 -0.0 0.0 -0.0 1 False False
8300.044 3.712099313735962 -0.8255437177470704 0.8430288473712366 -1.588297029534811 -1.5707648436175745 2.141279697418213 0.0 0.0 0.0 -0.0 0.0 -0.0 1 False False
8300.094 3.7120165824890137 -0.8254708808711548 0.8429563681231897 -1.5883251629271449 -1.5708048979388636 2.141279697418213 0.0 0.0 0.0 -0.0 0.0 -0.0 1 False False
8300.144 3.7121100425720215 -0.8255112928203125 0.8429678122149866 -1.588269372979635 -1.5707925001727503 2.141295909881592 0.0 0.0 0.0 -0.0 0.0 -0.0 1 False False
8300.194 3.7120044231414795 -0.8254950803569336 0.8429716269122522 -1.588292738000387 -1.5707972685443323 2.141251564025879 0.0 0.0 0.0 -0.0 0.0 -0.0 1 False False
8300.243999999999 3.7121469974517822 -0.8255199950984498 0.8429802099810999 -1.588320871392721 -1.5708048979388636 2.141308546066284 0.0 0.0 0.0 -0.0 0.0 -0.0 1 False False
8300.294 3.7120981216430664 -0.8255112928203125 0.8429425398456019 -1.588269372979635 -1.570813004170553 2.141267776489258 0.0 0.0 0.0 -0.0 0.0 -0.0 1 False False
8300.344 3.712099313735962 -0.825478271847107 0.8429978529559534 -1.5882774792113246 -1.5707648436175745 2.141308546066284 0.0 0.0 0.0 -0.0 0.0 -0.0 1 False False
8300.394 3.712123155593872 -0.8255123657039185 0.8429630438434046 -1.5883051357665003 -1.570813004170553 2.141267776489258 0.0 0.0 0.0 -0.0 0.0 -0.0 1 False False
8300.444 3.712062358856201 -0.8255199950984498 0.8429802099810999 -1.5882846317686976 -1.570784870778219 2.141270875930786 0.0 0.0 0.0 -0.0 0.0 -0.0 1 False False
8300.493999999999 3.7121024131774902 -0.8254993122867127 0.8429721037494105 -1.5883013210692347 -1.5708168188678187 2.141317129135132 0.0 0.0 0.0 -0.0 0.0 -0.0 1 False False
8300.544 3.7120327949523926 -0.8254739803126832 0.8429473082171839 -1.588285585443014 -1.570801083241598 2.141279697418213 0.0 0.0 0.0 -0.0 0.0 -0.0 1 False False
8300.594 3.7120862007141113 -0.8255362075618287 0.8430007139789026 -1.5883094273009242 -1.5707805792437952 2.141267776489258 0.0 0.0 0.0 -0.0 0.0 -0.0 1 False False
8300.644 3.7120938301086426 -0.8254546088031312 0.8429802099810999 -1.5882650814452113 -1.5707929770099085 2.1412267684936523 0.0 0.0 0.0 -0.0 0.0 -0.0 1 False False
8300.694 3.7120654582977295 -0.825482503776886 0.8429892698871058 -1.5882774792113246 -1.5707772413836878 2.1412546634674072 0.0 0.0 0.0 -0.0 0.0 -0.0 1 False False
8300.743999999999 3.7120862007141113 -0.8254869741252442 0.8429721037494105 -1.5882569752135218 -1.5708048979388636 2.141279697418213 0.0 0.0 0.0 -0.0 0.0 -0.0 1 False False
8300.794 3.7120981216430664 -0.8254869741252442 0.8429515997516077 -1.588273664514059 -1.570784870778219 2.141287088394165 0.0 0.0 0.0 -0.0 0.0 -0.0 1 False False
8300.844 3.712110996246338 -0.8255362075618287 0.8429630438434046 -1.5882488689818324 -1.5708168188678187 2.141317129135132 0.0 0.0 0.0 -0.0 0.0 -0.0 1 False False
8300.894 3.7120580673217773 -0.8255275052836915 0.8429473082171839 -1.588297506371969 -1.5708487669574183 2.1412882804870605 0.0 0.0 0.0 -0.0 0.0 -0.0 1 False False
8300.944 3.7121036052703857 -0.8255155843547364 0.8429563681231897 -1.588280817071432 -1.5707529226886194 2.1413214206695557 0.0 0.0 0.0 -0.0 0.0 -0.0 1 False False
8300.993999999999 3.712099075317383 -0.8254908484271546 0.8429802099810999 -1.588269372979635 -1.5707648436175745 2.1412882804870605 0.0 0.0 0.0 -0.0 0.0 -0.0 1 False False
8301.044 3.71207857131958 -0.8254663509181519 0.8429721037494105 -1.5882774792113246 -1.5708048979388636 2.141279697418213 0.0 0.0 0.0 -0.0 0.0 -0.0 1 False False
8301.094 3.712082862854004 -0.8255038422397156 0.8429587523089808 -1.588273664514059 -1.5707529226886194 2.141247272491455 0.0 0.0 0.0 -0.0 0.0 -0.0 1 False False
8301.144 3.712106704711914 -0.8254869741252442 0.8429845015155237 -1.588297029534811 -1.5707686583148401 2.141308546066284 0.0 0.0 0.0 -0.0 0.0 -0.0 1 False False
8301.194 3.7120699882507324 -0.8255317372134705 0.8429802099810999 -1.588269372979635 -1.5708168188678187 2.141336441040039 0.0 0.0 0.0 -0.0 0.0 -0.0 1 False False
8301.243999999999 3.71207857131958 -0.8254663509181519 0.842999283467428 -1.5883084736266078 -1.5708211104022425 2.14125919342041 0.0 0.0 0.0 -0.0 0.0 -0.0 1 False False
8301.294 3.7120368480682373 -0.8255728048137208 0.8429721037494105 -1.5883132419981898 -1.5707925001727503 2.1412882804870605 0.0 0.0 0.0 -0.0 0.0 -0.0 1 False False
8301.344 3.7120490074157715 -0.8254254025271912 0.8429563681231897 -1.588292738000387 -1.5707805792437952 2.1412839889526367 0.0 0.0 0.0 -0.0 0.0 -0.0 1 False False
8301.394 3.7120368480682373 -0.8254822653583069 0.8429067770587366 -1.5883246860899867 -1.570813004170553 2.141296863555908 0.0 0.0 0.0 -0.0 0.0 -0.0 1 False False
8301.444 3.712050199508667 -0.8255199950984498 0.8429763952838343 -1.5883094273009242 -1.5707529226886194 2.1412720680236816 0.0 0.0 0.0 -0.0 0.0 -0.0 1 False False
8301.493999999999 3.712104082107544 -0.8255275052836915 0.8429673353778284 -1.5883246860899867 -1.5707724730121058 2.141270875930786 1.9812364894142152e-27 0.0 0.0 -0.0 0.0 -0.0 1 False False
8301.544 3.712095260620117 -0.8254908484271546 0.8429515997516077 -1.588269372979635 -1.570813004170553 2.1413044929504395 0.0 0.0 0.0 -0.0 0.0 -0.0 1 False False
8301.594 3.7120609283447266 -0.8254663509181519 0.8429515997516077 -1.5883571110167445 -1.5707562605487269 2.141247272491455 0.0 0.0 0.0 -0.0 0.0 -0.0 1 False False
8301.644 3.712029457092285 -0.8255317372134705 0.8430007139789026 -1.588297506371969 -1.570784870778219 2.1412720680236816 0.0 0.0 0.0 -0.0 0.0 -0.0 1 False False
8301.694 3.712104082107544 -0.8255199950984498 0.8430174032794397 -1.588292738000387 -1.570801083241598 2.1412341594696045 0.0 0.0 0.0 -0.0 0.0 -0.0 1 False False
8301.743999999999 3.7120742797851562 -0.825478271847107 0.8429630438434046 -1.5883285007872523 -1.570768181477682 2.1412429809570312 0.0 0.0 0.0 -0.0 0.0 -0.0 1 False False
8301.794 3.712062358856201 -0.825438455944397 0.8429721037494105 -1.588320871392721 -1.5708048979388636 2.141312837600708 0.0 0.0 0.0 -0.0 0.0 -0.0 1 False False
8301.844 3.712083339691162 -0.8254869741252442 0.8429630438434046 -1.588280817071432 -1.5708006064044397 2.1413333415985107 0.0 0.0 0.0 -0.0 0.0 -0.0 1 False False
8301.894 3.712062358856201 -0.8254091900638123 0.8429630438434046 -1.5882731876769007 -1.570813004170553 2.1412925720214844 0.0 0.0 0.0 -0.0 0.0 -0.0 1 False False
8301.944 3.712045669555664 -0.8255362075618287 0.8430293242083948 -1.588320871392721 -1.570756737385885 2.141295909881592 0.0 0.0 0.0 -0.0 0.0 -0.0 1 False False
8301.993999999999 3.712083339691162 -0.8255112332156678 0.8429802099810999 -1.5882774792113246 -1.5708254019366663 2.141279697418213 0.0 0.0 0.0 -0.0 0.0 -0.0 1 False False
8302.044 3.712062358856201 -0.8254663509181519 0.8429964224444788 -1.5882612667479457 -1.5708087126361292 2.141279697418213 0.0 0.0 0.0 -0.0 0.0 -0.0 1 False False
8302.094 3.712062358856201 -0.825544611816742 0.8429845015155237 -1.5882731876769007 -1.5707886854754847 2.1412839889526367 0.0 0.0 0.0 -0.0 0.0 -0.0 1 False False
8302.144 3.712033748626709 -0.8254621189883729 0.8429754416095179 -1.5882889233031214 -1.570801083241598 2.1413002014160156 0.0 0.0 0.0 -0.0 0.0 -0.0 1 False False
8302.194 3.712062358856201 -0.8254950803569336 0.8429606596576136 -1.5883127651610316 -1.5708406607257288 2.141279697418213 0.0 0.0 0.0 -0.0 0.0 -0.0 1 False False
8302.243999999999 3.712045669555664 -0.8254912060550232 0.8430007139789026 -1.5883251629271449 -1.5707805792437952 2.141275405883789 0.0 0.0 0.0 -0.0 0.0 -0.0 1 False False
8302.294 3.712120532989502 -0.8255607646754761 0.8430379072772425 -1.5882731876769007 -1.5708168188678187 2.1412665843963623 0.0 0.0 0.0 -0.0 0.0 -0.0 1 False False
8302.344 3.7120578289031982 -0.8254375618747254 0.8429802099810999 -1.5882445774474085 -1.570784870778219 2.1413040161132812 0.0 0.0 0.0 -0.0 0.0 -0.0 1 False False
8302.394 3.7120862007141113 -0.8254865568927308 0.8429763952838343 -1.588297506371969 -1.570829216633932 2.141275405883789 0.0 0.0 0.0 -0.0 0.0 -0.0 1 False False
8302.444 3.712062358856201 -0.8255155247500916 0.8430245558368128 -1.5882817707457484 -1.5707648436175745 2.1412267684936523 0.0 0.0 0.0 -0.0 0.0 -0.0 1 False False
8302.493999999999 3.712095260620117 -0.8255242270282288 0.8429964224444788 -1.5883165798582972 -1.5708254019366663 2.1413614749908447 0.0 0.0 0.0 -0.0 0.0 -0.0 1 False False
8302.544 3.7120368480682373 -0.8255189818194886 0.8429430166827601 -1.5883251629271449 -1.5708044211017054 2.1413333415985107 0.0 0.0 0.0 -0.0 0.0 -0.0 1 False False
8302.594 3.712078809738159 -0.8254993718913575 0.8429606596576136 -1.5882932148375453 -1.5707529226886194 2.1412546634674072 0.0 0.0 0.0 -0.0 0.0 -0.0 1 False False
8302.644 3.7120697498321533 -0.8254866164973755 0.8429520765887659 -1.588297029534811 -1.5707967917071741 2.1412601470947266 0.0 0.0 0.0 -0.0 0.0 -0.0 1 False False
8302.694 3.7120697498321533 -0.8255274456790467 0.8429520765887659 -1.5882412395873011 -1.570801083241598 2.1412222385406494 0.0 0.0 0.0 -0.0 0.0 -0.0 1 False False
8302.743999999999 3.712095260620117 -0.8254869741252442 0.8429964224444788 -1.5882612667479457 -1.5707805792437952 2.141312837600708 0.0 0.0 0.0 -0.0 0.0 -0.0 1 False False
8302.794 3.7121026515960693 -0.8255070012858887 0.8430169264422815 -1.5883056126036585 -1.5707529226886194 2.141251564025879 0.0 0.0 0.0 -0.0 0.0 -0.0 1 False False
8302.844 3.7120413780212402 -0.8255317372134705 0.8429678122149866 -1.5882731876769007 -1.5708406607257288 2.141312837600708 0.0 0.0 0.0 -0.0 0.0 -0.0 1 False False
8302.894 3.7120907306671143 -0.8254750531962891 0.8429759184466761 -1.588341852227682 -1.5708335081683558 2.1413462162017822 0.0 0.0 0.0 -0.0 0.0 -0.0 1 False False
8302.944 3.712062358856201 -0.8254954975894471 0.8429802099810999 -1.5883332691588343 -1.570784870778219 2.1412601470947266 0.0 0.0 0.0 -0.0 0.0 -0.0 1 False False
8302.993999999999 3.7121026515960693 -0.825519935493805 0.8429678122149866 -1.5882846317686976 -1.5707891623126429 2.141324758529663 0.0 0.0 0.0 -0.0 0.0 -0.0 1 False False
8303.044 3.71207594871521 -0.8255242270282288 0.8429802099810999 -1.5882932148375453 -1.5708335081683558 2.1413002014160156 0.0 0.0 0.0 -0.0 0.0 -0.0 1 False False
8303.094 3.712127923965454 -0.8255284589580079 0.8429802099810999 -1.5882932148375453 -1.5707843939410608 2.1413002014160156 0.0 0.0 0.0 -0.0 0.0 -0.0 1 False False
8303.144 3.7120816707611084 -0.8255165380290528 0.8429635206805628 -1.5882169208922328 -1.5708335081683558 2.1413040161132812 0.0 0.0 0.0 -0.0 0.0 -0.0 1 False False
8303.194 3.7121071815490723 -0.8254997891238709 0.8430245558368128 -1.5883094273009242 -1.570813004170553 2.141329050064087 -0.00010377993021393195 0.0 0.0 -0.0 0.0 -0.0 1 False False
8303.243999999999 3.7120816707611084 -0.825524167423584 0.8430255095111292 -1.588320871392721 -1.570813004170553 2.1413214206695557 -2.6733872800832614e-05 0.0 0.0 -0.0 0.0 -0.0 1 False False
8303.294 3.7120578289031982 -0.825478271847107 0.842959229146139 -1.588252683679098 -1.570784870778219 2.141247272491455 -1.5341282050940208e-05 0.0 0.0 -0.0 0.0 -0.0 1 False False
8303.344 3.712036609649658 -0.8255080145648499 0.8429563681231897 -1.5882932148375453 -1.5708044211017054 2.1413214206695557 -1.0756567462522071e-05 0.0 0.0 -0.0 0.0 -0.0 1 False False
8303.394 3.712036609649658 -0.8255155247500916 0.8429964224444788 -1.5882889233031214 -1.5708087126361292 2.1412429809570312 -6.370302818820618e-42 0.0 0.0 -0.0 0.0 -0.0 1 False False
8303.444 3.7121026515960693 -0.825458900337555 0.8429845015155237 -1.5883013210692347 -1.5708048979388636 2.141329050064087 0.0 0.0 0.0 -0.0 0.0 -0.0 1 False False
8303.493999999999 3.7120697498321533 -0.8255317372134705 0.8429635206805628 -1.588297029534811 -1.57074481645693 2.141312837600708 0.0 0.0 0.0 -0.0 0.0 -0.0 1 False False
8303.544 3.712045669555664 -0.8254825633815308 0.8429802099810999 -1.588280817071432 -1.5707686583148401 2.141247272491455 0.0 0.0 0.0 -0.0 0.0 -0.0 1 False False
8303.594 3.712045669555664 -0.8254993718913575 0.8429635206805628 -1.5882498226561488 -1.5707929770099085 2.141317129135132 0.0 0.0 0.0 -0.0 0.0 -0.0 1 False False
8303.644 3.7120532989501953 -0.8254993718913575 0.842931095753805 -1.588252683679098 -1.5707967917071741 2.1412839889526367 0.0 0.0 0.0 -0.0 0.0 -0.0 1 False False
8303.694 3.712071180343628 -0.825524167423584 0.8429845015155237 -1.5883094273009242 -1.570801083241598 2.141329050064087 0.0 0.0 0.0 -0.0 0.0 -0.0 1 False False
8303.743999999999 3.712095022201538 -0.8254869741252442 0.8429635206805628 -1.5882774792113246 -1.5707929770099085 2.1412839889526367 0.0 0.0 0.0 -0.0 0.0 -0.0 1 False False
8303.794 3.7121026515960693 -0.8254740399173279 0.842992130910055 -1.5883013210692347 -1.570813004170553 2.14125919342041 0.0 0.0 0.0 -0.0 0.0 -0.0 1 False False
8303.844 3.7120816707611084 -0.8255478900722046 0.8430245558368128 -1.5883251629271449 -1.5708335081683558 2.1412601470947266 0.0 0.0 0.0 -0.0 0.0 -0.0 1 False False
8303.894 3.712071180343628 -0.8254427474788208 0.8429630438434046 -1.5882288418211878 -1.5707486311541956 2.1412546634674072 0.0 0.0 0.0 -0.0 0.0 -0.0 1 False False
8303.944 3.7120816707611084 -0.8254912060550232 0.8430336157428187 -1.5882488689818324 -1.570801083241598 2.141231060028076 0.0 0.0 0.0 -0.0 0.0 -0.0 1 False False
8303.993999999999 3.712095022201538 -0.825495795612671 0.8429515997516077 -1.5882607899107875 -1.5708048979388636 2.1412925720214844 0.0 0.0 0.0 -0.0 0.0 -0.0 1 False False
8304.044 3.712066888809204 -0.8255127829364319 0.8429892698871058 -1.5883289776244105 -1.570829216633932 2.141267776489258 0.0 0.0 0.0 -0.0 0.0 -0.0 1 False False
8304.094 3.7120862007141113 -0.8255068820765992 0.8429964224444788 -1.5883094273009242 -1.5707805792437952 2.141324758529663 0.0 0.0 0.0 -0.0 0.0 -0.0 1 False False
8304.144 3.7120535373687744 -0.8254993718913575 0.8430336157428187 -1.5883251629271449 -1.570784870778219 2.1413040161132812 0.0 0.0 0.0 -0.0 0.0 -0.0 1 False False
8304.194 3.71207857131958 -0.8254869741252442 0.8429515997516077 -1.5882774792113246 -1.5707886854754847 2.141251564025879 0.0 0.0 0.0 -0.0 0.0 -0.0 1 False False
8304.243999999999 3.712095022201538 -0.8254869145205994 0.8429845015155237 -1.5883413753905238 -1.570801083241598 2.141279697418213 4.973597242496908e-05 0.0 0.0 -0.0 0.0 -0.0 1 False False
8304.294 3.712062358856201 -0.8254750531962891 0.8429515997516077 -1.5883251629271449 -1.5707686583148401 2.1412265300750732 0.0 0.0 0.0 -0.0 0.0 -0.0 1 False False
8304.344 3.7120368480682373 -0.8254993718913575 0.8429763952838343 -1.5882774792113246 -1.570784870778219 2.1412839889526367 0.0 0.0 0.0 -0.0 0.0 -0.0 1 False False
8304.394 3.7120535373687744 -0.8254905504039307 0.8430097738849085 -1.5883251629271449 -1.570813004170553 2.141317129135132 0.0 0.0 0.0 -0.0 0.0 -0.0 1 False False
8304.444 3.7120742797851562 -0.8254736226848145 0.8429964224444788 -1.5882889233031214 -1.570829216633932 2.1413002014160156 0.0 0.0 0.0 -0.0 0.0 -0.0 1 False False
8304.493999999999 3.712029457092285 -0.825457291012146 0.8429563681231897 -1.5883013210692347 -1.5707805792437952 2.141312837600708 0.0 0.0 0.0 -0.0 0.0 -0.0 1 False False
8304.544 3.712062358856201 -0.8254869741252442 0.8429845015155237 -1.588269372979635 -1.570829216633932 2.1412265300750732 0.0 0.0 0.0 -0.0 0.0 -0.0 1 False False
8304.594 3.7120370864868164 -0.825527624492981 0.8430007139789026 -1.588313718835348 -1.5708044211017054 2.141295909881592 0.0 0.0 0.0 -0.0 0.0 -0.0 1 False False
8304.644 3.712106943130493 -0.825457291012146 0.8429721037494105 -1.5882765255370082 -1.5707686583148401 2.14133358001709 0.0 0.0 0.0 -0.0 0.0 -0.0 1 False False
8304.694 3.71207857131958 -0.8254497808269043 0.8429473082171839 -1.5883494816222132 -1.5707967917071741 2.1412341594696045 0.0 0.0 0.0 -0.0 0.0 -0.0 1 False False
8304.743999999999 3.7120742797851562 -0.8255320352366944 0.8430007139789026 -1.588273664514059 -1.570801083241598 2.141275405883789 0.0 0.0 0.0 -0.0 0.0 -0.0 1 False False
8304.794 3.71207857131958 -0.8254993718913575 0.8430007139789026 -1.588297029534811 -1.5707967917071741 2.141275405883789 0.0 0.0 0.0 -0.0 0.0 -0.0 1 False False
8304.844 3.7121198177337646 -0.8254706424525757 0.842938248311178 -1.588280817071432 -1.5707967917071741 2.1412546634674072 0.0 0.0 0.0 -0.0 0.0 -0.0 1 False False
8304.894 3.7120819091796875 -0.825524703865387 0.8429673353778284 -1.5882612667479457 -1.5707767645465296 2.1412665843963623 0.0 0.0 0.0 -0.0 0.0 -0.0 1 False False
8304.944 3.712050199508667 -0.8255039614490052 0.8430216948138636 -1.588273664514059 -1.570813004170553 2.141275405883789 0.0 0.0 0.0 -0.0 0.0 -0.0 1 False False
8304.993999999999 3.71207857131958 -0.8254949611476441 0.8429892698871058 -1.5882774792113246 -1.570841137562887 2.141275405883789 0.0 0.0 0.0 -0.0 0.0 -0.0 1 False False
8305.044 3.712050199508667 -0.8255453866771241 0.8429515997516077 -1.5883494816222132 -1.5708168188678187 2.1412720680236816 0.0 0.0 0.0 -0.0 0.0 -0.0 1 False False
8305.094 3.712099313735962 -0.8254706424525757 0.8429439703570765 -1.588273664514059 -1.5707810560809534 2.14132022857666 0.0 0.0 0.0 -0.0 0.0 -0.0 1 False False
8305.144 3.7120819091796875 -0.8254869145205994 0.8429186979876917 -1.5883246860899867 -1.5707967917071741 2.1412839889526367 0.0 0.0 0.0 -0.0 0.0 -0.0 1 False False
8305.194 3.712090492248535 -0.825454370384552 0.8430007139789026 -1.5883370838561 -1.5707529226886194 2.1412501335144043 0.0 0.0 0.0 -0.0 0.0 -0.0 1 False False
8305.243999999999 3.7120981216430664 -0.8255202931216736 0.8429845015155237 -1.5882851086058558 -1.5708444754229944 2.14125919342041 0.0 0.0 0.0 -0.0 0.0 -0.0 1 False False
8305.294 3.7120699882507324 -0.8255202931216736 0.8429721037494105 -1.5882817707457484 -1.5707967917071741 2.141324758529663 0.0 0.0 0.0 -0.0 0.0 -0.0 1 False False
8305.344 3.7120211124420166 -0.8255039614490052 0.8429630438434046 -1.588292738000387 -1.570784870778219 2.14133358001709 0.0 0.0 0.0 -0.0 0.0 -0.0 1 False False
8305.394 3.712094783782959 -0.8254707020572205 0.8429721037494105 -1.5882817707457484 -1.5707610289203089 2.141270875930786 0.0 0.0 0.0 -0.0 0.0 -0.0 1 False False
8305.444 3.7120819091796875 -0.8255320352366944 0.8429811636554163 -1.5883647404112757 -1.5708087126361292 2.141282796859741 0.0 0.0 0.0 -0.0 0.0 -0.0 1 False False
8305.493999999999 3.712090492248535 -0.8255039614490052 0.8430054823504847 -1.5882774792113246 -1.5707767645465296 2.1412720680236816 6.420090953258079e-40 0.0 0.0 -0.0 0.0 -0.0 1 False False
8305.544 3.7120776176452637 -0.8254468005946656 0.8429606596576136 -1.5883094273009242 -1.5708168188678187 2.141279697418213 -2.294014878183119e-33 0.0 0.0 -0.0 0.0 -0.0 1 False False
8305.594 3.7120819091796875 -0.8255320352366944 0.8429935614215296 -1.5883051357665003 -1.5707648436175745 2.141295909881592 0.0 0.0 0.0 -0.0 0.0 -0.0 1 False False
8305.644 3.7120699882507324 -0.825546996002533 0.8429721037494105 -1.5883170566954554 -1.5708168188678187 2.141287088394165 0.0 0.0 0.0 -0.0 0.0 -0.0 1 False False
8305.694 3.7120981216430664 -0.8255439561656495 0.8429802099810999 -1.5883285007872523 -1.5708006064044397 2.141270875930786 0.0 0.0 0.0 -0.0 0.0 -0.0 1 False False
8305.743999999999 3.7120416164398193 -0.8255409163287659 0.8429935614215296 -1.5882889233031214 -1.570829216633932 2.1412558555603027 0.0 0.0 0.0 -0.0 0.0 -0.0 1 False False
8305.794 3.7120776176452637 -0.8255453866771241 0.8429978529559534 -1.588292738000387 -1.5707767645465296 2.141267776489258 0.0 0.0 0.0 -0.0 0.0 -0.0 1 False False
8305.844 3.7120537757873535 -0.8254497808269043 0.8430007139789026 -1.5882617435851039 -1.5707886854754847 2.141251564025879 0.0 0.0 0.0 -0.0 0.0 -0.0 1 False False
8305.894 3.712090492248535 -0.825495795612671 0.8429473082171839 -1.5882774792113246 -1.5708048979388636 2.141230821609497 0.0 0.0 0.0 -0.0 0.0 -0.0 1 False False
8305.944 3.712045907974243 -0.8254869741252442 0.8429802099810999 -1.5882569752135218 -1.5708492437945765 2.141312837600708 0.0 0.0 0.0 -0.0 0.0 -0.0 1 False False
8305.993999999999 3.712127208709717 -0.8254869741252442 0.8429678122149866 -1.5882731876769007 -1.5707810560809534 2.1413044929504395 0.0 0.0 0.0 -0.0 0.0 -0.0 1 False False
8306.044 3.712078809738159 -0.8255083721927186 0.8429845015155237 -1.5882612667479457 -1.5707805792437952 2.1413216590881348 0.0 0.0 0.0 -0.0 0.0 -0.0 1 False False
8306.094 3.712071418762207 -0.8254751128009339 0.8429845015155237 -1.5883165798582972 -1.5707805792437952 2.141275405883789 0.0 0.0 0.0 -0.0 0.0 -0.0 1 False False
8306.144 3.712045669555664 -0.8254869145205994 0.8430092970477503 -1.5883056126036585 -1.570801083241598 2.141258955001831 0.0 0.0 0.0 -0.0 0.0 -0.0 1 False False
8306.194 3.712106943130493 -0.8255246442607422 0.8429802099810999 -1.5883127651610316 -1.5707772413836878 2.141312837600708 0.0 0.0 0.0 -0.0 0.0 -0.0 1 False False
8306.243999999999 3.7120532989501953 -0.8255409759334107 0.8429802099810999 -1.588297029534811 -1.5707891623126429 2.1413090229034424 0.0 0.0 0.0 -0.0 0.0 -0.0 1 False False
8306.294 3.7120862007141113 -0.825445370083191 0.8429802099810999 -1.5883289776244105 -1.570829216633932 2.1412839889526367 -9.80908925027372e-45 0.0 0.0 -0.0 0.0 -0.0 1 False False
8306.344 3.712050199508667 -0.8255128425410767 0.8429721037494105 -1.5882731876769007 -1.5707767645465296 2.141279697418213 0.0 0.0 0.0 -0.0 0.0 -0.0 1 False False
8306.394 3.712095260620117 -0.8254905504039307 0.8430288473712366 -1.5883170566954554 -1.570784870778219 2.1412882804870605 0.0 0.0 0.0 -0.0 0.0 -0.0 1 False False
8306.444 3.712050199508667 -0.8254823845675965 0.8429520765887659 -1.588269372979635 -1.5707805792437952 2.141295909881592 0.0 0.0 0.0 -0.0 0.0 -0.0 1 False False
8306.493999999999 3.712041139602661 -0.8254823845675965 0.8429887930499476 -1.5882650814452113 -1.5708335081683558 2.1412546634674072 0.0 0.0 0.0 -0.0 0.0 -0.0 1 False False
8306.544 3.7120816707611084 -0.8254823845675965 0.8430421988116663 -1.5882932148375453 -1.5707805792437952 2.141263484954834 0.0 0.0 0.0 -0.0 0.0 -0.0 1 False False
8306.594 3.712083101272583 -0.8255693477443238 0.8429759184466761 -1.5883127651610316 -1.570801083241598 2.141275405883789 0.0 0.0 0.0 -0.0 0.0 -0.0 1 False False
8306.644 3.712078809738159 -0.8254794639400025 0.8430007139789026 -1.5882374248900355 -1.5708168188678187 2.14133358001709 0.0 0.0 0.0 -0.0 0.0 -0.0 1 False False
8306.694 3.7120368480682373 -0.8254735630801697 0.8429930845843714 -1.5882650814452113 -1.570813004170553 2.1413047313690186 0.0 0.0 0.0 -0.0 0.0 -0.0 1 False False
8306.743999999999 3.712062358856201 -0.8254779738238831 0.8429721037494105 -1.5883094273009242 -1.5708211104022425 2.1412665843963623 0.0 0.0 0.0 -0.0 0.0 -0.0 1 False False
8306.794 3.7120535373687744 -0.8254496616176148 0.8429845015155237 -1.5883051357665003 -1.5708091894732874 2.1412928104400635 0.0 0.0 0.0 -0.0 0.0 -0.0 1 False False
8306.844 3.7120697498321533 -0.8255068820765992 0.8429845015155237 -1.5882731876769007 -1.570801083241598 2.1413040161132812 0.0 0.0 0.0 -0.0 0.0 -0.0 1 False False
8306.894 3.712083339691162 -0.8254380387118836 0.8429520765887659 -1.5882846317686976 -1.5707524458514612 2.1413378715515137 0.0 0.0 0.0 -0.0 0.0 -0.0 1 False False
8306.944 3.712062358856201 -0.8254527610591431 0.8429716269122522 -1.5882932148375453 -1.5707805792437952 2.1412174701690674 0.0 0.0 0.0 -0.0 0.0 -0.0 1 False False
8306.993999999999 3.71209979057312 -0.825524703865387 0.8429282347308558 -1.588252683679098 -1.5707443396197718 2.141279697418213 0.0 0.0 0.0 -0.0 0.0 -0.0 1 False False
8307.044 3.712050199508667 -0.8254706424525757 0.8429930845843714 -1.5882932148375453 -1.5708373228656214 2.141267776489258 0.0 0.0 0.0 -0.0 0.0 -0.0 1 False False
8307.094 3.712012529373169 -0.8254949015429993 0.8429635206805628 -1.5882607899107875 -1.570772949849264 2.1412603855133057 0.0 0.0 0.0 -0.0 0.0 -0.0 1 False False
8307.144 3.7120203971862793 -0.8254905504039307 0.8429802099810999 -1.5883013210692347 -1.5707686583148401 2.141308546066284 0.0 0.0 0.0 -0.0 0.0 -0.0 1 False False
8307.194 3.712071418762207 -0.8255112928203125 0.8430083433734339 -1.5883056126036585 -1.5707967917071741 2.141251564025879 1.4865669606914726e-25 0.0 0.0 -0.0 0.0 -0.0 1 False False
8307.243999999999 3.712045669555664 -0.8254993718913575 0.8429763952838343 -1.5883251629271449 -1.5708449522601526 2.141324758529663 0.0 0.0 0.0 -0.0 0.0 -0.0 1 False False
8307.294 3.712036609649658 -0.8255366843989869 0.8429716269122522 -1.588252683679098 -1.5707767645465296 2.141295909881592 0.0 0.0 0.0 -0.0 0.0 -0.0 1 False False
8307.344 3.7120742797851562 -0.825473503475525 0.8429845015155237 -1.5882846317686976 -1.5708335081683558 2.1413378715515137 0.0 0.0 0.0 -0.0 0.0 -0.0 1 False False
8307.394 3.712062358856201 -0.8254869741252442 0.8429587523089808 -1.588280817071432 -1.570768181477682 2.141270875930786 0.0 0.0 0.0 -0.0 0.0 -0.0 1 False False
8307.444 3.712095260620117 -0.8255366843989869 0.8429964224444788 -1.5882932148375453 -1.570784870778219 2.141267776489258 0.0 0.0 0.0 -0.0 0.0 -0.0 1 False False
8307.493999999999 3.712045669555664 -0.8254735630801697 0.8430259863482874 -1.5882488689818324 -1.5707648436175745 2.1413216590881348 0.0 0.0 0.0 -0.0 0.0 -0.0 1 False False
8307.544 3.7120578289031982 -0.8255366247943421 0.8429721037494105 -1.5882731876769007 -1.5708048979388636 2.141263484954834 0.0 0.0 0.0 -0.0 0.0 -0.0 1 False False
8307.594 3.712083339691162 -0.8255143326571961 0.8429721037494105 -1.5882932148375453 -1.5708168188678187 2.1413040161132812 0.0 0.0 0.0 -0.0 0.0 -0.0 1 False False
8307.644 3.712062358856201 -0.8255320352366944 0.8430007139789026 -1.5882889233031214 -1.5708091894732874 2.141258955001831 0.0 0.0 0.0 -0.0 0.0 -0.0 1 False False
8307.694 3.7120935916900635 -0.8254408997348328 0.8429845015155237 -1.5882932148375453 -1.570784870778219 2.141279697418213 0.0 0.0 0.0 -0.0 0.0 -0.0 1 False False
8307.743999999999 3.7121026515960693 -0.8255112332156678 0.8429678122149866 -1.5883289776244105 -1.5707886854754847 2.141254425048828 0.0 0.0 0.0 -0.0 0.0 -0.0 1 False False
8307.794 3.712062358856201 -0.8255319756320496 0.8429349104510706 -1.5882569752135218 -1.5707486311541956 2.1413159370422363 0.0 0.0 0.0 -0.0 0.0 -0.0 1 False False
8307.844 3.7120203971862793 -0.8254823845675965 0.8430188337909144 -1.588245531121725 -1.570813004170553 2.1412456035614014 0.0 0.0 0.0 -0.0 0.0 -0.0 1 False False
8307.894 3.712078809738159 -0.8255232137492676 0.8429721037494105 -1.5883332691588343 -1.5708087126361292 2.1412501335144043 0.0 0.0 0.0 -0.0 0.0 -0.0 1 False False
8307.944 3.712106943130493 -0.8255530160716553 0.8429721037494105 -1.5883175335326136 -1.5707925001727503 2.1412723064422607 7.940209904508388e-13 0.0 0.0 -0.0 0.0 -0.0 1 False False
8307.993999999999 3.712062358856201 -0.8254993718913575 0.8429349104510706 -1.5883094273009242 -1.5708168188678187 2.141267776489258 0.0 0.0 0.0 -0.0 0.0 -0.0 1 False False
8308.044 3.712078809738159 -0.8255157035640259 0.8429606596576136 -1.5882846317686976 -1.5708006064044397 2.1412885189056396 0.0 0.0 0.0 -0.0 0.0 -0.0 1 False False
8308.094 3.71209979057312 -0.8254869741252442 0.8429301420794886 -1.588297029534811 -1.5707767645465296 2.1412928104400635 0.0 0.0 0.0 -0.0 0.0 -0.0 1 False False
8308.144 3.712041139602661 -0.8255484265140076 0.8429763952838343 -1.588280817071432 -1.5708211104022425 2.141247034072876 0.0 0.0 0.0 -0.0 0.0 -0.0 1 False False
8308.194 3.712078809738159 -0.8255366247943421 0.8430097738849085 -1.588252683679098 -1.570829216633932 2.141226291656494 0.0 0.0 0.0 -0.0 0.0 -0.0 1 False False
8308.243999999999 3.7120697498321533 -0.8254869741252442 0.8429606596576136 -1.5883056126036585 -1.5708044211017054 2.141263484954834 0.0 0.0 0.0 -0.0 0.0 -0.0 1 False False
8308.294 3.712083339691162 -0.8254038852504273 0.8429763952838343 -1.5883575878539027 -1.5707724730121058 2.141279697418213 0.0 0.0 0.0 -0.0 0.0 -0.0 1 False False
8308.344 3.7120742797851562 -0.8254869741252442 0.8429721037494105 -1.5882569752135218 -1.570801083241598 2.141263484954834 0.0 0.0 0.0 -0.0 0.0 -0.0 1 False False
8308.394 3.7120232582092285 -0.8254823845675965 0.8430054823504847 -1.5882569752135218 -1.570784870778219 2.1412997245788574 0.0 0.0 0.0 -0.0 0.0 -0.0 1 False False
8308.444 3.7120697498321533 -0.8255024713328858 0.8430379072772425 -1.5882488689818324 -1.5708087126361292 2.141226291656494 0.0 0.0 0.0 -0.0 0.0 -0.0 1 False False
8308.493999999999 3.712108612060547 -0.8255039614490052 0.8429721037494105 -1.5883218250670375 -1.5708168188678187 2.141235113143921 0.0 0.0 0.0 -0.0 0.0 -0.0 1 False False
8308.544 3.7121188640594482 -0.8254869741252442 0.8429563681231897 -1.5882331333556117 -1.570801083241598 2.141270637512207 0.0 0.0 0.0 -0.0 0.0 -0.0 1 False False
8308.594 3.7120862007141113 -0.8254706424525757 0.8429892698871058 -1.5882932148375453 -1.5708335081683558 2.141270637512207 -1.7187067324897498e-09 0.0 0.0 -0.0 0.0 -0.0 1 False False
8308.644 3.712050199508667 -0.8254215878299256 0.8430054823504847 -1.5882731876769007 -1.570756737385885 2.141329288482666 0.0 0.0 0.0 -0.0 0.0 -0.0 1 False False
8308.694 3.712123394012451 -0.8254823845675965 0.8429978529559534 -1.5882774792113246 -1.570784870778219 2.141258955001831 0.0 0.0 0.0 -0.0 0.0 -0.0 1 False False
8308.743999999999 3.7121026515960693 -0.8255247634700318 0.8429892698871058 -1.5882607899107875 -1.5707886854754847 2.141279697418213 3.4918827371440125e-16 0.0 0.0 -0.0 0.0 -0.0 1 False False
8308.794 3.712099552154541 -0.8255157035640259 0.8430097738849085 -1.5882488689818324 -1.5707967917071741 2.1412839889526367 0.0 0.0 0.0 -0.0 0.0 -0.0 1 False False
8308.844 3.712095022201538 -0.8254543107799073 0.8429606596576136 -1.5883251629271449 -1.5707805792437952 2.141267776489258 0.0 0.0 0.0 -0.0 0.0 -0.0 1 False False
8308.894 3.7120654582977295 -0.825527624492981 0.8429754416095179 -1.5883094273009242 -1.5708168188678187 2.141263484954834 0.0 0.0 0.0 -0.0 0.0 -0.0 1 False False
8308.944 3.7120368480682373 -0.8254779142192383 0.8429978529559534 -1.588297029534811 -1.5708335081683558 2.1412720680236816 0.0 0.0 0.0 -0.0 0.0 -0.0 1 False False
8308.993999999999 3.7120251655578613 -0.8254780334285279 0.8429845015155237 -1.5883013210692347 -1.5708168188678187 2.1413307189941406 0.0 0.0 0.0 -0.0 0.0 -0.0 1 False False
8309.044 3.7120819091796875 -0.8255202931216736 0.8429563681231897 -1.5882851086058558 -1.5708335081683558 2.141287088394165 0.0 0.0 0.0 -0.0 0.0 -0.0 1 False False
8309.094 3.7120697498321533 -0.825463132267334 0.8429392019854944 -1.588313718835348 -1.5708048979388636 2.1412885189056396 0.0 0.0 0.0 -0.0 0.0 -0.0 1 False False
8309.144 3.7120578289031982 -0.8255232137492676 0.8429978529559534 -1.5883246860899867 -1.5707767645465296 2.141270637512207 0.0 0.0 0.0 -0.0 0.0 -0.0 1 False False
8309.194 3.712050199508667 -0.825495795612671 0.8429845015155237 -1.5883094273009242 -1.5707724730121058 2.141270637512207 0.0 0.0 0.0 -0.0 0.0 -0.0 1 False False
8309.243999999999 3.712033748626709 -0.8255291742137452 0.8429630438434046 -1.5882650814452113 -1.5708048979388636 2.1412558555603027 0.0 0.0 0.0 -0.0 0.0 -0.0 1 False False
8309.294 3.7120535373687744 -0.8255202931216736 0.8430054823504847 -1.5882655582823695 -1.5708044211017054 2.14127516746521 0.0 0.0 0.0 -0.0 0.0 -0.0 1 False False
8309.344 3.712066650390625 -0.8255247634700318 0.8429935614215296 -1.5882851086058558 -1.570801083241598 2.141263484954834 0.0 0.0 0.0 -0.0 0.0 -0.0 1 False False
8309.394 3.712062358856201 -0.8254616421512146 0.8429721037494105 -1.5883094273009242 -1.5707362333880823 2.141291618347168 0.0 0.0 0.0 -0.0 0.0 -0.0 1 False False
8309.444 3.712090492248535 -0.8255128425410767 0.8429887930499476 -1.5882889233031214 -1.5707648436175745 2.141287088394165 0.0 0.0 0.0 -0.0 0.0 -0.0 1 False False
8309.493999999999 3.712066650390625 -0.8254993718913575 0.8429630438434046 -1.5883246860899867 -1.570784870778219 2.141247034072876 0.0 0.0 0.0 -0.0 0.0 -0.0 1 False False
8309.544 3.712045907974243 -0.8255083721927186 0.8430140654193323 -1.5883165798582972 -1.570772949849264 2.1412994861602783 0.0 0.0 0.0 -0.0 0.0 -0.0 1 False False
8309.594 3.7120535373687744 -0.8255202931216736 0.8429763952838343 -1.5882932148375453 -1.570784870778219 2.141279697418213 0.0 0.0 0.0 -0.0 0.0 -0.0 1 False False
8309.644 3.712066650390625 -0.8255335849574585 0.8430007139789026 -1.5883094273009242 -1.570772949849264 2.141206741333008 0.0 0.0 0.0 -0.0 0.0 -0.0 1 False False
8309.694 3.7120699882507324 -0.8254949611476441 0.8430050055133265 -1.5883008442320765 -1.5708335081683558 2.1413040161132812 0.0 0.0 0.0 -0.0 0.0 -0.0 1 False False
8309.743999999999 3.7119998931884766 -0.8254913848689576 0.8429673353778284 -1.588308950463766 -1.5708211104022425 2.1413381099700928 0.0 0.0 0.0 -0.0 0.0 -0.0 1 False False
8309.794 3.712062358856201 -0.8255455058864136 0.8429759184466761 -1.5883094273009242 -1.5707805792437952 2.141296148300171 0.0 0.0 0.0 -0.0 0.0 -0.0 1 False False
8309.844 3.7120699882507324 -0.8255409759334107 0.8430007139789026 -1.588273664514059 -1.5708168188678187 2.141266107559204 0.0 0.0 0.0 -0.0 0.0 -0.0 1 False False
8309.894 3.7120537757873535 -0.8255039614490052 0.8429721037494105 -1.5882493458189906 -1.5707929770099085 2.141279697418213 0.0 0.0 0.0 -0.0 0.0 -0.0 1 False False
8309.944 3.712066650390625 -0.8255453866771241 0.8429759184466761 -1.588297506371969 -1.5707648436175745 2.14127516746521 0.0 0.0 0.0 -0.0 0.0 -0.0 1 False False
8309.993999999999 3.7120208740234375 -0.8254692715457459 0.8429887930499476 -1.5883013210692347 -1.5708368460284632 2.141308546066284 0.0 0.0 0.0 -0.0 0.0 -0.0 1 False False
8310.044 3.712110996246338 -0.8254913848689576 0.8429802099810999 -1.588280817071432 -1.5708168188678187 2.141263246536255 0.0 0.0 0.0 -0.0 0.0 -0.0 1 False False
8310.094 3.712082862854004 -0.8255202931216736 0.8429759184466761 -1.588320871392721 -1.5707967917071741 2.1412885189056396 0.0 0.0 0.0 -0.0 0.0 -0.0 1 False False
8310.144 3.712094783782959 -0.8254823845675965 0.8429721037494105 -1.588280817071432 -1.5707724730121058 2.141270637512207 0.0 0.0 0.0 -0.0 0.0 -0.0 1 False False
8310.194 3.712127208709717 -0.8254587215236207 0.8429802099810999 -1.588320871392721 -1.5708211104022425 2.141242504119873 0.0 0.0 0.0 -0.0 0.0 -0.0 1 False False
8310.243999999999 3.7120699882507324 -0.8255202335170289 0.8429635206805628 -1.5882607899107875 -1.5708087126361292 2.141321897506714 0.0 0.0 0.0 -0.0 0.0 -0.0 1 False False
8310.294 3.7120537757873535 -0.8255068820765992 0.8429759184466761 -1.5883051357665003 -1.570829216633932 2.141258955001831 0.0 0.0 0.0 -0.0 0.0 -0.0 1 False False
8310.344 3.712099313735962 -0.8254661124995728 0.8430007139789026 -1.5882650814452113 -1.5707529226886194 2.14123797416687 0.0 0.0 0.0 -0.0 0.0 -0.0 1 False False
8310.394 3.712090492248535 -0.8254913252643128 0.8429845015155237 -1.5883251629271449 -1.570756737385885 2.141308546066284 -5.586402039625682e-05 0.0 0.0 -0.0 0.0 -0.0 1 False False
8310.444 3.7120862007141113 -0.8254869741252442 0.8429563681231897 -1.5883332691588343 -1.5707648436175745 2.1413040161132812 -2.1890753487241454e-05 0.0 0.0 -0.0 0.0 -0.0 1 False False
8310.493999999999 3.7120981216430664 -0.8254780334285279 0.8429678122149866 -1.5882731876769007 -1.5708087126361292 2.1413426399230957 -1.3613015653390903e-05 0.0 0.0 -0.0 0.0 -0.0 1 False False
8310.544 3.7120611667633057 -0.8255126637271424 0.842992130910055 -1.5883127651610316 -1.5708048979388636 2.1413204669952393 -9.81074663286563e-07 0.0 0.0 -0.0 0.0 -0.0 1 False False
8310.594 3.7120742797851562 -0.8254780930331727 0.8430288473712366 -1.5883332691588343 -1.570784870778219 2.141279697418213 0.0 0.0 0.0 -0.0 0.0 -0.0 1 False False
8310.644 3.71207857131958 -0.8255069416812439 0.8429678122149866 -1.5882488689818324 -1.5707605520831507 2.141324996948242 0.0 0.0 0.0 -0.0 0.0 -0.0 1 False False
8310.694 3.7120819091796875 -0.8254906696132203 0.8429845015155237 -1.5883456669249476 -1.5707886854754847 2.141267776489258 0.0 0.0 0.0 -0.0 0.0 -0.0 1 False False
8310.743999999999 3.712143898010254 -0.8255482477000733 0.8429930845843714 -1.5882569752135218 -1.5707891623126429 2.141254425048828 0.0 0.0 0.0 -0.0 0.0 -0.0 1 False False
8310.794 3.7121143341064453 -0.8254824441722413 0.8430255095111292 -1.5882889233031214 -1.5707967917071741 2.14127516746521 0.0 0.0 0.0 -0.0 0.0 -0.0 1 False False
8310.844 3.712099313735962 -0.825517014866211 0.842902962361471 -1.5882607899107875 -1.570801083241598 2.1412603855133057 0.0 0.0 0.0 -0.0 0.0 -0.0 1 False False
8310.894 3.7120416164398193 -0.8254544299891968 0.8429678122149866 -1.5883413753905238 -1.5707648436175745 2.141263246536255 0.0 0.0 0.0 -0.0 0.0 -0.0 1 False False
8310.944 3.71207857131958 -0.825508252983429 0.8429802099810999 -1.5882932148375453 -1.5707967917071741 2.141263484954834 0.0 0.0 0.0 -0.0 0.0 -0.0 1 False False
8310.993999999999 3.7121024131774902 -0.8254694503596802 0.8429673353778284 -1.5882650814452113 -1.5707686583148401 2.141308546066284 3.703228503582068e-05 0.0 0.0 -0.0 0.0 -0.0 1 False False
8311.044 3.7121024131774902 -0.8254993718913575 0.8429563681231897 -1.588245531121725 -1.5708254019366663 2.141284227371216 0.0 0.0 0.0 -0.0 0.0 -0.0 1 False False
8311.094 3.7120697498321533 -0.8254618805697937 0.8430126349078577 -1.5882932148375453 -1.570813004170553 2.141291618347168 0.0 0.0 0.0 -0.0 0.0 -0.0 1 False False
8311.144 3.7120368480682373 -0.8254750531962891 0.8429515997516077 -1.5883170566954554 -1.570801083241598 2.141279697418213 0.0 0.0 0.0 -0.0 0.0 -0.0 1 False False
8311.194 3.7120203971862793 -0.8254499596408387 0.8429845015155237 -1.5883013210692347 -1.57074481645693 2.141279697418213 0.0 0.0 0.0 -0.0 0.0 -0.0 1 False False
8311.243999999999 3.7120490074157715 -0.8255112928203125 0.8429892698871058 -1.5882250271239222 -1.5707925001727503 2.141308546066284 0.0 0.0 0.0 -0.0 0.0 -0.0 1 False False
8311.294 3.712111473083496 -0.8255201739123841 0.8429563681231897 -1.5883013210692347 -1.5708211104022425 2.141267776489258 0.0 0.0 0.0 -0.0 0.0 -0.0 1 False False
8311.344 3.7120773792266846 -0.8255069416812439 0.8429649511920374 -1.588297029534811 -1.570772949849264 2.1412618160247803 0.0 0.0 0.0 -0.0 0.0 -0.0 1 False False
8311.394 3.7120981216430664 -0.8255189222148438 0.8429887930499476 -1.588252683679098 -1.5708373228656214 2.14127516746521 0.0 0.0 0.0 -0.0 0.0 -0.0 1 False False
8311.444 3.712104082107544 -0.8255081933787842 0.8429887930499476 -1.5882650814452113 -1.570801083241598 2.1412994861602783 0.0 0.0 0.0 -0.0 0.0 -0.0 1 False False
8311.493999999999 3.7120578289031982 -0.8255168360522767 0.8429935614215296 -1.5883332691588343 -1.5707724730121058 2.14131760597229 0.0 0.0 0.0 -0.0 0.0 -0.0 1 False False
8311.544 3.712087631225586 -0.8255232137492676 0.8429515997516077 -1.5882817707457484 -1.570801083241598 2.141270637512207 0.0 0.0 0.0 -0.0 0.0 -0.0 1 False False
8311.594 3.712041139602661 -0.8254913252643128 0.8429845015155237 -1.5882650814452113 -1.5708211104022425 2.141258955001831 0.0 0.0 0.0 -0.0 0.0 -0.0 1 False False
8311.644 3.712029457092285 -0.8254338067821045 0.8430145422564905 -1.5883251629271449 -1.5707886854754847 2.141279697418213 0.0 0.0 0.0 -0.0 0.0 -0.0 1 False False
8311.694 3.712066888809204 -0.8255394858172913 0.8429587523089808 -1.5882932148375453 -1.5708168188678187 2.141321897506714 0.0 0.0 0.0 -0.0 0.0 -0.0 1 False False
8311.743999999999 3.7120742797851562 -0.8254781526378174 0.8430007139789026 -1.5883013210692347 -1.5707967917071741 2.1412994861602783 0.0 0.0 0.0 -0.0 0.0 -0.0 1 False False
8311.794 3.712062358856201 -0.8254619401744385 0.8429935614215296 -1.5882932148375453 -1.5707686583148401 2.141287088394165 0.0 0.0 0.0 -0.0 0.0 -0.0 1 False False
8311.844 3.712071418762207 -0.8254956167987366 0.8429887930499476 -1.5883056126036585 -1.5707810560809534 2.1412839889526367 0.0 0.0 0.0 -0.0 0.0 -0.0 1 False False
8311.894 3.712045669555664 -0.8254999083331604 0.8429515997516077 -1.5883013210692347 -1.5707686583148401 2.141321897506714 0.0 0.0 0.0 -0.0 0.0 -0.0 1 False False
8311.944 3.7120890617370605 -0.8254500192454834 0.8429473082171839 -1.5882932148375453 -1.5707443396197718 2.1413094997406006 0.0 0.0 0.0 -0.0 0.0 -0.0 1 False False
8311.993999999999 3.7120532989501953 -0.8255405587008973 0.8429802099810999 -1.588269372979635 -1.570784870778219 2.141287088394165 0.0 0.0 0.0 -0.0 0.0 -0.0 1 False False
8312.044 3.71205472946167 -0.8254674834064026 0.8429673353778284 -1.5882607899107875 -1.5707967917071741 2.141284227371216 0.0 0.0 0.0 -0.0 0.0 -0.0 1 False False
8312.094 3.712036609649658 -0.825528697376587 0.8429697195636194 -1.5882569752135218 -1.5708606878863733 2.141308546066284 0.0 0.0 0.0 -0.0 0.0 -0.0 1 False False
8312.144 3.712041139602661 -0.8254738014987488 0.8429845015155237 -1.5883056126036585 -1.5707572142230433 2.1412723064422607 0.0 0.0 0.0 -0.0 0.0 -0.0 1 False False
8312.194 3.712062358856201 -0.8254588407329102 0.8429515997516077 -1.5882607899107875 -1.5707686583148401 2.14127516746521 0.0 0.0 0.0 -0.0 0.0 -0.0 1 False False
8312.243999999999 3.712104082107544 -0.8255525392344971 0.8429892698871058 -1.588297029534811 -1.570801083241598 2.1412558555603027 0.0 0.0 0.0 -0.0 0.0 -0.0 1 False False
8312.294 3.7120697498321533 -0.8255038422397156 0.8429845015155237 -1.5882889233031214 -1.5708444754229944 2.141279697418213 0.0 0.0 0.0 -0.0 0.0 -0.0 1 False False
8312.344 3.712095260620117 -0.825482503776886 0.8429678122149866 -1.5882765255370082 -1.5707886854754847 2.141258955001831 0.0 0.0 0.0 -0.0 0.0 -0.0 1 False False
8312.394 3.712033748626709 -0.8254955571940918 0.8429935614215296 -1.5882846317686976 -1.570784870778219 2.14131760597229 0.0 0.0 0.0 -0.0 0.0 -0.0 1 False False
8312.444 3.7120907306671143 -0.8254907888225098 0.8429845015155237 -1.5883251629271449 -1.5707805792437952 2.141263246536255 0.0 0.0 0.0 -0.0 0.0 -0.0 1 False False
8312.493999999999 3.712062358856201 -0.8254782122424622 0.8429563681231897 -1.5883094273009242 -1.5708006064044397 2.141263246536255 0.0 0.0 0.0 -0.0 0.0 -0.0 1 False False
8312.544 3.7120578289031982 -0.825482503776886 0.8429630438434046 -1.5882774792113246 -1.5708168188678187 2.141287088394165 0.0 0.0 0.0 -0.0 0.0 -0.0 1 False False
8312.594 3.7120981216430664 -0.8254662913135071 0.8429473082171839 -1.5883094273009242 -1.5707805792437952 2.141284227371216 0.0 0.0 0.0 -0.0 0.0 -0.0 1 False False
8312.644 3.7120158672332764 -0.8254907888225098 0.8430097738849085 -1.5883251629271449 -1.5707686583148401 2.141254186630249 0.0 0.0 0.0 -0.0 0.0 -0.0 1 False False
8312.694 3.712062358856201 -0.825491265659668 0.8429649511920374 -1.5882889233031214 -1.5707610289203089 2.141270637512207 0.0 0.0 0.0 -0.0 0.0 -0.0 1 False False
8312.743999999999 3.7120742797851562 -0.8255394262126465 0.8429678122149866 -1.5883175335326136 -1.5707648436175745 2.14123797416687 0.0 0.0 0.0 -0.0 0.0 -0.0 1 False False
8312.794 3.7121026515960693 -0.825450138454773 0.8430007139789026 -1.588297506371969 -1.5708125273333948 2.1412885189056396 0.0 0.0 0.0 -0.0 0.0 -0.0 1 False False
8312.844 3.7120981216430664 -0.8255080741694947 0.8429191748248499 -1.5882846317686976 -1.570784870778219 2.14131760597229 2.883775033005187e-13 0.0 0.0 -0.0 0.0 -0.0 1 False False
8312.894 3.712062358856201 -0.8255286377719422 0.8429802099810999 -1.588252683679098 -1.5707529226886194 2.141291618347168 0.0 0.0 0.0 -0.0 0.0 -0.0 1 False False
8312.944 3.7120816707611084 -0.825482503776886 0.8430216948138636 -1.588280817071432 -1.5707843939410608 2.141237735748291 0.0 0.0 0.0 -0.0 0.0 -0.0 1 False False
8312.993999999999 3.7120907306671143 -0.8254630726626893 0.8429430166827601 -1.588273664514059 -1.5707605520831507 2.14127516746521 0.0 0.0 0.0 -0.0 0.0 -0.0 1 False False
8313.044 3.7121071815490723 -0.8254383367351075 0.8429935614215296 -1.588292738000387 -1.5707686583148401 2.141291618347168 0.0 0.0 0.0 -0.0 0.0 -0.0 1 False False
8313.094 3.712095260620117 -0.8255361479571839 0.8429930845843714 -1.5882569752135218 -1.570772949849264 2.141267776489258 0.0 0.0 0.0 -0.0 0.0 -0.0 1 False False
8313.144 3.712078809738159 -0.8254954975894471 0.8430050055133265 -1.5883094273009242 -1.5707805792437952 2.141313076019287 0.0 0.0 0.0 -0.0 0.0 -0.0 1 False False
8313.194 3.7120935916900635 -0.8254993718913575 0.8429473082171839 -1.5882531605162562 -1.570813004170553 2.141359329223633 0.0 0.0 0.0 -0.0 0.0 -0.0 1 False False
8313.243999999999 3.7120323181152344 -0.8254663509181519 0.8430050055133265 -1.5882488689818324 -1.5707524458514612 2.141296148300171 0.0 0.0 0.0 -0.0 0.0 -0.0 1 False False
8313.294 3.7121071815490723 -0.8255112928203125 0.8429845015155237 -1.5883451900877894 -1.570813004170553 2.141321897506714 0.0 0.0 0.0 -0.0 0.0 -0.0 1 False False
8313.344 3.712111473083496 -0.8254662913135071 0.8429635206805628 -1.5882817707457484 -1.570784870778219 2.141313076019287 0.0 0.0 0.0 -0.0 0.0 -0.0 1 False False
8313.394 3.712095260620117 -0.8255436581424256 0.8429887930499476 -1.588285585443014 -1.570784870778219 2.141270637512207 0.0 0.0 0.0 -0.0 0.0 -0.0 1 False False
8313.444 3.7120773792266846 -0.8255242866328736 0.8429239431964319 -1.5882889233031214 -1.570784870778219 2.141308546066284 0.0 0.0 0.0 -0.0 0.0 -0.0 1 False False
8313.493999999999 3.712116003036499 -0.8254416149905701 0.8429964224444788 -1.5882932148375453 -1.570784870778219 2.1412439346313477 0.0 0.0 0.0 -0.0 0.0 -0.0 1 False False
8313.544 3.712127923965454 -0.8255685728839417 0.8429802099810999 -1.5882493458189906 -1.5707929770099085 2.141279697418213 0.0 0.0 0.0 -0.0 0.0 -0.0 1 False False
8313.594 3.7120742797851562 -0.8254534763148804 0.8429678122149866 -1.5882774792113246 -1.570768181477682 2.141267776489258 0.0 0.0 0.0 -0.0 0.0 -0.0 1 False False
8313.644 3.7120578289031982 -0.8254993718913575 0.8429477850543421 -1.588273664514059 -1.5707610289203089 2.141313076019287 0.0 0.0 0.0 -0.0 0.0 -0.0 1 False False
8313.694 3.7120654582977295 -0.8254740399173279 0.8429887930499476 -1.5882889233031214 -1.570784870778219 2.141284227371216 0.0 0.0 0.0 -0.0 0.0 -0.0 1 False False
8313.743999999999 3.712095022201538 -0.8255081337741395 0.8429763952838343 -1.5882698498167933 -1.5707967917071741 2.1412885189056396 0.0 0.0 0.0 -0.0 0.0 -0.0 1 False False
8313.794 3.7120325565338135 -0.8254502576640625 0.8429477850543421 -1.588292738000387 -1.570772949849264 2.14127516746521 0.0 0.0 0.0 -0.0 0.0 -0.0 1 False False
8313.844 3.7121365070343018 -0.8254620593837281 0.8429930845843714 -1.588297029534811 -1.5708487669574183 2.1413049697875977 0.0 0.0 0.0 -0.0 0.0 -0.0 1 False False
8313.894 3.7120535373687744 -0.825478271847107 0.8429716269122522 -1.588269372979635 -1.5707605520831507 2.141279697418213 0.0 0.0 0.0 -0.0 0.0 -0.0 1 False False
8313.944 3.712106943130493 -0.8254588407329102 0.8430126349078577 -1.5883413753905238 -1.5707843939410608 2.141350269317627 0.0 0.0 0.0 -0.0 0.0 -0.0 1 False False
8313.993999999999 3.712095022201538 -0.825491265659668 0.8429845015155237 -1.5883332691588343 -1.570784870778219 2.141284227371216 0.0 0.0 0.0 -0.0 0.0 -0.0 1 False False
8314.044 3.712066888809204 -0.8255027693561097 0.8429520765887659 -1.5883251629271449 -1.5707686583148401 2.141263246536255 0.0 0.0 0.0 -0.0 0.0 -0.0 1 False False
8314.094 3.712062358856201 -0.8254416149905701 0.8430212179767054 -1.5883046589293421 -1.5708211104022425 2.14131760597229 0.0 0.0 0.0 -0.0 0.0 -0.0 1 False False
8314.144 3.71207857131958 -0.8254620593837281 0.8429887930499476 -1.5883127651610316 -1.57074481645693 2.141308546066284 0.0 0.0 0.0 -0.0 0.0 -0.0 1 False False
8314.194 3.7120742797851562 -0.8254750531962891 0.8429678122149866 -1.5882932148375453 -1.5707405249225062 2.1412513256073 0.0 0.0 0.0 -0.0 0.0 -0.0 1 False False
8314.243999999999 3.712095022201538 -0.8254620593837281 0.8430007139789026 -1.5883127651610316 -1.5707925001727503 2.141266107559204 0.0 0.0 0.0 -0.0 0.0 -0.0 1 False False
8314.294 3.7120611667633057 -0.8255242270282288 0.8429845015155237 -1.5883094273009242 -1.5707767645465296 2.141308546066284 0.0 0.0 0.0 -0.0 0.0 -0.0 1 False False
8314.344 3.7120580673217773 -0.8254836362651368 0.8429721037494105 -1.5882288418211878 -1.5707486311541956 2.14127516746521 0.0 0.0 0.0 -0.0 0.0 -0.0 1 False False
8314.394 3.712045907974243 -0.825487033729889 0.8429759184466761 -1.5883170566954554 -1.5707925001727503 2.141279697418213 1.0191813438296027e-30 0.0 0.0 -0.0 0.0 -0.0 1 False False
8314.444 3.712045907974243 -0.8254459065249939 0.8429635206805628 -1.5882889233031214 -1.5708091894732874 2.1413004398345947 0.0 0.0 0.0 -0.0 0.0 -0.0 1 False False
8314.493999999999 3.712083101272583 -0.8254696887782593 0.8429635206805628 -1.5882731876769007 -1.5708335081683558 2.141234874725342 0.0 0.0 0.0 -0.0 0.0 -0.0 1 False False
8314.544 3.712062358856201 -0.8254546088031312 0.8430212179767054 -1.5882817707457484 -1.5708168188678187 2.141270637512207 0.0 0.0 0.0 -0.0 0.0 -0.0 1 False False
8314.594 3.7120580673217773 -0.8254739803126832 0.8430135885821741 -1.5883170566954554 -1.5708168188678187 2.141284227371216 0.0 0.0 0.0 -0.0 0.0 -0.0 1 False False
8314.644 3.712045907974243 -0.8254739803126832 0.8429434935199183 -1.5882889233031214 -1.57074481645693 2.141267776489258 0.0 0.0 0.0 -0.0 0.0 -0.0 1 False False
8314.694 3.7120537757873535 -0.8254535359195252 0.843001667653219 -1.5882851086058558 -1.570813004170553 2.14127516746521 0.0 0.0 0.0 -0.0 0.0 -0.0 1 False False
8314.743999999999 3.7120370864868164 -0.8254663509181519 0.8429649511920374 -1.5883094273009242 -1.5707724730121058 2.141279697418213 0.0 0.0 0.0 -0.0 0.0 -0.0 1 False False
8314.794 3.7120981216430664 -0.825450138454773 0.8429482618915003 -1.5883013210692347 -1.5708168188678187 2.1413040161132812 0.0 0.0 0.0 -0.0 0.0 -0.0 1 False False
8314.844 3.712050199508667 -0.8254954975894471 0.8429892698871058 -1.588268896142477 -1.5708048979388636 2.14127516746521 0.0 0.0 0.0 -0.0 0.0 -0.0 1 False False
8314.894 3.7121198177337646 -0.8254950803569336 0.8429964224444788 -1.5883013210692347 -1.5708373228656214 2.141350269317627 0.0 0.0 0.0 -0.0 0.0 -0.0 1 False False
8314.944 3.7120580673217773 -0.8255155843547364 0.8429606596576136 -1.5882774792113246 -1.5707886854754847 2.141300678253174 0.0 0.0 0.0 -0.0 0.0 -0.0 1 False False
8314.993999999999 3.7120862007141113 -0.8255080741694947 0.8429935614215296 -1.5883013210692347 -1.5708168188678187 2.141254186630249 0.0 0.0 0.0 -0.0 0.0 -0.0 1 False False
8315.044 3.712094783782959 -0.8254869741252442 0.8429630438434046 -1.5882932148375453 -1.5708168188678187 2.1412885189056396 0.0 0.0 0.0 -0.0 0.0 -0.0 1 False False
8315.094 3.712062358856201 -0.8254501980594178 0.8429630438434046 -1.5883575878539027 -1.570784870778219 2.141270637512207 0.0 0.0 0.0 -0.0 0.0 -0.0 1 False False
8315.144 3.712062358856201 -0.8255199950984498 0.8429978529559534 -1.5883013210692347 -1.570772949849264 2.141254186630249 0.0 0.0 0.0 -0.0 0.0 -0.0 1 False False
8315.194 3.7120537757873535 -0.8255080741694947 0.8429630438434046 -1.5883127651610316 -1.5708254019366663 2.141266107559204 0.0 0.0 0.0 -0.0 0.0 -0.0 1 False False
8315.243999999999 3.7120537757873535 -0.8255155843547364 0.8430054823504847 -1.588269372979635 -1.570801083241598 2.141263246536255 0.0 0.0 0.0 -0.0 0.0 -0.0 1 False False
8315.294 3.7120537757873535 -0.8254330319217225 0.8429301420794886 -1.5882889233031214 -1.570801083241598 2.141263246536255 0.0 0.0 0.0 -0.0 0.0 -0.0 1 False False
8315.344 3.712127447128296 -0.8255242270282288 0.8429892698871058 -1.588297029534811 -1.5708335081683558 2.141279697418213 0.0 0.0 0.0 -0.0 0.0 -0.0 1 False False
8315.394 3.712062358856201 -0.8254825633815308 0.8429892698871058 -1.588280817071432 -1.5707925001727503 2.1412765979766846 0.0 0.0 0.0 -0.0 0.0 -0.0 1 False False
8315.444 3.7120611667633057 -0.8255112928203125 0.8429978529559534 -1.5882932148375453 -1.570829216633932 2.141258955001831 0.0 0.0 0.0 -0.0 0.0 -0.0 1 False False
8315.493999999999 3.7121100425720215 -0.8254869741252442 0.8429802099810999 -1.5882774792113246 -1.5707319418536585 2.141338586807251 0.0 0.0 0.0 -0.0 0.0 -0.0 1 False False
8315.544 3.7120699882507324 -0.8254739803126832 0.8430216948138636 -1.5882932148375453 -1.570829216633932 2.141279697418213 0.0 0.0 0.0 -0.0 0.0 -0.0 1 False False
8315.594 3.712062358856201 -0.8254825633815308 0.8429854551898401 -1.5883170566954554 -1.5708168188678187 2.14127516746521 0.0 0.0 0.0 -0.0 0.0 -0.0 1 False False
8315.644 3.7120730876922607 -0.825478271847107 0.8429892698871058 -1.5882932148375453 -1.5708168188678187 2.1412394046783447 0.0 0.0 0.0 -0.0 0.0 -0.0 1 False False
8315.694 3.7120862007141113 -0.8255232137492676 0.8429587523089808 -1.5883127651610316 -1.5707686583148401 2.141313076019287 0.0 0.0 0.0 -0.0 0.0 -0.0 1 False False
8315.743999999999 3.712090492248535 -0.8254621189883729 0.8429845015155237 -1.5883051357665003 -1.5707648436175745 2.14127516746521 0.0 0.0 0.0 -0.0 0.0 -0.0 1 False False
8315.794 3.7120981216430664 -0.8255232137492676 0.8429845015155237 -1.5882932148375453 -1.5707686583148401 2.1413094997406006 0.0 0.0 0.0 -0.0 0.0 -0.0 1 False False
8315.844 3.7121198177337646 -0.8254951399615784 0.8430126349078577 -1.588269372979635 -1.5708091894732874 2.141313076019287 -6.042705634752287e-30 0.0 0.0 -0.0 0.0 -0.0 1 False False
8315.894 3.7120862007141113 -0.8255274456790467 0.8429845015155237 -1.5883375606932582 -1.5708373228656214 2.1413204669952393 0.0 0.0 0.0 -0.0 0.0 -0.0 1 False False
8315.944 3.712062358856201 -0.8255328697017212 0.8429763952838343 -1.5882288418211878 -1.5707767645465296 2.141226053237915 0.0 0.0 0.0 -0.0 0.0 -0.0 1 False False
8315.993999999999 3.712033987045288 -0.8254869741252442 0.8429854551898401 -1.5883251629271449 -1.570829216633932 2.141258955001831 0.0 0.0 0.0 -0.0 0.0 -0.0 1 False False
8316.044 3.7120449542999268 -0.8255308431437989 0.8429649511920374 -1.5883056126036585 -1.570829216633932 2.141287088394165 0.0 0.0 0.0 -0.0 0.0 -0.0 1 False False
8316.094 3.712094783782959 -0.8254330915263672 0.8429587523089808 -1.588269372979635 -1.5708211104022425 2.141209602355957 0.0 0.0 0.0 -0.0 0.0 -0.0 1 False False
8316.144 3.7120907306671143 -0.8255362075618287 0.8429721037494105 -1.5882817707457484 -1.5708048979388636 2.1412603855133057 0.0 0.0 0.0 -0.0 0.0 -0.0 1 False False
8316.194 3.7120862007141113 -0.8255155843547364 0.8429811636554163 -1.5883170566954554 -1.570784870778219 2.141338348388672 0.0 0.0 0.0 -0.0 0.0 -0.0 1 False False
8316.243999999999 3.7121188640594482 -0.8255394262126465 0.8429935614215296 -1.588269372979635 -1.5708211104022425 2.141313076019287 0.0 0.0 0.0 -0.0 0.0 -0.0 1 False False
8316.294 3.7120907306671143 -0.8254993718913575 0.8429754416095179 -1.5883094273009242 -1.5707972685443323 2.141284227371216 0.0 0.0 0.0 -0.0 0.0 -0.0 1 False False
8316.344 3.712111473083496 -0.8254740399173279 0.8429845015155237 -1.5882774792113246 -1.570801083241598 2.141282558441162 0.0 0.0 0.0 -0.0 0.0 -0.0 1 False False
8316.394 3.712099552154541 -0.8255231541446229 0.8429978529559534 -1.5883175335326136 -1.5708006064044397 2.1412513256073 0.0 0.0 0.0 -0.0 0.0 -0.0 1 False False
8316.444 3.712095022201538 -0.8254780334285279 0.8429678122149866 -1.5883251629271449 -1.570784870778219 2.141329526901245 0.0 0.0 0.0 -0.0 0.0 -0.0 1 False False
8316.493999999999 3.712045669555664 -0.8254416745952149 0.8429721037494105 -1.5883251629271449 -1.570813004170553 2.141270637512207 0.0 0.0 0.0 -0.0 0.0 -0.0 1 False False
8316.544 3.712123394012451 -0.8254825633815308 0.8429678122149866 -1.5882607899107875 -1.5708335081683558 2.141296148300171 0.0 0.0 0.0 -0.0 0.0 -0.0 1 False False
8316.594 3.712116003036499 -0.8255362075618287 0.8429763952838343 -1.5883251629271449 -1.5708168188678187 2.1413004398345947 0.0 0.0 0.0 -0.0 0.0 -0.0 1 False False
8316.644 3.7120862007141113 -0.8255242866328736 0.842987362538473 -1.5882569752135218 -1.570801083241598 2.141263246536255 0.0 0.0 0.0 -0.0 0.0 -0.0 1 False False
8316.694 3.712106943130493 -0.8254707616618653 0.8429678122149866 -1.5883127651610316 -1.570813004170553 2.141263246536255 0.0 0.0 0.0 -0.0 0.0 -0.0 1 False False
8316.743999999999 3.7120697498321533 -0.8254869741252442 0.8429845015155237 -1.5883013210692347 -1.5707891623126429 2.141258955001831 0.0 0.0 0.0 -0.0 0.0 -0.0 1 False False
8316.794 3.712066888809204 -0.8254739803126832 0.8429678122149866 -1.5883051357665003 -1.5707605520831507 2.141279697418213 0.0 0.0 0.0 -0.0 0.0 -0.0 1 False False
8316.844 3.712099552154541 -0.8254909080317994 0.8429887930499476 -1.5882765255370082 -1.5708406607257288 2.141270637512207 0.0 0.0 0.0 -0.0 0.0 -0.0 1 False False
8316.894 3.7120635509490967 -0.8255189222148438 0.8429887930499476 -1.5882851086058558 -1.5708087126361292 2.141242504119873 0.0 0.0 0.0 -0.0 0.0 -0.0 1 False False
8316.944 3.712066888809204 -0.8254792851260682 0.8429349104510706 -1.5883013210692347 -1.5707767645465296 2.141258955001831 0.0 0.0 0.0 -0.0 0.0 -0.0 1 False False
8316.993999999999 3.712078809738159 -0.8255189222148438 0.8429845015155237 -1.5883165798582972 -1.5708048979388636 2.141258955001831 0.0 0.0 0.0 -0.0 0.0 -0.0 1 False False
8317.044 3.7119946479797363 -0.8255404394916077 0.8429721037494105 -1.5882889233031214 -1.5707767645465296 2.141233205795288 0.0 0.0 0.0 -0.0 0.0 -0.0 1 False False
8317.094 3.7120742797851562 -0.8255123060992737 0.8429887930499476 -1.5883289776244105 -1.5707686583148401 2.1413049697875977 0.0 0.0 0.0 -0.0 0.0 -0.0 1 False False
8317.144 3.7120532989501953 -0.8255479496768494 0.8430007139789026 -1.5882889233031214 -1.57074481645693 2.14127516746521 0.0 0.0 0.0 -0.0 0.0 -0.0 1 False False
8317.194 3.712066888809204 -0.8255037826350708 0.8430054823504847 -1.5883532963194789 -1.5708168188678187 2.141263246536255 0.0 0.0 0.0 -0.0 0.0 -0.0 1 False False
8317.243999999999 3.712062358856201 -0.8255189222148438 0.8429678122149866 -1.5883127651610316 -1.5708449522601526 2.141258955001831 0.0 0.0 0.0 -0.0 0.0 -0.0 1 False False
8317.294 3.7120578289031982 -0.8254954975894471 0.8430126349078577 -1.588269372979635 -1.5707886854754847 2.141246795654297 0.0 0.0 0.0 -0.0 0.0 -0.0 1 False False
8317.344 3.7120490074157715 -0.8254459065249939 0.8429678122149866 -1.5883094273009242 -1.5707891623126429 2.141313076019287 0.0 0.0 0.0 -0.0 0.0 -0.0 1 False False
8317.394 3.7120742797851562 -0.8254459065249939 0.8429606596576136 -1.5882817707457484 -1.5707925001727503 2.141324996948242 7.062278539748945e-11 0.0 0.0 -0.0 0.0 -0.0 1 False False
8317.444 3.712050199508667 -0.8254869741252442 0.8429520765887659 -1.5882889233031214 -1.570801083241598 2.141313076019287 -4.449638827015081e-30 0.0 0.0 -0.0 0.0 -0.0 1 False False
8317.493999999999 3.7120249271392822 -0.8254908484271546 0.8429887930499476 -1.5882612667479457 -1.5707648436175745 2.141300678253174 0.0 0.0 0.0 -0.0 0.0 -0.0 1 False False
8317.544 3.712095260620117 -0.8254866164973755 0.8429477850543421 -1.5882655582823695 -1.5708211104022425 2.14127516746521 0.0 0.0 0.0 -0.0 0.0 -0.0 1 False False
8317.594 3.71209979057312 -0.8254825633815308 0.8429806868182581 -1.5883051357665003 -1.5708087126361292 2.1413087844848633 0.0 0.0 0.0 -0.0 0.0 -0.0 1 False False
8317.644 3.712062358856201 -0.8254908484271546 0.8430169264422815 -1.588269372979635 -1.5707686583148401 2.141263246536255 0.0 0.0 0.0 -0.0 0.0 -0.0 1 False False
8317.694 3.7120532989501953 -0.8255598706058045 0.8429396788226526 -1.588273664514059 -1.5707929770099085 2.1412720680236816 0.0 0.0 0.0 -0.0 0.0 -0.0 1 False False
8317.743999999999 3.7120444774627686 -0.8254950803569336 0.8430255095111292 -1.5882774792113246 -1.570784870778219 2.141313076019287 0.0 0.0 0.0 -0.0 0.0 -0.0 1 False False
8317.794 3.7121145725250244 -0.8255037826350708 0.8430092970477503 -1.5883528194823207 -1.5707767645465296 2.141267776489258 0.0 0.0 0.0 -0.0 0.0 -0.0 1 False False
8317.844 3.712071418762207 -0.8254825633815308 0.8429678122149866 -1.5883094273009242 -1.570813004170553 2.141230583190918 0.0 0.0 0.0 -0.0 0.0 -0.0 1 False False
8317.894 3.7120907306671143 -0.8255232137492676 0.8429759184466761 -1.5883056126036585 -1.5707805792437952 2.141284227371216 0.0 0.0 0.0 -0.0 0.0 -0.0 1 False False
