Andreas691667/Digital_Twin_UR/src/robot_connection_manager/robot_output/E1_robot_output.csv
timestamp actual_q_0 actual_q_1 actual_q_2 actual_q_3 actual_q_4 actual_q_5 actual_qd_0 actual_qd_1 actual_qd_2 actual_qd_3 actual_qd_4 actual_qd_5 safety_status output_bit_register_65 output_bit_register_66
1670.8039999999999 3.7120697498321533 -0.8254750531962891 0.8429892698871058 -1.5883494816222132 -1.5707810560809534 2.141270637512207 0.0 0.0 0.0 -0.0 -0.0 -0.0 1 False False
1670.8539999999998 3.7120490074157715 -0.8255362075618287 0.8429630438434046 -1.5883013210692347 -1.570784870778219 2.141249895095825 0.0 0.0 0.0 -0.0 -0.0 -0.0 1 False False
1670.904 3.7120697498321533 -0.8254997891238709 0.8429587523089808 -1.5883413753905238 -1.5707767645465296 2.1413004398345947 0.0 0.0 0.0 -0.0 -0.0 -0.0 1 False False
1670.954 3.712050199508667 -0.8255038422397156 0.8429811636554163 -1.588252683679098 -1.5708048979388636 2.141296148300171 0.0 0.0 0.0 -0.0 -0.0 -0.0 1 False False
1671.004 3.7120981216430664 -0.8254739803126832 0.8429673353778284 -1.588285585443014 -1.5708006064044397 2.14127516746521 0.0 0.0 0.0 -0.0 -0.0 -0.0 1 False False
1671.0539999999999 3.7120490074157715 -0.8254253429225464 0.8429935614215296 -1.5882846317686976 -1.570829216633932 2.141284227371216 0.0 0.0 0.0 -0.0 -0.0 -0.0 1 False False
1671.1039999999998 3.712036609649658 -0.8255274456790467 0.8429673353778284 -1.5882932148375453 -1.5707929770099085 2.141270637512207 0.0 0.0 0.0 -0.0 -0.0 -0.0 1 False False
1671.154 3.712062358856201 -0.8255404394916077 0.8429673353778284 -1.5882817707457484 -1.5707967917071741 2.141263246536255 0.0 0.0 0.0 -0.0 -0.0 -0.0 1 False False
1671.204 3.712087631225586 -0.8254993718913575 0.8429673353778284 -1.588313718835348 -1.5708044211017054 2.141270637512207 0.0 0.0 0.0 -0.0 -0.0 -0.0 1 False False
1671.254 3.712095260620117 -0.8255685132792969 0.8429978529559534 -1.5882731876769007 -1.5707486311541956 2.1412928104400635 0.0 0.0 0.0 -0.0 -0.0 -0.0 1 False False
1671.3039999999999 3.712045669555664 -0.825450138454773 0.8429892698871058 -1.5882731876769007 -1.570829216633932 2.141279697418213 0.0 0.0 0.0 -0.0 -0.0 -0.0 1 False False
1671.3539999999998 3.7120532989501953 -0.8255112928203125 0.8429258505450647 -1.588252683679098 -1.5708087126361292 2.1412558555603027 0.0 0.0 0.0 -0.0 -0.0 -0.0 1 False False
1671.404 3.712045669555664 -0.8255285185626526 0.8429845015155237 -1.588280817071432 -1.5708335081683558 2.141313076019287 0.0 0.0 0.0 -0.0 -0.0 -0.0 1 False False
1671.454 3.712083339691162 -0.8254908484271546 0.8429935614215296 -1.5883332691588343 -1.570801083241598 2.141317367553711 0.0 0.0 0.0 -0.0 -0.0 -0.0 1 False False
1671.504 3.712050199508667 -0.8254950803569336 0.8429515997516077 -1.5882889233031214 -1.5707891623126429 2.141267776489258 0.0 0.0 0.0 -0.0 -0.0 -0.0 1 False False
1671.5539999999999 3.712008237838745 -0.8255070012858887 0.8429439703570765 -1.5882889233031214 -1.5707805792437952 2.1412839889526367 0.0 0.0 0.0 -0.0 -0.0 -0.0 1 False False
1671.6039999999998 3.7120535373687744 -0.8254739803126832 0.8429802099810999 -1.5883251629271449 -1.570784870778219 2.1413216590881348 0.0 0.0 0.0 -0.0 -0.0 -0.0 1 False False
1671.654 3.712050199508667 -0.8255437177470704 0.8429606596576136 -1.5882889233031214 -1.5707805792437952 2.141279697418213 0.0 0.0 0.0 -0.0 -0.0 -0.0 1 False False
1671.704 3.712099552154541 -0.8254296344569703 0.8430336157428187 -1.5882731876769007 -1.5707605520831507 2.141291618347168 0.0 0.0 0.0 -0.0 -0.0 -0.0 1 False False
1671.754 3.7120490074157715 -0.8254823249629517 0.8429763952838343 -1.5882650814452113 -1.570784870778219 2.141270875930786 0.0 0.0 0.0 -0.0 -0.0 -0.0 1 False False
1671.8039999999999 3.712083101272583 -0.8255351346782227 0.8429678122149866 -1.588280817071432 -1.5707686583148401 2.141279697418213 0.0 0.0 0.0 -0.0 -0.0 -0.0 1 False False
1671.8539999999998 3.712059259414673 -0.8254825633815308 0.8430054823504847 -1.5882684193053187 -1.570784870778219 2.1412839889526367 0.0 0.0 0.0 -0.0 -0.0 -0.0 1 False False
1671.904 3.712062358856201 -0.8254457873157044 0.8429887930499476 -1.5882331333556117 -1.5707967917071741 2.1413047313690186 0.0 0.0 0.0 -0.0 -0.0 -0.0 1 False False
1671.954 3.712066888809204 -0.8254663509181519 0.8429678122149866 -1.5882374248900355 -1.570801083241598 2.141308546066284 0.0 0.0 0.0 -0.0 -0.0 -0.0 1 False False
1672.004 3.71207857131958 -0.8255446714213868 0.8429763952838343 -1.588280817071432 -1.5707967917071741 2.1413214206695557 0.0 0.0 0.0 -0.0 -0.0 -0.0 1 False False
1672.0539999999999 3.712120294570923 -0.8254426878741761 0.8429721037494105 -1.588313718835348 -1.5707805792437952 2.141279697418213 0.0 0.0 0.0 -0.0 -0.0 -0.0 1 False False
1672.1039999999998 3.7120535373687744 -0.8255446714213868 0.8430169264422815 -1.5883013210692347 -1.5707486311541956 2.141291618347168 0.0 0.0 0.0 -0.0 -0.0 -0.0 1 False False
1672.154 3.7120535373687744 -0.8255070608905335 0.8429721037494105 -1.5882765255370082 -1.5708254019366663 2.141275405883789 0.0 0.0 0.0 -0.0 -0.0 -0.0 1 False False
1672.204 3.7120535373687744 -0.8255641025355835 0.8429887930499476 -1.588320871392721 -1.5707724730121058 2.1412017345428467 0.0 0.0 0.0 -0.0 -0.0 -0.0 1 False False
1672.254 3.712095022201538 -0.8254993718913575 0.8429887930499476 -1.588365217248434 -1.570801083241598 2.141275405883789 0.0 0.0 0.0 -0.0 -0.0 -0.0 1 False False
1672.3039999999999 3.712123155593872 -0.825478271847107 0.8429721037494105 -1.5882445774474085 -1.570801083241598 2.141308546066284 0.0 0.0 0.0 -0.0 -0.0 -0.0 1 False False
1672.3539999999998 3.712087392807007 -0.8255317372134705 0.8429802099810999 -1.5882932148375453 -1.570772949849264 2.14132022857666 0.0 0.0 0.0 -0.0 -0.0 -0.0 1 False False
1672.404 3.712029457092285 -0.8255037826350708 0.842959229146139 -1.588313718835348 -1.5707767645465296 2.141312837600708 0.0 0.0 0.0 -0.0 -0.0 -0.0 1 False False
1672.454 3.712123155593872 -0.8255317372134705 0.8429964224444788 -1.588245531121725 -1.5707686583148401 2.141251564025879 0.0 0.0 0.0 -0.0 -0.0 -0.0 1 False False
1672.504 3.71207857131958 -0.8255284589580079 0.8429678122149866 -1.5883170566954554 -1.570801083241598 2.141291618347168 0.0 0.0 0.0 -0.0 -0.0 -0.0 1 False False
1672.5539999999999 3.7120773792266846 -0.8255037826350708 0.8430007139789026 -1.5882655582823695 -1.5708211104022425 2.141270875930786 0.0 0.0 0.0 -0.0 -0.0 -0.0 1 False False
1672.6039999999998 3.712090492248535 -0.8255232137492676 0.8429678122149866 -1.5882412395873011 -1.5707967917071741 2.14132022857666 0.0 0.0 0.0 -0.0 -0.0 -0.0 1 False False
1672.654 3.7120370864868164 -0.8255112928203125 0.8429763952838343 -1.5882650814452113 -1.570813004170553 2.141291618347168 0.0 0.0 0.0 -0.0 -0.0 -0.0 1 False False
1672.704 3.7120981216430664 -0.825465516453125 0.8429930845843714 -1.588273664514059 -1.5707686583148401 2.141279697418213 0.0 0.0 0.0 -0.0 -0.0 -0.0 1 False False
1672.754 3.712066650390625 -0.8254546088031312 0.8429635206805628 -1.5882889233031214 -1.5708325544940394 2.141270875930786 0.0 0.0 0.0 -0.0 -0.0 -0.0 1 False False
1672.8039999999999 3.7120819091796875 -0.8255123657039185 0.8429353872882288 -1.5882531605162562 -1.5707925001727503 2.1412806510925293 0.0 0.0 0.0 -0.0 -0.0 -0.0 1 False False
1672.8539999999998 3.7120416164398193 -0.8254708212665101 0.8429845015155237 -1.588297029534811 -1.5708087126361292 2.1412882804870605 0.0 0.0 0.0 -0.0 -0.0 -0.0 1 False False
1672.904 3.71207857131958 -0.8254740399173279 0.8430212179767054 -1.5882774792113246 -1.5707200209247034 2.141291618347168 0.0 0.0 0.0 -0.0 -0.0 -0.0 1 False False
1672.954 3.7120742797851562 -0.8254825633815308 0.8429606596576136 -1.5882812939085902 -1.5708168188678187 2.1412267684936523 0.0 0.0 0.0 -0.0 -0.0 -0.0 1 False False
1673.004 3.7120862007141113 -0.8255027693561097 0.8429759184466761 -1.5883008442320765 -1.5707805792437952 2.141296863555908 0.0 0.0 0.0 -0.0 -0.0 -0.0 1 False False
1673.0539999999999 3.7120330333709717 -0.8255123060992737 0.8429606596576136 -1.5882531605162562 -1.570801083241598 2.141263484954834 0.0 0.0 0.0 -0.0 -0.0 -0.0 1 False False
1673.1039999999998 3.71207857131958 -0.8254950803569336 0.8429964224444788 -1.588280817071432 -1.5707767645465296 2.141270875930786 0.0 0.0 0.0 -0.0 -0.0 -0.0 1 False False
1673.154 3.712062358856201 -0.8254954975894471 0.8430007139789026 -1.5883132419981898 -1.570784870778219 2.141267776489258 0.0 0.0 0.0 -0.0 -0.0 -0.0 1 False False
1673.204 3.7120327949523926 -0.8255165380290528 0.8429520765887659 -1.5883013210692347 -1.570813004170553 2.141231060028076 0.0 0.0 0.0 -0.0 -0.0 -0.0 1 False False
1673.254 3.712094783782959 -0.8255155843547364 0.8430007139789026 -1.5883618793883265 -1.5708335081683558 2.141247272491455 0.0 0.0 0.0 -0.0 -0.0 -0.0 1 False False
1673.3039999999999 3.7120580673217773 -0.8255274456790467 0.8429759184466761 -1.5882331333556117 -1.5708168188678187 2.141275405883789 0.0 0.0 0.0 -0.0 -0.0 -0.0 1 False False
1673.3539999999998 3.71207857131958 -0.8254908484271546 0.8430212179767054 -1.5882765255370082 -1.5708211104022425 2.1412429809570312 0.0 0.0 0.0 -0.0 -0.0 -0.0 1 False False
1673.404 3.7120862007141113 -0.8254691523364563 0.8429520765887659 -1.5883251629271449 -1.5707486311541956 2.1413049697875977 0.0 0.0 0.0 -0.0 -0.0 -0.0 1 False False
1673.454 3.7121024131774902 -0.8254984778216858 0.8429439703570765 -1.588269372979635 -1.5708211104022425 2.1412765979766846 0.0 0.0 0.0 -0.0 -0.0 -0.0 1 False False
1673.504 3.712045907974243 -0.8254993122867127 0.843001667653219 -1.5882607899107875 -1.5708087126361292 2.141284227371216 0.0 0.0 0.0 -0.0 -0.0 -0.0 1 False False
1673.5539999999999 3.712082862854004 -0.8254736226848145 0.8430255095111292 -1.5882650814452113 -1.570801083241598 2.14123797416687 0.0 0.0 0.0 -0.0 -0.0 -0.0 1 False False
1673.6039999999998 3.712127447128296 -0.8254823845675965 0.8430007139789026 -1.5882488689818324 -1.570784870778219 2.1412572860717773 0.0 0.0 0.0 -0.0 -0.0 -0.0 1 False False
1673.654 3.7120819091796875 -0.825495795612671 0.8429763952838343 -1.5883294544615687 -1.5707967917071741 2.141267776489258 0.0 0.0 0.0 -0.0 -0.0 -0.0 1 False False
1673.704 3.7120819091796875 -0.8255156439593812 0.8429439703570765 -1.5883375606932582 -1.5707362333880823 2.14123797416687 0.0 0.0 0.0 -0.0 -0.0 -0.0 1 False False
1673.754 3.712062358856201 -0.8254823845675965 0.8430007139789026 -1.588320871392721 -1.5708087126361292 2.141279697418213 0.0 0.0 0.0 -0.0 -0.0 -0.0 1 False False
1673.8039999999999 3.7119884490966797 -0.825527624492981 0.8429721037494105 -1.5883127651610316 -1.570772949849264 2.141282558441162 0.0 0.0 0.0 -0.0 -0.0 -0.0 1 False False
1673.8539999999998 3.7120370864868164 -0.8255068820765992 0.8429392019854944 -1.5883013210692347 -1.5707925001727503 2.141313076019287 0.0 0.0 0.0 -0.0 -0.0 -0.0 1 False False
1673.904 3.712062358856201 -0.8255291146091004 0.8429306189166468 -1.588269372979635 -1.5707929770099085 2.141296148300171 0.0 0.0 0.0 -0.0 -0.0 -0.0 1 False False
1673.954 3.7120168209075928 -0.8255112928203125 0.842992130910055 -1.588252683679098 -1.5708168188678187 2.141287088394165 0.0 0.0 0.0 -0.0 -0.0 -0.0 1 False False
1674.004 3.712094783782959 -0.8255127829364319 0.8429892698871058 -1.5883094273009242 -1.5707967917071741 2.141270637512207 0.0 0.0 0.0 -0.0 -0.0 -0.0 1 False False
1674.0539999999999 3.7120871543884277 -0.8255366247943421 0.8430054823504847 -1.5882889233031214 -1.5708048979388636 2.141284227371216 0.0 0.0 0.0 -0.0 -0.0 -0.0 1 False False
1674.1039999999998 3.71207857131958 -0.8255112332156678 0.8430021444903772 -1.5882932148375453 -1.5707925001727503 2.141291618347168 0.0 0.0 0.0 -0.0 -0.0 -0.0 1 False False
1674.154 3.712082862854004 -0.8254736226848145 0.8429721037494105 -1.5883094273009242 -1.5707929770099085 2.141233444213867 0.0 0.0 0.0 -0.0 -0.0 -0.0 1 False False
1674.204 3.712062358856201 -0.8254905504039307 0.8429673353778284 -1.5882932148375453 -1.570801083241598 2.1413004398345947 0.0 0.0 0.0 -0.0 -0.0 -0.0 1 False False
1674.254 3.712116003036499 -0.8255068820765992 0.8429606596576136 -1.5882846317686976 -1.5707805792437952 2.1412839889526367 0.0 0.0 0.0 -0.0 -0.0 -0.0 1 False False
1674.3039999999999 3.712066888809204 -0.8254497212222596 0.8429630438434046 -1.5883056126036585 -1.5707767645465296 2.141308546066284 0.0 0.0 0.0 -0.0 -0.0 -0.0 1 False False
1674.3539999999998 3.712050199508667 -0.8255618375590821 0.8429515997516077 -1.5883094273009242 -1.5708168188678187 2.141267776489258 0.0 0.0 0.0 -0.0 -0.0 -0.0 1 False False
1674.404 3.7120697498321533 -0.8255157035640259 0.8429558912860315 -1.5883094273009242 -1.5708048979388636 2.14127516746521 0.0 0.0 0.0 -0.0 -0.0 -0.0 1 False False
1674.454 3.71207857131958 -0.8255782288363953 0.8429935614215296 -1.5882612667479457 -1.5707925001727503 2.141286849975586 0.0 0.0 0.0 -0.0 -0.0 -0.0 1 False False
1674.504 3.712127923965454 -0.8255068820765992 0.8429892698871058 -1.5883084736266078 -1.5707405249225062 2.141296148300171 0.0 0.0 0.0 -0.0 -0.0 -0.0 1 False False
1674.5539999999999 3.712087631225586 -0.8254913848689576 0.8430174032794397 -1.5882569752135218 -1.5707648436175745 2.14131760597229 0.0 0.0 0.0 -0.0 -0.0 -0.0 1 False False
1674.6039999999998 3.712045669555664 -0.8254007262042542 0.8429630438434046 -1.5882731876769007 -1.5707967917071741 2.141322135925293 0.0 0.0 0.0 -0.0 -0.0 -0.0 1 False False
1674.654 3.7120368480682373 -0.8254454296878357 0.8429673353778284 -1.588269372979635 -1.5707929770099085 2.141263246536255 0.0 0.0 0.0 -0.0 -0.0 -0.0 1 True False
1674.704 3.7120697498321533 -0.8254750531962891 0.8429935614215296 -1.5882731876769007 -1.5708048979388636 2.141263246536255 0.0 0.0 0.0 -0.0 -0.0 -0.0 1 True False
1674.754 3.712099552154541 -0.8254869741252442 0.8429964224444788 -1.5883332691588343 -1.5708449522601526 2.141313314437866 0.0 0.0 0.0 -0.0 -0.0 -0.0 1 True False
1674.8039999999999 3.7120535373687744 -0.8255024713328858 0.8430174032794397 -1.5883294544615687 -1.5707843939410608 2.141296148300171 0.0 0.0 0.0 -0.0 -0.0 -0.0 1 True False
1674.8539999999998 3.712083101272583 -0.8254750531962891 0.8429563681231897 -1.588280817071432 -1.5707367102252405 2.141258716583252 0.0 0.0 0.0 -0.0 -0.0 -0.0 1 True False
1674.904 3.712111473083496 -0.8254661124995728 0.8429649511920374 -1.588292738000387 -1.570801083241598 2.141235113143921 0.0 0.0 0.0 -0.0 -0.0 -0.0 1 True False
1674.954 3.7120578289031982 -0.8255083721927186 0.8429649511920374 -1.588269372979635 -1.5708335081683558 2.1413140296936035 0.0 0.0 0.0 -0.0 -0.0 -0.0 1 True False
1675.004 3.7120816707611084 -0.8254706424525757 0.8430174032794397 -1.588320871392721 -1.5708048979388636 2.141266107559204 0.0 0.0 0.0 -0.0 -0.0 -0.0 1 True False
1675.0539999999999 3.712036609649658 -0.8254750531962891 0.8430054823504847 -1.588280817071432 -1.5707967917071741 2.141258955001831 0.0 0.0 0.0 -0.0 -0.0 -0.0 1 True False
1675.1039999999998 3.712083339691162 -0.8255039614490052 0.8429649511920374 -1.588297029534811 -1.5707886854754847 2.141254186630249 0.0 0.0 0.0 -0.0 -0.0 5.710599701447272e-11 1 True False
1675.154 3.7120935916900635 -0.8254543107799073 0.8429673353778284 -1.588313718835348 -1.5707767645465296 2.1412768363952637 0.0 0.0 0.0 -0.0 -0.0 1.0768416132123093e-06 1 True False
1675.204 3.7121026515960693 -0.8254751128009339 0.8429845015155237 -1.5883413753905238 -1.5707886854754847 2.1413159370422363 0.0 0.0 0.0 -0.0 -0.0 1.6357251504292109e-25 1 True False
1675.254 3.7120862007141113 -0.8254905504039307 0.8429887930499476 -1.5882817707457484 -1.5708048979388636 2.141254186630249 0.0 0.0 0.0 -0.0 -0.0 2.5223372357846707e-44 1 True False
1675.3039999999999 3.713357448577881 -0.8260306876948853 0.8437612692462366 -1.5886689625182093 -1.570784870778219 2.1424829959869385 0.05997150391340256 -0.02602720819413662 0.03922678157687187 -0.012808040715754032 -1.2902869883646417e-08 0.05533426254987717 1 True False
1675.3539999999998 3.717989206314087 -0.8282425564578553 0.8473222891436976 -1.5898567638792933 -1.5707648436175745 2.1471848487854004 0.1261691302061081 -0.06332934647798538 0.1021539643406868 -0.03189188241958618 -1.959949185738903e-27 0.12501288950443268 1 True False
1675.404 3.7260825634002686 -0.8324684065631409 0.8538449446307581 -1.5920983753600062 -1.5708487669574183 2.1552979946136475 0.19531436264514923 -0.10402125865221024 0.15169067680835724 -0.054580267518758774 -0.0 0.19109152257442474 1 True False
1675.454 3.737736225128174 -0.8386055392077942 0.8628671805011194 -1.5950800381102503 -1.5707367102252405 2.1669185161590576 0.26661622524261475 -0.13523262739181519 0.2104835957288742 -0.07058347761631012 -0.0 0.2648153007030487 1 True False
1675.504 3.7529003620147705 -0.8463944357684632 0.8746302763568323 -1.5990520916380824 -1.5707929770099085 2.1818954944610596 0.33393701910972595 -0.1719847023487091 0.25965505838394165 -0.08936404436826706 -0.0 0.3323356807231903 1 True False
1675.5539999999999 3.771526336669922 -0.8558424872210999 0.8891513983355921 -1.6038562260069789 -1.5708006064044397 2.2005746364593506 0.4045291244983673 -0.20947439968585968 0.3153132200241089 -0.10396447777748108 -0.0 0.40565618872642517 1 True False
1675.6039999999998 3.793473243713379 -0.8673052352717896 0.9063103834735315 -1.609645505944723 -1.5708487669574183 2.2227883338928223 0.47496330738067627 -0.24461627006530762 0.37000682950019836 -0.12439308315515518 6.852751314915956e-18 0.47102266550064087 1 True False
1675.654 3.8192012310028076 -0.8803916734508057 0.9262321631060999 -1.6165195904173792 -1.5708006064044397 2.248291492462158 0.5471957921981812 -0.2779116630554199 0.42451995611190796 -0.13949207961559296 6.5319545683451e-05 0.5459055304527283 1 True False
1675.704 3.8482046127319336 -0.8953592938235779 0.9488967100726526 -1.6241432629027308 -1.5707648436175745 2.277390718460083 0.6232941150665283 -0.31481337547302246 0.4786587059497833 -0.15054510533809662 1.4697575093287375e-14 0.6203578114509583 1 True False
1675.754 3.8807332515716553 -0.9120820921710511 0.9740098158465784 -1.6328288517394007 -1.5707691351519983 2.3099968433380127 0.6890406608581543 -0.3541986346244812 0.5325015783309937 -0.1809358149766922 -0.00011598649143707007 0.6873076558113098 1 True False
1675.8039999999999 3.916827440261841 -0.9303271931460877 1.0020340124713343 -1.6424032650389613 -1.570784870778219 2.3460381031036377 0.7571123838424683 -0.38844260573387146 0.5849456191062927 -0.204037144780159 3.558057505870238e-05 0.7544092535972595 1 True False
1675.8539999999998 3.95629620552063 -0.9508168262294312 1.0325902144061487 -1.6527840099730433 -1.570784870778219 2.3856005668640137 0.8262670636177063 -0.42414265871047974 0.638505220413208 -0.2062310129404068 5.8150559773117555e-22 0.8148950934410095 1 True False
1675.904 3.999441623687744 -0.9726935190013428 1.0662010351764124 -1.6640659771361292 -1.5707610289203089 2.4285712242126465 0.8894034028053284 -0.4575449526309967 0.6945756673812866 -0.23951135575771332 8.833084869871484e-41 0.8947202563285828 1 True False
1675.954 4.0459513664245605 -0.9966098827174683 1.1023429075824183 -1.676352163354391 -1.570829216633932 2.475248098373413 0.9644041657447815 -0.4942924976348877 0.7516428232192993 -0.26462870836257935 0.0 0.9629963040351868 1 True False
1676.004 4.095924377441406 -1.0222766560367127 1.1411789099322718 -1.6896797619261683 -1.5708006064044397 2.5250515937805176 1.0304487943649292 -0.5319800972938538 0.8083004951477051 -0.2676202654838562 0.0 1.0398015975952148 1 True False
1676.0539999999999 4.148165702819824 -1.0489761394313355 1.1816628615008753 -1.703433176080221 -1.5707805792437952 2.5774526596069336 1.0416394472122192 -0.5367690920829773 0.8111312389373779 -0.2865200936794281 -6.925591878825799e-05 1.0338364839553833 1 True False
1676.1039999999998 4.200545310974121 -1.075960175400116 1.2223265806781214 -1.717271467248434 -1.5707805792437952 2.6298696994781494 1.0483694076538086 -0.538863480091095 0.8076927065849304 -0.29125556349754333 -1.6613298908945696e-17 1.046410322189331 1 True False
1676.154 4.252943515777588 -1.1027401846698304 1.263165299092428 -1.7310620747008265 -1.5708048979388636 2.6821038722991943 1.0475234985351562 -0.5406509637832642 0.8088442087173462 -0.2896217107772827 -0.0001772469113348052 1.047400712966919 1 True False
1676.204 4.305302619934082 -1.1296709340861817 1.303725544606344 -1.7447883091368617 -1.5708406607257288 2.7345969676971436 1.0439589023590088 -0.5307230949401855 0.8148871660232544 -0.2810336649417877 -0.00038350734394043684 1.0371242761611938 1 True False
1676.254 4.357648849487305 -1.1564179819873353 1.344330135975973 -1.758679529229635 -1.5708168188678187 2.7869174480438232 1.0483253002166748 -0.5317248702049255 0.8171888589859009 -0.28495538234710693 0.0003262362733948976 1.0506194829940796 1 True False
1676.3039999999999 4.410017013549805 -1.1831581753543396 1.3850320021258753 -1.7726646862425746 -1.5707967917071741 2.839104413986206 1.0458508729934692 -0.5361782908439636 0.8130068778991699 -0.28327348828315735 1.1629714552485737e-11 1.0562994480133057 1 True False
1676.3539999999998 4.460610389709473 -1.209247962837555 1.4242757002459925 -1.785912653008932 -1.5708254019366663 2.8897712230682373 0.9755822420120239 -0.5038562417030334 0.760902464389801 -0.2560573220252991 1.94542280951282e-07 0.9645598530769348 1 True False
1676.404 4.507648468017578 -1.2332791250995179 1.4607251326190394 -1.7981883488097132 -1.5708168188678187 2.9369828701019287 0.9102458953857422 -0.46855106949806213 0.7049292922019958 -0.23568519949913025 -1.0573485269560479e-06 0.9165332317352295 1 True False
1676.454 4.551359176635742 -1.2556656760028382 1.4947050253497522 -1.8098260364928187 -1.5707805792437952 2.9806411266326904 0.8411362767219543 -0.42249077558517456 0.6515149474143982 -0.2324380725622177 -1.6061148865731909e-25 0.8310327529907227 1 True False
1676.504 4.591394424438477 -1.2761319142631073 1.5258258024798792 -1.820402284661764 -1.5708044211017054 3.020327568054199 0.7682898640632629 -0.387542724609375 0.6004292368888855 -0.21809862554073334 -0.00017155804380308837 0.7718719840049744 1 True False
1676.5539999999999 4.628019332885742 -1.2949946981719513 1.5540974775897425 -1.8301545582213343 -1.57074481645693 3.057189702987671 0.6975115537643433 -0.355429083108902 0.543396532535553 -0.1820308268070221 -5.805861292174086e-06 0.7063966393470764 1 True False
1676.6039999999998 4.661252498626709 -1.3120572429946442 1.5799992720233362 -1.838724752465719 -1.5708091894732874 3.0903728008270264 0.6325792074203491 -0.3222467303276062 0.48595550656318665 -0.15651358664035797 0.0002614132536109537 0.6400251984596252 1 True False
1676.654 4.690957069396973 -1.3272330176881333 1.6029680410968226 -1.8466435871519984 -1.570784870778219 3.120025396347046 0.5633320808410645 -0.28987181186676025 0.4394032955169678 -0.13884015381336212 -1.1468998195596214e-07 0.5656746625900269 1 True False
1676.704 4.716999530792236 -1.3406561476043244 1.6231396834002894 -1.853492876092428 -1.5708211104022425 3.1460399627685547 0.4921959340572357 -0.2540241777896881 0.38137757778167725 -0.12532037496566772 -0.0003308089217171073 0.500567615032196 1 True False
1676.754 4.73963737487793 -1.352148563866951 1.6410487333880823 -1.8593651256956996 -1.5708254019366663 3.168919801712036 0.4199543595314026 -0.2109043449163437 0.3237511217594147 -0.10812017321586609 -0.000967733038123697 0.4120718240737915 1 True False
1677.004 4.800619125366211 -1.3834327024272461 1.6882451216327112 -1.8756801090636195 -1.5708044211017054 3.229872703552246 0.0705779418349266 -0.03485584259033203 0.054351381957530975 -0.014189712703227997 -0.0 0.06991014629602432 1 True False
1677.0539999999999 4.802353382110596 -1.384311856036522 1.6895182768451136 -1.8760024509825648 -1.570801083241598 3.2314915657043457 -0.005693636368960142 0.0010463092476129532 -0.003942352253943682 3.273567563155666e-05 -0.0 0.0006872788653708994 1 True False
1677.1039999999998 4.802314758300781 -1.3837567132762452 1.6908190886126917 -1.8778063259520472 -1.5707967917071741 3.2314915657043457 0.00127622380387038 0.023632673546671867 0.04597950354218483 -0.06563127040863037 -7.794035354891093e-07 0.0003897116403095424 1 True False
1677.154 4.802335262298584 -1.3819217544845124 1.6942747274981897 -1.8831993542113246 -1.5707925001727503 3.2315478324890137 0.0010869830148294568 0.050818491727113724 0.08773902803659439 -0.14270605146884918 -1.183915050984708e-25 0.0006045931950211525 1 True False
1677.204 4.80230712890625 -1.3786366444877167 1.6997993628131312 -1.8918849430479945 -1.5708487669574183 3.231487274169922 0.0010072938166558743 0.07980731129646301 0.13319458067417145 -0.205140620470047 -1.8216880036222622e-44 0.00028619589284062386 1 True False
1677.254 4.802372455596924 -1.374087543492653 1.7074039618121546 -1.9040867290892542 -1.570829216633932 3.2315478324890137 0.0007426291122101247 0.09858829528093338 0.17687062919139862 -0.287317156791687 -0.0 0.0001641601847950369 1 True False
1677.3039999999999 4.802342891693115 -1.3683320444873353 1.7174361387835901 -1.919722696343893 -1.5707405249225062 3.231555223464966 0.00025545648531988263 0.12677188217639923 0.22431349754333496 -0.34837251901626587 -0.0 8.689787500770763e-05 1 True False
1677.3539999999998 4.802338600158691 -1.361223654156067 1.7296870390521448 -1.939202447930807 -1.570824925099508 3.231588363647461 0.00014498038217425346 0.15754738450050354 0.2663207948207855 -0.4211643636226654 -0.0 8.262232586275786e-05 1 True False
1677.404 4.802334308624268 -1.352955014710762 1.7439287344561976 -1.9619132481017054 -1.570801083241598 3.23154354095459 8.032489131437615e-05 0.1777227371931076 0.30428940057754517 -0.4935857951641083 -0.0 6.544727511936799e-05 1 True False
1677.454 4.802375316619873 -1.3432156157544632 1.7606199423419397 -1.9878202877440394 -1.5707724730121058 3.231539011001587 5.735979158316695e-08 0.20229007303714752 0.35426270961761475 -0.5579001903533936 -0.0 1.1564931412522128e-07 1 True False
1677.504 4.8023552894592285 -1.3332979542068024 1.7776244322406214 -2.015252729455465 -1.5707967917071741 3.2316057682037354 6.164894148241729e-05 0.1842554658651352 0.32059445977211 -0.5220439434051514 -0.0 1.7567152742830445e-26 1 True False
1677.5539999999999 4.802359580993652 -1.324448139672615 1.7929514090167444 -2.03908695797109 -1.5707925001727503 3.231506586074829 1.3116246251614196e-19 0.1646420955657959 0.27766183018684387 -0.4494059383869171 -0.0 2.802596928649634e-45 1 True False
1677.6039999999998 4.802359580993652 -1.3170313400081177 1.805521313344137 -2.059549947778219 -1.5707805792437952 3.2315478324890137 0.0 0.1370851993560791 0.2372048944234848 -0.3746735453605652 -0.0 1.1503643792166809e-17 1 True False
1677.654 4.8023552894592285 -1.3107530039599915 1.8163097540484827 -2.0764409504332484 -1.5708048979388636 3.2315316200256348 0.0 0.10770464688539505 0.1910586804151535 -0.3210672438144684 -0.0 1.747406180963298e-36 1 True False
1677.704 4.802333831787109 -1.305827574138977 1.824981991444723 -2.0897513828673304 -1.5707805792437952 3.231576681137085 0.0 0.08365029841661453 0.14742359519004822 -0.24492229521274567 -0.0 0.0 1 True False
1677.754 4.802314758300781 -1.302292750482895 1.8310259024249476 -2.099827905694479 -1.570784870778219 3.2315597534179688 0.0 0.0606166236102581 0.10502076148986816 -0.16170211136341095 -0.0 0.0 1 True False
1677.8039999999999 4.802379131317139 -1.2998749178699036 1.8350661436664026 -2.1061912975706996 -1.5707805792437952 3.23154354095459 0.0 0.03358397260308266 0.058877311646938324 -0.09261584281921387 -0.0 0.0 1 True False
1677.8539999999998 4.802359580993652 -1.2987782520106812 1.8371065298663538 -2.1089989147581996 -1.5707891623126429 3.231576681137085 0.0 0.009089162573218346 0.01833316683769226 -0.03102428838610649 -0.0 0.0 1 True False
1677.904 4.802297592163086 -1.2987902027419587 1.837142292653219 -2.1092287502684535 -1.5708006064044397 3.2315523624420166 0.0 -0.0003419084823690355 4.9356196246201804e-18 -7.191353506641462e-05 -0.0 0.0 1 True False
1677.954 4.802395343780518 -1.2987946432879944 1.8371437231646937 -2.1092645130553187 -1.5707767645465296 3.231494188308716 0.0 4.017585524707101e-05 0.0 -0.0004359331796877086 -0.0 0.0 1 True False
1678.004 4.802297592163086 -1.2987334889224549 1.8371604124652308 -2.1093203030028285 -1.570801083241598 3.2315478324890137 0.0 7.593930786242709e-05 6.753254274372011e-05 -0.0002484369615558535 -0.0 0.0 1 True False
1678.0539999999999 4.802334308624268 -1.2987335485270997 1.837259594594137 -2.109248777429098 -1.570801083241598 3.2315032482147217 0.0 0.00018506938067730516 6.519635644508526e-05 -0.0006341130356304348 -0.0 0.0 1 True False
1678.1039999999998 4.802318096160889 -1.2986883980086823 1.8371976057635706 -2.1092969379820765 -1.5707886854754847 3.231494188308716 3.2229864679470793e-44 0.00028250226750969887 4.6962901251390576e-05 -0.0004669570189435035 -0.0 0.0 1 True False
1678.154 4.802338600158691 -1.2987181407264252 1.8371828238116663 -2.1092964611449183 -1.5707805792437952 3.2315032482147217 0.0 0.00022866505605634302 1.9461667761788704e-06 -0.00013794240658171475 1.0726234372114807e-21 0.0 1 True False
1678.204 4.8022661209106445 -1.2987426680377503 1.8371332327472132 -2.1093484363951625 -1.570853058491842 3.231510639190674 0.0 0.00013700927956961095 4.579536293106881e-36 -9.369753388455138e-05 1.6293177504397513e-40 0.0 1 True False
1678.254 4.802359580993652 -1.2987075907043 1.837151352559225 -2.109288831750387 -1.5708168188678187 3.2315566539764404 0.0 6.367352034430951e-05 5.448611409519799e-05 -7.324720354517922e-05 0.0 0.0 1 True False
1678.3039999999999 4.802289962768555 -1.2987300616553803 1.8371556440936487 -2.109276433984274 -1.570853058491842 3.2315313816070557 0.0 5.265163152879835e-15 1.2853504746017722e-15 -7.220033568959914e-18 0.0 0.0 1 True False
1678.3539999999998 4.802363872528076 -1.2986973089030762 1.8371995131122034 -2.109293123284811 -1.570756737385885 3.2315642833709717 0.0 0.0 2.802596928649634e-45 -1.0967248754365169e-36 0.0 0.0 1 True False
1678.404 4.802347183227539 -1.298701749449112 1.8372414747821253 -2.1093083820738734 -1.5707967917071741 3.231597661972046 0.0 0.0 5.9463269280968234e-05 -0.0 0.0 0.0 1 True False
1678.454 4.802297592163086 -1.2986972791007538 1.8371995131122034 -2.109260221520895 -1.570853058491842 3.2315597534179688 0.0 0.0 3.542138260695794e-17 -0.0 -0.0012957722647115588 0.0 1 True False
1678.504 4.802314758300781 -1.2987692815116425 1.8370712439166468 -2.109499593774313 -1.5708211104022425 3.231538772583008 -2.4992168657748478e-22 -8.477628139855853e-23 -1.8468423134115203e-13 -0.00023501552641391754 2.9537661248468794e-05 -0.0002201752067776397 1 True False
1678.5539999999999 4.802338600158691 -1.2987990242293854 1.837024990712301 -2.109443326989645 -1.5708611647235315 3.2315776348114014 0.0 0.0002133699890691787 8.679621532792225e-05 0.00048366343253292143 -3.168445618939586e-05 -7.25583522580564e-05 1 True False
1678.6039999999998 4.8023176193237305 -1.2987246078303833 1.837066952382223 -2.1094476185240687 -1.5708044211017054 3.2315433025360107 0.0 0.000997762894257903 0.00017481950635556132 0.0009831335628405213 -1.6850663087097928e-05 -4.3398136767791584e-05 1 True True
1678.654 4.80233097076416 -1.2989394229701539 1.836822811757223 -2.108400960961813 -1.5707805792437952 3.2315611839294434 0.0 -0.010827930644154549 -0.01975376531481743 0.045077476650476456 -1.1477830412331969e-05 -3.0957664421293885e-05 1 True True
1678.704 4.802326679229736 -1.3000526589206238 1.834670368825094 -2.1047879658141078 -1.5707967917071741 3.2315149307250977 0.0 -0.04750761762261391 -0.08106692135334015 0.10476686805486679 -4.02256033569655e-21 -8.238573498186105e-22 1 True True
1678.754 4.802338600158691 -1.3029678922942658 1.8299344221698206 -2.097283979455465 -1.5707767645465296 3.231510639190674 0.0 -0.06669415533542633 -0.11705458909273148 0.17835773527622223 -6.110277875780505e-40 -1.2514436065499211e-40 1 True True
1678.8039999999999 4.80238676071167 -1.3070917588523407 1.8227141539203089 -2.0864020786681117 -1.570784870778219 3.2315642833709717 0.0 -0.09220240265130997 -0.16400203108787537 0.2639329731464386 -0.0 -0.0 1 True True
1678.8539999999998 4.802338600158691 -1.3124489051154633 1.8135045210467737 -2.0720674000182093 -1.570756737385885 3.231581211090088 0.0 -0.11572158336639404 -0.2101355493068695 0.32916685938835144 -0.0 -8.951097502096772e-11 1 True True
1678.904 4.802342891693115 -1.3189303439906617 1.80229360262026 -2.0541378460326136 -1.570829216633932 3.2315478324890137 0.0 -0.14202408492565155 -0.24653005599975586 0.37518957257270813 -0.0 -1.359674191132854e-29 1 True True
1678.954 4.802350997924805 -1.3267281514457245 1.7888229529010218 -2.032842298547262 -1.5707724730121058 3.2315523624420166 0.0 -0.17116114497184753 -0.286170095205307 0.45563507080078125 -0.0 -0.0 1 True True
1679.004 4.802342891693115 -1.3359829050353547 1.7730172316180628 -2.007956167260641 -1.5707929770099085 3.2315685749053955 0.0 -0.1961951106786728 -0.3386651277542114 0.5247112512588501 -0.0 -0.0 1 True True
1679.0539999999999 4.802326679229736 -1.3460802894881745 1.755514923726217 -1.9802881679930628 -1.570756737385885 3.231555223464966 5.301740084207736e-24 -0.1968236118555069 -0.3381972312927246 0.5421527624130249 -0.0 -0.0 1 True True
1679.1039999999998 4.802383899688721 -1.3552801322988053 1.7397659460650843 -1.9550916157164515 -1.5708168188678187 3.2315313816070557 0.0 -0.16954582929611206 -0.2968543767929077 0.4711461663246155 -0.0 -0.0 1 True True
1679.154 4.802285194396973 -1.3633853060058136 1.7259052435504358 -1.9332977734007777 -1.5707805792437952 3.2315478324890137 0.0 -0.1500549167394638 -0.25173327326774597 0.40041306614875793 -0.0 -0.0 1 True True
1679.204 4.802351951599121 -1.3700392109206696 1.7144220511065882 -1.9151259861388148 -1.5708254019366663 3.2315478324890137 0.0 -0.11835150420665741 -0.20651336014270782 0.3280032277107239 -0.0 -0.0 1 True True
1679.254 4.802371501922607 -1.3754893106273194 1.7052167097674769 -1.9004060230650843 -1.5707767645465296 3.2315478324890137 0.0 -0.09611547738313675 -0.16978344321250916 0.273311585187912 -0.0 -0.0 1 True True
1679.3039999999999 4.8023881912231445 -1.379555271272995 1.6981447378741663 -1.889015337029928 -1.5707886854754847 3.231527090072632 0.0 -0.0706709772348404 -0.12332136183977127 0.18824447691440582 -0.0 -0.0 1 True True
1679.3539999999998 4.802334308624268 -1.3824672412923356 1.6930421034442347 -1.8813234768309535 -1.5707925001727503 3.2315597534179688 0.0 -0.045696862041950226 -0.0779048502445221 0.12834906578063965 -0.0 -0.0 1 True True
1679.404 4.8023295402526855 -1.3839968156865616 1.6902740637408655 -1.877050062219137 -1.5708087126361292 3.2315478324890137 0.0 -0.02092783711850643 -0.03416604921221733 0.05251937732100487 -0.0 -0.0 1 True True
1679.454 4.8022236824035645 -1.3842594188502808 1.6896994749652308 -1.8762251339354457 -1.5707767645465296 3.2313663959503174 -0.027313724160194397 1.7055447332214868e-10 3.8909650612595215e-08 -4.234339212416671e-05 -0.0 -0.02131892740726471 1 True True
1679.504 4.799657344818115 -1.3843327474645157 1.6897128264056605 -1.8761445484557093 -1.5708168188678187 3.228761672973633 -0.08584057539701462 1.5173777124814123e-21 6.64152231859805e-20 0.001101086032576859 -7.20774813529452e-25 -0.08548489958047867 1 True True
1679.5539999999999 4.7932891845703125 -1.3843010675958176 1.6896961371051233 -1.8761211834349574 -1.5707724730121058 3.2224864959716797 -0.15475134551525116 0.0 0.0 0.002371562644839287 -7.317711424548179e-05 -0.1561966836452484 1 True True
1679.6039999999998 4.783639907836914 -1.384366826420166 1.689709488545553 -1.8761092625060023 -1.57074481645693 3.212878942489624 -0.23014335334300995 -1.684565177129116e-05 -0.0002010150346904993 0.00033496887772344053 -4.851933408644982e-05 -0.22521667182445526 1 True True
1679.654 4.770381927490234 -1.3842747968486329 1.6896351019488733 -1.8761059246458949 -1.570813004170553 3.199746608734131 -0.29708176851272583 -1.1475815881567542e-05 -0.0007626762380823493 0.0002215151471318677 -6.706078834600726e-12 -0.2970831096172333 1 True True
1679.704 4.753907680511475 -1.3842835885337372 1.6896241346942347 -1.8760940037169398 -1.570813004170553 3.182957649230957 -0.36499860882759094 0.0 -0.0009196592727676034 0.00010903324437094852 -8.623470785096288e-05 -0.3651465177536011 1 True True
1679.754 4.73352575302124 -1.3843133312514802 1.6895974318133753 -1.8760739765562953 -1.5708654562579554 3.1628408432006836 -0.4365140199661255 0.0005832561291754246 -0.002024468034505844 7.399126479867846e-05 -2.250924296469605e-18 -0.43758493661880493 1 True True
1679.8039999999999 4.710088729858398 -1.3843098294785996 1.6895249525653284 -1.876021524468893 -1.570829216633932 3.1393325328826904 -0.5086625814437866 0.0009351333719678223 -0.0010535696055740118 7.286981417564675e-05 -1.5722733223810792e-05 -0.5155900120735168 1 True True
1679.8539999999998 4.683010101318359 -1.384229065184929 1.6894524733172815 -1.8760529957213343 -1.5707891623126429 3.112109899520874 -0.5757284164428711 0.0006707283318974078 -0.0009623199584893882 0.00022868621454108506 0.0006571501144208014 -0.5704272389411926 1 True True
1679.904 4.652409553527832 -1.3842018258622666 1.6893847624408167 -1.876073499719137 -1.570756737385885 3.0816237926483154 -0.6431970596313477 0.0007063696975819767 -0.001160761690698564 0.00026583316503092647 -5.388493082136847e-05 -0.645524263381958 1 True True
1679.954 4.618251323699951 -1.3841045808843155 1.6892436186419886 -1.8760510883727015 -1.5708006064044397 3.0474534034729004 -0.7132426500320435 0.00105144118424505 -0.001364567200653255 0.0002869809977710247 -4.433093636180274e-05 -0.7120245099067688 1 True True
1680.004 4.58054780960083 -1.384016216998436 1.6892083326922815 -1.8760138950743617 -1.5707967917071741 3.0099411010742188 -0.7804903984069824 0.0011023430852219462 -0.001180353108793497 0.00024059758288785815 0.0025098673067986965 -0.7968984246253967 1 True True
1680.0539999999999 4.539363861083984 -1.3839858633330842 1.689112965260641 -1.8760224781432093 -1.5707886854754847 2.9686763286590576 -0.8496246337890625 0.0026547592133283615 -0.0017749707913026214 0.00040638414793647826 0.0002879516105167568 -0.8508237600326538 1 True True
1680.1039999999998 4.494943618774414 -1.383840636616089 1.6890128294574183 -1.875941892663473 -1.5708172957049769 2.924055337905884 -0.9310094714164734 0.0029992081690579653 -0.0020309193059802055 0.00031228031730279326 -0.00263296440243721 -0.9206644296646118 1 True True
1680.154 4.4468302726745605 -1.3837194454720994 1.6888850370990198 -1.8758932552733363 -1.5707767645465296 2.875955820083618 -0.992710530757904 0.0019993712194263935 -0.0032446065451949835 0.0006536923465318978 0.00039106732583604753 -0.999682605266571 1 True True
1680.204 4.395429611206055 -1.3836075526526947 1.6888459364520472 -1.875862260858053 -1.5707810560809534 2.824705123901367 -1.0433413982391357 0.001284348196350038 -0.0010827253572642803 0.0004432360583450645 2.191710417223632e-19 -1.0480155944824219 1 True True
1680.254 4.3431267738342285 -1.3835395139506836 1.6886456648456019 -1.8758822880186976 -1.5707929770099085 2.772120714187622 -1.050026297569275 0.0026804497465491295 -0.0039619021117687225 3.6041890325577697e-06 0.00018703826935961843 -1.0389890670776367 1 True True
1680.3039999999999 4.290684700012207 -1.3835046899369736 1.6885903517352503 -1.8759352169432582 -1.570772949849264 2.7197775840759277 -1.0458276271820068 0.0009730905876494944 -0.0017591495998203754 0.000392262008972466 0.0003853313683066517 -1.0517828464508057 1 True True
1680.3539999999998 4.23828649520874 -1.3833803248456498 1.6884749571429651 -1.875866552392477 -1.570784870778219 2.6676459312438965 -1.0476994514465332 0.0016828937223181129 -0.0017505149589851499 0.00039297566399909556 7.564004533833213e-08 -1.045006275177002 1 True True
1680.404 4.186050891876221 -1.3832562279752274 1.6883309523211878 -1.8758312664427699 -1.5708048979388636 2.615048408508301 -1.0536147356033325 0.0028302061837166548 -0.0040219565853476524 0.0005208248621784151 0.0002814234176184982 -1.0414475202560425 1 True True
1680.454 4.133617877960205 -1.3832213145545502 1.6882417837726038 -1.8758117161192835 -1.570784870778219 2.562682628631592 -1.0442922115325928 0.001557743875309825 -0.0013587569119408727 0.001434614066965878 -1.0022251616614726e-18 -1.0502208471298218 1 True True
1680.504 4.081268787384033 -1.3831698906472703 1.6880696455584925 -1.8758117161192835 -1.5707529226886194 2.5105295181274414 -1.046919584274292 0.0020952755585312843 -0.0017249572556465864 0.0002636634453665465 3.2104787717202043e-09 -1.0471440553665161 1 True True
1680.5539999999999 4.028893947601318 -1.3830097180655976 1.6879423300372522 -1.875803133050436 -1.5708087126361292 2.458073139190674 -1.0520895719528198 0.0029524092096835375 -0.0030035688541829586 0.000570551143027842 2.7801917894976214e-05 -1.0389678478240967 1 True True
1680.6039999999998 3.9764811992645264 -1.3828996282866974 1.6879194418536585 -1.8757358990111292 -1.570772949849264 2.405660390853882 -1.045279622077942 0.0009697912610135972 -0.001681811292655766 0.0010762548772618175 3.3747180397392107e-12 -1.0478265285491943 1 True True
1680.654 3.924211025238037 -1.3828450006297608 1.6878164450274866 -1.875711580316061 -1.570784870778219 2.353438138961792 -1.0494824647903442 0.002117968862876296 -0.0016664104769006371 0.00014262369950301945 2.6409129105786633e-08 -1.0455451011657715 1 True True
1680.704 3.8718485832214355 -1.3827338230660935 1.6876357237445276 -1.87577547649526 -1.5708211104022425 2.300952196121216 -1.0522472858428955 0.0029422843363136053 -0.0038440930657088757 0.00043912645196542144 7.251313218148425e-05 -1.04100501537323 1 True True
1680.754 3.819499969482422 -1.382616252904274 1.687563721333639 -1.875688215295309 -1.5707886854754847 2.2485342025756836 -1.0473761558532715 0.001590295578353107 -0.0024175529833883047 0.001296886708587408 3.807855181343911e-13 -1.0488016605377197 1 True True
1680.8039999999999 3.767146110534668 -1.3825212580016633 1.6874526182757776 -1.8756715259947718 -1.5707491079913538 2.1963260173797607 -1.0463742017745972 0.0016094192396849394 -0.0016519422642886639 0.0004385567444842309 0.00014212954556569457 -1.0480800867080688 1 True True
1680.8539999999998 3.714749813079834 -1.3824702364257355 1.6873448530780237 -1.8756519756712855 -1.570784870778219 2.143998622894287 -1.048162579536438 0.0028429937083274126 -0.0031241343822330236 0.0004943842068314552 3.158648382850515e-07 -1.0464255809783936 1 True True
1680.904 3.6622939109802246 -1.3824382436326523 1.687166992818014 -1.8756643734373988 -1.5707967917071741 2.0914642810821533 -1.0477584600448608 0.0016930135898292065 -0.002658107550814748 0.0006496580899693072 0.00013359359581954777 -1.049277424812317 1 True True
1680.954 3.610031843185425 -1.3822572988322754 1.6870458761798304 -1.8756362400450648 -1.5707405249225062 2.0392937660217285 -1.0464136600494385 0.0018599937902763486 -0.0017141065327450633 0.0004333389806561172 4.994400822166716e-23 -1.0525708198547363 1 True True
1681.004 3.5576670169830322 -1.3821361821940918 1.686972443257467 -1.8756119213499964 -1.5708168188678187 1.9867526292800903 -1.0508580207824707 0.002081996761262417 -0.0038281558081507683 0.00040395144606009126 1.6563645033329522e-07 -1.0435258150100708 1 True True
1681.0539999999999 3.505280017852783 -1.3820851308158417 1.6868694464312952 -1.8755566082396449 -1.5708044211017054 1.9343831539154053 -1.045691728591919 0.0019919818732887506 -0.0034323069266974926 0.0007447082316502929 0.00023656932171434164 -1.0512231588363647 1 True True
1681.1039999999998 3.4529595375061035 -1.3819980037263413 1.6867707411395472 -1.8755084476866664 -1.5707686583148401 1.8822489976882935 -1.0478891134262085 0.001603775890544057 -0.003463964443653822 0.0013497036416083574 -1.674026316322852e-05 -1.048235297203064 1 True True
1681.154 3.4005722999572754 -1.3818440598300477 1.686606232319967 -1.87548889736318 -1.570829216633932 1.8297988176345825 -1.0498754978179932 0.0016515206079930067 -0.002667366759851575 0.00028015938005410135 -1.4256431321926777e-12 -1.0436897277832031 1 True True
1681.204 3.3482019901275635 -1.3818222743323822 1.6864574591266077 -1.8754683933653773 -1.5707524458514612 1.7773714065551758 -1.0453321933746338 0.002831063698977232 -0.0039393301121890545 0.00026492608594708145 4.1400249368447146e-16 -1.0412036180496216 1 True True
1681.254 3.295827627182007 -1.3816360843232651 1.686378304158346 -1.8754569492735804 -1.5708091894732874 1.7250301837921143 -1.044635534286499 0.0016741055296733975 -0.0025547370314598083 0.000402198638767004 -6.934476550668478e-05 -1.0477498769760132 1 True True
1681.3039999999999 3.243486166000366 -1.3816140604070206 1.6862419287311 -1.8754292927184046 -1.5707886854754847 1.6726771593093872 -1.0510483980178833 0.002002754947170615 -0.002547044772654772 0.0003877344715874642 -0.00013462670904118568 -1.044980525970459 1 True True
1681.3539999999998 3.1910505294799805 -1.3814931374839325 1.68610126176943 -1.8754774532713832 -1.5708654562579554 1.6203092336654663 -1.0461972951889038 0.0027824288699775934 -0.0029966123402118683 0.00038735667476430535 -5.431270437838975e-06 -1.0465179681777954 1 True True
1681.404 3.1391501426696777 -1.3814015847495575 1.6859772841082972 -1.8754054508604945 -1.5707967917071741 1.5684844255447388 -1.018317461013794 0.0023463584948331118 -0.0027787666767835617 0.0006331467884592712 -2.234654311905615e-05 -1.017880916595459 1 True True
1681.454 3.090216636657715 -1.3813051891377945 1.6859801451312464 -1.8754378757872523 -1.5708006064044397 1.5193898677825928 -0.9518252611160278 0.001290053129196167 -0.0016564027173444629 0.00040533512947149575 7.389147503999993e-05 -0.9437556266784668 1 True True
1681.504 3.0446887016296387 -1.3812497419169922 1.6858304182635706 -1.8753615818419398 -1.5707967917071741 1.4738997220993042 -0.8751164078712463 0.002128113526850939 -0.002606178168207407 0.000464646756881848 -7.926763629165223e-13 -0.874149739742279 1 True True
1681.5539999999999 3.002634048461914 -1.3811167639544983 1.6857269446002405 -1.875357290307516 -1.5707524458514612 1.4317362308502197 -0.8047720193862915 0.0014907619915902615 -0.0022943175863474607 0.00027252669679000974 -1.2040768486108367e-31 -0.803588330745697 1 True True
1681.6039999999998 2.9641029834747314 -1.3810732078603287 1.685627285634176 -1.8753982983031214 -1.570813004170553 1.3933013677597046 -0.7386865615844727 0.0015374846989288926 -0.002020465675741434 0.00016287979087792337 -0.0002057085803244263 -0.7360906600952148 1 True True
1681.654 2.9291763305664062 -1.3810667258552094 1.685523811970846 -1.8753696880736292 -1.570801083241598 1.358320951461792 -0.669184148311615 0.0018458712147548795 -0.0019666925072669983 -5.765505761701206e-07 1.8074548790991685e-07 -0.6698837280273438 1 True True
1681.704 2.897587537765503 -1.380949006681778 1.6855204741107386 -1.8753019771971644 -1.5707529226886194 1.3268181085586548 -0.5963919758796692 0.0014380698557943106 -0.001705693081021309 -8.757819138413383e-26 2.745528075223086e-26 -0.5969402194023132 1 True True
1681.754 2.8695616722106934 -1.3809302908233185 1.6854327360736292 -1.8753181896605433 -1.570801083241598 1.2987325191497803 -0.525579571723938 0.0015619343612343073 -0.0010882844217121601 0.00027870916528627276 2.4708495882999615e-13 -0.5308820009231567 1 True True
1681.8039999999999 2.8448879718780518 -1.3809228551438828 1.6853917280780237 -1.8753138981261195 -1.5708449522601526 1.2741206884384155 -0.45646271109580994 0.0012435609241947532 -0.0012084097834303975 0.00027334087644703686 8.397091910694598e-09 -0.45503687858581543 1 True True
1681.8539999999998 2.823808431625366 -1.380840928559639 1.6853902975665491 -1.87530579189443 -1.5707524458514612 1.253098487854004 -0.3891173303127289 0.001287774182856083 -0.0012714051408693194 0.00026689356309361756 7.006690429989249e-05 -0.39194074273109436 1 True True
1681.904 2.80642032623291 -1.3808388423970719 1.6853049437152308 -1.8752862415709437 -1.570813004170553 1.2355446815490723 -0.3203515112400055 0.0002963297301903367 -0.0009635983151383698 0.00016080366913229227 6.825129434279686e-21 -0.3211897313594818 1 True True
1681.954 2.792161464691162 -1.3808265787414093 1.6853473822223108 -1.8753024540343226 -1.570784870778219 1.2214577198028564 -0.2487945705652237 0.0004240787820890546 -0.0007979287183843553 0.0001412575802532956 1.036738057144537e-39 -0.2512238621711731 1 True True
1682.004 2.7815937995910645 -1.3808265936425705 1.6852691809283655 -1.8752623997130335 -1.5708335081683558 1.210823893547058 -0.17788071930408478 0.00032916071359068155 -0.00038577106897719204 0.00011997087131021544 0.0 -0.18022270500659943 1 True True
1682.0539999999999 2.7745745182037354 -1.3807656478932877 1.6852496306048792 -1.8752747974791468 -1.5708254019366663 1.20371675491333 -0.10895112156867981 0.0002790370781440288 -0.0003131657431367785 7.724319584667683e-05 0.0 -0.11163489520549774 1 True True
1682.1039999999998 2.7709357738494873 -1.3807450991920014 1.6852620283709925 -1.875282426873678 -1.5708168188678187 1.2000877857208252 -0.040096789598464966 0.0001917091867653653 -0.00022389732475858182 2.4482622151822397e-08 0.0 -0.04080558568239212 1 True True
1682.154 2.770548105239868 -1.3804768037847062 1.685295883809225 -1.8755651913084925 -1.5708048979388636 1.199705958366394 0.0020177909173071384 0.0202652495354414 0.012414061464369297 -0.022993581369519234 0.0 0.00038534903433173895 1 True True
1682.204 2.7705283164978027 -1.3792618227056046 1.6872504393206995 -1.878887792626852 -1.570829216633932 1.199631690979004 -0.0003761479165405035 0.03015994280576706 0.06115073338150978 -0.10713301599025726 0.0 -0.0003771931224036962 1 True True
1682.254 2.7704923152923584 -1.376809762125351 1.691728417073385 -1.8859297237791957 -1.5708211104022425 1.199644923210144 -0.0005323471268638968 0.06344109773635864 0.11338939517736435 -0.16804158687591553 0.0 -0.0003799165424425155 1 True True
1682.3039999999999 2.7705020904541016 -1.3730347168496628 1.698521916066305 -1.8962284527220667 -1.570772949849264 1.1996285915374756 -0.0006351243937388062 0.08698286861181259 0.15147235989570618 -0.24470658600330353 0.0 -0.00017889846640173346 1 True True
1682.3539999999998 2.770416021347046 -1.3680507701686402 1.707268540059225 -1.9101234875121058 -1.5707686583148401 1.1995837688446045 -0.00016219442477449775 0.11218540370464325 0.1979036182165146 -0.3131210505962372 0.0 -0.00013859914906788617 1 True True
1682.404 2.7704615592956543 -1.3616268944791337 1.7182582060443323 -1.927347799340719 -1.570801083241598 1.1996119022369385 -0.00011877965152962133 0.1405494064092636 0.2458823174238205 -0.37634506821632385 0.0 -0.00010751781519502401 1 True True
1682.454 2.770383358001709 -1.3539856982282181 1.7315552870379847 -1.948278089562887 -1.5707805792437952 1.19959557056427 -8.072893979260698e-05 0.16569609940052032 0.2856108248233795 -0.44790413975715637 0.0 -9.546191722620279e-05 1 True True
1682.504 2.7703752517700195 -1.3450007301620026 1.746782128010885 -1.9726768932738246 -1.570784870778219 1.1995866298675537 -5.113764171048869e-30 0.18771426379680634 0.3305167853832245 -0.5131531357765198 0.0 -2.369309609617787e-12 1 True True
1682.5539999999999 2.7704246044158936 -1.3349428188851853 1.7644498983966272 -1.9999615154662074 -1.5707486311541956 1.199649453163147 -3.156706124794739e-13 0.19988898932933807 0.34389564394950867 -0.5439331531524658 0.0 -3.598987073827841e-31 1 True True
1682.754 2.7704293727874756 -1.3049408060363312 1.8159001509295862 -2.081877370873922 -1.5707724730121058 1.199637532234192 0.0 0.0993521437048912 0.16923700273036957 -0.2728058099746704 0.0 -0.0 1 True True
1682.8039999999999 2.7704126834869385 -1.3005700570395966 1.823590103779928 -2.093752523461813 -1.570829216633932 1.1996119022369385 0.0 0.07539421319961548 0.12944622337818146 -0.19470594823360443 0.0 -0.0 1 True True
1682.8539999999998 2.7704007625579834 -1.2976112228683014 1.8287132422076624 -2.1019069157042445 -1.5707767645465296 1.1996164321899414 0.0 0.04777580127120018 0.08250349760055542 -0.12978386878967285 0.0 -0.0 1 True True
1682.904 2.7703752517700195 -1.2960079473308106 1.8315556685077112 -2.1067596874632777 -1.570813004170553 1.199579119682312 0.0 0.014545108191668987 0.029693445190787315 -0.05366786569356918 -0.003443073481321335 -0.0 1 True True
1682.954 2.7704484462738037 -1.295804963713028 1.8319862524615687 -2.1080991230406703 -1.5708254019366663 1.199698567390442 1.751702975252179e-21 -1.6747308109188452e-05 -2.7671023417497054e-05 0.007038454059511423 -0.00012881199654657394 -0.0 1 True True
1683.004 2.7703707218170166 -1.2956430178931733 1.8319862524615687 -2.1081749401488246 -1.5707843939410608 1.199649453163147 0.0 0.005176687613129616 0.003265846986323595 -3.888451465172693e-05 -2.3082599000190385e-05 -0.00011670023377519101 1 True True
1683.0539999999999 2.7704036235809326 -1.2947958570769806 1.8332660833941858 -2.1075021229186 -1.5707891623126429 1.1996405124664307 0.0 0.00044124654959887266 0.0023559858091175556 0.0009277919307351112 0.00042588956421241164 -4.0158888494064974e-20 1 True True
1683.1039999999998 2.77046537399292 -1.2949918371490021 1.8330867926227015 -2.107880254785055 -1.5707686583148401 1.1996089220046997 4.3449094148939604e-12 -8.41750661493279e-05 -8.328802536539115e-09 0.0022625294514000416 0.0001416597660863772 -9.024870628593362e-09 1 True False
1683.154 2.770357131958008 -1.2951471966556092 1.8329508940326136 -2.1079756222166957 -1.5707648436175745 1.1996732950210571 0.0 -0.0010064735542982817 -0.0005835684132762253 -0.00048527336912229657 8.815400853734445e-09 0.00014872998872306198 1 True False
1683.204 2.7704455852508545 -1.2953165930560608 1.8328350226031702 -2.108047147790426 -1.5707805792437952 1.1996331214904785 0.0 -0.0025410952512174845 -0.002427575411275029 -0.0006604584050364792 4.917622841056624e-13 7.273573282873258e-05 1 True False
1683.254 2.77040696144104 -1.2953155201724549 1.8327587286578577 -2.1081115208067835 -1.570784870778219 1.199607491493225 0.0 -0.00037133184378035367 -0.0027552491519600153 -0.00018001568969339132 7.469883388317269e-32 4.346156129031442e-05 1 True False
1683.3039999999999 2.770432233810425 -1.2960203450969239 1.8316577116595667 -2.1069370708861292 -1.5707767645465296 1.199644923210144 0.0 -0.025120532140135765 -0.04243588075041771 0.057763222604990005 0.0 4.1319915908388793e-05 1 True False
1683.3539999999998 2.7704203128814697 -1.2975472670844574 1.8287599722491663 -2.1018716297545375 -1.5708168188678187 1.1996405124664307 0.0 -0.04769257456064224 -0.08611758053302765 0.1386398822069168 0.0 2.382187600392244e-13 1 True False
1683.404 2.7703962326049805 -1.300615207558014 1.8233988920794886 -2.093424459496969 -1.5707772413836878 1.1996747255325317 0.0 -0.07387430220842361 -0.1238168329000473 0.21037305891513824 0.0 3.6185471822760887e-32 1 True False
1683.454 2.770448684692383 -1.3050476473620911 1.8156798521624964 -2.0816718540587367 -1.5707925001727503 1.199600100517273 0.0 -0.10028757154941559 -0.17179390788078308 0.262771874666214 0.0 0.0 1 True False
1683.504 2.770432233810425 -1.310658113365509 1.8060491720782679 -2.0664054356017054 -1.5707805792437952 1.1995954513549805 0.0 -0.12350524961948395 -0.21452996134757996 0.35200121998786926 -5.172877717996016e-05 5.304998194333166e-05 1 True False
1683.5539999999999 2.770411252975464 -1.3176033955863495 1.7942522207843226 -2.0475012264647425 -1.5707767645465296 1.1996657848358154 0.0 -0.1510341912508011 -0.25986865162849426 0.4066697657108307 -4.925870234728791e-05 1.0447591635751644e-19 1 True False
1683.6039999999998 2.7703661918640137 -1.3258237701705475 1.7799552122699183 -2.0252472362914027 -1.5707925001727503 1.199665904045105 0.0 -0.1756843477487564 -0.307038813829422 0.4791383147239685 3.1760434126421044e-13 1.586991109935281e-38 1 True False
1683.654 2.7704203128814697 -1.3351410937360306 1.7637847105609339 -1.9993721447386683 -1.5707967917071741 1.1996164321899414 0.0 -0.203275665640831 -0.3535494804382324 0.5449087619781494 4.824418364238738e-32 0.0 1 True False
1683.704 2.770399332046509 -1.3453296732953568 1.7463844458209437 -1.9720622501769007 -1.5707891623126429 1.1996777057647705 0.0 -0.18980586528778076 -0.33146578073501587 0.5200595855712891 0.0 0.0 1 True False
1683.754 2.7704367637634277 -1.3541544389775773 1.7311914602862757 -1.9477588138976039 -1.5708048979388636 1.199637532234192 0.0 -0.1645599603652954 -0.28864264488220215 0.4569207429885864 0.0 0.0 1 True False
1683.8039999999999 2.7704696655273438 -1.3617170018008729 1.7179935614215296 -1.9270168743529261 -1.5708373228656214 1.199644923210144 0.0 -0.13994871079921722 -0.24414239823818207 0.38502928614616394 0.0 0.0 1 True False
1683.8539999999998 2.7703945636749268 -1.3681112241796036 1.7071946302997034 -1.9097777805724085 -1.5707925001727503 1.1996419429779053 0.0 -0.11406559497117996 -0.19118726253509521 0.3080799877643585 0.0 0.0 1 True False
1683.904 2.770406723022461 -1.373194382791855 1.6985166708575647 -1.8959394894041957 -1.5707967917071741 1.1996285915374756 0.0 -0.08830275386571884 -0.15198077261447906 0.23303857445716858 0.0 0.0 1 True False
1683.954 2.770432233810425 -1.3769512933543702 1.691817585621969 -1.885629793206686 -1.5708168188678187 1.199607491493225 0.0 -0.06256548315286636 -0.11204388737678528 0.1810411959886551 0.0 0.0 1 True False
1684.004 2.7704412937164307 -1.3794190746596833 1.6874726454364222 -1.8788863621153773 -1.5707925001727503 1.1996208429336548 0.0 -0.038558948785066605 -0.06249228119850159 0.1034822016954422 0.0 0.0 1 True False
1684.0539999999999 2.77044415473938 -1.380575181250908 1.6855271498309534 -1.8756638966002406 -1.570784870778219 1.1995452642440796 0.0 -0.012247782200574875 -0.02242232859134674 0.030833465978503227 0.0 0.0 1 True False
1684.1039999999998 2.770414352416992 -1.3806826186231156 1.685357395802633 -1.8753658733763636 -1.570772949849264 1.1996076107025146 0.0 0.000588138704188168 0.0006881653680466115 0.0011479834793135524 0.0 0.0 1 False False
1684.154 2.7704036235809326 -1.3806501191905518 1.685317341481344 -1.8753777943053187 -1.5708449522601526 1.1996285915374756 0.0 -0.00023313071869779378 -0.0001781257160473615 0.001029530423693359 0.0 0.0 1 False False
1684.204 2.7704081535339355 -1.3806278717568894 1.6853306929217737 -1.8753019771971644 -1.570801083241598 1.1996285915374756 0.0 -0.0001304586767219007 -0.00024929040228016675 0.0013402077602222562 0.0 0.0 1 False False
1684.254 2.770411252975464 -1.3807099622539063 1.6852558294879358 -1.8753262958922328 -1.5708406607257288 1.1996285915374756 0.0 -0.00033383522531948984 -0.00044248378253541887 0.0017321811756119132 0.0 0.0 1 False False
1684.3039999999999 2.770448684692383 -1.3807218831828614 1.6852615515338343 -1.8752662144102992 -1.570784870778219 1.1996374130249023 0.0 -0.00036125537008047104 -0.0005486950394697487 0.0003393649240024388 0.0 0.0 1 False False
1684.3539999999998 2.770502805709839 -1.3807099622539063 1.6852734724627894 -1.8752500019469203 -1.570813004170553 1.1996076107025146 0.0 -0.00018120775348506868 -0.0005030195461586118 0.00011160758003825322 0.0 0.0 1 False False
1684.404 2.7704787254333496 -1.3807806086591263 1.6852253119098108 -1.8752581081786097 -1.5708168188678187 1.1996285915374756 0.0 -0.00018885986355599016 -0.0002726871462073177 8.266642544185743e-05 0.0 0.0 1 False False
1684.454 2.7704248428344727 -1.380744756465294 1.6852377096759241 -1.8753024540343226 -1.5708254019366663 1.1996285915374756 0.0 -0.00013051301357336342 -0.00015285702829714864 5.978479748591781e-05 0.0 0.0 1 False False
1684.504 2.77043080329895 -1.3807414335063477 1.6852052847491663 -1.8752342663206996 -1.5707691351519983 1.1995869874954224 0.0 -8.598241402069107e-05 -9.376917296322063e-05 9.081324931276311e-24 0.0 0.0 1 False False
1684.5539999999999 2.7704248428344727 -1.3807670784047623 1.685213867818014 -1.875186105767721 -1.5708449522601526 1.199582576751709 0.0 -6.593699646965121e-20 -6.15449171164073e-05 1.37887768889562e-42 0.0 0.0 1 False False
1684.6039999999998 2.770432233810425 -1.380753682260849 1.6851838270770472 -1.8752581081786097 -1.5707925001727503 1.1996493339538574 0.0 0.0 -7.53604603308429e-14 0.0 0.0 0.0 1 False False
1684.654 2.7704293727874756 -1.3807250273278733 1.6851838270770472 -1.87522616008901 -1.5708087126361292 1.1996374130249023 0.0 0.0 -1.7796490496925177e-43 0.0 0.0 0.0 1 False False
1684.704 2.7704081535339355 -1.3807536971620102 1.6852095762835901 -1.8752905331053675 -1.5707967917071741 1.1996405124664307 0.0 0.0 -0.0 0.0 0.0 0.0 1 False False
1684.754 2.770382881164551 -1.3806919020465394 1.68524676958193 -1.875242372552389 -1.5708006064044397 1.1996033191680908 0.0 0.0 -0.0 0.0 0.0 0.0 1 False False
1684.8039999999999 2.770423173904419 -1.3807447266629715 1.6852253119098108 -1.875270505944723 -1.5707925001727503 1.1996077299118042 -2.7465449900766415e-43 0.0 -0.0 0.0 0.0 0.0 1 False False
1684.8539999999998 2.7704575061798096 -1.3807296019843598 1.685139004384176 -1.8752662144102992 -1.5707929770099085 1.1996698379516602 0.0 0.0 -0.0 0.0 0.0 0.0 1 False False
1684.904 2.7704036235809326 -1.3807504040053864 1.6851971785174769 -1.8752829037108363 -1.5707967917071741 1.1995840072631836 3.6173782213033532e-37 0.0 -0.0 0.0 0.0 0.0 1 False False
1684.954 2.7704248428344727 -1.380749137406685 1.6852005163775843 -1.8752581081786097 -1.5708168188678187 1.199633002281189 0.0 0.0 -0.0 0.0 0.0 0.0 1 False False
1685.004 2.7704367637634277 -1.3807340425303956 1.68524676958193 -1.8752747974791468 -1.570824925099508 1.199620008468628 0.0 0.0 -0.0 0.0 0.0 0.0 1 False False
1685.0539999999999 2.7704145908355713 -1.3807115715793152 1.6852300802813929 -1.8752500019469203 -1.5708006064044397 1.199612021446228 0.0 0.0 -0.0 0.0 0.0 0.0 1 True False
1685.1039999999998 2.7704169750213623 -1.3806919914535065 1.685213867818014 -1.875270505944723 -1.5707810560809534 1.1996285915374756 0.0 0.0 -0.0 0.0 0.0 0.0 1 True False
1685.154 2.7704203128814697 -1.3807414335063477 1.68524676958193 -1.8752342663206996 -1.5707767645465296 1.199620008468628 0.0 0.0 -0.0 0.0 0.0 -3.916165223927237e-05 1 True False
1685.204 2.7704410552978516 -1.3807744991830369 1.6852014700519007 -1.8752509556212367 -1.5707886854754847 1.1996405124664307 0.0 1.8157048493010877e-34 -0.0 0.0 0.0 -1.875423185992986e-05 1 True False
1685.254 2.770399332046509 -1.380770058637001 1.6852005163775843 -1.8752781353392542 -1.5707886854754847 1.1996697187423706 0.0 0.0 -0.0 0.0 0.0 -1.2330275239946786e-05 1 True False
1685.3039999999999 2.77043080329895 -1.3807834398797532 1.685192886983053 -1.8752910099425257 -1.5707767645465296 1.1996243000030518 2.7570617557681957e-32 0.0 -0.0 6.402323519293573e-15 0.0 -1.4625731181716617e-11 1 True False
1685.3539999999998 2.770411491394043 -1.3807459634593506 1.685216252003805 -1.8752900562682093 -1.5707491079913538 1.1996773481369019 -2.555883874529626e-29 0.0 -4.3138453316949545e-33 9.725143944261105e-34 0.0 -2.221651033054108e-30 1 True False
1685.404 2.770427942276001 -1.3807296019843598 1.685251537953512 -1.8753067455687464 -1.5708125273333948 1.1995840072631836 0.0 0.0 -0.0 0.0 0.0 -0.0 1 True False
1685.454 2.7704334259033203 -1.3807581675103684 1.6851676146136683 -1.8752905331053675 -1.5708125273333948 1.1995435953140259 0.0 0.0 -0.0 0.0 0.0 -0.0 1 True False
1685.504 2.7704572677612305 -1.3807744842818757 1.685192886983053 -1.8752619228758753 -1.570784870778219 1.1995872259140015 0.0 0.0 -0.0 0.0 0.0 -3.127466619012864e-10 1 True False
1685.5539999999999 2.7704291343688965 -1.3807957482388993 1.6852334181415003 -1.8752862415709437 -1.5707610289203089 1.1996285915374756 0.0 0.0 -0.0 0.0 0.0 -0.00021160516189411283 1 True False
1685.6039999999998 2.7704410552978516 -1.3807369780591507 1.6852253119098108 -1.875270505944723 -1.570784870778219 1.1996405124664307 0.0 0.0 -0.0 0.0 0.0 -2.4185018340761553e-14 1 True False
1685.654 2.77038311958313 -1.3807655584863205 1.6852496306048792 -1.875286718408102 -1.570784870778219 1.1996372938156128 0.0 0.0 -0.0 0.0 -2.6133833671337925e-05 -3.6737104138294923e-33 1 True False
1685.704 2.770521640777588 -1.3806891751340409 1.68524676958193 -1.8752981624998988 -1.5708087126361292 1.1996805667877197 0.03229304030537605 0.0 -0.0 0.0 -3.969737007258932e-24 0.017459390684962273 1 True False
1685.754 2.7728464603424072 -1.3806141179851075 1.6850135962115687 -1.8752581081786097 -1.5707886854754847 1.2021187543869019 0.0771985873579979 0.00611756881698966 -0.01165273878723383 0.0 -6.0255833965967134e-43 0.0837073102593422 1 True False
1685.8039999999999 2.7787914276123047 -1.3800862294486542 1.6843393484698694 -1.8750516376891078 -1.5707891623126429 1.207942008972168 0.1519254893064499 0.011948306113481522 -0.01358421053737402 0.006818222347646952 -0.0 0.14964136481285095 1 True False
1685.8539999999998 2.7882800102233887 -1.3795345437577744 1.6835063139544886 -1.8748733005919398 -1.5708416144000452 1.2173992395401 0.220137819647789 0.015062174759805202 -0.021715320646762848 0.004585482645779848 -0.0 0.2238592803478241 1 True False
1685.904 2.8010945320129395 -1.3785809737494965 1.6822760740863245 -1.8744827709593714 -1.570784870778219 1.2302746772766113 0.28883737325668335 0.02207539603114128 -0.0276222825050354 0.007410089485347271 -0.0 0.2907657027244568 1 True False
1685.954 2.817352533340454 -1.3772869569114228 1.6807149092303675 -1.8741213283934535 -1.5707648436175745 1.2466791868209839 0.3652005195617676 0.028248531743884087 -0.03267060965299606 0.008962747640907764 -0.0 0.3611328899860382 1 True False
1686.004 2.8373918533325195 -1.3758418422988434 1.6788013617144983 -1.8736759624876917 -1.5708254019366663 1.26643967628479 0.429901659488678 0.030840188264846802 -0.0447053425014019 0.009552313946187496 -0.0 0.4374573528766632 1 True False
1686.0539999999999 2.860715627670288 -1.3740578454783936 1.6764867941485804 -1.8732429943480433 -1.5707605520831507 1.289868950843811 0.5011144876480103 0.03494654595851898 -0.04733145236968994 0.012213518843054771 3.5467088309815153e-05 0.49656906723976135 1 True False
1686.1039999999998 2.88740611076355 -1.3721160006574173 1.6738932768451136 -1.8726426563658656 -1.5707967917071741 1.3167634010314941 0.5719770193099976 0.04328558221459389 -0.05338028818368912 0.01343452651053667 -1.04975733847823e-05 0.5662959814071655 1 True False
1686.154 2.917745590209961 -1.36988818765197 1.6710665861712855 -1.8719431362547816 -1.5708168188678187 1.347069263458252 0.6404943466186523 0.046461403369903564 -0.06609532982110977 0.01235605776309967 -1.5945840081139622e-24 0.639012336730957 1 True False
1686.204 2.9515695571899414 -1.367477447991707 1.6676929632769983 -1.8711511097350062 -1.5707686583148401 1.380914330482483 0.7111222743988037 0.053375862538814545 -0.06979870796203613 0.01425330899655819 8.416045602643862e-05 0.7084871530532837 1 True False
1686.254 2.988982915878296 -1.3646752697280427 1.6641681830035608 -1.8702413044371546 -1.5708211104022425 1.4181607961654663 0.7734702825546265 0.058746445924043655 -0.07710715383291245 0.012748654931783676 5.538926416193135e-06 0.7785230875015259 1 True False
1686.3039999999999 3.0298750400543213 -1.3617031437209626 1.66010028520693 -1.8693863354124964 -1.570784870778219 1.4589847326278687 0.8485551476478577 0.063706174492836 -0.07949215173721313 0.01882040686905384 -0.00017880219093058258 0.8471568822860718 1 True False
1686.3539999999998 3.074005365371704 -1.3583858025125046 1.6558797995196741 -1.8683134518065394 -1.570772949849264 1.5033873319625854 0.9257379174232483 0.06669697165489197 -0.09201714396476746 0.02282043918967247 0.00033157278085127473 0.9151704907417297 1 True False
1686.404 3.1218669414520264 -1.354907215838768 1.651386562977926 -1.8671843014159144 -1.5707805792437952 1.551126480102539 0.9847850799560547 0.07466829568147659 -0.09250810742378235 0.025433866307139397 5.1100807468174025e-05 0.9874184727668762 1 True False
1686.454 3.173109769821167 -1.3511696320823212 1.6463936010943812 -1.866070409814352 -1.570772949849264 1.6023297309875488 1.0395290851593018 0.07533139735460281 -0.10442735999822617 0.02008773759007454 1.2851870819462468e-14 1.0400540828704834 1 True False
1686.504 3.225464105606079 -1.3471454095891495 1.6414406935321253 -1.8648387394347132 -1.5708168188678187 1.6546497344970703 1.0518107414245605 0.07634000480175018 -0.1024288535118103 0.02269287407398224 -9.727585847940645e-07 1.0501341819763184 1 True False
1686.5539999999999 3.2778384685516357 -1.3433715862086792 1.6363614241229456 -1.863737245599264 -1.5707529226886194 1.7069377899169922 1.0442485809326172 0.07743111997842789 -0.09855903685092926 0.029024261981248856 -8.352538861799985e-05 1.0458890199661255 1 True False
1686.6039999999998 3.330125331878662 -1.3396369528821488 1.6310928503619593 -1.8625880680479945 -1.5708168188678187 1.7594435214996338 1.0472158193588257 0.07613091170787811 -0.09509052336215973 0.02219781093299389 -1.0410963852045597e-20 1.043373465538025 1 True False
1686.654 3.3824715614318848 -1.335744784479477 1.6261089483844202 -1.8612801037230433 -1.5708168188678187 1.811786413192749 1.0500264167785645 0.07571732997894287 -0.10129697620868683 0.024883544072508812 -1.5814269741229864e-39 1.0452769994735718 1 True False
1686.704 3.434901475906372 -1.3318417084268113 1.6211426893817347 -1.8599559269347132 -1.5708254019366663 1.86403489112854 1.041707158088684 0.07993513345718384 -0.09948024898767471 0.026793425902724266 -2.7067328119301237e-05 1.046878457069397 1 True False
1686.754 3.4872071743011475 -1.3280733537724991 1.6161964575396937 -1.8588267765440882 -1.5708087126361292 1.91647469997406 1.049595594406128 0.07914885133504868 -0.09846697747707367 0.025953764095902443 2.4600663891760632e-05 1.046858787536621 1 True False
1686.8039999999999 3.53955078125 -1.324254350071289 1.611072842274801 -1.8578053913512171 -1.570784870778219 1.9687656164169312 1.052230715751648 0.07405522465705872 -0.10206309705972672 0.02234897017478943 2.128638584841802e-11 1.0541372299194336 1 True False
1686.8539999999998 3.59203839302063 -1.3202487987330933 1.6060994307147425 -1.8565169773497523 -1.5707686583148401 2.0209662914276123 1.0415186882019043 0.07744190841913223 -0.102742999792099 0.019905496388673782 8.478838253722643e-08 1.0455899238586426 1 True False
1686.904 3.6442909240722656 -1.3164128226092835 1.6009753386126917 -1.855276723901266 -1.5708335081683558 2.073531150817871 1.0484846830368042 0.07912281900644302 -0.09952813386917114 0.024222973734140396 3.732304321601987e-05 1.0418789386749268 1 True False
1686.954 3.696688413619995 -1.3126185697368165 1.5958612600909632 -1.8541318378844203 -1.5707767645465296 2.125932455062866 1.0504122972488403 0.07568417489528656 -0.09730373322963715 0.027925878763198853 3.074006354194461e-23 1.0488331317901611 1 True False
1687.004 3.749101161956787 -1.3087301415256043 1.5908196608172815 -1.8528596363463343 -1.5707767645465296 2.178194284439087 1.0438694953918457 0.07479830086231232 -0.09966391324996948 0.019827134907245636 1.129676281257765e-21 1.0461910963058472 1 True False
1687.0539999999999 3.801401376724243 -1.3048916322043915 1.5858686606036585 -1.8517314396300257 -1.5708006064044397 2.2306957244873047 1.04521906375885 0.07895562052726746 -0.1051858514547348 0.018878668546676636 3.564072329825406e-19 1.0407720804214478 1 True False
1687.1039999999998 3.853755474090576 -1.3010420364192505 1.5808633009540003 -1.850474020043844 -1.5708449522601526 2.283006429672241 1.0529959201812744 0.07668418437242508 -0.10106294602155685 0.02876465953886509 5.413835341608e-38 1.0514976978302002 1 True False
1687.154 3.906053066253662 -1.297237144117691 1.575752083455221 -1.8494168720641078 -1.570784870778219 2.3351354598999023 1.0460913181304932 0.07980912178754807 -0.09797628968954086 0.02088410221040249 2.8169758192753136e-10 1.048066258430481 1 True False
1687.204 3.95839524269104 -1.2934298080256958 1.5706027189837855 -1.848196645776266 -1.5708254019366663 2.387728691101074 1.0456479787826538 0.07724597305059433 -0.10572216659784317 0.023044580593705177 1.906105069338082e-07 1.0360782146453857 1 True False
1687.254 4.0108866691589355 -1.2895391148379822 1.565657917653219 -1.8468200169005335 -1.570801083241598 2.440122365951538 1.0498905181884766 0.0778990089893341 -0.10116821527481079 0.028108755126595497 0.00036340870428830385 1.048602819442749 1 True False
1687.3039999999999 4.063277721405029 -1.2856912177852173 1.5604808966266077 -1.8457204304137171 -1.57074481645693 2.4923014640808105 1.0470365285873413 0.0800725519657135 -0.10053188353776932 0.022151343524456024 -2.3235423213918693e-05 1.0471889972686768 1 True False
1687.3539999999998 4.115594863891602 -1.281815306549408 1.5554478804217737 -1.8445660076537074 -1.5708211104022425 2.5448203086853027 1.0494204759597778 0.07242415100336075 -0.0982585921883583 0.02101016230881214 -3.52946545301558e-24 1.0413845777511597 1 True False
1687.404 4.16796350479126 -1.2778832477382203 1.5504973570453089 -1.8433057270445765 -1.570801083241598 2.5970802307128906 1.0504757165908813 0.07367398589849472 -0.10102565586566925 0.02889578975737095 -5.366973118364049e-43 1.0481873750686646 1 True False
1687.454 4.2202558517456055 -1.2741045218757172 1.5455549399005335 -1.8421455822386683 -1.5707929770099085 2.649393081665039 1.0425899028778076 0.07821811735630035 -0.10361818969249725 0.01953001506626606 -0.0 1.0519964694976807 1 True False
1687.504 4.272637844085693 -1.2703224283507843 1.5404017607318323 -1.8409449062743128 -1.5707805792437952 2.701857805252075 1.0452492237091064 0.07990148663520813 -0.09996205568313599 0.025348978117108345 -0.0 1.0388083457946777 1 True False
1687.5539999999999 4.3249945640563965 -1.2664617759040375 1.53532582918276 -1.839707990685934 -1.570784870778219 2.7542667388916016 1.0467982292175293 0.07177025079727173 -0.09776586294174194 0.027621369808912277 -0.0 1.0494966506958008 1 True False
1687.6039999999998 4.377346992492676 -1.2625614565661927 1.5302656332599085 -1.8385244808592738 -1.570784870778219 2.806441307067871 1.045747995376587 0.08091746270656586 -0.10275238007307053 0.017376456409692764 -0.0 1.0500874519348145 1 True False
1687.654 4.429134368896484 -1.2586907607368012 1.52543813387026 -1.837374826470846 -1.570813004170553 2.8583462238311768 1.0071163177490234 0.07970591634511948 -0.09989819675683975 0.021525215357542038 -0.00022842426551505923 1.002396821975708 1 True False
1687.704 4.477766036987305 -1.2551468473723908 1.5206592718707483 -1.8362847767271937 -1.570784870778219 2.9068732261657715 0.9455891251564026 0.0682385042309761 -0.08634686470031738 0.024981658905744553 -0.00010382249456597492 0.9515761733055115 1 True False
1687.754 4.522879600524902 -1.251750425701477 1.5162861982928675 -1.8351956806578578 -1.5708335081683558 2.9520792961120605 0.8696482181549072 0.06272786855697632 -0.08529188483953476 0.015421129763126373 -7.041283970465884e-05 0.8602572083473206 1 True False
1687.8039999999999 4.564619541168213 -1.2487987738898774 1.5123661200152796 -1.8342257938780726 -1.5707891623126429 2.993666410446167 0.7971058487892151 0.05902150273323059 -0.07548119127750397 0.02004173956811428 -0.00012472007074393332 0.8057610392570496 1 True False
1687.8539999999998 4.602768898010254 -1.246020571594574 1.5085399786578577 -1.833447595635885 -1.5707686583148401 3.031967878341675 0.7341893315315247 0.05225913226604462 -0.07126695662736893 0.018568135797977448 -5.6281940487679094e-05 0.7370808720588684 1 True False
1687.904 4.6373610496521 -1.243439332847931 1.5053179899798792 -1.8325125179686488 -1.5707767645465296 3.0666255950927734 0.6659290790557861 0.047949329018592834 -0.06413307040929794 0.01618310995399952 0.00035373595892451704 0.6532973647117615 1 True False
1687.954 4.668564319610596 -1.2411673229983826 1.5021322409259241 -1.8318644962706507 -1.5707605520831507 3.097872495651245 0.5900078415870667 0.04356887936592102 -0.05529163405299187 0.013443179428577423 0.0009691891027614474 0.5894016027450562 1 True False
1688.004 4.696300506591797 -1.239108608370163 1.499634091054098 -1.8312446079649867 -1.570801083241598 3.1255197525024414 0.5237216949462891 0.03806019946932793 -0.05077681317925453 0.011419301852583885 0.0005844208644703031 0.5172660946846008 1 True False
1688.0539999999999 4.720454692840576 -1.2373607915690918 1.4972012678729456 -1.8307401142516078 -1.5707686583148401 3.1495330333709717 0.4549061357975006 0.032439760863780975 -0.04479143023490906 0.010298613458871841 -2.443874291202519e-05 0.467581182718277 1 True False
1688.1039999999998 4.741154670715332 -1.235750214462616 1.4952266852008265 -1.8302694759764613 -1.5707686583148401 3.170387029647827 0.38371995091438293 0.027642499655485153 -0.03598204627633095 0.009757316671311855 -3.712249652351173e-24 0.37900015711784363 1 True False
1688.154 4.758339881896973 -1.2346000236323853 1.493624512349264 -1.829937597314352 -1.5708044211017054 3.187584400177002 0.3085692524909973 0.023973632603883743 -0.028888093307614326 0.007632123306393623 -7.539746729889885e-05 0.3104342520236969 1 True False
1688.204 4.7721848487854 -1.2335170072368165 1.4923542181598108 -1.8296553097166957 -1.570784870778219 3.201333522796631 0.24042896926403046 0.017404424026608467 -0.025263749063014984 0.0036715155001729727 6.956340885266865e-12 0.2436739057302475 1 True False
1688.254 4.7823309898376465 -1.2327916187099 1.4912741819964808 -1.8293606243529261 -1.5708087126361292 3.2115697860717773 0.17085249722003937 0.012601366266608238 -0.018110821023583412 0.005304674617946148 1.0566698335078348e-30 0.1758352667093277 1 True False
1688.3039999999999 4.788989067077637 -1.2323122185519715 1.4905980269061487 -1.8291813335814417 -1.570784870778219 3.2183566093444824 0.10279708355665207 0.00618739053606987 -0.010832449421286583 0.004061036743223667 0.0 0.1042926162481308 1 True False
1688.3539999999998 4.792298316955566 -1.232170359497406 1.4903677145587366 -1.8290783367552699 -1.5707967917071741 3.2216134071350098 0.03135201334953308 0.0015359673416242003 -0.0011966616148129106 0.001093209139071405 0.0 0.032536957412958145 1 True False
1688.404 4.792562961578369 -1.2318506401828309 1.4906023184405726 -1.8296472034850062 -1.5708325544940394 3.221822500228882 -0.000982128782197833 0.020980702713131905 0.02114345319569111 -0.03090415522456169 7.874693255871534e-05 -0.0003109742538072169 1 True False
1688.454 4.792614936828613 -1.2303974789432068 1.4928959051715296 -1.8333856068053187 -1.5707767645465296 3.221890926361084 -0.00011801483924500644 0.03501752391457558 0.06822405755519867 -0.12259415537118912 4.880724736722186e-05 0.000682234182022512 1 True False
1688.504 4.792640686035156 -1.2280733448318024 1.4976461569415491 -1.8405457935728968 -1.5708487669574183 3.221890926361084 6.626347021665424e-05 0.0612872950732708 0.12288938462734222 -0.19007866084575653 4.363064726931043e-05 0.00041207383037544787 1 True False
1688.5539999999999 4.792623043060303 -1.2244675320437928 1.5048883597003382 -1.8512522182860316 -1.5708044211017054 3.2219316959381104 0.0011071576736867428 0.08655226975679398 0.16562679409980774 -0.24370035529136658 4.143448677496053e-05 0.0002857850049622357 1 True False
1688.6039999999998 4.792705059051514 -1.2195702356151124 1.5145071188556116 -1.865457674066061 -1.5708406607257288 3.2218945026397705 0.0006497849244624376 0.10682747513055801 0.2141469120979309 -0.32145819067955017 1.7780451994028937e-18 0.00014345756790135056 1 True False
1688.654 4.7927374839782715 -1.2136990886977692 1.5261099974261683 -1.883141656915182 -1.570772949849264 3.2218987941741943 0.0002524381270632148 0.12889136373996735 0.2562466859817505 -0.3907252252101898 2.700853243413972e-37 9.143458737526089e-05 1 True False
1688.704 4.792733192443848 -1.2066275042346497 1.5402892271624964 -1.904429098168844 -1.5708168188678187 3.221952199935913 0.00019658335077110678 0.15341255068778992 0.2994139790534973 -0.4621124565601349 0.0 1.6165131455636583e-07 1 True False
1688.754 4.792691230773926 -1.1982750755599518 1.5565608183490198 -1.928953310052389 -1.5707724730121058 3.2219316959381104 0.00015033912495709956 0.17786075174808502 0.3504731059074402 -0.5269696116447449 0.0 -0.0002539660199545324 1 True False
1688.8039999999999 4.7927422523498535 -1.189178244476654 1.574350659047262 -1.9556366405882777 -1.5707967917071741 3.221881866455078 0.00011525964509928599 0.1701844334602356 0.3368802070617676 -0.49767619371414185 2.2012530687121057e-11 -2.2158840294748964e-22 1 True False
1688.8539999999998 4.792731285095215 -1.1813082855990906 1.5896285215960901 -1.9792667828001917 -1.5708091894732874 3.2219228744506836 0.00011771890422096476 0.14188694953918457 0.29012444615364075 -0.4358704686164856 3.343709291478976e-30 -3.3659189113082106e-41 1 True False
1688.904 4.792691230773926 -1.1745245915702363 1.6030834356891077 -1.9993707142271937 -1.5708487669574183 3.2219109535217285 7.61934497859329e-05 0.12855492532253265 0.2460915595293045 -0.370139479637146 0.0 -0.0 1 True False
1688.954 4.792740345001221 -1.1689743262580414 1.6139305273639124 -2.016045709649557 -1.5707843939410608 3.2219183444976807 -6.408632907550782e-05 0.09780992567539215 0.19556517899036407 -0.29638203978538513 0.0 -0.0 1 True False
1689.004 4.792721271514893 -1.1644320648959656 1.6226385275470179 -2.0290962658324183 -1.570801083241598 3.2218990325927734 -8.630176852237251e-41 0.08306901156902313 0.15610703825950623 -0.23824015259742737 0.0 -0.0 1 True False
1689.0539999999999 4.792686939239502 -1.1612283152392884 1.6289852301227015 -2.0387398205199183 -1.5708044211017054 3.2219152450561523 0.0 0.053704649209976196 0.1092706024646759 -0.15389017760753632 0.0 2.252382529377428e-07 1 True False
1689.3039999999999 4.792694568634033 -1.1582773488811036 1.6350305716144007 -2.0476280651488246 -1.5708006064044397 3.2219033241271973 0.0 0.00025521338102407753 6.379131082212552e-05 -2.8753072911058553e-05 0.0 0.0 1 True False
1689.3539999999998 4.792733192443848 -1.1581784945777436 1.6350262800799769 -2.0476042232909144 -1.5708006064044397 3.2218451499938965 0.0 0.0003345576114952564 0.0002969953347928822 -2.898468119383324e-05 0.0 0.0 1 True False
1689.404 4.7927775382995605 -1.1582133036902924 1.6350286642657679 -2.0476843319334925 -1.5707810560809534 3.221935749053955 0.0 0.0005578285199590027 0.00035959077649749815 -5.330617126504256e-22 0.0 0.0 1 True False
1689.454 4.7927165031433105 -1.1581635636142273 1.634986702595846 -2.0476204357542933 -1.5708330313311976 3.2218947410583496 0.0 0.00018914518295787275 0.00033190788235515356 -9.175261766358744e-06 0.0 0.0 1 True False
1689.504 4.792707920074463 -1.158238725071289 1.6350329558001917 -2.047680517236227 -1.5708325544940394 3.221924066543579 0.0 0.00012258338392712176 0.00022839293524157256 -1.3937245402494276e-24 1.919133930599297e-16 0.0 1 True False
1689.5539999999999 4.792703151702881 -1.15817545474086 1.6350730101214808 -2.0477005443968714 -1.5708172957049769 3.221890449523926 0.0 8.750674896873534e-05 0.00012674203026108444 -2.1159606811304738e-43 2.915169453811951e-35 0.0 1 True False
1689.6039999999998 4.792703628540039 -1.158234105711319 1.6351097265826624 -2.047692438165182 -1.570824925099508 3.221951961517334 0.0 7.265683962032199e-05 9.318610682385042e-05 -6.0294292779872194e-05 0.0 0.0 1 True False
1689.654 4.792691707611084 -1.1581843954375763 1.6351097265826624 -2.04766382793569 -1.5708044211017054 3.2219607830047607 0.0 3.38181562256068e-05 3.3876975180646696e-07 -6.504414628433208e-12 0.0 0.0 1 True False
1689.704 4.792741775512695 -1.1582230490497132 1.6350653807269495 -2.0476323566832484 -1.5707767645465296 3.221919536590576 0.0 6.634320220373098e-34 7.9716116397632e-37 -9.88021997854842e-31 0.0 0.0 1 True False
1689.754 4.792719841003418 -1.1582550269416352 1.6350849310504358 -2.047664304772848 -1.5708172957049769 3.22194766998291 -5.743525274539497e-17 -9.530432180326898e-06 0.0 -0.0 0.0 0.0 1 True False
1689.8039999999999 4.792728424072266 -1.1581889551929017 1.6350892225848597 -2.0476485691466273 -1.57084829012026 3.2219152450561523 0.0 -7.952905653328222e-25 0.0 -5.269922692674456e-11 0.0 0.0 1 True False
1689.8539999999998 4.792740345001221 -1.1581443709186097 1.635108772908346 -2.0476800403990687 -1.570728603993551 3.221972703933716 0.0 0.0 0.0 -8.005023994184481e-30 0.0 0.0 1 True False
1689.904 4.792682647705078 -1.1581652027419587 1.635064427052633 -2.047676225701803 -1.5707572142230433 3.221944570541382 0.0 0.0 0.0 -0.0 0.0 0.0 1 True False
1689.954 4.7927327156066895 -1.1581711930087586 1.6350730101214808 -2.047676225701803 -1.5707810560809534 3.2219152450561523 0.0 0.0 0.0 -0.0 0.0 0.0 1 True False
1690.004 4.792696952819824 -1.1582267147353669 1.6350362936602991 -2.047676225701803 -1.5708048979388636 3.2218990325927734 0.0 0.0 0.0 -0.0 0.0 0.0 1 True False
1690.0539999999999 4.7926716804504395 -1.1581844550422211 1.6351011435138147 -2.047691961328024 -1.5707290808307093 3.2219033241271973 0.0 0.0 0.0 -8.05997453566347e-14 -0.0007031292770989239 0.0 1 True False
1690.1039999999998 4.792715549468994 -1.1581933957389374 1.6350763479815882 -2.0476843319334925 -1.5707929770099085 3.2218990325927734 0.0 -2.876321819246937e-36 -1.854460921311249e-24 -4.4693770178128034e-05 0.0005659229937009513 6.091067461966304e-06 1 True False
1690.154 4.792707920074463 -1.1582177442363282 1.635068718587057 -2.047664304772848 -1.570829216633932 3.2219033241271973 0.0 0.0 -0.0 -1.993508885789197e-05 -1.4522039126774189e-09 9.252346425654153e-25 1 True False
1690.204 4.792757987976074 -1.1581844550422211 1.635064427052633 -2.047716280023092 -1.5707686583148401 3.2219347953796387 0.0 0.0 -0.0 -1.2829920706280973e-05 -2.205901658179079e-28 1.401298464324817e-43 1 True False
1690.254 4.792684078216553 -1.1582398277572175 1.6350610891925257 -2.047732492486471 -1.570756737385885 3.221902370452881 0.0 0.0 -0.0 -2.6459054947025606e-09 -0.0 0.0 1 False False
1690.3039999999999 4.792724132537842 -1.1581978064826508 1.6351216475116175 -2.0476561985411585 -1.5708044211017054 3.22194766998291 0.0 0.0 -0.0 -4.019135811870496e-28 -0.0 0.0 1 False False
1690.3539999999998 4.7926926612854 -1.158111886387207 1.635096851979391 -2.04772486309194 -1.5708373228656214 3.2219347953796387 0.0 0.0 -0.0 -0.0 8.569351339637876e-10 0.0 1 False False
1690.404 4.792703628540039 -1.1581401091865082 1.635096851979391 -2.0477048359312953 -1.570784870778219 3.2219033241271973 0.0 0.0 -0.0 -0.0 1.3016862159740217e-28 0.0 1 False False
1690.454 4.792679786682129 -1.1581652027419587 1.635096851979391 -2.047660013238424 -1.57074481645693 3.2218990325927734 0.0 0.0 -0.0 -0.0 0.0 0.0 1 False False
1690.504 4.792719841003418 -1.1582502883723755 1.6350849310504358 -2.0477286777892054 -1.5707605520831507 3.2219109535217285 0.0 0.0 -0.0 -0.0 0.0 0.0 1 False False
1690.5539999999999 4.792781352996826 -1.1582340163043519 1.635063950215475 -2.0477167568602503 -1.5708416144000452 3.221935749053955 0.0 0.0 -0.0 -0.0 0.0 0.0 1 False False
1690.6039999999998 4.792703628540039 -1.1581978064826508 1.6350939909564417 -2.047664304772848 -1.570756737385885 3.221874713897705 0.0 0.0 -5.0398710982335615e-08 -0.0 0.0 0.0 1 False False
1690.654 4.792691707611084 -1.1582592588714142 1.6350849310504358 -2.047676225701803 -1.5708168188678187 3.2218573093414307 0.0 0.0 -1.1859342485892617e-37 -0.0 0.0 0.0 1 False False
1690.704 4.792712211608887 -1.1581771236709137 1.635092560444967 -2.0476962528624476 -1.570857350026266 3.221890449523926 0.0 -3.07799861631392e-17 -0.0 -0.0 0.0 0.0 1 False False
1690.754 4.792695999145508 -1.1582177442363282 1.635019604359762 -2.047688146630758 -1.570813004170553 3.221870183944702 0.0 4.6845407662378635e-42 -0.0 -0.0 0.0 0.0 1 False False
1690.8039999999999 4.792728424072266 -1.1581934255412598 1.6350401083575647 -2.0476843319334925 -1.570801083241598 3.2219390869140625 0.0 0.0 -0.0 -0.0 0.0 0.0 1 False False
1690.8539999999998 4.792720794677734 -1.1581771534732361 1.6350939909564417 -2.0476681194701136 -1.5707886854754847 3.2218573093414307 0.0 0.0 -0.0 -0.0 0.0 0.0 1 False False
1690.904 4.7927327156066895 -1.1582064491561432 1.6350939909564417 -2.0476800403990687 -1.5708168188678187 3.221940279006958 0.0 0.0 -0.0 -0.0 0.0 0.0 1 False False
1690.954 4.792731761932373 -1.158212201004364 1.6350982824908655 -2.047692438165182 -1.570772949849264 3.221886396408081 0.0 0.0 -1.8923071196180713e-21 -0.0 0.0 -3.2723453387006884e-06 1 False False
1691.004 4.792623519897461 -1.1582516592792054 1.6351011435138147 -2.0477048359312953 -1.5707767645465296 3.221928358078003 0.0 0.0 -0.0 -0.0 0.0 -0.0003760855470318347 1 False False
1691.0539999999999 4.792707920074463 -1.1582472187331696 1.635080639516012 -2.047704359094137 -1.5708168188678187 3.221951961517334 0.0 0.0 -0.0 -0.0 -4.676523429536972e-16 -0.00023030585725791752 1 False False
1691.1039999999998 4.792695999145508 -1.1581891042045136 1.6350896994220179 -2.047725339929098 -1.570784870778219 3.221924066543579 0.0 0.0 -0.0 -0.0 -7.103653559094426e-35 -3.759905954481368e-22 1 False False
1691.154 4.79268741607666 -1.1586407584002991 1.634299103413717 -2.0463434658446253 -1.570784870778219 3.221890449523926 0.0 -0.01958659663796425 -0.03998839482665062 0.05911537632346153 -0.0 -5.711272151048657e-41 1 False False
1691.204 4.792748928070068 -1.16004832208667 1.6312573591815394 -2.041676183740133 -1.5707724730121058 3.2219078540802 0.0 -0.043227724730968475 -0.07912047207355499 0.12872429192066193 -0.0 -0.0 1 False False
1691.254 4.7927165031433105 -1.162925974731781 1.6255324522601526 -2.0335151157774867 -1.5708048979388636 3.2219107151031494 0.0 -0.06918910145759583 -0.13584575057029724 0.19467565417289734 -0.0 -0.0 1 False False
1691.3039999999999 4.7927446365356445 -1.166874961262085 1.6178458372699183 -2.0216886005797328 -1.5707925001727503 3.221881866455078 0.0 -0.08843651413917542 -0.17088288068771362 0.26188287138938904 -0.0 -0.0 1 False False
1691.3539999999998 4.792708873748779 -1.1721275013736268 1.6077516714679163 -2.006502767602438 -1.5707524458514612 3.2219436168670654 0.0 -0.11591942608356476 -0.22711056470870972 0.3382491171360016 -0.0 -0.0 1 False False
1691.404 4.792761325836182 -1.1784187120250245 1.595321003590719 -1.987734933892721 -1.5707686583148401 3.221952438354492 0.0 -0.14028766751289368 -0.26934880018234253 0.4035244286060333 -0.0 -0.0 1 False False
1691.454 4.792700290679932 -1.1859585505774994 1.5806377569781702 -1.9654394588866175 -1.5707767645465296 3.2219107151031494 0.0 -0.15916118025779724 -0.31565868854522705 0.4777854084968567 -0.0 -0.0 1 False False
1691.504 4.792721271514893 -1.1946708422950287 1.5634635130511683 -1.9399014912047328 -1.570801083241598 3.2219316959381104 0.0 -0.18556101620197296 -0.36640411615371704 0.5559946894645691 -0.0 -0.0 1 False False
1691.5539999999999 4.7927165031433105 -1.2033059161952515 1.5463836828814905 -1.9137827358641566 -1.5707686583148401 3.221881866455078 0.0 -0.16169032454490662 -0.3169527053833008 0.49262863397598267 -0.0 -0.0 1 False False
1691.6039999999998 4.7927165031433105 -1.211052106027939 1.5313852469073694 -1.8912073574461878 -1.5708091894732874 3.2219197750091553 0.0 -0.147100567817688 -0.2833353281021118 0.41780370473861694 -0.0 -0.0 1 False False
1691.654 4.792724132537842 -1.2174241703799744 1.5189841429339808 -1.872145792047018 -1.5707805792437952 3.2218945026397705 0.0 -0.11476685851812363 -0.23272062838077545 0.35852670669555664 -0.0 -0.0 1 False False
1691.704 4.792691230773926 -1.2226589185050507 1.5085213820086878 -1.8565112553038539 -1.5708211104022425 3.221952438354492 0.0 -0.09169730544090271 -0.18308988213539124 0.27865445613861084 -0.0 -0.0 1 False False
1691.754 4.79279899597168 -1.2267620128444214 1.5004032293902796 -1.8444577656187953 -1.570784870778219 3.2219316959381104 0.0 -0.07144932448863983 -0.13959527015686035 0.2140713334083557 -0.0 -0.0 1 False False
1691.8039999999999 4.792707920074463 -1.2295329433730622 1.4949019590960901 -1.8357874355711878 -1.5707967917071741 3.2218685150146484 0.0 -0.04771660268306732 -0.09210426360368729 0.13288114964962006 -0.0 -0.0 1 False False
1691.8539999999998 4.792686939239502 -1.2314018172076722 1.4915922323810022 -1.8305708370604457 -1.5708487669574183 3.2219152450561523 0.0 -0.023524021729826927 -0.04402398690581322 0.06459204852581024 -0.0 -0.0 1 False False
1691.904 4.792707920074463 -1.2319406133941193 1.4902942816363733 -1.82924284557485 -1.570801083241598 3.2219078540802 0.0 0.0003362850984558463 -5.818301360704936e-06 -0.0047933063469827175 -0.0 -0.0 1 False False
1691.954 4.792707920074463 -1.2319481533816834 1.4902809301959437 -1.8291775188841761 -1.5708168188678187 3.2218899726867676 0.0 5.050326205412875e-14 -0.000980716897174716 0.00019840466848108917 -0.0 -0.0 1 False False
1692.004 4.792695999145508 -1.231928603058197 1.4903462568866175 -1.8291775188841761 -1.570784870778219 3.2219078540802 0.0 0.0 -0.0007438743487000465 0.0005804477259516716 -0.0 -0.0 1 False False
1692.0539999999999 4.792728424072266 -1.2319330138019104 1.4903438727008265 -1.8290859661498011 -1.5708368460284632 3.221935987472534 0.0 -0.0002475718501955271 -0.000290796859189868 0.000892775016836822 -0.0 -0.0 1 False False
1692.1039999999998 4.792705059051514 -1.2319080990603943 1.4903062025653284 -1.8290535412230433 -1.5707724730121058 3.2218987941741943 0.0 -0.0004339668375905603 -0.00034785992465913296 0.0008591153891757131 -0.0 -0.0 1 False False
1692.154 4.792707920074463 -1.2319601339152833 1.490314785634176 -1.82910217861318 -1.5707967917071741 3.22196888923645 0.0 -0.00027967337518930435 -0.000273052224656567 0.0002368379064137116 -0.0 -0.0 1 False False
1692.204 4.792734622955322 -1.2319438618472596 1.490274731312887 -1.8290864429869593 -1.5707886854754847 3.2218728065490723 0.0 -0.00018970080418512225 -0.0001735579571686685 0.00013878663594368845 -0.0 -0.0 1 False False
1692.254 4.7927374839782715 -1.2319438618472596 1.4902375380145472 -1.829074045220846 -1.570813004170553 3.221935987472534 0.0 -0.0001651105412747711 -8.14270242699422e-05 8.949445327743888e-05 -0.0 -0.0 1 False False
1692.3039999999999 4.792700290679932 -1.231951282625534 1.490274731312887 -1.829050680200094 -1.5708487669574183 3.2219152450561523 0.0 -0.00011570742208277807 -6.727776781190187e-05 1.2008907646077205e-08 -0.0 -0.0 1 False False
1692.3539999999998 4.7927093505859375 -1.2320094865611573 1.4902761618243616 -1.8290659389891566 -1.5707529226886194 3.2219197750091553 0.0 -8.455420174868777e-05 -1.9721705646255306e-22 1.8241561024060368e-27 -0.0 -0.0 1 False False
1692.404 4.792695999145508 -1.2319513422301789 1.4902179876910608 -1.8290778599181117 -1.5708168188678187 3.2219107151031494 0.0 -7.089492282830179e-05 -0.0 0.0 -0.0 -0.0 1 False False
1692.454 4.7926836013793945 -1.2319920522025605 1.490258518849508 -1.8291336498656214 -1.5707648436175745 3.2219390869140625 0.0 0.0 -0.0 0.0 -0.0 -0.0 1 False False
1692.504 4.792733192443848 -1.2320094865611573 1.4902332464801233 -1.8290659389891566 -1.5707925001727503 3.2219390869140625 0.0 0.0 -0.0 0.0 -0.0 -0.0 1 False False
1692.5539999999999 4.792728424072266 -1.2320332092097779 1.490286652241842 -1.8290864429869593 -1.5707967917071741 3.221924304962158 0.0 0.0 -0.0 0.0 -0.0 -0.0 1 False False
1692.6039999999998 4.792684078216553 -1.2319682103446503 1.490258518849508 -1.8290544948973597 -1.5707724730121058 3.2219197750091553 0.0 0.0 -0.0 0.0 -0.0 -0.0 1 False False
1692.654 4.792728424072266 -1.2319513124278565 1.490258518849508 -1.829050680200094 -1.570756737385885 3.2218945026397705 0.0 0.0 -0.0 0.0 -0.0 -0.0 1 False False
1692.704 4.7927093505859375 -1.2319887739470978 1.4902508894549769 -1.8290864429869593 -1.5708168188678187 3.221940755844116 0.0 0.0 -0.0 0.0 -0.0 -0.0 1 False False
1692.754 4.792740345001221 -1.2320331198028107 1.4902833143817347 -1.8291102848448695 -1.570784870778219 3.221853494644165 0.0 0.0 -0.0 0.0 -0.0 -0.0 1 False False
1692.8039999999999 4.792754173278809 -1.2319682103446503 1.4902790228473108 -1.8290697536864222 -1.570813004170553 3.22186541557312 0.0 0.0 -0.0 0.0 -0.0 -0.0 1 False False
1692.8539999999998 4.792688369750977 -1.2320288580707093 1.4902551809894007 -1.8290859661498011 -1.5707686583148401 3.221924304962158 0.0 0.0 -0.0 0.0 -0.0 -0.0 1 False False
1692.904 4.792700290679932 -1.2319758397391816 1.4902213255511683 -1.8290659389891566 -1.5707686583148401 3.221869945526123 0.0 0.0 -0.0 5.515802481426135e-09 -0.0 -0.0 1 False False
1692.954 4.792712211608887 -1.2320094865611573 1.490290943776266 -1.829062124291891 -1.5708168188678187 3.2219078540802 0.0 5.5710715969325975e-05 -0.0 8.378516518848649e-28 -0.0 -0.0 1 False False
1693.004 4.792721271514893 -1.2319920522025605 1.490246597920553 -1.8290659389891566 -1.5707805792437952 3.221952438354492 0.0 2.1868068870389834e-05 -0.0 0.0 -0.0 -0.0 1 False False
1693.0539999999999 4.792695999145508 -1.2319801312736054 1.4902551809894007 -1.8291102848448695 -1.5707891623126429 3.221886396408081 0.0 1.3604274499812163e-05 -0.0 0.0 -0.0 -0.0 1 False False
1693.1039999999998 4.792691230773926 -1.2319887739470978 1.490274731312887 -1.8290659389891566 -1.570813004170553 3.2219436168670654 0.0 9.806153684621677e-07 -8.645257295682973e-23 0.0 -0.0 -0.0 1 False False
1693.154 4.79276180267334 -1.2319844526103516 1.4902790228473108 -1.8290983639159144 -1.5708373228656214 3.221952438354492 0.0 0.0 -0.0 0.0 -0.0 -0.0 1 False False
1693.204 4.792670249938965 -1.2319383186152955 1.490274731312887 -1.8290425739684046 -1.570813004170553 3.2218856811523438 0.0 0.0 -0.0 0.0 -0.0 -0.0 1 False False
1693.254 4.792700290679932 -1.2319758099368592 1.4902265707599085 -1.829074045220846 -1.5707443396197718 3.2219197750091553 0.0 0.0 -0.0 0.0 -0.0 -0.0 1 False False
1693.3039999999999 4.792644500732422 -1.2319350701621552 1.4902423063861292 -1.8290587864317835 -1.5707967917071741 3.2218775749206543 0.0 0.0 -0.0 0.0 -0.0 -0.0 1 False False
1693.3539999999998 4.7927165031433105 -1.2319833797267457 1.4902342001544397 -1.829074045220846 -1.5708048979388636 3.2219271659851074 0.0 0.0 -0.0 0.0 -0.0 -0.0 1 False False
1693.404 4.792679309844971 -1.2319351297668 1.4902952353106897 -1.8290659389891566 -1.5707886854754847 3.221935987472534 0.0 0.0 -0.0 0.0 -0.0 -0.0 1 False False
1693.454 4.792724132537842 -1.2319350701621552 1.4902713934527796 -1.8290616474547328 -1.5707724730121058 3.2218990325927734 0.0 0.0 -0.0 0.0 -0.0 -0.0 1 False False
1693.504 4.792695999145508 -1.2320332092097779 1.4902294317828577 -1.8290420971312464 -1.5707686583148401 3.221935987472534 0.0 0.0 -0.0 0.0 -0.0 -0.0 1 False False
1693.5539999999999 4.792700290679932 -1.2319844526103516 1.490307633076803 -1.8290659389891566 -1.5708048979388636 3.2219033241271973 0.0 0.0 -0.0 0.0 -0.0 -0.0 1 False False
1693.6039999999998 4.792724132537842 -1.232000694876053 1.4902790228473108 -1.8290864429869593 -1.5707929770099085 3.2218902111053467 0.0 0.0 -0.0 0.0 -0.0 -0.0 1 False False
1693.654 4.792679309844971 -1.2319801312736054 1.4902294317828577 -1.8290783367552699 -1.5708125273333948 3.221890926361084 0.0 0.0 -0.0 0.0 -0.0 -0.0 1 False False
1693.704 4.792700290679932 -1.2320039433291932 1.4902718702899378 -1.8290864429869593 -1.5707967917071741 3.2219271659851074 0.0 4.055933115224587e-20 -0.0 0.0 -0.0 -0.0 1 False False
