Andreas691667/Digital_Twin_UR/src/robot_connection_manager/robot_output/E2_joint5_2_robot_output.csv
timestamp actual_q_0 actual_q_1 actual_q_2 actual_q_3 actual_q_4 actual_q_5 actual_qd_0 actual_qd_1 actual_qd_2 actual_qd_3 actual_qd_4 actual_qd_5 safety_status output_bit_register_65 output_bit_register_66
2451.644 3.712062358856201 -0.8254750531962891 0.8429763952838343 -1.5883051357665003 -1.5707967917071741 2.141291618347168 0.0 0.0 0.0 -0.0 -0.0 0.0 1 False False
2451.694 3.7120697498321533 -0.8255453866771241 0.8429673353778284 -1.5882607899107875 -1.5708487669574183 2.1413087844848633 0.0 0.0 0.0 -0.0 -0.0 0.0 1 False False
2451.7439999999997 3.7121071815490723 -0.8254993718913575 0.8429630438434046 -1.5882851086058558 -1.5708168188678187 2.141214609146118 0.0 0.0 0.0 -0.0 -0.0 0.0 1 False False
2451.794 3.712066888809204 -0.8254993718913575 0.8429721037494105 -1.5882774792113246 -1.570784870778219 2.1413257122039795 0.0 0.0 0.0 -0.0 -0.0 0.0 1 False False
2451.844 3.7120535373687744 -0.8254905504039307 0.8429964224444788 -1.5883370838561 -1.5708330313311976 2.141291618347168 0.0 0.0 0.0 -0.0 -0.0 0.0 1 False False
2451.894 3.7120862007141113 -0.8255083721927186 0.8429978529559534 -1.5882774792113246 -1.5707891623126429 2.141267776489258 0.0 0.0 0.0 -0.0 -0.0 0.0 1 False False
2451.944 3.712078809738159 -0.8255202931216736 0.8429392019854944 -1.588280817071432 -1.5707691351519983 2.141312837600708 0.0 0.0 0.0 -0.0 -0.0 0.0 1 False False
2451.9939999999997 3.7120654582977295 -0.8254423898509522 0.8429964224444788 -1.588280817071432 -1.570784870778219 2.141267776489258 0.0 0.0 0.0 -0.0 -0.0 0.0 1 False False
2452.044 3.712127923965454 -0.8254736226848145 0.8430007139789026 -1.588269372979635 -1.570772949849264 2.14125919342041 0.0 0.0 0.0 -0.0 -0.0 0.0 1 False False
2452.094 3.712078809738159 -0.8254869741252442 0.8429606596576136 -1.5882493458189906 -1.570784870778219 2.1412665843963623 0.0 0.0 0.0 -0.0 -0.0 0.0 1 False False
2452.144 3.712066888809204 -0.8255529564670105 0.8430126349078577 -1.588320871392721 -1.5708330313311976 2.1412429809570312 0.0 0.0 0.0 -0.0 -0.0 0.0 1 False False
2452.194 3.7121026515960693 -0.8254468601993104 0.8430264631854456 -1.588245531121725 -1.570824925099508 2.141317129135132 0.0 0.0 0.0 -0.0 -0.0 0.0 1 False False
2452.2439999999997 3.712071418762207 -0.8254905504039307 0.8429935614215296 -1.5882851086058558 -1.5707929770099085 2.141270875930786 0.0 0.0 0.0 -0.0 -0.0 0.0 1 False False
2452.294 3.7120249271392822 -0.825457291012146 0.8429630438434046 -1.5883094273009242 -1.5707929770099085 2.141263484954834 0.0 0.0 0.0 -0.0 -0.0 0.0 1 False False
2452.344 3.7120862007141113 -0.8254202169230958 0.8429515997516077 -1.5883127651610316 -1.5707452932940882 2.141251564025879 0.0 0.0 0.0 -0.0 -0.0 0.0 1 False False
2452.394 3.71209979057312 -0.8255068820765992 0.8429673353778284 -1.5883127651610316 -1.5707691351519983 2.141247272491455 0.0 0.0 0.0 -0.0 -0.0 0.0 1 False False
2452.444 3.7120697498321533 -0.8255068820765992 0.8429392019854944 -1.5882774792113246 -1.570829216633932 2.141231060028076 0.0 0.0 0.0 -0.0 -0.0 0.0 1 False False
2452.4939999999997 3.7120203971862793 -0.8254735630801697 0.8429935614215296 -1.5883165798582972 -1.570772949849264 2.141295909881592 0.0 0.0 0.0 -0.0 -0.0 0.0 1 False False
2452.544 3.7120532989501953 -0.825473503475525 0.8430007139789026 -1.5882650814452113 -1.5708048979388636 2.141295909881592 0.0 0.0 0.0 -0.0 -0.0 0.0 1 False False
2452.594 3.712078809738159 -0.8254779142192383 0.8429845015155237 -1.5882889233031214 -1.570784870778219 2.141279697418213 0.0 0.0 0.0 -0.0 -0.0 0.0 1 False False
2452.644 3.7120532989501953 -0.825466052894928 0.8430140654193323 -1.5883289776244105 -1.5708487669574183 2.1412839889526367 0.0 0.0 0.0 -0.0 -0.0 0.0 1 False False
2452.694 3.7120816707611084 -0.8254483503154297 0.8429144064532679 -1.588269372979635 -1.570829216633932 2.1412839889526367 0.0 0.0 0.0 -0.0 -0.0 0.0 1 False False
2452.7439999999997 3.712066888809204 -0.8254869741252442 0.8429754416095179 -1.5883251629271449 -1.570772949849264 2.141275405883789 0.0 0.0 0.0 -0.0 -0.0 0.0 1 False False
2452.794 3.712095260620117 -0.8254980009845276 0.8430140654193323 -1.588269372979635 -1.57074481645693 2.1413087844848633 0.0 0.0 0.0 -0.0 -0.0 0.0 1 False False
2452.844 3.7120532989501953 -0.825466052894928 0.8429563681231897 -1.5883251629271449 -1.5708416144000452 2.141287088394165 0.0 0.0 0.0 -0.0 -0.0 0.0 1 False False
2452.894 3.712041139602661 -0.8254779142192383 0.8429887930499476 -1.588280817071432 -1.57074481645693 2.141267776489258 0.0 0.0 0.0 -0.0 -0.0 0.0 1 False False
2452.944 3.7121071815490723 -0.8255395454219361 0.8429887930499476 -1.588313718835348 -1.5708048979388636 2.1412384510040283 0.0 0.0 0.0 -0.0 -0.0 0.0 1 False False
2452.9939999999997 3.7120907306671143 -0.8255410951427002 0.8429935614215296 -1.5882774792113246 -1.5707605520831507 2.141231060028076 0.0 0.0 0.0 -0.0 -0.0 0.0 1 False False
2453.044 3.712066888809204 -0.8254659932902833 0.8429678122149866 -1.5883051357665003 -1.5707767645465296 2.1412267684936523 0.0 0.0 0.0 -0.0 -0.0 0.0 1 False False
2453.094 3.7120907306671143 -0.8254706424525757 0.8429935614215296 -1.5883413753905238 -1.5707605520831507 2.1413214206695557 0.0 0.0 0.0 -0.0 -0.0 0.0 1 False False
2453.144 3.712111473083496 -0.8254571718028565 0.8429887930499476 -1.588268896142477 -1.5707319418536585 2.141251564025879 0.0 0.0 0.0 -0.0 -0.0 0.0 1 False False
2453.194 3.712066888809204 -0.8255366843989869 0.8429845015155237 -1.5883056126036585 -1.570813004170553 2.141291618347168 0.0 0.0 0.0 -0.0 -0.0 0.0 1 False False
2453.2439999999997 3.712078809738159 -0.8254661124995728 0.8430302778827112 -1.5882331333556117 -1.570784870778219 2.1413002014160156 0.0 0.0 0.0 -0.0 -0.0 0.0 1 False False
2453.294 3.7120578289031982 -0.8255203527263184 0.8429964224444788 -1.5882607899107875 -1.570784870778219 2.1412882804870605 0.0 0.0 0.0 -0.0 -0.0 0.0 1 False False
2453.344 3.712111473083496 -0.8255039614490052 0.8429396788226526 -1.5883575878539027 -1.5707805792437952 2.1413044929504395 0.0 0.0 0.0 -0.0 -0.0 0.0 1 False False
2453.394 3.712116241455078 -0.8255499762347718 0.8429964224444788 -1.5882650814452113 -1.5707767645465296 2.141279697418213 0.0 0.0 0.0 -0.0 -0.0 0.0 1 False False
2453.444 3.7121236324310303 -0.8255232137492676 0.8430259863482874 -1.5883532963194789 -1.570784870778219 2.1413581371307373 0.0 0.0 0.0 -0.0 -0.0 0.0 1 False False
2453.4939999999997 3.7120697498321533 -0.8254779142192383 0.8429587523089808 -1.5882846317686976 -1.570784870778219 2.1412839889526367 0.0 0.0 0.0 -0.0 -0.0 0.0 1 False False
2453.544 3.7120697498321533 -0.8254779738238831 0.8429477850543421 -1.5883094273009242 -1.5707529226886194 2.141317129135132 0.0 0.0 0.0 -0.0 -0.0 0.0 1 False False
2453.594 3.7120697498321533 -0.8255395454219361 0.8429396788226526 -1.5883013210692347 -1.5708087126361292 2.1412839889526367 0.0 0.0 0.0 -0.0 -0.0 0.0 1 False False
2453.644 3.7120816707611084 -0.8255068224719544 0.8429520765887659 -1.5882932148375453 -1.5707648436175745 2.1412720680236816 0.0 0.0 0.0 -0.0 -0.0 0.0 1 False False
2453.694 3.7120862007141113 -0.8254587215236207 0.8430331389056605 -1.5883094273009242 -1.5707805792437952 2.141275405883789 0.0 0.0 0.0 -0.0 -0.0 0.0 1 False False
2453.7439999999997 3.712111473083496 -0.825466052894928 0.8429635206805628 -1.5882846317686976 -1.5708048979388636 2.141317129135132 0.0 0.0 0.0 -0.0 -0.0 0.0 1 False False
2453.794 3.7121024131774902 -0.8254993718913575 0.8429806868182581 -1.5882932148375453 -1.570813004170553 2.141279697418213 0.0 0.0 0.0 -0.0 -0.0 0.0 1 False False
2453.844 3.712106943130493 -0.8254452508739014 0.8429845015155237 -1.588297029534811 -1.5708254019366663 2.1412839889526367 0.0 0.0 0.0 -0.0 -0.0 0.0 1 False False
2453.894 3.7120535373687744 -0.8255157035640259 0.8429887930499476 -1.5882731876769007 -1.5707767645465296 2.1412882804870605 0.0 0.0 0.0 -0.0 -0.0 0.0 1 False False
2453.944 3.7120580673217773 -0.825569288139679 0.8429802099810999 -1.5882846317686976 -1.5708168188678187 2.1412668228149414 0.0 0.0 0.0 -0.0 -0.0 0.0 1 False False
2453.9939999999997 3.7120039463043213 -0.8254823845675965 0.8429606596576136 -1.5882612667479457 -1.5708048979388636 2.1413092613220215 0.0 0.0 0.0 -0.0 -0.0 0.0 1 False False
2454.044 3.712045669555664 -0.8254905504039307 0.8429930845843714 -1.588320871392721 -1.5708168188678187 2.1412930488586426 0.0 0.0 0.0 -0.0 -0.0 0.0 1 False False
2454.094 3.7120819091796875 -0.8255083721927186 0.8429802099810999 -1.5882607899107875 -1.5708211104022425 2.141284227371216 0.0 0.0 0.0 -0.0 -0.0 0.0 1 False False
2454.144 3.712083101272583 -0.8254706424525757 0.8430007139789026 -1.5882932148375453 -1.5707767645465296 2.141296148300171 0.0 0.0 0.0 -0.0 -0.0 0.0 1 False False
2454.194 3.7120492458343506 -0.8255127829364319 0.8429649511920374 -1.5883618793883265 -1.5707686583148401 2.141263246536255 0.0 0.0 0.0 -0.0 -0.0 0.0 1 False False
2454.2439999999997 3.7120580673217773 -0.8254736226848145 0.8429678122149866 -1.5882650814452113 -1.570784870778219 2.141254425048828 0.0 0.0 0.0 -0.0 -0.0 0.0 1 False False
2454.294 3.7120697498321533 -0.8254906100085755 0.8430126349078577 -1.5883013210692347 -1.5708335081683558 2.141296148300171 0.0 0.0 0.0 -0.0 -0.0 0.0 1 False False
2454.344 3.7120206356048584 -0.8255854409984131 0.8429396788226526 -1.5882889233031214 -1.5707805792437952 2.1412856578826904 0.0 0.0 0.0 -0.0 -0.0 0.0 1 False False
2454.394 3.7120697498321533 -0.8254869741252442 0.8429887930499476 -1.5882169208922328 -1.5707925001727503 2.141263246536255 0.0 0.0 0.0 -0.0 -0.0 0.0 1 False False
2454.444 3.7120535373687744 -0.8254949611476441 0.8429353872882288 -1.5882817707457484 -1.5707925001727503 2.1412930488586426 0.0 0.0 0.0 -0.0 -0.0 0.0 1 False False
2454.4939999999997 3.712095022201538 -0.8255127233317872 0.8429520765887659 -1.5883127651610316 -1.5707686583148401 2.1412394046783447 0.0 0.0 0.0 -0.0 -0.0 0.0 1 False False
2454.544 3.712045669555664 -0.8254454892924805 0.8430007139789026 -1.5883175335326136 -1.5708487669574183 2.1412558555603027 0.0 0.0 0.0 -0.0 -0.0 0.0 1 False False
2454.594 3.712045907974243 -0.8254661124995728 0.8430007139789026 -1.588313718835348 -1.5707605520831507 2.141267776489258 0.0 0.0 0.0 -0.0 -0.0 0.0 1 False False
2454.644 3.712090492248535 -0.8254780334285279 0.842931095753805 -1.5882774792113246 -1.5707967917071741 2.141266107559204 0.0 0.0 0.0 -0.0 -0.0 0.0 1 False False
2454.694 3.712099313735962 -0.825454370384552 0.8429887930499476 -1.588297029534811 -1.570784870778219 2.141279697418213 0.0 0.0 0.0 -0.0 -0.0 0.0 1 False False
2454.7439999999997 3.7120580673217773 -0.8255039018443604 0.8429678122149866 -1.5883051357665003 -1.570813004170553 2.141249895095825 0.0 0.0 0.0 -0.0 -0.0 0.0 1 False False
2454.794 3.7120862007141113 -0.825454370384552 0.8429678122149866 -1.5882817707457484 -1.5707805792437952 2.141258955001831 0.0 0.0 0.0 -0.0 -0.0 0.0 1 False False
2454.844 3.7120580673217773 -0.8254661721042176 0.8429353872882288 -1.5882655582823695 -1.5708044211017054 2.14127516746521 0.0 0.0 0.0 -0.0 -0.0 0.0 1 True False
2454.894 3.712123155593872 -0.825473741894104 0.8429845015155237 -1.5883094273009242 -1.5707886854754847 2.1412765979766846 0.0 0.0 0.0 -0.0 -0.0 0.0 1 True False
2454.944 3.7120537757873535 -0.8254869741252442 0.8429520765887659 -1.5883051357665003 -1.5707605520831507 2.141329526901245 0.0 0.0 0.0 -0.0 -0.0 0.0 1 True False
2454.9939999999997 3.712045907974243 -0.8254881662181397 0.842959229146139 -1.5882774792113246 -1.570829216633932 2.141291618347168 0.0 0.0 0.0 -0.0 -0.0 0.0 1 True False
2455.044 3.7120819091796875 -0.8254736822894593 0.8429802099810999 -1.5882607899107875 -1.570784870778219 2.141242504119873 0.0 0.0 0.0 -0.0 -0.0 0.0 1 True False
2455.094 3.712062358856201 -0.825508252983429 0.8429759184466761 -1.5883451900877894 -1.5708168188678187 2.141279697418213 0.0 0.0 0.0 -0.0 -0.0 0.0 1 True False
2455.144 3.712094783782959 -0.8254693907550354 0.8429964224444788 -1.588273664514059 -1.5708048979388636 2.141284227371216 0.0 0.0 0.0 -0.0 -0.0 0.0 1 True False
2455.194 3.7120819091796875 -0.8255069416812439 0.842971150075094 -1.5883051357665003 -1.5708254019366663 2.1413204669952393 0.0 0.0 0.0 -0.0 -0.0 0.0 1 True False
2455.2439999999997 3.7120862007141113 -0.8254674834064026 0.8429439703570765 -1.5883170566954554 -1.5707686583148401 2.1412951946258545 0.0 0.0 0.0 -0.0 -0.0 0.0 1 True False
2455.294 3.7120862007141113 -0.8255126041224976 0.8429439703570765 -1.5882774792113246 -1.570801083241598 2.1412246227264404 0.0 0.0 0.0 -0.0 -0.0 0.0 1 True False
2455.344 3.7120862007141113 -0.8254499596408387 0.8429563681231897 -1.5883451900877894 -1.5707805792437952 2.1412513256073 0.0 0.0 0.0 -0.0 -0.0 1.22318135323752e-16 1 True False
2455.394 3.7120492458343506 -0.8254717749408265 0.8430007139789026 -1.5883251629271449 -1.5707648436175745 2.141284227371216 0.0 0.0 0.0 -0.0 -0.0 4.005273694929201e-07 1 True False
2455.444 3.7120494842529297 -0.8255125445178528 0.8429673353778284 -1.5883094273009242 -1.570813004170553 2.141284227371216 0.0 0.0 0.0 -0.0 -0.0 6.084020089890265e-26 1 True False
2455.4939999999997 3.7120938301086426 -0.8255156439593812 0.8429845015155237 -1.5883170566954554 -1.5708048979388636 2.141284227371216 0.0 0.0 0.0 -0.0 -0.0 9.80908925027372e-45 1 True False
2455.544 3.71415638923645 -0.8264822524837037 0.8442886511432093 -1.588815828362936 -1.5707724730121058 2.143244743347168 0.07545959204435349 -0.035761866718530655 0.05386744439601898 -0.013719407841563225 -0.0 0.07712417840957642 1 True False
2455.594 3.719613552093506 -0.8290222448161622 0.8486855665790003 -1.5902115307249964 -1.5708048979388636 2.148763656616211 0.1449851244688034 -0.07467962056398392 0.11680718511343002 -0.036523059010505676 -0.0 0.1428156942129135 1 True False
2455.644 3.728637456893921 -0.8338324588588257 0.855748478566305 -1.592743536035055 -1.5708254019366663 2.157780885696411 0.21468119323253632 -0.11265826225280762 0.17000874876976013 -0.05394600331783295 -0.0 0.21109172701835632 1 True False
2455.694 3.7410826683044434 -0.840264157657959 0.865521256123678 -1.5959373913206996 -1.570813004170553 2.170128107070923 0.27956295013427734 -0.1424921452999115 0.2205413281917572 -0.07003967463970184 5.569982749875635e-05 0.2850683927536011 1 True False
2455.7439999999997 3.7570009231567383 -0.8485180300525208 0.8779123465167444 -1.6002680263915003 -1.5707925001727503 2.1861870288848877 0.35024288296699524 -0.17949794232845306 0.27305376529693604 -0.09661924093961716 1.2862260155016575e-16 0.35058411955833435 1 True False
2455.794 3.776555299758911 -0.858451859360077 0.893045727406637 -1.6052481136717738 -1.5707972685443323 2.2055249214172363 0.4231417775154114 -0.22018763422966003 0.32820647954940796 -0.12044015526771545 1.9537805222253667e-35 0.42752474546432495 1 True False
2455.844 3.799297332763672 -0.870286301975586 0.9108412901507776 -1.6110922298827113 -1.5707925001727503 2.228597640991211 0.4918358027935028 -0.2495386153459549 0.38071396946907043 -0.12906131148338318 4.260502464603633e-05 0.48434576392173767 1 True False
2455.894 3.825773239135742 -0.8838145893863221 0.9313419500934046 -1.6182228527464808 -1.570801083241598 2.255070447921753 0.5583868026733398 -0.2898334264755249 0.4335128366947174 -0.14814673364162445 5.6901448260759935e-05 0.558113157749176 1 True False
2455.944 3.855759859085083 -0.899107889538147 0.9546340147601526 -1.6261168919005335 -1.5707805792437952 2.2849204540252686 0.6367805600166321 -0.320671409368515 0.49436014890670776 -0.17804484069347382 9.247948037227616e-05 0.6271768808364868 1 True False
2455.9939999999997 3.8890469074249268 -0.9162622851184388 0.9805267492877405 -1.6351057491698207 -1.570813004170553 2.318300247192383 0.701301634311676 -0.35813474655151367 0.5409258008003235 -0.18598288297653198 -1.8080811059917323e-05 0.6980501413345337 1 True False
2456.044 3.9259910583496094 -0.9351399701884766 1.0092399756061 -1.6448399029173792 -1.570784870778219 2.3552205562591553 0.7706090211868286 -0.3994336724281311 0.5975086092948914 -0.19859234988689423 -1.2035578038194217e-05 0.7656852602958679 1 True False
2456.094 3.966292142868042 -0.9559692901423951 1.0405662695514124 -1.6554676494994105 -1.5707767645465296 2.3954219818115234 0.8389705419540405 -0.43130630254745483 0.6566258668899536 -0.22760780155658722 -0.00010127176210517064 0.8451421856880188 1 True False
2456.144 4.010279178619385 -0.9783939880183716 1.0746501127826136 -1.666980882684225 -1.5707648436175745 2.439464807510376 0.9158347845077515 -0.4743269979953766 0.6993895173072815 -0.23923197388648987 -4.805167658551433e-19 0.9103848934173584 1 True False
2456.194 4.057634353637695 -1.002649800186493 1.111389462147848 -1.6794353924193324 -1.5707648436175745 2.4867279529571533 0.9751651287078857 -0.4974829852581024 0.762334406375885 -0.2467038631439209 -7.299058778122135e-38 0.9796260595321655 1 True False
2456.2439999999997 4.108485221862793 -1.0286331933787842 1.1509397665606897 -1.6929909191527308 -1.570740048085348 2.5377652645111084 1.0513814687728882 -0.531154215335846 0.8144449591636658 -0.276268869638443 -0.0 1.0500736236572266 1 True False
2456.294 4.160756587982178 -1.0554568332484742 1.1914227644549769 -1.7067810497679652 -1.5707772413836878 2.589887857437134 1.0473899841308594 -0.5388433337211609 0.8137001395225525 -0.26462724804878235 -0.00033858054666779935 1.0541566610336304 1 True False
2456.344 4.213165283203125 -1.0823722940734406 1.2320249716388147 -1.7206460438170375 -1.570813004170553 2.6422736644744873 1.0408694744110107 -0.5388330221176147 0.8129364848136902 -0.26920512318611145 -4.95679399265753e-22 1.0423756837844849 1 True False
2456.394 4.265580177307129 -1.109157071714737 1.2728021780597132 -1.734305044213766 -1.5707529226886194 2.6947743892669678 1.0489393472671509 -0.5378056168556213 0.8116219639778137 -0.27534201741218567 -7.529316778663675e-41 1.0450302362442017 1 True False
2456.444 4.317833423614502 -1.1361142855933686 1.3133881727801722 -1.7482382259764613 -1.5707643667804163 2.7470486164093018 1.0488102436065674 -0.5338293313980103 0.8137763738632202 -0.27195361256599426 -4.800473470822908e-05 1.0471783876419067 1 True False
2456.4939999999997 4.370218753814697 -1.1629171830466767 1.3541024366961878 -1.7620388470091761 -1.5707762877093714 2.799329996109009 1.042227864265442 -0.5366759300231934 0.8076809644699097 -0.28197842836380005 -0.00013884507643524557 1.0441813468933105 1 True False
2456.544 4.422452449798584 -1.1896005433848877 1.3948143164264124 -1.7756382427611292 -1.5707686583148401 2.8517906665802 1.0278642177581787 -0.522822380065918 0.798458456993103 -0.2560752332210541 -8.095852535916492e-05 1.0303258895874023 1 True False
2456.594 4.472157001495361 -1.215107337837555 1.4331710974322718 -1.7889067135252894 -1.570801083241598 2.901226043701172 0.9603819251060486 -0.48913535475730896 0.7509062886238098 -0.25813475251197815 -0.00041655474342405796 0.9738010168075562 1 True False
2456.644 4.518421649932861 -1.2387631398490448 1.4690592924701136 -1.801173826257223 -1.570813004170553 2.947802782058716 0.8914958834648132 -0.4582042098045349 0.6965965032577515 -0.2403610497713089 0.00013988706632517278 0.8878225088119507 1 True False
2456.694 4.561342716217041 -1.2608338755420228 1.5021913687335413 -1.8124696216978968 -1.5707767645465296 2.9904189109802246 0.8152961134910583 -0.4224351644515991 0.6376006007194519 -0.21620574593544006 4.025795119791838e-23 0.8209476470947266 1 True False
2456.7439999999997 4.600515365600586 -1.2808293563178559 1.5328457991229456 -1.8228594265379847 -1.570784870778219 3.0296638011932373 0.7551658749580383 -0.384294331073761 0.5853321552276611 -0.19665388762950897 2.407324217897598e-14 0.7631372213363647 1 True False
2456.794 4.636297702789307 -1.2991383236697693 1.5605738798724573 -1.832224508325094 -1.5708091894732874 3.0655384063720703 0.6847820281982422 -0.3513478934764862 0.5318147540092468 -0.1707676649093628 3.656730765273849e-33 0.6797666549682617 1 True False
2456.844 4.6685791015625 -1.3159508270076294 1.5857222715960901 -1.8407446346678675 -1.5707491079913538 3.0978193283081055 0.6141371726989746 -0.3115825057029724 0.4725712835788727 -0.18225528299808502 0.0 0.6126787662506104 1 True False
2456.894 4.697440147399902 -1.3305201989463349 1.608253304158346 -1.8483530483641566 -1.5707929770099085 3.126696825027466 0.5438568592071533 -0.27644386887550354 0.4223969578742981 -0.14839671552181244 0.0 0.5393017530441284 1 True False
2456.944 4.722774505615234 -1.3436712336591263 1.6275680700885218 -1.8551389179625453 -1.570784870778219 3.1519272327423096 0.47635942697525024 -0.24123172461986542 0.36676687002182007 -0.1371862143278122 2.0732876949546702e-13 0.48079365491867065 1 True False
2456.9939999999997 4.74461030960083 -1.3546735060266037 1.6447790304767054 -1.8607493839659632 -1.570801083241598 3.173678398132324 0.40293124318122864 -0.20540320873260498 0.3153465688228607 -0.11797834932804108 0.00016247817256953567 0.4038454592227936 1 True False
2457.044 4.762850284576416 -1.3641839933446427 1.658868137990133 -1.8656426868834437 -1.5708254019366663 3.1921706199645996 0.3361874520778656 -0.1708693951368332 0.2649725079536438 -0.08069794625043869 2.5182718673022464e-05 0.33288857340812683 1 True False
2457.094 4.777774810791016 -1.3717337560704728 1.6705415884601038 -1.8696018658080042 -1.5707967917071741 3.2068064212799072 0.25776129961013794 -0.13286061584949493 0.20106244087219238 -0.06632073223590851 1.734366742311977e-05 0.26927006244659424 1 True False
2457.144 4.788984298706055 -1.3776024889997025 1.679258171712057 -1.872502943078512 -1.5708211104022425 3.2183609008789062 0.1938566118478775 -0.09600246697664261 0.15304376184940338 -0.05032617226243019 1.1703503332682885e-05 0.19522567093372345 1 True False
2457.194 4.7969770431518555 -1.3815951210311432 1.6853273550616663 -1.8747860393919886 -1.5707929770099085 3.2262322902679443 0.12236502766609192 -0.06531138718128204 0.09677594155073166 -0.03772205859422684 2.195783160331699e-14 0.12286635488271713 1 True False
2457.2439999999997 4.801340103149414 -1.3838092547706147 1.688798729573385 -1.875798841516012 -1.57074481645693 3.230530023574829 0.05359330028295517 -0.024841971695423126 0.04338819533586502 -0.01443870272487402 3.335399466242992e-33 0.05583570525050163 1 True False
2457.294 4.802316188812256 -1.3842564237168808 1.6896212736712855 -1.8762017689146937 -1.5707929770099085 3.2315120697021484 0.000996085931546986 0.008555838838219643 0.017132176086306572 -0.026170480996370316 2.631546180964506e-07 -0.00017505345749668777 1 True False
2457.344 4.802267074584961 -1.3833676141551514 1.6914175192462366 -1.8787552318968714 -1.5708406607257288 3.231553792953491 0.0003611764404922724 0.028821706771850586 0.05159671604633331 -0.08838097751140594 3.3742144296411425e-05 0.0005201640306040645 1 True False
2457.394 4.80223274230957 -1.3812802743962784 1.695305649434225 -1.8850261173644007 -1.570813004170553 3.2315404415130615 0.0006121621117927134 0.059769731014966965 0.0953482910990715 -0.15473733842372894 1.741533742460888e-05 0.0005319707561284304 1 True False
2457.444 4.80230712890625 -1.3776332300952454 1.7014334837542933 -1.894449850121969 -1.5707605520831507 3.2315523624420166 0.0006171753630042076 0.08639881759881973 0.14088037610054016 -0.21550363302230835 2.347416739212349e-05 0.00024462174042128026 1 True False
2457.4939999999997 4.8022847175598145 -1.3728638005307694 1.709578816090719 -1.9076277218260707 -1.5708168188678187 3.231527090072632 0.0004456118622329086 0.10853324830532074 0.18613192439079285 -0.28743430972099304 6.771095321803436e-14 0.00016597549256403 1 True False
2457.544 4.802371501922607 -1.3666964185288926 1.7199762503253382 -1.924131532708639 -1.5707805792437952 3.2316019535064697 0.00014029837620910257 0.13672633469104767 0.23160071671009064 -0.37299802899360657 1.0285305205994327e-32 9.788991155801341e-05 1 True False
2457.594 4.8023176193237305 -1.359388456945755 1.7329962889300745 -1.9441873035826625 -1.5707767645465296 3.231538772583008 9.461315494263545e-05 0.16136150062084198 0.2739165425300598 -0.42465105652809143 0.0 6.736086652381346e-05 1 True False
2457.644 4.802380561828613 -1.350782261495926 1.7476328055011194 -1.9678236446776332 -1.57084829012026 3.2315433025360107 8.772538421908394e-05 0.18640384078025818 0.318429172039032 -0.5065550208091736 0.0 4.712697030340651e-16 1 True False
2457.694 4.8023552894592285 -1.3406425726464768 1.7650139967547815 -1.9947525463499964 -1.5708006064044397 3.231489658355713 6.835325621068478e-05 0.2089652270078659 0.3554837703704834 -0.5806859731674194 0.0 7.158598162473901e-35 1 True False
2457.7439999999997 4.802295207977295 -1.3311034452966233 1.7813447157489222 -2.0213567219176234 -1.570801083241598 3.231518030166626 2.3034996702668353e-30 0.1830201894044876 0.31359660625457764 -0.500508725643158 4.8015561304737275e-08 0.0 1 True False
2457.794 4.802392959594727 -1.3225611460259934 1.7962010542498987 -2.0442697010436 -1.5707767645465296 3.2315642833709717 0.0 0.15709346532821655 0.2686244547367096 -0.4312524199485779 7.293573736592238e-27 0.0 1 True False
2457.844 4.802380561828613 -1.3153227728656312 1.8083680311786097 -2.063920637170309 -1.570784870778219 3.231576681137085 0.0 0.13278494775295258 0.2308967560529709 -0.35862600803375244 1.401298464324817e-45 0.0 1 True False
2457.894 4.802325248718262 -1.3094622057727356 1.818488899861471 -2.079923769036764 -1.5707891623126429 3.2315597534179688 0.0 0.10411886870861053 0.18278716504573822 -0.2832869589328766 0.0 0.0 1 True False
2457.944 4.802304267883301 -1.3048659426024933 1.826702896748678 -2.0925713978209437 -1.570813004170553 3.231494188308716 0.0 0.07905726134777069 0.1320919394493103 -0.21624048054218292 0.0 0.0 1 True False
2457.9939999999997 4.802350997924805 -1.3015934091857453 1.8322661558734339 -2.101565023461813 -1.570784870778219 3.2315597534179688 0.0 0.05501364544034004 0.09561821073293686 -0.14254193007946014 0.0 8.785717324627812e-22 1 True False
2458.044 4.8023295402526855 -1.2994961899570008 1.8357003370868128 -2.1071888409056605 -1.570857350026266 3.2315521240234375 0.0 0.027101241052150726 0.04912460595369339 -0.07576555013656616 0.0 1.334554618469026e-40 1 True False
2458.094 4.802366733551025 -1.2987380486777802 1.8371995131122034 -2.109288831750387 -1.5707405249225062 3.231538772583008 0.0 0.0002369895373703912 0.0028245437424629927 -0.014937277883291245 0.0 0.0 1 True False
2458.144 4.802325248718262 -1.2987166506103058 1.8371008078204554 -2.109224935571188 -1.570801083241598 3.231581211090088 0.0 0.00013075298920739442 5.254828419440415e-22 8.540879935026169e-05 0.0 0.0 1 True False
2458.194 4.802364349365234 -1.2987660330585022 1.837191406880514 -2.1092845402159632 -1.5707486311541956 3.2315316200256348 0.0 0.00011607316992012784 9.062072786036879e-05 1.8810985447601082e-17 0.0 -3.5257522540632635e-05 1 True False
2458.2439999999997 4.802326679229736 -1.2987036567977448 1.8371174971209925 -2.109272619287008 -1.5707805792437952 3.2315313816070557 0.0 0.00022341558360494673 6.56983902445063e-05 -0.00014783456572331488 0.0 -5.3556248060606676e-24 1 True False
2458.294 4.8023552894592285 -1.2986874145320435 1.8371556440936487 -2.1092645130553187 -1.570824925099508 3.2316062450408936 0.0 0.0002344468084629625 4.004032234661281e-05 -0.00031050157849676907 0.0 -8.141544077727187e-43 1 True False
2458.344 4.802313327789307 -1.2987510424903412 1.8371837774859827 -2.1092926464476527 -1.5707967917071741 3.2315316200256348 -4.043708820412428e-17 0.0004166604485362768 0.00011015880591003224 -0.00015946089115459472 1.3102972691119711e-17 -0.0 1 True False
2458.394 4.802334308624268 -1.298688606624939 1.8371837774859827 -2.1092969379820765 -1.5708406607257288 3.2315151691436768 0.0 0.00014965514128562063 0.00014634981926064938 -0.00011991509381914511 1.9903440716826165e-36 -0.0 1 True False
2458.444 4.802375793457031 -1.2986886662295838 1.8371742407428187 -2.1092921696104945 -1.5707967917071741 3.2315521240234375 0.0 0.00011440165690146387 0.00011631884990492836 -0.00013526369002647698 0.0 -0.0 1 True False
2458.4939999999997 4.802338600158691 -1.2987016302398224 1.8371871153460901 -2.1093322239317835 -1.5708335081683558 3.23153018951416 0.0 7.86823729868047e-05 8.27872718218714e-05 -9.703513205749914e-05 0.0 -0.0 1 True False
2458.544 4.8023552894592285 -1.2987016302398224 1.8371871153460901 -2.1092683277525843 -1.5707967917071741 3.2314913272857666 0.0 5.561446985555077e-34 5.988047269056551e-05 -8.006582356756553e-05 0.0 -0.0 1 True False
2458.594 4.80233097076416 -1.298758552675583 1.8371871153460901 -2.109300275842184 -1.5707929770099085 3.231576681137085 0.0 0.0 2.779756924180476e-34 -5.075861918157898e-05 0.0 -0.0 1 True False
2458.644 4.802364349365234 -1.2986972791007538 1.837257210408346 -2.1092845402159632 -1.5707529226886194 3.2315151691436768 0.0 1.659961151456993e-24 0.0 -1.5698889896330307e-22 0.0 -0.0 1 True False
2458.694 4.802338600158691 -1.2988349360278626 1.8370540777789515 -2.109328409234518 -1.5707805792437952 3.231604814529419 0.0 -0.00022853713016957045 1.0552315465872653e-08 -0.0011250204406678677 0.0 0.00018965474737342447 1 True False
2458.7439999999997 4.802350997924805 -1.2987249058536072 1.8371031920062464 -2.1094914875426234 -1.5708335081683558 3.231555223464966 0.0 0.00010835014109034091 -7.098553949508313e-12 -0.00014307326637208462 0.0 -1.3918938224222188e-10 1 True False
2458.794 4.802366733551025 -1.2987574201873322 1.8370869795428675 -2.109443803826803 -1.5707767645465296 3.2315640449523926 0.0 0.0001275580289075151 -1.670347769475182e-41 0.0006647384143434465 0.0 -2.1142904068466147e-29 1 True False
2458.844 4.8023552894592285 -1.2989733976176758 1.8366950193988245 -2.1078397236266078 -1.5707967917071741 3.2315316200256348 0.0 -0.01568238064646721 -0.02868008427321911 0.05261421576142311 0.0 -0.0 1 True True
2458.894 4.802297115325928 -1.3006450694850464 1.8337567488299769 -2.103605409661764 -1.5707767645465296 3.2316060066223145 0.0 -0.05221062898635864 -0.0855061486363411 0.12134026736021042 0.0 -0.0 1 True True
2458.944 4.8023600578308105 -1.3036560279181977 1.8286955992328089 -2.0954143009581507 -1.570824925099508 3.2315597534179688 0.0 -0.07445931434631348 -0.12991419434547424 0.19369636476039886 0.0 -0.0 1 True True
2458.9939999999997 4.802358150482178 -1.3080311876586457 1.8210886160479944 -2.0837604008116664 -1.5708168188678187 3.231592893600464 0.0 -0.09564061462879181 -0.1667109727859497 0.25961998105049133 0.0 -0.0 1 True True
2459.044 4.8022942543029785 -1.3136178118041535 1.811289135609762 -2.0689197979369105 -1.5707925001727503 3.231510877609253 0.0 -0.1237722709774971 -0.21188826858997345 0.3314419388771057 0.0 -0.0 1 True True
2459.094 4.8022894859313965 -1.3204175990870972 1.799711052571432 -2.0500928364195765 -1.5708044211017054 3.231527328491211 0.0 -0.14650385081768036 -0.2610694468021393 0.4091792106628418 0.0 -0.0 1 True True
2459.144 4.802297115325928 -1.3284783971360703 1.785748306904928 -2.0280519924559535 -1.5708168188678187 3.2315359115600586 0.0 -0.17836801707744598 -0.306671142578125 0.47566843032836914 0.0 -0.0 1 True True
2459.194 4.802302837371826 -1.3379072856954117 1.7695940176593226 -2.0026914081969203 -1.5707686583148401 3.2315597534179688 0.0 -0.19940078258514404 -0.33534151315689087 0.5570652484893799 0.0 -0.0 1 True True
2459.2439999999997 4.802323341369629 -1.34807641923938 1.7520774046527308 -1.9750925503172816 -1.5708048979388636 3.2315971851348877 0.0 -0.1900225728750229 -0.33674144744873047 0.5348413586616516 0.0 -3.1706415271059996e-09 1 True True
2459.294 4.802364349365234 -1.3569730681231995 1.736875359212057 -1.9504534206786097 -1.5708416144000452 3.2315609455108643 0.0 -0.1641356647014618 -0.2925824820995331 0.45559820532798767 0.0 -3.1233350455295295e-05 1 True True
2459.344 4.802302837371826 -1.3647428464940567 1.7234228293048304 -1.9294387302794398 -1.5707767645465296 3.2315478324890137 0.0 -0.14491987228393555 -0.24715685844421387 0.3807395100593567 0.0 -1.672231883276254e-05 1 True True
2459.394 4.802334308624268 -1.3712582004121323 1.712480370198385 -1.9119087658324183 -1.5708168188678187 3.2315022945404053 0.0 -0.11516303569078445 -0.19900630414485931 0.31990787386894226 0.0 -1.1418192116252612e-05 1 True True
2459.444 4.802346706390381 -1.37638312697921 1.703519646321432 -1.8977157078185023 -1.5707967917071741 3.231503486633301 0.0 -0.09042388945817947 -0.16050732135772705 0.24397167563438416 0.0 -6.862645586182172e-16 1 True True
2459.4939999999997 4.802334308624268 -1.3802571904710312 1.6969030539142054 -1.8872424564757289 -1.5708449522601526 3.2315683364868164 0.0 -0.06214851886034012 -0.11559119820594788 0.18005292117595673 0.0 -1.0424378034475608e-34 1 True True
2459.544 4.802396297454834 -1.3829101038030167 1.6922929922686976 -1.88017000774526 -1.5707724730121058 3.2315478324890137 0.0 -0.0392640195786953 -0.06837418675422668 0.12614980340003967 0.0 -0.0 1 True True
2459.594 4.802368640899658 -1.3841844660094758 1.6899750868426722 -1.8766552410521449 -1.5708449522601526 3.2315597534179688 0.0 -0.01633216254413128 -0.025007497519254684 0.037693269550800323 0.0 -0.0 1 True True
2459.644 4.8019280433654785 -1.384326086645462 1.6897156874286097 -1.8761807880797328 -1.5707686583148401 3.2311229705810547 -0.032009560614824295 9.048898367053804e-20 -4.570457293878727e-12 0.00027928160852752626 0.0 -0.027937162667512894 1 True True
2459.694 4.7987284660339355 -1.3843663346818467 1.6897037664996546 -1.8761011562743128 -1.5707967917071741 3.2277615070343018 -0.10054323077201843 1.5126390261713154e-37 -2.979252894874662e-05 0.004707024898380041 0.0 -0.0985889732837677 1 True True
2459.7439999999997 4.791625499725342 -1.3843174886754532 1.6897175947772425 -1.8760253391661585 -1.5707324186908167 3.220834493637085 -0.1691509485244751 0.0 -3.260253288317472e-05 0.0020414041355252266 0.0 -0.16933117806911469 1 True True
2459.794 4.781373500823975 -1.3843663346818467 1.6896966139422815 -1.8760529957213343 -1.5707767645465296 3.2105600833892822 -0.24295811355113983 -9.387445606989786e-05 -8.082202839432284e-05 0.00020271116227377206 0.0 -0.23775392770767212 1 True True
2459.844 4.76733922958374 -1.3843003821424027 1.6896608511554163 -1.8760415516295375 -1.5708211104022425 3.1966733932495117 -0.3110891580581665 -2.0373443476273678e-05 -0.0005973349325358868 0.0001272752124350518 0.0 -0.3152451813220978 1 True True
2459.894 4.750153064727783 -1.384369672541954 1.6896370092975062 -1.8760258160033167 -1.570801083241598 3.1792385578155518 -0.3824276328086853 -1.1315905488962195e-40 -0.001286991871893406 0.0001060393187799491 0.0 -0.37706121802330017 1 True True
2459.944 4.729168891906738 -1.3842478704503556 1.6895573774920862 -1.8760339222350062 -1.5707925001727503 3.158332586288452 -0.44556036591529846 0.00030140753369778395 -0.0016876556910574436 9.516349382465705e-05 0.0 -0.44624969363212585 1 True True
2459.9939999999997 4.704885959625244 -1.3842478704503556 1.689413849507467 -1.8760014973082484 -1.5708168188678187 3.134147882461548 -0.5218161940574646 0.00128308089915663 -0.0012697498314082623 8.627383067505434e-05 0.0 -0.5259475708007812 1 True True
2460.044 4.677077770233154 -1.384200082426407 1.6893790403949183 -1.8760138950743617 -1.570784870778219 3.1064271926879883 -0.5895239114761353 0.001240772777236998 -0.001160894287750125 0.0006773154018446803 -2.54845799645409e-05 -0.5914564728736877 1 True True
2460.094 4.645833492279053 -1.3841930341771622 1.6893060843097132 -1.8760220013060511 -1.570756737385885 3.075054168701172 -0.6569249629974365 0.0005450989119708538 -0.0011389986611902714 0.0005552975926548243 -4.51009807278524e-09 -0.664417028427124 1 True True
2460.144 4.61104154586792 -1.384108455186226 1.6893013159381312 -1.876026292840475 -1.5707362333880823 3.0402591228485107 -0.7230263352394104 0.000529138429556042 -0.0008809880819171667 0.00030395170324482024 0.0003763952408917248 -0.7370696067810059 1 True True
2460.194 4.572678089141846 -1.3840206426433106 1.6891801992999476 -1.8760062656798304 -1.5707405249225062 3.001894474029541 -0.7943896055221558 0.0018027496989816427 -0.0017658087890595198 0.0005557485274039209 -6.966482946069164e-10 -0.8042735457420349 1 True True
2460.2439999999997 4.530766487121582 -1.3839082431844254 1.689080063496725 -1.8759495220580042 -1.570796314870016 2.9600095748901367 -0.873473584651947 0.002657308941707015 -0.0033795644994825125 0.0005435526836663485 6.549873887706781e-07 -0.8596029281616211 1 True True
2460.294 4.485481262207031 -1.3838494283011933 1.6889646689044397 -1.8759619198241175 -1.570801083241598 2.9148385524749756 -0.9365774989128113 0.001503080129623413 -0.0025782615412026644 0.00043235375778749585 9.949273974018774e-26 -0.9432276487350464 1 True True
2460.344 4.436805725097656 -1.38368775070224 1.6888893286334437 -1.875929971734518 -1.5707925001727503 2.8659613132476807 -1.0122945308685303 0.002225717296823859 -0.0023097889497876167 0.00043247410212643445 1.5414283107572988e-44 -1.0038092136383057 1 True True
2460.394 4.384926795959473 -1.3836606305888672 1.688756291066305 -1.8759142361082972 -1.570772949849264 2.81406569480896 -1.0440456867218018 0.002153058536350727 -0.002811523387208581 0.0006459342548623681 0.0 -1.0526801347732544 1 True True
2460.444 4.332590103149414 -1.38351662576709 1.688636604939596 -1.8759266338744105 -1.5708254019366663 2.761888265609741 -1.0514929294586182 0.0022955802269279957 -0.001600258401595056 0.000541073502972722 6.05579225521069e-05 -1.0462149381637573 1 True True
2460.4939999999997 4.280255317687988 -1.383493886595108 1.6885526815997522 -1.8758870563902796 -1.5707967917071741 2.70933198928833 -1.0519585609436035 0.002473086817190051 -0.003306327387690544 0.0004740848671644926 -8.781642405440715e-13 -1.0384105443954468 1 True True
2460.544 4.227785110473633 -1.3833925437978287 1.6884482542621058 -1.8758636913695277 -1.570813004170553 2.656996726989746 -1.044609546661377 0.0020306326914578676 -0.0029496278148144484 0.00034425646299496293 -1.3339332393484344e-31 -1.0509496927261353 1 True True
2460.594 4.175490379333496 -1.3832841974547883 1.6883357206927698 -1.875805994073385 -1.5707891623126429 2.6048150062561035 -1.0480279922485352 0.0018246895633637905 -0.0015566629590466619 0.00038187942118383944 -0.0 -1.0438021421432495 1 True True
2460.644 4.123203754425049 -1.3832466465285798 1.6881726423846644 -1.875805994073385 -1.5708254019366663 2.552233934402466 -1.0497143268585205 0.0019787263590842485 -0.003359551541507244 0.00047787567018531263 -0.0 -1.0415220260620117 1 True True
2460.694 4.070791244506836 -1.3830881428769608 1.6881373564349573 -1.8758117161192835 -1.570801083241598 2.4999985694885254 -1.0448434352874756 0.0025471209082752466 -0.002615422708913684 0.0008401196682825685 -0.0 -1.0543956756591797 1 True True
2460.7439999999997 4.018383979797363 -1.3829800200513382 1.6879618803607386 -1.87577547649526 -1.570801083241598 2.4477438926696777 -1.0467429161071777 0.0021125164348632097 -0.0011405833065509796 0.00035985404974780977 -0.0 -1.0483098030090332 1 True True
2460.794 3.9660420417785645 -1.382883907561638 1.6879213492022913 -1.8757668934264125 -1.5708282629596155 2.395275592803955 -1.049494743347168 0.0022772918455302715 -0.0028611943125724792 0.0004010700504295528 4.263948721927591e-05 -1.0393917560577393 1 True True
2460.844 3.913649082183838 -1.3828137826970597 1.6877058188067835 -1.8756786785521449 -1.5708087126361292 2.342874765396118 -1.0459179878234863 0.002219569170847535 -0.002991145709529519 0.0007242838619276881 -3.8463038976033204e-08 -1.0522953271865845 1 True True
2460.894 3.8613758087158203 -1.3826426428607483 1.6876028219806116 -1.8757039509215296 -1.5707405249225062 2.290649652481079 -1.0487614870071411 0.0020394299644976854 -0.001647980767302215 0.0005078449030406773 -5.842544220123873e-27 -1.0464707612991333 1 True True
2460.944 3.809035062789917 -1.3826455932906647 1.6875065008746546 -1.8757039509215296 -1.5708087126361292 2.2381532192230225 -1.050533413887024 0.002603722270578146 -0.003236223477870226 0.0005901664844714105 -1.401298464324817e-45 -1.0404284000396729 1 True True
2460.9939999999997 3.756636619567871 -1.3825420451215287 1.6874082724200647 -1.8756476841368617 -1.5707891623126429 2.185734510421753 -1.045335054397583 0.002030345145612955 -0.0029455265030264854 0.0008924914873205125 -0.0 -1.0541883707046509 1 True True
2461.044 3.7042367458343506 -1.3824280214360734 1.6873868147479456 -1.8756476841368617 -1.5707767645465296 2.1335859298706055 -1.0445654392242432 0.001877854228951037 -0.0016551912995055318 0.0003454286197666079 -0.0 -1.049497127532959 1 True True
2461.094 3.6518945693969727 -1.3823158752969285 1.6871689001666468 -1.8755952320494593 -1.5707967917071741 2.0810365676879883 -1.0494685173034668 0.00211631809361279 -0.0028387894853949547 0.0002966160827782005 -0.0 -1.0443493127822876 1 True True
2461.144 3.599550724029541 -1.3822498631528397 1.6870816389666956 -1.8755880794920863 -1.570784870778219 2.028616428375244 -1.0460678339004517 0.0020047526340931654 -0.0038013404700905085 0.0004240453999955207 -0.0 -1.0490694046020508 1 True True
2461.194 3.54715895652771 -1.3821749699166794 1.6869772116290491 -1.8756042919554652 -1.5707724730121058 1.9763597249984741 -1.0466208457946777 0.0015260187210515141 -0.0020201224833726883 0.00045195635175332427 -0.0 -1.044498085975647 1 True True
2461.2439999999997 3.4947800636291504 -1.3820951145938416 1.6868508497821253 -1.8755365810790003 -1.5707686583148401 1.9239857196807861 -1.0509644746780396 0.0023083866108208895 -0.0043626585975289345 0.0004709243949037045 -0.0 -1.0416151285171509 1 True True
2461.294 3.4424021244049072 -1.381965087061264 1.6867101828204554 -1.8755527935423792 -1.5707967917071741 1.871587872505188 -1.0463707447052002 0.003066691802814603 -0.004625425674021244 0.0003939398447982967 -0.0 -1.0545299053192139 1 True True
2461.344 3.3900630474090576 -1.3818615537932892 1.6866477171527308 -1.8755651913084925 -1.570829216633932 1.819387674331665 -1.045560359954834 0.0016471247654408216 -0.002854373771697283 0.00044173866626806557 -0.0 -1.0471607446670532 1 True True
2461.394 3.3378026485443115 -1.3817821008018036 1.6864426771747034 -1.8754850826659144 -1.570824925099508 1.7669415473937988 -1.051072597503662 0.0017834778409451246 -0.002687205793336034 0.00040421562152914703 -0.0 -1.0465993881225586 1 True True
2461.444 3.285428047180176 -1.3817100387862702 1.6863706747638147 -1.87548889736318 -1.5707767645465296 1.7145113945007324 -1.0486462116241455 0.0022714033257216215 -0.0026940018869936466 0.0005624723853543401 -0.0 -1.0447858572006226 1 True True
2461.4939999999997 3.232990026473999 -1.3815718752196808 1.6862676779376429 -1.87540926555776 -1.5707486311541956 1.6622445583343506 -1.0444719791412354 0.0015224632807075977 -0.0012529907980933785 0.0003987934614997357 -0.0 -1.0490105152130127 1 True True
2461.544 3.1806814670562744 -1.381440446977951 1.686155144368307 -1.8754493198790492 -1.5707438627826136 1.6098732948303223 -1.0503219366073608 0.0027085209731012583 -0.0024431240744888783 0.000290608499199152 -0.0 -1.0438294410705566 1 True True
2461.594 3.12909197807312 -1.3813818258098145 1.6860235373126429 -1.8753935299315394 -1.5707886854754847 1.5582232475280762 -0.9988219738006592 0.0020776421297341585 -0.0032444330863654613 0.0005575164686888456 -0.0 -1.0054172277450562 1 True True
2461.644 3.0808513164520264 -1.3812960547259827 1.6859038511859339 -1.8753777943053187 -1.5707767645465296 1.510069727897644 -0.935482382774353 0.0018496562261134386 -0.0018860455602407455 0.0002944008447229862 -0.0 -0.9326725602149963 1 True True
2461.694 3.0360779762268066 -1.3812333208373566 1.6858227888690394 -1.8753577671446742 -1.5707925001727503 1.4651671648025513 -0.8643298745155334 0.0014613305684179068 -0.002413301495835185 0.00019913044525310397 -0.0 -0.8644168972969055 1 True True
2461.7439999999997 2.9946646690368652 -1.3811285954764863 1.6857360045062464 -1.8754097423949183 -1.5708254019366663 1.4238828420639038 -0.7935669422149658 0.0013145658886060119 -0.002192810410633683 0.000616882462054491 -0.0 -0.7912026643753052 1 True True
2461.794 2.9568517208099365 -1.3810655188611527 1.6856406370746058 -1.8752976856627406 -1.5708044211017054 1.3860630989074707 -0.7211591005325317 0.0019031977280974388 -0.0017781822243705392 0.00026730031822808087 5.579897333518602e-05 -0.7219931483268738 1 True True
2461.844 2.922590970993042 -1.3809963327697297 1.6855924765216272 -1.8753863773741664 -1.5707686583148401 1.351731777191162 -0.652047872543335 0.001244540442712605 -0.0011345017701387405 0.0002331509458599612 0.00010976613702950999 -0.6569313406944275 1 True True
2461.894 2.8917887210845947 -1.380973906522133 1.6855385939227503 -1.8753382168211878 -1.5707600752459925 1.3209218978881836 -0.5822917222976685 0.001051788916811347 -0.0010777775896713138 0.00022316144895739853 -2.3053634001790613e-10 -0.5892646908760071 1 True True
2461.944 2.8644134998321533 -1.3808720123818894 1.685448948537008 -1.8752700291075648 -1.570784870778219 1.293558955192566 -0.5104669332504272 0.0009617808391340077 -0.0006237358902581036 0.00022272912610787898 -3.501851612184365e-29 -0.5181108117103577 1 True True
2461.9939999999997 2.840496063232422 -1.3809078496745606 1.6854217688189905 -1.8752662144102992 -1.5707891623126429 1.2696702480316162 -0.44033700227737427 0.0011494365753605962 -0.0005812029121443629 0.00027282192604616284 7.066882972139865e-05 -0.4421708881855011 1 True True
2462.044 2.8200178146362305 -1.3808375906995316 1.6853368918048304 -1.8752819500365199 -1.5708087126361292 1.2493484020233154 -0.37246614694595337 0.0012578677851706743 -0.0008559125126339495 0.00016930614947341383 4.92277140438091e-05 -0.37386298179626465 1 True True
2462.094 2.803239583969116 -1.380855531697609 1.685338322316305 -1.8753181896605433 -1.5707610289203089 1.2324018478393555 -0.3077077567577362 0.00032532738987356424 -0.001049429178237915 0.0001289766951231286 -1.996661325718856e-20 -0.30470922589302063 1 True True
2462.144 2.7897815704345703 -1.3808060449412842 1.6852648893939417 -1.8752900562682093 -1.5708125273333948 1.2190154790878296 -0.23444519937038422 0.0002308330440428108 -0.0010619015665724874 8.531039202352986e-05 -3.032932561126097e-39 -0.23420557379722595 1 True True
2462.194 2.7798891067504883 -1.3807401967099686 1.6852853933917444 -1.8752662144102992 -1.5707886854754847 1.2090858221054077 -0.1655486524105072 0.0002943539875559509 -0.0007695036474615335 6.0442336689447984e-05 -0.0 -0.16560181975364685 1 True True
2462.2439999999997 2.773576021194458 -1.3808570516160508 1.6852453390704554 -1.8753067455687464 -1.5707691351519983 1.2027493715286255 -0.0956522524356842 0.0003477524151094258 -0.00029693503165617585 6.521546323801086e-12 -0.0 -0.09482339024543762 1 True True
2462.294 2.7706186771392822 -1.3807609987309952 1.6852543989764612 -1.8752700291075648 -1.570784870778219 1.1998515129089355 -0.024979133158922195 0.0001819216413423419 -0.00026291876565665007 9.906240721498222e-31 -0.0 -0.026510758325457573 1 True True
2462.344 2.7705283164978027 -1.3803457182696839 1.6855128447162073 -1.8759509525694789 -1.570784870778219 1.199655532836914 1.0696562992990044e-12 0.021099470555782318 0.026776455342769623 -0.043369803577661514 -0.0 0.00018483572057448328 1 True True
2462.394 2.7705461978912354 -1.378940762286522 1.6878655592547815 -1.879993577996725 -1.5707810560809534 1.1996806859970093 -0.0002535608655307442 0.03678734600543976 0.07216224819421768 -0.1144736036658287 -0.0 -0.0005701434565708041 1 True True
2462.444 2.77046537399292 -1.3761159640601655 1.692949120198385 -1.887646337548727 -1.5707967917071741 1.1995657682418823 -0.0007368025253526866 0.06611659377813339 0.12486068904399872 -0.17741957306861877 -0.0 -0.00035783456405624747 1 True True
2462.4939999999997 2.770430564880371 -1.3721248668483277 1.7001350561725062 -1.8988062343993128 -1.5707810560809534 1.199579119682312 -0.0005345846875570714 0.09306661784648895 0.1623860001564026 -0.2483985424041748 -0.0 -0.00033658742904663086 1 True True
2462.544 2.7704532146453857 -1.3667887312224885 1.7092192808734339 -1.9133006534972132 -1.5708006064044397 1.1996703147888184 -0.0004794853739440441 0.12010207772254944 0.2054438591003418 -0.32736077904701233 -0.0 -0.00012089795200154185 1 True True
2462.594 2.7704412937164307 -1.3601861906102677 1.720656696950094 -1.9312793217101039 -1.570784870778219 1.199661374092102 -0.00018320676463190466 0.1444787234067917 0.2529592216014862 -0.400081068277359 -0.0 -7.736690895399079e-05 1 True True
2462.644 2.770448684692383 -1.3523012709668656 1.7345026175128382 -1.9527765713133753 -1.5708087126361292 1.199579119682312 -0.00012123810302000493 0.17375072836875916 0.29510319232940674 -0.46387097239494324 -0.0 -6.190669228089973e-05 1 True True
2462.694 2.7704787254333496 -1.3430584979108353 1.7500646750079554 -1.9777747593321742 -1.5707967917071741 1.1996405124664307 -8.532145147910342e-05 0.19365613162517548 0.34304267168045044 -0.5234464406967163 -0.0 -1.6475351675169672e-21 1 True True
2462.7439999999997 2.770423412322998 -1.3329073649695893 1.7677901426898401 -2.005287309686178 -1.5708168188678187 1.1995866298675537 -1.5820659662227185e-42 0.19584189355373383 0.33636775612831116 -0.5277693271636963 -5.826552701343895e-18 -2.5026069534069773e-40 1 True True
2462.794 2.770415782928467 -1.3239249897054215 1.7833979765521448 -2.030435701409811 -1.5708048979388636 1.199600100517273 -2.9531608384323994e-31 0.17548279464244843 0.30029305815696716 -0.46672117710113525 -8.85054549715248e-37 -0.0 1 True True
2462.844 2.770498275756836 -1.3158529859832306 1.7971156279193323 -2.0520035229124964 -1.5708087126361292 1.1996331214904785 0.0 0.14650805294513702 0.251361608505249 -0.4031903147697449 -0.0 -0.0 1 True True
2462.894 2.770415782928467 -1.3092730802348633 1.8083861509906214 -2.0699807606139125 -1.5707810560809534 1.1996164321899414 0.0 0.1170748621225357 0.2087254673242569 -0.3333689570426941 -0.0 -0.0 1 True True
2462.944 2.7704203128814697 -1.3039913934520264 1.8176654020892542 -2.0846530399718226 -1.5707686583148401 1.1996241807937622 0.0 0.09227077662944794 0.16675208508968353 -0.26340606808662415 -0.0 -0.0 1 True True
2462.9939999999997 2.7704455852508545 -1.2999366980842133 1.8248336950885218 -2.0955807171263636 -1.5708087126361292 1.1995866298675537 0.0 0.06943811476230621 0.11642446368932724 -0.18548837304115295 -0.0 -2.3140180049896486e-10 1 True True
2463.044 2.770432233810425 -1.2971287232688447 1.829468075429098 -2.103194852868551 -1.5707886854754847 1.199607491493225 0.0 0.04331689700484276 0.07464882731437683 -0.13060486316680908 -0.0 -3.514997588687577e-29 1 True True
2463.094 2.770498037338257 -1.2958524984172364 1.831726376210348 -2.107502599755758 -1.5708449522601526 1.1996777057647705 -2.0592326066548594e-08 0.014672883786261082 0.02582823671400547 -0.06353282183408737 -0.0011380871292203665 -0.0 1 True True
2463.144 2.770448684692383 -1.2957453292659302 1.8319743315326136 -2.108171125451559 -1.5707767645465296 1.1995747089385986 0.0 0.0012303845724090934 0.001391586847603321 0.0012623030925169587 -9.709668665891513e-05 -0.0 1 True True
2463.194 2.7704036235809326 -1.2954512697509308 1.8321507612811487 -2.108178278008932 -1.570801083241598 1.1996866464614868 0.0 0.010892367921769619 0.00832509994506836 0.00017038642545230687 -6.155804294394329e-05 -0.0 1 True True
2463.2439999999997 2.7704036235809326 -1.295113669042923 1.8329508940326136 -2.1077009640135707 -1.5707724730121058 1.1994940042495728 1.1780298119978762e-15 -0.003404780523851514 -0.0030312330927699804 -0.014972946606576443 -5.840952721491988e-13 -0.0 1 True True
2463.294 2.770345687866211 -1.295037404899933 1.8329508940326136 -2.107884546319479 -1.5707929770099085 1.1996480226516724 2.784831971336912e-21 -0.004317194223403931 -5.8858098524756626e-18 -0.003826410509645939 -8.872415069046075e-32 -4.843584247282706e-05 1 True False
2463.344 2.77038311958313 -1.2951796811870118 1.8328984419452112 -2.108035226861471 -1.570772949849264 1.1996450424194336 8.698852032267145e-25 -0.0018046596087515354 -0.000971621077042073 -0.000716903421562165 -0.0 -3.937275323551148e-07 1 True False
2463.394 2.7704203128814697 -1.2953260701945801 1.83275014558901 -2.1080948315062464 -1.5708335081683558 1.1996164321899414 0.0 -0.0010392286349087954 -0.0013712579384446144 -0.0005692683043889701 -0.0 -5.98072923141047e-26 1 True False
2463.444 2.7704246044158936 -1.2953495246222992 1.8327105681048792 -2.1080833874144496 -1.5707967917071741 1.1995866298675537 0.0 -0.00028791266959160566 -0.0013579054502770305 -0.00016394583508372307 -0.0 -8.407790785948902e-45 1 True False
2463.4939999999997 2.770416021347046 -1.2958782476237793 1.8318904081927698 -2.1072470150389613 -1.570801083241598 1.199583649635315 0.0 -0.023084092885255814 -0.034993261098861694 0.04821797460317612 -0.0 -0.0 1 True False
2463.544 2.7704572677612305 -1.2972160440734406 1.829280201588766 -2.102655073205465 -1.5707805792437952 1.199610710144043 0.0 -0.04345729202032089 -0.0786767303943634 0.12232671678066254 -0.0 -0.0 1 True False
2463.594 2.770432233810425 -1.3001960676959534 1.8241470495807093 -2.094733854333395 -1.5707767645465296 1.1996732950210571 0.0 -0.07087565958499908 -0.12070285528898239 0.20168450474739075 -0.0 5.317739487509243e-05 1 True False
2463.644 2.7704572677612305 -1.3044591707042237 1.8167365233050745 -2.0832630596556605 -1.5708211104022425 1.1996073722839355 0.0 -0.09970591217279434 -0.16604210436344147 0.24824391305446625 -1.25855354424063e-18 4.7507055569440126e-05 1 True False
2463.694 2.7704365253448486 -1.309894786482193 1.807300869618551 -2.0684429607787074 -1.5707925001727503 1.1996285915374756 3.738725910078623e-21 -0.11838129162788391 -0.21003393828868866 0.3264029622077942 -1.9117453080809638e-37 2.6856207114178687e-05 1 True False
2463.7439999999997 2.7704529762268066 -1.3166458767703553 1.7957642714129847 -2.0499044857420863 -1.5708254019366663 1.1996777057647705 -2.974150833771712e-20 -0.1451399326324463 -0.2543646991252899 0.39672642946243286 -0.0 9.644636520533822e-07 1 True False
2463.794 2.7704038619995117 -1.324766920214035 1.7818453947650355 -2.028067728082174 -1.5707686583148401 1.1996822357177734 0.0 -0.17754943668842316 -0.30259379744529724 0.46866893768310547 -3.517851837386843e-06 1.465022676331821e-25 1 True False
2463.844 2.7704246044158936 -1.3339471978000184 1.7659228483783167 -2.002777715722555 -1.570756737385885 1.1996089220046997 0.0 -0.19854237139225006 -0.34514111280441284 0.5474875569343567 -5.343622977641022e-25 2.2420775429197073e-44 1 True False
2463.894 2.7704408168792725 -1.3442443919232865 1.7482402960406702 -1.975166460076803 -1.5707605520831507 1.1996164321899414 0.0 -0.190889373421669 -0.3301686942577362 0.5446496605873108 -8.127531093083939e-44 0.0 1 True False
2463.944 2.7704365253448486 -1.353160799746849 1.7329185644732874 -1.9504944286742152 -1.5707925001727503 1.1996119022369385 0.0 -0.17091122269630432 -0.2952713966369629 0.4490121603012085 -0.0 0.0 1 True False
2463.9939999999997 2.7704203128814697 -1.3609316957047959 1.7194049994098108 -1.9293042622008265 -1.570813004170553 1.1996405124664307 0.0 -0.14616908133029938 -0.2434609979391098 0.38077929615974426 -0.0 0.0 1 True False
2464.044 2.770432233810425 -1.3674009901336213 1.7083995977984827 -1.9115749798216761 -1.5708044211017054 1.1996777057647705 0.0 -0.11796241998672485 -0.20610114932060242 0.31945139169692993 -0.0 0.0 1 True False
2464.094 2.7703919410705566 -1.3726799053004761 1.699418846760885 -1.897346635858053 -1.5708048979388636 1.199607491493225 0.0 -0.08991620689630508 -0.15850256383419037 0.24475570023059845 -0.0 0.0 1 True False
2464.144 2.770432233810425 -1.3765767973712464 1.6925457159625452 -1.88682283977651 -1.5707929770099085 1.199583649635315 0.0 -0.06746658682823181 -0.11558058857917786 0.18561671674251556 -0.0 0.0 1 True False
2464.194 2.7704408168792725 -1.3792258662036438 1.6878793875323694 -1.87953581432485 -1.5708168188678187 1.199634313583374 0.0 -0.04188530519604683 -0.06942138820886612 0.11749943345785141 -0.0 0.0 1 True False
2464.2439999999997 2.7704081535339355 -1.380524368291237 1.6856911818133753 -1.875834127465719 -1.5707925001727503 1.1996703147888184 0.0 -0.014402111060917377 -0.02561108022928238 0.04017724096775055 -0.0 0.0 1 True False
2464.294 2.770399570465088 -1.3806501042893906 1.6853769461261194 -1.875373979608053 -1.5707524458514612 1.1995954513549805 0.0 0.0015332194743677974 0.00021655466116499156 -0.00012660169159062207 -0.0 0.0 1 False False
2464.344 2.770411729812622 -1.3806575399688263 1.685317341481344 -1.8753534756102503 -1.5708335081683558 1.1995986700057983 0.0 -0.000205092946998775 1.0453337603527534e-25 0.00010785256745293736 -0.0 0.0 1 False False
2464.394 2.7704484462738037 -1.380695105796196 1.685300652180807 -1.8753420315184535 -1.570801083241598 1.1996285915374756 0.0 -0.0003082399198319763 -0.0005500358529388905 0.0003136242157779634 -0.0 0.0 1 False False
2464.444 2.7703919410705566 -1.3807474833777924 1.6852648893939417 -1.8752862415709437 -1.5707925001727503 1.1996361017227173 0.0 -0.0009443726157769561 -0.0009580671903677285 0.0009996868902817369 -0.0 0.0 1 False False
2464.4939999999997 2.77044415473938 -1.3807760936072846 1.6852825323687952 -1.8752466640868128 -1.570801083241598 1.1996285915374756 0.0 -0.00028382177697494626 -0.0007848030072636902 0.0005432115285657346 -0.0 0.0 1 False False
2464.544 2.7704081535339355 -1.3807880145362397 1.6852706114398401 -1.8752342663206996 -1.5708449522601526 1.1996612548828125 0.0 -0.0001785056956578046 -0.0003457214043010026 0.0001591577020008117 -0.0 0.0 1 False False
2464.594 2.7704408168792725 -1.3808075946620484 1.685221020375387 -1.875253816644186 -1.5707805792437952 1.199649453163147 0.0 -0.0001437916507711634 -0.00019696734671015292 0.0001179581813630648 -0.0 0.0 1 False False
2464.644 2.770439863204956 -1.380734072332718 1.6852300802813929 -1.8752581081786097 -1.5708168188678187 1.1996119022369385 0.0 -0.00010699706035666168 -0.00013120508810970932 8.578240522183478e-05 -0.0 0.0 1 False False
2464.694 2.77044415473938 -1.3807910990766068 1.685221020375387 -1.875298639337057 -1.5707891623126429 1.1996119022369385 0.0 -8.347881521331146e-05 -9.860729187494144e-05 9.448354741601201e-19 -0.0 0.0 1 False False
2464.7439999999997 2.770416021347046 -1.3807447862676163 1.6852005163775843 -1.8752905331053675 -1.5707805792437952 1.1996030807495117 0.0 -1.7270661960052973e-24 -5.96338213654235e-05 1.4352069724606718e-37 -0.0 0.0 1 False False
2464.794 2.7704484462738037 -1.3807084423354645 1.6852095762835901 -1.8752786121764125 -1.570813004170553 1.1995823383331299 0.0 0.0 -7.005027324753088e-17 0.0 -0.0 0.0 1 False False
2464.844 2.77044415473938 -1.3807716083577652 1.685263458882467 -1.8752905331053675 -1.5708168188678187 1.1996153593063354 0.0 0.0 -0.0 0.0 -0.0 0.0 1 False False
2464.894 2.770461320877075 -1.3807626378587265 1.6852005163775843 -1.8752266369261683 -1.5708168188678187 1.1996241807937622 0.0 -2.4892455774989425e-18 -0.0 0.0 -0.0 0.0 1 False False
2464.944 2.770395040512085 -1.3806831550649186 1.685213867818014 -1.8752504787840785 -1.570784870778219 1.1996864080429077 0.0 0.0 -0.0 0.0 -0.0 0.0 1 False False
2464.9939999999997 2.770432233810425 -1.3807625782540818 1.68524676958193 -1.875214239160055 -1.570784870778219 1.1995868682861328 0.0 0.0 -0.0 0.0 -0.0 0.0 1 False False
2465.044 2.7704484462738037 -1.380758137708046 1.685188118611471 -1.875322004357809 -1.570824925099508 1.1996537446975708 0.0 0.0 -0.0 0.0 -0.0 0.0 1 False False
2465.094 2.7704620361328125 -1.3807670784047623 1.6852052847491663 -1.875242372552389 -1.5708087126361292 1.1996285915374756 0.0 0.0 -0.0 0.0 -0.0 0.0 1 False False
2465.144 2.770423173904419 -1.3807370376637955 1.6852543989764612 -1.8752309284605921 -1.5708168188678187 1.1995631456375122 0.0 0.0 -0.0 0.0 -0.0 0.0 1 False False
2465.194 2.770411491394043 -1.3807956141284485 1.6852005163775843 -1.8752547703185023 -1.5707805792437952 1.199612021446228 0.0 0.0 -0.0 0.0 -0.0 0.0 1 False False
2465.2439999999997 2.770432233810425 -1.3807878655246277 1.6851723829852503 -1.8752905331053675 -1.5708373228656214 1.199612021446228 0.0 0.0 -0.0 0.0 -0.0 0.0 1 True False
2465.294 2.7704036235809326 -1.38076704860244 1.685192886983053 -1.8752500019469203 -1.5708091894732874 1.1996076107025146 0.0 0.0 -0.0 0.0 -0.0 0.0 1 True False
2465.344 2.770432233810425 -1.3807340276292344 1.6852052847491663 -1.8752504787840785 -1.5707767645465296 1.1996251344680786 0.0 0.0 -0.0 0.0 -0.0 0.0 1 True False
2465.394 2.7704203128814697 -1.3807130318931122 1.6852005163775843 -1.8752309284605921 -1.570784870778219 1.1996241807937622 0.0 0.0 -0.0 0.0 -0.0 0.0 1 True False
2465.444 2.770378351211548 -1.3806965959123154 1.6852062384234827 -1.8752623997130335 -1.570784870778219 1.199648141860962 0.0 0.0 -0.0 0.0 -0.0 -4.605156937032007e-05 1 True False
2465.4939999999997 2.7704367637634277 -1.3807143431952973 1.6852300802813929 -1.8753191433348597 -1.5707925001727503 1.1995912790298462 0.0 0.0 -0.0 6.152354523080612e-21 -0.0 -2.0200697690597735e-05 1 True False
2465.544 2.7704367637634277 -1.380737082367279 1.6852095762835901 -1.8752623997130335 -1.5707805792437952 1.1996362209320068 0.0 0.0 -0.0 9.345441627382567e-40 -0.0 -1.293940204050159e-05 1 True False
2465.594 2.770415782928467 -1.3807252210429688 1.6852052847491663 -1.875242372552389 -1.5707925001727503 1.1995750665664673 0.0 0.0 -0.0 0.0 -0.0 -6.300755917010292e-09 1 True False
2465.644 2.770423173904419 -1.3807744693807145 1.685139004384176 -1.8752457104124964 -1.570801083241598 1.1996448040008545 0.0 0.0 -0.0 0.0 -0.0 -0.00025577645283192396 1 True False
2465.694 2.770427703857422 -1.3807010364583512 1.6852119604693812 -1.8752385578551234 -1.5708044211017054 1.1995956897735596 0.0 0.0 -0.0 0.0 -0.0 -5.285605584504083e-05 1 True False
2465.7439999999997 2.770411491394043 -1.3807370972684403 1.6852253119098108 -1.8752385578551234 -1.570801083241598 1.199688196182251 0.0 0.0 -0.0 0.0 -0.0 -1.5298809330488439e-06 1 True False
2465.794 2.7704203128814697 -1.3807503444007416 1.685258690510885 -1.8752623997130335 -1.570801083241598 1.1996536254882812 0.0 0.0 -0.0 0.0 -0.0 4.035618139577174e-13 1 True False
2465.844 2.7704203128814697 -1.380720780496933 1.685221020375387 -1.8752223453917445 -1.5708048979388636 1.1997023820877075 0.014471222646534443 0.0 -0.0 0.0 -0.0 0.002417054260149598 1 True False
2465.894 2.7725112438201904 -1.380679727797844 1.68510610262026 -1.8752342663206996 -1.5708006064044397 1.201719045639038 0.0719757229089737 0.0050998530350625515 -0.010818344540894032 0.0 -0.0 0.07584689557552338 1 True False
2465.944 2.778181552886963 -1.3801931750825425 1.6844146887408655 -1.8751636944212855 -1.5707767645465296 1.207426905632019 0.14702217280864716 0.012550359591841698 -0.013574040494859219 0.006360023748129606 -0.0 0.14491121470928192 1 True False
2465.9939999999997 2.787386178970337 -1.379524366264679 1.6835344473468226 -1.8749004803099574 -1.5708087126361292 1.2165483236312866 0.2174798548221588 0.014278892427682877 -0.02114829421043396 0.004612542223185301 -0.0 0.21560654044151306 1 True False
2466.044 2.79994535446167 -1.3786203575185318 1.6823418776141565 -1.8745385609068812 -1.5707767645465296 1.2291592359542847 0.2850886285305023 0.02277996577322483 -0.027597064152359962 0.0046798354014754295 -0.0 0.28267842531204224 1 True False
2466.094 2.815988302230835 -1.3773970168880005 1.680861775075094 -1.8741895161070765 -1.5707767645465296 1.2451903820037842 0.3566797077655792 0.02873503789305687 -0.03301823511719704 0.008116337470710278 -0.0 0.35174718499183655 1 True False
2466.144 2.835646390914917 -1.3760201942971726 1.6789634863482874 -1.8737317524352015 -1.570772949849264 1.2647784948349 0.4244188666343689 0.031087955459952354 -0.042284488677978516 0.008882919326424599 5.8815501688513905e-05 0.42868438363075256 1 True False
2466.194 2.8586783409118652 -1.3742516946843644 1.676633659993307 -1.8732267818846644 -1.5707686583148401 1.2879010438919067 0.4930762052536011 0.03553694859147072 -0.04870713874697685 0.012208931148052216 2.2374484615284018e-05 0.48802343010902405 1 True False
2466.2439999999997 2.8851511478424072 -1.372278780942299 1.6740592161761683 -1.872674127618307 -1.570801083241598 1.3144710063934326 0.5678301453590393 0.04189423844218254 -0.05431419610977173 0.013544845394790173 8.980233360489365e-06 0.5635755062103271 1 True False
2466.294 2.915290594100952 -1.370106042628624 1.6713178793536585 -1.8719989262022914 -1.570813004170553 1.344522476196289 0.6315556168556213 0.04589260369539261 -0.06443051248788834 0.011160765774548054 1.3640988689538525e-24 0.6323798894882202 1 True False
2466.344 2.9488043785095215 -1.3677575898221512 1.6679976622210901 -1.8712431393065394 -1.5708048979388636 1.3780184984207153 0.707546591758728 0.0509645976126194 -0.06642298400402069 0.013995753601193428 2.0739217272007293e-43 0.7025160789489746 1 True False
2466.394 2.9859020709991455 -1.3648826491883774 1.6645162741290491 -1.8702808819212855 -1.5707805792437952 1.4150505065917969 0.7715556025505066 0.05647695064544678 -0.07830628007650375 0.015984807163476944 4.1209062136360666e-20 0.76943039894104 1 True False
2466.444 3.0264663696289062 -1.3619439017823716 1.6604316870318812 -1.8694573841490687 -1.5708048979388636 1.4555538892745972 0.8401204943656921 0.06231643259525299 -0.08025199919939041 0.01733098365366459 -0.0002887978625949472 0.8445215225219727 1 True False
2466.4939999999997 3.0702943801879883 -1.3586623680642624 1.6562541166888636 -1.868432184258932 -1.57074481645693 1.4996311664581299 0.9187959432601929 0.06784626841545105 -0.09057866781949997 0.023189350962638855 0.0004612472839653492 0.9078894853591919 1 True False
2466.544 3.117889165878296 -1.35514950871978 1.6517375151263636 -1.8672715626158656 -1.5708168188678187 1.547134518623352 0.9786633253097534 0.07292646169662476 -0.09111247956752777 0.024251621216535568 0.00010795715934364125 0.979632556438446 1 True False
2466.594 3.1688387393951416 -1.3514697712710877 1.646787468587057 -1.866190572778219 -1.5707967917071741 1.598160982131958 1.0440198183059692 0.0766185075044632 -0.10665632784366608 0.020265474915504456 6.815218512201682e-05 1.046257495880127 1 True False
2466.644 3.2212629318237305 -1.3475281310132523 1.641810719166891 -1.8649217091002406 -1.5707362333880823 1.6503947973251343 1.0467849969863892 0.07795695215463638 -0.10313564538955688 0.02356048673391342 6.1125873251910434e-09 1.0541030168533325 1 True False
2466.694 3.273611307144165 -1.3437291544726868 1.636653248463766 -1.8637806377806605 -1.570784870778219 1.7027260065078735 1.0443323850631714 0.0777922123670578 -0.09852317720651627 0.027833860367536545 9.285031521407305e-28 1.0454989671707153 1 True False
2466.7439999999997 3.3259665966033936 -1.3399115365794678 1.631514851246969 -1.8626071415343226 -1.5707481543170374 1.7551977634429932 1.0510588884353638 0.0744309201836586 -0.09634590148925781 0.020677749067544937 -3.539473982527852e-05 1.044418454170227 1 True False
2466.794 3.3784432411193848 -1.3360005629113694 1.6265361944781702 -1.8613511524596156 -1.570801083241598 1.807465672492981 1.0469499826431274 0.0746036022901535 -0.09999549388885498 0.02572711370885372 -2.46247582254e-05 1.0480624437332153 1 True False
2466.844 3.4307427406311035 -1.3321205538562317 1.6215985457049769 -1.8600713215269984 -1.5708335081683558 1.8598990440368652 1.0423469543457031 0.08096948266029358 -0.10151493549346924 0.024895165115594864 -2.5121671778406685e-13 1.0456160306930542 1 True False
2466.894 3.4829840660095215 -1.3284170937589188 1.616631333027975 -1.858986040154928 -1.5708211104022425 1.9123528003692627 1.0516917705535889 0.0793163925409317 -0.09804581850767136 0.02534426748752594 -3.81598703379684e-32 1.0457489490509033 1 True False
2466.944 3.5353739261627197 -1.3245337468436738 1.6114667097674769 -1.857856889764303 -1.5707891623126429 1.9645050764083862 1.0456397533416748 0.0744226947426796 -0.10150747746229172 0.023039916530251503 -0.0 1.0543845891952515 1 True False
2466.9939999999997 3.5877957344055176 -1.320578710441925 1.606518570576803 -1.8565765819945277 -1.5708211104022425 2.01688551902771 1.0419797897338867 0.08034010231494904 -0.1047455221414566 0.02108106017112732 -0.0 1.0452746152877808 1 True False
2467.044 3.640110731124878 -1.3167614799788971 1.6014512220965784 -1.8553434811034144 -1.5708258787738245 2.0693647861480713 1.0517994165420532 0.07872533053159714 -0.10325959324836731 0.024089038372039795 -0.0 1.0471805334091187 1 True False
2467.094 3.6924550533294678 -1.3129535478404541 1.5962651411639612 -1.854251047173971 -1.5708335081683558 2.1216654777526855 1.0470466613769531 0.07398637384176254 -0.09949013590812683 0.026503317058086395 -0.0 1.0487571954727173 1 True False
2467.144 3.7449169158935547 -1.3090463441661377 1.5912483374225062 -1.8529540501036585 -1.5708087126361292 2.173980951309204 1.043861746788025 0.0774843692779541 -0.10443493723869324 0.021242007613182068 -0.0 1.0457483530044556 1 True False
2467.194 3.797161340713501 -1.3051968675902863 1.5863545576678675 -1.8518268070616664 -1.5708211104022425 2.2265188694000244 1.0500128269195557 0.07493092119693756 -0.10231293737888336 0.019428662955760956 -0.0 1.0442636013031006 1 True False
2467.2439999999997 3.8495118618011475 -1.301399366264679 1.5812843481646937 -1.8505808315672816 -1.5708168188678187 2.2787270545959473 1.0495374202728271 0.07728341221809387 -0.10152098536491394 0.029129480943083763 -0.0 1.0535340309143066 1 True False
2467.294 3.9018685817718506 -1.297619805937149 1.5761626402484339 -1.8494559727110804 -1.5708377997027796 2.3310062885284424 1.042831540107727 0.07613302022218704 -0.09693406522274017 0.0235647801309824 -0.0 1.0474066734313965 1 True False
2467.344 3.9542152881622314 -1.293766663675644 1.5711076895343226 -1.8482195339598597 -1.5707882086383265 2.383577823638916 1.0482745170593262 0.07828857004642487 -0.10083311051130295 0.022836824879050255 -0.0 1.0417909622192383 1 True False
2467.394 4.006704807281494 -1.2898440223983307 1.5660536924945276 -1.8469683132567347 -1.5707572142230433 2.4357950687408447 1.0467833280563354 0.07855984568595886 -0.10012088716030121 0.02888372354209423 -3.6542549206271756e-19 1.0477243661880493 1 True False
2467.444 4.059003829956055 -1.2859731775573273 1.560915772114889 -1.8457790813841761 -1.5708254019366663 2.4881553649902344 1.044358253479004 0.08049484342336655 -0.09974285215139389 0.026012657210230827 2.1417290554381907e-05 1.0453180074691772 1 True False
2467.4939999999997 4.111318111419678 -1.2820936900428315 1.5559185186969202 -1.8446580372252406 -1.5708330313311976 2.540623903274536 1.0525403022766113 0.07480079680681229 -0.09907273203134537 0.02078770101070404 3.561585271497081e-12 1.044878363609314 1 True False
2467.544 4.1636433601379395 -1.2781864267638703 1.5508959929095667 -1.8434330425658167 -1.5707810560809534 2.592871904373169 1.0507640838623047 0.07522494345903397 -0.10483492165803909 0.02499253861606121 1.0411627116013733e-09 1.0540003776550293 1 True False
2467.594 4.216115474700928 -1.2743903559497376 1.545966927205221 -1.8421770534911097 -1.570853058491842 2.6450841426849365 1.041811466217041 0.07965343445539474 -0.1037050411105156 0.024338185787200928 1.5815279294946189e-28 1.0476710796356201 1 True False
2467.644 4.26841926574707 -1.2706156832030793 1.5408485571490687 -1.841116567651266 -1.5708449522601526 2.6976778507232666 1.0475910902023315 0.07577253878116608 -0.10117563605308533 0.023204196244478226 0.0 1.0440422296524048 1 True False
2467.694 4.320775985717773 -1.266772524719574 1.5356720129596155 -1.839832445184225 -1.5707648436175745 2.7500176429748535 1.0483624935150146 0.07487305253744125 -0.10064064711332321 0.026044577360153198 0.0 1.0522326231002808 1 True False
2467.7439999999997 4.37313175201416 -1.2629067462733765 1.5306428114520472 -1.8385640583434046 -1.5707929770099085 2.8022282123565674 1.043462872505188 0.07911092042922974 -0.10319659113883972 0.02081245556473732 0.0 1.048406720161438 1 True False
2467.794 4.425098419189453 -1.2590850454619904 1.5257967154132288 -1.837442537347311 -1.570772949849264 2.8544139862060547 1.0167908668518066 0.0776062086224556 -0.09730164706707001 0.02039206773042679 0.0 1.0140081644058228 1 True False
2467.844 4.4739155769348145 -1.2555124920657654 1.520998779927389 -1.8364173374571742 -1.570784870778219 2.903113603591919 0.9475561380386353 0.0676543191075325 -0.08905566483736038 0.02262370102107525 0.0 0.9572513699531555 1 True False
2467.894 4.519352436065674 -1.251985327606537 1.5166428724872034 -1.835367342034811 -1.5708087126361292 2.948716878890991 0.8769815564155579 0.062463581562042236 -0.08899060636758804 0.015417099930346012 0.0 0.869865357875824 1 True False
2467.944 4.5613603591918945 -1.2489321392825623 1.5126712957965296 -1.8343574009337367 -1.5707929770099085 2.9905288219451904 0.799740731716156 0.06043759733438492 -0.0743979662656784 0.020297139883041382 0.0 0.8031513690948486 1 True False
2467.9939999999997 4.5998029708862305 -1.2461790901473542 1.5088117758380335 -1.8335267506041468 -1.5708048979388636 3.028958797454834 0.7381582856178284 0.05318572744727135 -0.07033386826515198 0.02039235644042492 0.0 0.7450011372566223 1 True False
2468.044 4.634720802307129 -1.2435521644404908 1.505582634602682 -1.8326007328429164 -1.5707648436175745 3.0640454292297363 0.6688011288642883 0.0476851612329483 -0.06216820701956749 0.015279699116945267 -3.960764347250324e-14 0.6635071635246277 1 True False
2468.094 4.6662068367004395 -1.2413577300361176 1.502343479787008 -1.8319131336607875 -1.5707686583148401 3.09548282623291 0.5954504609107971 0.04433690756559372 -0.05494730547070503 0.015129690989851952 -6.016408206880924e-33 0.5940873622894287 1 True False
2468.144 4.694230556488037 -1.2392833095839997 1.4998162428485315 -1.8313123188414515 -1.5708168188678187 3.123441696166992 0.530021607875824 0.03689929097890854 -0.05083472281694412 0.011089921928942204 0.00011425874981796369 0.5280349850654602 1 True False
2468.194 4.718750476837158 -1.2374849778464814 1.4973824659930628 -1.8307391605772914 -1.5708048979388636 3.1477527618408203 0.4600294828414917 0.03447284922003746 -0.04586734250187874 0.010795173235237598 1.7889699805480346e-16 0.46784666180610657 1 True False
2468.2439999999997 4.739660263061523 -1.2359398764422913 1.495411221181051 -1.8303662739195765 -1.570836369191305 3.168874502182007 0.3871972858905792 0.02758057229220867 -0.035656481981277466 0.008838459849357605 2.7174499264711996e-35 0.37981611490249634 1 True False
2468.294 4.757067680358887 -1.2345979374698182 1.49377948442568 -1.8299170933165492 -1.5707886854754847 3.1863720417022705 0.3143702447414398 0.024684330448508263 -0.02900448814034462 0.00877861026674509 0.0 0.31385403871536255 1 True False
2468.344 4.7712507247924805 -1.2336042088321229 1.4924410025226038 -1.8295790157713832 -1.5707886854754847 3.200355052947998 0.24527768790721893 0.017103219404816628 -0.026473257690668106 0.007004086393862963 0.0 0.24853989481925964 1 True False
2468.394 4.781691551208496 -1.2328108710101624 1.4913886229144495 -1.8293363056578578 -1.5708168188678187 3.2108118534088135 0.1772487610578537 0.013477196916937828 -0.01870926097035408 0.005995710846036673 0.0 0.18163025379180908 1 True False
2468.444 4.788658142089844 -1.2322947543910523 1.4906218687640589 -1.829233308831686 -1.570853058491842 3.217916965484619 0.11216799169778824 0.006796279922127724 -0.010029247030615807 0.003579715033993125 0.0 0.10509809851646423 1 True False
2468.4939999999997 4.792276382446289 -1.2321349841407319 1.4903853575335901 -1.829142232934469 -1.5707805792437952 3.2214395999908447 0.039154887199401855 0.0016262157587334514 -0.0017984856385737658 0.0009074882254935801 0.0 0.03865974396467209 1 True False
2468.544 4.792658805847168 -1.2319730681231995 1.49052602449526 -1.8293806515135707 -1.5708254019366663 3.221883535385132 -0.0017487268196418881 0.01967940293252468 0.017500974237918854 -0.020014209672808647 0.0 -2.503253382357684e-09 1 True False
2468.594 4.79264497756958 -1.2305911046317597 1.4926441351519983 -1.832848688165182 -1.5708006064044397 3.221867084503174 0.00031499017495661974 0.03528250381350517 0.0642143040895462 -0.11159630864858627 0.0 0.00046307482989504933 1 True False
2468.644 4.792595386505127 -1.2283718448928376 1.4971306959735315 -1.839830060998434 -1.570813004170553 3.2218997478485107 0.00031855673296377063 0.05793320760130882 0.11937394738197327 -0.172016903758049 0.0 0.0004967468557879329 1 True False
2468.694 4.792635440826416 -1.2248020631125947 1.5042460600482386 -1.8503099880614222 -1.570784870778219 3.2218899726867676 0.0005790391587652266 0.08051322400569916 0.16496716439723969 -0.24345608055591583 0.0 0.000279884145129472 1 True False
2468.7439999999997 4.7927656173706055 -1.2200021606734772 1.5136964956866663 -1.8642059765257777 -1.5708048979388636 3.2219762802124023 0.0003878277784679085 0.10568926483392715 0.20981895923614502 -0.31443724036216736 0.0 0.00015975447604432702 1 True False
2468.794 4.792728424072266 -1.214255766277649 1.525018040333883 -1.881625314752096 -1.5707886854754847 3.2219018936157227 0.00019623582193162292 0.12634043395519257 0.24997448921203613 -0.373308926820755 0.0 9.784619032870978e-05 1 True False
2468.844 4.792707920074463 -1.207265393143036 1.53900653520693 -1.9025727711119593 -1.5707891623126429 3.2219436168670654 0.00010650498006725684 0.15053574740886688 0.29721829295158386 -0.4355049431324005 0.0 2.5244724383810535e-05 1 True False
2468.894 4.7926716804504395 -1.1989871126464386 1.555155102406637 -1.9269024334349574 -1.570784870778219 3.2219033241271973 8.322150097228587e-05 0.1767975389957428 0.3486919701099396 -0.5303118228912354 0.0 1.6544153547126683e-10 1 True False
2468.944 4.792712211608887 -1.1899238687804718 1.57298452058901 -1.9535495243468226 -1.5708087126361292 3.2219271659851074 6.2044896271764105e-25 0.1749393790960312 0.33738407492637634 -0.515539824962616 4.409026429675283e-24 2.513060521289622e-29 1 True False
2468.9939999999997 4.792724132537842 -1.1818630558303376 1.5884893576251429 -1.977603097955221 -1.570756737385885 3.221928834915161 7.994038605829701e-05 0.14430227875709534 0.29124051332473755 -0.440195769071579 6.6982066594726256e-43 0.0 1 True False
2469.044 4.7927165031433105 -1.1750697058490296 1.6020763556109827 -1.9979239902892054 -1.5707724730121058 3.2219033241271973 3.7881138268858194e-05 0.12759611010551453 0.24604740738868713 -0.3712496757507324 0.0 0.0 1 True False
2469.094 4.7927937507629395 -1.1693657499602814 1.6131914297686976 -2.0147654018797816 -1.570829216633932 3.2219555377960205 2.4821876650094055e-05 0.10246796160936356 0.1999059021472931 -0.31323492527008057 0.0 0.0 1 True False
2469.144 4.792654514312744 -1.164804146890976 1.622026268635885 -2.0281268558897914 -1.5708449522601526 3.2219555377960205 5.310046134217182e-19 0.08261018991470337 0.1582590937614441 -0.24469362199306488 0.0 0.0 1 True False
2469.194 4.792782783508301 -1.1613772970489045 1.628491226826803 -2.0381652317442835 -1.5707209745990198 3.2219316959381104 0.0 0.056307680904865265 0.11089480668306351 -0.16510696709156036 0.0 0.0 1 True False
2469.2439999999997 4.792684078216553 -1.1591734749129792 1.633021656666891 -2.044474264184469 -1.5708487669574183 3.2218973636627197 0.0 0.02781207486987114 0.05844033882021904 -0.09457718580961227 0.0 0.0 1 True False
2469.294 4.7927045822143555 -1.1583341521075745 1.6348803679095667 -2.0475412807860316 -1.5708211104022425 3.2219197750091553 0.0 0.010220378637313843 0.016683140769600868 -0.030364476144313812 0.0 0.0 1 True False
2469.344 4.792712211608887 -1.1582479935935517 1.634977165852682 -2.047664304772848 -1.570801083241598 3.221881866455078 0.0 -0.00021234217274468392 -5.0349608237876225e-20 6.730899622198194e-05 0.0 0.0 1 True False
2469.394 4.792649269104004 -1.1582935911468049 1.63501483598818 -2.047692438165182 -1.570829216633932 3.221924304962158 0.0 8.629590593045577e-05 4.237700341036543e-05 -7.472669676644728e-05 0.0 0.0 1 True False
2469.444 4.792707920074463 -1.1582654279521485 1.6349723974811 -2.047676225701803 -1.5707724730121058 3.221890926361084 0.0 0.0002444142592139542 4.9867619964061305e-05 -7.95042360550724e-05 0.0 0.0 1 True False
2469.4939999999997 4.7927374839782715 -1.1582459074309845 1.6350463072406214 -2.0476681194701136 -1.570813004170553 3.2219226360321045 0.0 0.00036205790820531547 0.00013796579150948673 -4.579666710924357e-05 0.0 0.0 1 True False
2469.544 4.792691230773926 -1.1582471591285248 1.6350372473346155 -2.0476843319334925 -1.5707724730121058 3.2219197750091553 0.0 0.0004710676148533821 0.0003610882558859885 -4.287171032046899e-05 0.0 0.0 1 True False
2469.594 4.792700290679932 -1.1581976872733613 1.6350982824908655 -2.0476566753783167 -1.570784870778219 3.2218987941741943 0.0 0.00014913504128344357 0.0001729946961859241 -8.105757842713501e-09 1.5756959352619561e-18 0.0 1 True False
2469.644 4.792740345001221 -1.158197746878006 1.635068718587057 -2.0476604900755824 -1.5708335081683558 3.2218987941741943 0.0 0.00014442915562540293 0.00013575681077782065 -1.2312667542286899e-27 2.3934859362240923e-37 0.0 1 True False
2469.694 4.792733192443848 -1.1582428079894562 1.6350773016559046 -2.0476604900755824 -1.570813004170553 3.2219316959381104 0.0 0.00011540591367520392 0.00010835575812961906 -0.0 0.0 0.0 1 True False
2469.7439999999997 4.792725563049316 -1.158251480465271 1.635047737752096 -2.047652383843893 -1.5708172957049769 3.221881866455078 0.0 0.00018805403669830412 8.660389721626416e-05 -5.529865302378312e-05 0.0 -4.054566131081981e-14 1 True False
2469.794 4.792695999145508 -1.158235178594925 1.6350820700274866 -2.047680517236227 -1.5708211104022425 3.2219033241271973 0.0 5.0530822623552904e-42 5.847615102538839e-05 -5.401165476043395e-17 0.0 2.5438177544856444e-05 1 True False
2469.844 4.792700290679932 -1.1581891042045136 1.6350567976581019 -2.047636171380514 -1.5708335081683558 3.221957206726074 0.0 0.0 1.1687927638524741e-18 -8.204385206466344e-36 0.0 1.4904755516909063e-05 1 True False
2469.894 4.792721271514893 -1.1582385164550324 1.6350372473346155 -2.0477167568602503 -1.5707925001727503 3.2219479084014893 0.0 0.0 -0.00017301275511272252 -0.002989638363942504 2.1706364705664782e-08 1.4253632230065705e-07 1 True False
2469.944 4.792712211608887 -1.158269779091217 1.6349971930133265 -2.0478722057738246 -1.5707529226886194 3.221952438354492 -1.611320216810728e-22 0.0001635243825148791 1.1811926220114954e-12 -5.06632641190663e-05 3.2972020796266586e-27 5.8117010824036e-14 1 True False
2469.9939999999997 4.792679309844971 -1.1582535368255158 1.634968105946676 -2.0478726826109828 -1.570801083241598 3.2219226360321045 0.0 0.00017770883277989924 2.7787748547561123e-42 0.0005269909161143005 0.0 8.827984615194457e-33 1 True False
2470.044 4.792679309844971 -1.158456639652588 1.6346305052386683 -2.046495100060934 -1.5708254019366663 3.221879005432129 0.0 -0.012653475627303123 -0.024981433525681496 0.05272591486573219 0.0 0.0 1 True True
2470.094 4.792700290679932 -1.1597055059722443 1.6318023840533655 -2.0424725017943324 -1.5707610289203089 3.221945285797119 0.0 -0.04409933090209961 -0.08255452662706375 0.11556225270032883 0.0 0.0 1 True True
2470.144 4.792730331420898 -1.162411854868271 1.6264532248126429 -2.0346061191954554 -1.5708168188678187 3.221935987472534 0.0 -0.06501676887273788 -0.13051995635032654 0.18792596459388733 0.0 0.0 1 True True
2470.194 4.792695999145508 -1.1663694840720673 1.6189096609698694 -2.023111959496969 -1.5708168188678187 3.221877336502075 0.0 -0.08755176514387131 -0.17224423587322235 0.26031777262687683 0.0 0.0 1 True True
2470.2439999999997 4.792657852172852 -1.1714455050281067 1.609091583882467 -2.008489271203512 -1.5708168188678187 3.221935987472534 0.0 -0.11358971893787384 -0.2217678725719452 0.3231261670589447 0.0 0.0 1 True True
2470.294 4.7926836013793945 -1.1775965851596375 1.596936051045553 -1.9900957546629847 -1.5707805792437952 3.2219271659851074 0.0 -0.13487018644809723 -0.26229095458984375 0.3942272365093231 8.848010931388053e-21 0.0 1 True True
2470.344 4.792740345001221 -1.1849593681148072 1.5825322310077112 -1.968393941918844 -1.5707805792437952 3.2219271659851074 0.0 -0.15704968571662903 -0.3060682415962219 0.4747042655944824 1.3440147844016829e-39 0.0 1 True True
2470.394 4.792695999145508 -1.1935237807086487 1.5657146612750452 -1.9431783161559046 -1.570784870778219 3.2219078540802 0.0 -0.1794814169406891 -0.3622690439224243 0.5304243564605713 0.0 0.0 1 True True
2470.444 4.7927093505859375 -1.202380047445633 1.5483158270465296 -1.9167496166624964 -1.5708087126361292 3.221961736679077 0.0 -0.16308051347732544 -0.3223225772380829 0.4946773946285248 0.0 0.0 1 True True
2470.4939999999997 4.7927165031433105 -1.2100893420032044 1.5330618063556116 -1.8937274418272914 -1.570756737385885 3.2218899726867676 0.0 -0.14897668361663818 -0.28024592995643616 0.41877058148384094 0.0 0.0 1 True True
2470.544 4.792724132537842 -1.2167362135699769 1.5203474203692835 -1.8742944202818812 -1.570813004170553 3.22186541557312 0.0 -0.11853479593992233 -0.22920040786266327 0.3477742671966553 0.0 0.0 1 True True
2470.594 4.792707920074463 -1.2221652430346985 1.5097368399249476 -1.858171125451559 -1.570772949849264 3.2219033241271973 0.0 -0.09645286202430725 -0.19152763485908508 0.3014847934246063 0.0 8.50909054861404e-05 1 True True
2470.644 4.792749404907227 -1.2262935799411316 1.5012710730182093 -1.845800062219137 -1.570813004170553 3.2219197750091553 0.0 -0.07414363324642181 -0.14736343920230865 0.22509947419166565 0.0 2.5740659111761488e-05 1 True True
2470.694 4.7927165031433105 -1.2292800408652802 1.495415989552633 -1.836597581902975 -1.5708373228656214 3.2219152450561523 0.0 -0.049962665885686874 -0.0963059589266777 0.14165718853473663 0.0 1.5008102309366222e-05 1 True True
2470.7439999999997 4.792657852172852 -1.2312867206386109 1.4918049017535608 -1.8310495815672816 -1.5708168188678187 3.2219033241271973 0.0 -0.026857780292630196 -0.053267695009708405 0.07790852338075638 0.0 1.0592129001452122e-05 1 True True
2470.794 4.792686939239502 -1.231977180843689 1.4903019110309046 -1.8291651211180628 -1.5708168188678187 3.221886396408081 0.0 -0.0010056968312710524 -0.004463679622858763 0.008017081767320633 0.0 1.3563404904241305e-20 1 True True
2470.844 4.791265487670898 -1.2319844526103516 1.4904382864581507 -1.8291379414000453 -1.5707805792437952 3.220500946044922 -0.06157182157039642 -0.0072561996057629585 0.001989893149584532 0.00027577424771152437 0.0 -0.0630456730723381 1 True True
2470.894 4.78641414642334 -1.2324663561633606 1.4908693472491663 -1.8291698894896449 -1.570772949849264 3.2155275344848633 -0.13441982865333557 -0.012255115434527397 0.011397605761885643 -0.00010573041799943894 0.0 -0.132396399974823 1 True True
2470.944 4.777984142303467 -1.2330933970263978 1.491605583821432 -1.8293606243529261 -1.570772949849264 3.2071738243103027 -0.2041807472705841 -0.014262260869145393 0.020713116973638535 -0.0059853196144104 0.0 -0.20763014256954193 1 True True
2470.9939999999997 4.765873432159424 -1.233945057993271 1.4927156607257288 -1.8296991787352503 -1.5707767645465296 3.1951587200164795 -0.26880013942718506 -0.01987552084028721 0.025253890082240105 -0.009315813891589642 0.0 -0.2713779807090759 1 True True
2471.044 4.750633239746094 -1.2350047093680878 1.4941437880145472 -1.8300487003722132 -1.570824925099508 3.1797285079956055 -0.34121930599212646 -0.024868838489055634 0.033746954053640366 -0.007968609221279621 0.0 -0.335006982088089 1 True True
2471.094 4.731582164764404 -1.236480252151825 1.4959285894977015 -1.8304821453490199 -1.5708211104022425 3.1608405113220215 -0.41159284114837646 -0.03193576633930206 0.039726149290800095 -0.007471797522157431 -3.925435670959487e-11 -0.40798071026802063 1 True True
2471.144 4.709339141845703 -1.2381585401347657 1.498153034840719 -1.8309947452940882 -1.570829216633932 3.138613224029541 -0.4825701117515564 -0.03539758920669556 0.04984692484140396 -0.010769748128950596 -5.962745687822913e-30 -0.48825597763061523 1 True True
2471.194 4.683535575866699 -1.2399605971625824 1.500751797352926 -1.8315545521178187 -1.5707691351519983 3.112602472305298 -0.5493162274360657 -0.040137309581041336 0.05293726176023483 -0.009753788821399212 -0.0 -0.5440146327018738 1 True True
2471.2439999999997 4.654056549072266 -1.2420966786197205 1.5034897963153284 -1.832346578637594 -1.5707925001727503 3.0833895206451416 -0.6229894757270813 -0.04730185121297836 0.05963021516799927 -0.014916596934199333 -8.078179234871641e-05 -0.6140004992485046 1 True True
2471.294 4.621200084686279 -1.2443982821753998 1.5068286100970667 -1.8330580196776332 -1.5707686583148401 3.0504589080810547 -0.6941145062446594 -0.049122318625450134 0.06488830596208572 -0.014624940231442451 -2.427128862989579e-19 -0.6828920841217041 1 True True
2471.344 4.584879398345947 -1.2471341055682679 1.5102289358722132 -1.8339368305602015 -1.570824925099508 3.014286518096924 -0.7619953751564026 -0.05541224032640457 0.07270926237106323 -0.0152428625151515 -3.6868142978207437e-38 -0.7678095102310181 1 True True
2471.394 4.545003414154053 -1.2500743430903931 1.5141308943377894 -1.834787508050436 -1.570756737385885 2.974273681640625 -0.8280068635940552 -0.05979425087571144 0.08096493035554886 -0.015448357909917831 -0.0 -0.8369196057319641 1 True True
2471.444 4.501769542694092 -1.2532664102366944 1.5180853048907679 -1.835734029809469 -1.5708449522601526 2.9308021068573 -0.9025396704673767 -0.06390313804149628 0.08636558055877686 -0.021392397582530975 -4.543631443310048e-11 -0.8980599641799927 1 True True
2471.4939999999997 4.454902172088623 -1.2565282148173829 1.5226524511920374 -1.83681120494985 -1.5707605520831507 2.8842594623565674 -0.9691579341888428 -0.0704529657959938 0.09488200396299362 -0.02071657031774521 -0.00010501407814444974 -0.9787067174911499 1 True True
2471.544 4.404618740081787 -1.2602448922446747 1.5274360815631312 -1.8379956684508265 -1.570829216633932 2.833796977996826 -1.0443300008773804 -0.07404813915491104 0.10327712446451187 -0.02276661992073059 6.752614808647195e-06 -1.0328844785690308 1 True True
2471.594 4.352327823638916 -1.2641138297370453 1.532388989125387 -1.8392359218993128 -1.5708211104022425 2.781367063522339 -1.0460143089294434 -0.07827910035848618 0.10194706916809082 -0.026402417570352554 0.00013327020860742778 -1.052294135093689 1 True True
2471.644 4.299877643585205 -1.2677835387042542 1.5376055876361292 -1.8404928646483363 -1.5708044211017054 2.729120969772339 -1.0463134050369263 -0.07810264825820923 0.09755126386880875 -0.02384674921631813 -1.0151760761800688e-05 -1.0460172891616821 1 True True
2471.694 4.247616291046143 -1.2716447871974488 1.5426948706256312 -1.8416773281493128 -1.570796314870016 2.676753520965576 -1.050616979598999 -0.07572983205318451 0.09869543462991714 -0.023656155914068222 -1.5420545492962002e-24 -1.0447719097137451 1 True True
2471.7439999999997 4.19511604309082 -1.2755070489696045 1.547528092061178 -1.8428336582579554 -1.5708449522601526 2.624293327331543 -1.0446580648422241 -0.07706570625305176 0.1000133827328682 -0.028528470546007156 -2.3401684354224445e-43 -1.0519273281097412 1 True True
2471.794 4.142751693725586 -1.2793246668628235 1.5524662176715296 -1.8440743885436 -1.5707929770099085 2.572110652923584 -1.045341968536377 -0.07760287076234818 0.10163038969039917 -0.022309685125947 -0.0 -1.0507595539093018 1 True True
2471.844 4.090454578399658 -1.2830540102771302 1.557596508656637 -1.8451792202391566 -1.5708087126361292 2.5196590423583984 -1.0497792959213257 -0.07239507138729095 0.09985961765050888 -0.0246700718998909 -0.0 -1.041009783744812 1 True True
2471.894 4.038065433502197 -1.2870168846896668 1.5625603834735315 -1.846431394616598 -1.570813004170553 2.4671707153320312 -1.0451663732528687 -0.07459424436092377 0.10436952114105225 -0.02496202103793621 -0.0 -1.0493535995483398 1 True True
2471.944 3.9856138229370117 -1.2907366317561646 1.5676534811602991 -1.847708364526266 -1.5707805792437952 2.414994478225708 -1.045987606048584 -0.07909448444843292 0.1018095314502716 -0.019705934450030327 -8.059625542955473e-06 -1.0475263595581055 1 True True
2471.9939999999997 3.9334726333618164 -1.2944941085628052 1.5727337042437952 -1.8488484821715296 -1.5708254019366663 2.3625710010528564 -1.0526679754257202 -0.07758639007806778 0.09803493320941925 -0.026193153113126755 -1.224258285146229e-24 -1.0365296602249146 1 True True
2472.044 3.881023645401001 -1.2983962458423157 1.5776470343219202 -1.849990030328268 -1.570801083241598 2.3100814819335938 -1.0438770055770874 -0.07526703923940659 0.09798263013362885 -0.026588642969727516 -1.8637269575520067e-43 -1.0507678985595703 1 True True
2472.094 3.8286337852478027 -1.3021930319121857 1.5826237837420862 -1.8512302837767542 -1.5707891623126429 2.257888078689575 -1.0437248945236206 -0.07615453749895096 0.10261771827936172 -0.02058085985481739 -0.0 -1.0482043027877808 1 True True
2472.144 3.7763307094573975 -1.305955396299698 1.5876606146441858 -1.8524743519225062 -1.5707839171039026 2.20550799369812 -1.0504086017608643 -0.07724243402481079 0.10011078417301178 -0.025455184280872345 -0.0 -1.0436067581176758 1 True True
2472.194 3.7238669395446777 -1.309827373628952 1.5926545302020472 -1.8537308178343714 -1.5708335081683558 2.1530539989471436 -1.0441031455993652 -0.07462446391582489 0.09932292252779007 -0.029769722372293472 -0.0 -1.0488451719284058 1 True True
2472.2439999999997 3.671555519104004 -1.3136651080897828 1.5978334585772913 -1.8548757038512171 -1.5707362333880823 2.1008996963500977 -1.0459691286087036 -0.0766524150967598 0.10036542266607285 -0.019670002162456512 -0.0 -1.052457571029663 1 True True
2472.294 3.6192054748535156 -1.317501501446106 1.6027820746051233 -1.8561002216734828 -1.5708168188678187 2.0484840869903564 -1.0512112379074097 -0.07501647621393204 0.10105694830417633 -0.024484742432832718 -0.0 -1.0451631546020508 1 True True
2472.344 3.5668082237243652 -1.321253315811493 1.607842747365133 -1.8573171101012171 -1.5708044211017054 1.9959760904312134 -1.0452067852020264 -0.0746484026312828 0.09792780876159668 -0.029377378523349762 -0.0 -1.0536386966705322 1 True True
2472.394 3.514512538909912 -1.325077862744667 1.6127613226519983 -1.858394285241598 -1.5708087126361292 1.943766713142395 -1.045419692993164 -0.07564488798379898 0.10061988979578018 -0.020456084981560707 -0.0 -1.0502617359161377 1 True True
2472.444 3.462221384048462 -1.3288477522185822 1.6177604834186 -1.8596583805479945 -1.5707767645465296 1.89138925075531 -1.0516108274459839 -0.0784376710653305 0.10448499023914337 -0.023986462503671646 -0.0 -1.0451455116271973 1 True True
2472.4939999999997 3.40974497795105 -1.3327162128737946 1.6227029005633753 -1.8609701595702113 -1.5707810560809534 1.8388208150863647 -1.0477708578109741 -0.07803909480571747 0.10443587601184845 -0.024106465280056 -0.0 -1.0436339378356934 1 True True
2472.544 3.357339859008789 -1.336494432096817 1.6277535597430628 -1.8621279201903285 -1.5707810560809534 1.7866523265838623 -1.0431612730026245 -0.07652168720960617 0.10300764441490173 -0.022885896265506744 -0.0 -1.04738187789917 1 True True
2472.594 3.3050663471221924 -1.3402741861394425 1.6329076925860804 -1.8633085689940394 -1.5707691351519983 1.7342650890350342 -1.0507675409317017 -0.07424914836883545 0.09905055910348892 -0.02280641347169876 -0.0 -1.0442256927490234 1 True True
2472.644 3.253042697906494 -1.3441588145545502 1.6379507223712366 -1.8645802936949671 -1.5708172957049769 1.6821867227554321 -1.0182996988296509 -0.07182656973600388 0.09495257586240768 -0.02459687739610672 -0.0 -1.0182068347930908 1 True True
2472.694 3.2039825916290283 -1.3476762783578415 1.6425569693194788 -1.8656054935851039 -1.5707805792437952 1.6332552433013916 -0.9490189552307129 -0.0689229965209961 0.08855754882097244 -0.0231638103723526 9.12924207341348e-08 -0.9454215168952942 1 True True
2472.7439999999997 3.158450126647949 -1.3510119777968903 1.6469858328448694 -1.8665954075255335 -1.570857350026266 1.5876362323760986 -0.8798882365226746 -0.06282586604356766 0.08387212455272675 -0.019589966163039207 8.086410525720567e-05 -0.8761090040206909 1 True True
2472.794 3.1164791584014893 -1.3540287178805848 1.6509106794940394 -1.867732664147848 -1.5708044211017054 1.54568612575531 -0.8087278604507446 -0.05805196240544319 0.07817216217517853 -0.020791586488485336 2.8720771297230385e-05 -0.8107752203941345 1 True True
2472.844 3.07785701751709 -1.3568968039802094 1.6545222441302698 -1.868643423120016 -1.570813004170553 1.507148027420044 -0.7368385195732117 -0.055572155863046646 0.06862496584653854 -0.020229170098900795 6.387144094333053e-05 -0.7413110733032227 1 True True
2472.894 3.042917013168335 -1.3594696682742615 1.6580703894244593 -1.8693434200682582 -1.5707772413836878 1.4720293283462524 -0.6655226349830627 -0.05085836723446846 0.06856966763734818 -0.015579483471810818 0.00015076890122145414 -0.6692783832550049 1 True True
2472.944 3.0111916065216064 -1.3618299228003998 1.6609872023211878 -1.8700267277159632 -1.570772949849264 1.440383791923523 -0.594651460647583 -0.04340282455086708 0.058740921318531036 -0.012452852912247181 8.116059325402603e-05 -0.6006639003753662 1 True True
2472.9939999999997 2.9831478595733643 -1.363787756567337 1.6637738386737269 -1.8707267246642054 -1.5708006064044397 1.4123551845550537 -0.5268210172653198 -0.03750932961702347 0.0509912371635437 -0.012799465097486973 -2.6129803615965175e-13 -0.5310307741165161 1 True True
2473.044 2.9586315155029297 -1.365607665186264 1.666159454976217 -1.871218820611471 -1.5707772413836878 1.387782096862793 -0.4560685157775879 -0.03243653476238251 0.046981777995824814 -0.010882528498768806 -3.9691227971086875e-32 -0.4583700895309448 1 True True
2473.094 2.937453269958496 -1.3671100300601502 1.6680720488177698 -1.871768137017721 -1.5707648436175745 1.3666672706604004 -0.3873867392539978 -0.028386740013957024 0.036943040788173676 -0.0069083599373698235 -0.0 -0.389553040266037 1 True True
2473.144 2.9197299480438232 -1.3684265178493042 1.6697352568255823 -1.8721939525999964 -1.5708649794207972 1.3489996194839478 -0.3212113380432129 -0.024135809391736984 0.02995244972407818 -0.007380659691989422 -0.0 -0.31941887736320496 1 True True
2473.194 2.905686378479004 -1.3694519710591813 1.671121899281637 -1.8724514446654261 -1.5707886854754847 1.3349387645721436 -0.24947747588157654 -0.0182283204048872 0.025875430554151535 -0.008027673698961735 0.0001441889035049826 -0.24726028740406036 1 True True
2473.2439999999997 2.8950929641723633 -1.3701953452876587 1.6721537748919886 -1.8727547130980433 -1.5708168188678187 1.3242642879486084 -0.18033820390701294 -0.013300378806889057 0.017428504303097725 -0.005431381985545158 3.5534972994355485e-05 -0.18200436234474182 1 True True
2473.294 2.8878426551818848 -1.3706664007953187 1.672844711934225 -1.8729220829405726 -1.5707886854754847 1.317017912864685 -0.10853879898786545 -0.0064710271544754505 0.011967563070356846 -0.001304116565734148 1.4723543245054316e-05 -0.1117246076464653 1 True True
