Andreas691667/Digital_Twin_UR/src/robot_connection_manager/robot_output/E2_joint5_1_robot_output.csv
timestamp actual_q_0 actual_q_1 actual_q_2 actual_q_3 actual_q_4 actual_q_5 actual_qd_0 actual_qd_1 actual_qd_2 actual_qd_3 actual_qd_4 actual_qd_5 safety_status output_bit_register_65 output_bit_register_66
2225.136 3.7120776176452637 -0.8254543107799073 0.8430007139789026 -1.5882612667479457 -1.5707891623126429 2.1412720680236816 0.0 0.0 0.0 0.0 0.0 0.0 1 False False
2225.1859999999997 3.7120981216430664 -0.8254333895495911 0.8429649511920374 -1.588320871392721 -1.570772949849264 2.1412341594696045 0.0 0.0 0.0 0.0 0.0 0.0 1 False False
2225.236 3.7120862007141113 -0.8255291146091004 0.8429678122149866 -1.5882379017271937 -1.5707686583148401 2.141275405883789 0.0 0.0 0.0 0.0 0.0 0.0 1 False False
2225.286 3.7120449542999268 -0.8254305285266419 0.842992130910055 -1.5882774792113246 -1.570801083241598 2.141275405883789 0.0 0.0 0.0 0.0 0.0 -3.1381709297145788e-12 1 False False
2225.336 3.7120871543884277 -0.825495795612671 0.8429811636554163 -1.5883361301817835 -1.570784870778219 2.141270875930786 0.0 0.0 0.0 0.0 0.0 -4.766891022527999e-31 1 False False
2225.386 3.7120981216430664 -0.8254913848689576 0.8429754416095179 -1.5883056126036585 -1.570772949849264 2.14132022857666 0.0 0.0 0.0 0.0 0.0 -0.0 1 False False
2225.4359999999997 3.7121024131774902 -0.8254543107799073 0.8429606596576136 -1.5883618793883265 -1.5708048979388636 2.1412384510040283 0.0 0.0 0.0 0.0 0.0 -0.0 1 False False
2225.486 3.712095022201538 -0.825495795612671 0.8429845015155237 -1.5882932148375453 -1.5707724730121058 2.1412546634674072 0.0 0.0 0.0 0.0 0.0 -0.0 1 False False
2225.536 3.7120862007141113 -0.8254736226848145 0.8429306189166468 -1.5883332691588343 -1.570772949849264 2.1413073539733887 0.0 0.0 0.0 0.0 0.0 0.00022288579202722758 1 False False
2225.586 3.7121236324310303 -0.8254794639400025 0.8429887930499476 -1.5882569752135218 -1.570813004170553 2.141270875930786 0.0 0.0 0.0 0.0 0.0 5.825315652737822e-18 1 False False
2225.636 3.712095260620117 -0.8254706424525757 0.8429811636554163 -1.5882488689818324 -1.5707929770099085 2.1412839889526367 0.0 0.0 0.0 0.0 0.0 8.848668429833548e-37 1 False False
2225.6859999999997 3.7120535373687744 -0.8254905504039307 0.8429763952838343 -1.5882498226561488 -1.570784870778219 2.141296863555908 0.0 0.0 0.0 0.0 0.0 0.0 1 False False
2225.736 3.7120490074157715 -0.8255202931216736 0.8429802099810999 -1.5882817707457484 -1.5707972685443323 2.141287088394165 0.0 0.0 0.0 0.0 0.0 0.0 1 False False
2225.786 3.7120907306671143 -0.8254794639400025 0.8430007139789026 -1.588252683679098 -1.5707648436175745 2.141317129135132 0.0 0.0 0.0 0.0 0.0 0.0 1 False False
2225.836 3.7120907306671143 -0.8254543107799073 0.8429673353778284 -1.5882817707457484 -1.570801083241598 2.141324758529663 0.0 0.0 0.0 0.0 0.0 0.0 1 False False
2225.886 3.7120935916900635 -0.8254217070392151 0.8429306189166468 -1.5883056126036585 -1.5707767645465296 2.141267776489258 0.0 0.0 0.0 0.0 0.0 0.0 1 False False
2225.9359999999997 3.7120907306671143 -0.8254869145205994 0.8430054823504847 -1.5882846317686976 -1.5708087126361292 2.1412742137908936 0.0 0.0 0.0 0.0 0.0 0.0 1 False False
2225.986 3.712095022201538 -0.8255319756320496 0.8429854551898401 -1.5882488689818324 -1.570801083241598 2.141275405883789 0.0 0.0 0.0 0.0 0.0 0.0 1 False False
2226.036 3.712106943130493 -0.8254750531962891 0.8429349104510706 -1.588285585443014 -1.5707767645465296 2.141296863555908 0.0 0.0 0.0 0.0 0.0 0.0 1 False False
2226.086 3.712062358856201 -0.8255039614490052 0.8429482618915003 -1.5882932148375453 -1.5707843939410608 2.141279697418213 0.0 0.0 0.0 0.0 0.0 0.0 1 False False
2226.136 3.712045669555664 -0.8255112332156678 0.8429606596576136 -1.5882774792113246 -1.570784870778219 2.141295909881592 0.0 0.0 0.0 0.0 0.0 0.0 1 False False
2226.1859999999997 3.712078809738159 -0.8254082959941407 0.8429935614215296 -1.5882889233031214 -1.570784870778219 2.141251564025879 0.0 0.0 0.0 0.0 0.0 0.0 1 False False
2226.236 3.7120490074157715 -0.825457291012146 0.842992130910055 -1.5882569752135218 -1.5707805792437952 2.141345262527466 0.0 0.0 0.0 0.0 0.0 0.0 1 False False
2226.286 3.7120490074157715 -0.8254706424525757 0.8429935614215296 -1.5883261166014613 -1.5707843939410608 2.1412665843963623 0.0 0.0 0.0 0.0 0.0 0.0 1 False False
2226.336 3.7120578289031982 -0.8254217070392151 0.8430054823504847 -1.5882889233031214 -1.5707767645465296 2.1412997245788574 0.0 0.0 0.0 0.0 0.0 0.0 1 False False
2226.386 3.712038278579712 -0.8254706424525757 0.8429349104510706 -1.5882846317686976 -1.5707886854754847 2.141263484954834 0.0 0.0 0.0 0.0 0.0 0.0 1 False False
2226.4359999999997 3.7120578289031982 -0.8254913848689576 0.8429845015155237 -1.588297029534811 -1.5707891623126429 2.1412839889526367 0.0 0.0 0.0 0.0 0.0 0.0 1 False False
2226.486 3.712078809738159 -0.8254380387118836 0.8429845015155237 -1.588269372979635 -1.5707486311541956 2.141284227371216 0.0 0.0 0.0 0.0 0.0 0.0 1 False False
2226.536 3.712111473083496 -0.8254949611476441 0.8429473082171839 -1.588245531121725 -1.5708044211017054 2.1413204669952393 0.0 0.0 0.0 0.0 0.0 0.0 1 False False
2226.586 3.712066888809204 -0.8254676026156922 0.8429892698871058 -1.5883051357665003 -1.570829216633932 2.1413004398345947 0.0 0.0 0.0 0.0 0.0 0.0 1 False False
2226.636 3.712062358856201 -0.8255039614490052 0.8429349104510706 -1.5882169208922328 -1.5708330313311976 2.141296148300171 0.0 0.0 0.0 0.0 0.0 0.0 1 False False
2226.6859999999997 3.712111473083496 -0.825466052894928 0.8429606596576136 -1.5882774792113246 -1.570784870778219 2.1413004398345947 0.0 0.0 0.0 0.0 0.0 0.0 1 False False
2226.736 3.7120816707611084 -0.825466052894928 0.8429721037494105 -1.5882412395873011 -1.5708206335650843 2.1413040161132812 0.0 0.0 0.0 0.0 0.0 0.0 1 False False
2226.786 3.7121026515960693 -0.8254823845675965 0.8429892698871058 -1.588269372979635 -1.5707967917071741 2.141279697418213 0.0 0.0 0.0 0.0 0.0 0.0 1 False False
2226.836 3.712062358856201 -0.8254543107799073 0.8429606596576136 -1.5882817707457484 -1.5707767645465296 2.141249895095825 0.0 0.0 0.0 0.0 0.0 0.0 1 False False
2226.886 3.712123394012451 -0.8255455058864136 0.8429978529559534 -1.5883175335326136 -1.5707767645465296 2.1413040161132812 0.0 0.0 0.0 0.0 0.0 0.0 1 False False
2226.9359999999997 3.712062358856201 -0.8254571718028565 0.8429649511920374 -1.588297029534811 -1.5707967917071741 2.141270637512207 0.0 0.0 0.0 0.0 0.0 0.0 1 False False
2226.986 3.7121071815490723 -0.825495795612671 0.8429234663592737 -1.5882817707457484 -1.5708168188678187 2.1412930488586426 0.0 0.0 0.0 0.0 0.0 0.0 1 False False
2227.036 3.7121267318725586 -0.8254950207522889 0.8429515997516077 -1.588252683679098 -1.5708006064044397 2.1412394046783447 0.0 0.0 0.0 0.0 0.0 0.0 1 False False
2227.086 3.7120578289031982 -0.8254497212222596 0.8429349104510706 -1.588320871392721 -1.5708330313311976 2.141267776489258 0.0 0.0 0.0 0.0 0.0 0.0 1 False False
2227.136 3.7121145725250244 -0.8254571718028565 0.8430054823504847 -1.5883013210692347 -1.5708487669574183 2.141258955001831 0.0 0.0 0.0 0.0 0.0 0.0 1 False False
2227.1859999999997 3.7120816707611084 -0.8254543107799073 0.8429806868182581 -1.5882498226561488 -1.5708211104022425 2.1413040161132812 0.0 0.0 0.0 0.0 0.0 0.0 1 False False
2227.236 3.7120862007141113 -0.8254587215236207 0.8429563681231897 -1.588297029534811 -1.5707767645465296 2.141279697418213 0.0 0.0 0.0 0.0 0.0 0.0 1 False False
2227.286 3.7120578289031982 -0.8254706424525757 0.8429473082171839 -1.5882889233031214 -1.5708330313311976 2.141267776489258 0.0 0.0 0.0 0.0 0.0 0.0 1 False False
2227.336 3.7120606899261475 -0.8255083721927186 0.8430054823504847 -1.5882817707457484 -1.5707767645465296 2.141284227371216 0.0 0.0 0.0 0.0 0.0 0.0 1 False False
2227.386 3.7120981216430664 -0.8255039614490052 0.8429396788226526 -1.5882412395873011 -1.5708168188678187 2.1413040161132812 0.0 0.0 0.0 0.0 0.0 0.0 1 False False
2227.4359999999997 3.7120907306671143 -0.8254913848689576 0.8430050055133265 -1.5882932148375453 -1.5707886854754847 2.1413204669952393 0.0 0.0 0.0 0.0 0.0 0.0 1 False False
2227.486 3.7120981216430664 -0.8254869145205994 0.8429721037494105 -1.5882932148375453 -1.5708172957049769 2.14127516746521 0.0 0.0 0.0 0.0 0.0 0.0 1 False False
2227.536 3.7120697498321533 -0.8254659932902833 0.8429721037494105 -1.588320871392721 -1.5707610289203089 2.14127516746521 0.0 0.0 0.0 0.0 0.0 0.0 1 False False
2227.586 3.7120532989501953 -0.825470582847931 0.8429306189166468 -1.5883051357665003 -1.5707967917071741 2.141291618347168 0.0 0.0 0.0 0.0 0.0 0.0 1 False False
2227.636 3.712062358856201 -0.8254496616176148 0.8429721037494105 -1.5882774792113246 -1.5708168188678187 2.141270637512207 0.0 0.0 0.0 0.0 0.0 0.0 1 False False
2227.6859999999997 3.7120771408081055 -0.8255247634700318 0.8429721037494105 -1.5882817707457484 -1.570801083241598 2.141267776489258 0.0 0.0 0.0 0.0 0.0 0.0 1 False False
2227.736 3.7120652198791504 -0.8255157035640259 0.8429678122149866 -1.5883008442320765 -1.570784870778219 2.141254186630249 0.0 0.0 0.0 0.0 0.0 0.0 1 False False
2227.786 3.7120323181152344 -0.8254949611476441 0.8429635206805628 -1.588245531121725 -1.5707486311541956 2.1413049697875977 0.0 0.0 0.0 0.0 0.0 0.0 1 False False
2227.836 3.7121026515960693 -0.8255083721927186 0.8429721037494105 -1.5882212124266566 -1.5708044211017054 2.1412885189056396 0.0 0.0 0.0 0.0 0.0 0.0 1 False False
2227.886 3.7121026515960693 -0.825463132267334 0.8429520765887659 -1.5882379017271937 -1.5707929770099085 2.141308546066284 0.0 0.0 0.0 0.0 0.0 0.0 1 False False
2227.9359999999997 3.7121026515960693 -0.825495795612671 0.8429973761187952 -1.5882417164244593 -1.5707562605487269 2.141300678253174 0.0 0.0 0.0 0.0 0.0 0.0 1 False False
2227.986 3.7120816707611084 -0.8254869145205994 0.8429721037494105 -1.5882889233031214 -1.5707610289203089 2.141266107559204 0.0 0.0 0.0 0.0 0.0 0.0 1 True False
2228.036 3.7120535373687744 -0.8254734438708802 0.8429563681231897 -1.588292738000387 -1.5707925001727503 2.141324996948242 0.0 0.0 0.0 0.0 0.0 -1.1217429903451702e-15 1 True False
2228.086 3.712083101272583 -0.8255039614490052 0.8429721037494105 -1.588292738000387 -1.5707891623126429 2.1413474082946777 0.0 0.0 0.0 0.0 0.0 -1.7039301450116436e-34 1 True False
2228.136 3.712106943130493 -0.825495795612671 0.8429887930499476 -1.588332315484518 -1.5708048979388636 2.141230583190918 0.0 0.0 0.0 0.0 0.0 -0.0 1 True False
2228.1859999999997 3.712083101272583 -0.8255202931216736 0.8429802099810999 -1.5883094273009242 -1.5707686583148401 2.141296148300171 0.0 0.0 0.0 0.0 0.0 -0.0 1 True False
2228.236 3.712111473083496 -0.8254838746837159 0.8429887930499476 -1.5883094273009242 -1.5708048979388636 2.141300678253174 0.0 0.0 0.0 0.0 0.0 -0.0 1 True False
2228.286 3.712083101272583 -0.8254468005946656 0.8429964224444788 -1.588292738000387 -1.5707925001727503 2.141296148300171 0.0 0.0 0.0 0.0 0.0 -0.0 1 True False
2228.336 3.7120447158813477 -0.8254706424525757 0.8429930845843714 -1.5882774792113246 -1.5708087126361292 2.1412885189056396 0.0 0.0 0.0 0.0 0.0 -0.0 1 True False
2228.386 3.712066650390625 -0.8254706424525757 0.8429930845843714 -1.5882774792113246 -1.5708168188678187 2.141127824783325 0.0 0.0 0.0 0.0 0.0 -0.0 1 True False
2228.4359999999997 3.712033987045288 -0.8254587215236207 0.8430050055133265 -1.588269372979635 -1.5708048979388636 2.1412603855133057 0.0 0.0 0.0 0.0 0.0 0.0002653854025993496 1 True False
2228.486 3.712095022201538 -0.8255171936801453 0.8429196516620081 -1.5882846317686976 -1.5707686583148401 2.141322135925293 0.0 0.0 0.0 0.0 0.0 0.00010098027996718884 1 True False
2228.536 3.71207857131958 -0.8254572314075013 0.8429849783526819 -1.5882569752135218 -1.5708325544940394 2.141336679458618 0.0 0.0 0.0 0.0 0.0 -4.4135458665550686e-07 1 True False
2228.586 3.7121200561523438 -0.8254779738238831 0.8429802099810999 -1.5882889233031214 -1.5707605520831507 2.141296148300171 0.0 0.0 0.0 0.0 0.0 -6.70418493942251e-26 1 True False
2228.636 3.7128169536590576 -0.8259348434260865 0.8435090223895472 -1.5885406933226527 -1.5708406607257288 2.142049551010132 0.04755648970603943 -0.025119682773947716 0.03546407073736191 -0.02092185989022255 0.0 0.045293573290109634 1 True False
2228.6859999999997 3.71673321723938 -0.8279480499080201 0.846712891255514 -1.5895687542357386 -1.5708325544940394 2.146158218383789 0.11053156852722168 -0.055814385414123535 0.09277056902647018 -0.027363158762454987 0.0 0.11443907022476196 1 True False
2228.736 3.7245280742645264 -0.8317716878703614 0.8527644316302698 -1.5916711292662562 -1.5707724730121058 2.1537418365478516 0.19196303188800812 -0.09560826420783997 0.1410982310771942 -0.054683979600667953 0.0 0.18392953276634216 1 True False
2228.786 3.735589027404785 -0.8376137775233765 0.8612168470965784 -1.5945097408690394 -1.5708048979388636 2.1647987365722656 0.2573297619819641 -0.12932223081588745 0.20038160681724548 -0.06755951046943665 0.0 0.24978064000606537 1 True False
2228.836 3.750253915786743 -0.8450684708407898 0.8725999037372034 -1.5983263454832972 -1.5708168188678187 2.1793406009674072 0.32658642530441284 -0.16390930116176605 0.2532787621021271 -0.09681703895330429 6.563635808960912e-17 0.3214717507362366 1 True False
2228.886 3.7682301998138428 -0.8542323273471375 0.8865922133075159 -1.603067537347311 -1.570784870778219 2.197368621826172 0.3974825441837311 -0.19976353645324707 0.30419883131980896 -0.10424366593360901 9.970178037577415e-36 0.39375564455986023 1 True False
2228.9359999999997 3.789794445037842 -0.865319625740387 0.9033821264850062 -1.6087242565550746 -1.5708211104022425 2.219012975692749 0.46290361881256104 -0.24320949614048004 0.3597944974899292 -0.11631619930267334 6.713270704494789e-05 0.4600997865200043 1 True False
2228.986 3.8149280548095703 -0.8782317799380799 0.9227998892413538 -1.6154352627196253 -1.5708048979388636 2.243967056274414 0.5369088053703308 -0.2745610475540161 0.4131791591644287 -0.13874350488185883 5.746444730903022e-05 0.5307657718658447 1 True False
2229.036 3.8433027267456055 -0.8928812903216858 0.9449861685382288 -1.6229030094542445 -1.5707967917071741 2.2724151611328125 0.6055315136909485 -0.31007182598114014 0.46604087948799133 -0.1511477679014206 7.118852729526282e-11 0.6087270379066467 1 True False
2229.086 3.875317335128784 -0.9092093271068116 0.9697836081134241 -1.6314245663084925 -1.5708168188678187 2.304450750350952 0.6713723540306091 -0.34278935194015503 0.5214368104934692 -0.17102614045143127 1.0813554217621086e-29 0.6776043176651001 1 True False
2229.136 3.9107418060302734 -0.9272592228702088 0.9974468390094202 -1.640616079370016 -1.5707925001727503 2.3399507999420166 0.7464563846588135 -0.3837643563747406 0.5844503045082092 -0.20060834288597107 1.6830548702273518e-05 0.7480202913284302 1 True False
2229.1859999999997 3.9497761726379395 -0.9474913042834778 1.027529541646139 -1.6511088810362757 -1.5707648436175745 2.3790862560272217 0.8168699145317078 -0.4183746874332428 0.6277887225151062 -0.21494866907596588 1.4658751126391738e-15 0.8080880045890808 1 True False
2229.236 3.992363214492798 -0.9691128891757508 1.0606921354876917 -1.6621796093382777 -1.5708044211017054 2.4214494228363037 0.8793575167655945 -0.4472087323665619 0.6893049478530884 -0.23600950837135315 2.226668465019358e-34 0.879489541053772 1 True False
2229.286 4.038232326507568 -0.9927474421313782 1.0962908903705042 -1.6743222675719203 -1.570829216633932 2.467414140701294 0.9550026059150696 -0.4914070963859558 0.7411625981330872 -0.24377505481243134 0.0 0.9590345621109009 1 True False
2229.336 4.087695598602295 -1.0181089800647278 1.134773079548971 -1.6875506840147914 -1.5707605520831507 2.51678204536438 1.0205647945404053 -0.5283915400505066 0.7909742593765259 -0.26996558904647827 0.0 1.0186846256256104 1 True False
2229.386 4.139747142791748 -1.044716553097107 1.1752527395831507 -1.7012163601317347 -1.5707610289203089 2.5691440105438232 1.0482767820358276 -0.5389013290405273 0.8095003366470337 -0.26541227102279663 0.0 1.0441361665725708 1 True False
2229.4359999999997 4.192138671875 -1.0715697270682831 1.215839687977926 -1.7149502239623011 -1.5707686583148401 2.62139630317688 1.0501600503921509 -0.5361393690109253 0.8099839687347412 -0.2851768434047699 1.1786936982005614e-09 1.0499686002731323 1 True False
2229.486 4.24459171295166 -1.0983849924853821 1.2566350142108362 -1.7288714847960414 -1.5707967917071741 2.6738030910491943 1.0442538261413574 -0.533245861530304 0.8112956285476685 -0.26987162232398987 -0.00015949794033076614 1.0448881387710571 1 True False
2229.536 4.296890735626221 -1.1253898006728669 1.2972567717181605 -1.7426296673216761 -1.570829216633932 2.726224422454834 1.048909306526184 -0.5356287956237793 0.8130552172660828 -0.2618020474910736 -2.6118603273062035e-05 1.047991394996643 1 True False
2229.586 4.349279403686523 -1.1521758300117035 1.3378256003009241 -1.756449361840719 -1.570829216633932 2.778500556945801 1.048689842224121 -0.532966136932373 0.8126678466796875 -0.2656905949115753 -0.0005030010361224413 1.056725025177002 1 True False
2229.636 4.401631832122803 -1.1789049965194245 1.3783624807940882 -1.7703753910460414 -1.5708611647235315 2.8307690620422363 1.0453112125396729 -0.533399760723114 0.8145073056221008 -0.2635040283203125 -0.00015496833657380193 1.0431954860687256 1 True False
2229.6859999999997 4.4527435302734375 -1.2051834923079987 1.4180992285357874 -1.7839590511717738 -1.5708168188678187 2.882002115249634 0.9883276224136353 -0.5102651715278625 0.7640008926391602 -0.2595113217830658 -3.396721149329096e-05 0.9841446280479431 1 True False
2229.736 4.500359058380127 -1.2296019357493897 1.4551551977740687 -1.7963468037047328 -1.5707967917071741 2.9295260906219482 0.9152306318283081 -0.47212502360343933 0.7082676887512207 -0.23247738182544708 -0.00014740490587428212 0.9193330407142639 1 True False
2229.786 4.544565200805664 -1.252207950954773 1.4895804564105433 -1.8078600368895472 -1.5707805792437952 2.973828077316284 0.8557701706886292 -0.4317181706428528 0.6624547839164734 -0.22171838581562042 -0.00012342273839749396 0.8503475189208984 1 True False
2229.836 4.585204124450684 -1.2730339926532288 1.5209949652301233 -1.818632265130514 -1.5708087126361292 3.0144271850585938 0.7791566848754883 -0.39572709798812866 0.6138676404953003 -0.1963375210762024 6.807335739722475e-05 0.7745431661605835 1 True False
2229.886 4.6224894523620605 -1.2922012370875855 1.549830738698141 -1.8286391697325648 -1.5708406607257288 3.0515244007110596 0.7072168588638306 -0.36289986968040466 0.551730751991272 -0.18592563271522522 4.361453667914951e-22 0.7120918035507202 1 True False
2229.9359999999997 4.65623664855957 -1.3093570929816742 1.5761144796954554 -1.8374840221800746 -1.5707524458514612 3.085174798965454 0.639443039894104 -0.3267943263053894 0.49686574935913086 -0.16551604866981506 8.85551271494478e-05 0.651223361492157 1 True False
2229.986 4.68639612197876 -1.3249018353274842 1.5993531386004847 -1.8455258808531703 -1.5707972685443323 3.115495443344116 0.5686864852905273 -0.294793963432312 0.4453594982624054 -0.14463719725608826 -6.629126687585085e-07 0.5759231448173523 1 True False
2230.036 4.712968349456787 -1.338536412721016 1.6202004591571253 -1.852476259271139 -1.570829216633932 3.142225742340088 0.49992117285728455 -0.2643439471721649 0.38155338168144226 -0.133795365691185 -1.0069655380750665e-25 0.5020167827606201 1 True False
2230.086 4.736170768737793 -1.3504529756358643 1.6383503119098108 -1.8585106335081996 -1.5707925001727503 3.1656200885772705 0.42799097299575806 -0.21501146256923676 0.3376612067222595 -0.10446707904338837 1.0560443115537055e-06 0.42797601222991943 1 True False
2230.136 4.7559614181518555 -1.36065265656028 1.653407398854391 -1.8638965092101039 -1.5707605520831507 3.1851983070373535 0.35718122124671936 -0.18732868134975433 0.27620023488998413 -0.09243855625391006 1.6041341061439875e-25 0.35997670888900757 1 True False
2230.1859999999997 4.772315979003906 -1.3688836258700867 1.6663649717914026 -1.8681756458678187 -1.5707767645465296 3.2013609409332275 0.28732216358184814 -0.15141694247722626 0.22841878235340118 -0.09154954552650452 2.382207389352189e-44 0.29312071204185486 1 True False
2230.236 4.784917831420898 -1.37550442040477 1.6759689489947718 -1.871486326257223 -1.5708406607257288 3.2142019271850586 0.22191663086414337 -0.11293140053749084 0.17064489424228668 -0.05406573787331581 -2.008283676076944e-13 0.22243307530879974 1 True False
2230.286 4.794244766235352 -1.380206049685814 1.6832740942584437 -1.8738566837706507 -1.570784870778219 3.223468065261841 0.15370628237724304 -0.07446730136871338 0.11705383658409119 -0.044241052120923996 -3.0505871032723365e-32 0.1519884467124939 1 True False
2230.336 4.8000006675720215 -1.3831671488336106 1.6877449194537562 -1.8755055866637171 -1.5708335081683558 3.2292232513427734 0.0825156718492508 -0.04068632796406746 0.0639311745762825 -0.016110863536596298 -0.0 0.08171399682760239 1 True False
2230.386 4.80228328704834 -1.384328232412674 1.6894944349872034 -1.8760138950743617 -1.5707529226886194 3.231565475463867 0.013447868637740612 -0.005522247403860092 0.00975506380200386 -0.0007438830798491836 -0.0 0.014312109909951687 1 True False
2230.4359999999997 4.802278995513916 -1.3838707369617005 1.6904867331134241 -1.8773027859129847 -1.5708335081683558 3.2314836978912354 0.001976887695491314 0.01821410097181797 0.03818125277757645 -0.053221043199300766 0.00010079130879603326 5.656996290781535e-05 1 True False
2230.486 4.802288055419922 -1.382363886838295 1.6935222784625452 -1.882083078423971 -1.5708211104022425 3.2315239906311035 0.0002580963773652911 0.04648834094405174 0.08161261677742004 -0.13560950756072998 6.298257358139381e-05 0.0003679815272334963 1 True False
2230.536 4.802332401275635 -1.3792602878860016 1.6987488905536097 -1.8903104267516078 -1.570829216633932 3.2314987182617188 0.0016296642133966088 0.07420307397842407 0.1252751350402832 -0.2020612210035324 2.808998033287935e-05 0.00026255668490193784 1 True False
2230.586 4.802298545837402 -1.3748570692590256 1.705970589314596 -1.9019180736937464 -1.5707686583148401 3.2315402030944824 0.0007792295655235648 0.09740845859050751 0.1685570627450943 -0.2616276741027832 3.0135910492390394e-05 0.00017128870240412652 1 True False
2230.636 4.802347660064697 -1.3692782533219834 1.7156804243670862 -1.9170719585814417 -1.570784870778219 3.231510877609253 0.00020167377078905702 0.12399768829345703 0.2129550576210022 -0.3376924395561218 1.6655914489527817e-23 0.00011558375263120979 1 True False
2230.6859999999997 4.802375793457031 -1.3625221264413376 1.7274788061725062 -1.9357973537840785 -1.5707772413836878 3.231538772583008 0.00010199269308941439 0.1522633582353592 0.26284685730934143 -0.4042714238166809 2.5307450265706196e-42 9.851974027696997e-05 1 True False
2230.736 4.802353382110596 -1.354322926407196 1.7414420286761683 -1.9579793415465296 -1.5708048979388636 3.231501817703247 7.812431431375444e-05 0.17207711935043335 0.29890745878219604 -0.47699472308158875 0.0 7.082843512762338e-05 1 True False
2230.786 4.8023552894592285 -1.3448278468898316 1.757754151021139 -1.9834596119322718 -1.5708211104022425 3.231572151184082 5.46655299152321e-12 0.20008371770381927 0.3480597138404846 -0.5449731945991516 1.2777611857472948e-08 9.260330250217623e-23 1 True False
2231.036 4.802383899688721 -1.306492106323578 1.8237407843219202 -2.087907453576559 -1.5707772413836878 3.231572151184082 0.0 0.09095284342765808 0.15632221102714539 -0.23707836866378784 2.4793060782400686e-34 7.67183701743135e-23 1 True False
2231.086 4.802350997924805 -1.30271731436763 1.8301528135882776 -2.098473211328024 -1.5708406607257288 3.231518268585205 0.0 0.06329638510942459 0.11305223405361176 -0.17250703275203705 0.0 1.165319802932518e-41 1 True False
2231.136 4.802369117736816 -1.3001110714725037 1.8345959822284144 -2.105386873284811 -1.5707805792437952 3.2315597534179688 4.318865074504211e-21 0.039308685809373856 0.06458234041929245 -0.10386944562196732 0.0 0.0 1 True False
2231.1859999999997 4.802379131317139 -1.2988028985312958 1.83690053621401 -2.1087519131102503 -1.570784870778219 3.2315597534179688 0.0 0.01424647681415081 0.026378631591796875 -0.037930190563201904 0.0 0.0 1 True False
2231.236 4.802395820617676 -1.2987723511508484 1.8371270338641565 -2.1092688045897425 -1.5708335081683558 3.2315597534179688 0.0 -0.0005235497956164181 -3.253595004905959e-15 0.00017920025857165456 0.0 0.0 1 True False
2231.286 4.8023552894592285 -1.2988227766803284 1.8370941321002405 -2.1093012295165003 -1.570813004170553 3.2315521240234375 0.0 6.503681652247906e-05 -7.006492321624085e-45 -8.760071796132252e-05 0.0 0.0 1 True False
2231.336 4.802395820617676 -1.2987768214992066 1.8371270338641565 -2.1092683277525843 -1.570784870778219 3.231510877609253 0.0 9.861603030003607e-05 0.00016676608356647193 -6.461943121394143e-05 0.0 0.0 1 True False
2231.386 4.802379608154297 -1.2987752121737977 1.8371217886554163 -2.109260221520895 -1.5707686583148401 3.231539011001587 0.0 0.00013294424570631236 0.0002580844156909734 -0.00011161043221363798 0.0 0.0 1 True False
2231.4359999999997 4.802347660064697 -1.2987335485270997 1.837175194417135 -2.1092969379820765 -1.5707724730121058 3.2315478324890137 0.0 0.0003277845389675349 0.0002926803135778755 -0.0001821346813812852 0.0 0.0 1 True False
2231.486 4.802334308624268 -1.2986884874156495 1.8371260801898401 -2.109316488305563 -1.570813004170553 3.2315478324890137 -7.461867095408287e-35 0.00016118757775984704 0.00020694328122772276 -0.000187388839549385 0.0 0.0 1 True False
2231.536 4.802292346954346 -1.2987469297698517 1.8371785322772425 -2.1092807255186976 -1.5707886854754847 3.23154354095459 0.0 0.00011922833800781518 0.00013766763731837273 -0.0001636238011997193 0.0 0.0 1 True False
2231.586 4.802356243133545 -1.2987469297698517 1.8371380011187952 -2.1093083820738734 -1.5707805792437952 3.2315316200256348 0.0 8.606604387750849e-05 9.876566764432937e-05 -0.00010984930122504011 0.0 0.0 1 True False
2231.636 4.802337646484375 -1.2987426084331055 1.8371380011187952 -2.1092807255186976 -1.5707805792437952 3.2315521240234375 0.0 7.180141983553767e-05 8.109276677714661e-05 -8.742621866986156e-05 0.0 0.0 1 True False
2231.6859999999997 4.802375793457031 -1.2986794275096436 1.8372038046466272 -2.1093322239317835 -1.5707886854754847 3.2315521240234375 0.0 0.0 5.1189897931180894e-05 -5.41051194886677e-05 0.0 0.0 1 True False
2231.736 4.8023295402526855 -1.2987255615046998 1.8371709028827112 -2.1092564068236292 -1.5707529226886194 3.2315478324890137 0.0 0.0 1.0751844807903483e-31 -2.6002046188425713e-18 0.0 0.0 1 True False
2231.786 4.802395820617676 -1.2986973089030762 1.8372276465045374 -2.1092521152892054 -1.5708611647235315 3.231555223464966 0.0 0.0 0.0 -3.949716442919747e-37 0.0 0.0 1 True False
2231.836 4.802350997924805 -1.2988226872733613 1.837132755910055 -2.109471937219137 -1.5707967917071741 3.231503486633301 0.0 0.0001449160190531984 -9.105085337068886e-05 -0.00038304636836983263 0.000149647326907143 -0.00010622095578582957 1 True False
2231.886 4.802350997924805 -1.2987335187247773 1.8370779196368616 -2.109443803826803 -1.570772949849264 3.231576681137085 0.0 8.263490599347278e-05 -7.205118181658962e-29 0.0005188581999391317 6.271281017689034e-05 -4.290008655516431e-05 1 True False
2231.9359999999997 4.802375793457031 -1.298793153171875 1.8370197455035608 -2.1089350185790003 -1.570756737385885 3.231592893600464 0.0 -0.009408252313733101 -0.01274931337684393 0.037343818694353104 3.967338852817193e-05 -2.6881487428909168e-05 1 True True
2231.986 4.80239725112915 -1.2997436088374634 1.835304085408346 -2.1058231792845667 -1.5708048979388636 3.2315726280212402 0.0 -0.03879948705434799 -0.06569059938192368 0.0904427170753479 2.5445802975809784e-07 -1.441486688236182e-06 1 True True
2232.036 4.802350997924805 -1.302358255987503 1.8310239950763147 -2.099046846429342 -1.5707886854754847 3.2315564155578613 0.0 -0.06241712346673012 -0.10376601666212082 0.16195504367351532 3.8652236855469814e-26 -2.189621246580299e-25 1 True True
2232.086 4.802346706390381 -1.3062238556197663 1.8243501822101038 -2.088964124719137 -1.57074481645693 3.231555223464966 0.0 -0.08980980515480042 -0.14884458482265472 0.23285719752311707 5.605193857299268e-45 -3.363116314379561e-44 1 True True
2232.136 4.802366733551025 -1.3112349075130005 1.8154609839068812 -2.075254102746481 -1.5708406607257288 3.2315402030944824 0.0 -0.11452377587556839 -0.1992402821779251 0.2971212565898895 0.0 -1.4544997206655808e-08 1 True True
2232.1859999999997 4.802351951599121 -1.3175704342177887 1.8046529928790491 -2.057927270928854 -1.570801083241598 3.2315726280212402 0.0 -0.136213019490242 -0.23408111929893494 0.3839559257030487 0.0 -2.2093885061951437e-27 1 True True
2232.236 4.802371501922607 -1.3251203012517472 1.7917106787311 -2.037373205224508 -1.5707805792437952 3.2315597534179688 0.0 -0.16504915058612823 -0.2789917290210724 0.4574717879295349 0.0 -0.0 1 True True
2232.286 4.8023552894592285 -1.334039868121483 1.7762840429889124 -2.013157983819479 -1.5708172957049769 3.231550931930542 0.0 -0.1912657469511032 -0.3244282305240631 0.5086994171142578 0.0 -0.0 1 True True
2232.336 4.802334308624268 -1.344118670826294 1.7590821425067347 -1.9857284031310023 -1.5707810560809534 3.2315683364868164 0.0 -0.19587016105651855 -0.3464301824569702 0.5425256490707397 0.0 -0.0 1 True True
2232.386 4.802334308624268 -1.3535760951093216 1.7426827589618128 -1.959853311578268 -1.5707767645465296 3.231499195098877 0.0 -0.17754380404949188 -0.3002186119556427 0.492339551448822 0.0 -0.0 1 True True
2232.4359999999997 4.8023295402526855 -1.361755297785141 1.7285116354571741 -1.9373694858946742 -1.5708087126361292 3.23154354095459 0.0 -0.15376655757427216 -0.2601659893989563 0.4084579050540924 0.0 -0.0 1 True True
2232.486 4.802346706390381 -1.3688021016171952 1.7165258566485804 -1.9184309444823207 -1.5708168188678187 3.231522798538208 0.0 -0.12856937944889069 -0.22294868528842926 0.3478216826915741 0.0 -0.0 1 True True
2232.536 4.802350997924805 -1.3744808745435257 1.706916634236471 -1.9030481777586878 -1.5707648436175745 3.231576681137085 0.0 -0.1025431901216507 -0.17370915412902832 0.26588696241378784 0.0 -0.0 1 True True
2232.586 4.802313327789307 -1.378923238520958 1.6993511358844202 -1.8909946880736292 -1.5707810560809534 3.2316057682037354 0.0 -0.0767701044678688 -0.12559586763381958 0.20141220092773438 0.0 -0.0 1 True True
2232.636 4.802335262298584 -1.381966383462288 1.6938193480121058 -1.8827492199339808 -1.5707810560809534 3.231560707092285 0.0 -0.05046962574124336 -0.08228284865617752 0.12938745319843292 0.0 -0.0 1 True True
2232.6859999999997 4.802375793457031 -1.3837282967618485 1.6906803289996546 -1.877632280389303 -1.5707886854754847 3.231527328491211 0.0 -0.02349790744483471 -0.04499915614724159 0.06005695089697838 0.0 -0.0 1 True True
2232.736 4.802351951599121 -1.3843318682960053 1.6896279493915003 -1.8762246570982875 -1.570728603993551 3.2315196990966797 0.0 0.0032664858736097813 0.0015663958620280027 -0.004534970503300428 0.0 -0.0 1 True True
2232.786 4.800390243530273 -1.3843579602292557 1.6896322409259241 -1.8762127361693324 -1.5708048979388636 3.2295422554016113 -0.06983696669340134 -3.831373032880947e-05 2.905132901669525e-32 0.00021755576017312706 0.0 -0.07331133633852005 1 True True
2232.836 4.794893741607666 -1.384350137119629 1.6895940939532679 -1.8760887585081996 -1.5708006064044397 3.2240867614746094 -0.1447763890028 -3.712065517902374e-05 0.0 0.0004774966510012746 1.7997905388256186e-09 -0.14167338609695435 1 True True
2232.886 4.785965919494629 -1.384263963704445 1.6896632353412073 -1.8760973415770472 -1.5708006064044397 3.2150228023529053 -0.2163209766149521 -3.6739653296535835e-05 -2.908552050939761e-05 0.0003839633718598634 2.733886926489333e-28 -0.21167296171188354 1 True True
2232.9359999999997 4.773397445678711 -1.3843282920173188 1.6896761099444788 -1.8760858974852503 -1.5707767645465296 3.2026689052581787 -0.28457531332969666 -2.1426933017210104e-05 -0.0002834282349795103 0.00013086639228276908 0.0 -0.2815838158130646 1 True True
2232.986 4.757416248321533 -1.3843327325633545 1.6895950476275843 -1.8760739765562953 -1.5707805792437952 3.1866207122802734 -0.347311794757843 -4.000707115647353e-42 -0.0015015690587460995 0.00013943642261438072 -6.865531031507999e-05 -0.35088250041007996 1 True True
2233.036 4.73792839050293 -1.3842958521893998 1.6895635763751429 -1.8761254749693812 -1.5707767645465296 3.167299509048462 -0.42524003982543945 0.0 -0.0014503704151138663 0.0001893824664875865 -6.344992094258666e-15 -0.42429715394973755 1 True True
2233.086 4.715086936950684 -1.3843382459929963 1.6894753615008753 -1.8760653934874476 -1.5707648436175745 3.1443376541137695 -0.4910723567008972 0.0003726273716893047 -0.0015024814056232572 0.0001349958183709532 -9.638061853384251e-34 -0.494478315114975 1 True True
2233.136 4.68863582611084 -1.3842354875854035 1.6894663015948694 -1.8760739765562953 -1.5707886854754847 3.117691993713379 -0.5625765323638916 0.0011745039373636246 -0.0015524588525295258 0.00017688106163404882 -0.00014818375348113477 -0.5555057525634766 1 True True
2233.1859999999997 4.658620357513428 -1.3841234010509034 1.689364258443014 -1.8760177097716273 -1.5707600752459925 3.087735652923584 -0.6322835087776184 0.002035662066191435 -0.0016257436946034431 0.00028528773691505194 -9.715540363686159e-05 -0.6270420551300049 1 True True
2233.236 4.625199794769287 -1.3840155762485047 1.6892965475665491 -1.8760701618590296 -1.5708006064044397 3.05437970161438 -0.7048867344856262 0.0023049821611493826 -0.002092623384669423 0.00030872749630361795 1.9543471008187652e-11 -0.6976773142814636 1 True True
2233.286 4.588335037231445 -1.3840087217143555 1.689190689717428 -1.8760220013060511 -1.570820156727926 3.0176994800567627 -0.7729639410972595 0.0016375643899664283 -0.0016996606718748808 0.0004068463167641312 -0.0007301596342585981 -0.7682019472122192 1 True True
2233.336 4.547946453094482 -1.383940265779831 1.6891325155841272 -1.8759409389891566 -1.5708091894732874 2.9772536754608154 -0.839491605758667 0.00152591522783041 -0.0011655054986476898 0.00024929046048782766 0.00011852807074319571 -0.8469496369361877 1 True True
2233.386 4.504133701324463 -1.3839094203761597 1.689017120991842 -1.8759461841978968 -1.5708006064044397 2.933225154876709 -0.914416491985321 0.0022255307994782925 -0.0017105529550462961 0.0008206653874367476 -3.400375814255341e-10 -0.9116683602333069 1 True True
2233.4359999999997 4.456715106964111 -1.3837938767722626 1.6889331976519983 -1.8759266338744105 -1.5707686583148401 2.8861770629882812 -0.9814610481262207 0.0014142936561256647 -0.002122599631547928 0.0004862885398324579 -5.16517619382954e-29 -0.9879806041717529 1 True True
2233.486 4.405881404876709 -1.3836519581130524 1.6888092199908655 -1.8759547672667445 -1.5708406607257288 2.8348922729492188 -1.0492101907730103 0.002117588883265853 -0.0023194195237010717 0.0006007948541082442 -0.0 -1.0427258014678955 1 True True
2233.536 4.353597640991211 -1.3836127084544678 1.6887057463275355 -1.8759433231749476 -1.570756737385885 2.782757043838501 -1.0470751523971558 0.001252794754691422 -0.0029585850425064564 0.001174328150227666 6.583673530258238e-05 -1.0547336339950562 1 True True
2233.586 4.301164627075195 -1.383484200840332 1.6885574499713343 -1.8758303127684535 -1.570801083241598 2.730445384979248 -1.048274278640747 0.0017207867931574583 -0.00217921519652009 0.0004459101764950901 3.151442134670822e-20 -1.040192723274231 1 True True
2233.636 4.248838901519775 -1.3834293645671387 1.6884782950030726 -1.875883241693014 -1.5708335081683558 2.6779227256774902 -1.0502668619155884 0.0020006743725389242 -0.0029132997151464224 0.00037003186298534274 4.787047150201688e-39 -1.0427098274230957 1 True True
2233.6859999999997 4.196399688720703 -1.3832886976054688 1.6883462111102503 -1.8758789501585902 -1.5708211104022425 2.6256163120269775 -1.0442454814910889 0.001383360824547708 -0.0022209547460079193 0.000393456342862919 0.0 -1.0516573190689087 1 True True
2233.736 4.1440629959106445 -1.3832288694432755 1.6882670561419886 -1.8757950268187464 -1.5707967917071741 2.573323965072632 -1.0455286502838135 0.0019458368187770247 -0.0016409722156822681 0.0004651325580198318 0.0 -1.0466901063919067 1 True True
2233.786 4.091695785522461 -1.3831329953721543 1.6881263891803187 -1.87585510830068 -1.5708168188678187 2.5208070278167725 -1.0539501905441284 0.0025585489347577095 -0.002714768750593066 0.0005420427769422531 0.0 -1.040083646774292 1 True True
2233.836 4.039398193359375 -1.3829990190318604 1.6879990736590784 -1.8758312664427699 -1.570784870778219 2.4684696197509766 -1.0446665287017822 0.0017209339421242476 -0.0036962234880775213 0.0007753281388431787 4.918303602607921e-05 -1.0490481853485107 1 True True
2233.886 3.986940383911133 -1.3829451513341446 1.6879528204547327 -1.875730653802389 -1.5707605520831507 2.4162445068359375 -1.0440471172332764 0.0019113525049760938 -0.0014653448015451431 0.00038696484989486635 9.588979775508735e-21 -1.0440274477005005 1 True True
2233.9359999999997 3.934725046157837 -1.3828330797008057 1.6877582708941858 -1.8757034740843714 -1.5708168188678187 2.363692045211792 -1.051285743713379 0.0020483846310526133 -0.0026630295906215906 0.000586112670134753 1.4565684783547165e-39 -1.0389889478683472 1 True True
2233.986 3.8822946548461914 -1.3827328991940995 1.6876638571368616 -1.8757482967772425 -1.5707362333880823 2.311450958251953 -1.0448423624038696 0.001744450069963932 -0.0035392423160374165 0.001015275833196938 0.0 -1.0528751611709595 1 True True
2234.036 3.829932928085327 -1.3826083701900025 1.6875680128680628 -1.8756557903685511 -1.570801083241598 2.2591607570648193 -1.0464484691619873 0.0016090598655864596 -0.001535571413114667 0.00031800803844816983 0.0 -1.0445986986160278 1 True True
2234.086 3.777611255645752 -1.3825604778579255 1.6873944441424769 -1.8756758175291957 -1.5707805792437952 2.2067315578460693 -1.052146553993225 0.002341433661058545 -0.002699568634852767 0.0005437268409878016 0.0 -1.0411101579666138 1 True True
2234.136 3.7251760959625244 -1.382448361521103 1.6873567740069788 -1.875620027581686 -1.570829216633932 2.1543073654174805 -1.046410083770752 0.0016073364531621337 -0.002980228513479233 0.0004638521349988878 0.0 -1.0497006177902222 1 True True
2234.1859999999997 3.672860860824585 -1.3823609960130234 1.6872571150409144 -1.875603815118307 -1.570756737385885 2.1021313667297363 -1.0498796701431274 0.0016950996359810233 -0.0015857778489589691 0.00038243955350480974 0.0 -1.0475093126296997 1 True True
2234.236 3.6205508708953857 -1.3822565537742157 1.6871102491961878 -1.8756357632079066 -1.5708335081683558 2.0496861934661865 -1.0539675951004028 0.0026166837196797132 -0.002130504697561264 0.0003329623432364315 0.0 -1.0442429780960083 1 True True
2234.286 3.5681076049804688 -1.3821571481278916 1.687042538319723 -1.8755680523314417 -1.5707925001727503 1.997247338294983 -1.0447545051574707 0.002271471545100212 -0.004364047199487686 0.0003906608617398888 0.0 -1.0582033395767212 1 True True
2234.336 3.515803575515747 -1.38205240786586 1.6868556181537073 -1.8755566082396449 -1.5707529226886194 1.945008397102356 -1.0466396808624268 0.001836166949942708 -0.002504640957340598 0.0004886901588179171 0.0 -1.0485889911651611 1 True True
2234.386 3.4634292125701904 -1.382009820347168 1.6867330710040491 -1.8755809269347132 -1.5708449522601526 1.892590045928955 -1.0538678169250488 0.0021035652607679367 -0.001872470136731863 0.00044418059405870736 0.0 -1.042032241821289 1 True True
2234.4359999999997 3.4110021591186523 -1.381893129353859 1.6866253058062952 -1.8754965267577113 -1.5707967917071741 1.8401696681976318 -1.0467355251312256 0.002694288967177272 -0.003356260247528553 0.000522989546880126 0.0 -1.046389102935791 1 True True
2234.486 3.3586161136627197 -1.381760300402977 1.6865547339068812 -1.875517030755514 -1.570829216633932 1.7878870964050293 -1.0447535514831543 0.0013848403468728065 -0.0013214682694524527 0.00033144550980068743 0.0 -1.0485010147094727 1 True True
2234.536 3.3062658309936523 -1.38175884008918 1.686340634022848 -1.8754893742003382 -1.5708406607257288 1.7355403900146484 -1.0516796112060547 0.0028537302277982235 -0.003890136955305934 0.0004917190526612103 0.0 -1.0417425632476807 1 True True
2234.586 3.2539191246032715 -1.3816209149411698 1.6862781683551233 -1.8754731617369593 -1.5707767645465296 1.683140754699707 -1.0429688692092896 0.002308364724740386 -0.0029772319830954075 0.0003227611305192113 0.0 -1.0513278245925903 1 True True
2234.636 3.2015693187713623 -1.3815288555673142 1.6861837545977991 -1.8754011593260707 -1.5707529226886194 1.6309019327163696 -1.0470545291900635 0.0016531712608411908 -0.0018706173868849874 0.0004594775673467666 0.0 -1.0488265752792358 1 True True
2234.6859999999997 3.1494643688201904 -1.3814459902099152 1.6860793272601526 -1.8753892383971156 -1.5707843939410608 1.5785709619522095 -1.0288887023925781 0.0011606370098888874 -0.0014321786584332585 0.0004370764654595405 0.0 -1.0248157978057861 1 True True
2234.736 3.0997250080108643 -1.3813007783940812 1.6859968344317835 -1.875453611413473 -1.570784870778219 1.528875708580017 -0.9608476161956787 0.0014704247005283833 -0.00397209357470274 0.0007071480504237115 0.0 -0.9608118534088135 1 True True
2234.786 3.053546905517578 -1.3812497419169922 1.6858380476581019 -1.8753696880736292 -1.570813004170553 1.482616662979126 -0.8897916674613953 0.0018130800453945994 -0.0019804604817181826 0.00035143541754223406 0.0 -0.8874861001968384 1 True True
2234.836 3.0107524394989014 -1.3811452847770234 1.6857226530658167 -1.875357290307516 -1.5707648436175745 1.439976453781128 -0.814195990562439 0.0015281506348401308 -0.001441960339434445 0.00034214966581203043 0.00023523904383182526 -0.8251805305480957 1 True True
2234.886 2.9715611934661865 -1.381098450427391 1.685660187398092 -1.8753096065916957 -1.5707767645465296 1.4006904363632202 -0.7555505633354187 0.002185487188398838 -0.002103740582242608 0.000281838933005929 -2.979372766276356e-05 -0.7480454444885254 1 True True
2234.9359999999997 2.935826539993286 -1.3810461324504395 1.6856325308429163 -1.8753100834288539 -1.5708254019366663 1.365020513534546 -0.6854991316795349 0.0011035213246941566 -0.0015925040934234858 0.00032302175532095134 -2.1127940263648345e-18 -0.6800700426101685 1 True True
2234.986 2.903568983078003 -1.380928174858429 1.6855204741107386 -1.875322004357809 -1.5707724730121058 1.3327975273132324 -0.6111302971839905 0.0013159868540242314 -0.002341804327443242 0.00017103379650507122 1.213635525409984e-09 -0.6065386533737183 1 True True
2235.036 2.8747801780700684 -1.3809663516334076 1.6854327360736292 -1.8753258190550746 -1.5707843939410608 1.3040797710418701 -0.5419012904167175 0.0010424009524285793 -0.0023193047381937504 0.00019081866776105016 1.8435154298363957e-28 -0.5353887677192688 1 True True
2235.086 2.8495068550109863 -1.380888895397522 1.6854084173785608 -1.8753138981261195 -1.5707925001727503 1.2788059711456299 -0.47519418597221375 0.0005305428639985621 -0.003244047751650214 0.00030309855355881155 0.0 -0.4696677625179291 1 True True
2235.136 2.8278794288635254 -1.3809147787145157 1.6853812376605433 -1.8752862415709437 -1.5708373228656214 1.2571004629135132 -0.4051598310470581 0.0004217553068883717 -0.0017749115359038115 0.00025189804728142917 0.0 -0.406125009059906 1 True True
2235.1859999999997 2.809631824493408 -1.3808258187821885 1.6853440443622034 -1.8753224811949671 -1.5707686583148401 1.238768219947815 -0.3306657671928406 0.00040606327820569277 -0.00042993712122552097 0.00014693601406179368 -6.339176958965881e-14 -0.3330342173576355 1 True True
2235.236 2.7947912216186523 -1.3807942134192963 1.6853049437152308 -1.8752900562682093 -1.5707929770099085 1.2239959239959717 -0.26259857416152954 0.0005355676403269172 -0.00038963876431807876 7.472716242773458e-05 -9.629228013337822e-33 -0.26702743768692017 1 True True
2235.286 2.7834315299987793 -1.3807898175767441 1.685295883809225 -1.8752581081786097 -1.5707967917071741 1.2126814126968384 -0.19430974125862122 0.000560007814783603 -0.0004225500742904842 0.00017123014549724758 -0.0 -0.188692107796669 1 True True
2235.336 2.775724172592163 -1.3807570499232789 1.6852529684649866 -1.8752466640868128 -1.5707805792437952 1.204843282699585 -0.12187152355909348 0.000349328649463132 -0.0004211769555695355 0.00012750861060339957 -0.0 -0.12183225899934769 1 True True
2235.386 2.771312713623047 -1.380786584024765 1.685291592274801 -1.8752581081786097 -1.570784870778219 1.2005746364593506 -0.055222656577825546 0.00020669888181146234 -0.00033167441142722964 8.113623334793374e-05 -0.0 -0.05453694239258766 1 True True
2235.4359999999997 2.7705042362213135 -1.3806948375752945 1.6852734724627894 -1.8753658733763636 -1.570801083241598 1.1996808052062988 0.0004972551250830293 0.01457550935447216 0.007795673795044422 -0.010842010378837585 -0.0 0.0003722822293639183 1 True True
2235.486 2.7705209255218506 -1.3795009714416047 1.6866682211505335 -1.8779412708678187 -1.570784870778219 1.1996361017227173 -0.00041033545858226717 0.027210507541894913 0.058162152767181396 -0.09050818532705307 -0.0 3.108226702278408e-14 1 True True
2235.536 2.7704758644104004 -1.377418414955475 1.69053823152651 -1.884352823297018 -1.5707772413836878 1.1996480226516724 -0.0006255775806494057 0.059739865362644196 0.10363832116127014 -0.15386788547039032 -0.0 -0.0002550793287809938 1 True True
2235.586 2.770432233810425 -1.373931960468628 1.6970160643206995 -1.893841405908102 -1.5707686583148401 1.1996241807937622 -0.0009088943479582667 0.08085230737924576 0.14103808999061584 -0.22062994539737701 -0.0 -0.00018723246466834098 1 True True
2235.636 2.770423173904419 -1.3691215527108689 1.7053349653827112 -1.9070574245848597 -1.5707891623126429 1.1996285915374756 -0.0001119964654208161 0.1085810586810112 0.18616873025894165 -0.2980715334415436 -8.166768110840113e-15 -0.00021701173682231456 1 True True
2235.6859999999997 2.7704126834869385 -1.3630033147386094 1.7158587614642542 -1.9235865078368128 -1.5707925001727503 1.1996241807937622 -7.957551133586094e-05 0.13615800440311432 0.22998137772083282 -0.3569670617580414 -1.2405336267338193e-33 -0.00024101945746224374 1 True True
2235.736 2.7704081535339355 -1.355669156914093 1.7286589781390589 -1.9438439808287562 -1.5708168188678187 1.199579119682312 -3.914508124580607e-05 0.15882986783981323 0.2762221693992615 -0.42931270599365234 -0.0 -0.00013506482355296612 1 True True
2235.786 2.7703945636749268 -1.346904219394066 1.7435525099383753 -1.9674226246275843 -1.5708087126361292 1.1996359825134277 -2.535832391004078e-05 0.18210779130458832 0.3188351094722748 -0.5189975500106812 -0.0 -6.112294795457274e-05 1 True True
2235.836 2.770415782928467 -1.3368733835271378 1.7609108130084437 -1.9944592914977015 -1.570784870778219 1.1996045112609863 -5.512018729258484e-16 0.20257654786109924 0.3518519699573517 -0.5738176107406616 -0.0 3.41077393386513e-05 1 True True
2235.886 2.7704036235809326 -1.3274361950210114 1.777245823537008 -2.020904680291647 -1.570801083241598 1.1996241807937622 0.0 0.17835633456707 0.3111928105354309 -0.4948727786540985 -1.926573310753215e-19 1.751216950651724e-05 1 True True
2235.9359999999997 2.7704036235809326 -1.3189326983741303 1.7921116987811487 -2.0437756977477015 -1.5707967917071741 1.1996495723724365 0.0 0.15438055992126465 0.26939085125923157 -0.43081167340278625 -2.926469470818405e-38 2.3561915440950543e-05 1 True True
2235.986 2.7704007625579834 -1.3117585641196747 1.8040550390826624 -2.0632931194701136 -1.5707648436175745 1.199665904045105 0.0 0.1264955997467041 0.2262607216835022 -0.3666812479496002 -0.0 1.0447555093186928e-13 1 True True
2236.036 2.7703917026519775 -1.3059701782516022 1.8142221609698694 -2.0792271099486292 -1.5708373228656214 1.1996331214904785 0.0 0.10078568011522293 0.17766721546649933 -0.2855481505393982 -0.0 1.586986286966405e-32 1 True True
2236.086 2.7704203128814697 -1.3013362151435395 1.8222649733172815 -2.091665884057516 -1.5708211104022425 1.1996241807937622 0.0 0.08057157695293427 0.1405782252550125 -0.21979358792304993 -0.0 0.0 1 True True
2236.136 2.7704458236694336 -1.2980877322009583 1.827808682118551 -2.1006342373290003 -1.5708087126361292 1.1996164321899414 0.0 0.05262698605656624 0.08814837038516998 -0.14208489656448364 -0.0 0.0 1 True True
2236.1859999999997 2.7704293727874756 -1.296128587131836 1.8313162962542933 -2.1060391865172328 -1.5708335081683558 1.199591040611267 4.600529427989386e-05 0.02739672176539898 0.04814193770289421 -0.06964930146932602 -0.0 0.0 1 True True
2236.236 2.7704532146453857 -1.2956950229457398 1.832026783620016 -2.10821070293569 -1.570813004170553 1.1996331214904785 -9.991931761155204e-12 0.0012327659642323852 0.0012855156091973186 -0.004581761546432972 0.0001493716990808025 4.091720256838016e-05 1 True True
2236.286 2.7704575061798096 -1.295647309427597 1.8320310751544397 -2.1081587276854457 -1.5708044211017054 1.19965398311615 0.0 0.005307242274284363 0.003921363037079573 0.00034930623951368034 4.855434599448927e-05 1.914748463605065e-05 1 True True
2236.336 2.7704248428344727 -1.2955602568439026 1.83207875887026 -2.108270307580465 -1.5708649794207972 1.1996524333953857 0.0 0.005843186751008034 0.006229458376765251 9.997933375416324e-05 2.8997124900342897e-05 3.7497084122151136e-05 1 True True
2236.386 2.770432233810425 -1.294827089910843 1.8332303206073206 -2.107542654077047 -1.5707967917071741 1.19965398311615 3.2749952083577227e-07 -0.004528199788182974 -0.0072062332183122635 -0.010082353837788105 3.6421897675609216e-05 3.0201396938878133e-10 1 True True
2236.4359999999997 2.7703676223754883 -1.2949723166278382 1.8331635634051722 -2.1078959904112757 -1.5707810560809534 1.1996748447418213 2.8287638897950274e-10 -0.002640377264469862 -8.984379383036867e-05 -0.0002662872429937124 2.3588533792917588e-07 7.582339161919804e-13 1 True False
2236.486 2.7704007625579834 -1.2951741975596924 1.8330162207232874 -2.1080433330931605 -1.570784870778219 1.1996599435806274 -0.0002620896266307682 -0.0010066431714221835 -0.0025452279951423407 -0.0011732446728274226 -7.696265364376051e-14 0.00176339503377676 1 True False
2236.536 2.7704203128814697 -1.2953241628459473 1.8328231016742151 -2.1080991230406703 -1.5707686583148401 1.1996045112609863 -0.00013727897021453828 -0.0004060950013808906 -0.0036905980668962 -0.001425722730346024 3.7926731693005422e-06 -1.9818447327679678e-08 1 True False
2236.586 2.7703707218170166 -1.2953285437873383 1.8327272574054163 -2.1080948315062464 -1.5707405249225062 1.1996089220046997 -1.2439378735087545e-21 1.5231600646542563e-30 -0.0023369421251118183 -0.00026325517683289945 5.761077321846535e-25 -3.0104268738615215e-27 1 True False
2236.636 2.770448684692383 -1.2960615915111084 1.8316252867328089 -2.1069046459593714 -1.5707724730121058 1.19965398311615 0.0 -0.025427449494600296 -0.042206160724163055 0.05767000466585159 8.688050478813866e-44 -0.0 1 True False
2236.6859999999997 2.7704696655273438 -1.2974802416614075 1.8287676016436976 -2.101874967614645 -1.570801083241598 1.1996376514434814 0.0 -0.04887114092707634 -0.08464287966489792 0.13861148059368134 0.0 -0.0 1 True False
2236.736 2.770448684692383 -1.300562397842743 1.8233826796161097 -2.0933872661986292 -1.5707686583148401 1.199661374092102 0.0 -0.07429085671901703 -0.12372206896543503 0.21135979890823364 -2.7379689227641224e-12 -0.0 1 True False
2236.786 2.7704412937164307 -1.3050564688495179 1.8156688849078577 -2.0817109547057093 -1.5707724730121058 1.199583649635315 0.0 -0.10111693292856216 -0.1765957474708557 0.26241278648376465 -4.158978946825109e-31 -0.0 1 True False
2236.836 2.770432233810425 -1.3105771404555817 1.8060253302203577 -2.066381116906637 -1.5708168188678187 1.1996241807937622 0.0 -0.12334125488996506 -0.21531210839748383 0.35190144181251526 -7.866485248086974e-05 -0.0 1 True False
2236.886 2.7704367637634277 -1.31759066999469 1.7942975203143519 -2.04744877437734 -1.5708168188678187 1.1996253728866577 0.0 -0.15105299651622772 -0.26084578037261963 0.4068683087825775 -2.849619704647921e-07 -0.0 1 True False
2236.9359999999997 2.770456314086914 -1.3257947576097031 1.7799838224994105 -2.0252915821471156 -1.5707886854754847 1.1996331214904785 0.0 -0.1767653077840805 -0.30950719118118286 0.4807363450527191 -4.3285793190072177e-26 -0.0 1 True False
2236.986 2.770432233810425 -1.3351859015277405 1.7638052145587366 -1.9993769131102503 -1.57074481645693 1.1996285915374756 0.0 -0.2016068398952484 -0.3522185981273651 0.5441877841949463 -7.006492321624085e-45 -0.0 1 True False
2237.036 2.770427703857422 -1.3453883987716218 1.7463262716876429 -1.9720145664610804 -1.5708091894732874 1.199644923210144 0.0 -0.18930140137672424 -0.3284909427165985 0.5212556719779968 -6.309190059283765e-09 -0.0 1 True False
2237.086 2.770432233810425 -1.3541224014810105 1.7311294714557093 -1.947766443292135 -1.5708091894732874 1.1996285915374756 0.0 -0.1654890775680542 -0.289517343044281 0.4563884139060974 -9.583675848233712e-28 -0.0 1 True False
2237.136 2.770432233810425 -1.3617904347232361 1.7179706732379358 -1.9270159206786097 -1.5708211104022425 1.1996119022369385 0.0 -0.14126235246658325 -0.2446562945842743 0.38566967844963074 -0.0 -0.0 1 True False
2237.1859999999997 2.770448684692383 -1.3680832845023652 1.7072137037860315 -1.9098216495909632 -1.5707929770099085 1.1996657848358154 0.0 -0.11426864564418793 -0.19337108731269836 0.3052454888820648 -0.0 -0.0 1 True False
2237.236 2.7704203128814697 -1.3731580984643479 1.6985257307635706 -1.8958999119200648 -1.5707967917071741 1.1996285915374756 0.0 -0.08970225602388382 -0.15385982394218445 0.2310333102941513 -0.0 -0.0 1 True False
2237.286 2.770530939102173 -1.3769438725760956 1.6918442885028284 -1.8856622181334437 -1.5708044211017054 1.1996331214904785 0.0 -0.062187809497117996 -0.10926080495119095 0.18071584403514862 -0.0 -0.0 1 True False
2237.336 2.77044415473938 -1.379403756265976 1.687465016041891 -1.878857275048727 -1.570801083241598 1.199637532234192 -1.961817850054744e-44 -0.03848999738693237 -0.061506859958171844 0.10358060896396637 -2.4647942575323685e-22 -0.0 1 True False
2237.386 2.7705025672912598 -1.3805542600205918 1.6855204741107386 -1.8757077656187953 -1.5708091894732874 1.1995583772659302 0.0 -0.012649649754166603 -0.021517639979720116 0.03063313290476799 -3.743989236983046e-41 -0.0 1 True False
2237.4359999999997 2.770439624786377 -1.380657748585083 1.685394589100973 -1.875345369378561 -1.5707686583148401 1.1995999813079834 0.0 -3.6922726598170065e-31 0.0007758977590128779 -3.949940946768038e-06 -0.0 -0.0 1 False False
2237.486 2.7704663276672363 -1.3807152968696137 1.685295883809225 -1.8753534756102503 -1.5708168188678187 1.1996568441390991 0.0 -6.086557186790742e-05 -0.00017720169853419065 -5.999968562812679e-25 -0.0 -0.0 1 False False
2237.536 2.7704203128814697 -1.3806653034738083 1.6853182951556605 -1.875357290307516 -1.5708087126361292 1.1996119022369385 0.0 -0.00014822515367995948 -0.0002600746229290962 0.0001998405932681635 -0.0 -0.0 1 False False
2237.586 2.770415782928467 -1.3807638448527833 1.6852529684649866 -1.8753181896605433 -1.5708406607257288 1.1996164321899414 -4.9514274665826204e-24 -0.0008456991636194289 -0.0007329976069740951 0.0008864502888172865 -0.0 -0.0 1 False False
2237.636 2.7704203128814697 -1.3807427150062104 1.6852362791644495 -1.8752223453917445 -1.570801083241598 1.1996524333953857 0.0 -0.0006929870578460395 -0.000911546521820128 0.0005031609325669706 -0.0 -0.0 1 False False
2237.6859999999997 2.770439863204956 -1.3807538461736222 1.6852543989764612 -1.8752266369261683 -1.570756737385885 1.1996538639068604 0.0 -0.00021118143922649324 -0.000966982333920896 0.00016909015539567918 -0.0 -0.0 1 False False
2237.736 2.7704367637634277 -1.3807212126306077 1.6852119604693812 -1.8752266369261683 -1.5707805792437952 1.1996744871139526 0.0 -9.852700168266892e-05 -0.00022847860236652195 0.00010461032070452347 -0.0 -0.0 1 False False
2237.786 2.7704203128814697 -1.38068841517482 1.6851971785174769 -1.8752504787840785 -1.5708125273333948 1.1995868682861328 0.0 -6.766337173758075e-05 -0.00013720743299927562 7.047590770525858e-05 -0.0 -0.0 1 False False
2237.836 2.7704038619995117 -1.3807538014701386 1.68524676958193 -1.875230451623434 -1.5707562605487269 1.1996493339538574 0.0 -2.4527733330614865e-05 -9.007987682707608e-05 2.032606938665027e-13 -0.0 -0.0 1 False False
2237.886 2.77038311958313 -1.380782963042595 1.6852334181415003 -1.8752623997130335 -1.5708006064044397 1.199570655822754 0.0 1.3060102691958034e-34 -5.96889149164781e-05 3.0875334784658564e-32 -0.0 -0.0 1 False False
2237.9359999999997 2.770416021347046 -1.3807700288346787 1.6852543989764612 -1.8752185306944789 -1.5707810560809534 1.1996374130249023 0.0 0.0 -7.010430468514284e-17 0.0 -0.0 -0.0 1 False False
2237.986 2.7704694271087646 -1.380701245074608 1.6852167288409632 -1.8752466640868128 -1.570784870778219 1.1996361017227173 0.0 0.0 -0.0 0.0 -0.0 -0.0 1 False False
2238.036 2.7704005241394043 -1.3807829779437562 1.6851680914508265 -1.8752829037108363 -1.5707810560809534 1.199598789215088 0.0 0.0 -0.0 0.0 -0.0 -0.0 1 False False
2238.086 2.7704334259033203 -1.380713240509369 1.685258690510885 -1.875242372552389 -1.5707648436175745 1.1996537446975708 0.0 0.0 -0.0 0.0 -0.0 -0.0 1 False False
2238.136 2.7704484462738037 -1.380782963042595 1.68524676958193 -1.8752905331053675 -1.5707886854754847 1.1996537446975708 0.0 0.0 -0.0 0.0 -0.0 -0.0 1 False False
2238.1859999999997 2.77038311958313 -1.3808156859925766 1.6852253119098108 -1.875230451623434 -1.5707810560809534 1.199644923210144 6.271687840692224e-39 0.0 -0.0 0.0 -0.0 -0.0 1 False False
2238.236 2.7704291343688965 -1.3807340425303956 1.6851971785174769 -1.8752266369261683 -1.5708006064044397 1.199629545211792 0.0 0.0 -0.0 0.0 -0.0 -0.0 1 False False
2238.286 2.7704410552978516 -1.3807915312102814 1.6852095762835901 -1.8752786121764125 -1.5708048979388636 1.1996742486953735 0.0 0.0 -0.0 0.0 -0.0 -0.0 1 False False
2238.336 2.770432233810425 -1.3807459783605118 1.6852095762835901 -1.875253816644186 -1.5707691351519983 1.1996285915374756 0.0 0.0 -0.0 0.0 -0.0 -0.0 1 False False
2238.386 2.77038311958313 -1.3807459783605118 1.6852300802813929 -1.8752948246397914 -1.5708006064044397 1.1996207237243652 0.0 0.0 -0.0 0.0 -0.0 -0.0 1 True False
2238.4359999999997 2.7704365253448486 -1.3806936007789155 1.6852300802813929 -1.8752786121764125 -1.5708377997027796 1.1996448040008545 0.0 0.0 -0.0 0.0 -0.0 -0.0 1 True False
2238.486 2.7704453468322754 -1.380708397631981 1.6852377096759241 -1.875253816644186 -1.5707610289203089 1.1996155977249146 0.0 0.0 -0.0 0.0 -0.0 -0.0 1 True False
2238.536 2.7704203128814697 -1.3807789993337174 1.685188118611471 -1.8752342663206996 -1.5707767645465296 1.1995956897735596 0.0 0.0 -0.0 0.0 -0.0 -0.0 1 True False
2238.586 2.7704691886901855 -1.3807173830321808 1.68524676958193 -1.8752581081786097 -1.5707529226886194 1.1996285915374756 0.0 0.0 -0.0 0.0 -0.0 -0.0 1 True False
2238.636 2.7704572677612305 -1.380778969531395 1.6851790587054651 -1.8751899204649867 -1.5708087126361292 1.1996243000030518 0.0 0.0 -0.0 0.0 -0.0 -0.0 1 True False
2238.6859999999997 2.770387649536133 -1.3807670784047623 1.6852453390704554 -1.8752504787840785 -1.5708168188678187 1.1996285915374756 1.7333557824647874e-16 0.0 -0.0 0.0 -0.0 -0.0 1 True False
2238.736 2.7704203128814697 -1.3807459634593506 1.6852300802813929 -1.8752786121764125 -1.5707929770099085 1.1996536254882812 0.0 0.0 -0.0 0.0 -0.0 1.515927294803987e-08 1 True False
2238.786 2.770423650741577 -1.38077004373584 1.6852300802813929 -1.8752905331053675 -1.5708006064044397 1.1995850801467896 0.0 0.0 -0.0 0.0 -0.0 -0.0012819269904866815 1 True False
2238.836 2.7704484462738037 -1.3807760340026398 1.6852291266070765 -1.8752385578551234 -1.5707925001727503 1.1996077299118042 -1.0133061924266773e-14 0.0 -0.0 0.0 8.048369636526331e-05 -9.62293000839054e-09 1 True False
2238.886 2.7704365253448486 -1.3807039719871064 1.6852119604693812 -1.8752747974791468 -1.570813004170553 1.1995795965194702 0.0 0.0 -0.0 0.0 -3.957122680731118e-05 0.00016503233928233385 1 True False
2238.9359999999997 2.770362377166748 -1.3806920510581513 1.6852095762835901 -1.875270505944723 -1.5707886854754847 1.199633002281189 0.0 0.0 -3.6347900099312877e-28 0.0 -1.717771556286607e-05 -0.00038663658779114485 1 True False
2238.986 2.770432233810425 -1.3807474833777924 1.685188118611471 -1.8752747974791468 -1.5708048979388636 1.1996207237243652 0.0 0.0 -0.0 1.5487796863142972e-13 -4.7548766701766e-08 -2.847101344290144e-21 1 True False
2239.036 2.770427942276001 -1.3806846600821991 1.685159985219137 -1.875282426873678 -1.5708168188678187 1.1995958089828491 0.0 0.0 -0.0 2.352599716652377e-32 -7.222670240503633e-27 -4.324757385522467e-40 1 True False
2239.086 2.7707128524780273 -1.3807804745486756 1.6851790587054651 -1.8752385578551234 -1.5707529226886194 1.1998915672302246 0.023514237254858017 5.390043337875905e-13 -0.0 0.0 -1.401298464324817e-45 0.024096878245472908 1 True False
2239.136 2.7737083435058594 -1.3806096774390717 1.6849401632892054 -1.875270505944723 -1.5708048979388636 1.202942967414856 0.09446938335895538 0.006589964963495731 -0.013076923787593842 0.0 -0.0 0.09760298579931259 1 True False
2239.1859999999997 2.780386209487915 -1.3801041853478928 1.6842182318316858 -1.8750072918333949 -1.5708048979388636 1.2096375226974487 0.16507217288017273 0.013107837177813053 -0.014728101901710033 0.00945531390607357 -0.0 0.16561809182167053 1 True False
2239.236 2.790506601333618 -1.379416139130928 1.6832235495196741 -1.8748170338072718 -1.5707767645465296 1.2196999788284302 0.2372223287820816 0.01617974415421486 -0.022970108315348625 0.006543231662362814 -0.0 0.23337168991565704 1 True False
2239.286 2.804095983505249 -1.37836209059272 1.681943718587057 -1.874463220635885 -1.5707686583148401 1.2332290410995483 0.30641502141952515 0.02278261072933674 -0.02844918519258499 0.00702576944604516 -0.0 0.30532559752464294 1 True False
2239.336 2.821113109588623 -1.376976655130722 1.6803777853595179 -1.874037881890768 -1.5708168188678187 1.250370740890503 0.37754443287849426 0.02875102311372757 -0.03257910534739494 0.011188630014657974 -0.0 0.37235552072525024 1 True False
2239.386 2.841688871383667 -1.375505955224373 1.6783660093890589 -1.8735844097533167 -1.5707967917071741 1.270861268043518 0.4440665543079376 0.03250353783369064 -0.04724127799272537 0.01079295389354229 -0.0 0.4445379376411438 1 True False
2239.4359999999997 2.865833282470703 -1.3737758857062836 1.675988499318258 -1.873059412042135 -1.5708168188678187 1.2949155569076538 0.5120908617973328 0.03725738823413849 -0.049995895475149155 0.01198379322886467 -0.0 0.5135273337364197 1 True False
2239.486 2.893235921859741 -1.3717173349908371 1.6733410994159144 -1.8724309406676234 -1.5707886854754847 1.3224562406539917 0.5849255323410034 0.04251650720834732 -0.053554732352495193 0.014372650533914566 3.625479257085562e-12 0.5828391909599304 1 True False
2239.536 2.9243416786193848 -1.3694713872722168 1.6703642050372522 -1.8718239269652308 -1.5708211104022425 1.353569746017456 0.650341808795929 0.048599060624837875 -0.0689060240983963 0.012967468239367008 5.5071092191956e-31 0.6505061388015747 1 True False
2239.586 2.958791494369507 -1.366870180969574 1.66697866121401 -1.8709804020323695 -1.5708044211017054 1.3879313468933105 0.718287467956543 0.05615352466702461 -0.06847091764211655 0.01512648444622755 -0.0001626598386792466 0.7251313328742981 1 True False
2239.636 2.9968466758728027 -1.3640561413815995 1.663365666066305 -1.8701259098448695 -1.570801083241598 1.4260168075561523 0.7916169762611389 0.05829182639718056 -0.08157505095005035 0.0154047179967165 -1.3445113617625732e-18 0.79575115442276 1 True False
2239.6859999999997 3.038454294204712 -1.3610723179629822 1.659294907246725 -1.8691674671568812 -1.5707529226886194 1.4675366878509521 0.8630964159965515 0.0629156157374382 -0.07731717824935913 0.021671229973435402 -2.042314935870436e-37 0.8644663095474243 1 True False
2239.736 3.083393096923828 -1.357787237768509 1.6549871603595179 -1.8681308231749476 -1.5708211104022425 1.5124870538711548 0.9293133020401001 0.06662317365407944 -0.09403551369905472 0.019750038161873817 -6.523472734221158e-11 0.929398775100708 1 True False
2239.786 3.1317195892333984 -1.3541652423194428 1.6504691282855433 -1.8668700657286585 -1.5707929770099085 1.561083197593689 1.006785273551941 0.07582176476716995 -0.09321469813585281 0.025154467672109604 -9.909170617657759e-30 1.0008498430252075 1 True False
2239.836 3.183553695678711 -1.3504047703794022 1.645346466694967 -1.8659035168089808 -1.570813004170553 1.6126636266708374 1.0474188327789307 0.074747234582901 -0.09727001935243607 0.023770729079842567 -0.0 1.0481345653533936 1 True False
2239.886 3.235909938812256 -1.3464391094497223 1.6403020063983362 -1.864671369592184 -1.570824925099508 1.6651321649551392 1.049331545829773 0.07353390753269196 -0.10129010677337646 0.02214626595377922 -1.5736723071313463e-05 1.0443092584609985 1 True False
2239.9359999999997 3.2882883548736572 -1.3425832104733963 1.6353314558612269 -1.8633595905699671 -1.5708168188678187 1.7175140380859375 1.0509721040725708 0.07558277994394302 -0.09867319464683533 0.028590353205800056 -2.189986116718501e-05 1.0501874685287476 1 True False
2239.986 3.3406083583831787 -1.3387973320535203 1.630103890095846 -1.8623014889159144 -1.5708044211017054 1.7696841955184937 1.042035698890686 0.07614259421825409 -0.09755033254623413 0.026868484914302826 -4.1085821143131244e-18 1.0494543313980103 1 True False
2240.036 3.392976999282837 -1.3350132566741486 1.6250408331500452 -1.8610850773253382 -1.570801083241598 1.8222156763076782 1.045918583869934 0.07672257721424103 -0.1004166528582573 0.023548392578959465 -6.240945258150849e-37 1.0416749715805054 1 True False
2240.086 3.445314884185791 -1.331074984078743 1.6202157179461878 -1.859753747979635 -1.5707605520831507 1.8745219707489014 1.050713300704956 0.07558652758598328 -0.104079470038414 0.023596730083227158 -0.0 1.0483044385910034 1 True False
2240.136 3.497728109359741 -1.3272772592357178 1.6151583830462855 -1.8586365185179652 -1.5708087126361292 1.9268628358840942 1.0448371171951294 0.07836520671844482 -0.10487941652536392 0.02240081876516342 -8.375339530175552e-05 1.0496830940246582 1 True False
2240.1859999999997 3.5500714778900146 -1.323430286054947 1.6100595633136194 -1.8575831852354945 -1.5708211104022425 1.979276418685913 1.0491678714752197 0.07798464596271515 -0.10075720399618149 0.022790487855672836 -4.142763646086678e-05 1.0439765453338623 1 True False
2240.236 3.602391242980957 -1.319562630062439 1.6050403753863733 -1.8562828503050746 -1.5707929770099085 2.0315945148468018 1.051007866859436 0.07429017126560211 -0.1034679189324379 0.02384093962609768 4.769109364133328e-05 1.0521601438522339 1 True False
2240.286 3.654783010482788 -1.3155962985805054 1.6000121275531214 -1.8550588093199671 -1.5707767645465296 2.083847999572754 1.0457050800323486 0.07573252171278 -0.10230652987957001 0.023049229755997658 3.2006028153732017e-22 1.0522805452346802 1 True False
2240.336 3.707136392593384 -1.3117571038058777 1.5948970953570765 -1.8538738689818324 -1.5707925001727503 2.1363770961761475 1.0450788736343384 0.07619784772396088 -0.1013992428779602 0.027366384863853455 4.86166489212852e-41 1.037953495979309 1 True False
2240.386 3.7595205307006836 -1.3080130082419892 1.589867893849508 -1.8526417217650355 -1.5707767645465296 2.1887190341949463 1.0518975257873535 0.07221604138612747 -0.09514470398426056 0.024052733555436134 0.0 1.0452549457550049 1 True False
2240.4359999999997 3.8119029998779297 -1.3041679126075287 1.5848315397845667 -1.8515001736082972 -1.5708654562579554 2.2409982681274414 1.040913462638855 0.0749989002943039 -0.10396887362003326 0.020941441878676414 0.0 1.0527255535125732 1 True False
2240.486 3.864198923110962 -1.3002000612071534 1.5798147360431116 -1.8503204784789027 -1.5707605520831507 2.293442964553833 1.045920491218567 0.08114960789680481 -0.10244211554527283 0.023988129571080208 0.0 1.0434856414794922 1 True False
2240.536 3.916536808013916 -1.2964672607234498 1.5747655073748987 -1.8490830860533656 -1.5707443396197718 2.3458027839660645 1.0534231662750244 0.07860735058784485 -0.09801765531301498 0.0281141959130764 0.0 1.0486584901809692 1 True False
2240.586 3.9688501358032227 -1.2926840347102662 1.569521729146139 -1.847945352593893 -1.5708087126361292 2.3980255126953125 1.0452038049697876 0.07837758958339691 -0.09696950763463974 0.025142846629023552 0.0 1.0511236190795898 1 True False
2240.636 4.021346092224121 -1.2886882585338135 1.5645363966571253 -1.8466378651061 -1.570813004170553 2.4504880905151367 1.0450247526168823 0.07632984220981598 -0.1030014157295227 0.021334486082196236 0.0 1.0376136302947998 1 True False
2240.6859999999997 4.073673725128174 -1.284868673687317 1.5595677534686487 -1.845393796960348 -1.5707967917071741 2.502910852432251 1.0500599145889282 0.07845166325569153 -0.1007026806473732 0.0230460986495018 0.0 1.0462229251861572 1 True False
2240.736 4.126030445098877 -1.2810562413981934 1.5545333067523401 -1.8443523846068324 -1.5708406607257288 2.5551600456237793 1.042686939239502 0.07568471878767014 -0.09673003107309341 0.02395007014274597 0.0 1.0493416786193848 1 True False
2240.786 4.178431987762451 -1.2771986287883301 1.5494311491595667 -1.843119283715719 -1.5707967917071741 2.607604742050171 1.0457121133804321 0.07520128786563873 -0.10179160535335541 0.0221096258610487 0.0 1.0414870977401733 1 True False
2240.836 4.230727195739746 -1.2733491224101563 1.5445507208453577 -1.8418594799437464 -1.570813004170553 2.659956932067871 1.053107500076294 0.07701604068279266 -0.10165877640247345 0.022681821137666702 0.0 1.0438703298568726 1 True False
2240.886 4.28301477432251 -1.269462452535965 1.5394147078143519 -1.8406745396056117 -1.5707605520831507 2.712156057357788 1.0450350046157837 0.07996612042188644 -0.10115961730480194 0.02445480227470398 0.0 1.0564539432525635 1 True False
2240.9359999999997 4.335443019866943 -1.2657358211329957 1.5343411604510706 -1.8394938908019007 -1.5707886854754847 2.7646372318267822 1.0441617965698242 0.07730187475681305 -0.09822254627943039 0.025622250512242317 0.0 1.0387258529663086 1 True False
2240.986 4.387753009796143 -1.2618164879134675 1.5292208830462855 -1.8382731876769007 -1.570784870778219 2.817073345184326 1.0522280931472778 0.07757194340229034 -0.10246913880109787 0.020823311060667038 0.0 1.0500584840774536 1 True False
2241.036 4.4391770362854 -1.257911579017975 1.5244463125811976 -1.8371960125365199 -1.5707967917071741 2.8682498931884766 0.9878203868865967 0.07608330994844437 -0.09557624161243439 0.019775215536355972 -4.460515141383077e-14 0.9965596795082092 1 True False
2241.086 4.4870924949646 -1.2544638973525544 1.5197327772723597 -1.8360511265196742 -1.570813004170553 2.916379690170288 0.9256706833839417 0.06915858387947083 -0.08606769144535065 0.02462369203567505 -3.571150591596961e-05 0.9257227778434753 1 True False
2241.136 4.531490325927734 -1.2511603993228455 1.5154474417315882 -1.8351294002928675 -1.5707886854754847 2.960484266281128 0.85207599401474 0.05928965285420418 -0.08524856716394424 0.016829321160912514 -6.788590690121055e-05 0.8630802631378174 1 True False
2241.1859999999997 4.572412014007568 -1.2481176418117066 1.511585537587301 -1.8340393505492152 -1.5707529226886194 3.001758575439453 0.7879562973976135 0.05729157477617264 -0.07653087377548218 0.018182240426540375 -3.7293502828106284e-05 0.786726713180542 1 True False
2241.236 4.6099324226379395 -1.2454682749560853 1.507812801991598 -1.8332606754698695 -1.570772949849264 3.0392696857452393 0.715634286403656 0.050216831266880035 -0.06536916643381119 0.017417918890714645 -4.116762647754513e-05 0.7153775095939636 1 True False
2241.286 4.643905162811279 -1.2428941887668152 1.5046528021441858 -1.8323937855162562 -1.570784870778219 3.07319974899292 0.6470773816108704 0.04683171585202217 -0.0666530653834343 0.011389541439712048 -2.592157174671761e-13 0.6422199010848999 1 True False
2241.336 4.674381732940674 -1.2407080394080658 1.5015624205218714 -1.8317610226073207 -1.5708368460284632 3.10366153717041 0.572557806968689 0.04476156458258629 -0.05411379039287567 0.012180287390947342 -3.9374934767375245e-32 0.5739251375198364 1 True False
2241.386 4.7013840675354 -1.2386880379966279 1.4991357962237757 -1.8312255344786585 -1.5707967917071741 3.130636215209961 0.5046428442001343 0.038071971386671066 -0.04888990521430969 0.011060013435781002 -0.0 0.5010064840316772 1 True False
2241.4359999999997 4.724976539611816 -1.23696522534404 1.4968493620501917 -1.8305841885008753 -1.5707362333880823 3.154057502746582 0.4361935555934906 0.031086038798093796 -0.04089248180389404 0.009611446410417557 -0.0 0.43776968121528625 1 True False
2241.486 4.744966983795166 -1.2355598968318482 1.4949420134173792 -1.8302070103087367 -1.5707486311541956 3.174057722091675 0.36816927790641785 0.026441043242812157 -0.03478798270225525 0.00895561184734106 -0.0 0.3716159760951996 1 True False
2241.536 4.761329650878906 -1.234253243809082 1.4934080282794397 -1.829836984673971 -1.5708087126361292 3.19063401222229 0.29783666133880615 0.02281724289059639 -0.027755118906497955 0.007721248082816601 -0.0 0.29493802785873413 1 True False
2241.586 4.774519443511963 -1.2333600384048005 1.492126766835348 -1.8295194111266078 -1.5708168188678187 3.2036309242248535 0.22446244955062866 0.0169503316283226 -0.023800808936357498 0.006389434915035963 -0.0 0.23099590837955475 1 True False
2241.636 4.784006595611572 -1.2326548856547852 1.4911163488971155 -1.8293081722655238 -1.570801083241598 3.213163137435913 0.1556605100631714 0.011579079553484917 -0.017302734777331352 0.0026767123490571976 -0.0 0.15865197777748108 1 True False
2241.6859999999997 4.7899885177612305 -1.232234702711441 1.4905346075641077 -1.8291455707945765 -1.570801083241598 3.2192487716674805 0.09060578048229218 0.005392118357121944 -0.005892040673643351 0.0027415892109274864 -0.0 0.08958964794874191 1 True False
2241.736 4.792622089385986 -1.2321294707110901 1.490394417439596 -1.8290659389891566 -1.5707891623126429 3.2218239307403564 0.01872899755835533 0.0010092544835060835 -0.0007339177536778152 0.0007387929945252836 -0.0 0.018731936812400818 1 True False
2241.786 4.792612552642822 -1.2315427225879212 1.4908669630633753 -1.8300143680968226 -1.570813004170553 3.221829891204834 0.0001488375273765996 0.0248288344591856 0.03243966028094292 -0.046126917004585266 -0.0 0.0001241144200321287 1 True False
2241.836 4.792658805847168 -1.2300809186748047 1.4936488310443323 -1.834651609460348 -1.5707529226886194 3.221874475479126 4.867543248110451e-05 0.03904068097472191 0.07902565598487854 -0.12739337980747223 -0.0 0.0007789813098497689 1 True False
2241.886 4.792657375335693 -1.2275015276721497 1.498878304158346 -1.8425079784789027 -1.5708006064044397 3.221935987472534 0.0005164172034710646 0.06576697528362274 0.13680723309516907 -0.19338586926460266 -0.0 0.0006532943225465715 1 True False
2241.9359999999997 4.79263162612915 -1.2236522001079102 1.50663930574526 -1.853769918481344 -1.5708168188678187 3.221935987472534 0.000704727484844625 0.08973583579063416 0.17639362812042236 -0.2574702799320221 -0.0 0.00027726884582079947 1 True False
2241.986 4.792705059051514 -1.2185075146010895 1.5165603796588343 -1.8686844311156214 -1.5708048979388636 3.221935987472534 0.000396768213249743 0.10919006913900375 0.21422074735164642 -0.33430612087249756 1.1790706122104162e-19 0.00013674011279363185 1 True False
2242.036 4.792691230773926 -1.2123483580401917 1.5287273565875452 -1.8871685467162074 -1.570784870778219 3.2219107151031494 0.00014598120469599962 0.1354614645242691 0.2678249180316925 -0.39643776416778564 1.7910106375114169e-38 8.372902811970562e-05 1 True False
2242.086 4.792728424072266 -1.2050108474544068 1.5434282461749476 -1.9090782604613246 -1.5708087126361292 3.221952438354492 0.00010162901889998466 0.1593261957168579 0.31111273169517517 -0.4624261260032654 0.0 6.033881436451338e-05 1 True False
2242.136 4.792675018310547 -1.1966240268996735 1.5599678198443812 -1.934397359887594 -1.5708044211017054 3.2219033241271973 8.276843436760828e-05 0.18232235312461853 0.35561826825141907 -0.5363964438438416 0.0 3.3348485767599443e-23 1 True False
2242.1859999999997 4.792721271514893 -1.1874323350242157 1.57762319246401 -1.9605862102904261 -1.5707925001727503 3.221912384033203 5.316429087542929e-05 0.1678634136915207 0.32354193925857544 -0.5005497932434082 0.0 5.065693948534214e-42 1 True False
2242.236 4.792728424072266 -1.1799133580974122 1.5924699942218226 -1.9835010967650355 -1.5707967917071741 3.2219033241271973 3.7274539151040134e-43 0.14507506787776947 0.28267621994018555 -0.4180666506290436 0.0 2.426183440349533e-13 1 True False
2242.286 4.792700290679932 -1.173311637049057 1.6055625120746058 -2.003005167047018 -1.5708368460284632 3.2219316959381104 0.0 0.11964691430330276 0.23257385194301605 -0.35276198387145996 0.0 3.6853790319713267e-32 1 True False
2242.336 4.7926716804504395 -1.168049768810608 1.615812126790182 -2.0189219913878382 -1.570813004170553 3.2219271659851074 0.0 0.09696751087903976 0.18659798800945282 -0.27547556161880493 0.0 0.0 1 True False
2242.386 4.792719841003418 -1.1636498731425782 1.6240699926959437 -2.031342168847555 -1.570845905934469 3.2218987941741943 0.0 0.07273039221763611 0.14307858049869537 -0.2159595638513565 0.0 0.0 1 True False
2242.4359999999997 4.792703151702881 -1.1607093077949067 1.630073372517721 -2.0401669941344203 -1.5707767645465296 3.2219078540802 0.0 0.05089390650391579 0.10209263116121292 -0.14360636472702026 0.0 0.0 1 True False
2242.486 4.792741775512695 -1.1588067275336762 1.6337397734271448 -2.0456186733641566 -1.5707686583148401 3.2219033241271973 0.0 0.021795758977532387 0.046434734016656876 -0.07395020872354507 0.0 0.0 1 True False
2242.536 4.792662620544434 -1.1582223933986207 1.6350582281695765 -2.047732015649313 -1.570756737385885 3.221961498260498 0.0 2.780179329420207e-06 0.0009101881296373904 -0.005725931841880083 0.0 0.0 1 True False
2242.586 4.792728424072266 -1.158281849031784 1.6350863615619105 -2.0476561985411585 -1.570784870778219 3.2219107151031494 0.0 0.0003232851449865848 -1.5100932182769873e-14 4.788858859683387e-05 0.0 0.0 1 True False
2242.636 4.792691707611084 -1.1582698983005066 1.6350057760821741 -2.047664304772848 -1.570813004170553 3.2218987941741943 0.0 0.0001121002496802248 -3.5032461608120427e-44 2.5267702630205578e-14 0.0 -5.578453823006091e-13 1 True False
2242.6859999999997 4.792686939239502 -1.1582460564425965 1.6349847952472132 -2.0476399860777796 -1.570829216633932 3.221933364868164 0.0 0.00021913267846684903 0.00013635501090902835 3.838169420349223e-33 0.0 -8.473682683269752e-32 1 True False
2242.736 4.7927045822143555 -1.1582088035396119 1.6350038687335413 -2.047676225701803 -1.570829216633932 3.2219555377960205 0.0 0.000301682623103261 0.00028120377101004124 0.0 0.0 -0.0 1 True False
2242.786 4.792703628540039 -1.158197895889618 1.6350415388690394 -2.047664304772848 -1.5707648436175745 3.2218565940856934 0.0 0.0002824580005835742 0.0003483381005935371 0.0 0.0 -0.0 1 True False
2242.836 4.792662620544434 -1.1581934255412598 1.6350863615619105 -2.0476800403990687 -1.570801083241598 3.221935987472534 0.0 0.00014279749302659184 0.0003491317038424313 0.0 0.0 -0.0 1 True False
2242.886 4.7926716804504395 -1.1582268637469788 1.6351059118853968 -2.047648092309469 -1.5708168188678187 3.221879005432129 0.0 7.195560465333983e-05 0.00013420780305750668 0.0 0.0 -0.0 1 True False
2242.9359999999997 4.792724132537842 -1.1581798058799286 1.634998623524801 -2.0476323566832484 -1.5708449522601526 3.2218899726867676 0.0 7.196862861746922e-05 0.00010763431782834232 0.0 0.0 -0.0 1 True False
2242.986 4.792662620544434 -1.158209816818573 1.6350730101214808 -2.047668596307272 -1.5707967917071741 3.2219033241271973 -3.264360930188559e-05 0.0 7.542072125943378e-05 0.0 0.0 -0.0 1 True False
2243.036 4.792749404907227 -1.1582341355136414 1.6350939909564417 -2.0476843319334925 -1.5707886854754847 3.221949577331543 -1.9578605831914906e-39 5.46428891539108e-05 3.236855607046811e-26 -2.884186225559112e-23 0.0 -0.0 1 True False
2243.086 4.792728424072266 -1.1581725639155884 1.6350448767291468 -2.0476566753783167 -1.5708373228656214 3.2219271659851074 0.0 1.0394607800607201e-38 0.0 -4.380458999479378e-42 0.0 -0.0 1 True False
2243.136 4.792662620544434 -1.1581961971572419 1.635096851979391 -2.0476604900755824 -1.5708449522601526 3.2219479084014893 0.0 0.0 0.0 -4.70804916403722e-05 0.0 -0.0 1 True False
2243.1859999999997 4.792684078216553 -1.1582088035396119 1.6350057760821741 -2.04782833675527 -1.5708087126361292 3.2219555377960205 -3.549172726846005e-25 -2.9528341308922793e-20 -7.392559928121045e-05 -0.00010378347360529006 -0.0002907412126660347 -0.0001957402564585209 1 True False
2243.236 4.792684078216553 -1.1582996112159272 1.634968105946676 -2.0477358303465785 -1.5707925001727503 3.2219762802124023 0.0 0.0 -2.4615263129241488e-33 0.0003580638440325856 -7.218849350465462e-05 -5.2676306950161234e-05 1 True False
2243.286 4.792695999145508 -1.1582760077765961 1.6350372473346155 -2.047779699365133 -1.5707686583148401 3.2219183444976807 0.0 9.374395449412987e-05 3.38195932272356e-05 0.0005543032311834395 2.8515492886072025e-05 -4.2893749196082354e-05 1 True True
2243.336 4.7927374839782715 -1.1586307150176545 1.6341245810138147 -2.045497556725973 -1.5707438627826136 3.22196888923645 0.0 -0.01891862228512764 -0.04642730951309204 0.0650404840707779 3.139454565825872e-05 -4.276045729056932e-05 1 True True
2243.386 4.792695999145508 -1.1604716342738648 1.6303847471820276 -2.040340086022848 -1.570813004170553 3.2218899726867676 0.0 -0.04971463978290558 -0.09455530345439911 0.14629894495010376 7.188482250834242e-21 -3.8436859603852654e-16 1 True True
2243.4359999999997 4.7927703857421875 -1.16366200268779 1.6242359320269983 -2.031337400475973 -1.5707967917071741 3.2218945026397705 0.0 -0.07646490633487701 -0.14103184640407562 0.2208636999130249 1.0919324010573629e-39 -5.838565646164105e-35 1 True True
2243.486 4.792753219604492 -1.1678542655757447 1.6161006132708948 -2.0188962421812953 -1.5708172957049769 3.2219152450561523 0.0 -0.0966452807188034 -0.1858486533164978 0.2775092124938965 0.0 -4.751824599225074e-05 1 True True
2243.536 4.7926926612854 -1.1732453566840668 1.6054380575763147 -2.003084798852438 -1.5707805792437952 3.2219152450561523 0.0 -0.11936526745557785 -0.23596973717212677 0.36888548731803894 0.0 -5.070619590696879e-05 1 True True
2243.586 4.792684078216553 -1.1798219841769715 1.5925911108600062 -1.9836002788939417 -1.5708449522601526 3.2219271659851074 0.0 -0.14547930657863617 -0.2825818657875061 0.4289917051792145 0.0 -1.0196396386885221e-22 1 True True
2243.636 4.792741298675537 -1.1876228016665955 1.5774219671832483 -1.960597654382223 -1.5707967917071741 3.221912384033203 0.0 -0.16603878140449524 -0.32771921157836914 0.5037124156951904 0.0 -1.5488551926182203e-41 1 True True
2243.6859999999997 4.792761325836182 -1.1965167087367554 1.5598204771624964 -1.9343425236144007 -1.5707925001727503 3.221940755844116 0.0 -0.1721956580877304 -0.3492775857448578 0.5519709587097168 0.0 -0.0 1 True True
2243.736 4.792703628540039 -1.2048496168902894 1.5434134642230433 -1.9089933834471644 -1.5708044211017054 3.2219152450561523 0.0 -0.1565343737602234 -0.3150157332420349 0.4760761857032776 0.0 -0.0 1 True True
2243.786 4.792658805847168 -1.212382898931839 1.5286505858050745 -1.8871728382506312 -1.570829216633932 3.2218728065490723 0.0 -0.13961315155029297 -0.26540613174438477 0.39563047885894775 1.2471849995896594e-13 -0.0 1 True True
2243.836 4.792645454406738 -1.218640999203064 1.5167577902423304 -1.8686992130675257 -1.5708211104022425 3.2219362258911133 0.0 -0.11017812788486481 -0.22781719267368317 0.33320266008377075 1.8944766542951085e-32 -0.0 1 True True
2243.886 4.792777061462402 -1.2236239475062867 1.5068195501910608 -1.8539072475829066 -1.5707686583148401 3.2219107151031494 0.0 -0.08738863468170166 -0.1645391434431076 0.25324106216430664 0.0 -0.0 1 True True
2243.9359999999997 4.7927327156066895 -1.2275437277606507 1.4992297331439417 -1.8424860439696253 -1.5708211104022425 3.22196888923645 0.0 -0.06604394316673279 -0.12703411281108856 0.19315630197525024 0.0 -0.0 1 True True
2243.986 4.792724132537842 -1.230119989519455 1.4939826170550745 -1.834578653375143 -1.5708006064044397 3.2219271659851074 0.0 -0.04371637478470802 -0.08307007700204849 0.1175268366932869 0.0 -0.0 1 True True
2244.036 4.792699337005615 -1.2316055756858368 1.4911473433123987 -1.8301197491087855 -1.5708206335650843 3.2219033241271973 0.0 -0.017236579209566116 -0.04026777297258377 0.04860122129321098 0.0 -0.0 1 True True
2244.086 4.7925705909729 -1.2319869560054322 1.4904077688800257 -1.8291732273497523 -1.570756737385885 3.221811532974243 -0.02873356081545353 0.00026968042948283255 0.0019455873407423496 -0.0017417571507394314 5.518893342326692e-09 -0.023269709199666977 1 True True
2244.136 4.790207862854004 -1.232182340031006 1.4905393759356897 -1.8291894398131312 -1.5707691351519983 3.2193055152893066 -0.08283890783786774 -0.010056569240987301 0.00837004091590643 -1.2102117852693748e-21 8.383209047158148e-28 -0.08450935035943985 1 True True
2244.1859999999997 4.784069538116455 -1.2325982314399262 1.4910619894610804 -1.8292089901366175 -1.5708048979388636 3.213170051574707 -0.15867333114147186 -0.013050676323473454 0.013230761513113976 -0.0023485964629799128 0.0 -0.15176285803318024 1 True True
2244.236 4.774484634399414 -1.2333632570556183 1.4919393698321741 -1.829412122766012 -1.5707648436175745 3.2036843299865723 -0.22743535041809082 -0.015160292387008667 0.021827032789587975 -0.006054127588868141 0.0 -0.22837300598621368 1 True True
2244.286 4.761376857757568 -1.2342728835395356 1.493072811757223 -1.8297378025450648 -1.5707686583148401 3.190654754638672 -0.29037341475486755 -0.021493175998330116 0.029603594914078712 -0.007481634151190519 -6.0452945035649464e-05 -0.2927834391593933 1 True True
2244.336 4.74493408203125 -1.2354955834201355 1.494683090840475 -1.830151220361227 -1.5708125273333948 3.174144744873047 -0.3667713701725006 -0.02737121284008026 0.0341344028711319 -0.008504713885486126 -5.1390021815373484e-23 -0.3651527166366577 1 True True
2244.386 4.7248125076293945 -1.236916111116745 1.4966743628131312 -1.8306528530516566 -1.5707967917071741 3.154026985168457 -0.43001148104667664 -0.0314657986164093 0.045277033001184464 -0.011276288889348507 -7.806633744753556e-42 -0.429443895816803 1 True True
2244.4359999999997 4.701336860656738 -1.2386721235564728 1.4989307562457483 -1.8312050304808558 -1.5707886854754847 3.1305997371673584 -0.5058501362800598 -0.03714311867952347 0.049302950501441956 -0.013820613734424114 -5.8250592701369897e-05 -0.5058780908584595 1 True True
2244.486 4.6744513511657715 -1.240649090414383 1.5015652815448206 -1.8317467174925746 -1.5707486311541956 3.103677988052368 -0.5742365717887878 -0.04217405617237091 0.05433010682463646 -0.013111631385982037 -6.797923560952768e-05 -0.5799458622932434 1 True True
2244.536 4.643960475921631 -1.2429440480521698 1.5045698324786585 -1.8324924908080042 -1.5707529226886194 3.0732860565185547 -0.6382529139518738 -0.04832880571484566 0.06342478841543198 -0.013381944969296455 -3.141427805530839e-05 -0.6493843197822571 1 True True
2244.586 4.6099958419799805 -1.2453215283206482 1.5078900496112269 -1.8333212337889613 -1.570813004170553 3.039245367050171 -0.7075787782669067 -0.05098694935441017 0.0655224472284317 -0.015019449405372143 -3.1716058401798364e-06 -0.7220566272735596 1 True True
2244.636 4.572475433349609 -1.2480728787234803 1.5114572683917444 -1.8341952762999476 -1.5708168188678187 3.0017013549804688 -0.7787904739379883 -0.056742116808891296 0.073892742395401 -0.017699796706438065 -4.8176746209882005e-25 -0.788269579410553 1 True True
2244.6859999999997 4.531520366668701 -1.2509781879237671 1.5153239409076136 -1.8350979290404261 -1.5708211104022425 2.960639715194702 -0.8558993339538574 -0.06027081981301308 0.08027374744415283 -0.020329829305410385 -4.091954178875312e-05 -0.8453481793403625 1 True True
2244.736 4.487125873565674 -1.2542785567096253 1.519508186970846 -1.8360988102354945 -1.5707252661334437 2.9163763523101807 -0.9219473600387573 -0.06543207913637161 0.09160345792770386 -0.02237820066511631 -1.276678994656591e-17 -0.9216706156730652 1 True True
2244.786 4.439166069030762 -1.257727102642395 1.5241683165179651 -1.8371883831419886 -1.5708091894732874 2.868288516998291 -0.995134711265564 -0.06951535493135452 0.09354110062122345 -0.020883504301309586 -4.5384542318060994e-05 -0.9917744398117065 1 True True
2244.836 4.387835502624512 -1.261471466427185 1.529032055531637 -1.838330408135885 -1.5707810560809534 2.817051410675049 -1.0364941358566284 -0.07718291878700256 0.09966755658388138 -0.02007097750902176 9.939524170476943e-05 -1.0528361797332764 1 True True
2244.886 4.335519790649414 -1.2653078597835083 1.534079376851217 -1.8396336040892542 -1.5708168188678187 2.764805793762207 -1.0527961254119873 -0.07463934272527695 0.10173370689153671 -0.028432469815015793 4.217988305299514e-07 -1.0425907373428345 1 True True
2244.9359999999997 4.283121109008789 -1.2690729659846802 1.5391252676593226 -1.8408462009825648 -1.5707686583148401 2.712259531021118 -1.0460472106933594 -0.07896251231431961 0.09676823019981384 -0.023982331156730652 6.407130737395387e-26 -1.0427669286727905 1 True True
2244.986 4.230731010437012 -1.2728987795165558 1.5442493597613733 -1.8419753513731898 -1.5707529226886194 2.659956693649292 -1.0409109592437744 -0.07634393125772476 0.09556443989276886 -0.02332080900669098 9.80908925027372e-45 -1.0564658641815186 1 True True
2245.036 4.178426265716553 -1.276724175815918 1.549131218587057 -1.8432837925352992 -1.5708168188678187 2.607692003250122 -1.049704670906067 -0.07516521960496902 0.10054712742567062 -0.023385772481560707 5.707894524675794e-05 -1.0405288934707642 1 True True
2245.086 4.1260600090026855 -1.2806111437133332 1.554155174885885 -1.844468732873434 -1.5707767645465296 2.555202007293701 -1.0469329357147217 -0.07610782980918884 0.10344052314758301 -0.022570675238966942 -4.421078086958019e-12 -1.0461746454238892 1 True True
2245.136 4.073760986328125 -1.2842858594707032 1.5591252485858362 -1.8456374607481898 -1.5707805792437952 2.5029590129852295 -1.0421562194824219 -0.07861622422933578 0.10003099590539932 -0.0242802482098341 -6.715626027518927e-31 -1.0527212619781494 1 True True
2245.1859999999997 4.0213165283203125 -1.2881497901729126 1.564216438923971 -1.8468686542906703 -1.5707605520831507 2.4506545066833496 -1.0498838424682617 -0.07516883313655853 0.10158972442150116 -0.023571008816361427 -0.0 -1.0459449291229248 1 True True
2245.236 3.9689323902130127 -1.2919874352267762 1.569282356892721 -1.8481418095030726 -1.5708254019366663 2.3981692790985107 -1.0464307069778442 -0.07524644583463669 0.10212407261133194 -0.022854257375001907 -0.0 -1.0409682989120483 1 True True
2245.286 3.916562795639038 -1.2957588297179718 1.5743334929095667 -1.8492351971068324 -1.5707925001727503 2.345876932144165 -1.047133445739746 -0.07968193292617798 0.0976705476641655 -0.02310711145401001 -0.0 -1.053493857383728 1 True True
2245.336 3.8642568588256836 -1.2996127170375367 1.5792463461505335 -1.8503996334471644 -1.5708087126361292 2.29353928565979 -1.0505943298339844 -0.07639719545841217 0.09684265404939651 -0.0251906868070364 -0.0 -1.04380464553833 1 True True
2245.386 3.8119542598724365 -1.3034230333617707 1.5843213240252894 -1.851636072198385 -1.570784870778219 2.2410712242126465 -1.0495963096618652 -0.07334374636411667 0.10041969269514084 -0.025940336287021637 -0.0 -1.0413318872451782 1 True True
2245.4359999999997 3.7595648765563965 -1.3072218161872406 1.589268986378805 -1.852816721002096 -1.5708168188678187 2.1888298988342285 -1.0431842803955078 -0.07607520371675491 0.10129843652248383 -0.024386614561080933 -0.0 -1.053688883781433 1 True True
2245.486 3.7071175575256348 -1.3110428017428895 1.5942729155169886 -1.8541561565794886 -1.570784870778219 2.136486291885376 -1.0494649410247803 -0.07757164537906647 0.10236659646034241 -0.02432563342154026 -0.0 -1.0459028482437134 1 True True
2245.536 3.654780387878418 -1.3148432833007355 1.599379841481344 -1.8552495441832484 -1.570813004170553 2.0839273929595947 -1.04762601852417 -0.07254085689783096 0.10022975504398346 -0.024737631902098656 -0.0 -1.0415199995040894 1 True True
2245.586 3.6024374961853027 -1.3187162739089509 1.604424301777975 -1.8564068279662074 -1.5707686583148401 2.0316162109375 -1.0456111431121826 -0.07657124102115631 0.09767588973045349 -0.022565683349967003 -0.0 -1.0520652532577515 1 True True
2245.636 3.550062656402588 -1.3224969518235703 1.6093571821795862 -1.857682844201559 -1.5708449522601526 1.9793250560760498 -1.0480015277862549 -0.07861992716789246 0.1015150398015976 -0.023923911154270172 -0.0 -1.0433456897735596 1 True True
2245.6859999999997 3.4977619647979736 -1.3263272208026429 1.614251438771383 -1.8588115177550257 -1.5707648436175745 1.9269129037857056 -1.0489044189453125 -0.07711277157068253 0.10068156570196152 -0.027690311893820763 -0.0 -1.0420666933059692 1 True True
2245.736 3.445401906967163 -1.330117867594101 1.619486157094137 -1.86002840618276 -1.570813004170553 1.8745875358581543 -1.0451362133026123 -0.07860318571329117 0.09612243622541428 -0.024739215150475502 -0.0 -1.0531548261642456 1 True True
2245.786 3.3930299282073975 -1.3340415221503754 1.6243627707110804 -1.8613363705077113 -1.5708254019366663 1.822298288345337 -1.046776294708252 -0.07624250650405884 0.10672782361507416 -0.017649194225668907 -0.0 -1.0458725690841675 1 True True
2245.836 3.3407206535339355 -1.3377326142838974 1.6294639746295374 -1.862481256524557 -1.5708006064044397 1.769831895828247 -1.048690676689148 -0.07716027647256851 0.100852832198143 -0.023837419226765633 -0.0 -1.0473634004592896 1 True True
2245.886 3.2883148193359375 -1.341485784654953 1.6345418135272425 -1.8636580906310023 -1.5708168188678187 1.7174108028411865 -1.0430923700332642 -0.07571811974048615 0.09757092595100403 -0.025098994374275208 -0.0 -1.0516622066497803 1 True True
2245.9359999999997 3.2370479106903076 -1.345284865503647 1.6394451300250452 -1.8649183712401332 -1.5708368460284632 1.6662088632583618 -0.9951542019844055 -0.07094482332468033 0.09176595509052277 -0.018000056967139244 -0.0 -0.998529314994812 1 True True
2245.986 3.1890318393707275 -1.3487872791341324 1.6438887755023401 -1.8660150967040003 -1.5708487669574183 1.6182116270065308 -0.9225993156433105 -0.06520473212003708 0.09076012670993805 -0.02494247816503048 0.00010573656618362293 -0.9236974716186523 1 True True
2246.036 3.1446337699890137 -1.3520183128169556 1.6482246557818812 -1.8670650921263636 -1.5708211104022425 1.5739223957061768 -0.8538429141044617 -0.06256705522537231 0.07872798293828964 -0.025715431198477745 -4.9474195887027966e-20 -0.8556482195854187 1 True True
2246.086 3.103738307952881 -1.354983465080597 1.6522167364703577 -1.867911001245016 -1.5707686583148401 1.5329355001449585 -0.7855859398841858 -0.05761686712503433 0.07932685315608978 -0.015202297829091549 -7.515141243398565e-39 -0.7854679226875305 1 True True
2246.136 3.0662777423858643 -1.357737736111023 1.6556175390826624 -1.868833681146139 -1.5708492437945765 1.4954333305358887 -0.7170403599739075 -0.0530245266854763 0.07133293896913528 -0.016475334763526917 3.8433690860983916e-06 -0.7134045362472534 1 True True
2246.1859999999997 3.032288074493408 -1.3601112824729462 1.6590245405780237 -1.8696056805052699 -1.5708087126361292 1.4615014791488647 -0.6479234099388123 -0.047230541706085205 0.06348106265068054 -0.015964223071932793 0.00020473911717999727 -0.6431601643562317 1 True True
2246.236 3.0018060207366943 -1.3623752754977723 1.6618736425982874 -1.8702808819212855 -1.5707843939410608 1.4309457540512085 -0.5747654438018799 -0.0417013019323349 0.05318763479590416 -0.0141336964443326 8.216431091057075e-09 -0.5707944631576538 1 True True
2246.286 2.9748034477233887 -1.3643843841603776 1.664583985005514 -1.870965143243307 -1.5708254019366663 1.4040535688400269 -0.5072718858718872 -0.03663717582821846 0.04613899067044258 -0.014059776440262794 1.2480775226377655e-27 -0.50389164686203 1 True True
2246.336 2.9514286518096924 -1.3661822241595765 1.6668675581561487 -1.8714453182616175 -1.570784870778219 1.3806596994400024 -0.43468135595321655 -0.03290462866425514 0.03847191482782364 -0.009034029208123684 0.0 -0.4405241012573242 1 True True
2246.386 2.931596517562866 -1.3675479155829926 1.6687191168414515 -1.8718553982176722 -1.5707605520831507 1.3605865240097046 -0.36836257576942444 -0.026854144409298897 0.03536030650138855 -0.00579804927110672 0.0 -0.36948779225349426 1 True True
2246.4359999999997 2.9148337841033936 -1.3687712264112015 1.6702354590045374 -1.872293611566061 -1.570784870778219 1.3440182209014893 -0.291806697845459 -0.02395842783153057 0.02852936089038849 -0.006914092693477869 0.0 -0.2960483729839325 1 True True
2246.486 2.9018993377685547 -1.369724990134575 1.6714885870562952 -1.8725110493102015 -1.5707967917071741 1.3310893774032593 -0.22657893598079681 -0.016632532700896263 0.022491734474897385 -0.006605463568121195 0.0 -0.2290603369474411 1 True True
2246.536 2.892317056655884 -1.3703950208476563 1.6723616758929651 -1.872770448724264 -1.5707524458514612 1.3215546607971191 -0.1580979824066162 -0.011001230217516422 0.014174196869134903 -0.005254147108644247 0.0 -0.15858353674411774 1 True True
2246.586 2.886295795440674 -1.3708042216352005 1.6729758421527308 -1.8729092083373011 -1.570772949849264 1.3155238628387451 -0.08547808229923248 -0.004168550483882427 0.006860447581857443 -0.001438333303667605 0.0 -0.08670147508382797 1 True True
2246.636 2.88381290435791 -1.3709078294089814 1.6730716864215296 -1.8730045757689417 -1.5707605520831507 1.31301748752594 -0.01542685553431511 -0.00116236403118819 0.00066325010266155 -0.0009610191336832941 0.0 -0.01816355437040329 1 True True
2246.6859999999997 2.8838186264038086 -1.3706349444440384 1.6738584677325647 -1.8743087253966273 -1.5707891623126429 1.3129627704620361 -0.0003956895670853555 0.014992906711995602 0.03463983163237572 -0.04627478867769241 0.0 -0.0001276934053748846 1 True True
2246.736 2.883768081665039 -1.3692152065089722 1.6766951719867151 -1.8785325489439906 -1.5708168188678187 1.3129422664642334 -0.0014248695224523544 0.04376792907714844 0.07880288362503052 -0.11560683697462082 0.0 -0.000771082763094455 1 True True
2246.786 2.8837547302246094 -1.3662030708840867 1.6818645636187952 -1.8865286312498988 -1.5707724730121058 1.3128653764724731 -0.0013662732671946287 0.072371706366539 0.11859667301177979 -0.18368330597877502 0.0 -0.0004273539816495031 1 True True
2246.836 2.8837006092071533 -1.3619689059308548 1.6891115347491663 -1.897945066491598 -1.5708044211017054 1.3129184246063232 -0.0006904506008140743 0.09756114333868027 0.17074690759181976 -0.26100173592567444 0.0 -0.000176381814526394 1 True True
