Andreas691667/Digital_Twin_UR/src/robot_connection_manager/robot_output/E2_robot_output.csv
timestamp actual_q_0 actual_q_1 actual_q_2 actual_q_3 actual_q_4 actual_q_5 actual_qd_0 actual_qd_1 actual_qd_2 actual_qd_3 actual_qd_4 actual_qd_5 safety_status output_bit_register_65 output_bit_register_66
2275.294 3.7120862007141113 -0.8254949611476441 0.8430007139789026 -1.5882846317686976 -1.5708006064044397 2.141270637512207 0.0 0.0 0.0 -0.0 0.0 -0.0 1 False False
2275.344 3.7120277881622314 -0.8254735630801697 0.8429563681231897 -1.5882846317686976 -1.5707929770099085 2.141235113143921 0.0 0.0 0.0 -0.0 0.0 -0.0 1 False False
2275.394 3.7120487689971924 -0.8255319756320496 0.8429754416095179 -1.5883289776244105 -1.5708125273333948 2.141313076019287 0.0 0.0 0.0 -0.0 0.0 -0.0 1 False False
2275.444 3.712036609649658 -0.8254913848689576 0.8429887930499476 -1.5883127651610316 -1.5708125273333948 2.1413049697875977 0.0 0.0 0.0 -0.0 0.0 -0.0 1 False False
2275.4939999999997 3.7121236324310303 -0.8254794639400025 0.8430007139789026 -1.588297029534811 -1.5707929770099085 2.141296148300171 0.0 0.0 0.0 -0.0 0.0 -0.0 1 False False
2275.544 3.7120816707611084 -0.8254675430110474 0.8429802099810999 -1.5882731876769007 -1.570784870778219 2.141233444213867 0.0 0.0 0.0 -0.0 0.0 -0.0 1 False False
2275.594 3.7121071815490723 -0.8254707020572205 0.8430007139789026 -1.5882731876769007 -1.570813004170553 2.1413040161132812 0.0 0.0 0.0 -0.0 0.0 -0.0 1 False False
2275.644 3.712078809738159 -0.8254631918719788 0.8429811636554163 -1.5882774792113246 -1.5708168188678187 2.141263246536255 0.0 0.0 0.0 -0.0 0.0 -0.0 1 False False
2275.694 3.7120532989501953 -0.8255203527263184 0.8429802099810999 -1.5882607899107875 -1.5707767645465296 2.141279697418213 0.0 0.0 0.0 -0.0 0.0 -0.0 1 False False
2275.7439999999997 3.7120816707611084 -0.825473503475525 0.8429763952838343 -1.588269372979635 -1.5707967917071741 2.141291618347168 0.0 0.0 0.0 -0.0 0.0 -0.0 1 False False
2275.794 3.712099552154541 -0.8254571121982117 0.8429515997516077 -1.5882607899107875 -1.570824925099508 2.141282558441162 0.0 0.0 0.0 -0.0 0.0 -0.0 1 False False
2275.844 3.7121026515960693 -0.8255335849574585 0.8429563681231897 -1.5882765255370082 -1.5707767645465296 2.141296148300171 0.0 0.0 0.0 -0.0 0.0 -0.0 1 False False
2275.894 3.712062358856201 -0.8255320352366944 0.8430679480182093 -1.5882932148375453 -1.570772949849264 2.141267776489258 0.0 0.0 0.0 -0.0 0.0 -0.0 1 False False
2275.944 3.712036609649658 -0.8254823845675965 0.8429964224444788 -1.5882374248900355 -1.5707967917071741 2.141329526901245 0.0 0.0 0.0 -0.0 0.0 -0.0 1 False False
2275.9939999999997 3.7120578289031982 -0.825473503475525 0.8429515997516077 -1.5882412395873011 -1.5708449522601526 2.141313076019287 0.0 0.0 0.0 -0.0 0.0 -0.0 1 False False
2276.044 3.712078809738159 -0.8254587215236207 0.8429673353778284 -1.588292738000387 -1.5708449522601526 2.141279697418213 3.0828566215145976e-44 0.0 0.0 -0.0 0.0 -0.0 1 False False
2276.094 3.712111473083496 -0.8255530160716553 0.8429935614215296 -1.5882932148375453 -1.5707805792437952 2.1412885189056396 0.0 0.0 0.0 -0.0 0.0 -0.0 1 False False
2276.144 3.7120652198791504 -0.8254496616176148 0.8430054823504847 -1.5882851086058558 -1.5708211104022425 2.141291618347168 0.0 0.0 0.0 -0.0 0.0 -0.0 1 False False
2276.194 3.712062358856201 -0.8254914444736023 0.8429563681231897 -1.5882650814452113 -1.5707686583148401 2.141237735748291 0.0 0.0 0.0 -0.0 0.0 -0.0 1 False False
2276.2439999999997 3.7120413780212402 -0.8254706424525757 0.8429892698871058 -1.5882650814452113 -1.5707805792437952 2.141226053237915 0.0 0.0 0.0 -0.0 0.0 -0.0 1 False False
2276.294 3.712012767791748 -0.8255410355380555 0.8429649511920374 -1.588297029534811 -1.5707843939410608 2.141286849975586 0.0 0.0 0.0 -0.0 0.0 -0.0 1 False False
2276.344 3.7120816707611084 -0.8255112928203125 0.8430216948138636 -1.588292738000387 -1.5707925001727503 2.1412975788116455 0.0 0.0 0.0 -0.0 0.0 -0.0 1 False False
2276.394 3.712095022201538 -0.8254125279239197 0.8429892698871058 -1.5882770023741664 -1.5708211104022425 2.141254186630249 0.0 0.0 0.0 -0.0 0.0 -0.0 1 False False
2276.644 3.7120161056518555 -0.8255216640285035 0.8429892698871058 -1.588273664514059 -1.5708335081683558 2.141254186630249 0.0 0.0 0.0 -0.0 0.0 -0.0 1 False False
2276.694 3.712021589279175 -0.8255128425410767 0.8429763952838343 -1.5882889233031214 -1.5708335081683558 2.141308546066284 0.0 0.0 0.0 -0.0 0.0 -0.0 1 False False
2276.7439999999997 3.7120118141174316 -0.8255202931216736 0.8430054823504847 -1.588320871392721 -1.5708048979388636 2.141326427459717 0.0 0.0 0.0 -0.0 0.0 -0.0 1 False False
2276.794 3.712045669555664 -0.8254993718913575 0.8429515997516077 -1.5883408985533656 -1.5708254019366663 2.141214370727539 0.0 0.0 0.0 -0.0 0.0 -0.0 1 False False
2276.844 3.712001323699951 -0.8254949015429993 0.8429721037494105 -1.5883289776244105 -1.5708168188678187 2.14127516746521 0.0 0.0 0.0 -0.0 0.0 -0.0 1 False False
2276.894 3.712029457092285 -0.8255231541446229 0.8429763952838343 -1.5883127651610316 -1.5707648436175745 2.141247034072876 0.0 0.0 0.0 -0.0 0.0 -0.0 1 False False
2276.944 3.712095022201538 -0.8254496616176148 0.8430054823504847 -1.588273664514059 -1.5708368460284632 2.141279697418213 0.0 0.0 0.0 -0.0 0.0 -0.0 1 False False
2276.9939999999997 3.7121024131774902 -0.8255320948413392 0.8429515997516077 -1.5882650814452113 -1.5707686583148401 2.1413004398345947 0.0 0.0 0.0 -0.0 0.0 -0.0 1 False False
2277.044 3.7120981216430664 -0.8255039614490052 0.8429721037494105 -1.588320871392721 -1.5708048979388636 2.141296148300171 0.0 0.0 0.0 -0.0 0.0 -0.0 1 False False
2277.094 3.712106943130493 -0.8254913848689576 0.8430169264422815 -1.5882932148375453 -1.570813004170553 2.141279697418213 0.0 0.0 0.0 -0.0 0.0 -0.0 1 False False
2277.144 3.7120611667633057 -0.8254994314960022 0.8429721037494105 -1.5882374248900355 -1.5707767645465296 2.141284227371216 0.0 0.0 0.0 -0.0 0.0 -0.0 1 False False
2277.194 3.71213960647583 -0.8254949611476441 0.8429630438434046 -1.5882889233031214 -1.5708048979388636 2.1413004398345947 0.0 0.0 0.0 -0.0 0.0 -0.0 1 False False
2277.2439999999997 3.7120981216430664 -0.8254706424525757 0.8429806868182581 -1.588313718835348 -1.570784870778219 2.141270637512207 0.0 0.0 0.0 -0.0 0.0 -0.0 1 False False
2277.294 3.7120208740234375 -0.825527624492981 0.8429845015155237 -1.5882774792113246 -1.5707967917071741 2.1413114070892334 0.0 0.0 0.0 -0.0 0.0 -0.0 1 False False
2277.344 3.712082862854004 -0.8255367440036316 0.8429887930499476 -1.5882817707457484 -1.5708211104022425 2.1412930488586426 0.0 0.0 0.0 -0.0 0.0 -0.0 1 False False
2277.394 3.71213960647583 -0.8255113524249573 0.8429845015155237 -1.588280817071432 -1.570813004170553 2.141218900680542 0.0 0.0 0.0 -0.0 0.0 -0.0 1 False False
2277.444 3.7121310234069824 -0.8254615825465699 0.8429721037494105 -1.5883294544615687 -1.570768181477682 2.1412839889526367 0.0 0.0 0.0 -0.0 0.0 -0.0 1 False False
2277.4939999999997 3.712090492248535 -0.8255039614490052 0.8429678122149866 -1.5883003673949183 -1.5707967917071741 2.1413426399230957 2.4441809687303362e-11 0.0 0.0 -0.0 0.0 -0.0 1 False False
2277.544 3.712106704711914 -0.8255618375590821 0.8429887930499476 -1.5882374248900355 -1.5708335081683558 2.141279697418213 0.0 0.0 0.0 -0.0 0.0 -0.0 1 False False
2277.594 3.7120699882507324 -0.8255157035640259 0.8429678122149866 -1.5883294544615687 -1.5707967917071741 2.1413040161132812 0.0 0.0 0.0 -0.0 0.0 -0.0 1 False False
2277.644 3.712062358856201 -0.8255202931216736 0.8429845015155237 -1.5883413753905238 -1.5708168188678187 2.1412885189056396 0.0 0.0 0.0 -0.0 0.0 -0.0 1 False False
2277.694 3.7120862007141113 -0.8254949611476441 0.8429482618915003 -1.5883094273009242 -1.5707843939410608 2.141258955001831 0.0 0.0 0.0 -0.0 0.0 -0.0 1 False False
2277.7439999999997 3.71207857131958 -0.8255378764918824 0.8429845015155237 -1.5883251629271449 -1.570784870778219 2.141254425048828 0.0 0.0 0.0 -0.0 0.0 -0.0 1 False False
2277.794 3.712099313735962 -0.8255410355380555 0.8430092970477503 -1.5882774792113246 -1.5708211104022425 2.141267776489258 0.0 0.0 0.0 -0.0 0.0 -0.0 1 False False
2277.844 3.712094783782959 -0.8255202335170289 0.842992130910055 -1.5882402859129847 -1.5708168188678187 2.141295909881592 0.0 0.0 0.0 -0.0 0.0 -0.0 1 False False
2277.894 3.712094783782959 -0.825457291012146 0.8430126349078577 -1.5882846317686976 -1.5708254019366663 2.1413090229034424 0.0 0.0 0.0 -0.0 0.0 -0.0 1 False False
2277.944 3.71207857131958 -0.8255496186069031 0.8429763952838343 -1.5882650814452113 -1.5708087126361292 2.1413004398345947 0.0 0.0 0.0 -0.0 0.0 -0.0 1 False False
2277.9939999999997 3.7120656967163086 -0.8255202335170289 0.8429763952838343 -1.588269372979635 -1.5707524458514612 2.141279697418213 0.0 0.0 0.0 -0.0 0.0 -0.0 1 False False
2278.044 3.712094783782959 -0.8255365055850525 0.8430007139789026 -1.5882731876769007 -1.5708449522601526 2.141247272491455 0.0 0.0 0.0 -0.0 0.0 -0.0 1 False False
2278.094 3.712045907974243 -0.8255126041224976 0.8429635206805628 -1.5883094273009242 -1.5707925001727503 2.141275405883789 0.0 0.0 0.0 -0.0 0.0 -0.0 1 False False
2278.144 3.712050199508667 -0.8254913252643128 0.8429716269122522 -1.5883094273009242 -1.5708373228656214 2.141295909881592 0.0 0.0 0.0 -0.0 0.0 -0.0 1 False False
2278.194 3.7120254039764404 -0.8255438965610047 0.8429763952838343 -1.588245531121725 -1.5707925001727503 2.141231060028076 0.0 0.0 0.0 -0.0 0.0 -0.0 1 False False
2278.2439999999997 3.7120587825775146 -0.8255202335170289 0.8429964224444788 -1.5883170566954554 -1.570801083241598 2.141312837600708 0.0 0.0 0.0 -0.0 0.0 -0.0 1 False False
2278.294 3.71207857131958 -0.8255232137492676 0.8429678122149866 -1.5882774792113246 -1.5707605520831507 2.141291618347168 0.0 0.0 0.0 -0.0 0.0 -0.0 1 False False
2278.344 3.712094783782959 -0.8254824441722413 0.8429930845843714 -1.5882889233031214 -1.5707805792437952 2.141279697418213 0.0 0.0 0.0 -0.0 0.0 -0.0 1 False False
2278.394 3.7120580673217773 -0.8254781526378174 0.8429477850543421 -1.5882932148375453 -1.5708048979388636 2.1412546634674072 0.0 0.0 0.0 -0.0 0.0 -0.0 1 False False
2278.444 3.7120742797851562 -0.8255126637271424 0.8429887930499476 -1.5882774792113246 -1.5707724730121058 2.141275405883789 0.0 0.0 0.0 -0.0 0.0 -0.0 1 True False
2278.4939999999997 3.712106704711914 -0.8254824441722413 0.8429520765887659 -1.5882932148375453 -1.5708254019366663 2.141251564025879 0.0 0.0 0.0 -0.0 0.0 -0.0 1 True False
2278.544 3.7120935916900635 -0.8254544299891968 0.8430050055133265 -1.5883251629271449 -1.5707405249225062 2.141267776489258 0.0 0.0 0.0 -0.0 0.0 -0.0 1 True False
2278.594 3.712045669555664 -0.825498179798462 0.8429887930499476 -1.5882846317686976 -1.570784870778219 2.141308546066284 0.0 0.0 0.0 -0.0 0.0 0.00011539899423951283 1 True False
2278.644 3.712045669555664 -0.8255288761905213 0.8429515997516077 -1.5883056126036585 -1.5707805792437952 2.14125919342041 0.0 0.0 0.0 -0.0 0.0 2.7415435397415422e-05 1 True False
2278.694 3.7120203971862793 -0.8255201739123841 0.8430007139789026 -1.5883094273009242 -1.5708335081683558 2.14125919342041 0.0 0.0 0.0 -0.0 0.0 1.7719735127609955e-19 1 True False
2278.7439999999997 3.7120158672332764 -0.8255112928203125 0.8429191748248499 -1.588280817071432 -1.570756737385885 2.141295909881592 0.0 0.0 0.0 -0.0 0.0 2.691631466376066e-38 1 True False
2278.794 3.712062358856201 -0.8254780930331727 0.8429887930499476 -1.5882731876769007 -1.5708168188678187 2.1412429809570312 0.0 0.0 0.0 -0.0 0.0 0.0 1 True False
2278.844 3.712083101272583 -0.825508252983429 0.8429678122149866 -1.5882846317686976 -1.5708087126361292 2.141195774078369 0.0 0.0 0.0 -0.0 0.0 3.709445445565507e-05 1 True False
2278.894 3.7120203971862793 -0.8255039018443604 0.842992130910055 -1.5882607899107875 -1.5708449522601526 2.141231060028076 0.0 0.0 0.0 -0.0 0.0 5.6346559522900126e-24 1 True False
2278.944 3.712066888809204 -0.8255601090243836 0.8430007139789026 -1.5882889233031214 -1.5708048979388636 2.141291618347168 0.0 0.0 0.0 -0.0 0.0 8.561933617024632e-43 1 True False
2278.9939999999997 3.712327241897583 -0.82561148822818 0.8431418577777308 -1.5883447132506312 -1.5708282629596155 2.141392469406128 0.024199344217777252 -0.014414708130061626 0.023835333064198494 -0.0062127551063895226 0.0 0.02553030103445053 1 True False
2279.044 3.7153398990631104 -0.8269868058017273 0.8452194372760218 -1.5891076527037562 -1.5707886854754847 2.144479274749756 0.09146086871623993 -0.04437009245157242 0.07287898659706116 -0.023202214390039444 0.0 0.09088361263275146 1 True False
2279.094 3.7218191623687744 -0.8301424545100708 0.8504541555987757 -1.5907980404295863 -1.570813004170553 2.150900363922119 0.16470026969909668 -0.08284004032611847 0.1302914321422577 -0.042612865567207336 0.0 0.16007637977600098 1 True False
2279.144 3.731761932373047 -0.8354805272868653 0.8581393400775355 -1.593553205529684 -1.570756737385885 2.1609466075897217 0.23284515738487244 -0.12394918501377106 0.18179453909397125 -0.05687716603279114 0.0 0.22859229147434235 1 True False
2279.194 3.74521803855896 -0.8424140375903626 0.8687384764300745 -1.5969420872130335 -1.5707605520831507 2.174292802810669 0.3009893298149109 -0.1542031466960907 0.23773950338363647 -0.08148952573537827 0.0 0.30770939588546753 1 True False
2279.2439999999997 3.7619845867156982 -0.8511817020228882 0.8818314711200159 -1.6014157734312953 -1.5707886854754847 2.191283941268921 0.3701060712337494 -0.19209176301956177 0.2887616753578186 -0.08824516832828522 7.265927369141703e-17 0.3683091402053833 1 True False
2279.294 3.782548189163208 -0.861534134750702 0.8977296988116663 -1.6069141827025355 -1.5707805792437952 2.211646795272827 0.4429130554199219 -0.23067650198936462 0.3426680266857147 -0.12405771017074585 4.546758646029048e-05 0.44612446427345276 1 True False
2279.344 3.806467294692993 -0.8738868993571778 0.916443173085348 -1.6131545505919398 -1.5707405249225062 2.235459327697754 0.5102130174636841 -0.26106175780296326 0.3930893838405609 -0.14120268821716309 3.932019171770662e-05 0.5113474130630493 1 True False
2279.394 3.8336610794067383 -0.8879688543132325 0.9374950567828577 -1.6204873524107875 -1.5708611647235315 2.2629926204681396 0.576508641242981 -0.2972264289855957 0.450805127620697 -0.16585709154605865 1.4558809713349774e-10 0.5781856775283813 1 True False
2279.444 3.8646914958953857 -0.9036786121181031 0.9615204969989222 -1.6286732159056605 -1.570801083241598 2.293870210647583 0.646030843257904 -0.3316289186477661 0.5041084885597229 -0.17114625871181488 -2.917577855293346e-17 0.6439961194992065 1 True False
2279.4939999999997 3.899030923843384 -0.9213218253901978 0.9882457892047327 -1.6376730404295863 -1.5708449522601526 2.3282787799835205 0.7154238820075989 -0.36786314845085144 0.561314046382904 -0.18400660157203674 -7.148065302099889e-15 0.7144091725349426 1 True False
2279.544 3.9368913173675537 -0.9407497209361573 1.0176976362811487 -1.6475755176939906 -1.570829216633932 2.3659753799438477 0.7862452268600464 -0.4044797122478485 0.6152589917182922 -0.21171975135803223 -8.322796202264726e-05 0.8001439571380615 1 True False
2279.594 3.978229284286499 -0.9619643253139039 1.049896542225973 -1.658517976800436 -1.5707805792437952 2.407439947128296 0.8677371144294739 -0.4347289502620697 0.6701979041099548 -0.22224490344524384 -4.0525624955923076e-22 0.866850733757019 1 True False
2279.644 4.023224353790283 -0.9849542540362854 1.0845063368426722 -1.6704145870604457 -1.5708087126361292 2.452340602874756 0.9242944717407227 -0.47771596908569336 0.7236957550048828 -0.2539941668510437 -6.155904153778921e-41 0.9183864593505859 1 True False
2279.694 4.071455478668213 -1.0097631973079224 1.1221688429461878 -1.6831432781615199 -1.570813004170553 2.5007777214050293 1.0064889192581177 -0.5154771208763123 0.7819029688835144 -0.27274206280708313 -0.0 1.0043525695800781 1 True False
2279.7439999999997 4.123225688934326 -1.0362110298923035 1.1622560659991663 -1.6968046627440394 -1.5708287397967737 2.5521106719970703 1.0471696853637695 -0.5371297001838684 0.8150462508201599 -0.27928632497787476 -0.0 1.0438315868377686 1 True False
2279.794 4.175467491149902 -1.0630402129939576 1.2029898802386683 -1.7105103931822718 -1.570772949849264 2.604766845703125 1.048076868057251 -0.5346385836601257 0.8158105611801147 -0.2794151306152344 -0.00013376635615713894 1.0433526039123535 1 True False
2280.044 4.436790466308594 -1.1968676906875153 1.4056866804706019 -1.7796303234496058 -1.5708172957049769 2.86588716506958 1.008185625076294 -0.5160977840423584 0.7845809459686279 -0.2932834327220917 -2.9710857774034594e-08 1.0111497640609741 1 True False
2280.094 4.485527038574219 -1.2219276589206238 1.443643871937887 -1.7923556766905726 -1.570784870778219 2.914926528930664 0.9448270797729492 -0.4801405370235443 0.7324249148368835 -0.26125627756118774 0.0003635731991380453 0.944373607635498 1 True False
2280.144 4.5307488441467285 -1.245165393953659 1.4787820021258753 -1.8044759235777796 -1.570836369191305 2.9598400592803955 0.8687372207641602 -0.44930300116539 0.678023099899292 -0.22346432507038116 4.0712861948543335e-18 0.8778494000434875 1 True False
2280.194 4.572573661804199 -1.2666890186122437 1.511108700429098 -1.8155952892699183 -1.5708168188678187 3.0018081665039062 0.8031759262084961 -0.41547784209251404 0.6166614294052124 -0.2099304050207138 6.1842893038877935e-37 0.8048287630081177 1 True False
2280.2439999999997 4.610924243927002 -1.286231057052948 1.5409277121173304 -1.8255979023375453 -1.5707529226886194 3.0402398109436035 0.7305834889411926 -0.3773091733455658 0.5660505890846252 -0.1948769986629486 0.0004043379158247262 0.729557454586029 1 True False
2280.4939999999997 4.750101566314697 -1.3575137865594407 1.6489365736590784 -1.8623515568175257 -1.5707767645465296 3.1792047023773193 0.3821336627006531 -0.19977663457393646 0.29700252413749695 -0.11002061516046524 0.0006112653645686805 0.3923276364803314 1 True False
2280.544 4.767489910125732 -1.3663963985494156 1.6624882856952112 -1.8666912517943324 -1.5707691351519983 3.1966605186462402 0.31666529178619385 -0.1607038527727127 0.24713650345802307 -0.07555549591779709 4.640415473786705e-16 0.3105551600456238 1 True False
2280.594 4.781269073486328 -1.3735688042691727 1.673149887715475 -1.8705722294249476 -1.5708006064044397 3.2104332447052 0.2431555688381195 -0.12566494941711426 0.18897949159145355 -0.05896984785795212 5.700689365006895e-10 0.2555404007434845 1 True False
2280.644 4.791632652282715 -1.3789271277240296 1.681296173726217 -1.8732153377928675 -1.5707653204547327 3.2209312915802 0.17566844820976257 -0.08925498276948929 0.1324789822101593 -0.04474177211523056 8.659361401129029e-29 0.17447632551193237 1 True False
2280.694 4.798532962799072 -1.3824716669372101 1.6865857283221644 -1.8751751385130824 -1.5707767645465296 3.227794647216797 0.10169276595115662 -0.05548236519098282 0.08312436938285828 -0.023899583145976067 0.0 0.10304734110832214 1 True False
2280.7439999999997 4.801933288574219 -1.3841045659831543 1.6892698446856897 -1.875953813592428 -1.5707967917071741 3.2310993671417236 0.03394337370991707 -0.018747204914689064 0.025984082370996475 -0.009528761729598045 0.0 0.037290338426828384 1 True False
2280.794 4.802248477935791 -1.384173573260643 1.6899283568011683 -1.8765918217101039 -1.5708006064044397 3.2314836978912354 -0.0009828138863667846 0.013990871608257294 0.027527298778295517 -0.030781161040067673 -0.00029817703762091696 9.480321416788229e-09 1 True False
2280.844 4.802251815795898 -1.3829922390035172 1.6922434012042444 -1.8801733456053675 -1.5708254019366663 3.2315447330474854 0.0003614961460698396 0.03681149333715439 0.06538171321153641 -0.1085251048207283 -2.5238529862590074e-16 0.0004632548661902547 1 True False
2280.894 4.802299976348877 -1.3803874117187043 1.6968391577350062 -1.8872505627074183 -1.5708406607257288 3.2315285205841064 0.0002518224937375635 0.06745017319917679 0.10835295170545578 -0.1683652102947235 -3.8337376459345047e-35 0.00031306641176342964 1 True False
2280.944 4.802375793457031 -1.3763605964234848 1.7034981886493128 -1.8978644810118617 -1.5707524458514612 3.2315523624420166 0.0006958997109904885 0.09019972383975983 0.15355652570724487 -0.248365119099617 -0.0 0.00025729695335030556 1 True False
2280.9939999999997 4.802310466766357 -1.3712923687747498 1.7122920195208948 -1.9118920765318812 -1.5708373228656214 3.2315313816070557 0.00027311398298479617 0.11541055887937546 0.20095285773277283 -0.32251685857772827 -0.0 0.00019260330009274185 1 True False
2281.044 4.8023176193237305 -1.3648416709950943 1.723433796559469 -1.9294434986510218 -1.5707925001727503 3.2315433025360107 0.0001875803282018751 0.13902311027050018 0.24175375699996948 -0.3783353269100189 -0.0 3.195462704752572e-05 1 True False
2281.094 4.802334308624268 -1.3570692998221894 1.7369282881366175 -1.9503947697081507 -1.570801083241598 3.2316064834594727 0.00013679689436685294 0.16814151406288147 0.2847091257572174 -0.4475150406360626 -0.0 1.6926762327784672e-05 1 True False
2281.144 4.802314758300781 -1.348089725976326 1.7521618048297327 -1.9750086269774378 -1.5708168188678187 3.231510639190674 9.327179577667266e-05 0.1951626092195511 0.3327600061893463 -0.5254824161529541 -0.0 1.1513116078276653e-05 1 True False
2281.194 4.80233097076416 -1.3377727729133149 1.7697632948504847 -2.00247921566152 -1.5708335081683558 3.231585741043091 7.287042535608634e-05 0.19897150993347168 0.3457466959953308 -0.5483079552650452 -0.0 2.515101918304009e-15 1 True False
2281.2439999999997 4.802334308624268 -1.3286034774831315 1.7857368628131312 -2.0280729732909144 -1.570829216633932 3.231527090072632 6.224572280189022e-05 0.17600397765636444 0.3028475046157837 -0.4793648421764374 4.095642436308111e-10 3.8204457206037077e-34 1 True False
2281.294 4.802364349365234 -1.3204455536654969 1.7997635046588343 -2.0501018963255824 -1.5707767645465296 3.2315523624420166 3.390104393474758e-05 0.15036991238594055 0.2522042393684387 -0.417393296957016 -2.462317994787228e-17 0.0 1 True False
2281.344 4.802280902862549 -1.3134990197471161 1.8114178816424769 -2.068716665307516 -1.5707805792437952 3.231510639190674 3.457288403296843e-05 0.1269446462392807 0.22000907361507416 -0.3378268778324127 -3.740267477944901e-36 0.0 1 True False
2281.544 4.802395343780518 -1.299135522251465 1.8363035360919397 -2.1080409489073695 -1.570801083241598 3.2315523624420166 0.0 0.022960573434829712 0.04021656885743141 -0.05827721580862999 -0.0 0.0 1 True False
2281.594 4.8023223876953125 -1.2987368267825623 1.8371065298663538 -2.109248777429098 -1.570813004170553 3.2315404415130615 0.0 -6.673220013908576e-06 -9.871063411992509e-06 0.002287300769239664 -0.0 0.0 1 True False
2281.644 4.802362442016602 -1.2987249058536072 1.8371151129352015 -2.109244485894674 -1.570784870778219 3.2315313816070557 0.0 -2.4848276672427587e-30 -2.3227653577878204e-35 1.9552703633962665e-06 -0.0 0.0 1 True False
2281.694 4.802318096160889 -1.2987660330585022 1.837135140095846 -2.109232564965719 -1.5707767645465296 3.2315151691436768 0.0 0.00018660433124750853 0.00016149111615959555 -0.0001422690984327346 -0.0 0.0 1 True False
2281.7439999999997 4.802366733551025 -1.2987036567977448 1.8371709028827112 -2.1092001400389613 -1.5707891623126429 3.2315731048583984 0.0 0.0004741022421512753 0.0006896246923133731 -7.310917135328054e-05 -0.0 0.0 1 True False
2281.794 4.8023223876953125 -1.2987254720977326 1.837208096181051 -2.1092568836607875 -1.5707767645465296 3.231576919555664 0.0 0.000570341304410249 0.00020862906239926815 -0.0002881904074456543 -0.0 0.0 1 True False
2281.844 4.802334308624268 -1.2987049382976075 1.8371785322772425 -2.1092645130553187 -1.5707925001727503 3.231501579284668 0.0 0.00017520997789688408 0.00014934487990103662 -0.00011018690565833822 -0.0 0.0 1 True False
2281.894 4.802347183227539 -1.2987466317466279 1.8371384779559534 -2.109244485894674 -1.5708044211017054 3.2315328121185303 0.0 0.00015170814003795385 9.795471851248294e-05 -0.0001086760894395411 -0.0 0.0 1 True False
2281.944 4.802346706390381 -1.2986886364272614 1.8371623198138636 -2.1092683277525843 -1.5708254019366663 3.2315433025360107 0.0 0.00011526417074492201 7.862442726036534e-05 -8.200636511901394e-05 -0.0 0.0 1 True False
2281.9939999999997 4.80232572555542 -1.2986486119082947 1.837236229573385 -2.1092683277525843 -1.5707648436175745 3.2316064834594727 0.0 9.038796270033345e-05 4.546022885929659e-22 -8.352574513992295e-05 -0.0 0.0 1 True False
2282.044 4.802306175231934 -1.2987466615489502 1.837191406880514 -2.1093245945372523 -1.5708654562579554 3.231572151184082 0.0 5.508379399543628e-05 0.0 -9.282150858780369e-05 -0.0 0.0 1 True False
2282.094 4.8023552894592285 -1.2987264853766938 1.8371952215777796 -2.1092850170531214 -1.5708449522601526 3.2315478324890137 0.0 2.1770887542515993e-05 0.0 -5.926753601670498e-06 -0.0 0.0 1 True False
2282.144 4.802338600158691 -1.2987146240523835 1.837219540272848 -2.1093365154662074 -1.5708087126361292 3.231527090072632 0.0 1.3566622328653466e-05 0.0 -2.1619085600832477e-05 -0.0 0.0 1 True False
2282.194 4.80230188369751 -1.298753098850586 1.837066952382223 -2.109483381310934 -1.5707886854754847 3.2316229343414307 -4.385514635372789e-19 0.000278806866845116 -0.0003807271714322269 -0.0019981171935796738 0.002091537229716778 0.00028655771166086197 1 True False
2282.2439999999997 4.802327632904053 -1.2987124484828492 1.8370869795428675 -2.109519144097799 -1.570784870778219 3.231597661972046 0.0 0.00025577936321496964 -9.462820191810193e-21 0.00017464505799580365 7.087554695317522e-05 -5.872949259355664e-05 1 True False
2282.294 4.802359580993652 -1.2988140147975464 1.8370149771319788 -2.1092645130553187 -1.570801083241598 3.2315688133239746 0.0 -0.003014893736690283 -0.012512683868408203 0.036001164466142654 3.571213164832443e-05 -3.234290488762781e-05 1 True True
2282.344 4.802400588989258 -1.2994070214084168 1.8358715216266077 -2.1064192257323207 -1.570784870778219 3.2315597534179688 0.0 -0.030206749215722084 -0.05372686684131622 0.07941319048404694 2.3871176381362602e-05 -5.3796713473275304e-05 1 True True
2282.394 4.8022942543029785 -1.3018292349627991 1.8317220846759241 -2.100387235681051 -1.5707886854754847 3.231527090072632 0.0 -0.06195952743291855 -0.09795795381069183 0.1643860936164856 5.911570603693572e-13 -4.244123488206242e-07 1 True True
2282.444 4.802371025085449 -1.3054058116725464 1.8255398909198206 -2.090767046014303 -1.5708168188678187 3.2316019535064697 0.0 -0.08864074945449829 -0.14297814667224884 0.2178235501050949 8.979689508007766e-32 -6.446833860236127e-26 1 True True
2282.4939999999997 4.80230188369751 -1.3103189033320923 1.8170369307147425 -2.077621122399801 -1.570784870778219 3.2315597534179688 0.0 -0.10752274841070175 -0.1870984584093094 0.2882506251335144 0.0 -9.80908925027372e-45 1 True True
2282.544 4.802347183227539 -1.3164608639529725 1.8065193335162562 -2.060946603814596 -1.5708168188678187 3.2315313816070557 0.0 -0.13467535376548767 -0.23141029477119446 0.36235496401786804 0.0 -0.0 1 True True
2282.594 4.802273750305176 -1.323791743522026 1.7939003149615687 -2.040896078149313 -1.5707767645465296 3.231527090072632 0.0 -0.16065095365047455 -0.2781115174293518 0.4285281300544739 0.0 -0.0 1 True True
2282.644 4.8023223876953125 -1.3324956160834809 1.7788427511798304 -2.0173050365843714 -1.570829216633932 3.231501579284668 0.0 -0.1875937432050705 -0.3227737843990326 0.5053460597991943 0.0 -0.0 1 True True
2282.694 4.802319049835205 -1.3424694401076813 1.7618516127215784 -1.9901334247984828 -1.5707767645465296 3.2315478324890137 0.0 -0.20463542640209198 -0.34777113795280457 0.5767223834991455 0.0 -0.0 1 True True
2282.7439999999997 4.802362442016602 -1.3522292536548157 1.745112721120016 -1.963679929772848 -1.570829216633932 3.231510639190674 0.0 -0.18027065694332123 -0.31351613998413086 0.4916326701641083 0.0 -0.0 1 True True
2282.794 4.802338600158691 -1.3605582577041169 1.730706040059225 -1.9407912693419398 -1.5707767645465296 3.2315404415130615 0.0 -0.16040253639221191 -0.2700502872467041 0.43865981698036194 0.0 -0.0 1 True True
2282.844 4.802318096160889 -1.3678664875081559 1.7183135191546839 -1.9213372669615687 -1.5707686583148401 3.2315316200256348 0.0 -0.13583043217658997 -0.2273125946521759 0.3659752905368805 0.0 -0.0 1 True True
2282.894 4.802347183227539 -1.373642460708954 1.7082675139056605 -1.9051796398558558 -1.5708487669574183 3.2316226959228516 0.0 -0.10294906795024872 -0.18423019349575043 0.2887186110019684 0.0 -0.0 1 True True
2282.944 4.802253246307373 -1.3782977026752015 1.7003544012652796 -1.8926707706847132 -1.5707724730121058 3.2315077781677246 0.0 -0.08279846608638763 -0.13490712642669678 0.2191333770751953 0.0 -0.0 1 True True
2282.9939999999997 4.802347183227539 -1.3815374982408066 1.6945489088641565 -1.8837505779662074 -1.5708211104022425 3.2315685749053955 0.0 -0.05671784281730652 -0.09058235585689545 0.14767496287822723 0.0 -0.0 1 True True
2283.044 4.8023223876953125 -1.3836103838733216 1.6910417715655726 -1.8781153164305628 -1.5707648436175745 3.23162579536438 0.0 -0.027317173779010773 -0.05038789287209511 0.07190156728029251 0.0 -0.0 1 True True
2283.094 4.80230188369751 -1.384393424992897 1.6896474997149866 -1.8762170277037562 -1.5707967917071741 3.2315728664398193 0.0 -0.0005879454547539353 -0.0026459002401679754 0.006251492537558079 0.0 -0.0 1 True True
2283.144 4.800917148590088 -1.384369672541954 1.6896474997149866 -1.8761645756163539 -1.5708168188678187 3.2301416397094727 -0.06140097975730896 -4.598324085236527e-05 2.8261544393924165e-15 0.00021643962827511132 2.5468928859352993e-14 -0.06374160945415497 1 True True
2283.194 4.795935153961182 -1.3843321216157456 1.6897099653827112 -1.8761092625060023 -1.5707767645465296 3.2251946926116943 -0.13629883527755737 -2.200038588989963e-43 7.006492321624085e-45 0.0007483379449695349 3.868737048916403e-33 -0.1313563585281372 1 True True
2283.2439999999997 4.787606239318848 -1.384296031003334 1.6896632353412073 -1.8760653934874476 -1.5708254019366663 3.216728925704956 -0.20417961478233337 0.0 -6.08723858022131e-05 0.00037060826434753835 0.0 -0.19851252436637878 1 True True
2283.294 4.775660991668701 -1.384336994295456 1.6896351019488733 -1.876077791253561 -1.5707486311541956 3.2048912048339844 -0.27191656827926636 0.0 -0.0002699500764720142 0.00023987046733964235 -5.286473242449574e-05 -0.27109378576278687 1 True True
2283.344 4.7601752281188965 -1.3843772274306794 1.689648453389303 -1.8760377369322718 -1.570801083241598 3.1894452571868896 -0.33668068051338196 0.0 -0.0015116460854187608 0.00017332045536022633 -6.55978947179392e-05 -0.3397504985332489 1 True True
2283.394 4.741390228271484 -1.3842719507268448 1.6895869413958948 -1.8760940037169398 -1.5708168188678187 3.1705634593963623 -0.41322892904281616 0.0003951861581299454 -0.0013232574565336108 0.00012975765275768936 -3.983618807978928e-05 -0.41628339886665344 1 True True
2283.444 4.718997955322266 -1.3842924398234864 1.6894944349872034 -1.8760491810240687 -1.5708487669574183 3.1481587886810303 -0.47869378328323364 0.0007986213895492256 -0.0015179830370470881 0.00010807885701069608 -5.789257419806793e-13 -0.47586846351623535 1 True True
2283.4939999999997 4.693077087402344 -1.384208546285965 1.6894105116473597 -1.8760858974852503 -1.5708368460284632 3.122194528579712 -0.549104630947113 0.0019057047320529819 -0.0015095064882189035 0.00016083320952020586 -0.0006140469922684133 -0.545725405216217 1 True True
2283.544 4.663570404052734 -1.3841483753970643 1.6893733183490198 -1.8760653934874476 -1.570796314870016 3.0928804874420166 -0.6233419179916382 0.002029476687312126 -0.0017756687011569738 0.00017234172264579684 1.6844365902102254e-08 -0.6111356616020203 1 True True
2283.594 4.6307501792907715 -1.3841450375369568 1.6892908255206507 -1.8760096035399378 -1.5708325544940394 3.059986114501953 -0.6928529739379883 0.002373316092416644 -0.002235137391835451 0.0003382056893315166 -0.0015491958474740386 -0.6850568652153015 1 True True
2283.644 4.594456195831299 -1.3840162766030808 1.689211670552389 -1.8760096035399378 -1.5708807150470179 3.023624897003174 -0.7684777975082397 0.0034146371763199568 -0.003177344799041748 0.0004919576458632946 -0.004427910782396793 -0.7510458827018738 1 True True
2283.694 4.554710388183594 -1.3839968007854004 1.6891635099994105 -1.875970026055807 -1.5708254019366663 2.9840381145477295 -0.8368686437606812 0.0016991905868053436 -0.0023686098866164684 0.00020237646822351962 -0.0007681857678107917 -0.8267181515693665 1 True True
2283.7439999999997 4.511408805847168 -1.3838873964599152 1.6890648047076624 -1.8759495220580042 -1.570784870778219 2.940492868423462 -0.8964776992797852 0.0007536456105299294 -0.0025837598368525505 0.0007045913953334093 0.0009124024072661996 -0.9047037363052368 1 True True
2283.794 4.46457052230835 -1.3837971699288865 1.6889823118792933 -1.8759576282896937 -1.570820156727926 2.8938698768615723 -0.9754582047462463 0.0022143772803246975 -0.002181408926844597 0.0003041515010409057 1.2698481441475451e-05 -0.9633509516716003 1 True True
2283.844 4.414198398590088 -1.383734093313553 1.6888731161700647 -1.875941892663473 -1.5707767645465296 2.8433732986450195 -1.0350087881088257 0.002654391573742032 -0.003968162927776575 0.0010251752100884914 -5.035543654230423e-05 -1.0409740209579468 1 True True
2283.894 4.362003803253174 -1.383605183368065 1.6887744108783167 -1.8758584461607875 -1.5707529226886194 2.7912185192108154 -1.0467886924743652 0.0013961164513602853 -0.001609446364454925 0.0004791850515175611 -4.934057550281656e-15 -1.0510305166244507 1 True True
2283.944 4.309662342071533 -1.3834894609502335 1.6885393301593226 -1.8759142361082972 -1.5708487669574183 2.7387259006500244 -1.0522693395614624 0.0023132681380957365 -0.0036493598017841578 0.0003240811638534069 -5.918142365057832e-11 -1.0410300493240356 1 True True
2283.9939999999997 4.25715446472168 -1.383470044737198 1.6885021368609827 -1.8758107624449671 -1.5708335081683558 2.686330556869507 -1.043233036994934 0.0016442262567579746 -0.0024913738016039133 0.0003214642929378897 -1.6391522805747627e-08 -1.0521996021270752 1 True True
2284.044 4.204793453216553 -1.3833698344281693 1.6884062925921839 -1.8758913479247035 -1.5707805792437952 2.634089946746826 -1.0448658466339111 0.0014848558930680156 -0.0010752754751592875 0.00027988667716272175 -1.1016987629766751e-16 -1.052841305732727 1 True True
2284.094 4.152463912963867 -1.383236364727356 1.6882804075824183 -1.875815053979391 -1.5708044211017054 2.581848382949829 -1.0485553741455078 0.0027533762622624636 -0.0031842051539570093 0.00045074737863615155 2.3176024114945903e-05 -1.041765570640564 1 True True
2284.144 4.100037574768066 -1.3831467491439362 1.6881964842425745 -1.8758756122984828 -1.570829216633932 2.529268503189087 -1.044076681137085 0.001042425399646163 -0.0019258469110354781 0.0011098411632701755 3.520444039703473e-24 -1.0511887073516846 1 True True
2284.194 4.047759056091309 -1.383101449613907 1.6880844275103968 -1.875758787194723 -1.5707281271563929 2.477078914642334 -1.0455496311187744 0.0013071452267467976 -0.0013744683237746358 0.0004282275040168315 0.0005358966300264001 -1.0512206554412842 1 True True
2284.2439999999997 3.995378017425537 -1.382933334713318 1.6879108587848108 -1.8758074245848597 -1.570829216633932 2.424527883529663 -1.0511282682418823 0.003404496004804969 -0.0031079642940312624 0.0005097620305605233 1.6443316781078465e-05 -1.0420570373535156 1 True True
2284.294 3.943025827407837 -1.3828734916499634 1.6879223028766077 -1.875695367852682 -1.5708087126361292 2.3721470832824707 -1.0439505577087402 0.0023155794478952885 -0.0025589230936020613 0.0010887645184993744 0.0005649529048241675 -1.0492109060287476 1 True True
2284.344 3.8906984329223633 -1.382846475844719 1.6877568403827112 -1.875711580316061 -1.5707653204547327 2.3198812007904053 -1.0436911582946777 0.0015194604638963938 -0.001649550162255764 0.0004246085009071976 -6.265603825398138e-16 -1.0498065948486328 1 True True
2284.394 3.8382956981658936 -1.3825857651284714 1.687613312398092 -1.8757034740843714 -1.570813004170553 2.2676236629486084 -1.0509506464004517 0.002630583243444562 -0.003567098407074809 0.0003361747367307544 -1.5888139328484874e-12 -1.0435402393341064 1 True True
2284.444 3.7858877182006836 -1.3826259982636948 1.68750507036318 -1.8757440052428187 -1.5707967917071741 2.2150330543518066 -1.0442042350769043 0.00207249796949327 -0.003284516278654337 0.0006875397521071136 -2.9728065342737864e-08 -1.0463635921478271 1 True True
2284.4939999999997 3.733499526977539 -1.3825390499881287 1.6873720327960413 -1.8756801090636195 -1.570784870778219 2.1628060340881348 -1.0429842472076416 0.0018575098365545273 -0.0013201622059568763 0.0004286015755496919 0.00032020494109019637 -1.0518183708190918 1 True True
2284.544 3.681246757507324 -1.382398010497429 1.687216583882467 -1.8756314716734828 -1.5708168188678187 2.1104695796966553 -1.049703598022461 0.0029646761249750853 -0.0037200297228991985 0.000435458030551672 5.297339455978545e-08 -1.039584994316101 1 True True
2284.594 3.628840923309326 -1.3823218506625672 1.6870749632464808 -1.8756119213499964 -1.570801083241598 2.0580191612243652 -1.0456067323684692 0.002288444899022579 -0.0024628490209579468 0.00044801263720728457 0.0001694014499662444 -1.0499508380889893 1 True True
2284.644 3.5765328407287598 -1.382208214407303 1.6870172659503382 -1.8756171665587367 -1.570772949849264 2.0057692527770996 -1.0453853607177734 0.0017759765032678843 -0.001905731507577002 0.00043302812264300883 2.189213437267523e-12 -1.0540827512741089 1 True True
2284.694 3.5242443084716797 -1.3820400846055527 1.686913792287008 -1.8755642376341761 -1.5708406607257288 1.953463077545166 -1.0492501258850098 0.0017135097878053784 -0.0032707240898162127 0.00027857936220243573 3.325420386131594e-31 -1.0445027351379395 1 True True
2284.7439999999997 3.471780300140381 -1.3820129942945023 1.686803166066305 -1.8755718670287074 -1.5708282629596155 1.900884747505188 -1.0450034141540527 0.0027913711965084076 -0.0038969507440924644 0.00038956504431553185 0.00012351470650173724 -1.0442746877670288 1 True True
2284.794 3.4193601608276367 -1.3819335264018555 1.6866334120379847 -1.8755208454527796 -1.5707653204547327 1.8486409187316895 -1.0458362102508545 0.0015925776679068804 -0.0031148556154221296 0.0005231706309132278 0.0003864301252178848 -1.05028235912323 1 True True
2284.844 3.3670012950897217 -1.3818299931338807 1.686518971120016 -1.8755408726134242 -1.5707967917071741 1.796345829963684 -1.048825740814209 0.001793024712242186 -0.0023381642531603575 0.0005047546583227813 3.0050243807829737e-19 -1.0453178882598877 1 True True
2284.894 3.3147616386413574 -1.381765441303589 1.6864188353167933 -1.8755012951292933 -1.5708850065814417 1.743888258934021 -1.0506993532180786 0.0031530761625617743 -0.003718400839716196 0.00045498626423068345 -1.7097807614163685e-09 -1.0499279499053955 1 True True
2284.944 3.262282371520996 -1.38166959703479 1.6862829367267054 -1.875465532342428 -1.57074481645693 1.6915879249572754 -1.0444774627685547 0.0024327649734914303 -0.0036701541393995285 0.00037145515670999885 -2.5971605856536654e-28 -1.049282193183899 1 True True
2284.9939999999997 3.210007905960083 -1.3815898907235642 1.6861990133868616 -1.8754173717894496 -1.5708373228656214 1.6392422914505005 -1.0505421161651611 0.0012466355692595243 -0.0016304210294038057 0.0004974020412191749 -1.1245250742955917e-13 -1.0463719367980957 1 True True
2285.044 3.1576051712036133 -1.3815164279988785 1.6860998312579554 -1.8754736385741175 -1.5708006064044397 1.5867465734481812 -1.0312772989273071 0.0026105153374373913 -0.00225062295794487 0.0004975622869096696 -2.653907094085639e-10 -1.0400429964065552 1 True True
2285.094 3.1074488162994385 -1.3814042222550889 1.6859639326678675 -1.8754011593260707 -1.5708168188678187 1.536631464958191 -0.9701597690582275 0.002001147950068116 -0.0027118201833218336 0.0007778870640322566 0.00011724091018550098 -0.9715058207511902 1 True True
2285.144 3.0606582164764404 -1.3812738221934815 1.6859329382525843 -1.8753658733763636 -1.5708125273333948 1.4897807836532593 -0.9006403684616089 0.0018110375385731459 -0.0019194874912500381 0.0004104791150894016 3.504004800187278e-19 -0.9002872705459595 1 True True
2285.194 3.0173892974853516 -1.3811809879592438 1.685767952595846 -1.8753615818419398 -1.5708168188678187 1.4466123580932617 -0.83125901222229 0.002121357247233391 -0.0024958529975265265 0.00030349387088790536 5.010409586247988e-05 -0.8322522640228271 1 True True
2285.2439999999997 2.9775850772857666 -1.381092519765236 1.68571645418276 -1.8753296337523402 -1.5707572142230433 1.4068044424057007 -0.7582851648330688 0.001291086315177381 -0.0014582762960344553 0.0002836537023540586 -3.085914139206011e-16 -0.7659861445426941 1 True True
2285.294 2.9413530826568604 -1.3810356867364426 1.6856563727008265 -1.8753420315184535 -1.570784870778219 1.3705248832702637 -0.6938368082046509 0.0011749065015465021 -0.0020499038510024548 0.000355690426658839 -4.687510729770937e-35 -0.6928027868270874 1 True True
2285.344 2.90848445892334 -1.3810385328582306 1.6855242888080042 -1.8753015003600062 -1.5708168188678187 1.33767831325531 -0.622188925743103 0.0011238842271268368 -0.0017619464779272676 0.0002174902183469385 -4.570493183564395e-05 -0.620876669883728 1 True True
2285.394 2.879124641418457 -1.3809620302966614 1.6854642073260706 -1.8753863773741664 -1.5707810560809534 1.308462381362915 -0.5556895732879639 0.00171961123123765 -0.001936240354552865 0.00020112544007133693 -3.073881506794672e-15 -0.5517632365226746 1 True True
2285.444 2.8534276485443115 -1.3808809232762833 1.6854084173785608 -1.8752900562682093 -1.5707967917071741 1.2826937437057495 -0.4839628338813782 0.0004530325822997838 -0.0016492821741849184 0.0003213486634194851 -2.1021490307900835e-16 -0.48658210039138794 1 True True
2285.4939999999997 2.8312084674835205 -1.3808764529279252 1.6853845755206507 -1.8752581081786097 -1.5708048979388636 1.2603235244750977 -0.413770467042923 0.0003879041178151965 -0.0007741127628833055 0.00020636584667954594 -2.0233565257293806e-13 -0.4184414744377136 1 True True
2285.544 2.812309980392456 -1.3808465164950867 1.685345474873678 -1.875286718408102 -1.5707405249225062 1.24143648147583 -0.34033989906311035 0.0005545601015910506 -0.0006620911881327629 0.00012431290815584362 -3.073483382237653e-32 -0.3423655927181244 1 True True
2285.594 2.796999454498291 -1.3807896387628098 1.6853049437152308 -1.8752862415709437 -1.5707648436175745 1.2261497974395752 -0.27205535769462585 0.0006916828569956124 -0.0005250986432656646 0.00014119532715994865 2.941006277978886e-05 -0.27170056104660034 1 True True
2285.644 2.7850682735443115 -1.380789653663971 1.6852529684649866 -1.8753067455687464 -1.5708125273333948 1.2142362594604492 -0.19861704111099243 0.00048412708565592766 -0.00053334393305704 0.00016541077638976276 1.4721598853495639e-15 -0.20122867822647095 1 True True
2285.694 2.7767701148986816 -1.3807941240123291 1.685282055531637 -1.8751980266966761 -1.5708168188678187 1.2058852910995483 -0.12891876697540283 0.00041895065805874765 -0.00047805876238271594 0.00013802795729134232 2.2362138464900196e-34 -0.13255704939365387 1 True True
2285.7439999999997 2.7718074321746826 -1.3807205718806763 1.6852496306048792 -1.8752981624998988 -1.5708006064044397 1.2010124921798706 -0.06323225796222687 0.00021773540356662124 -0.00028579734498634934 8.561994036426768e-05 0.0 -0.06452719122171402 1 True True
2285.794 2.770505428314209 -1.3807565432837983 1.6852119604693812 -1.875282426873678 -1.5708335081683558 1.1997122764587402 0.005459998734295368 0.006673029623925686 -2.9087241273373365e-05 4.14608875871636e-05 0.0 0.006491229869425297 1 True True
2285.844 2.7704432010650635 -1.3797505658916016 1.6863301436053675 -1.8772064648070277 -1.570813004170553 1.199688196182251 -0.0006793048232793808 0.026549849659204483 0.046914540231227875 -0.07567261904478073 -1.1220225179903054e-20 -0.0003958354645874351 1 True True
2285.894 2.7704432010650635 -1.3778477025083085 1.6898000876056116 -1.8830515346922816 -1.5708091894732874 1.199676275253296 -0.0007335753180086613 0.05566462129354477 0.09515146911144257 -0.15234655141830444 -1.7043544806074166e-39 -0.0004561337409541011 1 True True
2285.944 2.770521640777588 -1.3745059084943314 1.6959312597857874 -1.892092844048971 -1.5707605520831507 1.1996464729309082 -0.0006082767504267395 0.07879536598920822 0.13707692921161652 -0.2142786979675293 -0.0 -0.00032920794910751283 1 True True
2285.9939999999997 2.770416021347046 -1.369905875330307 1.7039092222796839 -1.9047309360899867 -1.5707724730121058 1.19959557056427 -0.0002874782949220389 0.10225265473127365 0.18049708008766174 -0.28963926434516907 -0.0 -0.0001753619872033596 1 True True
2286.044 2.770416021347046 -1.3640526098063965 1.7140148321734827 -1.9208013019957484 -1.5707648436175745 1.1996568441390991 -0.0001290338404942304 0.13042674958705902 0.2266244739294052 -0.3570452332496643 -0.0 -0.00011291240662103519 1 True True
2286.094 2.770387649536133 -1.3569252502969285 1.7264207045184534 -1.940442224542135 -1.5707724730121058 1.199637532234192 -9.424204472452402e-05 0.15587618947029114 0.2701585590839386 -0.42396318912506104 -0.0 -7.797336002113298e-05 1 True True
2286.144 2.7703797817230225 -1.3483147484115143 1.7411349455462855 -1.9633962116637171 -1.5707605520831507 1.1996090412139893 -2.4066093828878365e-07 0.181106835603714 0.31317368149757385 -0.49345624446868896 -0.0 -1.500485646487593e-16 1 True True
2286.194 2.770378828048706 -1.3386174005321045 1.7579229513751429 -1.9898139439024867 -1.5707805792437952 1.1996777057647705 -4.9606693210080266e-05 0.20459090173244476 0.3586229681968689 -0.5679107308387756 -0.0 -2.279241359313368e-35 1 True True
2286.2439999999997 2.7703919410705566 -1.3289076548865815 1.7747481505023401 -2.0170093975462855 -1.5708048979388636 1.199600100517273 -3.180987187079154e-05 0.1846483051776886 0.3168892562389374 -0.5025479793548584 -1.248340784657138e-19 -1.063677586898848e-06 1 True True
2286.294 2.7704246044158936 -1.3201241058162232 1.7898371855365198 -2.0403224430479945 -1.5708048979388636 1.1996119022369385 -1.639519203260036e-42 0.16334356367588043 0.2805146276950836 -0.43241265416145325 -4.1849671106319875e-05 1.6077189926577695e-11 1 True True
2286.544 2.770399570465088 -1.296360508804657 1.8309348265277308 -2.1054984531798304 -1.570801083241598 1.199677586555481 0.0 0.032288528978824615 0.05692568048834801 -0.07902121543884277 -0.0 0.0 1 True True
2286.594 2.770407199859619 -1.2956404846957703 1.8321479002581995 -2.108007093469137 -1.5708006064044397 1.1996119022369385 0.0 0.004112454131245613 0.009111586026847363 -0.01600578799843788 1.5456693347459804e-07 0.0 1 True True
2286.644 2.770411729812622 -1.2956613463214417 1.8321827093707483 -2.1080595455565394 -1.5708325544940394 1.1996285915374756 0.0 0.0016213899943977594 0.0034721402917057276 0.0003732798504643142 2.347875927001609e-26 0.0 1 True True
2286.694 2.7704246044158936 -1.2951752108386536 1.8327797094928187 -2.107908388177389 -1.5707772413836878 1.1996612548828125 0.0 0.005681283306330442 0.011872467584908009 0.006206884048879147 -1.3735865778130574e-08 0.0 1 True True
2286.7439999999997 2.770432233810425 -1.2951424282840271 1.832761589680807 -2.10799564937734 -1.5707891623126429 1.1996464729309082 0.0 -0.00027316444902680814 -0.00039915365050546825 -0.000850832206197083 -2.086481242341189e-27 1.9952571539416653e-10 1 True False
2286.794 2.770432233810425 -1.2952024799636384 1.8328083197223108 -2.107983251611227 -1.5708168188678187 1.1995460987091064 5.865729690412991e-05 -0.0007818198064342141 -0.0004953249008394778 -0.0008383264648728073 1.6604867237242093e-20 4.5477316357178665e-11 1 True False
2286.844 2.7704038619995117 -1.2952635449222107 1.8327048460589808 -2.1080151997008265 -1.5708044211017054 1.1996163129806519 -7.208259480120834e-18 -0.0013829688541591167 -0.0009434223175048828 -0.0013166945427656174 2.522282585144562e-39 -3.634268580521294e-11 1 True False
2286.894 2.770427942276001 -1.2952453059009095 1.8326943556415003 -2.1081110439696253 -1.5708087126361292 1.1996657848358154 0.0 -0.0011054917704313993 -0.0009068903746083379 -0.0008028200245462358 0.0 -5.520461142309076e-30 1 True False
2286.944 2.770399570465088 -1.2953916651061554 1.8324855009662073 -2.1078368626036585 -1.570784870778219 1.19959557056427 0.0 -0.012291464023292065 -0.019766300916671753 0.020804530009627342 0.0 -0.0 1 True False
2286.9939999999997 2.770432233810425 -1.2964841288379212 1.830684010182516 -2.1048833332457484 -1.5708087126361292 1.1996687650680542 0.0 -0.029721233993768692 -0.056881990283727646 0.09812354296445847 0.0 -0.0 1 True False
2287.044 2.770432233810425 -1.2988430124572297 1.8263843695269983 -2.0983501873412074 -1.5707481543170374 1.199615240097046 0.0 -0.06272795051336288 -0.10588876157999039 0.16037583351135254 0.0 -0.0 1 True False
2287.094 2.7704365253448486 -1.3025145393661042 1.8200667540179651 -2.0882846317686976 -1.5707891623126429 1.1996376514434814 0.0 -0.0863824337720871 -0.14850015938282013 0.2273103892803192 0.0 -0.0 1 True False
2287.144 2.770439863204956 -1.3075205844691773 1.8113072554217737 -2.074801107446188 -1.5707925001727503 1.1996524333953857 0.0 -0.10741215199232101 -0.18674975633621216 0.2981027662754059 0.0 -0.0 1 True False
2287.194 2.7703919410705566 -1.313890592460968 1.8006575743304651 -2.0576349697508753 -1.5708211104022425 1.1995822191238403 0.0 -0.13573618233203888 -0.24121804535388947 0.37776434421539307 0.0 -0.0 1 True False
2287.2439999999997 2.770427942276001 -1.3213207882693787 1.7876980940448206 -2.0372654400267542 -1.5707610289203089 1.199661374092102 0.0 -0.16045643389225006 -0.28268784284591675 0.4484608769416809 0.0 -0.0 1 True False
2287.294 2.770423650741577 -1.3301447194865723 1.7724712530719202 -2.0131999454894007 -1.5708087126361292 1.1996029615402222 0.0 -0.19069845974445343 -0.3282429277896881 0.5068783164024353 0.0 -0.0 1 True False
2287.344 2.7703871726989746 -1.3401765090278168 1.7551377455340784 -1.9858204327025355 -1.570756737385885 1.1996043920516968 0.0 -0.19616559147834778 -0.33815115690231323 0.5485700964927673 0.0 -0.0 1 True False
2287.394 2.770432233810425 -1.3496338439038773 1.7389209906207483 -1.9597917995848597 -1.5707605520831507 1.1996315717697144 0.0 -0.17291633784770966 -0.31033018231391907 0.4871992766857147 0.0 -0.0 1 True False
2287.444 2.770415782928467 -1.3579299014857789 1.7244694868670862 -1.937310358087057 -1.5708044211017054 1.1995881795883179 0.0 -0.15434566140174866 -0.26602789759635925 0.41293802857398987 0.0 -0.0 1 True False
2287.4939999999997 2.7704367637634277 -1.3649299156716843 1.7125847975360315 -1.918265005151266 -1.5707767645465296 1.1996687650680542 0.0 -0.13005098700523376 -0.22392667829990387 0.34363415837287903 0.0 -0.0 1 True False
2287.544 2.7704410552978516 -1.3707229954055329 1.7027495543109339 -1.9026829204955042 -1.570813004170553 1.1996029615402222 0.0 -0.10295996069908142 -0.17750626802444458 0.27140742540359497 0.0 -0.0 1 True False
2287.594 2.77040696144104 -1.375054807668068 1.6950762907611292 -1.8905898533263148 -1.5708168188678187 1.1996119022369385 0.0 -0.07562418282032013 -0.13229750096797943 0.20216219127178192 0.0 -0.0 1 True False
2287.644 2.77043080329895 -1.3781970751336594 1.6895039717303675 -1.8820859394469203 -1.5707610289203089 1.199644923210144 0.0 -0.0506620779633522 -0.08993024379014969 0.13454431295394897 0.0 -0.0 1 True False
2287.694 2.7704529762268066 -1.380117805009224 1.6863186995135706 -1.8769012890257777 -1.5708373228656214 1.199583649635315 0.0 -0.02233373560011387 -0.04395951330661774 0.0704985111951828 0.0 -0.0 1 True False
2287.944 2.770448684692383 -1.3807218831828614 1.6852453390704554 -1.875249525109762 -1.570801083241598 1.1996359825134277 0.0 -0.0009359882678836584 -0.00034024124033749104 0.0007674313383176923 0.0 -0.0 1 False False
2287.9939999999997 2.7704575061798096 -1.3807414335063477 1.6852496306048792 -1.8752342663206996 -1.5707929770099085 1.1996241807937622 0.0 -0.00021929360809735954 -0.00034916106960736215 0.00020216642587911338 0.0 -0.0 1 False False
2288.044 2.770432233810425 -1.380754904156067 1.6852410475360315 -1.8752180538573207 -1.5708416144000452 1.1996569633483887 0.0 -9.046723425853997e-05 -0.0003673642931971699 0.00012833502842113376 0.0 -0.0 1 False False
2288.094 2.7704081535339355 -1.3807716083577652 1.6852253119098108 -1.8752786121764125 -1.5707486311541956 1.199637532234192 0.0 -9.633218724047765e-05 -0.00019028598035220057 7.021761848591268e-05 0.0 -0.0 1 False False
2288.144 2.770378351211548 -1.3807625782540818 1.6852629820453089 -1.8752581081786097 -1.570853058491842 1.1996164321899414 0.0 -7.654193177586421e-05 -0.00012945558410137892 5.051228072261438e-05 0.0 -0.0 1 False False
2288.194 2.7704458236694336 -1.3807219129851838 1.6852009932147425 -1.875270505944723 -1.5707805792437952 1.1996241807937622 0.0 -6.444621976697817e-05 -9.773900092113763e-05 6.604272816573203e-23 0.0 -0.0 1 False False
2288.2439999999997 2.770432233810425 -1.3807474237731476 1.685242001210348 -1.8752747974791468 -1.5707524458514612 1.1996285915374756 0.0 -1.4034004120213043e-41 -5.856810093973763e-05 1.0031895706101365e-41 0.0 -0.0 1 False False
2288.294 2.7704126834869385 -1.380750374203064 1.6851814428912562 -1.8752223453917445 -1.5708044211017054 1.1996331214904785 0.0 0.0 -2.308877397365683e-18 0.0 0.0 -0.0 1 False False
2288.344 2.770415782928467 -1.3807296317866822 1.6852095762835901 -1.8752418957152308 -1.5707686583148401 1.1995954513549805 0.0 0.0 -0.0 0.0 0.0 -0.0 1 False False
2288.394 2.7703962326049805 -1.3807626229575654 1.6852377096759241 -1.8752786121764125 -1.5707648436175745 1.1996420621871948 0.0 0.0 -0.0 0.0 0.0 -0.0 1 False False
2288.444 2.7704412937164307 -1.380738542681076 1.6852253119098108 -1.8752223453917445 -1.570772949849264 1.1996241807937622 0.0 0.0 -0.0 0.0 0.0 -0.0 1 False False
2288.4939999999997 2.770427703857422 -1.3807262790254136 1.6852253119098108 -1.8752948246397914 -1.5707967917071741 1.199615240097046 0.0 0.0 -0.0 0.0 0.0 -0.0 1 False False
2288.544 2.770427703857422 -1.3807130020907898 1.685192886983053 -1.8752905331053675 -1.5707925001727503 1.199649453163147 0.0 0.0 -0.0 0.0 0.0 -0.0 1 False False
2288.594 2.770432233810425 -1.3807670038989563 1.685221020375387 -1.8752943478026332 -1.570813004170553 1.1996241807937622 0.0 0.0 -0.0 0.0 0.0 -0.0 1 False False
2288.644 2.770415782928467 -1.380692185168602 1.6852167288409632 -1.875230451623434 -1.5707724730121058 1.1996405124664307 0.0 0.0 -0.0 0.0 0.0 -0.0 1 False False
2288.694 2.770427703857422 -1.3807325822165986 1.685213867818014 -1.8752342663206996 -1.5708087126361292 1.199643611907959 0.0 0.0 -1.820484084660845e-12 0.0 0.0 -0.0 1 False False
2288.7439999999997 2.7704412937164307 -1.3807085317424317 1.6852582136737269 -1.875242372552389 -1.5707648436175745 1.1996164321899414 0.0 0.0 -4.283769405440966e-42 0.0 0.0 -0.0 1 False False
2288.794 2.770448684692383 -1.3807370972684403 1.6851971785174769 -1.8752385578551234 -1.5707648436175745 1.1996164321899414 0.0 0.0 -0.0 0.0 0.0 -0.0 1 False False
2288.844 2.7704203128814697 -1.3807581228068848 1.6852014700519007 -1.875270505944723 -1.570784870778219 1.1996657848358154 0.0 0.0 -0.0 0.0 0.0 -0.0 1 False False
2288.894 2.7704412937164307 -1.3807548594525834 1.685221020375387 -1.8753024540343226 -1.5708377997027796 1.199649453163147 0.0 0.0 -0.0 0.0 0.0 -0.0 1 True False
2288.944 2.77046537399292 -1.3807547700456162 1.6851885954486292 -1.875286718408102 -1.570784870778219 1.1996285915374756 0.0 0.0 -0.0 0.0 0.0 9.653859933678177e-07 1 True False
2288.9939999999997 2.770427703857422 -1.380720780496933 1.685213867818014 -1.875242372552389 -1.5707805792437952 1.1996285915374756 0.0 0.0 -0.0 0.0 0.0 1.466423397476654e-25 1 True False
2289.044 2.770411252975464 -1.3807042104056855 1.685242001210348 -1.875310560266012 -1.570784870778219 1.199649453163147 0.0 0.0 -0.0 0.0 0.0 2.2420775429197073e-44 1 True False
2289.094 2.770373821258545 -1.3807669591954728 1.6852253119098108 -1.8752466640868128 -1.5707967917071741 1.1996524333953857 0.0 0.0 -0.0 0.0 0.0 0.0 1 True False
2289.144 2.7703871726989746 -1.38070564091716 1.6852377096759241 -1.8753067455687464 -1.5707767645465296 1.199615478515625 0.0 0.0 -0.0 0.0 0.0 0.0 1 True False
2289.194 2.7704429626464844 -1.3807714742473145 1.6851971785174769 -1.875253816644186 -1.5708168188678187 1.1995793581008911 0.0 0.0 -0.0 0.0 0.0 8.471960200040485e-08 1 True False
2289.2439999999997 2.770357131958008 -1.3807699841311951 1.6852095762835901 -1.8752266369261683 -1.5708168188678187 1.1996537446975708 0.0 0.0 -0.0 0.0 0.0 1.2868931384415336e-26 1 True False
2289.294 2.7704203128814697 -1.380667270427086 1.68524676958193 -1.8752457104124964 -1.5708449522601526 1.1996318101882935 0.0 0.0 -0.0 2.902520890302185e-08 0.0 1.401298464324817e-45 1 True False
2289.344 2.7704036235809326 -1.3807296764901658 1.6852014700519007 -1.8752581081786097 -1.570801083241598 1.1996208429336548 0.0 0.0 -0.0 4.408936665932435e-27 0.0 2.361468978051562e-05 1 True False
2289.394 2.7704367637634277 -1.3807788503221055 1.6852253119098108 -1.8752266369261683 -1.5707767645465296 1.1996818780899048 0.0 0.0 -0.0 0.0 0.0 0.0002270680561196059 1 True False
2289.444 2.770399332046509 -1.3807503294995804 1.6852095762835901 -1.8753305874266566 -1.570784870778219 1.1996537446975708 0.0 0.0 -0.0 0.0 0.0 4.481948053580709e-05 1 True False
2289.594 2.7765421867370605 -1.380384938125946 1.6845749060260218 -1.8751746616759242 -1.5708487669574183 1.2056903839111328 0.13528931140899658 0.010966796427965164 -0.014388230629265308 0.004132543690502644 -1.5691992530448553e-24 0.12948854267597198 1 True False
2289.644 2.7848193645477295 -1.3797176790288468 1.6837714354144495 -1.874888082543844 -1.5708125273333948 1.2140413522720337 0.19651179015636444 0.01385970413684845 -0.0187922902405262 0.003859099466353655 -2.382207389352189e-43 0.19520217180252075 1 True False
2289.694 2.7965400218963623 -1.3789349359324952 1.6826947371112269 -1.8746258221068324 -1.5707929770099085 1.2257863283157349 0.26719364523887634 0.02001183293759823 -0.026090597733855247 0.006700215395539999 -0.0 0.26831749081611633 1 True False
2289.7439999999997 2.811786413192749 -1.377726600771286 1.6811965147601526 -1.8743087253966273 -1.5708006064044397 1.2410099506378174 0.338788241147995 0.027688194066286087 -0.03134375438094139 0.006683323532342911 -0.0 0.3366420865058899 1 True False
2289.794 2.83063006401062 -1.3763233137181778 1.6794679800616663 -1.873787065545553 -1.5707929770099085 1.2597131729125977 0.40857937932014465 0.029949231073260307 -0.04112709313631058 0.008684786036610603 -0.0 0.4098307490348816 1 True False
2289.844 2.8527653217315674 -1.3747039449265976 1.6772406736956995 -1.873373647729391 -1.5708444754229944 1.282043695449829 0.48033103346824646 0.03644406422972679 -0.047788284718990326 0.009763805195689201 -0.0 0.47707751393318176 1 True False
2289.894 2.8785035610198975 -1.3727911573699494 1.6747010389911097 -1.872845312158102 -1.570784870778219 1.3077723979949951 0.5461506843566895 0.040786802768707275 -0.051900919526815414 0.009604888036847115 2.764053634411734e-13 0.5479199290275574 1 True False
2289.944 2.9078352451324463 -1.370668427353241 1.672084156666891 -1.8721658192076625 -1.570772949849264 1.336930274963379 0.6184170246124268 0.044011346995830536 -0.05945547670125961 0.015023305080831051 5.325071675656764e-16 0.6213918328285217 1 True False
2289.9939999999997 2.9404680728912354 -1.3682819467834015 1.668830696736471 -1.8713733158507289 -1.570784870778219 1.3696537017822266 0.6900719404220581 0.050001710653305054 -0.06739822030067444 0.01736936904489994 4.018809228136704e-15 0.6878774762153625 1 True False
2290.044 2.976778268814087 -1.3655710530332108 1.6654265562640589 -1.870519300500387 -1.5707886854754847 1.4059112071990967 0.7626120448112488 0.05622442811727524 -0.0698162391781807 0.02063259296119213 0.0003336042573209852 0.7566441297531128 1 True False
2290.094 3.0163450241088867 -1.3626550447991868 1.6614058653460901 -1.8696567020811976 -1.5708125273333948 1.4456751346588135 0.8268006443977356 0.05945857986807823 -0.0801580622792244 0.018801499158143997 9.22685810743604e-18 0.8246146440505981 1 True False
2290.144 3.059476137161255 -1.3594522786191483 1.657381836568014 -1.868666788140768 -1.5707367102252405 1.4887151718139648 0.8947363495826721 0.06798090040683746 -0.08708956092596054 0.01957349292933941 7.023519543736256e-09 0.898748517036438 1 True False
2290.194 3.1061272621154785 -1.3561106634191056 1.6527307669269007 -1.867596288720602 -1.5707691351519983 1.535423994064331 0.9716278910636902 0.0719977542757988 -0.0893138125538826 0.025399142876267433 1.0668740927041591e-27 0.9694728851318359 1 True False
2290.2439999999997 3.1563544273376465 -1.3523442161134263 1.6480267683612269 -1.8664442501463832 -1.5708087126361292 1.5854917764663696 1.0355552434921265 0.074620820581913 -0.10726408660411835 0.017628706991672516 0.0 1.0397614240646362 1 True False
2290.294 3.2086215019226074 -1.348462776546814 1.6430781523333948 -1.8652073345580042 -1.57084829012026 1.6378464698791504 1.0439441204071045 0.08094003051519394 -0.10228104144334793 0.023935433477163315 0.0 1.0428189039230347 1 True False
2290.344 3.2609827518463135 -1.3446485114148636 1.6378892103778284 -1.8641821346678675 -1.570784870778219 1.6903605461120605 1.0517058372497559 0.0755813792347908 -0.10063184797763824 0.022986741736531258 -2.710444013053279e-18 1.0468112230300903 1 True False
2290.394 3.3133671283721924 -1.3407860857299347 1.6328514258014124 -1.8628412685790003 -1.570784870778219 1.7426306009292603 1.0453656911849976 0.0743541270494461 -0.10603610426187515 0.02041979506611824 -4.117171833614317e-37 1.0473636388778687 1 True False
2290.444 3.3657190799713135 -1.336974413400032 1.6278145948993128 -1.861629148522848 -1.5707967917071741 1.794990062713623 1.046563982963562 0.07920122891664505 -0.10166383534669876 0.024490559473633766 9.70345990936039e-06 1.0442979335784912 1 True False
2290.4939999999997 3.418151617050171 -1.333110050564148 1.622765843068258 -1.8604332409300746 -1.57084829012026 1.8473999500274658 1.0479419231414795 0.07839393615722656 -0.10244545340538025 0.027627132833003998 1.47395780798242e-24 1.0516045093536377 1 True False
2290.544 3.470421314239502 -1.329283894305565 1.6177080313311976 -1.8592640362181605 -1.5707810560809534 1.8995813131332397 1.0466043949127197 0.07472606003284454 -0.09697090834379196 0.02148507535457611 2.2420775429197073e-43 1.0511300563812256 1 True False
2290.594 3.522853136062622 -1.3254383218339463 1.612716023121969 -1.858091493646139 -1.5708401838885706 1.9519801139831543 1.0449542999267578 0.07967168837785721 -0.10374040901660919 0.02004474401473999 0.0 1.039954662322998 1 True False
2290.644 3.5752100944519043 -1.3215031784823914 1.60779315630068 -1.85691561321401 -1.5707491079913538 2.004504680633545 1.0497831106185913 0.07901696115732193 -0.10254868119955063 0.02468813955783844 0.0 1.046419382095337 1 True False
2290.694 3.627572536468506 -1.3177272242358704 1.6026275793658655 -1.8557177982726039 -1.5707610289203089 2.0567610263824463 1.0486561059951782 0.07801305502653122 -0.09748505800962448 0.029147397726774216 0.0 1.050969123840332 1 True False
2290.944 3.8893048763275146 -1.2984660130790253 1.5773528257953089 -1.8497067890562953 -1.5707767645465296 2.318633556365967 1.046866536140442 0.07422678172588348 -0.10201945155858994 0.022885916754603386 5.438896914711222e-05 1.0476609468460083 1 True False
2290.9939999999997 3.9417166709899902 -1.294613168840744 1.572362248097555 -1.848574777642721 -1.570813004170553 2.3708598613739014 1.0454436540603638 0.0765354111790657 -0.103004589676857 0.022480962797999382 1.6791338241127108e-23 1.0511630773544312 1 True False
2291.044 3.994159698486328 -1.2907437247088929 1.5672171751605433 -1.8473464451231898 -1.570829216633932 2.423250436782837 1.0442487001419067 0.08076532185077667 -0.10007426887750626 0.024894261732697487 3.2746356296385075e-19 1.040677547454834 1 True False
2291.094 4.046444892883301 -1.286938176756241 1.56203538576235 -1.8460852108397425 -1.570756737385885 2.4758198261260986 1.0480897426605225 0.07557489722967148 -0.0968160331249237 0.024435782805085182 8.133228994260631e-15 1.0498532056808472 1 True False
2291.144 4.098726749420166 -1.2829487186721344 1.5571048895465296 -1.8449083767332972 -1.5708416144000452 2.5279247760772705 1.051189661026001 0.07727829366922379 -0.1005377247929573 0.021493572741746902 7.434019545782267e-12 1.0579187870025635 1 True False
2291.194 4.151122570037842 -1.279086397295334 1.5521438757525843 -1.8438078365721644 -1.5708487669574183 2.5803630352020264 1.0425969362258911 0.07958696037530899 -0.10317816585302353 0.023237837478518486 1.2382723291182174e-08 1.039844274520874 1 True False
2291.2439999999997 4.203479290008545 -1.2753249269774933 1.5471389929400843 -1.8424793682494105 -1.5707648436175745 2.632798910140991 1.0479350090026855 0.07549572736024857 -0.09950031340122223 0.028417790308594704 1.8809394505143723e-27 1.0414328575134277 1 True False
2291.294 4.25588321685791 -1.271520958547928 1.5420363585101526 -1.8413783512511195 -1.5707929770099085 2.6851415634155273 1.047829031944275 0.0749516487121582 -0.09741737693548203 0.025715794414281845 0.0 1.0509113073349 1 True False
2291.344 4.308297157287598 -1.2676109236529847 1.5369179884540003 -1.8401218853392542 -1.570801083241598 2.737363815307617 1.0446234941482544 0.07548597455024719 -0.10363396257162094 0.02020477131009102 0.0 1.0397148132324219 1 True False
2291.394 4.360555648803711 -1.263870583181717 1.5318997542010706 -1.8388058147826136 -1.5707891623126429 2.78989577293396 1.0498454570770264 0.07847058773040771 -0.10339623689651489 0.02664674073457718 0.0 1.0461876392364502 1 True False
2291.444 4.412790298461914 -1.2599278551391144 1.5268428961383265 -1.8377720318236292 -1.570801083241598 2.8419759273529053 1.0288119316101074 0.07566024363040924 -0.0975089892745018 0.025942053645849228 -8.426362910540774e-05 1.038191556930542 1 True False
2291.4939999999997 4.46257209777832 -1.2562742096236725 1.5220673719989222 -1.8366672001280726 -1.5708048979388636 2.8917012214660645 0.9594682455062866 0.06921566277742386 -0.09646125137805939 0.022332528606057167 -0.00023016631894279271 0.950031042098999 1 True False
2291.544 4.508775234222412 -1.2527322334102173 1.517717186604635 -1.8354903660216273 -1.570784870778219 2.938054323196411 0.8951215744018555 0.06481058895587921 -0.0886857658624649 0.022420981898903847 -2.293463972325311e-19 0.8979737162590027 1 True False
2291.594 4.551682949066162 -1.24971158922229 1.5135777632342737 -1.8346239529051722 -1.570813004170553 2.980942726135254 0.8232831358909607 0.057888805866241455 -0.07811524718999863 0.01982877217233181 -3.483775398909942e-38 0.8138260841369629 1 True False
2291.644 4.5908708572387695 -1.2468028527549286 1.509697739277975 -1.8337213001646937 -1.5707843939410608 3.0198490619659424 0.7498087882995605 0.054871879518032074 -0.07666675746440887 0.016904020681977272 -6.998051685513929e-05 0.7543216347694397 1 True False
2291.694 4.626641273498535 -1.2442459029010315 1.5063279310809534 -1.8327752552428187 -1.5708406607257288 3.0558464527130127 0.6824239492416382 0.04936610907316208 -0.0635140985250473 0.01958141103386879 4.706640854834632e-09 0.6933851838111877 1 True False
2291.7439999999997 4.659056663513184 -1.2418484550765534 1.503047291432516 -1.8321320019164027 -1.5707529226886194 3.088055372238159 0.6125434637069702 0.04343502223491669 -0.06128581985831261 0.013840693049132824 7.149399583920381e-28 0.6287274360656738 1 True False
2291.794 4.687832355499268 -1.2396615904620667 1.5004261175738733 -1.831435342828268 -1.570813004170553 3.116921901702881 0.5430160164833069 0.040428150445222855 -0.047557756304740906 0.013286294415593147 0.0 0.5507597327232361 1 True False
2291.844 4.713047504425049 -1.2378377479365845 1.497925106679098 -1.8309313259520472 -1.570796314870016 3.142284631729126 0.47375407814979553 0.03587391972541809 -0.049911271780729294 0.010927984490990639 3.2660751880797534e-10 0.47465863823890686 1 True False
2291.894 4.734907627105713 -1.236218349342682 1.4958503882037562 -1.830449720422262 -1.5708487669574183 3.1642305850982666 0.4006984531879425 0.029963649809360504 -0.03922809287905693 0.0073733399622142315 -0.00015032013470772654 0.40061256289482117 1 True False
2291.944 4.753231525421143 -1.2349004608443757 1.494150463734762 -1.8300038776793421 -1.5708087126361292 3.1825037002563477 0.3313817083835602 0.02532169781625271 -0.031265739351511 0.006884606089442968 -4.396163785713725e-05 0.3323978781700134 1 True False
2291.9939999999997 4.76814603805542 -1.2338131827167054 1.4927242437945765 -1.829618593255514 -1.5708087126361292 3.197324514389038 0.2642227113246918 0.01944984868168831 -0.026716982945799828 0.005635501351207495 -2.7294454412185587e-05 0.2609541714191437 1 True False
2292.044 4.77945613861084 -1.232977108364441 1.4915836493121546 -1.8294197521605433 -1.570784870778219 3.208570718765259 0.19288386404514313 0.014910044148564339 -0.019570523872971535 0.006494345609098673 -1.1776466635637917e-05 0.20831631124019623 1 True False
2292.094 4.7873215675354 -1.2324105364135285 1.4907000700580042 -1.8292771778502406 -1.5707967917071741 3.21655011177063 0.12541595101356506 0.008389417082071304 -0.013002046383917332 0.003017701208591461 -5.22209127340207e-14 0.1227111890912056 1 True False
2292.144 4.791652202606201 -1.2321104866317292 1.490394417439596 -1.829109331170553 -1.5708211104022425 3.220953941345215 0.05508911609649658 0.0020649293437600136 -0.002464667893946171 0.0020757990423589945 -7.932368857147233e-33 0.051989976316690445 1 True False
2292.194 4.792680263519287 -1.2321008902839203 1.4903858343707483 -1.8291899166502894 -1.5707686583148401 3.2218966484069824 0.002072395058348775 0.011091219261288643 0.01096231397241354 -0.015017179772257805 -0.0 -0.00032554479548707604 1 True False
2292.2439999999997 4.79262113571167 -1.230916367178299 1.4919522444354456 -1.8315512142577113 -1.5708168188678187 3.221780300140381 0.0006153708091005683 0.031127791851758957 0.05571366474032402 -0.08627581596374512 -0.0 -3.282990605714062e-14 1 True False
2292.294 4.792673587799072 -1.2290017169765015 1.4957464377032679 -1.8378664455809535 -1.5707967917071741 3.2219078540802 0.0005413820035755634 0.05350981280207634 0.10467514395713806 -0.14702121913433075 -0.0 0.0005435529164969921 1 True False
2292.344 4.792627334594727 -1.2257719200900574 1.5023029486285608 -1.8474680385985316 -1.5708211104022425 3.2219226360321045 0.0006463161553256214 0.07563503831624985 0.15163755416870117 -0.22576580941677094 -0.0 0.0002896338701248169 1 True False
2292.394 4.792705059051514 -1.221219764356949 1.5112512747394007 -1.8604608974852503 -1.5707805792437952 3.2218611240386963 0.0006322901463136077 0.09990409016609192 0.19599808752536774 -0.2871578335762024 -0.0 0.00015331676695495844 1 True False
2292.444 4.792741775512695 -1.2157725554755707 1.5220697561847132 -1.8772579632201136 -1.5707486311541956 3.2218945026397705 0.00015172347775660455 0.12011775374412537 0.2439660131931305 -0.3726935386657715 -0.0 0.00010893579019466415 1 True False
2292.4939999999997 4.792697429656982 -1.2089376014522095 1.5355046431170862 -1.8972884617247523 -1.5708087126361292 3.2219226360321045 0.00011525924492161721 0.14569005370140076 0.2867719531059265 -0.4401506781578064 -0.0 5.1717415772145614e-05 1 True False
2292.544 4.792707920074463 -1.201035813694336 1.5510838667498987 -1.9206787548460902 -1.5707925001727503 3.2218990325927734 7.403321797028184e-05 0.172627255320549 0.3331942856311798 -0.5052564144134521 -0.0 2.1339328672372133e-22 1 True False
2292.594 4.7927374839782715 -1.1921464961818238 1.5687173048602503 -1.9474455318846644 -1.5708211104022425 3.2218987941741943 8.393240568693727e-05 0.18203014135360718 0.3523377776145935 -0.5203314423561096 6.223511483938182e-09 3.241483607676167e-41 1 True False
2292.644 4.792700290679932 -1.1836635631373902 1.5849445501910608 -1.9721795521178187 -1.570784870778219 3.2218945026397705 9.142534690909088e-05 0.14977489411830902 0.2995169162750244 -0.467540979385376 9.453533058171688e-28 0.0 1 True False
2292.694 4.792684078216553 -1.1765883427909394 1.5990446249591272 -1.9932342968382777 -1.5708168188678187 3.2219555377960205 6.423657032428309e-05 0.13059693574905396 0.2573600709438324 -0.39304158091545105 0.0 0.0 1 True False
2292.7439999999997 4.792695999145508 -1.1706134539893647 1.610788647328512 -2.011000772515768 -1.570801083241598 3.221952438354492 3.7793019582840316e-42 0.10950953513383865 0.21221423149108887 -0.32106220722198486 0.0 0.0 1 True False
2292.794 4.792695999145508 -1.1658084851554413 1.6201179663287562 -2.025294920007223 -1.5708168188678187 3.221952438354492 0.0 0.08819333463907242 0.16549190878868103 -0.23582957684993744 0.0 0.0 1 True False
2292.844 4.792724132537842 -1.1621238154223938 1.6271408239947718 -2.0361505947508753 -1.570772949849264 3.221886157989502 0.0 0.059487178921699524 0.12061364948749542 -0.18444421887397766 0.0 0.0 1 True False
2292.894 4.792733192443848 -1.1595522624305268 1.6322038809405726 -2.0433055363097132 -1.5708335081683558 3.2219107151031494 0.0 0.039006307721138 0.07057593762874603 -0.10921291261911392 0.0 0.0 1 True False
2292.944 4.792677879333496 -1.1584165555289765 1.634655777608053 -2.047046800652975 -1.570784870778219 3.2218945026397705 0.0 0.014487629756331444 0.028386658057570457 -0.05006443336606026 0.0 0.0 1 True False
2292.9939999999997 4.792679309844971 -1.158289299612381 1.6349695364581507 -2.0477129421629847 -1.5707929770099085 3.2219226360321045 0.0 -0.0023548323661088943 -0.0006005004397593439 0.0007723738090135157 0.0 0.0 1 True False
2293.044 4.792712211608887 -1.1583061677268525 1.634989086781637 -2.047652383843893 -1.570784870778219 3.2219197750091553 0.0 0.00022798791178502142 0.00010173884220421314 0.00021683753584511578 0.0 0.0 1 True False
2293.094 4.792691230773926 -1.158284680252411 1.6349881331073206 -2.0476566753783167 -1.5707891623126429 3.221940755844116 0.0 0.00016843652701936662 0.00010760028817458078 0.00010823139746207744 0.0 0.0 1 True False
2293.144 4.792694091796875 -1.1582296651652833 1.635087792073385 -2.047591825524801 -1.5708044211017054 3.2218987941741943 0.0 0.00045410345774143934 0.000513632723595947 7.57094967411831e-05 0.0 0.0 1 True False
2293.194 4.792712211608887 -1.1581964951804657 1.6350372473346155 -2.047648092309469 -1.570784870778219 3.2219033241271973 0.0 0.0007114540785551071 0.0005974880768917501 1.9714654624216276e-18 0.0 0.0 1 True False
2293.2439999999997 4.792698860168457 -1.1582053762725373 1.6351359526263636 -2.047668596307272 -1.5707686583148401 3.2219197750091553 5.899598824039951e-20 0.00026988808531314135 0.0004499649512581527 2.2641746545479084e-16 0.0 0.0 1 True False
2293.294 4.792724132537842 -1.1582589906505127 1.6350520292865198 -2.0476886234679164 -1.570784870778219 3.221895456314087 0.0 0.00010152714094147086 0.00018747695139609277 3.439284674892999e-35 0.0 0.0 1 True False
2293.344 4.792728424072266 -1.15824709952388 1.635047737752096 -2.0476681194701136 -1.570784870778219 3.221853733062744 0.0 0.00010386196663603187 0.00011708881356753409 0.0 0.0 0.0 1 True False
2293.394 4.792724132537842 -1.1582053166678925 1.6350448767291468 -2.047708650628561 -1.5707925001727503 3.221933126449585 0.0 7.49513492337428e-05 9.136401058640331e-05 0.0 0.0 0.0 1 True False
2293.444 4.792665958404541 -1.1581934553435822 1.6351102034198206 -2.0476042232909144 -1.5708048979388636 3.2219033241271973 0.0 5.2953128033550456e-05 5.2416242397157475e-05 0.0 0.0 0.0 1 True False
2293.4939999999997 4.792724132537842 -1.1582177740386506 1.6350520292865198 -2.047648092309469 -1.570784870778219 3.2219064235687256 0.0 9.80908925027372e-44 1.0843312224618706e-25 0.0 0.0 0.0 1 True False
2293.544 4.792719841003418 -1.1582514208606263 1.635047737752096 -2.0476962528624476 -1.570772949849264 3.2219271659851074 0.0 0.0 0.0 0.0 0.0 0.0 1 True False
2293.594 4.792712211608887 -1.1581846338561554 1.635059658681051 -2.0476962528624476 -1.570801083241598 3.2218899726867676 0.0 0.0 0.0 0.0 0.0 0.0 1 True False
2293.644 4.792758464813232 -1.1581934255412598 1.6350310484515589 -2.047691961328024 -1.570801083241598 3.221935987472534 0.0 0.0 0.0 0.0 0.0 0.0 1 True False
2293.694 4.7927165031433105 -1.1582178336432953 1.635035816823141 -2.047664304772848 -1.5707724730121058 3.221961498260498 0.0 0.0 0.0 0.0 0.0 0.0 1 True False
2293.7439999999997 4.792724132537842 -1.1581726235202332 1.6350849310504358 -2.047704359094137 -1.5707891623126429 3.2219078540802 0.0 0.0 0.0 0.0 0.0 0.0 1 True False
2293.794 4.792662620544434 -1.1582133036902924 1.6350310484515589 -2.0476561985411585 -1.5707648436175745 3.221890926361084 0.0 0.0 0.0 0.0 0.0 0.0 1 True False
2293.844 4.792724132537842 -1.1581815046123047 1.6350896994220179 -2.047664304772848 -1.570784870778219 3.22194504737854 0.0 0.0 0.0 0.0 0.0 0.0 1 True False
2293.894 4.792695999145508 -1.1582067471793671 1.6350730101214808 -2.0477124653258265 -1.5708487669574183 3.221886396408081 -1.016715570455589e-29 2.0674101755863613e-24 0.0 -8.140842238059936e-19 -0.0017787519609555602 -0.00034743204014375806 1 True False
2293.944 4.792662620544434 -1.1581249100020905 1.6351221243487757 -2.0476604900755824 -1.5707810560809534 3.221952438354492 0.0 0.0 0.0 -1.2365956722296897e-37 -0.0001417025923728943 -6.151519482955337e-05 1 True False
2293.9939999999997 4.792724132537842 -1.1581770044616242 1.6351059118853968 -2.047636648217672 -1.5708087126361292 3.2219643592834473 0.0 0.0 0.0 -0.0 -5.5823798902565613e-05 -3.316991205792874e-05 1 True False
2294.044 4.79276180267334 -1.1581798654845734 1.6350892225848597 -2.0476724110045375 -1.5707767645465296 3.221869945526123 0.0 0.0 0.0 -0.0 -3.144181755487807e-05 -2.2707910829922184e-05 1 True False
2294.094 4.79265832901001 -1.1582068067840119 1.6351178328143519 -2.047664304772848 -1.5708406607257288 3.2219479084014893 0.0 0.0 0.0 -0.0 -2.1884545276407152e-05 -5.773146281402776e-16 1 False False
2294.144 4.792703151702881 -1.1582551461509247 1.6350982824908655 -2.047664304772848 -1.5708048979388636 3.221877336502075 0.0 0.0 0.0 -0.0 -3.1862877254353806e-18 -8.769419167790213e-35 1 False False
2294.194 4.792666912078857 -1.158120558863022 1.6350520292865198 -2.0476962528624476 -1.5707648436175745 3.221935987472534 0.0 0.0 0.0 -0.0 0.00010046862735180184 -8.314688604338091e-23 1 False False
2294.2439999999997 4.792724132537842 -1.158209816818573 1.635068718587057 -2.04772486309194 -1.5707891623126429 3.2219152450561523 0.0 0.0 0.0 -0.0 4.192522101220675e-05 -1.2629903058959576e-41 1 False False
2294.294 4.7927165031433105 -1.1581726235202332 1.635007683430807 -2.0477568111815394 -1.5708048979388636 3.2219197750091553 0.0 0.0 0.0 -0.0 2.6498119041207246e-05 -0.0 1 False False
2294.344 4.792736053466797 -1.158188984995224 1.6350610891925257 -2.0477048359312953 -1.5708487669574183 3.221869945526123 0.0 0.0 0.0 -0.0 2.6126207330889883e-07 -0.0 1 False False
2294.394 4.792707920074463 -1.158167914753296 1.6350715796100062 -2.047636171380514 -1.5708335081683558 3.2219479084014893 0.0 0.0 0.0 -0.0 3.9685755574874136e-26 -0.0 1 False False
2294.444 4.792688369750977 -1.1582231384566803 1.6351011435138147 -2.047708650628561 -1.5707724730121058 3.2219042778015137 0.0 0.0 0.0 -0.0 5.605193857299268e-45 -0.0 1 False False
2294.4939999999997 4.792740345001221 -1.158209816818573 1.6350610891925257 -2.0477167568602503 -1.5707486311541956 3.2219226360321045 0.0 0.0 0.0 -0.0 0.0 -0.0 1 False False
2294.544 4.792666912078857 -1.1582052868655701 1.635096851979391 -2.047692438165182 -1.5708373228656214 3.221841812133789 0.0 0.0 0.0 -0.0 0.0 -0.0 1 False False
2294.594 4.792654037475586 -1.158209816818573 1.6350892225848597 -2.0476719341673792 -1.570801083241598 3.221935987472534 -1.208480426839742e-07 0.0 0.0 -0.0 0.0 -0.0 1 False False
2294.644 4.792703628540039 -1.1582023066333313 1.6350849310504358 -2.047676225701803 -1.5708206335650843 3.221912384033203 0.0 0.0 0.0 -0.0 0.0 -0.0 1 False False
2294.694 4.792698860168457 -1.1582431954196473 1.6350610891925257 -2.0476604900755824 -1.5708044211017054 3.2218987941741943 0.0 3.1072595499774007e-27 0.0 -0.0 0.0 -0.0 1 False False
2294.7439999999997 4.7927045822143555 -1.1581815046123047 1.635096851979391 -2.047692438165182 -1.5707925001727503 3.2218923568725586 0.0 0.0 0.0 -0.0 0.0 -0.0024925130419433117 1 False False
2294.794 4.792695999145508 -1.1581726235202332 1.6350892225848597 -2.04766382793569 -1.5708125273333948 3.221869945526123 0.0 0.0 0.0 -0.0 0.0 -7.268404442584142e-05 1 False False
2294.844 4.792707920074463 -1.158205346470215 1.6350773016559046 -2.0476519070067347 -1.5707767645465296 3.22186279296875 0.0 0.0 0.0 -0.0 0.0 -1.633801981853295e-17 1 False False
2294.894 4.792700290679932 -1.1581486624530335 1.6350892225848597 -2.0476561985411585 -1.5707967917071741 3.2219226360321045 0.0 0.0 0.0 -0.0 0.0 4.6672907046740875e-05 1 False False
2294.944 4.792708873748779 -1.1582371455482026 1.6349371115313929 -2.0473252735533656 -1.570824925099508 3.2219040393829346 0.0 -0.008675429970026016 -0.015248890966176987 0.02782568149268627 0.0 2.031924123002682e-05 1 False False
2294.9939999999997 4.7927165031433105 -1.1592393082431336 1.6329744497882288 -2.0443607769408167 -1.5708087126361292 3.2219078540802 0.0 -0.02929701842367649 -0.05971593037247658 0.08960697799921036 0.0 1.2987936315767001e-05 1 False False
2295.044 4.792725086212158 -1.161410705452301 1.6285713354693812 -2.037783285180563 -1.5708125273333948 3.221935987472534 0.0 -0.05680105462670326 -0.11616914719343185 0.1675342172384262 0.0 1.9438161302787194e-08 1 False False
2295.094 4.792703628540039 -1.1648850303939362 1.6218202749835413 -2.027707716027731 -1.5708125273333948 3.221919536590576 0.0 -0.07832882553339005 -0.15802216529846191 0.2308548241853714 0.0 2.9526609162955596e-27 1 False False
2295.144 4.7927165031433105 -1.1694972080043335 1.612922493611471 -2.0141812763609828 -1.5708006064044397 3.2219109535217285 0.0 -0.10462553054094315 -0.20680157840251923 0.29312440752983093 0.0 0.0 1 False False
2295.194 4.792649745941162 -1.175164358024933 1.6016605536090296 -1.9971982441344203 -1.5707767645465296 3.2219078540802 0.0 -0.12610217928886414 -0.24342326819896698 0.37714967131614685 0.0 0.0 1 False False
2295.2439999999997 4.792737007141113 -1.1822146338275452 1.5879982153521937 -1.976697107354635 -1.5707967917071741 3.2218902111053467 0.0 -0.15119382739067078 -0.2935451865196228 0.4416147768497467 0.0 5.901730401092209e-05 1 False False
2295.294 4.7927656173706055 -1.1902940732291718 1.5720956961261194 -1.9525948963561 -1.570784870778219 3.2219109535217285 0.0 -0.17299829423427582 -0.34395354986190796 0.5149013996124268 0.0 2.710340277818999e-22 1 False False
2295.344 4.792731761932373 -1.1994051498225708 1.5542295614825647 -1.9259211025633753 -1.5707810560809534 3.2219033241271973 0.0 -0.17636659741401672 -0.33580657839775085 0.5270678997039795 0.0 4.1170148881863126e-41 1 False False
2295.4939999999997 4.792715549468994 -1.2202888888171692 1.5132659117328089 -1.8635875187315882 -1.5708006064044397 3.221919536590576 0.0 -0.10351063311100006 -0.2032884806394577 0.30861231684684753 0.0 0.0 1 False False
2295.594 4.792707920074463 -1.2283592981151124 1.4973490873919886 -1.8394881687560023 -1.5708330313311976 3.2218902111053467 0.0 -0.056873150169849396 -0.11661529541015625 0.17168009281158447 0.0 0.0 1 False False
2295.644 4.792679786682129 -1.2307406526855011 1.4928844610797327 -1.8328100643553675 -1.5708330313311976 3.2218990325927734 0.0 -0.035559799522161484 -0.06822749227285385 0.10801272094249725 0.0 0.0 1 False False
2295.794 4.792691707611084 -1.2318715018085022 1.4903462568866175 -1.8291856251158656 -1.5708168188678187 3.2219033241271973 0.0 4.460010713299098e-40 -0.0002404079568805173 0.0016299589769914746 0.0 0.0 1 False False
2295.844 4.792712211608887 -1.2318841379931946 1.4903629461871546 -1.829165597955221 -1.5708335081683558 3.2219598293304443 0.0 0.0 -0.0005304227815940976 0.001991658005863428 0.0 0.0 1 False False
2295.894 4.792663097381592 -1.2319571536830445 1.490286652241842 -1.8291622600951136 -1.5707486311541956 3.2219152450561523 0.0 -0.000665709376335144 -0.0005989804049022496 0.0011800506617873907 0.0 0.0 1 False False
2295.944 4.792719841003418 -1.2320217055133362 1.4902790228473108 -1.8290864429869593 -1.5708168188678187 3.2219390869140625 0.0 -0.0008852903265506029 -0.0005973992520011961 0.00025729183107614517 0.0 0.0 1 False False
2296.094 4.792660236358643 -1.2319554847529908 1.4902790228473108 -1.8290382824339808 -1.570813004170553 3.2219109535217285 0.0 -0.00012099081504857168 -7.15443748049438e-05 6.173926522023976e-05 0.0 0.0 1 False False
2296.194 4.792684555053711 -1.23201276481662 1.4903209845172327 -1.829050680200094 -1.570784870778219 3.2218778133392334 0.0 -6.756559014320374e-05 -0.0 1.6227876995959977e-40 0.0 0.0 1 False False
2296.2439999999997 4.792707920074463 -1.2320008736899872 1.4902790228473108 -1.829050680200094 -1.570801083241598 3.221951961517334 0.0 -1.3255909285913815e-33 -8.658647105143832e-23 0.0 0.0 0.0 1 False False
2296.294 4.792737007141113 -1.2319554549506684 1.4903042952166956 -1.829050680200094 -1.5707925001727503 3.22194766998291 0.0 0.0 -0.0 0.0 0.0 0.0 1 False False
2296.344 4.792728424072266 -1.2319680613330384 1.490262810383932 -1.8290382824339808 -1.5708168188678187 3.2219152450561523 0.0 0.0 -0.0 0.0 0.0 0.0 1 False False
2296.394 4.792740345001221 -1.2320082944682618 1.4903000036822718 -1.8290783367552699 -1.570801083241598 3.2219109535217285 0.0 0.0 -0.0 0.0 0.0 0.0 1 False False
2296.444 4.792719841003418 -1.2319545906833191 1.490258518849508 -1.8291026554503382 -1.570813004170553 3.221935749053955 0.0 0.0 -0.0 0.0 0.0 0.0 1 False False
2296.4939999999997 4.7926836013793945 -1.2319510144046326 1.4902384916888636 -1.829074045220846 -1.5707767645465296 3.2219271659851074 0.0 0.0 -0.0 0.0 0.0 0.0 1 False False
2296.544 4.792745113372803 -1.2320083242705842 1.4902551809894007 -1.8291064701476039 -1.5708091894732874 3.221890449523926 0.0 0.0 -0.0 0.0 0.0 0.0 1 False False
2296.594 4.792684078216553 -1.232029215698578 1.4902880827533167 -1.8290783367552699 -1.570784870778219 3.221935749053955 0.0 0.0 -0.0 0.0 0.0 0.0 1 False False
2296.644 4.792724132537842 -1.231987403040268 1.4902809301959437 -1.8290306530394496 -1.5708254019366663 3.2218990325927734 0.0 0.0 -0.0 0.0 0.0 0.0 1 False False
2296.694 4.792684078216553 -1.2319844526103516 1.4902251402484339 -1.829062124291891 -1.5707805792437952 3.2219033241271973 0.0 0.0 -0.0 0.0 0.0 0.0 1 False False
2296.7439999999997 4.792688369750977 -1.2319710415652771 1.490241829548971 -1.8290821514525355 -1.5707967917071741 3.2218990325927734 0.0 0.0 -0.0 0.0 0.0 0.0 1 False False
2296.794 4.792754173278809 -1.2319390636733552 1.4902704397784632 -1.8290864429869593 -1.5707724730121058 3.221951961517334 0.0 0.0 -0.0 0.0 0.0 0.0 1 False False
2296.844 4.792712211608887 -1.2319555145553132 1.4902790228473108 -1.8290659389891566 -1.570772949849264 3.2219033241271973 0.0 0.0 -0.0 0.0 0.0 0.0 1 False False
2296.894 4.792728424072266 -1.231934593324997 1.4902384916888636 -1.829010625878805 -1.5707605520831507 3.221890926361084 0.0 0.0 -0.0 0.0 0.0 0.0 1 False False
2296.944 4.792670726776123 -1.2320037347129364 1.4902837912188929 -1.829010625878805 -1.5707643667804163 3.2219033241271973 0.0 0.0 -0.0 0.0 0.0 0.0 1 False False
2296.9939999999997 4.79268217086792 -1.2319844526103516 1.4902671019183558 -1.8290425739684046 -1.5707925001727503 3.2219271659851074 0.0 0.0 -0.0 0.0 0.0 0.0 1 False False
2297.044 4.7927165031433105 -1.232005314236023 1.4902790228473108 -1.8290697536864222 -1.5708087126361292 3.221928358078003 0.0 0.0 -0.0 0.0 0.0 0.0 1 False False
2297.094 4.792740345001221 -1.2319755119136353 1.490253750477926 -1.8290616474547328 -1.570784870778219 3.2218573093414307 0.0 0.0 -0.0 1.3071102249298655e-17 0.0 0.0 1 False False
2297.144 4.792684078216553 -1.2319590908339997 1.4902294317828577 -1.8290578327574671 -1.5707686583148401 3.2219078540802 0.0 0.0 -0.0 1.985503695316758e-36 0.0 0.0 1 False False
2297.194 4.792670249938965 -1.2319509846023102 1.4902671019183558 -1.8290697536864222 -1.570801083241598 3.2219433784484863 0.0 0.0 -0.0 0.0 0.0 0.0 1 False False
2297.2439999999997 4.7926716804504395 -1.2320038837245484 1.490253750477926 -1.8290578327574671 -1.5707925001727503 3.2219314575195312 0.0 0.0 -0.0 0.0 0.0 0.0 1 False False
2297.294 4.792733192443848 -1.2320544582656403 1.4902294317828577 -1.829074045220846 -1.5708211104022425 3.221919536590576 0.0 0.0 -0.0 0.0 0.0 0.0 1 False False
2297.344 4.792691230773926 -1.2319420141032715 1.4902251402484339 -1.829090257684225 -1.5707805792437952 3.2219390869140625 0.0 0.0 -0.0 0.0 0.0 0.0 1 False False
2297.394 4.792640209197998 -1.2319963735393067 1.490274731312887 -1.8290659389891566 -1.5708048979388636 3.2219033241271973 0.0 0.0 -0.0 0.0 0.0 0.0 1 False False
2297.444 4.792686939239502 -1.2319889229587098 1.4902790228473108 -1.8290263615050257 -1.5707967917071741 3.221890449523926 0.0 0.0 -0.0 0.0 0.0 0.0 1 False False
2297.4939999999997 4.792707920074463 -1.2320172053626557 1.4902551809894007 -1.829090257684225 -1.5707929770099085 3.22194766998291 0.0 0.0 -1.3463086597975284e-17 0.0 0.0 0.0 1 False False
2297.544 4.792707920074463 -1.2319935721210022 1.4902342001544397 -1.8290945492186488 -1.570813004170553 3.221886396408081 0.0 0.0 -0.0 0.0 0.0 0.0 1 False False
2297.594 4.792691230773926 -1.2320008438876648 1.4902790228473108 -1.8290616474547328 -1.5707805792437952 3.2219185829162598 0.0 0.00012831532512791455 -0.0 0.0 0.0 0.0 1 False False
2297.644 4.792734622955322 -1.2319635909846802 1.4902132193194788 -1.8291341267027796 -1.5708087126361292 3.2218947410583496 0.0 1.4335283290042879e-42 -0.0 0.0 0.0 0.0 1 False False
2297.694 4.792707920074463 -1.231984482412674 1.4902718702899378 -1.8290864429869593 -1.5708211104022425 3.2219152450561523 0.0 0.0 -0.0 0.0 0.0 0.0 1 False False
2297.7439999999997 4.792646884918213 -1.2319554549506684 1.4902508894549769 -1.829074045220846 -1.5707605520831507 3.2218987941741943 0.0 0.0 -0.0 0.0 0.0 0.0 1 False False
2297.794 4.792700290679932 -1.2319844526103516 1.490258518849508 -1.82910217861318 -1.5707886854754847 3.2218987941741943 0.0 0.0 -0.0 0.0 0.0 0.0 1 False False
2297.844 4.792675971984863 -1.2319844526103516 1.4902928511248987 -1.8290659389891566 -1.5708048979388636 3.2218987941741943 0.0 0.0 -0.0 0.0 0.0 0.0 1 False False
2297.894 4.792728424072266 -1.2320455473712464 1.4902294317828577 -1.8291064701476039 -1.570829216633932 3.2218611240386963 0.0 0.0 -0.0 0.0 0.0 0.0 1 False False
2297.944 4.792705059051514 -1.2320008438876648 1.4901922384845179 -1.8291064701476039 -1.5707724730121058 3.2218990325927734 0.0 0.0 -0.0 0.0 0.0 0.0 1 False False
2297.9939999999997 4.792698860168457 -1.2319948238185425 1.490258518849508 -1.8290659389891566 -1.5708373228656214 3.2219064235687256 0.0 0.0 -0.0 0.0 0.0 0.0 1 False False
2298.044 4.792679309844971 -1.2319919031909485 1.4902265707599085 -1.8291064701476039 -1.5707724730121058 3.2219064235687256 0.0 0.0 -0.0 0.0 0.0 0.0 1 False False
2298.094 4.792721271514893 -1.2320681673339386 1.4902342001544397 -1.8290945492186488 -1.5707967917071741 3.221877336502075 0.0 0.0 -0.0 0.0 0.0 0.0 1 False False
2298.144 4.792758464813232 -1.2319844526103516 1.4902046362506312 -1.8290826282896937 -1.5707767645465296 3.221853494644165 0.0 0.0 -0.0 0.0 0.0 0.0 1 True False
2298.194 4.792660236358643 -1.232069419031479 1.490258518849508 -1.8290697536864222 -1.570784870778219 3.2218713760375977 -0.008183205500245094 -0.00393375800922513 0.003940356895327568 -3.890389450589282e-07 0.0 -0.0039610122330486774 1 True False
2298.444 4.767669200897217 -1.2525296074203034 1.5154860655414026 -1.8336669407286585 -1.5708087126361292 3.1969716548919678 -0.260570764541626 -0.2105105221271515 0.2586820125579834 -0.04653594642877579 0.0 -0.26455092430114746 1 True False
2298.4939999999997 4.75289249420166 -1.264695332651474 1.5302470366107386 -1.8362232647337855 -1.570829216633932 3.1820006370544434 -0.33385103940963745 -0.27151238918304443 0.3326976001262665 -0.05861958488821983 -0.0001416681770933792 -0.32992756366729736 1 True False
2298.544 4.734315395355225 -1.27982713401828 1.54875356355776 -1.8396030865111292 -1.570801083241598 3.1635947227478027 -0.40318500995635986 -0.3251396417617798 0.40020495653152466 -0.07872078567743301 -4.2742514779092744e-05 -0.4008072316646576 1 True False
2298.594 4.7125983238220215 -1.2977689367583771 1.5706780592547815 -1.8435856304564417 -1.5707648436175745 3.1418817043304443 -0.46996253728866577 -0.3892969489097595 0.4763045310974121 -0.08274036645889282 -8.047168834068863e-12 -0.4796009659767151 1 True False
2298.644 4.687159061431885 -1.3187680405429383 1.5959485212909144 -1.8482252560057582 -1.5707605520831507 3.1162381172180176 -0.5384519696235657 -0.4452272057533264 0.5426090955734253 -0.10206883400678635 -0.00019976779003627598 -0.5357701778411865 1 True False
2298.694 4.658195495605469 -1.3421200823834916 1.6249945799456995 -1.8531199894347132 -1.5708006064044397 3.087360382080078 -0.6133273243904114 -0.4950951337814331 0.6167266964912415 -0.1115984320640564 -0.0002541074063628912 -0.6050269603729248 1 True False
2298.7439999999997 4.625823974609375 -1.3688058865121384 1.6572907606707972 -1.8590666256346644 -1.5708282629596155 3.0549845695495605 -0.6862897276878357 -0.5540080070495605 0.687191367149353 -0.11109601706266403 -0.0006631829892285168 -0.6729419231414795 1 True False
2298.794 4.590762615203857 -1.397681177859642 1.6923931280719202 -1.865655084649557 -1.5708325544940394 3.0201358795166016 -0.698006808757782 -0.5661658644676208 0.6849347352981567 -0.12028972059488297 -0.0006790048209950328 -0.6866722702980042 1 True False
2298.844 4.558186054229736 -1.424374521975853 1.7249944845782679 -1.8715869388976039 -1.5708406607257288 2.987384796142578 -0.6248360872268677 -0.5143774747848511 0.6123156547546387 -0.11853144317865372 -0.00010562584066065028 -0.617916464805603 1 True False
2298.894 4.528986930847168 -1.4484954339316864 1.7542498747455042 -1.8768001995482386 -1.5707762877093714 2.9581522941589355 -0.5491700768470764 -0.45265355706214905 0.5491847395896912 -0.10158903151750565 -2.437069974521204e-21 -0.5461643934249878 1 True False
2298.944 4.503119945526123 -1.4694686916521569 1.7801058928119105 -1.8812505207457484 -1.5708449522601526 2.9322609901428223 -0.47788721323013306 -0.3912216126918793 0.48007580637931824 -0.09742627292871475 -1.601817567475905e-09 -0.48020732402801514 1 True False
2298.9939999999997 4.480689525604248 -1.487768219118454 1.80226976076235 -1.885261674920553 -1.5708325544940394 2.91005539894104 -0.4111856520175934 -0.3334163725376129 0.41557803750038147 -0.07011420279741287 -0.0004681470454670489 -0.40854430198669434 1 True False
2299.044 4.462169170379639 -1.5033300679973145 1.8210437933551233 -1.8889457188048304 -1.5708211104022425 2.8914618492126465 -0.347954660654068 -0.27684372663497925 0.3395855128765106 -0.06780189275741577 3.070605032462481e-07 -0.3483046591281891 1 True False
2299.094 4.446861743927002 -1.515726425950863 1.8363741079913538 -1.891428609887594 -1.570756737385885 2.875973701477051 -0.2702964246273041 -0.23031893372535706 0.26863008737564087 -0.05235818773508072 -6.509771610652137e-10 -0.2682187557220459 1 True False
2299.144 4.435178756713867 -1.5254662495902558 1.8481176535235804 -1.893515249291891 -1.5708091894732874 2.8643157482147217 -0.2038821280002594 -0.16869975626468658 0.20604585111141205 -0.03491581231355667 -4.667365779149846e-18 -0.20421576499938965 1 True False
2299.194 4.42677116394043 -1.5322223988226433 1.856567684804098 -1.8951569996275843 -1.570813004170553 2.855985641479492 -0.12997159361839294 -0.10441461205482483 0.13401412963867188 -0.028358442708849907 -7.08973886713066e-37 -0.13933603465557098 1 True False
2299.2439999999997 4.422008991241455 -1.5361797747066994 1.8613322416888636 -1.8960019550719203 -1.5707925001727503 2.851151466369629 -0.062498584389686584 -0.05234706029295921 0.0604543574154377 -0.009297997690737247 -0.0 -0.0625116154551506 1 True False
2299.294 4.420657157897949 -1.5372655440917988 1.862589184437887 -1.8961097202696742 -1.5707767645465296 2.84987473487854 0.004511568695306778 0.009687870740890503 0.011081792414188385 -0.00020277037401683629 -8.408224857703317e-06 0.005655214190483093 1 True False
2299.344 4.420686721801758 -1.536512767230608 1.8641603628741663 -1.8983575306334437 -1.5708048979388636 2.8498494625091553 -0.0003638941270764917 0.024717027321457863 0.04691111668944359 -0.07078302651643753 -1.6716105460120394e-21 -8.453591726720333e-05 1 True False
2299.394 4.420645713806152 -1.5344566863826294 1.8676965872394007 -1.9041797123351039 -1.5708335081683558 2.849853992462158 -0.0004416076117195189 0.058055244386196136 0.09318111836910248 -0.1473391354084015 -2.539180843325855e-40 -0.0006309162126854062 1 True False
2299.444 4.420626640319824 -1.5308591698161145 1.8732464949237269 -1.9132405720152796 -1.5708211104022425 2.849853992462158 -0.0005104034789837897 0.08181490749120712 0.13474221527576447 -0.21810822188854218 -0.0 -0.00026167224859818816 1 True False
2299.4939999999997 4.420621395111084 -1.5260122579387208 1.88123065630068 -1.9258676968016566 -1.57074481645693 2.849797487258911 -0.0002601023588795215 0.10843871533870697 0.18139886856079102 -0.28802043199539185 -0.0 -0.000236784340813756 1 True False
2299.544 4.420638561248779 -1.5198546473732968 1.8912237326251429 -1.9420510731139125 -1.5707610289203089 2.849830150604248 -0.00018947334319818765 0.1369297355413437 0.21919164061546326 -0.34235188364982605 -0.0 -0.00013304728781804442 1 True False
2299.594 4.420658588409424 -1.5124154214612027 1.9031603972064417 -1.9615704021849574 -1.5708087126361292 2.849792957305908 -0.00013995826884638518 0.1672329604625702 0.2641022801399231 -0.42372846603393555 -0.0 -8.70723815751262e-05 1 True False
2299.644 4.420626640319824 -1.5035655361464997 1.917671028767721 -1.9846521816649378 -1.5707686583148401 2.849825620651245 -9.597447206033394e-05 0.18755806982517242 0.305439293384552 -0.48975417017936707 -3.3780436266154026e-14 -3.751708110844021e-10 1 True False
2299.694 4.4206223487854 -1.4934492644718667 1.9340055624591272 -2.0113846264281214 -1.570784870778219 2.849797487258911 -7.511741569032893e-05 0.21378196775913239 0.34511929750442505 -0.5655362606048584 -5.13125765463388e-33 -5.698853186978566e-29 1 True False
2299.7439999999997 4.420635223388672 -1.4824752745083352 1.9518192450152796 -2.039910932580465 -1.5707810560809534 2.849879264831543 -1.6150499628028402e-17 0.21042610704898834 0.33386555314064026 -0.5387445092201233 -0.0 -7.332555673755792e-10 1 True False
2299.794 4.420589923858643 -1.4726752799800416 1.967306915913717 -2.0657197437682093 -1.570829216633932 2.849822759628296 -9.933950884111198e-11 0.18436558544635773 0.29959219694137573 -0.47204431891441345 -1.0470767847436946e-05 2.954545198008418e-05 1 True False
