Andreas691667/Digital_Twin_UR/src/robot_connection_manager/robot_output/E2_WORK_robot_output.csv
timestamp actual_q_0 actual_q_1 actual_q_2 actual_q_3 actual_q_4 actual_q_5 actual_qd_0 actual_qd_1 actual_qd_2 actual_qd_3 actual_qd_4 actual_qd_5 safety_status output_bit_register_65 output_bit_register_66
12729.17 3.7120444774627686 -0.8254305285266419 0.8430050055133265 -1.588252683679098 -1.5707891623126429 2.1412720680236816 0.0 0.0 0.0 -0.0 0.0 0.0 1 False False
12729.22 3.712029457092285 -0.825451211338379 0.8429930845843714 -1.5882817707457484 -1.5707529226886194 2.1412882804870605 0.0 0.0 0.0 -0.0 0.0 0.0 1 False False
12729.269999999999 3.7120578289031982 -0.8254676026156922 0.8430007139789026 -1.5883332691588343 -1.570801083241598 2.141270875930786 0.0 0.0 0.0 -0.0 0.0 0.0 1 False False
12729.32 3.712036609649658 -0.8254794639400025 0.8430169264422815 -1.588292738000387 -1.5707486311541956 2.141308546066284 0.0 0.0 0.0 -0.0 0.0 0.0 1 False False
12729.369999999999 3.7120277881622314 -0.825463132267334 0.8430050055133265 -1.5882774792113246 -1.5708335081683558 2.141270875930786 6.648962624922206e-08 0.0 0.0 -0.0 0.0 0.0 1 False False
12729.42 3.712066888809204 -0.8254794639400025 0.8430050055133265 -1.5883332691588343 -1.5707967917071741 2.141291618347168 0.0 0.0 0.0 -0.0 0.0 0.0 1 False False
12729.47 3.7120742797851562 -0.8255202931216736 0.8429964224444788 -1.5882536373534144 -1.5707686583148401 2.1412882804870605 0.0 0.0 0.0 -0.0 0.0 0.0 1 False False
12729.519999999999 3.7120578289031982 -0.8254823845675965 0.8429678122149866 -1.588297029534811 -1.5708048979388636 2.14125919342041 0.0 0.0 0.0 -0.0 0.0 0.0 1 False False
12729.57 3.712066888809204 -0.8255112928203125 0.8429802099810999 -1.5883165798582972 -1.570784870778219 2.1413002014160156 0.0 0.0 0.0 -0.0 0.0 0.0 1 False False
12729.619999999999 3.712095260620117 -0.825457291012146 0.8429845015155237 -1.5883094273009242 -1.5707929770099085 2.141263484954834 0.0 0.0 0.0 -0.0 0.0 0.0 1 False False
12729.67 3.712120532989502 -0.8254543107799073 0.8429887930499476 -1.5883051357665003 -1.5707405249225062 2.1412148475646973 0.0 0.0 0.0 -0.0 0.0 0.0 1 False False
12729.72 3.7120697498321533 -0.8254869741252442 0.8429716269122522 -1.588297029534811 -1.570784870778219 2.141291618347168 0.0 0.0 0.0 -0.0 0.0 0.0 1 False False
12729.769999999999 3.7120532989501953 -0.8254290384105225 0.8430126349078577 -1.5882774792113246 -1.5707805792437952 2.1413087844848633 0.0 0.0 0.0 -0.0 0.0 0.0 1 False False
12729.82 3.7120907306671143 -0.8255002063563843 0.8430169264422815 -1.5883170566954554 -1.5707724730121058 2.1412429809570312 0.0 0.0 0.0 -0.0 0.0 0.0 1 False False
12729.869999999999 3.712071418762207 -0.8255112928203125 0.8430126349078577 -1.5882650814452113 -1.570772949849264 2.1413002014160156 0.0 0.0 0.0 -0.0 0.0 0.0 1 False False
12729.92 3.7120816707611084 -0.8254496616176148 0.8429549376117151 -1.5882331333556117 -1.570784870778219 2.141312837600708 0.0 0.0 0.0 -0.0 0.0 0.0 1 False False
12729.97 3.7120277881622314 -0.8254823845675965 0.8429716269122522 -1.5883370838561 -1.5707686583148401 2.1412839889526367 0.0 0.0 0.0 -0.0 0.0 0.0 1 False False
12730.019999999999 3.712116003036499 -0.8254823845675965 0.8430083433734339 -1.5882207355894984 -1.5707767645465296 2.1413040161132812 0.0 0.0 0.0 -0.0 0.0 0.0 1 False False
12730.07 3.712083339691162 -0.8255202931216736 0.8429930845843714 -1.5883013210692347 -1.57074481645693 2.1412997245788574 0.0 0.0 0.0 -0.0 0.0 0.0 1 False False
12730.119999999999 3.712123394012451 -0.8255171340755005 0.8430126349078577 -1.5882445774474085 -1.5708087126361292 2.141279697418213 0.0 0.0 0.0 -0.0 0.0 0.0 1 False False
12730.17 3.7120816707611084 -0.8254304689219971 0.8429845015155237 -1.588313718835348 -1.5707805792437952 2.1412622928619385 0.0 0.0 0.0 -0.0 0.0 0.0 1 False False
12730.22 3.7120862007141113 -0.8254616421512146 0.8430007139789026 -1.5882851086058558 -1.5707772413836878 2.1412839889526367 0.0 0.0 0.0 -0.0 0.0 0.0 1 False False
12730.269999999999 3.7120862007141113 -0.8254497212222596 0.8430255095111292 -1.588269372979635 -1.5707967917071741 2.141275405883789 0.0 0.0 0.0 -0.0 0.0 0.0 1 False False
12730.32 3.7120862007141113 -0.825463132267334 0.8430126349078577 -1.588297029534811 -1.5707967917071741 2.1412839889526367 0.0 0.0 0.0 -0.0 0.0 0.0 1 False False
12730.369999999999 3.7121236324310303 -0.8255083721927186 0.8430092970477503 -1.5882817707457484 -1.5707805792437952 2.1412353515625 0.0 0.0 0.0 -0.0 0.0 0.0 1 False False
12730.42 3.7121310234069824 -0.8254543107799073 0.8429802099810999 -1.5882932148375453 -1.5708168188678187 2.141312837600708 0.0 0.0 0.0 -0.0 0.0 0.0 1 False False
12730.47 3.7121355533599854 -0.8254751128009339 0.8429473082171839 -1.5882369480528773 -1.5708168188678187 2.1412503719329834 0.0 0.0 0.0 -0.0 0.0 0.0 1 False False
12730.519999999999 3.7120697498321533 -0.8254913848689576 0.8429473082171839 -1.5882774792113246 -1.570824925099508 2.141317129135132 0.0 0.0 0.0 -0.0 0.0 0.0 1 False False
12730.57 3.7120771408081055 -0.825554148559906 0.8429845015155237 -1.5882650814452113 -1.5708172957049769 2.141317129135132 0.0 0.0 0.0 -0.0 0.0 0.0 1 False False
12730.619999999999 3.712116003036499 -0.825412706737854 0.8429892698871058 -1.588245531121725 -1.5707648436175745 2.141279697418213 0.0 0.0 0.0 -0.0 0.0 0.0 1 False False
12730.67 3.7120742797851562 -0.8254750531962891 0.8429845015155237 -1.588269372979635 -1.5707767645465296 2.14125919342041 0.0 0.0 0.0 -0.0 0.0 0.0 1 False False
12730.72 3.7121026515960693 -0.8254719537547608 0.8429802099810999 -1.588252683679098 -1.5707605520831507 2.1412839889526367 0.0 0.0 0.0 -0.0 0.0 0.0 1 False False
12730.769999999999 3.7121100425720215 -0.8255112928203125 0.8429754416095179 -1.5882650814452113 -1.570813004170553 2.141308546066284 0.0 0.0 0.0 -0.0 0.0 0.0 1 False False
12730.82 3.7120535373687744 -0.825495795612671 0.8429678122149866 -1.5882569752135218 -1.5708087126361292 2.141295909881592 0.0 0.0 0.0 -0.0 0.0 0.0 1 False False
12730.869999999999 3.7120862007141113 -0.8254779738238831 0.842971150075094 -1.5882774792113246 -1.5707648436175745 2.141317129135132 0.0 0.0 0.0 -0.0 0.0 0.0 1 False False
12730.92 3.7120580673217773 -0.8254913252643128 0.8430054823504847 -1.5882569752135218 -1.57074481645693 2.141279697418213 0.0 0.0 0.0 -0.0 0.0 0.0 1 False False
12730.97 3.7120742797851562 -0.8254706424525757 0.8429845015155237 -1.5883218250670375 -1.570796314870016 2.1413087844848633 0.0 0.0 0.0 -0.0 0.0 0.0 1 False False
12731.019999999999 3.712045669555664 -0.8255039614490052 0.8430097738849085 -1.5882607899107875 -1.5707891623126429 2.141275405883789 0.0 0.0 0.0 -0.0 0.0 0.0 1 False False
12731.07 3.7120492458343506 -0.8255045574954529 0.8430174032794397 -1.588269372979635 -1.570813004170553 2.1412546634674072 0.0 0.0 0.0 -0.0 0.0 0.0 1 False False
12731.119999999999 3.7120742797851562 -0.8254468005946656 0.8430259863482874 -1.5882650814452113 -1.570853058491842 2.14125919342041 0.0 0.0 0.0 -0.0 0.0 0.0 1 False False
12731.17 3.7121188640594482 -0.825495795612671 0.8429935614215296 -1.5883251629271449 -1.570784870778219 2.1412785053253174 0.0 0.0 0.0 -0.0 0.0 0.0 1 False False
12731.22 3.7120370864868164 -0.8254409593394776 0.8430054823504847 -1.5882498226561488 -1.5707886854754847 2.141267776489258 0.0 0.0 0.0 -0.0 0.0 0.0 1 False False
12731.269999999999 3.712045669555664 -0.8255366247943421 0.8429515997516077 -1.5882650814452113 -1.5707767645465296 2.1413300037384033 0.0 0.0 0.0 -0.0 0.0 0.0 1 False False
12731.32 3.712062358856201 -0.8255127829364319 0.8429721037494105 -1.5883175335326136 -1.5708330313311976 2.1412925720214844 0.0 0.0 0.0 -0.0 0.0 0.0 1 False False
12731.369999999999 3.712094783782959 -0.8254869741252442 0.8429754416095179 -1.588285585443014 -1.5707762877093714 2.1413002014160156 0.0 0.0 0.0 -0.0 0.0 0.0 1 False False
12731.42 3.712115526199341 -0.8254659932902833 0.8429892698871058 -1.5882731876769007 -1.5707967917071741 2.141275405883789 0.0 0.0 0.0 -0.0 0.0 0.0 1 False False
12731.47 3.7120251655578613 -0.8254171174815674 0.842999283467428 -1.588313718835348 -1.5707529226886194 2.1412839889526367 0.0 0.0 0.0 -0.0 0.0 0.0 1 False False
12731.519999999999 3.712111234664917 -0.8254913848689576 0.8429430166827601 -1.5882650814452113 -1.570824925099508 2.1412546634674072 0.0 0.0 0.0 -0.0 0.0 0.0 1 False False
12731.57 3.7120535373687744 -0.825463132267334 0.8430174032794397 -1.588320871392721 -1.5707529226886194 2.1412057876586914 0.0 0.0 0.0 -0.0 0.0 0.0 1 False False
12731.619999999999 3.712062358856201 -0.8254215878299256 0.8430054823504847 -1.588292738000387 -1.5707529226886194 2.1412429809570312 0.0 0.0 0.0 -0.0 0.0 0.0 1 False False
12731.67 3.7120580673217773 -0.8254750531962891 0.842971150075094 -1.588245531121725 -1.5707810560809534 2.141279697418213 0.0 0.0 0.0 -0.0 0.0 0.0 1 False False
12731.72 3.712110996246338 -0.8254914444736023 0.8429721037494105 -1.588268896142477 -1.570813004170553 2.141267776489258 0.0 0.0 0.0 -0.0 0.0 0.0 1 False False
12731.769999999999 3.7121024131774902 -0.8255202931216736 0.8430054823504847 -1.5882178745665492 -1.5708006064044397 2.1413002014160156 0.0 0.0 0.0 -0.0 0.0 0.0 1 False False
12731.82 3.7120044231414795 -0.8255083721927186 0.8430588881122034 -1.5882774792113246 -1.5707967917071741 2.141267776489258 0.0 0.0 0.0 -0.0 0.0 0.0 1 False False
12731.869999999999 3.7120938301086426 -0.8255304259112854 0.8430007139789026 -1.5883051357665003 -1.5707929770099085 2.141263484954834 0.0 0.0 0.0 -0.0 0.0 0.0 1 False False
12731.92 3.7120981216430664 -0.8254452508739014 0.8429754416095179 -1.5882817707457484 -1.5707886854754847 2.141308546066284 0.0 0.0 0.0 -0.0 0.0 0.0 1 False False
12731.97 3.7121353149414062 -0.8255039614490052 0.8429649511920374 -1.5883132419981898 -1.5708444754229944 2.141312837600708 0.0 0.0 0.0 -0.0 0.0 0.0 1 False False
12732.019999999999 3.7121024131774902 -0.8254543107799073 0.8429845015155237 -1.5882097683348597 -1.5708649794207972 2.141279697418213 0.0 0.0 0.0 -0.0 0.0 0.0 1 False False
12732.07 3.7120449542999268 -0.8254706424525757 0.842992130910055 -1.5882336101927699 -1.5707929770099085 2.141308546066284 0.0 0.0 0.0 -0.0 0.0 0.0 1 False False
12732.119999999999 3.712062358856201 -0.8255216640285035 0.8429721037494105 -1.5882655582823695 -1.5707967917071741 2.141308546066284 0.0 0.0 0.0 -0.0 0.0 0.0 1 False False
12732.17 3.712123155593872 -0.8254586619189759 0.8429802099810999 -1.5882417164244593 -1.5708087126361292 2.141308546066284 0.0 0.0 0.0 -0.0 0.0 0.0 1 False False
12732.22 3.7120656967163086 -0.8254675430110474 0.8429630438434046 -1.5882812939085902 -1.5708172957049769 2.141251564025879 0.0 0.0 0.0 -0.0 0.0 0.0 1 False False
12732.269999999999 3.7120773792266846 -0.8255291146091004 0.8430007139789026 -1.5882851086058558 -1.5707967917071741 2.1412339210510254 0.0 0.0 0.0 -0.0 0.0 0.0 1 False False
12732.32 3.7120862007141113 -0.825495795612671 0.8429606596576136 -1.5882612667479457 -1.5707648436175745 2.141279697418213 0.0 0.0 0.0 -0.0 0.0 0.0 1 False False
12732.369999999999 3.712083101272583 -0.8254794639400025 0.8429892698871058 -1.588269372979635 -1.570784870778219 2.14125919342041 0.0 0.0 0.0 -0.0 0.0 0.0 1 False False
12732.42 3.7121143341064453 -0.8254750531962891 0.8429673353778284 -1.588273664514059 -1.5707405249225062 2.1412546634674072 0.0 0.0 0.0 -0.0 0.0 0.0 1 False False
12732.47 3.712110996246338 -0.8254453104785462 0.8429763952838343 -1.5883370838561 -1.5708087126361292 2.141279697418213 0.0 0.0 0.0 -0.0 0.0 0.0 1 False False
12732.519999999999 3.7120862007141113 -0.8254542511752625 0.842987362538473 -1.5882569752135218 -1.5708330313311976 2.14125919342041 0.0 0.0 0.0 -0.0 0.0 0.0 1 False False
12732.57 3.712111234664917 -0.8254542511752625 0.8429673353778284 -1.588234087029928 -1.5708125273333948 2.141291618347168 0.0 0.0 0.0 -0.0 0.0 0.0 1 False False
12732.619999999999 3.712094783782959 -0.825466052894928 0.8429349104510706 -1.588349004785055 -1.570801083241598 2.141312837600708 0.0 0.0 0.0 -0.0 0.0 0.0 1 False False
12732.67 3.7120208740234375 -0.8254869741252442 0.8429668585406702 -1.5882851086058558 -1.570813004170553 2.1412839889526367 0.0 0.0 0.0 -0.0 0.0 0.0 1 False False
12732.72 3.71207857131958 -0.8255455058864136 0.8429964224444788 -1.5882851086058558 -1.570784870778219 2.141312837600708 0.0 0.0 0.0 -0.0 0.0 0.0 1 False False
12732.769999999999 3.7120819091796875 -0.8254587215236207 0.8429802099810999 -1.5883285007872523 -1.5707929770099085 2.141291618347168 0.0 0.0 0.0 -0.0 0.0 0.0 1 False False
12732.82 3.7120862007141113 -0.8254304689219971 0.8430007139789026 -1.588285585443014 -1.5707805792437952 2.1412558555603027 0.0 0.0 0.0 -0.0 0.0 0.0 1 False False
12732.869999999999 3.712120532989502 -0.8254542511752625 0.8430336157428187 -1.588280817071432 -1.5707967917071741 2.141291618347168 0.0 0.0 0.0 -0.0 0.0 0.0 1 False False
12732.92 3.7121026515960693 -0.825495795612671 0.8430126349078577 -1.5882846317686976 -1.570772949849264 2.1412765979766846 0.0 0.0 0.0 -0.0 0.0 0.0 1 False False
12732.97 3.712095022201538 -0.8254869741252442 0.8429606596576136 -1.5883175335326136 -1.5707967917071741 2.1413047313690186 0.0 0.0 0.0 -0.0 0.0 0.0 1 False False
12733.019999999999 3.712045669555664 -0.8254706424525757 0.8429845015155237 -1.5882569752135218 -1.5707929770099085 2.1412601470947266 0.0 0.0 0.0 -0.0 0.0 0.0 1 False False
12733.07 3.7120490074157715 -0.8254869741252442 0.8429515997516077 -1.5882650814452113 -1.5708168188678187 2.1412720680236816 0.0 0.0 0.0 -0.0 0.0 0.0 1 False False
12733.119999999999 3.7120323181152344 -0.8254838746837159 0.8429587523089808 -1.588313718835348 -1.5707610289203089 2.14125919342041 0.0 0.0 0.0 -0.0 0.0 0.0 1 False False
12733.17 3.712106943130493 -0.8255083125880738 0.8430007139789026 -1.588245531121725 -1.5707686583148401 2.141291618347168 0.0 0.0 0.0 -0.0 0.0 0.0 1 False False
12733.22 3.712083101272583 -0.825463132267334 0.842959229146139 -1.5882774792113246 -1.570784870778219 2.141279697418213 0.0 0.0 0.0 -0.0 0.0 0.0 1 False False
12733.269999999999 3.712078809738159 -0.8255335849574585 0.8430126349078577 -1.5882569752135218 -1.570801083241598 2.1413040161132812 0.0 0.0 0.0 -0.0 0.0 0.0 1 False False
12733.32 3.712087631225586 -0.8254869741252442 0.8429845015155237 -1.5882889233031214 -1.570801083241598 2.141295909881592 0.0 0.0 0.0 -0.0 0.0 0.0 1 False False
12733.369999999999 3.712078809738159 -0.8254706424525757 0.8430126349078577 -1.588285585443014 -1.5708168188678187 2.141270875930786 0.0 0.0 0.0 -0.0 0.0 0.0 1 False False
12733.42 3.712041139602661 -0.8254496616176148 0.8430040518390101 -1.5883332691588343 -1.5707648436175745 2.141267776489258 0.0 0.0 0.0 -0.0 0.0 0.0 1 False False
12733.47 3.7120907306671143 -0.8255291742137452 0.8430050055133265 -1.5882412395873011 -1.570801083241598 2.14133358001709 0.0 0.0 0.0 -0.0 0.0 0.0 1 False False
12733.519999999999 3.7120862007141113 -0.825495795612671 0.8430007139789026 -1.5883332691588343 -1.570801083241598 2.141317367553711 0.0 0.0 0.0 -0.0 0.0 0.0 1 False False
12733.57 3.7120907306671143 -0.825466052894928 0.8429520765887659 -1.5883251629271449 -1.570813004170553 2.1412885189056396 0.0 0.0 0.0 -0.0 0.0 0.0 1 False False
12733.619999999999 3.712041139602661 -0.8254423898509522 0.8429887930499476 -1.5882569752135218 -1.5708087126361292 2.1412765979766846 0.0 0.0 0.0 -0.0 0.0 0.0 1 False False
12733.67 3.712096691131592 -0.8255291742137452 0.8430169264422815 -1.5882374248900355 -1.570801083241598 2.1412885189056396 0.0 0.0 0.0 -0.0 0.0 0.0 1 False False
12733.72 3.7120907306671143 -0.8255127829364319 0.8429721037494105 -1.5883370838561 -1.5707925001727503 2.1412501335144043 0.0 0.0 0.0 -0.0 0.0 0.0 1 False False
12733.769999999999 3.7120862007141113 -0.8254994314960022 0.8429520765887659 -1.5883251629271449 -1.5707767645465296 2.141221761703491 0.0 0.0 0.0 -0.0 0.0 0.0 1 False False
12733.82 3.712021589279175 -0.8254392904094239 0.8429802099810999 -1.5882607899107875 -1.570824925099508 2.141238212585449 0.0 0.0 0.0 -0.0 0.0 0.0 1 False False
12733.869999999999 3.7120578289031982 -0.8254468005946656 0.8430050055133265 -1.5883013210692347 -1.570784870778219 2.141313076019287 0.0 0.0 0.0 -0.0 0.0 0.0 1 False False
12733.92 3.712106943130493 -0.8254675430110474 0.8429845015155237 -1.5882817707457484 -1.5707805792437952 2.141270875930786 0.0 0.0 0.0 -0.0 0.0 0.0 1 False False
12733.97 3.712132453918457 -0.8254468005946656 0.8430374304400843 -1.5882288418211878 -1.5707324186908167 2.141254425048828 0.0 0.0 0.0 -0.0 0.0 0.0 1 False False
12734.019999999999 3.712078809738159 -0.8254304689219971 0.8430169264422815 -1.5882169208922328 -1.570801083241598 2.141317367553711 0.0 0.0 0.0 -0.0 0.0 0.0 1 False False
12734.07 3.712095260620117 -0.8255127829364319 0.8429845015155237 -1.5883175335326136 -1.5708211104022425 2.141321897506714 0.0 0.0 0.0 -0.0 0.0 0.0 1 False False
12734.119999999999 3.712066888809204 -0.8254333895495911 0.8429930845843714 -1.5883056126036585 -1.5708373228656214 2.141317367553711 0.0 0.0 0.0 -0.0 0.0 0.0 1 False False
12734.17 3.7120816707611084 -0.8254394096187134 0.8430007139789026 -1.5882498226561488 -1.5707805792437952 2.141247034072876 0.0 0.0 0.0 -0.0 0.0 0.0 1 False False
12734.22 3.7120907306671143 -0.8254869741252442 0.8429845015155237 -1.5882731876769007 -1.5707891623126429 2.1412839889526367 0.0 0.0 0.0 -0.0 0.0 0.0 1 False False
12734.269999999999 3.7121236324310303 -0.8254423898509522 0.8430007139789026 -1.5883456669249476 -1.5708087126361292 2.141291618347168 0.0 0.0 0.0 -0.0 0.0 0.0 1 False False
12734.32 3.712045669555664 -0.8255083721927186 0.8430331389056605 -1.5882731876769007 -1.5708168188678187 2.1412720680236816 0.0 0.0 0.0 -0.0 0.0 0.0 1 False False
12734.369999999999 3.7120742797851562 -0.8254869741252442 0.8429802099810999 -1.588313718835348 -1.5707524458514612 2.141313076019287 0.0 0.0 0.0 -0.0 0.0 0.0 1 False False
12734.42 3.7120697498321533 -0.825463132267334 0.8430212179767054 -1.5883051357665003 -1.570784870778219 2.141279697418213 0.0 0.0 0.0 -0.0 0.0 0.0 1 False False
12734.47 3.712041139602661 -0.8254750531962891 0.8429845015155237 -1.5882731876769007 -1.570813004170553 2.141263484954834 0.0 0.0 0.0 -0.0 0.0 0.0 1 False False
12734.519999999999 3.7120816707611084 -0.8254750531962891 0.8429721037494105 -1.5882607899107875 -1.570784870778219 2.1412839889526367 0.0 0.0 0.0 -0.0 0.0 0.0 1 True False
12734.57 3.712036609649658 -0.8254304689219971 0.8430007139789026 -1.5882817707457484 -1.570756737385885 2.141291618347168 0.0 0.0 0.0 -0.0 0.0 0.0 1 True False
12734.619999999999 3.7120742797851562 -0.8254334491542359 0.8430054823504847 -1.5883289776244105 -1.5707686583148401 2.141270637512207 0.0 0.0 0.0 -0.0 0.0 0.0 1 True False
12734.67 3.7120816707611084 -0.825495795612671 0.8430007139789026 -1.5883094273009242 -1.5708087126361292 2.141296148300171 0.0 0.0 0.0 -0.0 0.0 0.0 1 True False
12734.72 3.7120981216430664 -0.825454370384552 0.8429845015155237 -1.5883618793883265 -1.5708091894732874 2.141329526901245 0.0 0.0 0.0 -0.0 0.0 0.0 1 True False
12734.769999999999 3.7120742797851562 -0.8254794043353577 0.8429802099810999 -1.5882846317686976 -1.570784870778219 2.141235113143921 0.0 0.0 0.0 -0.0 0.0 0.0 1 True False
12734.82 3.7120862007141113 -0.825451211338379 0.8429392019854944 -1.5882817707457484 -1.5708168188678187 2.141258955001831 0.0 0.0 0.0 -0.0 0.0 0.0 1 True False
12734.869999999999 3.7120654582977295 -0.8254957360080262 0.8429845015155237 -1.588268896142477 -1.5708168188678187 2.1413307189941406 0.0 0.0 0.0 -0.0 0.0 0.0 1 True False
12734.92 3.7120907306671143 -0.8254217070392151 0.8429802099810999 -1.5882817707457484 -1.5707686583148401 2.141247034072876 0.0 0.0 0.0 -0.0 0.0 0.0 1 True False
12734.97 3.712083101272583 -0.8255127233317872 0.8429887930499476 -1.588269372979635 -1.5708449522601526 2.1412558555603027 0.0 0.0 0.0 -0.0 0.0 -7.383052434306592e-05 1 True False
12735.019999999999 3.712095022201538 -0.8254750531962891 0.8430174032794397 -1.5882579288878382 -1.5708168188678187 2.1413352489471436 0.0 0.0 0.0 -0.0 0.0 0.0015884401509538293 1 True False
12735.07 3.7120490074157715 -0.8254993718913575 0.8429349104510706 -1.5883094273009242 -1.5708168188678187 2.141282558441162 0.0 0.0 0.0 -0.0 -0.0014411744195967913 -1.0305691050565462e-15 1 True False
12735.119999999999 3.7120413780212402 -0.825480656032898 0.8429964224444788 -1.588280817071432 -1.5707653204547327 2.141249895095825 0.0 0.0 0.0 -0.0 -1.9769744540099055e-05 -1.5654368214699936e-34 1 True False
12735.17 3.7120742797851562 -0.8255127233317872 0.8429673353778284 -1.5882498226561488 -1.5707767645465296 2.141270637512207 0.0 0.0 0.0 -0.0 -6.5300480578400766e-09 -0.0 1 True False
12735.22 3.712256669998169 -0.8255188030055542 0.8430445829974573 -1.5883294544615687 -1.570756737385885 2.1413025856018066 0.029968436807394028 -0.010729101486504078 0.017082832753658295 -0.004238400142639875 -9.919158400071385e-28 0.021791623905301094 1 True False
12735.269999999999 3.71486496925354 -0.8267373007586976 0.84491473833193 -1.5889474354186 -1.5707843939410608 2.1440720558166504 0.0877208486199379 -0.04072657227516174 0.0657045841217041 -0.022623930126428604 0.00012300009257160127 0.08860703557729721 1 True False
12735.32 3.7210912704467773 -0.8298714917949219 0.8499019781695765 -1.5906545124449671 -1.5708087126361292 2.150263547897339 0.1597304344177246 -0.08315428346395493 0.126156285405159 -0.04250161349773407 5.7496752560837194e-05 0.15977886319160461 1 True False
12735.369999999999 3.730802297592163 -0.8349360984614869 0.8574188391314905 -1.593325754205221 -1.5708044211017054 2.159987688064575 0.2243058681488037 -0.12166677415370941 0.18021422624588013 -0.061103902757167816 6.253372703213245e-05 0.2254827469587326 1 True False
12735.42 3.744009494781494 -0.8417444986156006 0.867807690297262 -1.5965553722777308 -1.570784870778219 2.1731514930725098 0.2938174307346344 -0.1470312923192978 0.23137034475803375 -0.07297449558973312 5.9438898460939527e-05 0.2969021499156952 1 True False
12735.47 3.760507106781006 -0.8503711980632325 0.8807218710528772 -1.6010681591429652 -1.570853058491842 2.189753532409668 0.3653004467487335 -0.19142483174800873 0.28075170516967773 -0.08892090618610382 7.906932713316592e-23 0.3620515465736389 1 True False
12735.519999999999 3.780850410461426 -0.8606731456569214 0.896402661000387 -1.60648836712026 -1.5707290808307093 2.20983624458313 0.4370079040527344 -0.22482024133205414 0.3381679952144623 -0.12219507992267609 9.740161476656795e-05 0.4422949552536011 1 True False
12735.57 3.804311513900757 -0.8728255194476624 0.9148605505572718 -1.6126281223692835 -1.5707724730121058 2.2335281372070312 0.5055356025695801 -0.2592662274837494 0.3899466395378113 -0.14771310985088348 2.2375157282539249e-13 0.5090537667274475 1 True False
12735.619999999999 3.831387996673584 -0.8867508930018921 0.9356430212603968 -1.6197968922057093 -1.5708373228656214 2.260707139968872 0.5704212784767151 -0.2952004671096802 0.44761204719543457 -0.16420456767082214 2.5194484720714172e-08 0.5695472955703735 1 True False
12735.67 3.8621020317077637 -0.9023288649371644 0.9595583120929163 -1.6280228100218714 -1.5707686583148401 2.2913482189178467 0.6440948843955994 -0.3270644247531891 0.500057578086853 -0.17405390739440918 0.0001377508306177333 0.6363353133201599 1 True False
12735.72 3.8961520195007324 -0.9198540610126038 0.9859464804278772 -1.6369239292540492 -1.570801083241598 2.3253533840179443 0.7123379111289978 -0.36575302481651306 0.556260883808136 -0.18534807860851288 -2.522166232376416e-13 0.7095056176185608 1 True False
12735.769999999999 3.9337844848632812 -0.9392002385905762 1.0152977148639124 -1.6467906437315882 -1.570829216633932 2.3628721237182617 0.7795237898826599 -0.4009743928909302 0.609414279460907 -0.20380628108978271 -0.000289214716758579 0.7905919551849365 1 True False
12735.82 3.974797487258911 -0.9602030676654358 1.0471938292132776 -1.6576367817320765 -1.5707204977618616 2.403992176055908 0.8616777062416077 -0.4353797137737274 0.6659367680549622 -0.2174738347530365 -6.868692435091361e-05 0.8623693585395813 1 True False
12735.869999999999 4.019454479217529 -0.9830383223346253 1.0816095511065882 -1.6694494686522425 -1.5708254019366663 2.448636770248413 0.9257092475891113 -0.4813634157180786 0.7154296040534973 -0.2514987885951996 0.00014082955021876842 0.9174501299858093 1 True False
12735.92 4.067474365234375 -1.0076748889735718 1.1190255323993128 -1.6820351086058558 -1.5708168188678187 2.496654987335205 0.9972336292266846 -0.5068836212158203 0.7695944905281067 -0.27523672580718994 8.388012076896906e-21 0.9973143935203552 1 True False
12735.97 4.118974685668945 -1.0340201419642945 1.1589344183551233 -1.6956001720824183 -1.5707805792437952 2.5480849742889404 1.038834571838379 -0.5309435129165649 0.8126930594444275 -0.2730351686477661 1.2741404377765902e-39 1.0433783531188965 1 True False
12736.019999999999 4.1712822914123535 -1.0609083336642762 1.1996963659869593 -1.7093693218626917 -1.5707686583148401 2.600525379180908 1.0496997833251953 -0.5367391109466553 0.8113042116165161 -0.2814156413078308 0.00039898129762150347 1.0496326684951782 1 True False
12736.07 4.223542213439941 -1.0876564246467133 1.2402251402484339 -1.7232352695860804 -1.570784870778219 2.652742385864258 1.048926591873169 -0.5362248420715332 0.8165769577026367 -0.2761040925979614 -0.0005690761026926339 1.05705726146698 1 True False
12736.119999999999 4.275996208190918 -1.1144970518401642 1.2808025519000452 -1.737112661401266 -1.5708168188678187 2.705075263977051 1.0426100492477417 -0.5374941825866699 0.8128983974456787 -0.2914870083332062 1.4520142357118023e-19 1.0453752279281616 1 True False
12736.17 4.3283843994140625 -1.14143060267482 1.3215468565570276 -1.7510634861388148 -1.5707610289203089 2.757596969604492 1.0505234003067017 -0.5396780371665955 0.8111073970794678 -0.2888769507408142 -4.0117869026801145e-09 1.043440818786621 1 True False
12736.22 4.380664825439453 -1.1682956379703064 1.3621261755572718 -1.7647820911803187 -1.5707686583148401 2.8098583221435547 1.051249384880066 -0.5390093326568604 0.8149385452270508 -0.2738513946533203 -0.00013638670498039573 1.0517430305480957 1 True False
12736.269999999999 4.432817459106445 -1.1948529046824952 1.4026148954974573 -1.7784143886961878 -1.570772949849264 2.8618662357330322 1.0182301998138428 -0.5180837512016296 0.7834230661392212 -0.2938454747200012 0.0001170277246274054 1.0133858919143677 1 True False
12736.32 4.4817376136779785 -1.2200001341155549 1.440709416066305 -1.791347166100973 -1.5707605520831507 2.910966396331787 0.9515510201454163 -0.4808942675590515 0.739052951335907 -0.24207793176174164 0.00042017651139758527 0.954267680644989 1 True False
12736.369999999999 4.527264595031738 -1.24330689132724 1.4759610334979456 -1.8035947285094203 -1.5707767645465296 2.9564049243927 0.8708056211471558 -0.45254236459732056 0.6827092170715332 -0.2241029590368271 -0.0011441137176007032 0.8801894783973694 1 True False
12736.42 4.569359302520752 -1.2650472980788727 1.5086281935321253 -1.8147512874998988 -1.570772949849264 2.99861478805542 0.8046628832817078 -0.41846027970314026 0.6259658932685852 -0.22480009496212006 -2.662315182533348e-06 0.811407208442688 1 True False
12736.47 4.608035564422607 -1.2847050589374085 1.5387008825885218 -1.8248616657652796 -1.5707209745990198 3.0372118949890137 0.7387946248054504 -0.3814815580844879 0.565509557723999 -0.1976415067911148 -6.246070882731658e-10 0.7409156560897827 1 True False
12736.519999999999 4.643064975738525 -1.302617387180664 1.5659387747394007 -1.8339210949339808 -1.5708006064044397 3.072330951690674 0.6674734950065613 -0.34417057037353516 0.5204471349716187 -0.18329693377017975 8.133763913065195e-05 0.6646197438240051 1 True False
12736.57 4.674650192260742 -1.3189723652652283 1.5903595129596155 -1.8425337276854457 -1.5707686583148401 3.103969097137451 0.5952908992767334 -0.30393514037132263 0.4638673663139343 -0.16437312960624695 2.735652236803772e-23 0.5961763262748718 1 True False
12736.619999999999 4.7027435302734375 -1.3331236851266404 1.61241323152651 -1.8497148952879847 -1.5707805792437952 3.132093906402588 0.5259285569190979 -0.26878055930137634 0.4083983302116394 -0.1380220353603363 -1.0965006673631632e-15 0.5262638330459595 1 True False
12736.67 4.7274699211120605 -1.3460838061622162 1.631228272114889 -1.8564540348448695 -1.5707810560809534 3.1565799713134766 0.4579816460609436 -0.23013755679130554 0.36190786957740784 -0.118585504591465 0.0004678902623709291 0.459509938955307 1 True False
12736.72 4.7485761642456055 -1.3567244869521637 1.6478799025165003 -1.8619300327696742 -1.570772949849264 3.1776559352874756 0.38876116275787354 -0.20287273824214935 0.29739293456077576 -0.11098859459161758 0.0005201139720156789 0.3961184024810791 1 True False
12736.769999999999 4.766133785247803 -1.365759329204895 1.6615608374225062 -1.8664709530272425 -1.570801083241598 3.1954071521759033 0.3215101659297943 -0.1612253487110138 0.2517991065979004 -0.08325276523828506 -8.579507993999869e-05 0.31776565313339233 1 True False
12736.82 4.780261039733887 -1.3731598419002076 1.672450367604391 -1.8702689609923304 -1.5708048979388636 3.2094340324401855 0.24718350172042847 -0.1273917406797409 0.19406630098819733 -0.06266473233699799 6.501809073772291e-12 0.2596147060394287 1 True False
12736.869999999999 4.790866851806641 -1.378460631971695 1.6807883421527308 -1.872976919213766 -1.5707805792437952 3.2201952934265137 0.18105611205101013 -0.09242812544107437 0.13878192007541656 -0.04656365513801575 3.7405449404559477e-08 0.18085888028144836 1 True False
12736.92 4.798096179962158 -1.3822252613357087 1.68632680574526 -1.8751093349852503 -1.5708449522601526 3.227346181869507 0.10775690525770187 -0.055806249380111694 0.08524821698665619 -0.027593692764639854 5.6818962404867116e-27 0.1075063943862915 1 True False
12736.97 4.801777362823486 -1.3840328019908448 1.6892383734332483 -1.875918527642721 -1.5707686583148401 3.2310049533843994 0.03876148536801338 -0.022595228627324104 0.027972063049674034 -0.01123635284602642 1.401298464324817e-45 0.04108307138085365 1 True False
12737.019999999999 4.802206993103027 -1.384217233662941 1.6898234526263636 -1.876491209069723 -1.5708730856524866 3.2315120697021484 -0.003126968629658222 0.01189336646348238 0.023416442796587944 -0.0349467433989048 0.0 0.00015062425518408418 1 True False
12737.07 4.802206516265869 -1.3831405651620408 1.6919787565814417 -1.8797065220274867 -1.570829216633932 3.2315492630004883 0.00027876911917701364 0.03501669690012932 0.06420708447694778 -0.09947925806045532 0.0001246504980372265 0.0003827498003374785 1 True False
12737.119999999999 4.802287578582764 -1.3806062203696747 1.6963518301593226 -1.8866297207274378 -1.5707605520831507 3.2314956188201904 0.0003627761034294963 0.0647033303976059 0.10415416955947876 -0.16314075887203217 9.196961764246225e-05 0.0003612959408201277 1 True False
12737.17 4.802314758300781 -1.3767242592624207 1.7028635183917444 -1.8968526325621546 -1.5708368460284632 3.2315239906311035 0.0007165056886151433 0.08970045298337936 0.149551659822464 -0.2473226934671402 5.612180757452734e-05 0.00024330914311576635 1 True False
12737.22 4.802326679229736 -1.3716999304345627 1.7115028540240687 -1.910619398156637 -1.5707772413836878 3.2315597534179688 0.00025324878515675664 0.11488115787506104 0.19908444583415985 -0.3162693977355957 4.703509694081731e-05 0.00018149730749428272 1 True False
12737.269999999999 4.802305698394775 -1.3654333812049408 1.7224119345294397 -1.9279567203917445 -1.5708044211017054 3.231555223464966 0.0002068465983029455 0.13827210664749146 0.2422908991575241 -0.3729127049446106 4.968979329562917e-13 0.00011161134170833975 1 True False
12737.32 4.802383899688721 -1.3576839578202744 1.735821549092428 -1.9486352405943812 -1.5707691351519983 3.2315313816070557 0.00010852657578652725 0.16217245161533356 0.2862107753753662 -0.4526871144771576 7.547892132173713e-32 8.043764682952315e-05 1 True False
12737.369999999999 4.802338600158691 -1.3488604736379166 1.7508319059955042 -1.9728719196715296 -1.570784870778219 3.2315642833709717 9.478681022301316e-05 0.19432245194911957 0.3338138163089752 -0.5155453085899353 2.6834734434544316e-10 4.4456988376650165e-23 1 True False
12737.42 4.802358150482178 -1.3386479628137131 1.768346134816305 -2.000357290307516 -1.5707967917071741 3.2315447330474854 2.463832061039284e-06 0.19834306836128235 0.3445514142513275 -0.5511763095855713 4.0762021392729727e-29 6.752857299581293e-42 1 True False
12737.47 4.802366733551025 -1.3292368364385148 1.7845342795001429 -2.026212831536764 -1.5707972685443323 3.231593132019043 5.2309653256088495e-05 0.17693200707435608 0.30895623564720154 -0.4786584675312042 3.71232999896165e-05 0.0 1 True False
12737.519999999999 4.8023295402526855 -1.3209968519261857 1.7987106482135218 -2.048460622827047 -1.570784870778219 3.2315433025360107 2.7913252779399045e-05 0.1544954776763916 0.2552722990512848 -0.4149901568889618 -1.2399147802781042e-14 -7.884085789555684e-05 1 True False
12737.57 4.802301406860352 -1.314040170317032 1.8106582800494593 -2.0673519573607386 -1.5707724730121058 3.2315642833709717 0.0 0.12769800424575806 0.2185632735490799 -0.33126309514045715 -1.8834336195531024e-33 -2.469971150276251e-05 1 True False
12737.619999999999 4.802362442016602 -1.3084017795375367 1.8204353491412562 -2.082701345483297 -1.5707805792437952 3.2315642833709717 0.0 0.10082758218050003 0.17328417301177979 -0.2745670974254608 -0.0 -1.4648260730609763e-05 1 True False
12737.67 4.8023552894592285 -1.3041206163218995 1.8278692404376429 -2.094682355920309 -1.570784870778219 3.2315642833709717 0.0 0.0735129863023758 0.12166223675012589 -0.20228280127048492 -0.0 -1.0411656148789916e-05 1 True False
12737.72 4.802346706390381 -1.3009233933738251 1.8332298437701624 -2.102933546105856 -1.5708406607257288 3.2315404415130615 0.0 0.05095497891306877 0.08634386956691742 -0.14254404604434967 -0.0 -1.0078442496457465e-21 1 True False
12737.769999999999 4.802371501922607 -1.2992694538882752 1.836196247731344 -2.1077610454955042 -1.570784870778219 3.2315433025360107 0.0 0.024487242102622986 0.04326843097805977 -0.06050042435526848 -0.0 -1.5309185722748626e-40 1 True False
12737.82 4.802334308624268 -1.2987166208079834 1.8371556440936487 -2.109244485894674 -1.570784870778219 3.2315404415130615 0.0 -0.0021040209103375673 -0.0019133243476971984 0.004231726285070181 -0.0 -0.0 1 True False
12737.869999999999 4.802362442016602 -1.2987617415240784 1.8372529188739222 -2.109208723107809 -1.5707929770099085 3.2315642833709717 0.0 0.0 -1.3724246255419576e-32 0.0001378935994580388 -0.0 -0.0 1 True False
12737.92 4.802350997924805 -1.298688606624939 1.837191406880514 -2.1092802486815394 -1.5707805792437952 3.2315478324890137 0.0 0.00030511332442983985 9.624390804674476e-05 -7.14614725438878e-05 -0.0 -0.0 1 True False
12737.97 4.802366733551025 -1.2987210911563416 1.837219540272848 -2.1092525921263636 -1.5707925001727503 3.231505870819092 -2.0062769181095064e-05 0.00027907328330911696 5.6811557442415506e-05 -9.854530799202621e-05 -0.0 -2.5416720713099554e-15 1 True False
12738.019999999999 4.8023176193237305 -1.2986929577640076 1.8371871153460901 -2.10930933574819 -1.5707648436175745 3.2315313816070557 0.0 0.00019711803179234266 3.17543454002589e-05 -0.00011746941891033202 -0.0 -3.860804206922779e-34 1 True False
12738.07 4.8023295402526855 -1.2987179023078461 1.8372152487384241 -2.109288831750387 -1.5707529226886194 3.2315597534179688 0.0 0.00019661226542666554 3.2866162655409425e-05 -0.00023083297128323466 -0.0 -0.0 1 True False
12738.119999999999 4.8023176193237305 -1.2986591917327424 1.8371871153460901 -2.1093322239317835 -1.5708211104022425 3.2315478324890137 0.0 0.00015371502377092838 -2.62771231532591e-26 -0.00012018861889373511 -0.0 -0.0 1 True False
12738.17 4.802347660064697 -1.2987135809711 1.8372319380389612 -2.1092683277525843 -1.5708325544940394 3.2315685749053955 0.0 0.00011974116932833567 -0.0 -8.060413529165089e-05 -0.0 -0.0 1 True False
12738.22 4.802347660064697 -1.2987036269954224 1.8372395674334925 -2.109316965142721 -1.5707925001727503 3.2315478324890137 0.0 7.469769479939714e-05 -0.0 -4.437503775989171e-06 -0.0 -0.0 1 True False
12738.269999999999 4.8022847175598145 -1.2986886364272614 1.8372023741351526 -2.1092363796629847 -1.5708172957049769 3.23152232170105 0.0 7.390692917397246e-05 -0.0 -6.740579283803914e-25 -0.0 -0.0 1 True False
12738.32 4.802350997924805 -1.2986604434302826 1.837219540272848 -2.1092564068236292 -1.5707767645465296 3.2315359115600586 0.0 8.116557728499174e-05 -0.0 -1.0229478789571165e-43 -0.0 -0.0 1 True False
12738.369999999999 4.802280426025391 -1.2986886364272614 1.8372238318072718 -2.1092845402159632 -1.5707529226886194 3.231534242630005 0.0 0.0 -0.0 -0.0 -0.0 -0.0 1 True False
12738.42 4.8023552894592285 -1.2988050741008301 1.8370626608477991 -2.109563489953512 -1.5707772413836878 3.231593132019043 -7.484173057768079e-15 0.00025195354828611016 -0.00021772802574560046 -0.000644912535790354 -1.629428016210237e-16 1.3459863779097248e-10 1 True False
12738.47 4.802301406860352 -1.2988387209228058 1.8370893637286585 -2.1095196209349574 -1.5708048979388636 3.231602191925049 0.0 0.000476123474072665 0.0007799571612849832 -2.1506036534946205e-11 -2.4751040877161746e-35 2.0445566965321062e-29 1 True False
12738.519999999999 4.802338600158691 -1.298769311313965 1.8370221296893519 -2.1094280682005824 -1.5707610289203089 3.2315566539764404 0.0 -0.005599089898169041 -0.005888684187084436 0.027155214920639992 -0.0 0.0 1 True True
12738.57 4.802350997924805 -1.2992007297328492 1.8362019697772425 -2.1065784893431605 -1.5708616415606897 3.231585741043091 0.0 -0.023344602435827255 -0.045644041150808334 0.07445566356182098 -0.000337200122885406 0.0 1 True True
12738.619999999999 4.802350997924805 -1.301623896961548 1.8319948355304163 -2.101103445092672 -1.5708053747760218 3.2315642833709717 0.0 -0.062380384653806686 -0.0990040972828865 0.16407014429569244 -0.00011730118421837687 0.0 1 True True
12738.67 4.802308559417725 -1.3050703269294281 1.8261640707599085 -2.091567178765768 -1.5707643667804163 3.231567621231079 0.0 -0.08490604162216187 -0.1425655633211136 0.20847082138061523 -7.101647497620434e-05 0.0 1 True True
12738.72 4.802347660064697 -1.3097992998412629 1.8178303877459925 -2.0787793598570765 -1.5707643667804163 3.231585741043091 0.0 -0.1034315973520279 -0.1768714189529419 0.290311336517334 -5.092431092634797e-05 0.0 1 True True
12738.769999999999 4.802343368530273 -1.3159148556045075 1.8074148336993616 -2.062446256677145 -1.5708048979388636 3.231534242630005 0.0 -0.13460150361061096 -0.22646360099315643 0.3612862527370453 -2.4223626285091062e-22 0.0 1 True True
12738.82 4.802334308624268 -1.3231161546758194 1.79504901567568 -2.042626520196432 -1.5707967917071741 3.2315685749053955 0.0 -0.15961892902851105 -0.27912843227386475 0.4271789491176605 -3.6795295076241047e-41 0.0 1 True True
12738.869999999999 4.802392482757568 -1.3317058843425293 1.780191723500387 -2.0193363628783167 -1.5708168188678187 3.2315523624420166 0.0 -0.18713422119617462 -0.3248043358325958 0.4926284849643707 -0.0 0.0 1 True True
12738.92 4.802374839782715 -1.3416556280902405 1.7633674780475062 -1.9924293957152308 -1.5708006064044397 3.231585741043091 0.0 -0.20698709785938263 -0.3582381308078766 0.5706942677497864 -0.0 0.0 1 True True
12738.97 4.802371501922607 -1.3514610838941117 1.7463510672198694 -1.9657732448973597 -1.5708296934710901 3.231585741043091 0.0 -0.1826435923576355 -0.3178147077560425 0.4977753162384033 -0.0 0.0 1 True True
12739.019999999999 4.802346706390381 -1.3599534642747422 1.7318490187274378 -1.942554613152975 -1.5708487669574183 3.2315359115600586 0.0 -0.16071343421936035 -0.2760806977748871 0.4311389625072479 -0.0 0.0 1 True True
12739.07 4.802395820617676 -1.3672362726977845 1.7191455999957483 -1.922741552392477 -1.570824925099508 3.231581926345825 0.0 -0.13381609320640564 -0.22760774195194244 0.3537009358406067 -0.0 0.0 1 True True
12739.119999999999 4.802346706390381 -1.373237670665123 1.7089675108539026 -1.9063569507994593 -1.5708048979388636 3.2315404415130615 0.0 -0.10620524734258652 -0.19056452810764313 0.3013315200805664 -0.0 0.0 1 True True
12739.17 4.802371501922607 -1.377942518596985 1.7008240858661097 -1.893609186212057 -1.5708087126361292 3.2315359115600586 0.0 -0.08054814487695694 -0.13808289170265198 0.22944176197052002 -0.0 0.0 1 True True
12739.22 4.802366733551025 -1.3813967418721695 1.694880787526266 -1.884341379205221 -1.5707929770099085 3.23152232170105 0.0 -0.05744853988289833 -0.09425867348909378 0.1477433294057846 -0.0 0.0 1 True True
12739.269999999999 4.802334308624268 -1.38347081959758 1.691197697316305 -1.8784309826292933 -1.5707967917071741 3.2315313816070557 0.0 -0.02895788475871086 -0.053803253918886185 0.07400204241275787 -0.0 0.0 1 True True
12739.32 4.802350997924805 -1.3843078923276444 1.6896474997149866 -1.8761960468687953 -1.5708125273333948 3.2315194606781006 0.0 -0.0012440587161108851 -0.007845619693398476 0.012567324563860893 -0.0 0.0 1 True True
12739.369999999999 4.801143646240234 -1.38435351968322 1.6896846930133265 -1.8761846027769984 -1.5708168188678187 3.230376958847046 -0.055876437574625015 7.004174323865797e-11 1.8785270583521196e-07 0.0004289906064514071 0.00013076562026981264 -0.05766817182302475 1 True True
12739.42 4.796538352966309 -1.3843363386443635 1.6896393934832972 -1.8760410747923792 -1.5707691351519983 3.225672960281372 -0.12893787026405334 0.0 -4.2939431295963004e-05 0.0010447049280628562 4.209460257698083e-06 -0.12334534525871277 1 True True
12739.47 4.7883782386779785 -1.3843664538911362 1.6896875540362757 -1.8761059246458949 -1.57074481645693 3.2174887657165527 -0.19545455276966095 0.0 -7.796785212121904e-05 0.0005018424708396196 6.394177641331658e-25 -0.19304004311561584 1 True True
12739.519999999999 4.776730537414551 -1.3843578112176438 1.6896427313434046 -1.8760973415770472 -1.5707886854754847 3.2059805393218994 -0.26859527826309204 1.8116316274046905e-18 -0.0005028694286011159 0.0001853903231676668 9.668959403841238e-44 -0.26988235116004944 1 True True
12739.57 4.761526107788086 -1.3843412858298798 1.689615551625387 -1.8760739765562953 -1.5707362333880823 3.190791606903076 -0.3329583406448364 0.0 -0.0009135899017564952 0.00012205823441036046 2.502408460713923e-05 -0.3366883397102356 1 True True
12739.619999999999 4.74302339553833 -1.3843175333789368 1.6895845572101038 -1.876077791253561 -1.570829216633932 3.1722428798675537 -0.40815043449401855 0.00011152195656904951 -0.0014335608575493097 0.00016739846614655107 3.801163348269991e-24 -0.4066718518733978 1 True True
12739.67 4.7208027839660645 -1.3842805635980149 1.689483944569723 -1.8760377369322718 -1.570813004170553 3.1499946117401123 -0.47404056787490845 0.0005455269129015505 -0.0008992977673187852 8.790875290287659e-05 5.773349673018246e-43 -0.4699324071407318 1 True True
12739.72 4.695218086242676 -1.3842085313848038 1.6894148031817835 -1.8760415516295375 -1.5708568731891077 3.1244325637817383 -0.5425052642822266 0.001561431330628693 -0.0015719294315204024 0.00017165689496323466 -0.0005670555983670056 -0.5427742600440979 1 True True
12739.769999999999 4.666066646575928 -1.3841887426427384 1.6894014517413538 -1.8760377369322718 -1.5708406607257288 3.095299005508423 -0.6163005828857422 0.0017213214887306094 -0.0017301030457019806 0.00038420938653871417 -0.001530729583464563 -0.6134458780288696 1 True True
12739.82 4.633514404296875 -1.38412460804496 1.68931752840151 -1.8760420284666957 -1.5708335081683558 3.062767744064331 -0.6895723938941956 0.0026535815559327602 -0.0017567983595654368 0.0004523301322478801 -0.0014491659821942449 -0.6851438283920288 1 True True
12739.869999999999 4.597500801086426 -1.3840576869300385 1.6892536322223108 -1.8760420284666957 -1.5707967917071741 3.0266306400299072 -0.7592291235923767 0.0021701946388930082 -0.003094141371548176 0.0005276045412756503 -0.0004366446810308844 -0.7496846914291382 1 True True
12739.92 4.558056831359863 -1.383960799579956 1.689106289540426 -1.8760343990721644 -1.5707967917071741 2.9873106479644775 -0.8302740454673767 0.0018775931093841791 -0.0017824481474235654 0.0002875547215808183 -0.0003655357868410647 -0.8194873929023743 1 True True
12739.97 4.515008449554443 -1.3838895720294495 1.6890438238727015 -1.8759619198241175 -1.5707529226886194 2.9442014694213867 -0.8899986147880554 0.0016855902504175901 -0.0014306583907455206 0.00039802477112971246 0.000983532634563744 -0.9021801352500916 1 True True
12740.019999999999 4.468395233154297 -1.3838221591762085 1.6889360586749476 -1.875929971734518 -1.570813004170553 2.897583246231079 -0.9649278521537781 0.0017445122357457876 -0.0019315177341923118 0.0001994856575038284 0.00015981226169969887 -0.9553322196006775 1 True True
12740.07 4.4183173179626465 -1.383716420536377 1.6888449827777308 -1.8758937321104945 -1.5707610289203089 2.8475570678710938 -1.0284734964370728 0.0016477302415296435 -0.0025563158560544252 0.0004441679921001196 -8.425434430137102e-07 -1.0392513275146484 1 True True
12740.119999999999 4.366109848022461 -1.3836341959289093 1.6887205282794397 -1.8759309254088343 -1.5707929770099085 2.795480251312256 -1.0486533641815186 0.0015046319458633661 -0.0020170165225863457 0.0006144905346445739 -1.2798254993985773e-25 -1.0434173345565796 1 True True
12740.17 4.313724994659424 -1.383458973174431 1.6885817686664026 -1.8758870563902796 -1.5708168188678187 2.7428839206695557 -1.0496158599853516 0.0021499386057257652 -0.002272125333547592 0.0004919561324641109 0.00014322708011604846 -1.047684669494629 1 True True
12740.22 4.261314392089844 -1.3834174883416672 1.6885560194598597 -1.875838419000143 -1.5707925001727503 2.6906585693359375 -1.0428426265716553 0.0009345360449515283 -0.002896179910749197 0.000582612759899348 0.001200247323140502 -1.0573047399520874 1 True True
12740.269999999999 4.208990097045898 -1.3833453816226502 1.6883986631976526 -1.8757950268187464 -1.5708449522601526 2.6383323669433594 -1.0516165494918823 0.002186031313613057 -0.0015589444665238261 0.00036281466600485146 -0.000220427245949395 -1.0428624153137207 1 True True
12740.32 4.156632423400879 -1.3831961315921326 1.688204590474264 -1.8758427105345667 -1.5708492437945765 2.5857439041137695 -1.0476497411727905 0.002536086132749915 -0.002939464058727026 0.00040592000004835427 0.0001283837336814031 -1.040547251701355 1 True True
12740.369999999999 4.104261875152588 -1.3831698459437867 1.688190762196676 -1.8758312664427699 -1.5707648436175745 2.5334887504577637 -1.0438511371612549 0.001321727060712874 -0.002096782671287656 0.0004235725791659206 0.0011168806813657284 -1.0557936429977417 1 True True
12740.42 4.051965713500977 -1.383081541662552 1.6880353132831019 -1.8757630787291468 -1.5707891623126429 2.4812214374542236 -1.0503722429275513 0.0024973172694444656 -0.0017947412561625242 0.0005374628817662597 -0.00043321680277585983 -1.0426477193832397 1 True True
12740.47 3.999610424041748 -1.3829050821116944 1.6879437605487269 -1.8757668934264125 -1.5707925001727503 2.4287266731262207 -1.0499221086502075 0.002233580220490694 -0.0036109620705246925 0.0003576331655494869 -1.2393753558159748e-11 -1.042737603187561 1 True True
12740.519999999999 3.9472575187683105 -1.3829310697368165 1.6878646055804651 -1.8757473431029261 -1.5707972685443323 2.3763985633850098 -1.0440841913223267 0.0016128022689372301 -0.0030738755594938993 0.0010495258029550314 0.0010307863121852279 -1.0567201375961304 1 True True
12740.57 3.894827127456665 -1.3827775430730362 1.6876996199237269 -1.875655313531393 -1.5707925001727503 2.324180841445923 -1.047977328300476 0.001900748466141522 -0.0017520353430882096 0.0004114172188565135 -0.0005255413125269115 -1.045949935913086 1 True True
12740.619999999999 3.842480421066284 -1.3826815646937867 1.6875670591937464 -1.8757034740843714 -1.5707643667804163 2.271601438522339 -1.0524731874465942 0.00210354826413095 -0.0035585383884608746 0.0003189438139088452 0.0002763174707069993 -1.0408891439437866 1 True True
12740.67 3.790086507797241 -1.3825529229692002 1.687484089528219 -1.8756238422789515 -1.570772949849264 2.219226837158203 -1.043152093887329 0.0015729726292192936 -0.00261094537563622 0.0004077448684256524 0.0005513709038496017 -1.0528576374053955 1 True True
12740.72 3.7376739978790283 -1.3824808311513443 1.6873558203326624 -1.8756519756712855 -1.5708211104022425 2.16703200340271 -1.0457781553268433 0.001794774318113923 -0.0016162791289389133 0.00039832768379710615 -0.00031587789999321103 -1.0460432767868042 1 True True
12740.769999999999 3.6853952407836914 -1.38242723167453 1.687249008809225 -1.8756638966002406 -1.5708254019366663 2.114541530609131 -1.050064206123352 0.0022602034732699394 -0.0038836367893964052 0.0002741691714618355 8.944156434154138e-05 -1.0393755435943604 1 True True
12740.82 3.633098840713501 -1.3823336225799103 1.687141243611471 -1.8756042919554652 -1.570784870778219 2.0622568130493164 -1.0434703826904297 0.001262726611457765 -0.002940592123195529 0.001108640688471496 -2.453930755607216e-18 -1.0538053512573242 1 True True
12740.869999999999 3.5807299613952637 -1.3822094810060044 1.6870415846454065 -1.87559237102651 -1.5708006064044397 2.0100293159484863 -1.0494569540023804 0.0018198714824393392 -0.0015865269815549254 0.0004033287113998085 -7.980295777088031e-06 -1.0495936870574951 1 True True
12740.92 3.528364419937134 -1.3820970815471192 1.6868932882892054 -1.8755723438658656 -1.5708087126361292 1.9574722051620483 -1.0492666959762573 0.0026080694515258074 -0.0025440016761422157 0.0004780018934980035 4.792862875446758e-16 -1.0420756340026855 1 True True
12740.97 3.475940227508545 -1.3820249748281022 1.686803166066305 -1.875540395776266 -1.5707767645465296 1.9051252603530884 -1.0439904928207397 0.0015685133403167129 -0.003759867511689663 0.00033426558366045356 7.280369160520143e-35 -1.0505543947219849 1 True True
12741.019999999999 3.4235873222351074 -1.3819627475789567 1.686678711568014 -1.8754846058287562 -1.5707767645465296 1.8528997898101807 -1.0482360124588013 0.0014915826031938195 -0.001613951986655593 0.00033348274882882833 0.0 -1.0512242317199707 1 True True
12741.07 3.3712356090545654 -1.381838546400406 1.6864851156817835 -1.8755089245238246 -1.5708044211017054 1.8004601001739502 -1.0512865781784058 0.0022614465560764074 -0.003381896996870637 0.00042332641896791756 0.0 -1.0428309440612793 1 True True
12741.119999999999 3.3189101219177246 -1.3817329865745087 1.686455551777975 -1.8754412136473597 -1.570853058491842 1.7481385469436646 -1.047047734260559 0.00200496893376112 -0.002591590164229274 0.000372537033399567 -4.657461083468206e-09 -1.0606026649475098 1 True True
12741.17 3.266517400741577 -1.381650061612465 1.6863511244403284 -1.8754693470396937 -1.5707724730121058 1.6957895755767822 -1.0465521812438965 0.0017739920876920223 -0.0012380413245409727 0.0004685880267061293 -5.033497524223416e-15 -1.0460562705993652 1 True True
12741.22 3.2142932415008545 -1.3815213304809113 1.6861990133868616 -1.875465532342428 -1.570813004170553 1.6433402299880981 -1.0530112981796265 0.0019646661821752787 -0.0018812742782756686 0.0005735718295909464 -8.747259860886203e-12 -1.0452992916107178 1 True True
12741.269999999999 3.1618576049804688 -1.3814452302506943 1.686098877583639 -1.875425478021139 -1.5707686583148401 1.5910284519195557 -1.0412732362747192 0.001791663351468742 -0.002594325691461563 0.001256224000826478 -1.4789469560128055e-07 -1.0486711263656616 1 True True
12741.32 3.1113228797912598 -1.3813751202872773 1.685991112385885 -1.8754016361632289 -1.5708373228656214 1.540500283241272 -0.9772132039070129 0.0017171410145238042 -0.0013612491311505437 0.0005771151627413929 -1.1118120584342056e-14 -0.9828514456748962 1 True True
12741.369999999999 3.064228057861328 -1.3812702757171174 1.6858833471881312 -1.8753773174681605 -1.5707686583148401 1.4933781623840332 -0.903531014919281 0.002836726140230894 -0.002498821821063757 0.0002592898963484913 0.0001135439524659887 -0.9047890305519104 1 True True
12741.42 3.0206949710845947 -1.3812345427325745 1.6857636610614222 -1.8753735027708949 -1.5707643667804163 1.449928641319275 -0.8397776484489441 0.0017401967197656631 -0.0016579797957092524 0.00023056272766552866 0.00011690396058838814 -0.8371407389640808 1 True True
12741.47 2.980634927749634 -1.38124072671447 1.6857121626483362 -1.8753491840758265 -1.5707529226886194 1.4099401235580444 -0.764241635799408 0.0010425891960039735 -0.0013398247538134456 0.0003801846760325134 0.00010278751142323017 -0.7713364958763123 1 True True
12741.519999999999 2.944098472595215 -1.3810829681209107 1.6856043974505823 -1.8753544292845667 -1.570829216633932 1.3732621669769287 -0.6953188180923462 0.0010382101172581315 -0.0015922692837193608 0.0006051082164049149 0.0005139540880918503 -0.6990692615509033 1 True True
12741.57 2.9109714031219482 -1.3810339731029053 1.6855319182025355 -1.8753310642638148 -1.5707886854754847 1.340193510055542 -0.6286595463752747 0.0016208195593208075 -0.0024030162021517754 0.0002478754613548517 -1.4038559955159243e-15 -0.6242412328720093 1 True True
12741.619999999999 2.8814024925231934 -1.3809868407300492 1.6855290571795862 -1.8753630123534144 -1.5708254019366663 1.3105976581573486 -0.5612010359764099 0.0008181913290172815 -0.0017273759003728628 0.00023985584266483784 -2.132459710051904e-34 -0.5578497052192688 1 True True
12741.67 2.8553271293640137 -1.3808650535396119 1.6854122320758265 -1.8752900562682093 -1.5707686583148401 1.2845838069915771 -0.48789340257644653 0.0005688233068212867 -0.0009349323227070272 0.0002096799435093999 0.00019931598217226565 -0.4907473623752594 1 True True
12741.72 2.8328888416290283 -1.380898581152298 1.6853845755206507 -1.875298639337057 -1.5707967917071741 1.2620093822479248 -0.41983553767204285 0.0007361348252743483 -0.000325444940244779 0.0002558683918323368 0.0002466659643687308 -0.42085573077201843 1 True True
12741.769999999999 2.813666343688965 -1.3808103662780304 1.6853650251971644 -1.8753348789610804 -1.5708168188678187 1.2427690029144287 -0.3458370864391327 0.0009558489546179771 -0.00043383787851780653 0.0001642963325139135 4.640108436371193e-11 -0.34370723366737366 1 True True
12741.82 2.7980504035949707 -1.380741612320282 1.685296360646383 -1.875282426873678 -1.570801083241598 1.2272241115570068 -0.2786369025707245 0.0008061564294621348 -0.0005334927118383348 0.00012323343253228813 1.5435334014082293e-14 -0.2775782644748688 1 True True
12741.869999999999 2.7858760356903076 -1.3808071178248902 1.6852605978595179 -1.875253816644186 -1.5707891623126429 1.2150025367736816 -0.20679697394371033 0.0005358575726859272 -0.0005973070510663092 9.915402188198641e-05 0.0008987634791992605 -0.20790542662143707 1 True True
12741.92 2.7772693634033203 -1.3807285738042374 1.6852291266070765 -1.8752829037108363 -1.5708087126361292 1.2064472436904907 -0.13877816498279572 0.0002997828123625368 -0.0005574768292717636 8.29647688078694e-05 -7.93976869317703e-05 -0.14077305793762207 1 True True
12741.97 2.772113084793091 -1.3807253551534195 1.685270134602682 -1.8753067455687464 -1.5707967917071741 1.2012654542922974 -0.06980646401643753 0.00023822105140425265 -0.0005142170120961964 9.298155782744288e-05 -3.775613004108891e-05 -0.07478732615709305 1 True True
12742.019999999999 2.770498275756836 -1.3807328802398224 1.6852863470660608 -1.875242372552389 -1.5708168188678187 1.1997015476226807 0.00925601925700903 0.00015289508155547082 -0.00015051632362883538 6.50285801384598e-05 -3.715112688951194e-05 0.004529268946498632 1 True True
12742.07 2.7704923152923584 -1.3798891466907044 1.6861165205584925 -1.8769270382323207 -1.5707967917071741 1.1996285915374756 -0.0008337122853845358 0.025218674913048744 0.0441424623131752 -0.07139291614294052 -0.0002389495202805847 -8.284449722850695e-05 1 True True
12742.119999999999 2.770493984222412 -1.3781541150859375 1.6894553343402308 -1.8824578724303187 -1.570801083241598 1.199643611907959 -0.0008219343144446611 0.05099278688430786 0.09112867712974548 -0.14993241429328918 -8.992601942736655e-05 -0.00015943337348289788 1 True True
12742.17 2.7704098224639893 -1.3748516005328675 1.6954057852374476 -1.8912354908385218 -1.5708168188678187 1.1996285915374756 -0.0005857042269781232 0.07707655429840088 0.13098929822444916 -0.20645515620708466 -7.66282610129565e-05 -0.00019316807447467 1 True True
12742.22 2.770423173904419 -1.370392845278122 1.7031891981707972 -1.9035316906371058 -1.5708211104022425 1.1996524333953857 -0.00010523142555030063 0.10132472962141037 0.17834311723709106 -0.28749457001686096 -8.599464490544051e-05 -0.000170555169461295 1 True True
12742.269999999999 2.770430564880371 -1.364654318695404 1.7131179014789026 -1.9193631611266078 -1.5708006064044397 1.199579119682312 -8.550400525564328e-05 0.1286943107843399 0.22606541216373444 -0.3526694178581238 -6.449464126490057e-05 -0.00016439685714431107 1 True True
12742.32 2.770427703857422 -1.3575450044921418 1.7253621260272425 -1.9386512241759242 -1.570801083241598 1.1996612548828125 -7.124728290364146e-05 0.1546097695827484 0.2656179666519165 -0.42183130979537964 -2.6200734282610938e-05 -0.00011173320672241971 1 True True
12742.369999999999 2.7704248428344727 -1.3490670782378693 1.7399376074420374 -1.9613868198790492 -1.5708168188678187 1.1996285915374756 -5.1043531129835173e-05 0.17870287597179413 0.3088551163673401 -0.48956170678138733 -1.5163308489718474e-05 -9.801815031096339e-05 1 True True
12742.42 2.770432233810425 -1.339410812859871 1.7563932577716272 -1.9876171551146449 -1.5708406607257288 1.199644923210144 0.0 0.20372852683067322 0.3558292090892792 -0.5638524293899536 -1.0669201401469763e-05 -7.578666166851988e-11 1 True True
12742.47 2.7704052925109863 -1.3296055805734177 1.7734764258014124 -2.014965673486227 -1.570772949849264 1.1996241807937622 0.0 0.18459036946296692 0.31876495480537415 -0.5280255079269409 -4.969062317065849e-20 -1.6805975014411167e-11 1 True True
12742.519999999999 2.7704293727874756 -1.3207885187915345 1.7887619177447718 -2.038589139977926 -1.5707686583148401 1.1996164321899414 0.0 0.1660105288028717 0.28103524446487427 -0.4463227391242981 6.713312631495549e-12 -2.5528318021892413e-30 1 True True
12742.57 2.7704203128814697 -1.3133430939963837 1.801323715840475 -2.0589381657042445 -1.5707648436175745 1.1996392011642456 -2.5318781568489976e-27 0.13335750997066498 0.23584109544754028 -0.3712367117404938 1.019753668519131e-30 -0.0 1 True True
12742.619999999999 2.7703826427459717 -1.307169334297516 1.8120062986956995 -2.0755793056883753 -1.5708087126361292 1.1996703147888184 0.0 0.10794370621442795 0.19366206228733063 -0.3039867877960205 0.0 -0.0 1 True True
12742.67 2.770364761352539 -1.3023243111423035 1.8205798308001917 -2.088954587975973 -1.5707891623126429 1.199600100517273 0.0 0.08660048246383667 0.14696240425109863 -0.2283799946308136 0.0 -0.0 1 True True
12742.72 2.7704203128814697 -1.298768238430359 1.8267701307879847 -2.0988594494261683 -1.5708006064044397 1.19959557056427 0.0 0.05937425047159195 0.09529806673526764 -0.15757960081100464 0.0 -0.0 1 True True
12742.769999999999 2.770411252975464 -1.296452359562256 1.8306673208819788 -2.1051680050291957 -1.5707843939410608 1.1996583938598633 0.0 0.034507472068071365 0.05867767333984375 -0.08781525492668152 0.0 -0.0 1 True True
12742.82 2.7704412937164307 -1.2957016688636322 1.8321526686297815 -2.1079632244505824 -1.570881191884176 1.1996405124664307 0.0 0.008791175670921803 0.010947930626571178 -0.01812812127172947 1.533224690319912e-06 -0.0 1 True True
12742.869999999999 2.7704203128814697 -1.2956197720817109 1.832233730946676 -2.108079572717184 -1.5708492437945765 1.1996119022369385 0.0 0.0036562541499733925 0.002490082522854209 -7.063449447741732e-05 -3.42960083798971e-05 -0.0 1 True True
12742.92 2.770423173904419 -1.2955559355071564 1.8322575728045862 -2.1082025967040003 -1.5708449522601526 1.1996285915374756 3.6087495838832417e-13 0.0036368458531796932 0.004355331417173147 -0.000351821567164734 -1.7561525964993052e-05 -0.0 1 True True
12742.97 2.7704458236694336 -1.2948591870120545 1.8333757559405726 -2.107669015923971 -1.570784870778219 1.199615240097046 6.213580491021276e-05 0.002834349637851119 0.004082119558006525 0.0076754130423069 0.0004338329890742898 -0.0 1 True True
12743.019999999999 2.77044415473938 -1.2950599950603028 1.8330257574664515 -2.1079560718932093 -1.5707653204547327 1.199644923210144 1.603745868285895e-31 -0.0008733191643841565 -0.0010724880266934633 -0.00035128372837789357 0.0007847812958061695 -9.259237820913313e-09 1 True False
12743.07 2.7704575061798096 -1.2951329809478302 1.8328278700457972 -2.107983728448385 -1.5707362333880823 1.1996119022369385 4.862505671207115e-43 -0.002855740487575531 -0.003701714798808098 -0.001054926193319261 0.00013117380149196833 -7.187177106970921e-05 1 True False
12743.119999999999 2.770415782928467 -1.2952879232219239 1.832747761403219 -2.10802759746694 -1.570784870778219 1.1996331214904785 9.535038714147959e-08 -0.002910591196268797 -0.0036250187549740076 -0.002201538300141692 3.5446136813969204e-19 -1.091733873474942e-23 1 True False
12743.17 2.7704410552978516 -1.295319841509201 1.8326838652240198 -2.1080476246275843 -1.5707686583148401 1.1996089220046997 0.0 -3.454548666264338e-29 -0.0015468355268239975 -0.0003100668254774064 5.384278593879075e-38 -1.6577360832962586e-42 1 True False
12743.22 2.7704203128814697 -1.2954847377589722 1.832334343587057 -2.1076728306212367 -1.5708168188678187 1.1996285915374756 0.0 -0.018394779413938522 -0.020938320085406303 0.021119797602295876 0.0 -0.0 1 True False
12743.269999999999 2.7704367637634277 -1.296771840458252 1.8302305380450647 -2.1042825184264125 -1.570824925099508 1.1995792388916016 0.0 -0.034273356199264526 -0.06174135580658913 0.10112883895635605 0.0 -0.0 1 True False
12743.32 2.770427703857422 -1.2992438834956666 1.8257134596454065 -2.097335477868551 -1.5707967917071741 1.1996361017227173 0.0 -0.06416228413581848 -0.10920550674200058 0.17117102444171906 -6.372456846293062e-05 7.346122841977998e-12 1 True False
12743.369999999999 2.770382881164551 -1.3030458849719544 1.8190425078021448 -2.086783548394674 -1.5707724730121058 1.199644923210144 0.0 -0.09189619868993759 -0.1557328850030899 0.24938061833381653 -7.788448108669854e-09 1.1158776972073402e-30 1 True False
12743.42 2.7704248428344727 -1.3082900506309052 1.8102391401873987 -2.0729099712767542 -1.5708492437945765 1.1995704174041748 0.0 -0.11300157755613327 -0.19523480534553528 0.3225685656070709 -6.85148625052534e-05 0.0 1 True False
12743.47 2.7704081535339355 -1.3146927219680329 1.7992108503924769 -2.0554219684996546 -1.570784870778219 1.1996331214904785 0.0 -0.13752040266990662 -0.24538491666316986 0.3751097619533539 -0.0001419981272192672 6.938444130355492e-05 1 True False
12743.519999999999 2.7704498767852783 -1.3223389846137543 1.7860496679889124 -2.0345260105528773 -1.5708168188678187 1.1996241807937622 0.0 -0.1679462045431137 -0.2916652262210846 0.4529232978820801 7.349123913591438e-12 4.7381479816976935e-05 1 True False
12743.57 2.7704739570617676 -1.331197128897049 1.7705853621112269 -2.01003422359609 -1.570829216633932 1.1996731758117676 0.0 -0.18956780433654785 -0.326433390378952 0.5244958400726318 1.1163336009363631e-30 2.857486833818257e-05 1 True False
12743.619999999999 2.770439863204956 -1.3414326769164582 1.7530229727374476 -1.9827505550780238 -1.5707486311541956 1.1996119022369385 0.0 -0.19983360171318054 -0.3510810136795044 0.5456710457801819 0.0 2.0456122001633048e-05 1 True False
12743.67 2.770432233810425 -1.3506965053132554 1.7372010389911097 -1.9569055042662562 -1.5708373228656214 1.199644923210144 0.0 -0.17221994698047638 -0.3084883987903595 0.47290998697280884 0.0 1.4964745645672873e-22 1 True False
12743.72 2.770439863204956 -1.358824909930565 1.722891632710592 -1.9348513088622035 -1.5708168188678187 1.1996568441390991 0.0 -0.15044595301151276 -0.25614678859710693 0.41643500328063965 0.0 2.2731863688277183e-41 1 True False
12743.769999999999 2.770432233810425 -1.3657321643880387 1.711250130330221 -1.9161917171873988 -1.5708048979388636 1.199649453163147 0.0 -0.12470438331365585 -0.21444107592105865 0.33529630303382874 0.0 0.0 1 True False
12743.82 2.77044415473938 -1.3713135880282898 1.7016680876361292 -1.9010774097838343 -1.5708087126361292 1.1996732950210571 0.0 -0.09564678370952606 -0.16968664526939392 0.27409082651138306 0.0 0.0 1 True False
12743.869999999999 2.7703664302825928 -1.3755508077195664 1.6941793600665491 -1.889390607873434 -1.570784870778219 1.1996241807937622 0.0 -0.07574670761823654 -0.12363841384649277 0.1892864853143692 0.0 0.0 1 True False
12743.92 2.7703754901885986 -1.3784798246673127 1.688953701649801 -1.8812438450255335 -1.5707886854754847 1.1995822191238403 0.0 -0.04824785515666008 -0.0798673927783966 0.13625262677669525 0.0 0.0 1 True False
12743.97 2.77044415473938 -1.3802792590907593 1.6861193815814417 -1.8765155277647914 -1.5707648436175745 1.1995911598205566 0.0 -0.02161404862999916 -0.03733813017606735 0.06034747138619423 0.0 0.0 1 True False
12744.019999999999 2.7704246044158936 -1.3806653332761307 1.6852691809283655 -1.875413557092184 -1.5708335081683558 1.199600100517273 0.0 1.164586592494743e-05 -0.00037470224197022617 -0.002237805863842368 0.0 0.0 1 False False
12744.07 2.7704365253448486 -1.380665273671486 1.6852811018573206 -1.8754059276976527 -1.5708087126361292 1.1996657848358154 0.0 -0.0002222790353698656 4.844221130016746e-16 0.00015274490579031408 0.0 0.0 1 False False
12744.119999999999 2.7704694271087646 -1.3807023179582139 1.6852853933917444 -1.8753534756102503 -1.5707805792437952 1.1996197700500488 0.0 -0.0006924837944097817 -0.0009659099159762263 0.0003904826007783413 0.0 0.0 1 False False
12744.17 2.770407199859619 -1.3807218980840226 1.6852901617633265 -1.875286718408102 -1.5708091894732874 1.1996910572052002 -1.725127773966051e-08 -0.0014150392962619662 -0.0005649295053444803 0.0013927005929872394 0.0 0.0 1 False False
12744.22 2.7704572677612305 -1.3807218831828614 1.6852572599994105 -1.8752623997130335 -1.5707686583148401 1.1995668411254883 0.0 -0.00021105995983816683 -0.0004434649890754372 0.0005873737391084433 0.0 0.0 1 False False
12744.269999999999 2.7704453468322754 -1.3807099622539063 1.6852167288409632 -1.8752466640868128 -1.5707886854754847 1.1996285915374756 0.0 -6.66076157358475e-05 -0.0003158011822961271 0.00022073934087529778 0.0 0.0 1 False False
12744.32 2.7704246044158936 -1.3807873290828248 1.6852167288409632 -1.8752385578551234 -1.5707648436175745 1.1996772289276123 0.0 -4.9378053518012166e-05 -0.00011472441110527143 0.00011879747762577608 0.0 0.0 1 False False
12744.369999999999 2.770416021347046 -1.3806721729091187 1.6852095762835901 -1.8752223453917445 -1.5708373228656214 1.1996002197265625 0.0 -4.3935811845585704e-05 -7.006614760030061e-05 7.664196164114401e-05 0.0 0.0 1 False False
12744.42 2.770416021347046 -1.3807502102902909 1.6852296034442347 -1.8752504787840785 -1.5707886854754847 1.1996078491210938 0.0 -3.123086571577005e-05 -5.043435521656647e-05 6.687600695443052e-09 0.0 0.0 1 False False
12744.47 2.7704780101776123 -1.3807426554015656 1.685148064290182 -1.8752266369261683 -1.5707767645465296 1.199631929397583 0.0 -0.0 -3.5460293194691294e-33 1.015847734385586e-27 0.0 0.0 1 False False
12744.519999999999 2.7704038619995117 -1.3807373356870194 1.6852052847491663 -1.8752948246397914 -1.5708087126361292 1.199612021446228 0.0 0.0 -0.0 0.0 0.0 0.0 1 False False
12744.57 2.7705183029174805 -1.380737305884697 1.6851795355426233 -1.8752023182311 -1.5707805792437952 1.1996285915374756 0.0 0.0 -0.0 0.0 0.0 0.0 1 False False
12744.619999999999 2.770395040512085 -1.3807056856206437 1.6852052847491663 -1.875270505944723 -1.5707967917071741 1.1996533870697021 0.0 0.0 -0.0 0.0 0.0 0.0 1 False False
12744.67 2.7704203128814697 -1.3807340425303956 1.685192886983053 -1.8752266369261683 -1.570829216633932 1.199620008468628 0.0 0.0 -0.0 0.0 0.0 0.0 1 False False
12744.72 2.770387649536133 -1.3806851220181962 1.6852052847491663 -1.8752309284605921 -1.5708406607257288 1.199620008468628 0.0 0.0 -0.0 0.0 0.0 0.0 1 False False
12744.769999999999 2.7704484462738037 -1.3807796847871323 1.6852377096759241 -1.8752466640868128 -1.5708487669574183 1.1996448040008545 0.0 0.0 -0.0 0.0 0.0 0.0 1 False False
12744.82 2.7704246044158936 -1.3807459634593506 1.6851900259601038 -1.8752066097655238 -1.5707805792437952 1.1996934413909912 0.0 0.0 -0.0 0.0 0.0 0.0 1 False False
12744.869999999999 2.770390748977661 -1.3807385724833985 1.6852248350726526 -1.8752266369261683 -1.5708044211017054 1.1996207237243652 0.0 0.0 -0.0 0.0 0.0 0.0 1 False False
12744.92 2.770427942276001 -1.3807129275849839 1.6851680914508265 -1.8752347431578578 -1.5708168188678187 1.1995958089828491 0.0 0.0 -0.0 2.708597124367884e-09 0.0 0.0 1 False False
12744.97 2.7704527378082275 -1.3807174128345032 1.6852377096759241 -1.8752309284605921 -1.5707605520831507 1.1996207237243652 0.0 0.0 -0.0 4.114364621676938e-28 0.0 0.0 1 True False
12745.019999999999 2.770416021347046 -1.3807129126838227 1.685221020375387 -1.8752581081786097 -1.570829216633932 1.199631929397583 0.0 0.0 -0.0 0.0 0.0 0.0 1 True False
12745.07 2.7704203128814697 -1.3807716083577652 1.6851771513568323 -1.8752504787840785 -1.5707686583148401 1.1996490955352783 0.0 0.0 -0.0 0.0 0.0 -1.0127747295448565e-16 1 True False
12745.119999999999 2.7704038619995117 -1.3807340425303956 1.685221020375387 -1.8752385578551234 -1.570813004170553 1.1996448040008545 0.0 0.0 -3.1410722160216032e-22 0.0 0.0 -1.538407712144996e-35 1 True False
12745.369999999999 2.7704975605010986 -1.3807700288346787 1.6851843039142054 -1.875270505944723 -1.5708211104022425 1.1996405124664307 0.0 0.0 -0.0 -0.0 0.0 -0.0 1 True False
12745.42 2.7704246044158936 -1.380730764274933 1.685253922139303 -1.8752466640868128 -1.5708406607257288 1.199620008468628 0.0 0.0 -0.0 -0.0 0.0 2.0232673501006937e-13 1 True False
12745.47 2.7704484462738037 -1.3808164310506363 1.6852253119098108 -1.8752266369261683 -1.5707767645465296 1.1996243000030518 0.0 0.0 1.4022238564979745e-18 -0.0 5.5416854593204334e-05 0.00033226958476006985 1 True False
12745.519999999999 2.770416021347046 -1.3807414335063477 1.6851843039142054 -1.875282426873678 -1.5707719961749476 1.1996164321899414 0.0 0.0 0.0 -0.0 5.945583660618031e-16 -9.862866079402011e-11 1 True False
12745.57 2.770399332046509 -1.380765513782837 1.6852334181415003 -1.8752948246397914 -1.5707886854754847 1.1995797157287598 0.0 0.0 0.0 -0.0 9.031353517875737e-35 -1.4981714245523857e-29 1 True False
12745.619999999999 2.7706410884857178 -1.38067281365905 1.685159985219137 -1.8753024540343226 -1.5708816687213343 1.1998122930526733 0.022913699969649315 0.0013713069492951035 0.0 -0.0 -0.0011786925606429577 0.022574931383132935 1 True False
12745.67 2.773488759994507 -1.3806067419103165 1.6850460211383265 -1.8752786121764125 -1.570813004170553 1.2028242349624634 0.09222610294818878 0.007031414657831192 -0.012374894693493843 0.0005847694119438529 0.0001790431997505948 0.0908641591668129 1 True False
12745.72 2.780048131942749 -1.3800416153720398 1.684258286152975 -1.8750115833678187 -1.5708044211017054 1.20925772190094 0.16442644596099854 0.01342748198658228 -0.014821379445493221 0.004800126887857914 0.00013235164806246758 0.1628451645374298 1 True False
12745.769999999999 2.7899906635284424 -1.3793442410281678 1.6833456198321741 -1.8748170338072718 -1.5707805792437952 1.2192126512527466 0.23596253991127014 0.016106603667140007 -0.020482202991843224 0.00580717483535409 9.575889998814091e-05 0.23242507874965668 1 True False
12745.82 2.8034818172454834 -1.3784071070006867 1.682007137929098 -1.8744951687254847 -1.5707529226886194 1.2326509952545166 0.3021671175956726 0.02278120443224907 -0.02904806099832058 0.005962959490716457 3.7268372359159426e-16 0.29917919635772705 1 True False
12745.869999999999 2.820331335067749 -1.3770879072001954 1.6804736296283167 -1.8740774593748988 -1.570784870778219 1.249686360359192 0.373329758644104 0.027724405750632286 -0.033824432641267776 0.010992408730089664 -4.656755845644511e-05 0.3681163191795349 1 True False
12745.92 2.8408117294311523 -1.3755569171956559 1.6784680525409144 -1.873648305932516 -1.570784870778219 1.269917368888855 0.4430663287639618 0.032081060111522675 -0.04540037363767624 0.010239635594189167 -1.1095308184658868e-21 0.4430263340473175 1 True False
12745.97 2.864833354949951 -1.3738030058196564 1.6761139074908655 -1.8731476269164027 -1.5708087126361292 1.2939296960830688 0.5084509253501892 0.034213125705718994 -0.04827088490128517 0.012240040116012096 -1.6853837019973872e-40 0.5114799737930298 1 True False
12746.019999999999 2.8920912742614746 -1.3717310738614579 1.6734769980060022 -1.8725272617735804 -1.5708006064044397 1.3212977647781372 0.5829160213470459 0.04285237193107605 -0.05197872966527939 0.012956102378666401 -0.0 0.5774096250534058 1 True False
12746.07 2.922922372817993 -1.3695793908885499 1.6704915205584925 -1.8718115291991175 -1.5708296934710901 1.352268934249878 0.6471285820007324 0.047645919024944305 -0.07010264694690704 0.013377890922129154 6.6356492425256874e-06 0.6473208069801331 1 True False
12746.119999999999 2.9573731422424316 -1.366981105213501 1.6671713034259241 -1.8710600338377894 -1.5709136168109339 1.3865115642547607 0.7187870144844055 0.055922701954841614 -0.06986385583877563 0.014351552352309227 2.621256953716511e-06 0.7209749221801758 1 True False
12746.17 2.9953112602233887 -1.3642043334296723 1.6635435263263147 -1.8701654873290003 -1.5708654562579554 1.4244275093078613 0.7877658009529114 0.05940879136323929 -0.08082269132137299 0.015480605885386467 -0.0005384614341892302 0.7938333749771118 1 True False
12746.22 3.036733388900757 -1.3611726325801392 1.6594904104815882 -1.8692356548705042 -1.5707891623126429 1.465812087059021 0.8635692000389099 0.0609457865357399 -0.07780732959508896 0.021299617365002632 -2.220437167466116e-09 0.8602250218391418 1 True False
12746.269999999999 3.0815370082855225 -1.3578399878791352 1.6552107969867151 -1.868134161035055 -1.5708454290973108 1.510685682296753 0.9321255087852478 0.06753487139940262 -0.09514381736516953 0.021021852269768715 0.00025372198433615267 0.9245645999908447 1 True False
12746.32 3.1298210620880127 -1.3543253999999543 1.650712792073385 -1.86700501064443 -1.5707524458514612 1.5590157508850098 1.0062726736068726 0.07320692390203476 -0.09649881720542908 0.024526799097657204 0.0002853720507118851 1.000112533569336 1 True False
12746.369999999999 3.181504726409912 -1.350532667045929 1.645541016255514 -1.865932127038473 -1.5708487669574183 1.6106852293014526 1.0457878112792969 0.0745844841003418 -0.09706006199121475 0.025055600330233574 7.27009635942897e-17 1.0462620258331299 1 True False
12746.42 3.2337982654571533 -1.3466043335250397 1.6405876318561 -1.8647352657713832 -1.5707491079913538 1.663059115409851 1.051491141319275 0.07382889837026596 -0.1029776930809021 0.021711774170398712 -6.772538641008907e-10 1.0420747995376587 1 True False
12746.47 3.286193370819092 -1.3427644532969971 1.6355226675616663 -1.8634187183775843 -1.570784870778219 1.7153375148773193 1.0477700233459473 0.07834713160991669 -0.10043034702539444 0.02764792926609516 -0.00011329707194818184 1.0499895811080933 1 True False
12746.519999999999 3.33858585357666 -1.339007483129837 1.6303437391864222 -1.8623253307738246 -1.5708048979388636 1.7676165103912354 1.044118881225586 0.07697378098964691 -0.0965457409620285 0.02449757419526577 -1.1162962508569699e-13 1.0470768213272095 1 True False
12746.57 3.3908815383911133 -1.3351568442634125 1.6252535025226038 -1.8611213169493617 -1.5707929770099085 1.8201212882995605 1.0512877702713013 0.07300667464733124 -0.10041218250989914 0.021085547283291817 -1.6956564785329038e-32 1.0439223051071167 1 True False
12746.619999999999 3.443157434463501 -1.3312182587436219 1.6203931013690394 -1.859793325463766 -1.5708048979388636 1.872420072555542 1.0458972454071045 0.07714767009019852 -0.10058314353227615 0.024248218163847923 -0.0 1.0465447902679443 1 True False
12746.67 3.4956421852111816 -1.3274060201695939 1.6154382864581507 -1.8586727581419886 -1.5708006064044397 1.924800157546997 1.0452125072479248 0.07714706659317017 -0.10388419032096863 0.021774601191282272 2.79743780993158e-05 1.0467233657836914 1 True False
12746.72 3.5478968620300293 -1.323610008960106 1.6102460066424769 -1.8575788937010707 -1.570772949849264 1.9772355556488037 1.0504497289657593 0.07793626189231873 -0.09958626329898834 0.02328067272901535 4.2493172006783106e-24 1.048154354095459 1 True False
12746.769999999999 3.600255012512207 -1.319711909895279 1.6051848570453089 -1.85630526165151 -1.5707691351519983 2.029482126235962 1.0495660305023193 0.07473859935998917 -0.1041974425315857 0.02380051277577877 6.459985920537407e-43 1.052224040031433 1 True False
12746.82 3.652656078338623 -1.315695659523346 1.600189510975973 -1.855133672753805 -1.570829216633932 2.081751585006714 1.0433884859085083 0.07661543786525726 -0.09898772835731506 0.022514130920171738 0.0 1.0489132404327393 1 True False
12746.869999999999 3.7050468921661377 -1.3120119732669373 1.5950663725482386 -1.8539377651610316 -1.570784870778219 2.1343183517456055 1.0497667789459229 0.07703297585248947 -0.09887754172086716 0.0263688862323761 0.0 1.0421990156173706 1 True False
12746.92 3.7573952674865723 -1.3081542712501069 1.5900710264789026 -1.8527413807311 -1.570784870778219 2.1865861415863037 1.0485254526138306 0.07233096659183502 -0.09746412932872772 0.025652790442109108 0.0 1.0435761213302612 1 True False
12746.97 3.809776782989502 -1.3043174308589478 1.585015122090475 -1.8516003094115199 -1.570813004170553 2.23896861076355 1.0441253185272217 0.07669276744127274 -0.10164821147918701 0.021735068410634995 0.0 1.0482913255691528 1 True False
12747.019999999999 3.8620898723602295 -1.300367222433426 1.5800240675555628 -1.8503314457335414 -1.5707491079913538 2.2913990020751953 1.0502021312713623 0.08076798170804977 -0.1012296974658966 0.022487210109829903 0.0 1.044387936592102 1 True False
12747.07 3.914384603500366 -1.2966850262931366 1.5750182310687464 -1.8491541347899378 -1.5708487669574183 2.343675136566162 1.0530874729156494 0.07672717422246933 -0.09863356500864029 0.030180595815181732 -6.787951861042529e-06 1.0522533655166626 1 True False
12747.119999999999 3.9667539596557617 -1.2927760642817994 1.5697978178607386 -1.848013540307516 -1.5707805792437952 2.3959767818450928 1.041581392288208 0.07906515896320343 -0.1001039519906044 0.02458520047366619 7.911579835706561e-09 1.047617793083191 1 True False
12747.17 4.019197940826416 -1.2888957423022767 1.564808193837301 -1.846633096734518 -1.5708330313311976 2.4484574794769287 1.0463346242904663 0.07735726237297058 -0.10429215431213379 0.021021755412220955 6.785912410123274e-05 1.041300892829895 1 True False
12747.22 4.0715250968933105 -1.2849522095969697 1.5598519484149378 -1.8454443416991175 -1.570784870778219 2.5008153915405273 1.0502815246582031 0.07854843139648438 -0.10318192094564438 0.02376531809568405 6.478268615994764e-11 1.0478050708770752 1 True False
12747.269999999999 4.1239824295043945 -1.2811493438533326 1.5547526518451136 -1.8444153271117152 -1.570813004170553 2.553079605102539 1.042108178138733 0.07626968622207642 -0.10010739415884018 0.023046057671308517 -0.00015525084745604545 1.0496845245361328 1 True False
12747.32 4.176283359527588 -1.2773330968669434 1.549676243458883 -1.8431993923582972 -1.5707686583148401 2.6055266857147217 1.0492056608200073 0.07569822669029236 -0.10536743700504303 0.021984005346894264 0.00041949155274778605 1.043748140335083 1 True False
12747.369999999999 4.228604316711426 -1.2734342974475403 1.5447638670550745 -1.8418947658934535 -1.570784870778219 2.6578617095947266 1.0505210161209106 0.07611244171857834 -0.10490285605192184 0.023175541311502457 0.000906724133528769 1.0491924285888672 1 True False
12747.42 4.281022548675537 -1.2696471971324463 1.5396540800677698 -1.8407613239684046 -1.5708125273333948 2.7101051807403564 1.0456719398498535 0.08045709878206253 -0.09954345226287842 0.025088034570217133 1.9557460291252937e-06 1.0521981716156006 1 True False
12747.47 4.333294868469238 -1.265870825653412 1.534461800252096 -1.8395849666991175 -1.5707886854754847 2.7626073360443115 1.048922061920166 0.07611596584320068 -0.09595128893852234 0.023551514372229576 0.00015518160944338888 1.0415475368499756 1 True False
12747.519999999999 4.38566255569458 -1.2619019609740754 1.5294364134417933 -1.838320871392721 -1.5707572142230433 2.814969062805176 1.054897427558899 0.0739808976650238 -0.10253024101257324 0.02289407141506672 4.836042233336002e-09 1.0526082515716553 1 True False
12747.57 4.437244892120361 -1.258070932035782 1.5247028509723108 -1.8371721706786097 -1.5707925001727503 2.8662784099578857 0.9895779490470886 0.07576383650302887 -0.09822830557823181 0.022769007831811905 -0.0009526971261948347 0.9979477524757385 1 True False
12747.619999999999 4.485283374786377 -1.2545932096293946 1.5199139753924769 -1.8361150226988734 -1.5708087126361292 2.9145328998565674 0.9301103353500366 0.06949379295110703 -0.08679860085248947 0.023868130519986153 -2.495973383531691e-08 0.9311651587486267 1 True False
12747.67 4.52979040145874 -1.2513106924346467 1.5156176725970667 -1.83514465908193 -1.5708335081683558 2.9588284492492676 0.8580468893051147 0.05966581031680107 -0.08788672834634781 0.018921148031949997 -0.0004240351263433695 0.8610716462135315 1 True False
12747.72 4.570831298828125 -1.24826271951709 1.5117805639850062 -1.8341394863524378 -1.5707405249225062 3.0001111030578613 0.7896746397018433 0.05843646079301834 -0.07898781448602676 0.01674511842429638 -0.00012611239799298346 0.7930498719215393 1 True False
12747.769999999999 4.608603000640869 -1.2455722254565735 1.507960621510641 -1.8332721195616664 -1.570824925099508 3.0377886295318604 0.7201370596885681 0.05280913785099983 -0.06491273641586304 0.01945076324045658 -4.08260509565351e-23 0.7198500633239746 1 True False
12747.82 4.642582893371582 -1.2430196863463898 1.5047581831561487 -1.832449575463766 -1.5708211104022425 3.071904420852661 0.6495228409767151 0.04497801885008812 -0.0710998922586441 0.01061373669654131 -6.20214700310164e-42 0.645903468132019 1 True False
12747.869999999999 4.673192024230957 -1.2407249969295044 1.501733128224508 -1.8318053684630335 -1.5708487669574183 3.102475881576538 0.5776565074920654 0.044952377676963806 -0.05403757467865944 0.012634595856070518 -0.0 0.5778447985649109 1 True False
12747.92 4.7003960609436035 -1.2388292414001008 1.4992030302630823 -1.831205507318014 -1.570756737385885 3.129664182662964 0.5066030621528625 0.03596532717347145 -0.04955556243658066 0.009372531436383724 -1.715578329083197e-14 0.5033192038536072 1 True False
12747.97 4.724105358123779 -1.2370314461043854 1.496882740651266 -1.8306518993773402 -1.5707686583148401 3.1532087326049805 0.4401828348636627 0.032045964151620865 -0.042378392070531845 0.01001366414129734 0.0009087607613764703 0.44234681129455566 1 True False
12748.019999999999 4.744168758392334 -1.2355464559844513 1.494972054158346 -1.8301707706847132 -1.5707967917071741 3.173280715942383 0.370620995759964 0.026633109897375107 -0.03667467087507248 0.009357509203255177 -0.0001429663534509018 0.374353289604187 1 True False
12748.07 4.760687351226807 -1.2343150538257142 1.4934094587909144 -1.8298694096007289 -1.5707925001727503 3.190107583999634 0.30052730441093445 0.02284703217446804 -0.02800564281642437 0.006515868939459324 2.072351357185198e-08 0.2990884780883789 1 True False
12748.119999999999 4.7740325927734375 -1.2333389979651947 1.492121998463766 -1.829555173913473 -1.5707967917071741 3.2031497955322266 0.225500226020813 0.01675749011337757 -0.023480169475078583 0.007961217314004898 3.1479059162677045e-27 0.2335226982831955 1 True False
12748.17 4.783705711364746 -1.23268215477977 1.4910996595965784 -1.8293453655638636 -1.570801083241598 3.212834358215332 0.15904368460178375 0.01263679563999176 -0.017444821074604988 0.0017049680463969707 0.0 0.1587214320898056 1 True False
12748.22 4.789840221405029 -1.2322282058051606 1.4905379454242151 -1.8292256794371546 -1.5707967917071741 3.219062328338623 0.09371016919612885 0.00523696094751358 -0.0059250351041555405 0.0029806937091052532 0.0 0.08930544555187225 1 True False
12748.269999999999 4.792562484741211 -1.2320922178081055 1.4903705755816858 -1.8290983639159144 -1.5707767645465296 3.2218210697174072 0.02154560759663582 0.0009359301766380668 -0.0009229275165125728 0.0005457542138174176 0.0 0.020177163183689117 1 True False
12748.32 4.792592525482178 -1.231591061954834 1.4907754103290003 -1.8298694096007289 -1.5707843939410608 3.2219293117523193 0.00023713822884019464 0.020840616896748543 0.031822122633457184 -0.04585888236761093 -2.2331376385409385e-05 6.826204480603337e-05 1 True False
12748.369999999999 4.792641639709473 -1.2301330429366608 1.4935224691974085 -1.8343349895873011 -1.5707925001727503 3.2219033241271973 0.00010871898120967671 0.03853612765669823 0.0784427598118782 -0.1287122666835785 -8.766608715366207e-23 0.0004111117741558701 1 True False
12748.42 4.792644023895264 -1.2276335817626496 1.4986947218524378 -1.8420921764769496 -1.5707686583148401 3.221935749053955 0.0004738687421195209 0.06508158892393112 0.1350356638431549 -0.1917456090450287 -1.3316539306478737e-41 0.00037728523602709174 1 True False
12748.47 4.792688369750977 -1.2237763863852997 1.5063241163836878 -1.8532687626280726 -1.5707805792437952 3.2219152450561523 0.00024632830172777176 0.08866323530673981 0.1735362857580185 -0.2525665760040283 6.396533717634156e-05 0.00017519877292215824 1 True False
12748.519999999999 4.792651653289795 -1.218798117046692 1.5161708037005823 -1.8680421314635218 -1.5707891623126429 3.2219433784484863 0.00014566686877515167 0.10896851867437363 0.2132384032011032 -0.32148444652557373 1.0298432329136631e-08 0.0001181656334665604 1 True False
12748.57 4.792748928070068 -1.2125835579684754 1.528222386037008 -1.8863231144347132 -1.570784870778219 3.2218778133392334 0.00014345126692205667 0.13410674035549164 0.2709618806838989 -0.40156155824661255 1.5643340936196046e-27 9.630118036341173e-09 1 True False
12748.619999999999 4.7926926612854 -1.2053921085647126 1.5427854696856897 -1.9081412754454554 -1.5708492437945765 3.2219390869140625 0.0001005691519821994 0.1601327806711197 0.3118780851364136 -0.46257284283638 0.0 1.4628170743964896e-27 1 True False
12748.67 4.792707920074463 -1.1968076986125489 1.5592334906207483 -1.9332848987975062 -1.5707724730121058 3.2218778133392334 8.21512658149004e-05 0.17851434648036957 0.3528743088245392 -0.5413855910301208 0.0 0.0 1 True False
12748.72 4.792708873748779 -1.1877574485591431 1.5770109335528772 -1.9594837627806605 -1.5707724730121058 3.2219271659851074 1.378329598859232e-15 0.16942563652992249 0.3268354535102844 -0.5094427466392517 1.4101528904575389e-06 0.0 1 True False
12748.769999999999 4.79268741607666 -1.1802106362632294 1.59192401567568 -1.9826551876463832 -1.570784870778219 3.221919536590576 8.636787970317528e-05 0.14411376416683197 0.28600427508354187 -0.42558443546295166 2.1420248308257236e-25 0.0 1 True False
12748.82 4.792724132537842 -1.1735682946494599 1.6050570646869105 -2.002298494378561 -1.5708044211017054 3.2219185829162598 5.398753273766488e-05 0.12016560137271881 0.23407651484012604 -0.36413687467575073 3.2229864679470793e-44 0.0 1 True False
12748.869999999999 4.792761325836182 -1.1682217878154297 1.6154549757586878 -2.0183798275389613 -1.5707686583148401 3.221956491470337 3.873300897794252e-07 0.09992727637290955 0.1886216104030609 -0.2817499041557312 0.0 0.0 1 True False
12748.92 4.792707920074463 -1.163857952957489 1.6238411108600062 -2.0308710537352503 -1.5707724730121058 3.2219314575195312 0.0 0.07198593765497208 0.1461757868528366 -0.22011509537696838 0.0 0.0 1 True False
12748.97 4.792707920074463 -1.1607734125903626 1.629911247883932 -2.039868017236227 -1.5708254019366663 3.221858501434326 0.0 0.05131639167666435 0.103573277592659 -0.1443621814250946 0.0 0.0 1 True False
12749.019999999999 4.792806625366211 -1.1588981014541169 1.6336515585528772 -2.045519014398092 -1.5707805792437952 3.2219433784484863 0.0 0.02303343079984188 0.04785905033349991 -0.07720848172903061 0.0 -7.74610237064266e-12 1 True False
12749.07 4.7927327156066895 -1.1582223933986207 1.6351130644427698 -2.047708650628561 -1.5708254019366663 3.2219595909118652 0.0 0.0007707411423325539 0.003605379955843091 -0.009599655866622925 0.0 -1.1766345803425851e-30 1 True False
12749.119999999999 4.7927446365356445 -1.1582624179175873 1.6351020971881312 -2.0477005443968714 -1.5708211104022425 3.221919536590576 0.0 -2.62322636223529e-16 -2.0444225867777277e-08 -8.667346264701337e-06 0.0 -3.634543827502057e-05 1 True False
12749.17 4.792691707611084 -1.1581889551929017 1.635068718587057 -2.047612806359762 -1.5708211104022425 3.2219109535217285 1.8486773372719582e-32 -4.987548951450186e-15 0.00010772163659567013 -1.316572168781776e-24 0.0 -6.171323184389621e-05 1 True False
12749.22 4.792707920074463 -1.1582007271102448 1.635040585194723 -2.0476285419859828 -1.5707805792437952 3.221919536590576 0.0 0.00011665558122331277 4.3072377593489364e-05 -2.0038568039844884e-43 0.0 -3.322754491819069e-05 1 True False
12749.269999999999 4.792719841003418 -1.1581797760776062 1.635024372731344 -2.0477329693236292 -1.5707724730121058 3.221968173980713 0.0 0.000202006078325212 0.00015247089322656393 -0.0 0.0 -2.2734995582140982e-05 1 True False
12749.32 4.79268741607666 -1.158222423200943 1.6350491682635706 -2.0476280651488246 -1.5708449522601526 3.221972703933716 -3.0294128009700216e-05 0.00020526909793261439 0.00017353010480292141 -0.0 0.0 -8.888918331999502e-16 1 True False
12749.369999999999 4.792695999145508 -1.1581725639155884 1.6351097265826624 -2.0476204357542933 -1.5707843939410608 3.221951961517334 0.0 0.0001584196143085137 0.00014135855599306524 -0.0 0.0 -1.3502284866240252e-34 1 True False
12749.42 4.792712211608887 -1.1581322115710755 1.6350482145892542 -2.047664304772848 -1.5708087126361292 3.2218821048736572 0.0 0.0001111978490371257 9.617157775210217e-05 -0.0 0.0 -0.0 1 True False
12749.47 4.792725086212158 -1.1581859451583405 1.6351140181170862 -2.047664304772848 -1.570829216633932 3.2219109535217285 -2.2757921113480995e-36 8.63865134306252e-05 7.763411849737167e-05 -0.0 0.0 -0.0 1 True False
12749.519999999999 4.792700290679932 -1.158123330479004 1.635052506123678 -2.0476843319334925 -1.5707767645465296 3.221951961517334 0.0 7.199240644695237e-05 1.5041692085001217e-23 -0.0 0.0 -0.0 1 True False
12749.57 4.7927165031433105 -1.1581650835326691 1.6350935141192835 -2.047664304772848 -1.5707843939410608 3.2219109535217285 0.0 0.0 0.0 -1.611210470597868e-11 0.0 -0.0 1 True False
12749.619999999999 4.792712211608887 -1.1582113069346924 1.6351173559771937 -2.047591825524801 -1.570772949849264 3.221890449523926 0.0 0.0 0.0 -2.4474322767171117e-30 0.0 -0.0 1 True False
12749.869999999999 4.792721271514893 -1.1595646899989625 1.6321762243853968 -2.042912622491354 -1.5707686583148401 3.2219748497009277 -2.0038568039844884e-42 -0.044329747557640076 -0.08327484130859375 0.10948026180267334 -6.427252916541129e-17 -7.375400421873911e-18 1 True True
12749.92 4.792758464813232 -1.1622488659671326 1.627012077962057 -2.0353218517699183 -1.5707805792437952 3.221919536590576 0.0 -0.0639292374253273 -0.12406221032142639 0.1807461380958557 -9.76301509486533e-36 -9.849564635649634e-18 1 True True
12749.97 4.792752742767334 -1.16604299963031 1.6195357481585901 -2.024344583550924 -1.5708168188678187 3.2218821048736572 0.0 -0.08424441516399384 -0.1724541187286377 0.2663915157318115 -0.0 -1.4961507206583576e-36 1 True True
12750.019999999999 4.792679309844971 -1.1708719593337555 1.6099866072284144 -2.009897371331686 -1.570772949849264 3.221890926361084 0.0 -0.11101647466421127 -0.21459592878818512 0.32591360807418823 -1.642008768997739e-20 -0.0 1 True True
12750.07 4.792651176452637 -1.1770211321166535 1.5980661551104944 -1.9917389355101527 -1.570784870778219 3.221890449523926 0.0 -0.13181406259536743 -0.25923532247543335 0.38389208912849426 -1.784532105375547e-05 -0.0 1 True True
12750.119999999999 4.792712211608887 -1.1842902165702363 1.583761994038717 -1.9703237018980921 -1.5707891623126429 3.22194766998291 0.0 -0.155315563082695 -0.3069692552089691 0.46908271312713623 -1.9171385941436914e-13 -3.4513898299337598e-06 1 True True
12750.17 4.792675018310547 -1.192756013279297 1.5671947638141077 -1.9452649555602015 -1.5707767645465296 3.2219228744506836 0.0 -0.17967212200164795 -0.35134053230285645 0.5283711552619934 -2.912137966379663e-32 6.529975074290714e-20 1 True True
12750.22 4.792782306671143 -1.2017305952361603 1.5496662298785608 -1.9187280140318812 -1.5707891623126429 3.2219271659851074 0.0 -0.1649531126022339 -0.33161798119544983 0.5142434239387512 -0.0 9.919044936873895e-39 1 True True
12750.269999999999 4.792703151702881 -1.2095152002624054 1.5342524687396448 -1.8954712353148402 -1.5707805792437952 3.2219228744506836 0.0 -0.15159817039966583 -0.28246110677719116 0.42074188590049744 -0.0 0.0 1 True True
12750.32 4.792733192443848 -1.2162111562541504 1.5212748686419886 -1.8757077656187953 -1.5708406607257288 3.2219033241271973 0.0 -0.11992412060499191 -0.23787307739257812 0.3603670597076416 -0.0 0.0 1 True True
12750.369999999999 4.792733192443848 -1.2217521232417603 1.510402027760641 -1.8594166241087855 -1.570784870778219 3.2219152450561523 0.0 -0.09870497137308121 -0.19545115530490875 0.30352523922920227 -0.0 0.0 1 True True
12750.42 4.792670249938965 -1.2260226172259827 1.5018795172320765 -1.846696516076559 -1.5707886854754847 3.2218947410583496 0.0 -0.0751153901219368 -0.1480458676815033 0.22295553982257843 -0.0 0.0 1 True True
12750.47 4.792721271514893 -1.2291003328612824 1.4958165327655237 -1.837186952630514 -1.5707486311541956 3.2219271659851074 0.0 -0.050821274518966675 -0.10380987823009491 0.1575014442205429 -0.0 0.0 1 True True
12750.519999999999 4.792691230773926 -1.2311795812896271 1.491998020802633 -1.8313790760436 -1.5708044211017054 3.2218778133392334 0.0 -0.029678672552108765 -0.05500461906194687 0.08892747014760971 -0.0 0.0 1 True True
12750.57 4.792707920074463 -1.231919841175415 1.4903462568866175 -1.8291813335814417 -1.5707886854754847 3.2218658924102783 0.0 -0.0028835029806941748 -0.011623810045421124 0.012814068235456944 -0.0 0.0 1 True True
12750.619999999999 4.791558265686035 -1.2319482129863282 1.4903691450702112 -1.8291098080077113 -1.5707772413836878 3.2206997871398926 -0.05675356835126877 -0.006337597034871578 0.0022249429021030664 0.00032876827754080296 7.337707211263478e-05 -0.057564571499824524 1 True True
12750.67 4.7870073318481445 -1.232403115635254 1.4908555189715784 -1.829209943810934 -1.5707891623126429 3.2160727977752686 -0.12897789478302002 -0.010729693807661533 0.012602007947862148 7.39808237995021e-05 1.5640964912133626e-10 -0.12411625683307648 1 True True
12750.72 4.7787089347839355 -1.2330966752818604 1.4915126005755823 -1.829268594781393 -1.5707805792437952 3.207988977432251 -0.19615225493907928 -0.01438871119171381 0.021625371649861336 -0.0046872361563146114 2.3758658484582588e-29 -0.20188571512699127 1 True True
12750.769999999999 4.767005920410156 -1.2338492733291169 1.4926350752459925 -1.829658647576803 -1.5707891623126429 3.1962761878967285 -0.26421359181404114 -0.019276048988103867 0.02446253038942814 -0.007875064387917519 -8.65749316290021e-05 -0.2687931954860687 1 True True
12750.82 4.751901626586914 -1.2348731619170685 1.49408466020693 -1.8300243816771449 -1.5707805792437952 3.1810762882232666 -0.3344523012638092 -0.024368075653910637 0.032513607293367386 -0.007935766130685806 -8.96259443834424e-05 -0.3330962359905243 1 True True
12750.869999999999 4.733254909515381 -1.2363249522498627 1.4958613554583948 -1.8304058514037074 -1.5708044211017054 3.1624755859375 -0.40534278750419617 -0.0283444095402956 0.041205037385225296 -0.008134803734719753 -0.00010487402323633432 -0.40453609824180603 1 True True
12750.92 4.711287975311279 -1.2378775042346497 1.4980905691729944 -1.8309351406493128 -1.5708492437945765 3.1405277252197266 -0.4779255986213684 -0.03569221496582031 0.04680607095360756 -0.010666492395102978 -4.788772275787778e-05 -0.48443958163261414 1 True True
12751.17 4.548354148864746 -1.249770240192749 1.5137341658221644 -1.8346759281554164 -1.5707805792437952 2.977619171142578 -0.8219316601753235 -0.060539282858371735 0.07961966097354889 -0.01635204814374447 7.193769124569371e-05 -0.8299471139907837 1 True True
12751.22 4.505352973937988 -1.2529632610133667 1.5177176634417933 -1.835642477075094 -1.5707805792437952 2.9344425201416016 -0.8936951756477356 -0.06512630730867386 0.08821506053209305 -0.020931649953126907 0.0006639607599936426 -0.8950274586677551 1 True True
12751.269999999999 4.458767414093018 -1.2562785309604187 1.5222752729998987 -1.8367239437498988 -1.5707724730121058 2.8881189823150635 -0.967144787311554 -0.07017044723033905 0.09417498111724854 -0.02188606560230255 -0.00012369794421829283 -0.9671295285224915 1 True True
12751.32 4.408717632293701 -1.259910063152649 1.5270336310016077 -1.8379246197142542 -1.570801083241598 2.8378286361694336 -1.0347883701324463 -0.0753675252199173 0.10217390954494476 -0.025553744286298752 -1.1100171476430276e-10 -1.0301398038864136 1 True True
12751.369999999999 4.356507301330566 -1.2637797159007569 1.5319870154010218 -1.839116712609762 -1.570784870778219 2.7856767177581787 -1.0455882549285889 -0.07991292327642441 0.10212916135787964 -0.024045879021286964 0.0017276760190725327 -1.060179352760315 1 True True
12751.42 4.3040771484375 -1.2675121289542695 1.5371854940997522 -1.8403693638243617 -1.570829216633932 2.733395576477051 -1.0491809844970703 -0.07680697739124298 0.10062820464372635 -0.02836604416370392 -0.00011625506158452481 -1.0427558422088623 1 True True
12751.47 4.2517409324646 -1.27142687261615 1.542264763508932 -1.841534277001852 -1.5707481543170374 2.6808505058288574 -1.0469257831573486 -0.07392609119415283 0.0991194099187851 -0.021160196512937546 -3.207549156836187e-11 -1.0500776767730713 1 True True
12751.519999999999 4.199295520782471 -1.2753063601306458 1.5470932165728968 -1.8427945576109828 -1.5707772413836878 2.6286211013793945 -1.0458528995513916 -0.07818741351366043 0.1013467088341713 -0.023520294576883316 0.00167631555814296 -1.054214358329773 1 True True
12751.57 4.146912574768066 -1.2790138882449646 1.5521181265460413 -1.8439671001830042 -1.570853058491842 2.5763614177703857 -1.0479707717895508 -0.07424276322126389 0.10332989692687988 -0.02443300373852253 -0.0013213675701990724 -1.04681396484375 1 True True
12751.619999999999 4.094636917114258 -1.282758579855301 1.5571978727923792 -1.8450280628600062 -1.5707605520831507 2.523775577545166 -1.0476475954055786 -0.07222983241081238 0.09773419052362442 -0.023395460098981857 6.236187346075894e-06 -1.0416197776794434 1 True True
12751.67 4.042277812957764 -1.2866302293590088 1.5621359984027308 -1.846384187737936 -1.570756737385885 2.471466064453125 -1.0445997714996338 -0.07764613628387451 0.1038953885436058 -0.02338048256933689 0.0012453461531549692 -1.0548350811004639 1 True True
