Andreas691667/Digital_Twin_UR/src/robot_connection_manager/robot_output/E3_robot_output.csv
timestamp actual_q_0 actual_q_1 actual_q_2 actual_q_3 actual_q_4 actual_q_5 actual_qd_0 actual_qd_1 actual_qd_2 actual_qd_3 actual_qd_4 actual_qd_5 safety_status output_bit_register_65 output_bit_register_66
2984.662 3.712062358856201 -0.825491265659668 0.8429845015155237 -1.5882374248900355 -1.570813004170553 2.1412105560302734 0.0 0.0 0.0 -0.0 -0.0 0.0 1 False False
2984.712 3.7120816707611084 -0.8255479496768494 0.842989746724264 -1.5883251629271449 -1.5708091894732874 2.141279697418213 0.0 0.0 0.0 -0.0 -0.0 0.0 1 False False
2984.7619999999997 3.7120862007141113 -0.8255112928203125 0.8429845015155237 -1.5883094273009242 -1.570801083241598 2.141295909881592 0.0 0.0 0.0 -0.0 -0.0 0.0 1 False False
2984.812 3.7120742797851562 -0.8254869741252442 0.8429845015155237 -1.588212629357809 -1.570801083241598 2.141270875930786 0.0 0.0 0.0 -0.0 -0.0 0.0 1 False False
2984.862 3.712062358856201 -0.8254739803126832 0.8429887930499476 -1.588280817071432 -1.5707524458514612 2.141329050064087 0.0 0.0 0.0 -0.0 -0.0 0.0 1 False False
2984.912 3.712078809738159 -0.8254546088031312 0.8430336157428187 -1.5882774792113246 -1.570801083241598 2.141308546066284 0.0 0.0 0.0 -0.0 -0.0 0.0 1 False False
2984.962 3.7120862007141113 -0.8254739803126832 0.8429802099810999 -1.5882612667479457 -1.5707605520831507 2.141267776489258 0.0 0.0 0.0 -0.0 -0.0 0.0 1 False False
2985.0119999999997 3.7120742797851562 -0.825438455944397 0.8429563681231897 -1.5882650814452113 -1.5707805792437952 2.1412546634674072 0.0 0.0 0.0 -0.0 -0.0 0.0 1 False False
2985.062 3.7120609283447266 -0.8255038422397156 0.8429802099810999 -1.5882650814452113 -1.5708449522601526 2.141329050064087 0.0 0.0 0.0 -0.0 -0.0 0.0 1 False False
2985.112 3.712062358856201 -0.8254546088031312 0.8429678122149866 -1.588269372979635 -1.570784870778219 2.1412546634674072 0.0 0.0 0.0 -0.0 -0.0 0.0 1 False False
2985.162 3.712045669555664 -0.8255436581424256 0.8429930845843714 -1.5882650814452113 -1.570756737385885 2.1413462162017822 0.0 0.0 0.0 -0.0 -0.0 0.0 1 False False
2985.212 3.712062358856201 -0.8255394262126465 0.8429887930499476 -1.5882731876769007 -1.5707967917071741 2.1412665843963623 0.0 0.0 0.0 -0.0 -0.0 0.0 1 False False
2985.2619999999997 3.712066888809204 -0.8254739803126832 0.8429678122149866 -1.588353773156637 -1.570784870778219 2.1412785053253174 0.0 0.0 0.0 -0.0 -0.0 0.0 1 False False
2985.312 3.7121026515960693 -0.8254740399173279 0.842992130910055 -1.5882569752135218 -1.570829216633932 2.1412839889526367 0.0 0.0 0.0 -0.0 -0.0 0.0 1 False False
2985.362 3.712050199508667 -0.8254546088031312 0.8429353872882288 -1.5882727108397425 -1.5707767645465296 2.141251564025879 0.0 0.0 0.0 -0.0 -0.0 0.0 1 False False
2985.412 3.712050199508667 -0.8254416745952149 0.8430007139789026 -1.5883094273009242 -1.5708335081683558 2.141267776489258 0.0 0.0 0.0 -0.0 -0.0 0.0 1 False False
2985.462 3.712029457092285 -0.825478271847107 0.8429845015155237 -1.5882774792113246 -1.5707443396197718 2.141329050064087 0.0 0.0 0.0 -0.0 -0.0 0.0 1 False False
2985.5119999999997 3.712062358856201 -0.8255284589580079 0.8429635206805628 -1.588273664514059 -1.5707724730121058 2.1412839889526367 0.0 0.0 0.0 -0.0 -0.0 0.0 1 False False
2985.562 3.712083101272583 -0.8255080741694947 0.8429845015155237 -1.5882569752135218 -1.5707524458514612 2.141247272491455 0.0 0.0 0.0 -0.0 -0.0 0.0 1 False False
2985.612 3.7120697498321533 -0.8255274456790467 0.8430007139789026 -1.588280817071432 -1.5708211104022425 2.1412341594696045 0.0 0.0 0.0 -0.0 -0.0 0.0 1 False False
2985.662 3.712099313735962 -0.8254340452006836 0.8430007139789026 -1.5883127651610316 -1.5707486311541956 2.141251564025879 0.0 0.0 0.0 -0.0 -0.0 0.0 1 False False
2985.712 3.7120699882507324 -0.8254493039897461 0.8430007139789026 -1.5883132419981898 -1.5708168188678187 2.141270875930786 0.0 0.0 0.0 -0.0 -0.0 0.0 1 False False
2985.7619999999997 3.712127685546875 -0.8254501980594178 0.8429802099810999 -1.5882417164244593 -1.5708335081683558 2.141279697418213 0.0 0.0 0.0 -0.0 -0.0 0.0 1 False False
2985.812 3.7120654582977295 -0.8254578870585938 0.8429964224444788 -1.5882774792113246 -1.5708044211017054 2.141295909881592 0.0 0.0 0.0 -0.0 -0.0 0.0 1 False False
2985.862 3.7120413780212402 -0.8255189818194886 0.8429635206805628 -1.5883051357665003 -1.5708087126361292 2.1412925720214844 0.0 0.0 0.0 -0.0 -0.0 0.0 1 False False
2985.912 3.7120370864868164 -0.8254950803569336 0.8429845015155237 -1.5882531605162562 -1.5707925001727503 2.141312837600708 0.0 0.0 0.0 -0.0 -0.0 0.0 1 False False
2985.962 3.712127447128296 -0.8255403798869629 0.8429887930499476 -1.5882612667479457 -1.5707686583148401 2.1412997245788574 0.0 0.0 0.0 -0.0 -0.0 0.0 1 False False
2986.0119999999997 3.7121024131774902 -0.82550402105365 0.8429473082171839 -1.5882612667479457 -1.5707648436175745 2.141226291656494 0.0 0.0 0.0 -0.0 -0.0 0.0 1 False False
2986.062 3.71207857131958 -0.8255037826350708 0.8430126349078577 -1.5882932148375453 -1.5707805792437952 2.141279697418213 0.0 0.0 0.0 -0.0 -0.0 0.0 1 False False
2986.112 3.7120580673217773 -0.8254825633815308 0.8429935614215296 -1.5883456669249476 -1.570829216633932 2.14127516746521 0.0 0.0 0.0 -0.0 -0.0 0.0 1 False False
2986.162 3.7121024131774902 -0.8255274456790467 0.8429515997516077 -1.5882846317686976 -1.5707891623126429 2.141242504119873 0.0 0.0 0.0 -0.0 -0.0 0.0 1 False False
2986.212 3.7121188640594482 -0.8255027693561097 0.8429234663592737 -1.5883251629271449 -1.5708254019366663 2.141263246536255 0.0 0.0 0.0 -0.0 -0.0 0.0 1 False False
2986.2619999999997 3.7120537757873535 -0.8255403798869629 0.8429473082171839 -1.5882846317686976 -1.570784870778219 2.141230583190918 0.0 0.0 0.0 -0.0 -0.0 0.0 1 False False
2986.312 3.712106704711914 -0.8255037826350708 0.8429515997516077 -1.5882607899107875 -1.570801083241598 2.141267776489258 0.0 0.0 0.0 -0.0 -0.0 0.0 1 False False
2986.362 3.7120819091796875 -0.8255187434009095 0.8429935614215296 -1.5882765255370082 -1.570756737385885 2.141258955001831 0.0 0.0 0.0 -0.0 -0.0 0.0 1 False False
2986.412 3.7120611667633057 -0.8254823845675965 0.8429845015155237 -1.588313718835348 -1.5708211104022425 2.141235113143921 0.0 0.0 0.0 -0.0 -0.0 0.0 1 False False
2986.462 3.7120819091796875 -0.8254957360080262 0.8429935614215296 -1.5883013210692347 -1.5707686583148401 2.141324996948242 0.0 0.0 0.0 -0.0 -0.0 0.0 1 False False
2986.5119999999997 3.7120654582977295 -0.8254949611476441 0.8429515997516077 -1.5883056126036585 -1.570784870778219 2.14127516746521 0.0 0.0 0.0 -0.0 -0.0 0.0 1 False False
2986.562 3.712115526199341 -0.8254869741252442 0.8429935614215296 -1.588320871392721 -1.5707724730121058 2.141226291656494 0.0 0.0 0.0 -0.0 -0.0 0.0 1 False False
2986.612 3.712082862854004 -0.8254949611476441 0.8429563681231897 -1.5883051357665003 -1.5707891623126429 2.141263246536255 0.0 0.0 0.0 -0.0 -0.0 0.0 1 False False
2986.662 3.712090492248535 -0.8255409759334107 0.8429892698871058 -1.588285585443014 -1.5708416144000452 2.14121413230896 0.0 0.0 0.0 -0.0 -0.0 0.0 1 False False
2986.712 3.7120742797851562 -0.8254497212222596 0.8430007139789026 -1.5882369480528773 -1.570813004170553 2.14131760597229 0.0 0.0 0.0 -0.0 -0.0 0.0 1 False False
2986.7619999999997 3.7120416164398193 -0.8255335253528138 0.8429845015155237 -1.5882846317686976 -1.5708006064044397 2.141258955001831 0.0 0.0 0.0 -0.0 -0.0 0.0 1 False False
2986.812 3.712094783782959 -0.8255275052836915 0.8429892698871058 -1.588269372979635 -1.5708048979388636 2.141284227371216 0.0 0.0 0.0 -0.0 -0.0 0.0 1 False False
2986.862 3.712090492248535 -0.8255083721927186 0.8429673353778284 -1.5882569752135218 -1.570813004170553 2.14131760597229 0.0 0.0 0.0 -0.0 -0.0 0.0 1 False False
2986.912 3.712045907974243 -0.8255246442607422 0.8429721037494105 -1.5882612667479457 -1.5707686583148401 2.141258955001831 0.0 0.0 0.0 -0.0 -0.0 0.0 1 False False
2986.962 3.7120254039764404 -0.8255039614490052 0.8429845015155237 -1.588280817071432 -1.570813004170553 2.141284227371216 0.0 0.0 0.0 -0.0 -0.0 0.0 1 False False
2987.0119999999997 3.712050199508667 -0.8254779738238831 0.8430007139789026 -1.5882607899107875 -1.5708048979388636 2.141267776489258 0.0 0.0 0.0 -0.0 -0.0 0.0 1 False False
2987.062 3.7120742797851562 -0.8255127829364319 0.842992130910055 -1.5882889233031214 -1.5707805792437952 2.141313076019287 0.0 0.0 0.0 -0.0 -0.0 0.0 1 False False
2987.112 3.7120158672332764 -0.825527624492981 0.8429811636554163 -1.5882817707457484 -1.5707886854754847 2.141270637512207 0.0 0.0 0.0 -0.0 -0.0 0.0 1 False False
2987.162 3.712083101272583 -0.8255558770946045 0.8429802099810999 -1.5882846317686976 -1.5707805792437952 2.141258716583252 0.0 0.0 0.0 -0.0 -0.0 0.0 1 False False
2987.212 3.712029457092285 -0.8254913848689576 0.8429473082171839 -1.588297029534811 -1.5707891623126429 2.14127516746521 0.0 0.0 0.0 -0.0 -0.0 0.0 1 False False
2987.2619999999997 3.7120697498321533 -0.8255127829364319 0.8430216948138636 -1.5883332691588343 -1.5707648436175745 2.1413094997406006 0.0 0.0 0.0 -0.0 -0.0 0.0 1 False False
2987.312 3.7120578289031982 -0.8254823845675965 0.8429887930499476 -1.5882774792113246 -1.5707967917071741 2.1413204669952393 0.0 0.0 0.0 -0.0 -0.0 0.0 1 False False
2987.362 3.712066888809204 -0.8254779738238831 0.8429606596576136 -1.5883165798582972 -1.5708087126361292 2.141278028488159 0.0 0.0 0.0 -0.0 -0.0 0.0 1 False False
2987.412 3.712029457092285 -0.8255232137492676 0.8429978529559534 -1.588297029534811 -1.5708487669574183 2.1412885189056396 0.0 0.0 0.0 -0.0 -0.0 0.0 1 False False
2987.462 3.7120862007141113 -0.8255083721927186 0.8429678122149866 -1.5882412395873011 -1.570784870778219 2.141216993331909 0.0 0.0 0.0 -0.0 -0.0 0.0 1 True False
2987.5119999999997 3.712087631225586 -0.8254615825465699 0.8429587523089808 -1.5882774792113246 -1.5707967917071741 2.141345977783203 0.0 0.0 0.0 -0.0 -0.0 0.0 1 True False
2987.562 3.712062358856201 -0.8255039614490052 0.8429721037494105 -1.5882774792113246 -1.5707610289203089 2.141326427459717 0.0 0.0 0.0 -0.0 -0.0 0.0 1 True False
2987.612 3.7120654582977295 -0.8255202931216736 0.8430054823504847 -1.5882650814452113 -1.5708087126361292 2.14135479927063 0.0 0.0 0.0 -0.0 -0.0 0.0 1 True False
2987.662 3.7120862007141113 -0.8254617017558594 0.8430007139789026 -1.5882889233031214 -1.5708048979388636 2.1413040161132812 0.0 0.0 0.0 -0.0 -0.0 0.0 1 True False
2987.712 3.7120816707611084 -0.8255083721927186 0.8430007139789026 -1.5882979832091273 -1.570829216633932 2.1412723064422607 0.0 0.0 0.0 -0.0 -0.0 0.0 1 True False
2987.7619999999997 3.7120981216430664 -0.8254408997348328 0.8429587523089808 -1.5883013210692347 -1.570824925099508 2.1413087844848633 0.0 0.0 0.0 -0.0 -0.0 0.0 1 True False
2987.812 3.7120981216430664 -0.8254993718913575 0.8430050055133265 -1.588280817071432 -1.5708006064044397 2.141291618347168 0.0 0.0 0.0 -0.0 -0.0 0.0 1 True False
2987.862 3.7120490074157715 -0.8254905504039307 0.8429678122149866 -1.588285585443014 -1.5707967917071741 2.141291618347168 0.0 0.0 0.0 -0.0 -0.0 0.0 1 True False
2987.912 3.7121191024780273 -0.8255395454219361 0.8429635206805628 -1.5882607899107875 -1.5708006064044397 2.1413049697875977 0.0 0.0 0.0 -0.0 -0.0 7.47938611311838e-05 1 True False
2987.962 3.7120323181152344 -0.8254993718913575 0.8429678122149866 -1.5882774792113246 -1.5707691351519983 2.141200065612793 0.0 0.0 0.0 -0.0 -0.0 -0.0004887466784566641 1 True False
2988.0119999999997 3.7120490074157715 -0.8254615825465699 0.8429759184466761 -1.5882889233031214 -1.5707810560809534 2.1412949562072754 0.0 0.0 0.0 -0.0 4.390165458366868e-19 -3.392031008564851e-21 1 True False
2988.062 3.7121071815490723 -0.8255275648883362 0.8430007139789026 -1.5883289776244105 -1.5707648436175745 2.141284227371216 0.0 0.0 0.0 -0.0 8.298153085354622e-16 -5.152504388399136e-40 1 True False
2988.112 3.7131268978118896 -0.8259250682643433 0.84363300005068 -1.5885478458800257 -1.570857350026266 2.1422464847564697 0.053903721272945404 -0.023926137015223503 0.03268599882721901 -0.01451125368475914 0.0004470823332667351 0.052190713584423065 1 True False
2988.162 3.7175188064575195 -0.8279436391643067 0.8468888441668909 -1.5897098980345667 -1.5708525816546839 2.146660566329956 0.12112069129943848 -0.058651167899370193 0.09777043759822845 -0.03178646042943001 8.301188063342124e-05 0.1190347969532013 1 True False
2988.212 3.7253592014312744 -0.8320475977710267 0.8532760779010218 -1.5918218098082484 -1.5707810560809534 2.1545286178588867 0.19197353720664978 -0.10437050461769104 0.14467155933380127 -0.0560249462723732 4.028916373499669e-05 0.18479092419147491 1 True False
2988.2619999999997 3.736687421798706 -0.8380811375430604 0.8620036284076136 -1.594757696191305 -1.5707767645465296 2.165768623352051 0.2589055001735687 -0.13252823054790497 0.2048729956150055 -0.0697152242064476 3.51903545379173e-05 0.256899893283844 1 True False
2988.312 3.7515769004821777 -0.8457617920688172 0.8735902945147913 -1.5986844501891078 -1.570784870778219 2.1806890964508057 0.3297582268714905 -0.16855311393737793 0.25412243604660034 -0.1022605150938034 -2.242659488292057e-16 0.32917094230651855 1 True False
2988.362 3.7698683738708496 -0.855044500236847 0.887850586568014 -1.6035014591612757 -1.570813004170553 2.199002742767334 0.40062642097473145 -0.20304596424102783 0.310202956199646 -0.10371077060699463 -3.4066044396133267e-35 0.4018544852733612 1 True False
2988.412 3.7915804386138916 -0.8662829560092469 0.9048479239093226 -1.6092554531493128 -1.5708168188678187 2.2208409309387207 0.4684683084487915 -0.24426515400409698 0.36907392740249634 -0.11943700164556503 0.000110589389805682 0.46653643250465393 1 True False
2988.462 3.817065954208374 -0.8792488735965271 0.9244840780841272 -1.6159535847105921 -1.570801083241598 2.2461180686950684 0.5446490049362183 -0.2772336006164551 0.41839683055877686 -0.14094340801239014 5.066049132735297e-17 0.5407033562660217 1 True False
2988.5119999999997 3.8457207679748535 -0.8940702241710206 0.9469249884234827 -1.6235414944090785 -1.5708211104022425 2.2748939990997314 0.6156294941902161 -0.3119677007198334 0.4751504957675934 -0.14624573290348053 -0.00011951504711760208 0.6155620217323303 1 True False
2988.562 3.8779854774475098 -0.9106316131404419 0.9718588034259241 -1.6320625744261683 -1.570784870778219 2.307217597961426 0.6793698072433472 -0.35208240151405334 0.5238946080207825 -0.1761033535003662 -5.348674846822362e-22 0.6797873377799988 1 True False
2988.612 3.9137792587280273 -0.9288183611682435 0.9997318426715296 -1.6414863071837367 -1.5707686583148401 2.343017339706421 0.7552244663238525 -0.38695889711380005 0.5819830298423767 -0.20243601500988007 2.8313068469287828e-05 0.7521589398384094 1 True False
2988.662 3.9530019760131836 -0.949092761879303 1.0300300757037562 -1.6519619427123011 -1.5707886854754847 2.3823580741882324 0.8229707479476929 -0.4209024906158447 0.638005793094635 -0.20796403288841248 -3.819276284122708e-10 0.8096510171890259 1 True False
2988.712 3.9958531856536865 -0.9708993595889588 1.0634282271014612 -1.6631437740721644 -1.5707805792437952 2.4249706268310547 0.8845971822738647 -0.45143818855285645 0.6934130787849426 -0.23627282679080963 -1.0186546717250167e-08 0.886600911617279 1 True False
2988.7619999999997 4.042020797729492 -0.9946695131114502 1.09929067293276 -1.6753393612303675 -1.5707972685443323 2.4712955951690674 0.9623172283172607 -0.4899488389492035 0.7493021488189697 -0.2586604058742523 -7.511370495194569e-05 0.961966335773468 1 True False
2988.812 4.091796398162842 -1.0202080768397828 1.1379535833941858 -1.6885668239989222 -1.5708168188678187 2.520829200744629 1.023783802986145 -0.5258119702339172 0.7962202429771423 -0.27444887161254883 4.2084881110295686e-22 1.0297151803970337 1 True False
2988.862 4.143989562988281 -1.0467750591090699 1.1784761587726038 -1.702325006524557 -1.5707324186908167 2.5733470916748047 1.0463509559631348 -0.5369958281517029 0.8100152611732483 -0.27975600957870483 6.392723594249815e-41 1.0420646667480469 1 True False
2988.912 4.196328639984131 -1.073797420864441 1.2190559546100062 -1.7160831890501917 -1.5707319418536585 2.625631093978882 1.0492557287216187 -0.5355795621871948 0.8122378587722778 -0.28765445947647095 -8.745797686060541e-08 1.0526739358901978 1 True False
2988.962 4.248798370361328 -1.1005478662303467 1.2598913351642054 -1.7300011120238246 -1.5708172957049769 2.677896499633789 1.0441228151321411 -0.5376090407371521 0.8102925419807434 -0.2874775230884552 -1.3284882948596403e-26 1.043031930923462 1 True False
2989.0119999999997 4.3010573387146 -1.1275124710849305 1.300457779561178 -1.743620058099264 -1.5708449522601526 2.7304883003234863 1.0483531951904297 -0.5333093404769897 0.8161432147026062 -0.270358145236969 -0.00020043496624566615 1.0445600748062134 1 True False
2989.062 4.353438377380371 -1.1542309087565918 1.3410776297198694 -1.7574945888915003 -1.5707605520831507 2.782714605331421 1.0497742891311646 -0.5329904556274414 0.8149350881576538 -0.28270694613456726 -2.6265399355906993e-05 1.0505993366241455 1 True False
2989.112 4.405853271484375 -1.1810122591308136 1.3816512266742151 -1.7715002499022425 -1.5707605520831507 2.8348095417022705 1.0441251993179321 -0.5343446135520935 0.8158249855041504 -0.2796514928340912 -4.168795931036584e-05 1.0479627847671509 1 True False
2989.162 4.456588268280029 -1.207223729496338 1.421187702809469 -1.784858842889303 -1.5708211104022425 2.8860042095184326 0.9818350076675415 -0.5078930258750916 0.7603793144226074 -0.2524247169494629 -4.066358746119804e-16 0.9745615124702454 1 True False
2989.212 4.504050254821777 -1.2314243477633973 1.457926098500387 -1.7972470722594203 -1.5708172957049769 2.9332330226898193 0.9110634922981262 -0.46978744864463806 0.7071499228477478 -0.22582539916038513 2.611818388231768e-07 0.9179506301879883 1 True False
2989.2619999999997 4.548009395599365 -1.2540305715850373 1.4921186606036585 -1.80885710338735 -1.5707810560809534 2.9773149490356445 0.8461954593658447 -0.42557889223098755 0.6545099020004272 -0.23170995712280273 3.985291340320463e-17 0.8412620425224304 1 True False
2989.312 4.588314533233643 -1.2746467751315613 1.5233514944659632 -1.8194800815977992 -1.5707925001727503 3.0175328254699707 0.7748352885246277 -0.391813725233078 0.6057378649711609 -0.20228251814842224 7.454825390595943e-05 0.7708641886711121 1 True False
2989.362 4.625224590301514 -1.2936048668674012 1.5519369284259241 -1.829386373559469 -1.5708449522601526 3.0543036460876465 0.6989841461181641 -0.3584929406642914 0.5433611273765564 -0.18134891986846924 -0.0007045483216643333 0.7132170796394348 1 True False
2989.412 4.6587395668029785 -1.3107394737056275 1.5780695120440882 -1.8380962810912074 -1.57074481645693 3.0877420902252197 0.636630654335022 -0.32601475715637207 0.48953527212142944 -0.15584145486354828 8.039119165914599e-06 0.6484888195991516 1 True False
2989.462 4.688663005828857 -1.3260395985892792 1.6011541525470179 -1.8460666141905726 -1.570813004170553 3.1177942752838135 0.567023754119873 -0.29251301288604736 0.4409390091896057 -0.14121752977371216 -4.436541530594695e-06 0.5741278529167175 1 True False
2989.5119999999997 4.714972019195557 -1.3396153909019013 1.6216123739825647 -1.8530122242369593 -1.570801083241598 3.143949508666992 0.4957004487514496 -0.257671058177948 0.3800808787345886 -0.13329294323921204 -0.0004344640183262527 0.4989418089389801 1 True False
2989.562 4.737847328186035 -1.351368398671486 1.639728848134176 -1.8589240513243617 -1.5708325544940394 3.1672823429107666 0.42406705021858215 -0.21340763568878174 0.32993486523628235 -0.10599347203969955 -0.0011016310891136527 0.41692978143692017 1 True False
2989.612 4.75737190246582 -1.3613988322070618 1.6545208136187952 -1.8642507992186488 -1.5707648436175745 3.186616897583008 0.3514299988746643 -0.1856241524219513 0.27452659606933594 -0.08710473030805588 0.00012045488256262615 0.35141757130622864 1 True False
2989.662 4.7734270095825195 -1.3695130360177536 1.6671646277057093 -1.868477006951803 -1.570824925099508 3.202544927597046 0.283992737531662 -0.14638584852218628 0.21980500221252441 -0.08743209391832352 3.0538464142272504e-22 0.28663480281829834 1 True False
2989.712 4.785762310028076 -1.3759462547353287 1.6766708532916468 -1.8717056713499964 -1.5707610289203089 3.2150964736938477 0.2151721566915512 -0.11154850572347641 0.16961605846881866 -0.05893470346927643 2.7677220104924215e-17 0.21623174846172333 1 True False
2989.7619999999997 4.794854164123535 -1.3805268865874787 1.6837218443499964 -1.874094625512594 -1.5707767645465296 3.2240827083587646 0.14683374762535095 -0.07282792776823044 0.11257191747426987 -0.04571491479873657 4.204175921716621e-36 0.14632707834243774 1 True False
2989.812 4.800348281860352 -1.383314148788788 1.6880453268634241 -1.875608583489889 -1.5707843939410608 3.229536294937134 0.07695893943309784 -0.03907210752367973 0.05967068299651146 -0.014322793111205101 0.0 0.07704107463359833 1 True False
2989.862 4.802342891693115 -1.3844026786139985 1.6895225683795374 -1.8759857616820277 -1.570784870778219 3.2315077781677246 0.006426658947020769 -0.0016186131397262216 0.002686871448531747 -0.0002822719980031252 0.0 0.006598854903131723 1 True False
2989.912 4.8022379875183105 -1.3838361215642472 1.6906722227679651 -1.8775297604002894 -1.5707772413836878 3.231478691101074 0.002044225577265024 0.02064160630106926 0.04139901325106621 -0.05844545736908913 -5.001039971830323e-05 0.00010529536666581407 1 True False
2989.962 4.802303791046143 -1.382143722181656 1.6938779989825647 -1.8826118908324183 -1.5707925001727503 3.231536865234375 0.0015468747587874532 0.049727510660886765 0.08674625307321548 -0.1438254565000534 -1.7751602906943414e-21 5.3308398491935804e-05 1 True False
2990.0119999999997 4.802363872528076 -1.3790129137090226 1.6992343107806605 -1.8911596737303675 -1.570756737385885 3.2315077781677246 0.001113550504669547 0.07563304156064987 0.1293134093284607 -0.19898077845573425 -2.6964765959463157e-40 1.2003531082882546e-05 1 True False
2990.062 4.802346706390381 -1.3744930934957047 1.7066643873797815 -1.9030467472472132 -1.5707886854754847 3.2315359115600586 0.0005758667248301208 0.09809780865907669 0.17363978922367096 -0.27619245648384094 -0.0 0.00039280514465644956 1 True False
2990.112 4.802362442016602 -1.3688240510276337 1.7164996306048792 -1.9184462032713832 -1.5707767645465296 3.2315683364868164 0.0002361376245971769 0.12550365924835205 0.21636708080768585 -0.3515907824039459 -0.0 0.0002785840188153088 1 True False
2990.162 4.802326679229736 -1.3618724209121247 1.7285845915423792 -1.9374662838377894 -1.5707767645465296 3.231522798538208 0.00011503831774462014 0.15308474004268646 0.2636009752750397 -0.4078735113143921 -0.0 0.0001754188269842416 1 True False
2990.212 4.802319049835205 -1.3536488574794312 1.7426651159869593 -1.9599348507323207 -1.5708449522601526 3.2315597534179688 8.757236355450004e-05 0.17473815381526947 0.30284708738327026 -0.48797115683555603 -0.0 0.00010902099165832624 1 True False
2990.2619999999997 4.802351474761963 -1.3440171790174027 1.7591803709613245 -1.9856349430479945 -1.5708168188678187 3.231534719467163 1.8831352288643363e-17 0.20048034191131592 0.3490070700645447 -0.5471912026405334 -0.0 6.323887646431103e-05 1 True False
2990.312 4.802371025085449 -1.3340665113976975 1.7763198057757776 -2.013238569299215 -1.5707972685443323 3.2315852642059326 6.008189302519895e-05 0.1843767762184143 0.32804471254348755 -0.5236753821372986 -0.0 2.337494420245889e-09 1 True False
2990.362 4.802391052246094 -1.325159103875496 1.7918475309955042 -2.037304540673727 -1.5707967917071741 3.2315640449523926 0.0 0.16950662434101105 0.2856215536594391 -0.45108136534690857 -0.0 1.0078076684294501e-07 1 True False
2990.412 4.8023552894592285 -1.3175618809512635 1.8045266310321253 -2.0580927334227503 -1.570756737385885 3.2315196990966797 0.0 0.141213521361351 0.24242989718914032 -0.3812883496284485 -0.0 1.5308614697047533e-26 1 True False
2990.462 4.802346706390381 -1.3111908298781891 1.8155515829669397 -2.0752011738219203 -1.570845905934469 3.2315726280212402 0.0 0.11063424497842789 0.19439157843589783 -0.30700555443763733 -0.0 2.802596928649634e-45 1 True False
2990.5119999999997 4.8023600578308105 -1.3061148983291169 1.8243473211871546 -2.0888449154295863 -1.5707805792437952 3.2315478324890137 0.0 0.0854339525103569 0.15084214508533478 -0.23993924260139465 -0.0 0.0 1 True False
2990.562 4.802350997924805 -1.3025467258742829 1.8305352369891565 -2.0990897617735804 -1.570829216633932 3.2315895557403564 0.0 0.06216553598642349 0.10772044211626053 -0.16622880101203918 -0.0 0.0 1 True False
2990.612 4.802301406860352 -1.2999635201743622 1.8348568121539515 -2.105809827844137 -1.5708487669574183 3.2315196990966797 0.0 0.036504555493593216 0.060427386313676834 -0.10152134299278259 -0.0 0.0 1 True False
2990.662 4.802346706390381 -1.2987355154803772 1.8369677702533167 -2.1089073620238246 -1.570801083241598 3.2315564155578613 0.0 0.012349226512014866 0.023758111521601677 -0.03552655130624771 4.9218478181956016e-09 0.0 1 True False
2990.712 4.8023295402526855 -1.2987943452647706 1.837090317402975 -2.1092525921263636 -1.5708254019366663 3.2315239906311035 0.0 -0.0002469402679707855 -0.0002792774757836014 3.2585936726725606e-10 7.4762953771010045e-28 0.0 1 True False
2990.7619999999997 4.802350997924805 -1.2987367075732728 1.8371599356280726 -2.109344621697897 -1.5707967917071741 3.2315597534179688 0.0 0.0001275062095373869 -8.061105795227184e-31 -0.00021711042791139334 0.0 0.0 1 True False
2990.812 4.802366733551025 -1.2987367671779175 1.8371480146991175 -2.1092168293394984 -1.5708006064044397 3.231489658355713 0.0 8.52995362947695e-05 6.368759932229295e-05 -8.915041689760983e-05 0.0 0.0 1 True False
2990.862 4.802297115325928 -1.298720435505249 1.837135140095846 -2.1092845402159632 -1.5708044211017054 3.231527090072632 0.0 7.773640390951186e-05 0.00011101130803581327 -9.447291813557968e-05 0.0 0.0 1 True False
2990.912 4.802309036254883 -1.298736647968628 1.8371384779559534 -2.1092807255186976 -1.570813004170553 3.2315523624420166 1.461275811465157e-08 0.00015883576998021454 0.00013713497901335359 -0.00020598336413968354 0.0 0.0 1 True False
2990.962 4.80233097076416 -1.298729882841446 1.8371837774859827 -2.109300752679342 -1.5708168188678187 3.231572151184082 0.0 8.785003592493013e-05 0.00014663030742667615 -0.00017044991545844823 0.0 0.0 1 True False
2991.0119999999997 4.802392959594727 -1.2986840468696137 1.8372038046466272 -2.109300275842184 -1.5707886854754847 3.231538772583008 -7.008657121332362e-05 7.66021476010792e-05 0.00011751314013963565 -0.00018396471568848938 2.245605173811782e-05 0.0 1 True False
2991.062 4.802375793457031 -1.2986723345569153 1.8371871153460901 -2.1093279323973597 -1.5708168188678187 3.2315597534179688 -4.714206443168223e-05 9.563781350152567e-05 8.531534695066512e-05 -0.0001334498228970915 1.3828821465722285e-05 0.0 1 True False
2991.112 4.802384853363037 -1.298673467045166 1.8372233549701136 -2.1092850170531214 -1.5708168188678187 3.2315731048583984 -9.636977500188584e-27 7.73361898609437e-05 6.115833821240813e-05 -8.976591925602406e-05 9.990483704314101e-06 0.0 1 True False
2991.162 4.8023552894592285 -1.2986767154983063 1.837191406880514 -2.109293123284811 -1.5707967917071741 3.2315194606781006 0.0 1.7019671612812666e-36 7.59253917085947e-32 -7.187329174485058e-05 2.3341291752374693e-24 0.0 1 True False
2991.212 4.8023176193237305 -1.298684076671936 1.8371995131122034 -2.10929598430776 -1.5707805792437952 3.231527090072632 0.0 0.0 0.0 -2.735993506405854e-12 3.545285114741787e-43 0.0 1 True False
2991.2619999999997 4.80233097076416 -1.2986679536155243 1.8372514883624476 -2.1093040905394496 -1.570833985005514 3.231538772583008 0.0 0.0 0.0 -4.155982376625993e-31 -0.0060507250018417835 0.0 1 True False
2991.312 4.802341938018799 -1.2987335485270997 1.8371108214007776 -2.1094757519164027 -1.5707805792437952 3.231506109237671 0.0 0.0002079032128676772 -6.4291016188880706e-15 -0.0004396119911689311 0.0003016029659193009 0.0 1 True False
2991.362 4.802362442016602 -1.2987411183169861 1.8371151129352015 -2.109403749505514 -1.5708416144000452 3.23158860206604 0.0 0.00019441825861576945 -1.5414283107572988e-44 -3.169686735304822e-09 9.740779933054e-05 0.0 1 True False
2991.412 4.802334308624268 -1.2988050741008301 1.83698016801943 -2.1087786159911097 -1.5708211104022425 3.2315597534179688 0.0 -0.011443791911005974 -0.015621555969119072 0.037400733679533005 4.361141691333614e-05 0.0 1 True True
2991.462 4.802321910858154 -1.2999029022506257 1.8350046316729944 -2.105436464349264 -1.5707925001727503 3.2315478324890137 0.0 -0.04187249019742012 -0.07226818054914474 0.09849555790424347 -3.139944237773307e-05 0.0 1 True True
2991.5119999999997 4.8023552894592285 -1.3025936645320435 1.8305609861956995 -2.0983501873412074 -1.5708211104022425 3.2315731048583984 0.0 -0.06410010159015656 -0.11006734520196915 0.17150287330150604 -7.188901495695487e-21 0.0 1 True True
2991.562 4.8023295402526855 -1.3065876227668305 1.8236778418170374 -2.087973733941549 -1.570829216633932 3.2315433025360107 0.0 -0.08929294347763062 -0.15514691174030304 0.24632108211517334 -1.0919954594882575e-39 0.0 1 True True
2991.612 4.802334308624268 -1.311677173977234 1.8146832625018519 -2.073991914788717 -1.570801083241598 3.2315478324890137 0.0 -0.11811938136816025 -0.20075996220111847 0.3112807273864746 -0.0 0.0 1 True True
2991.662 4.80229377746582 -1.3180672389319916 1.8037269751178187 -2.056394716302389 -1.570801083241598 3.231527090072632 -1.4327452527336526e-13 -0.1364845186471939 -0.2353040724992752 0.3799671232700348 -0.0 0.0 1 True True
2991.712 4.802321910858154 -1.3257849377444764 1.7905429045306605 -2.0355144939818324 -1.57074481645693 3.2315313816070557 0.0 -0.16591085493564606 -0.2797633707523346 0.4531954526901245 -0.0 0.0 1 True True
2991.7619999999997 4.802280426025391 -1.3348219406655808 1.7749975363360804 -2.0110842190184535 -1.570784870778219 3.231605052947998 0.0 -0.19389189779758453 -0.32647085189819336 0.5179889798164368 -0.0 0.0 1 True True
2991.812 4.8022847175598145 -1.3449498426965256 1.7576258818255823 -1.9835430584349574 -1.5708048979388636 3.2315523624420166 0.0 -0.19973403215408325 -0.3480220437049866 0.5434130430221558 -0.0 -1.335997552587287e-07 1 True True
2991.862 4.802309036254883 -1.354290859108307 1.7414940039264124 -1.9579550228514613 -1.570784870778219 3.2315597534179688 0.0 -0.17365556955337524 -0.2952178120613098 0.47463271021842957 -0.0 -2.0293831972799406e-26 1 True True
2991.912 4.802350997924805 -1.3624273401549836 1.7274649778949183 -1.9358097515501917 -1.5708087126361292 3.2315642833709717 0.0 -0.15186893939971924 -0.25046101212501526 0.40084052085876465 -0.0 -2.802596928649634e-45 1 True True
2991.962 4.802371501922607 -1.3693228673985978 1.715748135243551 -1.9170581303038539 -1.5708330313311976 3.231550693511963 0.0 -0.12349213659763336 -0.21474316716194153 0.3385608494281769 -0.0 -0.0 1 True True
2992.0119999999997 4.8023176193237305 -1.3748428535512467 1.706217114125387 -1.902011056939596 -1.5708125273333948 3.23152232170105 0.0 -0.09869777411222458 -0.17075276374816895 0.26303836703300476 -0.0 -0.0 1 True True
2992.062 4.802334308624268 -1.3791574102691193 1.69885760942568 -1.890172620812887 -1.5708087126361292 3.2315731048583984 0.0 -0.07550954818725586 -0.12283937633037567 0.19971798360347748 -0.0 -0.0 1 True True
2992.112 4.80229377746582 -1.3821820628694077 1.6935065428363245 -1.8821703396239222 -1.5708330313311976 3.2315642833709717 0.0 -0.04817008599638939 -0.07816584408283234 0.1284170299768448 -0.0 -0.0 1 True True
2992.162 4.802364349365234 -1.383894921546318 1.6904194990741175 -1.8774415455260218 -1.570772949849264 3.2315313816070557 0.0 -0.022512376308441162 -0.041621822863817215 0.05735586956143379 -0.0 -0.0 1 True True
2992.212 4.802286624908447 -1.3842750948718567 1.6896632353412073 -1.8762604198851527 -1.5707929770099085 3.2315449714660645 -0.028431113809347153 0.000817278225440532 -0.00435268459841609 -0.003457458922639489 -0.0 -0.010115235112607479 1 True True
2992.2619999999997 4.800110340118408 -1.3843535345843812 1.6896474997149866 -1.8762084446349085 -1.570784870778219 3.229295253753662 -0.07954859733581543 0.0 1.8471755369670635e-17 0.002305491827428341 -0.0 -0.08193935453891754 1 True True
2992.312 4.794222354888916 -1.3843327325633545 1.6896966139422815 -1.8760653934874476 -1.5707886854754847 3.2233946323394775 -0.1493290215730667 0.0 -0.00011533351062098518 0.0004991148598492146 -0.0 -0.1463751196861267 1 True True
2992.362 4.785050392150879 -1.384324089889862 1.6896608511554163 -1.876073499719137 -1.5707967917071741 3.214205741882324 -0.222605362534523 0.0 -0.0001969098811969161 0.00022659740352537483 -0.0 -0.2170640230178833 1 True True
2992.412 4.7721848487854 -1.3843412858298798 1.6896632353412073 -1.8760973415770472 -1.5707886854754847 3.201512098312378 -0.2872273027896881 0.0 -0.0005507620517164469 0.00023104807769414037 -0.0 -0.29273882508277893 1 True True
2992.462 4.755995750427246 -1.3843045991710206 1.6896393934832972 -1.876061578790182 -1.5707691351519983 3.1851563453674316 -0.357131689786911 0.0 -0.0009886588668450713 0.00018978001025971025 -6.442050653276965e-05 -0.3537878394126892 1 True True
2992.5119999999997 4.736227035522461 -1.384325073366501 1.6895888487445276 -1.8760258160033167 -1.570772949849264 3.1655020713806152 -0.43035247921943665 0.0 -0.002024881076067686 0.00017483312694821507 -4.426667146617547e-05 -0.433956116437912 1 True True
2992.562 4.7131428718566895 -1.3843088907054444 1.689446751271383 -1.876049657861227 -1.5707691351519983 3.1424179077148438 -0.4971703290939331 0.00035363793722353876 -0.0012739080702885985 0.00013771175872534513 -4.9917041906155646e-05 -0.505483090877533 1 True True
2992.612 4.686425685882568 -1.3842650812915345 1.6894028822528284 -1.876026292840475 -1.5707805792437952 3.11545467376709 -0.5652124285697937 0.0009856891119852662 -0.0010767875937744975 0.00018066893971990794 -0.00020290435350034386 -0.5623522996902466 1 True True
2992.662 4.65621280670166 -1.384152041082718 1.6894148031817835 -1.8760653934874476 -1.5708368460284632 3.085327386856079 -0.6363112330436707 0.0015275162877514958 -0.000889410322997719 0.00024796262732706964 -0.00046942022163420916 -0.6294625997543335 1 True True
2992.712 4.622474193572998 -1.3841376167586823 1.6892340818988245 -1.8760582409300746 -1.5708168188678187 3.0516090393066406 -0.7089349031448364 0.0012579918839037418 -0.001723939785733819 0.00032610047492198646 -0.0008877496584318578 -0.6998481154441833 1 True True
2992.7619999999997 4.585150718688965 -1.3839762967875977 1.6892622152911585 -1.8760096035399378 -1.5708406607257288 3.0146267414093018 -0.7754193544387817 0.0016979251522570848 -0.0015569815877825022 0.00037036131834611297 -0.00044883156078867614 -0.787051796913147 1 True True
2992.812 4.544530868530273 -1.3839576107314606 1.689108673726217 -1.8760105572142542 -1.5708087126361292 2.973724603652954 -0.8461713194847107 0.0017349995905533433 -0.0031001961324363947 0.0002665829670149833 0.00041472679004073143 -0.854748547077179 1 True True
2992.862 4.500455856323242 -1.3837952029756089 1.6890080610858362 -1.875929971734518 -1.5708168188678187 2.9295942783355713 -0.9220830202102661 0.0020633358508348465 -0.0022543345112353563 0.00042089694761671126 0.00012265781697351485 -0.9127047061920166 1 True True
2992.912 4.452796459197998 -1.3838459265283127 1.688925568257467 -1.8760220013060511 -1.5707772413836878 2.88202166557312 -0.9832183718681335 0.001024993951432407 -0.0023682848550379276 0.0006394330412149429 0.0001958967186510563 -0.999602198600769 1 True True
2992.962 4.401678085327148 -1.3836562645486374 1.6888015905963343 -1.8759051762022914 -1.5708406607257288 2.830923080444336 -1.0387353897094727 0.0017796294996514916 -0.0018037718255072832 0.0003933472908101976 2.5057486165409573e-17 -1.0409111976623535 1 True True
2993.0119999999997 4.349341869354248 -1.3836212319186707 1.6887133757220667 -1.8759633503355921 -1.5707486311541956 2.7784640789031982 -1.0484637022018433 0.0026993423234671354 -0.003427022835239768 0.0010207134764641523 0.00041620907722972333 -1.048496961593628 1 True True
2993.062 4.296996116638184 -1.383467660551407 1.6885607878314417 -1.8758789501585902 -1.570784870778219 2.726206064224243 -1.045306921005249 0.0012734951451420784 -0.0016359721776098013 0.0007111532613635063 0.00019129354041069746 -1.0539458990097046 1 True True
2993.112 4.244645118713379 -1.383359969859459 1.688458267842428 -1.8758427105345667 -1.5708487669574183 2.673874616622925 -1.0519285202026367 0.0025079778861254454 -0.0031675854697823524 0.00021662448125425726 2.9808739782311022e-05 -1.0430824756622314 1 True True
2993.162 4.192258358001709 -1.3833325070193787 1.6883419195758265 -1.8758918247618617 -1.570813004170553 2.6213903427124023 -1.0457019805908203 0.002217417350038886 -0.0033881445415318012 0.0010529570281505585 6.646738687872064e-14 -1.0495545864105225 1 True True
2993.212 4.139883041381836 -1.3832041335156937 1.6882298628436487 -1.8758312664427699 -1.570784870778219 2.5691025257110596 -1.0422412157058716 0.00136296555865556 -0.001218257239088416 0.0005091306520625949 0.0003532684058882296 -1.0545026063919067 1 True True
2993.2619999999997 4.087523460388184 -1.383125127559044 1.6880744139300745 -1.8758274517455042 -1.5707767645465296 2.5167527198791504 -1.0505523681640625 0.0024480982683598995 -0.002570099662989378 0.00045977410627529025 -0.0003074435517191887 -1.0439039468765259 1 True True
2993.312 4.035118579864502 -1.3830163341811677 1.6880515257464808 -1.8757835827269496 -1.5708168188678187 2.4642763137817383 -1.046335220336914 0.0035357214510440826 -0.004014558624476194 0.0005775790195912123 -7.282731639968176e-10 -1.0447473526000977 1 True True
2993.362 3.982740640640259 -1.3829682034305115 1.6879108587848108 -1.87575163463735 -1.5707805792437952 2.412087917327881 -1.041797399520874 0.0011253391858190298 -0.0012274904875084758 0.0004120738012716174 -3.3238361538678873e-06 -1.0524020195007324 1 True True
2993.562 3.7734055519104004 -1.3825734567693253 1.687432114277975 -1.8756677112975062 -1.5708006064044397 2.2026305198669434 -1.0492585897445679 0.0026843466330319643 -0.002715236973017454 0.0004808797384612262 -4.66743072143061e-14 -1.0444362163543701 1 True True
2993.612 3.7209560871124268 -1.3824197214892884 1.687336270009176 -1.8756357632079066 -1.570801083241598 2.150155782699585 -1.0446691513061523 0.0025073420256376266 -0.0032822678331285715 0.0003838581615127623 -7.089837689299174e-33 -1.042803406715393 1 True True
2993.662 3.6686062812805176 -1.382389174108841 1.687216583882467 -1.875643869439596 -1.5707648436175745 2.0979247093200684 -1.0442155599594116 0.0010957862250506878 -0.0016890638507902622 0.0003397985128685832 0.00022708956385031343 -1.0530281066894531 1 True True
2993.712 3.6163289546966553 -1.3822606217912217 1.6871054808246058 -1.8755799732603968 -1.5708006064044397 2.0455684661865234 -1.049890160560608 0.002622268395498395 -0.0034438956063240767 0.00021463842131197453 6.3494137442532486e-21 -1.0473219156265259 1 True True
2993.7619999999997 3.5638813972473145 -1.3822079759887238 1.686965290700094 -1.8756042919554652 -1.5708254019366663 1.9930998086929321 -1.0482884645462036 0.002606381895020604 -0.0036229263059794903 0.0006580049521289766 1.1286423614365049e-05 -1.0466325283050537 1 True True
2993.812 3.5115580558776855 -1.3821340811303635 1.686889950429098 -1.8755685291686 -1.570756737385885 1.940849781036377 -1.04397451877594 0.0013194034108892083 -0.0018980387831106782 0.0011738570174202323 0.0002688830136321485 -1.0522304773330688 1 True True
2993.862 3.4592766761779785 -1.3820100140622635 1.6867292563067835 -1.8755608997740687 -1.5707805792437952 1.8884904384613037 -1.0508195161819458 0.001851078006438911 -0.0016208187444135547 0.0004042574728373438 -0.00011513402569107711 -1.047317624092102 1 True True
2993.912 3.4068784713745117 -1.3819260460189362 1.6866644064532679 -1.8755012951292933 -1.570829216633932 1.8360059261322021 -1.0490916967391968 0.0020937465596944094 -0.002190080936998129 0.0005789730930700898 5.9170321037527174e-05 -1.0451925992965698 1 True True
2993.962 3.3544294834136963 -1.3818418842605134 1.6864903608905237 -1.8755251369872035 -1.5708048979388636 1.783644437789917 -1.043347954750061 0.0019289628835394979 -0.0022202737163752317 0.00041170456097461283 8.987986120109656e-24 -1.0456457138061523 1 True True
2994.0119999999997 3.302126884460449 -1.3816951972297211 1.686399284993307 -1.8754927120604457 -1.570784870778219 1.731306791305542 -1.04793119430542 0.0022681911941617727 -0.002200300106778741 0.0003730272001121193 4.917909413038046e-10 -1.0460195541381836 1 True True
2994.062 3.2497239112854004 -1.381560043697693 1.686333481465475 -1.8754731617369593 -1.5708449522601526 1.6789112091064453 -1.047775149345398 0.0024798514787107706 -0.0022724696900695562 0.00039514279342256486 -9.553626084206154e-22 -1.0450351238250732 1 True True
2994.112 3.1973578929901123 -1.3815062207034607 1.686171833668844 -1.8754250011839808 -1.570801083241598 1.626653790473938 -1.0453046560287476 0.002343626692891121 -0.002858472289517522 0.00035203484003432095 6.61041631246917e-05 -1.047874093055725 1 True True
2994.162 3.145324230194092 -1.3814089608243485 1.6860502401935022 -1.8754011593260707 -1.5707805792437952 1.5745155811309814 -1.0278609991073608 0.0018348712474107742 -0.0018945647170767188 0.000652527844067663 3.891443272390561e-22 -1.0214364528656006 1 True True
2994.212 3.095931053161621 -1.381350265150406 1.6859515349017542 -1.8753897152342738 -1.5707686583148401 1.5250357389450073 -0.9592392444610596 0.0021174156572669744 -0.0027402571868151426 0.00041653672815300524 4.526303382590413e-05 -0.9540074467658997 1 True True
2994.2619999999997 3.049971103668213 -1.3811946672252198 1.6858275572406214 -1.8753253422179164 -1.5708406607257288 1.479188084602356 -0.885391891002655 0.0026165368035435677 -0.0025009731762111187 0.00041593462810851634 -1.5496480045840144e-05 -0.8872825503349304 1 True True
2994.312 3.0074424743652344 -1.3812181812575837 1.6857641378985804 -1.8753658733763636 -1.570756737385885 1.4367167949676514 -0.8087385296821594 0.0009568722452968359 -0.0009842471918091178 0.00030912854708731174 -2.3539189343362962e-24 -0.8176413178443909 1 True True
2994.362 2.968554973602295 -1.3811104160598298 1.6856630484210413 -1.8753534756102503 -1.5707686583148401 1.397688388824463 -0.7459124326705933 0.00169001508038491 -0.0020584550220519304 0.00017019824008457363 -0.0003386648022569716 -0.7433438301086426 1 True True
2994.412 2.9331367015838623 -1.3810624939254303 1.6856163183795374 -1.8753615818419398 -1.570784870778219 1.3623363971710205 -0.6765770316123962 0.001859022886492312 -0.002399986842647195 0.0003352586063556373 -8.067191627281863e-19 -0.6756478548049927 1 True True
2994.462 2.901116132736206 -1.3810066294721146 1.6854713598834437 -1.8753019771971644 -1.5707767645465296 1.3304232358932495 -0.6049202084541321 0.0013625352876260877 -0.0019100892823189497 0.00018439489940647036 -1.225408265809906e-37 -0.6048597693443298 1 True True
2994.5119999999997 2.8726725578308105 -1.3809051525643845 1.685437027608053 -1.8753463230528773 -1.5708254019366663 1.3018797636032104 -0.535692036151886 0.0010067402618005872 -0.0012721220264211297 0.00032664864556863904 -0.0 -0.535156786441803 1 True True
2994.562 2.847571611404419 -1.3808691513589402 1.6854098478900355 -1.8753382168211878 -1.5708282629596155 1.2768986225128174 -0.4678240418434143 0.001561252516694367 -0.001671043923124671 1.3080693861411419e-05 2.517360542242386e-07 -0.4693557322025299 1 True True
2994.612 2.8262147903442383 -1.3809063297561188 1.685345474873678 -1.8752738438048304 -1.5707967917071741 1.2555183172225952 -0.39901477098464966 0.0003958438173867762 -0.001392400823533535 0.00021960586309432983 -7.892041043958646e-20 -0.4006125330924988 1 True True
2994.662 2.8082966804504395 -1.3808718484691163 1.6853049437152308 -1.8753024540343226 -1.5707443396197718 1.2374207973480225 -0.3275231719017029 0.0003874895628541708 -0.0007746607880108058 0.0001742814783938229 0.00021066774206701666 -0.32996752858161926 1 True True
2994.712 2.793727397918701 -1.3807688665441056 1.6853354612933558 -1.8753024540343226 -1.5708006064044397 1.2229098081588745 -0.25760534405708313 0.0003466603229753673 -0.0005344965611584485 5.971330392640084e-05 -3.273531547165476e-05 -0.2590503990650177 1 True True
2994.7619999999997 2.782749652862549 -1.3808060449412842 1.6852529684649866 -1.8752905331053675 -1.5708254019366663 1.2119154930114746 -0.1836695671081543 0.0003464454202912748 -0.0003735504287760705 9.822945867199451e-05 -2.6160438832550925e-12 -0.18376676738262177 1 True True
2994.812 2.7752625942230225 -1.3807744693807145 1.6852453390704554 -1.8752747974791468 -1.5707843939410608 1.2043951749801636 -0.11627539247274399 0.0003618401533458382 -0.00032981447293423116 8.307288226205856e-05 -3.973776050271135e-31 -0.11679387092590332 1 True True
2994.862 2.771195411682129 -1.3807985347560425 1.6852291266070765 -1.875214239160055 -1.5707529226886194 1.2003767490386963 -0.046398114413022995 0.00019250853802077472 -0.00028857606230303645 6.584916263818741e-05 -0.0 -0.049974314868450165 1 True True
2995.062 2.770493984222412 -1.3735749584487458 1.697648827229635 -1.8947631321349085 -1.5707805792437952 1.1996492147445679 -0.0007849460234865546 0.0838707834482193 0.14636170864105225 -0.2253992110490799 -0.0 -0.0006074130651541054 1 True True
2995.112 2.770411252975464 -1.3686140936664124 1.7060635725604456 -1.9082709751524867 -1.5708211104022425 1.1996697187423706 -0.0001915434404509142 0.10999353229999542 0.19256611168384552 -0.2951986491680145 -0.0 -0.00016907558892853558 1 True True
2995.162 2.770432233810425 -1.3624783766320725 1.7167614142047327 -1.9250966511168421 -1.5708487669574183 1.1995633840560913 -0.00019823663751594722 0.13717204332351685 0.23443421721458435 -0.38367602229118347 -0.0 -0.00010460526391398162 1 True True
2995.212 2.7704412937164307 -1.3550435167602082 1.7297700087176722 -1.945566316644186 -1.5708211104022425 1.1996567249298096 -0.00012690680159721524 0.16549809277057648 0.2795329689979553 -0.4409123659133911 -4.418852768139914e-05 2.9427876998557815e-15 1 True True
2995.2619999999997 2.7704710960388184 -1.3461872649243851 1.7449162642108362 -1.9695760212340296 -1.570756737385885 1.1995795965194702 -8.809027349343523e-05 0.18483032286167145 0.3177163898944855 -0.5160151720046997 -3.9667662349529564e-05 4.4701010406848764e-34 1 True True
2995.312 2.7704412937164307 -1.336061270242073 1.762310806904928 -1.996613164941305 -1.5708406607257288 1.1996285915374756 -4.68112518530898e-37 0.1943635493516922 0.34231218695640564 -0.5572043061256409 -3.2949497835943475e-05 0.0 1 True True
2995.362 2.770432233810425 -1.326688216333725 1.778496567402975 -2.022979875604147 -1.5707925001727503 1.1996415853500366 2.3513585691053513e-34 0.1780429631471634 0.306647926568985 -0.4860025644302368 1.1288504649814048e-14 0.0 1 True True
2995.412 2.770432233810425 -1.318339781170227 1.7930949370013636 -2.045478483239645 -1.5708168188678187 1.1996610164642334 0.0 0.15324847400188446 0.2646510899066925 -0.4150288701057434 1.7147264866520953e-33 0.0 1 True True
2995.462 2.7704412937164307 -1.3113185328296204 1.8049362341510218 -2.0647059879698695 -1.5707805792437952 1.1996285915374756 0.0 0.1236887276172638 0.22452375292778015 -0.3541891276836395 0.0 0.0 1 True True
2995.5119999999997 2.7704248428344727 -1.305531994705536 1.814918343220846 -2.0803328953185023 -1.5708091894732874 1.1995958089828491 0.0 0.10007254034280777 0.17773747444152832 -0.27493128180503845 0.0 0.0 1 True True
2995.562 2.7703990936279297 -1.3010919851115723 1.822815243397848 -2.092485567132467 -1.5707891623126429 1.199633002281189 0.0 0.07563506811857224 0.13235343992710114 -0.20851261913776398 0.0 0.0 1 True True
2995.612 2.7704203128814697 -1.2979529660991211 1.8281739393817347 -2.1011420689024867 -1.5708006064044397 1.199633002281189 0.0 0.05139926075935364 0.0860278531908989 -0.13760818541049957 0.0 0.0 1 True True
2995.662 2.770415782928467 -1.2960143250278016 1.8314173857318323 -2.106344839135641 -1.5708406607257288 1.1996492147445679 0.0 0.022495979443192482 0.04336355999112129 -0.07608374208211899 -0.0017809129785746336 0.0 1 True True
2995.712 2.770448684692383 -1.2957680982402344 1.831954304371969 -2.1081983051695765 -1.570853058491842 1.1995915174484253 0.0 0.0006949456874281168 -0.0006912800599820912 0.004013980273157358 -0.00022316577087622136 0.0 1 True True
2995.7619999999997 2.7704367637634277 -1.2956298154643555 1.8319786230670374 -2.1081587276854457 -1.5708168188678187 1.199633002281189 -5.950790727462169e-27 0.005644612479954958 0.004606148693710566 0.0003096376603934914 -4.849251126870513e-05 0.0 1 True True
2995.812 2.7704620361328125 -1.2949096125415345 1.8332174460040491 -2.1075149975218714 -1.5707805792437952 1.1996243000030518 0.0 -0.0010307433549314737 0.0011880275560542941 0.0007004608050920069 -1.9920223288225966e-20 0.0 1 True True
2995.862 2.7703990936279297 -1.2950945061496277 1.8330543676959437 -2.1078325710692347 -1.5708168188678187 1.1995806694030762 9.3918337370269e-05 -0.00014328515680972487 0.00035240635043010116 0.0012792587513104081 4.419402830535546e-05 0.0 1 True False
2995.912 2.7704248428344727 -1.2951824528029938 1.832935635243551 -2.1079918346800746 -1.5707886854754847 1.1996045112609863 0.0 -0.0006607042159885168 -0.0006198124610818923 -0.000582441221922636 1.557970153324919e-23 0.0 1 True False
2995.962 2.7704367637634277 -1.2953096193126221 1.8327811400042933 -2.1080876789488734 -1.5708091894732874 1.199612021446228 0.0 -0.0016063273651525378 -0.0015074241673573852 -0.0008372992742806673 2.366793106244616e-42 0.0 1 True False
2996.0119999999997 2.770415782928467 -1.295328603391983 1.8327320257769983 -2.1081072292723597 -1.570784870778219 1.199620008468628 0.0 -0.000358668330591172 -0.002409783424809575 -0.00019997508206870407 0.0 0.0 1 True False
2996.062 2.7704036235809326 -1.2955367428115387 1.8323896566974085 -2.107704301873678 -1.5707724730121058 1.1995882987976074 0.0 -0.017907049506902695 -0.02084077149629593 0.018887175247073174 0.0 0.0 1 True False
2996.112 2.7704203128814697 -1.2966792446425934 1.830393139516012 -2.104481359521383 -1.5707767645465296 1.1995925903320312 0.0 -0.03142431750893593 -0.05749677121639252 0.1024245172739029 0.0 0.0 1 True False
2996.162 2.7704367637634277 -1.2990901631167908 1.8259337584124964 -2.0977255306639613 -1.5707486311541956 1.1995958089828491 0.0 -0.06286825984716415 -0.10810588300228119 0.16728930175304413 0.0 0.0 1 True False
2996.212 2.770465135574341 -1.3029245299151917 1.819381062184469 -2.0872885189452113 -1.5707691351519983 1.1996002197265625 0.0 -0.08930571377277374 -0.15702305734157562 0.24780716001987457 0.0 0.0 1 True False
2996.2619999999997 2.7704617977142334 -1.308071420793869 1.810530964528219 -2.073550363580221 -1.5708168188678187 1.1995958089828491 0.0 -0.11152259260416031 -0.18886947631835938 0.3118462860584259 0.0 0.0 1 True False
2996.312 2.7704248428344727 -1.3144520384124299 1.799659554158346 -2.056179185906881 -1.5708254019366663 1.1996285915374756 0.0 -0.13743986189365387 -0.24609574675559998 0.37770721316337585 0.0 0.0 1 True False
2996.362 2.770416021347046 -1.3219750982574006 1.7865641752826136 -2.035445829431051 -1.5707891623126429 1.1996772289276123 0.0 -0.16743417084217072 -0.2887994349002838 0.4473300874233246 4.013041325379163e-05 0.0 1 True False
2996.412 2.770394802093506 -1.3307732802680512 1.7711332480060022 -2.0110990009703578 -1.5707805792437952 1.1996002197265625 0.0 -0.18961770832538605 -0.32579123973846436 0.515903651714325 3.3046128004402713e-23 0.0 1 True False
2996.462 2.7704367637634277 -1.3410632473281403 1.7537763754474085 -1.9837542972960414 -1.5708254019366663 1.1995958089828491 0.0 -0.1985054761171341 -0.34715133905410767 0.5416273474693298 5.019451099211495e-42 0.0 1 True False
2996.5119999999997 2.7703962326049805 -1.3503375810435791 1.7376812140094202 -1.9578992329039515 -1.570824925099508 1.199625015258789 0.0 -0.17299212515354156 -0.30876073241233826 0.4752221405506134 8.423584222327918e-05 0.0 1 True False
2996.562 2.7704246044158936 -1.3585387629321595 1.7234085241900843 -1.9356538257994593 -1.5707686583148401 1.199612021446228 0.0 -0.15385182201862335 -0.26105183362960815 0.4106583595275879 3.4250248445575686e-23 0.0 1 True False
2996.612 2.770395040512085 -1.365540773873665 1.711712662373678 -1.9169379673399867 -1.5707691351519983 1.1995866298675537 0.0 -0.12573830783367157 -0.21734404563903809 0.3342108726501465 5.203021198038046e-42 4.771128806169145e-05 1 True False
2996.662 2.7704410552978516 -1.371094898586609 1.7020300070392054 -1.9015990696349085 -1.5708325544940394 1.1996285915374756 0.0 -0.09904062002897263 -0.17368848621845245 0.27189117670059204 0.0 2.0513389245024882e-05 1 True False
2996.712 2.77044415473938 -1.3754658263972779 1.6944974104510706 -1.889761587182516 -1.5708006064044397 1.1996331214904785 0.0 -0.07284166663885117 -0.12657251954078674 0.19440433382987976 1.2654691183833222e-10 1.306695139646763e-05 1 True False
2996.7619999999997 2.7703664302825928 -1.378404216175415 1.6891096274005335 -1.8815027676024378 -1.5708125273333948 1.1996315717697144 9.398496331414208e-06 -0.04840407520532608 -0.08747421950101852 0.13809074461460114 1.9222491612443027e-29 2.3099593349229508e-08 1 True False
2996.812 2.7704572677612305 -1.3801701825908204 1.6861465612994593 -1.876618047753805 -1.5707767645465296 1.199661374092102 0.0 -0.021843867376446724 -0.03861838951706886 0.06489910185337067 0.0 3.508832121193672e-27 1 True False
2996.862 2.770416021347046 -1.3806771796992798 1.6852529684649866 -1.8754173717894496 -1.570772949849264 1.1996731758117676 0.0 -1.5985279766539406e-10 -1.227042201179529e-08 -0.005560665857046843 0.0 0.0 1 False False
2996.912 2.770460605621338 -1.380693570976593 1.6852529684649866 -1.8753777943053187 -1.5708087126361292 1.1996164321899414 0.0 -0.00014877025387249887 -0.0006436937255784869 0.0002675478463061154 0.0 0.0 1 False False
2996.962 2.770407199859619 -1.3807504338077088 1.6852605978595179 -1.8753735027708949 -1.5708087126361292 1.199615240097046 0.0 -0.0002324806118849665 -0.000488447374664247 0.00036885394365526736 0.0 0.0 1 False False
2997.0119999999997 2.770432233810425 -1.3806980115226288 1.6852853933917444 -1.8753015003600062 -1.5708087126361292 1.1996030807495117 0.0 -0.0007682585855945945 -0.00023594235244672745 0.0004901670035906136 0.0 0.0 1 False False
2997.062 2.7704365253448486 -1.3807414037040253 1.6852853933917444 -1.875286718408102 -1.5708048979388636 1.1996419429779053 0.0 -0.000662545149680227 -0.00026423498638905585 0.0005849056178703904 0.0 0.0 1 False False
2997.112 2.770395040512085 -1.3807143878987809 1.6852543989764612 -1.8752662144102992 -1.5708087126361292 1.199600100517273 0.0 -0.00017675104027148336 -0.00038934723124839365 0.0002666902728378773 0.0 0.0 1 False False
2997.162 2.7704203128814697 -1.3807414186051865 1.6852167288409632 -1.8752905331053675 -1.5707648436175745 1.1995658874511719 0.0 -0.0001908751728478819 -0.0002506770833861083 0.00012957472063135356 0.0 0.0 1 False False
2997.212 2.770399570465088 -1.3807128232768555 1.6852377096759241 -1.875310560266012 -1.5708168188678187 1.199644923210144 0.0 -0.00015835244266781956 -0.00013980943185742944 8.098690886981785e-05 0.0 0.0 1 False False
2997.2619999999997 2.770432233810425 -1.3807414037040253 1.685221020375387 -1.875286718408102 -1.570784870778219 1.1996285915374756 0.0 -9.136876906268299e-05 -0.00011316980089759454 6.841640697530238e-06 0.0 0.0 1 False False
2997.312 2.7704365253448486 -1.3807459634593506 1.685258690510885 -1.875253816644186 -1.570784870778219 1.199649453163147 0.0 -7.491016003768891e-05 -8.584695751778781e-05 1.039246737044745e-24 0.0 0.0 1 False False
2997.362 2.7704484462738037 -1.3807835292867203 1.685267750416891 -1.875298639337057 -1.570824925099508 1.1996241807937622 0.0 -4.4084849687658745e-42 -6.337893864838406e-05 1.5834672646870433e-43 0.0 0.0 1 False False
2997.412 2.770427942276001 -1.3807639640620728 1.6852663199054163 -1.8752747974791468 -1.5708006064044397 1.1996703147888184 0.0 0.0 -2.3418650900155266e-28 0.0 0.0 0.0 1 False False
2997.462 2.7704365253448486 -1.3807205718806763 1.6852377096759241 -1.8752385578551234 -1.5707691351519983 1.1995911598205566 0.0 0.0 -0.0 0.0 0.0 0.0 1 False False
2997.5119999999997 2.7704365253448486 -1.3807385873845597 1.6852062384234827 -1.8752385578551234 -1.5708087126361292 1.1996241807937622 0.0 0.0 -0.0 0.0 0.0 0.0 1 False False
2997.562 2.7704124450683594 -1.3807459783605118 1.6852167288409632 -1.875270505944723 -1.5707529226886194 1.1996464729309082 0.0 0.0 -4.725137874609814e-32 0.0 0.0 0.0 1 False False
2997.612 2.770423650741577 -1.3807805937579651 1.685192886983053 -1.8752466640868128 -1.570784870778219 1.1996285915374756 0.0 0.0 -0.0 0.0 0.0 0.0 1 False False
2997.662 2.7704203128814697 -1.380765513782837 1.685221020375387 -1.87530579189443 -1.5707891623126429 1.1996119022369385 0.0 0.0 -0.0 0.0 0.0 0.0 1 False False
2997.712 2.7704365253448486 -1.3807638895562668 1.685213867818014 -1.8752104244627894 -1.5708091894732874 1.1996703147888184 0.0 0.0 -0.0 0.0 0.0 0.0 1 False False
2997.7619999999997 2.770439863204956 -1.3807340276292344 1.6851962248431605 -1.8752342663206996 -1.5708006064044397 1.1995985507965088 0.0 0.0 -0.0 0.0 0.0 0.0 1 False False
2997.812 2.770432233810425 -1.38067281365905 1.6852052847491663 -1.8752747974791468 -1.570772949849264 1.199644923210144 2.0339651772106323e-27 0.0 -0.0 0.0 0.0 0.0 1 True False
2997.862 2.77044415473938 -1.3807369631579895 1.685258690510885 -1.8753301105894984 -1.5708087126361292 1.1996153593063354 0.0 0.0 -0.0 0.0 0.0 0.0 1 True False
2997.912 2.770416021347046 -1.3808003079942246 1.6852167288409632 -1.8752623997130335 -1.5707925001727503 1.1996208429336548 0.0 0.0 -0.0 0.0 0.0 0.0 1 True False
2997.962 2.770432233810425 -1.3807716828635712 1.6852052847491663 -1.8752581081786097 -1.570772949849264 1.1996285915374756 0.0 0.0 -0.0 0.0 0.0 0.0 1 True False
2998.0119999999997 2.7704203128814697 -1.3807009321502228 1.6851838270770472 -1.875270505944723 -1.5708091894732874 1.1996495723724365 0.0 0.0 -0.0 0.0 0.0 0.0 1 True False
2998.062 2.770416021347046 -1.380762667661049 1.6852334181415003 -1.8752342663206996 -1.570829216633932 1.1996315717697144 -1.1839221941202048e-22 0.0 -0.0 2.460895833086233e-14 0.0 0.0 1 True False
2998.112 2.770416021347046 -1.3807834845832367 1.685213867818014 -1.8752623997130335 -1.5707805792437952 1.1996361017227173 2.681005389604252e-05 0.0 -6.814247690180035e-29 3.738107300445399e-33 0.0 0.0 1 True False
2998.162 2.770366907119751 -1.3807671082070847 1.6851814428912562 -1.8752905331053675 -1.57074481645693 1.1996029615402222 1.5366051229648292e-05 0.0 -0.0 0.0 0.0 0.0 1 True False
2998.212 2.7704038619995117 -1.3806876254132767 1.6852706114398401 -1.875270505944723 -1.5707805792437952 1.1995773315429688 1.0769358596007805e-05 0.0 -0.0 0.0 0.0 0.0 1 True False
2998.2619999999997 2.770416021347046 -1.3807218831828614 1.6852334181415003 -1.8752418957152308 -1.5707724730121058 1.1995925903320312 1.2754618622284485e-41 0.0 -0.0 -1.6236441524597467e-07 0.0 0.0 1 True False
2998.312 2.7705070972442627 -1.3807626527598877 1.6852334181415003 -1.8753181896605433 -1.5707967917071741 1.1996119022369385 0.0 -1.958638280574301e-21 -0.0 2.487300480424892e-05 0.0 0.0 1 True False
2998.362 2.770432233810425 -1.3807626527598877 1.6852095762835901 -1.8752786121764125 -1.5707362333880823 1.1996029615402222 0.0 0.0 -0.0 5.7871545981828125e-24 0.0 0.0 1 True False
2998.412 2.7704575061798096 -1.3807789993337174 1.6851790587054651 -1.8752500019469203 -1.5707925001727503 1.1996376514434814 0.02852524444460869 2.95206038582418e-22 -0.0 8.786141371316603e-43 0.0 0.004457583650946617 1 True False
2998.462 2.7726387977600098 -1.3806215089610596 1.6850670019732874 -1.8752452335753382 -1.5708211104022425 1.2019107341766357 0.07688342779874802 0.00522068003192544 -0.01284751109778881 0.00027739626239053905 0.0 0.08061899989843369 1 True False
2998.5119999999997 2.778491973876953 -1.380193055873253 1.6843307654010218 -1.875131746331686 -1.5707929770099085 1.207698106765747 0.14779320359230042 0.012638860382139683 -0.013564368709921837 0.005110459867864847 0.0 0.14719276130199432 1 True False
2998.562 2.787767171859741 -1.3795616787723084 1.6834762732135218 -1.874873777429098 -1.5708449522601526 1.2170298099517822 0.22175173461437225 0.01512325368821621 -0.02074950747191906 0.004917219281196594 0.0 0.2164602428674698 1 True False
2998.612 2.8005449771881104 -1.3786096584847947 1.6822651068316858 -1.874542852441305 -1.5708087126361292 1.2297248840332031 0.2857270836830139 0.02265663631260395 -0.026890253648161888 0.0066080582328140736 -1.6071804997963568e-10 0.2884475886821747 1 True False
2998.662 2.8166747093200684 -1.3773383361152192 1.6807988325702112 -1.8742257557311 -1.5708091894732874 1.2459375858306885 0.3592569828033447 0.0283780787140131 -0.033339232206344604 0.00937116239219904 -2.4413110544544137e-29 0.3554399609565735 1 True False
2998.712 2.836488962173462 -1.3759139490178605 1.678957764302389 -1.8737083874144496 -1.5708048979388636 1.2655258178710938 0.42819952964782715 0.030574673786759377 -0.04321213439106941 0.009901809506118298 -0.0 0.43306320905685425 1 True False
2998.7619999999997 2.859694719314575 -1.3741253328374405 1.6766164938556116 -1.8731824360289515 -1.5707967917071741 1.288874864578247 0.4993458688259125 0.03616878762841225 -0.04800136387348175 0.012297268956899643 -0.0 0.4951314926147461 1 True False
2998.812 2.8862757682800293 -1.372220904832222 1.6739018599139612 -1.872634073297018 -1.5707843939410608 1.3155417442321777 0.5675733685493469 0.04243513569235802 -0.05178898945450783 0.012659648433327675 -0.00012442987645044923 0.5656757950782776 1 True False
2998.862 2.9164743423461914 -1.3699725282243271 1.6712268034564417 -1.8719388447203578 -1.5708087126361292 1.3458178043365479 0.6377691030502319 0.04553019627928734 -0.06538676470518112 0.010876678861677647 -1.365948708851629e-14 0.6365445852279663 1 True False
2998.912 2.950202465057373 -1.3675823521665116 1.6678651014911097 -1.87115540126943 -1.5707805792437952 1.3794186115264893 0.7077831625938416 0.0516570582985878 -0.06763843446969986 0.014495323412120342 0.0002824893454089761 0.7075966000556946 1 True False
2998.962 2.987455368041992 -1.364787684088089 1.6643684546100062 -1.8703376255431117 -1.5707486311541956 1.4165972471237183 0.7730860710144043 0.057366885244846344 -0.07613709568977356 0.01412126887589693 0.00025672357878647745 0.7738837599754333 1 True False
2999.0119999999997 3.028160333633423 -1.361840234403946 1.6602643171893519 -1.869462629357809 -1.5708168188678187 1.4572886228561401 0.843562662601471 0.06415097415447235 -0.08132069557905197 0.01847740449011326 4.1752737161004916e-05 0.8463718891143799 1 True False
2999.062 3.072197914123535 -1.3585147273591538 1.6560619513141077 -1.868328710595602 -1.5707767645465296 1.5014948844909668 0.9233523607254028 0.06686016917228699 -0.0919388085603714 0.02424645610153675 0.00025526652461849153 0.9111748933792114 1 True False
2999.112 3.1199119091033936 -1.3550680142692109 1.6515334288226526 -1.867251535455221 -1.5707767645465296 1.5490790605545044 0.982953667640686 0.07652304321527481 -0.09294117242097855 0.024785442277789116 4.0919615742650964e-18 0.986833930015564 1 True False
2999.162 3.1709067821502686 -1.3513169449618836 1.646583382283346 -1.866145750085348 -1.5707605520831507 1.600259780883789 1.0380592346191406 0.07581125199794769 -0.10534686595201492 0.019480442628264427 6.215699016602064e-37 1.0423119068145752 1 True False
2999.212 3.2233731746673584 -1.3473318082145234 1.6415870825396937 -1.8649503193297328 -1.5707929770099085 1.6525483131408691 1.0475678443908691 0.07692162692546844 -0.10102521628141403 0.02280166745185852 -2.112428774125874e-06 1.0494061708450317 1 True False
2999.2619999999997 3.2757368087768555 -1.3435966682485123 1.6365764776812952 -1.8637248478331507 -1.5707767645465296 1.7047765254974365 1.0465195178985596 0.0767027959227562 -0.09830383956432343 0.03045065514743328 -0.00011357840412529185 1.0445431470870972 1 True False
2999.312 3.3279786109924316 -1.3398050975850602 1.6313493887530726 -1.8626562557616175 -1.5707805792437952 1.757285475730896 1.0497686862945557 0.07259490340948105 -0.09722152352333069 0.01930217631161213 -6.49157736916095e-05 1.0425580739974976 1 True False
2999.362 3.380451202392578 -1.3358967465213318 1.626279656087057 -1.8613277874388636 -1.5707967917071741 1.809627652168274 1.0468608140945435 0.07541272044181824 -0.09950156509876251 0.024525005370378494 1.636140445349099e-09 1.0428767204284668 1 True False
2999.412 3.432755470275879 -1.3320300740054627 1.621392075215475 -1.8601037464537562 -1.5708006064044397 1.8619253635406494 1.0444557666778564 0.08038641512393951 -0.09975147992372513 0.024246428161859512 2.4853008892949534e-28 1.0448048114776611 1 True False
2999.462 3.4850709438323975 -1.3282502007535477 1.6163061300860804 -1.8589426479735316 -1.5708697477923792 1.9144032001495361 1.0499475002288818 0.07853201776742935 -0.0988524779677391 0.02446710504591465 0.0 1.0474554300308228 1 True False
2999.5119999999997 3.5374937057495117 -1.3244226735881348 1.6112306753741663 -1.857844968835348 -1.5707686583148401 1.9666149616241455 1.0501866340637207 0.0786004289984703 -0.1009332612156868 0.023109471425414085 0.0 1.0545341968536377 1 True False
2999.562 3.5898611545562744 -1.3204608422568818 1.606314484273092 -1.8565527401366175 -1.5708335081683558 2.01885986328125 1.043331503868103 0.0766855999827385 -0.1025533378124237 0.020593633875250816 0.0 1.0443358421325684 1 True False
2999.612 3.6421773433685303 -1.3165728610805054 1.601189438496725 -1.855344911614889 -1.570784870778219 2.071383476257324 1.0488474369049072 0.07822754979133606 -0.10105780512094498 0.02468949928879738 0.0 1.0449825525283813 1 True False
2999.662 3.694559097290039 -1.312858299618103 1.5960782209979456 -1.8542396030821742 -1.5707686583148401 2.1237614154815674 1.0500487089157104 0.07528535276651382 -0.10038978606462479 0.027655595913529396 0.0 1.049984335899353 1 True False
2999.712 3.7469944953918457 -1.3089279693416138 1.5910399595843714 -1.8529473743834437 -1.5707843939410608 2.1761741638183594 1.0431073904037476 0.073622927069664 -0.0999131128191948 0.019811291247606277 0.0 1.045939326286316 1 True False
2999.7619999999997 3.799222707748413 -1.3050902050784607 1.5861056486712855 -1.8517586193480433 -1.5708168188678187 2.2286157608032227 1.0492125749588013 0.07519634068012238 -0.09936735033988953 0.017976872622966766 0.0 1.0449941158294678 1 True False
2999.812 3.851619005203247 -1.3012847167304535 1.581034008656637 -1.850581785241598 -1.5707967917071741 2.280874252319336 1.0506342649459839 0.07802992314100266 -0.10015774518251419 0.028049170970916748 0.0 1.0526254177093506 1 True False
2999.862 3.9039785861968994 -1.2974009674838562 1.5759542624102991 -1.8494168720641078 -1.5708492437945765 2.333052396774292 1.045697569847107 0.07693307846784592 -0.09794440120458603 0.021293139085173607 0.0 1.0461876392364502 1 True False
2999.912 3.9562900066375732 -1.293518916969635 1.570833985005514 -1.8482443294920863 -1.5707767645465296 2.385706901550293 1.0487653017044067 0.07624170929193497 -0.10253094136714935 0.023462746292352676 4.155432179686613e-06 1.03609299659729 1 True False
2999.962 4.0087151527404785 -1.2895744007876893 1.5658333937274378 -1.8468924961485804 -1.570829216633932 2.437971591949463 1.0509717464447021 0.07626306265592575 -0.09918669611215591 0.03071776032447815 1.0670843820104886e-13 1.0480730533599854 1 True False
3000.0119999999997 4.061146259307861 -1.2858464282802125 1.560678784047262 -1.8457628689207972 -1.5707805792437952 2.490226984024048 1.0418943166732788 0.07984358817338943 -0.10020919144153595 0.023607462644577026 1.6209037070914437e-32 1.0441203117370605 1 True False
3000.062 4.113429069519043 -1.281923161154129 1.5557001272784632 -1.8446461162962855 -1.570756737385885 2.5427193641662598 1.0491933822631836 0.07397005707025528 -0.0975017249584198 0.02168518677353859 0.0 1.0433290004730225 1 True False
3000.112 4.165812015533447 -1.2780573827079316 1.5506699720965784 -1.8434297047057093 -1.5707805792437952 2.5950019359588623 1.0500202178955078 0.07423198223114014 -0.10187118500471115 0.028882713988423347 0.0 1.0527490377426147 1 True False
3000.162 4.218161106109619 -1.2742987436107178 1.5457709471331995 -1.8421770534911097 -1.570813004170553 2.6471805572509766 1.0441553592681885 0.08055087178945541 -0.10139137506484985 0.019577443599700928 0.0 1.0497868061065674 1 True False
3000.212 4.270477771759033 -1.2704583567431946 1.5406835714923304 -1.8410569630064906 -1.570857350026266 2.6997997760772705 1.0485841035842896 0.07497309148311615 -0.0986420065164566 0.02356155402958393 0.0 1.0417163372039795 1 True False
3000.2619999999997 4.322862148284912 -1.2665688258460541 1.535515610371725 -1.8397366009154261 -1.570801083241598 2.7521398067474365 1.0484188795089722 0.07519732415676117 -0.09801152348518372 0.029094044119119644 0.0 1.0496238470077515 1 True False
3000.312 4.375177383422852 -1.2627008718303223 1.5304997603045862 -1.8385879002013148 -1.5707843939410608 2.8043832778930664 1.0442460775375366 0.0789339616894722 -0.10397833585739136 0.017551284283399582 0.0 1.0471858978271484 1 True False
3000.362 4.42713737487793 -1.2589447361281891 1.5255726019488733 -1.83740295986318 -1.5707772413836878 2.8563640117645264 1.0118415355682373 0.07787005603313446 -0.09890934079885483 0.01990482397377491 -9.366149606648833e-05 1.0087112188339233 1 True False
3000.412 4.475835800170898 -1.255408303146698 1.520813290272848 -1.836337228814596 -1.5707967917071741 2.904991626739502 0.946906566619873 0.06892812997102737 -0.08404094725847244 0.02781759202480316 -2.1922645828453824e-05 0.9564526081085205 1 True False
3000.462 4.52104377746582 -1.2518622738173981 1.5164421240436 -1.83532776455068 -1.5707767645465296 2.950429916381836 0.8722860217094421 0.06126170977950096 -0.0876772478222847 0.015635691583156586 -3.330054037950192e-24 0.8628599047660828 1 True False
3000.5119999999997 4.563012599945068 -1.2488828760436554 1.5125587622271937 -1.8343335590758265 -1.5708254019366663 2.992044448852539 0.7953863739967346 0.0594078004360199 -0.07355052977800369 0.02138689160346985 -0.00011232176620978862 0.8055831789970398 1 True False
3000.562 4.601345062255859 -1.2461205285838624 1.5086877981769007 -1.8334509334959925 -1.5707767645465296 3.0304908752441406 0.7354526519775391 0.05097666010260582 -0.07015024125576019 0.017600927501916885 -8.053599458435201e-07 0.7424686551094055 1 True False
3000.612 4.636035919189453 -1.2434985798648377 1.5054119269000452 -1.8325888119139613 -1.5707648436175745 3.065340757369995 0.6673819422721863 0.04798642545938492 -0.06483916193246841 0.016478577628731728 -7.817255891495734e-07 0.6601000428199768 1 True False
3000.662 4.667410373687744 -1.2413118344596406 1.5022285620318812 -1.8318964443602503 -1.570801083241598 3.096585750579834 0.5928972959518433 0.04261985793709755 -0.055014628916978836 0.015500771813094616 0.00014452362665906549 0.5948415994644165 1 True False
3000.712 4.695321083068848 -1.2392079395106812 1.4997056166278284 -1.831252237359518 -1.5707686583148401 3.1244707107543945 0.525680422782898 0.036293528974056244 -0.051214974373579025 0.011104406788945198 0.0002278739120811224 0.5206857919692993 1 True False
3000.7619999999997 4.71958589553833 -1.237379179602005 1.4972851912127894 -1.8307677708067835 -1.570784870778219 3.148624897003174 0.45660385489463806 0.03469899669289589 -0.0447271354496479 0.010626034811139107 1.0752009254086004e-16 0.46903106570243835 1 True False
3000.812 4.740370750427246 -1.2358102363399048 1.4953282515155237 -1.8303305111327113 -1.5708168188678187 3.1696853637695312 0.38506603240966797 0.027755118906497955 -0.03686464950442314 0.008827421814203262 2.8879663417635815e-12 0.3773915767669678 1 True False
3000.862 4.7576904296875 -1.234581635599472 1.4936984221087855 -1.8299170933165492 -1.5707891623126429 3.1870129108428955 0.31083816289901733 0.025664906948804855 -0.02883107028901577 0.008425637148320675 4.386825016844993e-31 0.313912957906723 1 True False
3000.912 4.771734714508057 -1.2335397464087983 1.4924395720111292 -1.8295589886107386 -1.5707967917071741 3.2008347511291504 0.24573154747486115 0.017663555219769478 -0.02481161244213581 0.005356396082788706 -2.3508497824175423e-18 0.24593375623226166 1 True False
3000.962 4.782018184661865 -1.2327657502940674 1.4913738409625452 -1.829280515710348 -1.5707767645465296 3.2112436294555664 0.17302849888801575 0.012754775583744049 -0.017704293131828308 0.004952232353389263 -3.5709474858825376e-37 0.17608310282230377 1 True False
3001.0119999999997 4.788815975189209 -1.2322501105121155 1.4906190077411097 -1.8291532001891078 -1.5708492437945765 3.2182090282440186 0.10487154126167297 0.0071402969770133495 -0.009821057319641113 0.003232125658541918 -0.0 0.1030324324965477 1 True False
3001.062 4.792278289794922 -1.232156829243042 1.4903915564166468 -1.829142232934469 -1.570829216633932 3.221548318862915 0.035245172679424286 0.0018487960333004594 -0.0017151680076494813 0.0006307007279247046 -0.0 0.03531838580965996 1 True False
3001.112 4.792530536651611 -1.2318762105754395 1.4905875364886683 -1.8295356235899867 -1.5708087126361292 3.2218594551086426 -0.0006449134089052677 0.019801141694188118 0.020049553364515305 -0.02544330805540085 -0.0002100364799844101 -0.0003002825833391398 1 True False
3001.162 4.792604446411133 -1.2305189234069367 1.4927552382098597 -1.8330990276732386 -1.5707648436175745 3.221874713897705 0.00022654725762549788 0.036174796521663666 0.06547415256500244 -0.11595887690782547 -6.015435258317316e-18 0.00036242129863239825 1 True False
3001.212 4.792640686035156 -1.2282027763179322 1.4973824659930628 -1.840160985986227 -1.570784870778219 3.221870183944702 0.0003388545592315495 0.059788335114717484 0.12028616666793823 -0.17980730533599854 -9.137463263488898e-37 0.0003428893396630883 1 True False
3001.2619999999997 4.792656898498535 -1.2246823471835633 1.5045278708087366 -1.8508464298644007 -1.5708091894732874 3.2219185829162598 0.000864253903273493 0.08152516186237335 0.16496381163597107 -0.2425960898399353 -0.0 0.00019114113820251077 1 True False
3001.312 4.792703628540039 -1.2198490661433716 1.5140917936908167 -1.864873548547262 -1.5708006064044397 3.2219109535217285 0.00033993643592111766 0.10763388127088547 0.21112404763698578 -0.31991660594940186 -0.0 0.0001269098138436675 1 True False
3001.362 4.7927165031433105 -1.2139952641776581 1.525541130696432 -1.8822747669615687 -1.5708254019366663 3.2219314575195312 0.00016473617870360613 0.12984493374824524 0.25251781940460205 -0.3835042715072632 -0.0 9.788423631107435e-05 1 True False
3001.412 4.792724132537842 -1.2069710952094574 1.53965932527651 -1.903478284875387 -1.5708087126361292 3.2218947410583496 8.750429697101936e-05 0.15271185338497162 0.297218918800354 -0.44928619265556335 -0.0 5.080081245978363e-05 1 True False
3001.462 4.792748928070068 -1.1985952419093628 1.5557740370379847 -1.927960058251852 -1.5707805792437952 3.2219109535217285 7.06566934240982e-05 0.17664401233196259 0.35038167238235474 -0.5308554768562317 -0.0 3.4548811527201906e-05 1 True False
3001.5119999999997 4.7927327156066895 -1.1895441573909302 1.573660675679342 -1.9545628033080042 -1.5708168188678187 3.221919536590576 4.861228444497101e-05 0.17203019559383392 0.33638834953308105 -0.503890335559845 -0.0 7.547209249702744e-15 1 True False
3001.562 4.792712211608887 -1.1816863876632233 1.5891011396991175 -1.9783784351744593 -1.5708048979388636 3.2219271659851074 4.469755367608741e-05 0.14186030626296997 0.2924712598323822 -0.4350714683532715 -0.0 1.1464230898295061e-33 1 True False
3001.812 4.792679786682129 -1.1590979260257264 1.6330903212176722 -2.044674058953756 -1.5707648436175745 3.221935749053955 0.0 0.028551464900374413 0.05723736062645912 -0.08850821107625961 -0.0 0.0 1 True False
3001.862 4.7927327156066895 -1.1582654279521485 1.6348775068866175 -2.0475126705565394 -1.5707686583148401 3.22194766998291 0.0 0.007293642032891512 0.015418860130012035 -0.024757837876677513 -0.0 0.0 1 True False
3001.912 4.792719841003418 -1.1582892102054139 1.634989086781637 -2.047652383843893 -1.5707529226886194 3.2219271659851074 0.0 1.815037876939929e-11 1.5758644733117638e-18 -0.00013051691348664463 -0.0 0.0 1 True False
3001.962 4.792729377746582 -1.1583549243262787 1.634989086781637 -2.047716280023092 -1.570829216633932 3.2219314575195312 0.0 4.82349751109723e-05 0.0 -3.47200635216643e-19 -0.0 0.0 1 True False
3002.0119999999997 4.792707920074463 -1.1583191615394135 1.6350057760821741 -2.0476561985411585 -1.5708330313311976 3.2219109535217285 0.0 0.00024493763339705765 0.00013317656703293324 7.159143253106237e-19 -0.0 0.0 1 True False
3002.062 4.792741298675537 -1.158200429087021 1.6350210348712366 -2.047676225701803 -1.5707810560809534 3.221870183944702 4.055628778089409e-36 0.00040064737549982965 0.00040671922033652663 1.0874756553694857e-37 -0.0 0.0 1 True False
3002.112 4.792679786682129 -1.158222572212555 1.6350448767291468 -2.047664304772848 -1.570824925099508 3.221890449523926 0.0 0.0005695489817298949 0.00034689754829742014 -0.0001385767391184345 -0.0 0.0 1 True False
3002.162 4.792737007141113 -1.1581846338561554 1.6350448767291468 -2.047636171380514 -1.570784870778219 3.2218990325927734 -5.056316877016798e-05 0.00016868744569364935 0.00019405395141802728 -9.990407852455974e-05 -0.0 0.0 1 True False
3002.212 4.792655944824219 -1.158205346470215 1.6350157896624964 -2.0476800403990687 -1.5707929770099085 3.221951961517334 2.13141365515825e-18 0.00012190725101390854 0.00012755751959048212 -7.50095714465715e-05 -0.0 0.0 1 True False
3002.2619999999997 4.792712211608887 -1.1582177442363282 1.6350362936602991 -2.0476719341673792 -1.57084829012026 3.2219552993774414 0.0 8.691713446751237e-05 9.67870801105164e-05 -5.793699964229404e-10 -0.0 0.0 1 True False
3002.312 4.792707920074463 -1.1582428079894562 1.6350849310504358 -2.047664304772848 -1.5707648436175745 3.2219390869140625 0.0 8.20614950498566e-05 6.251865852391347e-05 -5.999497079756111e-05 -0.0 0.0 1 True False
3002.362 4.792695999145508 -1.1581859451583405 1.6350978056537073 -2.0476442776122035 -1.5708125273333948 3.22194766998291 0.0 5.292619576407386e-27 9.846752319769836e-13 -2.658215227796523e-12 -0.0 0.0 1 True False
3002.412 4.792646884918213 -1.1581922334483643 1.6350491682635706 -2.0477048359312953 -1.5708168188678187 3.2219271659851074 0.0 0.0 2.3163463615289226e-42 -4.037835320215806e-31 -0.0 0.0 1 True False
3002.462 4.792675971984863 -1.158209667806961 1.6350696722613733 -2.0476838550963343 -1.5708206335650843 3.221890449523926 0.0 0.0 0.0 -0.0 -0.0 0.0 1 True False
3002.5119999999997 4.79276180267334 -1.1581846636584778 1.6350610891925257 -2.0476442776122035 -1.5708168188678187 3.221874713897705 0.0 0.0 0.0 -0.0 -0.0 0.0 1 True False
3002.562 4.7926926612854 -1.1581683617881318 1.6350935141192835 -2.047676225701803 -1.5707810560809534 3.2219033241271973 0.0 0.0 0.0 -0.0 -0.0 0.0 1 True False
3002.612 4.792725563049316 -1.1582265359214325 1.635080639516012 -2.0476800403990687 -1.5707886854754847 3.2219033241271973 0.0 0.0 0.0 -0.0 -0.0 0.0 1 True False
3002.662 4.792646884918213 -1.1581728619388123 1.6350882689105433 -2.0476962528624476 -1.5708406607257288 3.2218987941741943 0.0 -0.00017555874364916235 0.0 -0.0 -0.0 0.0 1 True False
3002.712 4.792733192443848 -1.1581934255412598 1.6350448767291468 -2.0476681194701136 -1.570801083241598 3.221952438354492 0.0 0.0 0.0 -6.723510637129948e-13 -0.0 0.0 1 True False
3002.7619999999997 4.792679309844971 -1.1582501393607636 1.6350329558001917 -2.0477005443968714 -1.5707290808307093 3.2219316959381104 0.0 0.0 0.0 -7.108839781722054e-05 0.008657403290271759 -1.327885419894273e-13 1 True False
3002.812 4.792700290679932 -1.1582459074309845 1.6350773016559046 -2.0477048359312953 -1.570845905934469 3.221935987472534 -1.9609014008590755e-39 -3.18028760375455e-05 0.0 2.7696905349141752e-17 -9.65685416076667e-08 -2.0170611724922907e-32 1 True False
3002.862 4.792707920074463 -1.1582222443870087 1.6350815931903284 -2.0477005443968714 -1.570801083241598 3.2219479084014893 0.0 -2.205927921750117e-05 0.0 4.207166673792673e-36 -3.213373341003123e-19 -0.0 1 True False
3003.112 4.792686939239502 -1.1581934255412598 1.635063950215475 -2.0477005443968714 -1.5707967917071741 3.2219390869140625 -4.90454462513686e-44 0.0 0.0 0.0 -7.0385846055637e-24 -3.491344292112647e-27 1 False False
3003.162 4.792705059051514 -1.1581609708121796 1.635068718587057 -2.0477329693236292 -1.570829216633932 3.221919536590576 0.0 0.0 0.0 0.0 -1.0691907282798354e-42 -0.0 1 False False
3003.212 4.792657852172852 -1.1582268637469788 1.6350610891925257 -2.047636171380514 -1.5707843939410608 3.2219078540802 0.0 0.0 0.0 0.0 -0.0 -1.08959479080354e-13 1 False False
3003.2619999999997 4.792679309844971 -1.158153311615326 1.635080639516012 -2.0477329693236292 -1.570756737385885 3.221886396408081 0.0 0.0 0.0 0.0 -0.0 -1.6550972214521316e-32 1 False False
3003.312 4.792721271514893 -1.158189134006836 1.6350730101214808 -2.0476442776122035 -1.5707886854754847 3.2218945026397705 0.0 0.0 2.1148904261830484e-31 0.0 -0.0 -0.0 1 False False
3003.362 4.792695999145508 -1.1581359666636963 1.635031525288717 -2.04766382793569 -1.570801083241598 3.221869945526123 0.0 0.0 0.0 0.0 -0.0 -0.0 1 False False
3003.412 4.792657852172852 -1.1581846338561554 1.6351011435138147 -2.0476604900755824 -1.5708091894732874 3.221886396408081 0.0 0.0 0.0 0.0 -0.0 -0.0 1 False False
3003.462 4.792725563049316 -1.1581306916526337 1.6350610891925257 -2.0476681194701136 -1.5707653204547327 3.2219479084014893 0.0 0.0 0.0 0.0 -0.0 -0.0 1 False False
3003.5119999999997 4.792726993560791 -1.1582675141147156 1.635096851979391 -2.0477048359312953 -1.5707967917071741 3.2219078540802 0.0 0.0 0.0 0.0 -0.0 -0.0 1 False False
3003.562 4.792677879333496 -1.1582231384566803 1.6350820700274866 -2.047676225701803 -1.5708087126361292 3.221957206726074 0.0 0.0 0.0 0.0 -0.0 -0.0 1 False False
3003.612 4.792679309844971 -1.1581843358329316 1.6350567976581019 -2.0477005443968714 -1.5707362333880823 3.2219064235687256 6.217198965220426e-23 0.0 0.0 0.0 -0.0 -0.0 1 False False
3003.662 4.792794704437256 -1.1582006973079224 1.635047737752096 -2.047648092309469 -1.5707324186908167 3.221895456314087 -9.023922165445649e-19 -7.701267168158665e-05 0.0 0.0 -3.1212286227821906e-11 0.0010956941405311227 1 False False
3003.712 4.792725563049316 -1.158168004160263 1.635047737752096 -2.0477048359312953 -1.570801083241598 3.221890926361084 0.0 -2.5514001659347674e-40 0.0 0.0 -4.741153902855163e-30 0.00010481738718226552 1 False False
3003.7619999999997 4.792675018310547 -1.1581323009780427 1.6350567976581019 -2.0477167568602503 -1.5707925001727503 3.2219033241271973 0.0 0.0 0.0 0.0 5.456743383547291e-05 0.0003655831969808787 1 False False
3003.812 4.792721271514893 -1.1581978660872956 1.6351059118853968 -2.047660013238424 -1.5707925001727503 3.2219197750091553 0.0 0.0 0.0 0.0 2.124727689079009e-05 3.961923539463896e-06 1 False False
3003.862 4.792707920074463 -1.1582460564425965 1.6351059118853968 -2.0476442776122035 -1.5707843939410608 3.221935987472534 0.0 0.0 0.0 0.0 1.3360886441660114e-05 6.018171528200654e-25 1 False False
3003.912 4.792773246765137 -1.1586334270289917 1.6343439261065882 -2.046391626397604 -1.5707843939410608 3.221895456314087 0.0 -0.019269773736596107 -0.03956429660320282 0.06077784299850464 3.1101603781280573e-07 9.10844001811131e-44 1 False False
3003.962 4.792719841003418 -1.160176472072937 1.6312325636493128 -2.0417548618712367 -1.5708087126361292 3.2219064235687256 0.0 -0.042465388774871826 -0.07901845872402191 0.12599964439868927 4.724340974395284e-26 0.0 1 False False
3004.0119999999997 4.792695999145508 -1.1630138021758576 1.6255281607257288 -2.0335408649840296 -1.5708168188678187 3.221935987472534 0.0 -0.06972488760948181 -0.13531336188316345 0.19371873140335083 7.006492321624085e-45 0.0 1 False False
3004.062 4.792695999145508 -1.1668145221522828 1.6178081671344202 -2.0216103992857875 -1.5708044211017054 3.2219107151031494 0.0 -0.08928573876619339 -0.17099706828594208 0.2621486485004425 0.0 0.0 1 False False
3004.112 4.792691230773926 -1.1721129578403016 1.607739273701803 -2.0065680942931117 -1.5708091894732874 3.221881866455078 0.0 -0.1165635734796524 -0.22568215429782867 0.33479735255241394 0.0 0.0 1 False False
3004.162 4.792724132537842 -1.1783979696086426 1.595321003590719 -1.9877201519408167 -1.5707605520831507 3.221860885620117 0.0 -0.140507310628891 -0.2711026072502136 0.40193840861320496 0.0 0.0 1 False False
3004.212 4.7927165031433105 -1.1859600704959412 1.580663029347555 -1.9654871426024378 -1.5708048979388636 3.221919536590576 0.0 -0.15770992636680603 -0.3149893879890442 0.47638192772865295 0.0 0.0 1 False False
3004.2619999999997 4.792728424072266 -1.1946299535087128 1.5634968916522425 -1.9399296245970667 -1.570813004170553 3.2219197750091553 0.0 -0.18616746366024017 -0.36651772260665894 0.5534669756889343 0.0 0.0 1 False False
3004.312 4.79265832901001 -1.2032860678485413 1.5464494864093226 -1.913804670373434 -1.570772949849264 3.221886396408081 0.0 -0.16148877143859863 -0.31699496507644653 0.49243223667144775 0.0 0.0 1 False False
3004.362 4.792724132537842 -1.2109429401210328 1.531384293233053 -1.8912731609740199 -1.570829216633932 3.2219643592834473 0.0 -0.14843466877937317 -0.2835586667060852 0.4174949824810028 0.0 0.0 1 False False
3004.412 4.7927374839782715 -1.2174507540515442 1.5189326445208948 -1.8722087345519007 -1.5707524458514612 3.2219033241271973 0.0 -0.11578315496444702 -0.23132635653018951 0.35855358839035034 0.0 0.0 1 False False
3004.462 4.792719841003418 -1.2226297420314332 1.5085776487933558 -1.8564545116820277 -1.5708373228656214 3.2219181060791016 0.0 -0.09012845158576965 -0.18334975838661194 0.27692553400993347 0.0 0.0 1 False False
3004.5119999999997 4.792724132537842 -1.2267680031112214 1.5004995504962366 -1.8445097408690394 -1.5707891623126429 3.2218987941741943 0.0 -0.07247737795114517 -0.14032787084579468 0.21397732198238373 0.0 0.0 1 False False
3004.562 4.792741775512695 -1.2296808522990723 1.4948771635638636 -1.8357912502684535 -1.570801083241598 3.221956968307495 0.0 -0.04867882654070854 -0.09090094268321991 0.13426916301250458 0.0 0.0 1 False False
3004.612 4.792695999145508 -1.2314472955516358 1.4915545622455042 -1.8305918178954066 -1.5708211104022425 3.2218987941741943 0.0 -0.02364404685795307 -0.044157274067401886 0.06569580733776093 0.0 0.0 1 False False
3004.662 4.792757987976074 -1.2320024532130738 1.4902942816363733 -1.8292128048338832 -1.5708048979388636 3.2218611240386963 0.0 -0.0006415091338567436 -0.00079587590880692 -0.0007037968025542796 0.0 0.0 1 False False
3004.712 4.7927446365356445 -1.231915460234024 1.4903629461871546 -1.829257150689596 -1.5707648436175745 3.221952438354492 0.0 4.112227713903849e-08 -0.0009230276336893439 4.110594454687089e-05 0.0 0.0 1 False False
3004.7619999999997 4.792695999145508 -1.2319005292705079 1.4903305212603968 -1.8291813335814417 -1.570784870778219 3.2218899726867676 0.0 0.0 -0.0017179257702082396 0.000526518328115344 0.0 0.0 1 False False
3004.812 4.792766094207764 -1.231923059826233 1.4902556578265589 -1.82910217861318 -1.570801083241598 3.221877336502075 0.0 -4.619166429620236e-05 -0.0003467574715614319 0.001255648909136653 0.0 0.0 1 False False
3004.862 4.792720794677734 -1.2319079798511048 1.4903224150287073 -1.8290697536864222 -1.5707605520831507 3.2219078540802 0.0 -0.0004117803764529526 -0.00028808185015805066 0.0005660345777869225 0.0 0.0 1 False False
3004.912 4.792691707611084 -1.231936292057373 1.4902704397784632 -1.8290659389891566 -1.5707610289203089 3.2218775749206543 0.0 -0.00022628936858382076 -0.0002244279021397233 0.0001816500589484349 0.0 0.0 1 False False
3004.962 4.792667388916016 -1.2319816213897248 1.4902423063861292 -1.8290907345213832 -1.570824925099508 3.2219107151031494 0.0 -0.00024734303588047624 -0.00017072212358471006 0.0001206345550599508 0.0 0.0 1 False False
3005.0119999999997 4.792728424072266 -1.2319601041129609 1.490286652241842 -1.8290382824339808 -1.570784870778219 3.2219152450561523 0.0 -0.00015133776469156146 -0.00012506739585660398 8.50202632136643e-05 0.0 0.0 1 False False
3005.062 4.7927165031433105 -1.2319345337203522 1.4902704397784632 -1.8290020428099574 -1.5707967917071741 3.2218899726867676 0.0 -0.00010798060247907415 -8.852201426634565e-05 1.6742092946572945e-19 0.0 0.0 1 False False
3005.112 4.792679786682129 -1.2319465440562745 1.4902508894549769 -1.8290626011290492 -1.5708168188678187 3.2219760417938232 0.0 -9.448957280255854e-05 -8.36735634948127e-05 2.5431271800610866e-38 0.0 0.0 1 False False
3005.162 4.7927165031433105 -1.2319935721210022 1.4902213255511683 -1.829074045220846 -1.5707967917071741 3.221886396408081 0.0 -7.747300401206303e-07 -4.031080309014964e-29 0.0 0.0 0.0 1 False False
3005.212 4.792684078216553 -1.2320291858962555 1.490274731312887 -1.8290702305235804 -1.5707481543170374 3.2219033241271973 0.0 -5.3450286941369995e-05 -1.790332181580787e-17 0.0 0.0 0.0 1 False False
3005.2619999999997 4.792712211608887 -1.2320082944682618 1.4902342001544397 -1.8290864429869593 -1.5707886854754847 3.2218902111053467 0.0 -3.1459150524092143e-42 -0.0 0.0 0.0 0.0 1 False False
3005.312 4.792695999145508 -1.231954650287964 1.4902713934527796 -1.8291145763792933 -1.570801083241598 3.221886396408081 0.0 0.0 -0.0 0.0 0.0 0.0 1 False False
3005.362 4.792675495147705 -1.232005314236023 1.4902952353106897 -1.8290864429869593 -1.5708168188678187 3.221919536590576 0.0 0.0 -0.0 0.0 0.0 0.0 1 False False
3005.412 4.7927165031433105 -1.2319963735393067 1.4902508894549769 -1.8290344677367152 -1.5707724730121058 3.221924304962158 0.0 0.0 -0.0 0.0 0.0 0.0 1 False False
3005.462 4.792720794677734 -1.23194374263797 1.4902790228473108 -1.8290907345213832 -1.5707925001727503 3.2218990325927734 0.0 0.0 -0.0 0.0 0.0 0.0 1 False False
3005.5119999999997 4.7927165031433105 -1.2319844228080292 1.490262810383932 -1.8290578327574671 -1.570784870778219 3.2218990325927734 0.0 0.0 -0.0 0.0 0.0 0.0 1 False False
3005.562 4.792666435241699 -1.2319590610316773 1.4902213255511683 -1.8290783367552699 -1.5707724730121058 3.2219066619873047 0.0 0.0 -0.0 0.0 0.0 0.0 1 False False
3005.612 4.792715549468994 -1.2319799822619935 1.4902995268451136 -1.8290306530394496 -1.570813004170553 3.221916675567627 0.0 0.0 -0.0 0.0 0.0 0.0 1 False False
3005.662 4.792737007141113 -1.232042745952942 1.4902179876910608 -1.8290587864317835 -1.5707686583148401 3.221980333328247 0.0 0.0 -0.0 0.0 0.0 0.0 1 False False
3005.712 4.792695999145508 -1.2319844526103516 1.490229908620016 -1.8290983639159144 -1.5707724730121058 3.221919536590576 0.0 0.0 -0.0 0.0 0.0 0.0 1 False False
3005.7619999999997 4.792712211608887 -1.2319800418666382 1.490258518849508 -1.8290382824339808 -1.5707605520831507 3.2218821048736572 0.0 0.0 -0.0 0.0 0.0 0.0 1 False False
3005.812 4.79268741607666 -1.2320008438876648 1.490246597920553 -1.8290587864317835 -1.5708087126361292 3.2218902111053467 0.0 0.0 -0.0 0.0 0.0 0.0 1 False False
3005.862 4.792725086212158 -1.2320099932006379 1.490262810383932 -1.82902254680776 -1.5707724730121058 3.221919536590576 0.0 0.0 -0.0 0.0 0.0 0.0 1 False False
3005.912 4.792707920074463 -1.2320008736899872 1.4902880827533167 -1.8291026554503382 -1.5707686583148401 3.2219533920288086 0.0 0.0 -4.009398607389414e-14 0.0 0.0 0.0 1 False False
3005.962 4.792662620544434 -1.2320455473712464 1.490274731312887 -1.8291145763792933 -1.5708048979388636 3.2218990325927734 0.0 0.0 -9.388699710976274e-44 6.877403646576852e-10 0.0 0.0 1 False False
3006.0119999999997 4.792725563049316 -1.2320144337466736 1.490290943776266 -1.8290697536864222 -1.5707767645465296 3.221952199935913 0.0 0.0 -0.0 1.0446794112096733e-28 0.0 0.0 1 False False
3006.062 4.792655944824219 -1.2320008736899872 1.4902837912188929 -1.829050680200094 -1.5708087126361292 3.221972942352295 0.0 0.0 -0.0 0.0 0.0 0.0 1 False False
3006.112 4.792675018310547 -1.232012854223587 1.490258518849508 -1.8290344677367152 -1.5707686583148401 3.221881628036499 0.0 0.0 -0.0 0.0 0.0 0.0 1 False False
3006.162 4.792707920074463 -1.2319755119136353 1.4902790228473108 -1.8290826282896937 -1.570756737385885 3.221935749053955 0.0 0.0 -0.0 0.0 0.0 0.0 1 False False
3006.212 4.792657852172852 -1.2319844526103516 1.490262810383932 -1.8291260204710902 -1.5708373228656214 3.221890449523926 0.0 0.0 -0.0 0.0 0.0 0.0 1 False False
3006.2619999999997 4.792707920074463 -1.231984482412674 1.4902551809894007 -1.8290697536864222 -1.570813004170553 3.22194766998291 0.0 0.0 -0.0 0.0 0.0 0.0 1 True False
3006.312 4.792753219604492 -1.2319755119136353 1.490262810383932 -1.82910217861318 -1.570801083241598 3.221987724304199 0.007361604832112789 0.0 -0.0 0.0 0.0 0.004564459435641766 1 True False
3006.362 4.793601989746094 -1.2319465440562745 1.4902399222003382 -1.82910217861318 -1.570784870778219 3.2227110862731934 0.02364339306950569 0.0006791691994294524 -0.003921618685126305 0.0 0.0 0.021166924387216568 1 True False
3006.412 4.795421123504639 -1.2318449181369324 1.4898365179644983 -1.8289386234679164 -1.5708006064044397 3.2246527671813965 0.05535680428147316 0.007111287210136652 -0.010533817112445831 0.0040838271379470825 0.0 0.05522924289107323 1 True False
3006.462 4.799432754516602 -1.2313526731780549 1.4891608397113245 -1.828780313531393 -1.5708048979388636 3.228604316711426 0.10395671427249908 0.013048797845840454 -0.015630163252353668 0.005685638636350632 0.0 0.10319115221500397 1 True False
3006.5119999999997 4.806325435638428 -1.2304844719222565 1.488126579915182 -1.8284465275206507 -1.5708006064044397 3.2353355884552 0.1718795746564865 0.021375516429543495 -0.027316290885210037 0.008241456001996994 0.0 0.17811280488967896 1 True False
3006.562 4.817122459411621 -1.2292915743640442 1.4864934126483362 -1.8280207119383753 -1.5707810560809534 3.2463858127593994 0.2523975670337677 0.030964991077780724 -0.038013022392988205 0.009106520563364029 2.863370828954362e-24 0.25501248240470886 1 True False
3006.612 4.831942081451416 -1.2276812952807923 1.4841135183917444 -1.827325006524557 -1.5708087126361292 3.261159658432007 0.33267343044281006 0.03749274089932442 -0.05500040948390961 0.01328801829367876 4.344025239406933e-43 0.32257279753685 1 True False
3006.662 4.850347995758057 -1.2256377798369904 1.481218163167135 -1.826437612573141 -1.5707767645465296 3.2794737815856934 0.39858517050743103 0.04617543891072273 -0.0619560107588768 0.017766596749424934 7.399422611342743e-05 0.3973948359489441 1 True False
3006.712 4.872095108032227 -1.2230861347964783 1.4778836409198206 -1.8254481754698695 -1.5707767645465296 3.301060914993286 0.4684865474700928 0.05389907583594322 -0.07425245642662048 0.020987505093216896 7.313884914372792e-11 0.4737513065338135 1 True False
3006.7619999999997 4.897273540496826 -1.2203771036914368 1.4736993948565882 -1.824346204797262 -1.5708087126361292 3.3265185356140137 0.5386079549789429 0.06147269532084465 -0.08275995403528214 0.024067377671599388 1.1109805877418145e-29 0.5349535346031189 1 True False
3006.812 4.92457914352417 -1.2172377866557618 1.4694750944720667 -1.8231178722777308 -1.5707767645465296 3.354016065597534 0.5160825848579407 0.05842981114983559 -0.08564724028110504 0.020442457869648933 -0.002097363816574216 0.5211228132247925 1 True False
3006.862 4.949091911315918 -1.2145992380431672 1.465639893208639 -1.8219977817931117 -1.5707486311541956 3.378398895263672 0.45345956087112427 0.051035940647125244 -0.06624838709831238 0.020724112167954445 0.0003674023610074073 0.44968488812446594 1 True False
3006.912 4.970134258270264 -1.2122420829585572 1.4625275770770472 -1.821059366265768 -1.5707691351519983 3.3991498947143555 0.3893730938434601 0.040172625333070755 -0.06413595378398895 0.01502501592040062 -7.0877053985896055e-06 0.4012719988822937 1 True False
3006.962 4.987466812133789 -1.2102887493423005 1.459740940724508 -1.8202601871886195 -1.5707529226886194 3.416808843612671 0.3154790997505188 0.03649379312992096 -0.045561980456113815 0.016326533630490303 -0.0003473231627140194 0.3097183406352997 1 True False
3007.0119999999997 5.001482009887695 -1.2087280315211792 1.4576156775103968 -1.8196646175780238 -1.5707810560809534 3.430670738220215 0.2425267994403839 0.028318211436271667 -0.04189569503068924 0.011928237043321133 6.04927281769134e-14 0.2455391138792038 1 True False
3007.062 5.011829376220703 -1.2075112623027344 1.4558294455157679 -1.8191148243346156 -1.5707929770099085 3.4411659240722656 0.1758970469236374 0.019532952457666397 -0.028453916311264038 0.006593187339603901 9.188858442161022e-33 0.17310865223407745 1 True False
3007.112 5.018911838531494 -1.206738607292511 1.4548466841327112 -1.8188525638976039 -1.5707886854754847 3.4481441974639893 0.10407646745443344 0.011914257891476154 -0.01644418016076088 0.004103001207113266 0.0 0.10806059092283249 1 True False
3007.162 5.022358417510986 -1.2064135831645508 1.4542940298663538 -1.818705221215719 -1.5707886854754847 3.4515724182128906 0.03650226071476936 0.0013635180657729506 -0.00174687709659338 0.00240293494425714 0.0 0.036644548177719116 1 True False
3007.212 5.022730827331543 -1.206240014438965 1.4544604460345667 -1.8189918003477992 -1.5708172957049769 3.4519548416137695 -0.0006544189527630806 0.018282264471054077 0.01749238185584545 -0.0225735604763031 0.0 -2.1285680162907994e-10 1 True False
3007.2619999999997 5.022753715515137 -1.2050337356380005 1.4566314856158655 -1.82257141689443 -1.5707967917071741 3.4519505500793457 0.00011957396054640412 0.033108241856098175 0.0676475390791893 -0.10297178477048874 0.0 0.00045730543206445873 1 True False
3007.312 5.022703647613525 -1.202673689728119 1.4613783995257776 -1.8296176395811976 -1.5707767645465296 3.452019214630127 0.00036943014129064977 0.05994754284620285 0.1174032911658287 -0.16963090002536774 0.0 0.0005814884207211435 1 True False
3007.362 5.022756576538086 -1.199275628929474 1.4683955351458948 -1.8400775394835414 -1.57084829012026 3.452019214630127 0.00047446604003198445 0.0819251760840416 0.16401903331279755 -0.24093972146511078 0.0 0.00021167556405998766 1 True False
3007.412 5.022731304168701 -1.1946287018111725 1.4780505339251917 -1.8539287052550257 -1.5707767645465296 3.4520392417907715 0.0009670155122876167 0.10267043113708496 0.21213418245315552 -0.30959028005599976 0.0 0.00013926443352829665 1 True False
3007.462 5.022755146026611 -1.1888736945441742 1.4896486441241663 -1.8715926609435023 -1.570853058491842 3.4519941806793213 0.00026466671261005104 0.12491607666015625 0.2531060576438904 -0.37997621297836304 0.0 9.878466516966e-05 1 True False
3007.5119999999997 5.022787570953369 -1.1819249254516144 1.5035861174212855 -1.8925744495787562 -1.570756737385885 3.452064275741577 0.0001585782301845029 0.147659033536911 0.2999190390110016 -0.4533977210521698 0.0 7.096503395587206e-05 1 True False
