Andreas691667/Digital_Twin_UR/src/robot_connection_manager/robot_output/E5_robot_output.csv
timestamp actual_q_0 actual_q_1 actual_q_2 actual_q_3 actual_q_4 actual_q_5 actual_qd_0 actual_qd_1 actual_qd_2 actual_qd_3 actual_qd_4 actual_qd_5 safety_status output_bit_register_65 output_bit_register_66
4622.331999999999 3.712071418762207 -0.8254707616618653 0.8429845015155237 -1.5882851086058558 -1.5708769003497522 2.14127516746521 0.0 0.0 0.0 -0.0 0.0 -0.0 1 False False
4622.382 3.7120771408081055 -0.8255155843547364 0.8429520765887659 -1.5882650814452113 -1.570784870778219 2.14127516746521 0.0 0.0 0.0 -0.0 0.0 -0.0 1 False False
4622.432 3.7120354175567627 -0.8254907888225098 0.8429802099810999 -1.588320871392721 -1.5707810560809534 2.141267776489258 0.0 0.0 0.0 -0.0 0.0 -0.0 1 False False
4622.482 3.7120862007141113 -0.8255070012858887 0.8429563681231897 -1.5882774792113246 -1.5707810560809534 2.14127516746521 0.0 0.0 0.0 -0.0 0.0 -0.0 1 False False
4622.532 3.7120862007141113 -0.8254993718913575 0.8429477850543421 -1.5882731876769007 -1.5708168188678187 2.141270637512207 0.0 0.0 0.0 -0.0 0.0 -0.0 1 False False
4622.581999999999 3.712083339691162 -0.8254222434810181 0.8430007139789026 -1.5882731876769007 -1.570732895527975 2.141279697418213 0.0 0.0 0.0 -0.0 0.0 -0.0 1 False False
4622.632 3.7120771408081055 -0.8254825633815308 0.8429845015155237 -1.5882932148375453 -1.5707767645465296 2.1413049697875977 0.0 0.0 0.0 -0.0 0.0 -0.0 1 False False
4622.682 3.712066888809204 -0.8254620593837281 0.8429635206805628 -1.5883094273009242 -1.5708006064044397 2.141254186630249 0.0 0.0 0.0 -0.0 0.0 -0.0 1 False False
4622.732 3.71209979057312 -0.8255112928203125 0.8429353872882288 -1.5883413753905238 -1.570772949849264 2.141263246536255 0.0 0.0 0.0 -0.0 0.0 -0.0 1 False False
4622.782 3.7120862007141113 -0.8254869741252442 0.8429477850543421 -1.5882932148375453 -1.5707810560809534 2.141282558441162 0.0 0.0 0.0 -0.0 0.0 -0.0 1 False False
4622.831999999999 3.7120323181152344 -0.8254823249629517 0.8430212179767054 -1.5882569752135218 -1.5708401838885706 2.1412885189056396 0.0 0.0 0.0 -0.0 0.0 -0.0 1 False False
4622.882 3.7121145725250244 -0.8254993718913575 0.8430007139789026 -1.5882846317686976 -1.5708048979388636 2.141313076019287 0.0 0.0 0.0 -0.0 0.0 -0.0 1 False False
4622.932 3.7120697498321533 -0.8254750531962891 0.8429716269122522 -1.5882932148375453 -1.5708211104022425 2.141254186630249 0.0 0.0 0.0 -0.0 0.0 -0.0 1 False False
4622.982 3.7120981216430664 -0.8255275052836915 0.8429973761187952 -1.5882650814452113 -1.5707686583148401 2.141267776489258 0.0 0.0 0.0 -0.0 0.0 -0.0 1 False False
4623.032 3.712033748626709 -0.8255080145648499 0.8429396788226526 -1.5882412395873011 -1.570723835621969 2.141263246536255 0.0 0.0 0.0 -0.0 0.0 -0.0 1 False False
4623.081999999999 3.712050199508667 -0.8255394262126465 0.8429520765887659 -1.5883294544615687 -1.570784870778219 2.141263246536255 0.0 0.0 0.0 -0.0 0.0 -0.0 1 False False
4623.132 3.7121188640594482 -0.825491265659668 0.8429353872882288 -1.5883175335326136 -1.570801083241598 2.141291618347168 0.0 0.0 0.0 -0.0 0.0 -0.0 1 False False
4623.182 3.712062358856201 -0.8255070608905335 0.8429930845843714 -1.5883094273009242 -1.5708254019366663 2.141284227371216 0.0 0.0 0.0 -0.0 0.0 -0.0 1 False False
4623.232 3.7120325565338135 -0.8254416149905701 0.8429802099810999 -1.588280817071432 -1.5707686583148401 2.141242504119873 0.0 0.0 0.0 -0.0 0.0 -0.0 1 False False
4623.282 3.712062358856201 -0.8255155843547364 0.8429396788226526 -1.588297029534811 -1.5707605520831507 2.141338348388672 0.0 0.0 0.0 -0.0 0.0 -0.0 1 False False
4623.331999999999 3.7120742797851562 -0.825478271847107 0.8429563681231897 -1.5883251629271449 -1.5707767645465296 2.141247034072876 0.0 0.0 0.0 -0.0 0.0 -0.0 1 False False
4623.382 3.712099552154541 -0.8254869741252442 0.8429964224444788 -1.5882731876769007 -1.5707648436175745 2.141296148300171 0.0 0.0 0.0 -0.0 0.0 -0.0 1 False False
4623.432 3.712095022201538 -0.8254865568927308 0.8429477850543421 -1.588313718835348 -1.5708048979388636 2.141279697418213 0.0 0.0 0.0 -0.0 0.0 -0.0 1 False False
4623.482 3.712029457092285 -0.8254869741252442 0.8429887930499476 -1.588297029534811 -1.570801083241598 2.141279697418213 0.0 0.0 0.0 -0.0 0.0 -0.0 1 False False
4623.532 3.7120862007141113 -0.8255070012858887 0.8429964224444788 -1.588280817071432 -1.570801083241598 2.1413004398345947 0.0 0.0 0.0 -0.0 0.0 -0.0 1 False False
4623.581999999999 3.7120742797851562 -0.8254825633815308 0.8430007139789026 -1.5883094273009242 -1.5707772413836878 2.1412723064422607 0.0 0.0 0.0 -0.0 0.0 -0.0 1 False False
4623.632 3.712083101272583 -0.8255199950984498 0.8430216948138636 -1.5882774792113246 -1.5707724730121058 2.141254186630249 0.0 0.0 0.0 -0.0 0.0 -0.0 1 False False
4623.682 3.712062358856201 -0.8254708212665101 0.8429473082171839 -1.5882932148375453 -1.5708335081683558 2.1412513256073 0.0 0.0 0.0 -0.0 0.0 -0.0 1 False False
4623.732 3.712095022201538 -0.8255028289607544 0.8429845015155237 -1.588313718835348 -1.5707891623126429 2.141291618347168 0.0 0.0 0.0 -0.0 0.0 -0.0 1 False False
4623.782 3.712111234664917 -0.8255598110011597 0.8429845015155237 -1.5883013210692347 -1.5708487669574183 2.141254186630249 0.0 0.0 0.0 -0.0 0.0 -0.0 1 False False
4623.831999999999 3.7120537757873535 -0.8254826229861756 0.8429754416095179 -1.5883175335326136 -1.5708044211017054 2.141308546066284 0.0 0.0 0.0 -0.0 0.0 -0.0 1 False False
4623.882 3.7120416164398193 -0.8255565923503418 0.8430054823504847 -1.588280817071432 -1.5708168188678187 2.1413004398345947 0.0 0.0 0.0 -0.0 0.0 -0.0 1 False False
4623.932 3.7120327949523926 -0.825438455944397 0.8429563681231897 -1.5882650814452113 -1.5707643667804163 2.141254186630249 0.0 0.0 0.0 -0.0 0.0 -0.0 1 False False
4623.982 3.712110996246338 -0.8254950803569336 0.8429678122149866 -1.5883056126036585 -1.5707967917071741 2.141263246536255 0.0 0.0 0.0 -0.0 0.0 -0.0 1 False False
4624.032 3.7120537757873535 -0.8254620593837281 0.8430145422564905 -1.5883456669249476 -1.5707967917071741 2.141237735748291 0.0 0.0 0.0 -0.0 0.0 -0.0 1 False False
4624.081999999999 3.7120862007141113 -0.8255317372134705 0.8429763952838343 -1.5882889233031214 -1.5708211104022425 2.141313076019287 0.0 0.0 0.0 -0.0 0.0 -0.0 1 False False
4624.132 3.712090492248535 -0.8254993718913575 0.8429606596576136 -1.5883251629271449 -1.5707648436175745 2.141242504119873 0.0 0.0 0.0 -0.0 0.0 -0.0 1 False False
4624.182 3.7120699882507324 -0.8255112928203125 0.8429606596576136 -1.5883451900877894 -1.5707605520831507 2.141313076019287 0.0 0.0 0.0 -0.0 0.0 -0.0 1 False False
4624.232 3.712056875228882 -0.8255362075618287 0.8430426756488245 -1.588285585443014 -1.5707925001727503 2.141279697418213 0.0 0.0 0.0 -0.0 0.0 -0.0 1 False False
4624.282 3.7121024131774902 -0.8255231541446229 0.8429563681231897 -1.5882774792113246 -1.5707891623126429 2.141267776489258 0.0 0.0 0.0 -0.0 0.0 -0.0 1 False False
4624.331999999999 3.71207857131958 -0.8254256409457703 0.842905346547262 -1.5882774792113246 -1.570784870778219 2.141313076019287 0.0 0.0 0.0 -0.0 0.0 -0.0 1 False False
4624.382 3.7121317386627197 -0.8255242270282288 0.8429721037494105 -1.588320871392721 -1.570801083241598 2.1412768363952637 0.0 0.0 0.0 -0.0 0.0 -0.0 1 False False
4624.432 3.7120938301086426 -0.8254469794085999 0.8429167906390589 -1.5882607899107875 -1.5708168188678187 2.141266107559204 0.0 0.0 0.0 -0.0 0.0 -0.0 1 False False
4624.482 3.7121024131774902 -0.8255639237216492 0.8430264631854456 -1.5882889233031214 -1.5707925001727503 2.141270637512207 0.0 0.0 0.0 -0.0 0.0 -0.0 1 False False
4624.532 3.712082862854004 -0.825524167423584 0.8429887930499476 -1.5882851086058558 -1.5708416144000452 2.1413140296936035 0.0 0.0 0.0 -0.0 0.0 -0.0 1 False False
4624.581999999999 3.712110996246338 -0.8254375022700806 0.8429673353778284 -1.588273664514059 -1.5707605520831507 2.141279697418213 0.0 0.0 0.0 -0.0 0.0 -0.0 1 False False
4624.632 3.7120699882507324 -0.8255274456790467 0.8429892698871058 -1.5882889233031214 -1.5707925001727503 2.141279697418213 0.0 0.0 0.0 -0.0 0.0 -0.0 1 False False
4624.682 3.712054491043091 -0.825487033729889 0.8429515997516077 -1.5882817707457484 -1.5708254019366663 2.141221284866333 0.0 0.0 0.0 -0.0 0.0 -0.0 1 False False
4624.732 3.712082862854004 -0.825491265659668 0.8429978529559534 -1.588297506371969 -1.570801083241598 2.141235113143921 0.0 0.0 0.0 -0.0 0.0 -0.0 1 False False
4624.782 3.7121236324310303 -0.8254736226848145 0.8429978529559534 -1.588269372979635 -1.5707805792437952 2.141267776489258 0.0 0.0 0.0 -0.0 0.0 -0.0 1 False False
4624.831999999999 3.712045669555664 -0.8255320352366944 0.8430007139789026 -1.5883094273009242 -1.570784870778219 2.141254186630249 0.0 0.0 0.0 -0.0 0.0 -0.0 1 False False
4624.882 3.7120203971862793 -0.8254750531962891 0.8430007139789026 -1.588292738000387 -1.570768181477682 2.141329526901245 5.662500188918784e-05 0.0 0.0 -0.0 0.0 -0.0 1 False False
4624.932 3.7120907306671143 -0.8254543107799073 0.8429721037494105 -1.5883170566954554 -1.570813004170553 2.1412513256073 0.0 0.0 0.0 -0.0 0.0 -0.0 1 False False
4624.982 3.712116003036499 -0.8254497212222596 0.8429349104510706 -1.58836092571401 -1.5707967917071741 2.1412229537963867 0.0 0.0 0.0 -0.0 0.0 -0.0 1 False False
4625.032 3.712120532989502 -0.8254736226848145 0.8429845015155237 -1.5883451900877894 -1.5707686583148401 2.141279697418213 0.0 0.0 0.0 -0.0 0.0 -0.0 1 False False
4625.081999999999 3.7120413780212402 -0.8255202931216736 0.8429430166827601 -1.588273664514059 -1.5707891623126429 2.1412885189056396 0.0 0.0 0.0 -0.0 0.0 -0.0 1 False False
4625.132 3.7120490074157715 -0.8255157035640259 0.8430350462542933 -1.5883246860899867 -1.5707724730121058 2.141254186630249 0.0 0.0 0.0 -0.0 0.0 -0.0 1 False False
4625.182 3.7120490074157715 -0.825454370384552 0.8429678122149866 -1.588245531121725 -1.5707925001727503 2.1413040161132812 0.0 0.0 0.0 -0.0 0.0 -0.0 1 False False
4625.232 3.71205472946167 -0.8254053753665467 0.8429887930499476 -1.5883094273009242 -1.5708373228656214 2.141284227371216 0.0 0.0 0.0 -0.0 0.0 -0.0 1 False False
4625.282 3.712099552154541 -0.8255365651896973 0.8429845015155237 -1.588252683679098 -1.570824925099508 2.141266107559204 0.0 0.0 0.0 -0.0 0.0 -0.0 1 False False
4625.331999999999 3.712038278579712 -0.8254869741252442 0.8429887930499476 -1.5882650814452113 -1.5707843939410608 2.141296148300171 0.0 0.0 0.0 -0.0 0.0 -0.0 1 False False
4625.382 3.7120907306671143 -0.8255039018443604 0.8430083433734339 -1.588268896142477 -1.570784870778219 2.141279697418213 0.0 0.0 0.0 -0.0 0.0 -0.0 1 False False
4625.432 3.712045669555664 -0.8255112332156678 0.8429721037494105 -1.588297029534811 -1.5707405249225062 2.141258955001831 0.0 0.0 0.0 -0.0 0.0 -0.0 1 False False
4625.482 3.712095260620117 -0.8254823845675965 0.8429802099810999 -1.5882650814452113 -1.5707529226886194 2.1412394046783447 0.0 0.0 0.0 -0.0 0.0 -0.0 1 False False
4625.532 3.71205472946167 -0.8255157035640259 0.8429845015155237 -1.5883170566954554 -1.5707929770099085 2.141249895095825 0.0 0.0 0.0 -0.0 0.0 -0.0 1 False False
4625.581999999999 3.712050199508667 -0.8254913848689576 0.8429721037494105 -1.5883051357665003 -1.5707967917071741 2.141263246536255 0.0 0.0 0.0 -0.0 0.0 -0.0 1 False False
4625.632 3.712029218673706 -0.8254692119411011 0.8429930845843714 -1.5882765255370082 -1.5707925001727503 2.14127516746521 0.0 0.0 0.0 -0.0 0.0 -0.0 1 False False
4625.682 3.7120323181152344 -0.8254823845675965 0.8429887930499476 -1.5883251629271449 -1.570801083241598 2.141282558441162 0.0 0.0 0.0 -0.0 0.0 -0.0 1 False False
4625.732 3.7120532989501953 -0.8255083721927186 0.8430007139789026 -1.5883289776244105 -1.5707967917071741 2.141313076019287 0.0 0.0 0.0 -0.0 0.0 -0.0 1 False False
4625.782 3.712066888809204 -0.8254706424525757 0.8429520765887659 -1.5883251629271449 -1.5707967917071741 2.141313076019287 0.0 0.0 0.0 -0.0 0.0 -0.0 1 False False
4625.831999999999 3.712038278579712 -0.825487033729889 0.8429678122149866 -1.5882846317686976 -1.570853058491842 2.14131760597229 0.0 0.0 0.0 -0.0 0.0 -0.0 1 True False
4625.882 3.712071418762207 -0.8254905504039307 0.8430126349078577 -1.588297029534811 -1.570801083241598 2.141324996948242 0.0 0.0 0.0 -0.0 0.0 -0.0 1 True False
4625.932 3.7120697498321533 -0.825457291012146 0.8429759184466761 -1.5883094273009242 -1.5707324186908167 2.141329526901245 0.0 0.0 0.0 -0.0 0.0 -0.0 1 True False
4625.982 3.7120652198791504 -0.8254617017558594 0.8429887930499476 -1.5882889233031214 -1.5707805792437952 2.141247034072876 0.0 0.0 0.0 -0.0 0.0 -0.0 1 True False
4626.032 3.7120862007141113 -0.8254408997348328 0.8430050055133265 -1.5882731876769007 -1.570813004170553 2.141313076019287 0.0 0.0 0.0 -0.0 0.0 -0.0 1 True False
4626.081999999999 3.7120606899261475 -0.8254957360080262 0.8430007139789026 -1.588269372979635 -1.570768181477682 2.1412513256073 0.0 0.0 0.0 -0.0 0.0 -0.0 1 True False
4626.132 3.7120742797851562 -0.825527624492981 0.8429887930499476 -1.5883375606932582 -1.570829216633932 2.1413004398345947 0.0 0.0 0.0 -0.0 0.0 -0.0 1 True False
4626.182 3.7120771408081055 -0.8255410355380555 0.8429964224444788 -1.588313718835348 -1.5707805792437952 2.14127516746521 0.0 0.0 0.0 -0.0 0.0 -9.239591349796683e-07 1 True False
4626.232 3.71209979057312 -0.8254616421512146 0.8429439703570765 -1.5883251629271449 -1.5707925001727503 2.1413004398345947 0.0 0.0 0.0 -0.0 0.0 -1.4034958398076576e-25 1 True False
4626.282 3.71209979057312 -0.8254993718913575 0.8430007139789026 -1.5882607899107875 -1.5707891623126429 2.141242504119873 0.0 0.0 0.0 -0.0 0.0 -0.000115961731353309 1 True False
4626.331999999999 3.712045669555664 -0.8255290550044556 0.8429802099810999 -1.5883046589293421 -1.5707395712481897 2.1412081718444824 0.0 0.0 0.0 -0.0 -0.00015623000217601657 1.145784722211829e-06 1 True False
4626.382 3.7120532989501953 -0.8254949611476441 0.8429549376117151 -1.5883170566954554 -1.5707610289203089 2.141345739364624 0.0 0.0 0.0 -0.0 -2.216876483003994e-14 -1.796457541102317e-13 1 True False
4626.432 3.7120890617370605 -0.8255394858172913 0.8429477850543421 -1.5882846317686976 -1.5708044211017054 2.141313076019287 0.0 0.0 0.0 -0.0 -0.000639828504063189 -2.728823736599155e-32 1 True False
4626.482 3.712150812149048 -0.825527624492981 0.842992130910055 -1.588320871392721 -1.570784870778219 2.141378402709961 0.04203726351261139 -0.012421722523868084 0.0062608555890619755 -0.0 -2.310541162842128e-07 0.017426280304789543 1 True False
4626.532 3.714571714401245 -0.8265984815410157 0.844574276600973 -1.5888196430602015 -1.570801083241598 2.143761157989502 0.07929859310388565 -0.04061204567551613 0.061211198568344116 -0.01794719137251377 -1.622392613489902e-16 0.07963446527719498 1 True False
4626.581999999999 3.7205095291137695 -0.8295446795276185 0.8493536154376429 -1.590482851068014 -1.5708006064044397 2.1496667861938477 0.15357400476932526 -0.07950181514024734 0.12673725187778473 -0.041681814938783646 -2.464418740752267e-35 0.15184292197227478 1 True False
4626.632 3.7298707962036133 -0.8344837588122864 0.8567073980914515 -1.5930539570250453 -1.5707882086383265 2.1590445041656494 0.21986563503742218 -0.1219630092382431 0.17532791197299957 -0.057206492871046066 8.082231943262741e-05 0.21625860035419464 1 True False
4626.682 3.742872953414917 -0.8412085336497803 0.8668325583087366 -1.5963283977904261 -1.5707805792437952 2.171940565109253 0.2904735505580902 -0.14656907320022583 0.22957965731620789 -0.06833098083734512 6.693199247820303e-05 0.2951270043849945 1 True False
4626.732 3.7591047286987305 -0.8496766847423096 0.879526440297262 -1.6008144817748011 -1.570768181477682 2.1883203983306885 0.35707569122314453 -0.18619099259376526 0.2762649357318878 -0.09336438775062561 8.38855339679867e-05 0.3578857481479645 1 True False
4626.782 3.7790780067443848 -0.8597542208484192 0.8950279394732874 -1.6059252224364222 -1.5707610289203089 2.2080202102661133 0.43349510431289673 -0.2222309112548828 0.33373093605041504 -0.1282271146774292 7.028102118056267e-05 0.4363303482532501 1 True False
4626.831999999999 3.802211284637451 -0.8717379134944458 0.9132440725909632 -1.612025877038473 -1.5707724730121058 2.231537342071533 0.499289870262146 -0.2542128562927246 0.3892693817615509 -0.14115417003631592 2.6441750378580764e-05 0.4974519610404968 1 True False
4626.882 3.829151153564453 -0.8855590981296082 0.9339554945575159 -1.6191512546935023 -1.5708087126361292 2.258396625518799 0.5671798586845398 -0.2932719588279724 0.4473763704299927 -0.15681184828281403 1.8342058183407062e-07 0.5634126663208008 1 True False
4626.932 3.8595292568206787 -0.901046172981598 0.95758563676943 -1.6272293529906214 -1.570784870778219 2.288811206817627 0.6437660455703735 -0.32017090916633606 0.49637800455093384 -0.18908654153347015 2.786164272603283e-26 0.6349393129348755 1 True False
4626.982 3.8933451175689697 -0.9183890384486695 0.9837625662433069 -1.6362387142577113 -1.5708211104022425 2.3225347995758057 0.7123534083366394 -0.36351150274276733 0.5529810786247253 -0.18307071924209595 0.0001041138602886349 0.7016986012458801 1 True False
4627.032 3.930704116821289 -0.9375602167895813 1.0128238836871546 -1.6459361515440882 -1.5707767645465296 2.3597350120544434 0.7768043875694275 -0.39922401309013367 0.6009793281555176 -0.19231420755386353 2.440224307065364e-07 0.7793899178504944 1 True False
4627.081999999999 3.971440076828003 -0.9584924739650269 1.0445082823382776 -1.6567994556822718 -1.5707410017596644 2.400547504425049 0.8481894135475159 -0.4349721074104309 0.6647403836250305 -0.21706432104110718 3.7067057844283123e-26 0.8585245013237 1 True False
4627.132 4.01573371887207 -0.9811709088138123 1.0788543860064905 -1.6683484516539515 -1.570784870778219 2.445049285888672 0.9202806353569031 -0.4762047231197357 0.7143906950950623 -0.2463769018650055 5.605193857299268e-45 0.9144326448440552 1 True False
4627.182 4.063530921936035 -1.0056655567935486 1.115969483052389 -1.6809984646239222 -1.5708211104022425 2.492643356323242 0.9856733083724976 -0.5012113451957703 0.7691985964775085 -0.2651757299900055 0.0 0.9886768460273743 1 True False
4627.232 4.114715576171875 -1.031830148105957 1.1557419935809534 -1.6945306263365687 -1.5708006064044397 2.543945789337158 1.0320485830307007 -0.527256190776825 0.8164932727813721 -0.27313849329948425 0.0 1.0406808853149414 1 True False
4627.282 4.167053699493408 -1.0586415094188233 1.1964543501483362 -1.7083717785277308 -1.5707529226886194 2.5962865352630615 1.051256537437439 -0.5344231724739075 0.8134276866912842 -0.27115145325660706 0.0009863160084933043 1.0496017932891846 1 True False
4627.331999999999 4.219413757324219 -1.0854810339263459 1.236922566090719 -1.7221962414183558 -1.5707767645465296 2.648564338684082 1.0433002710342407 -0.5392910242080688 0.8156541585922241 -0.2610384225845337 3.3844835089255362e-18 1.0496708154678345 1 True False
4627.382 4.271851539611816 -1.1123643976501008 1.2776063124286097 -1.7360526523985804 -1.5707810560809534 2.701040029525757 1.0458639860153198 -0.5368489027023315 0.8089017868041992 -0.28315210342407227 -2.8158564022162658e-11 1.0402357578277588 1 True False
4627.432 4.324207782745361 -1.1392557483962555 1.3183019796954554 -1.7499166927733363 -1.5707405249225062 2.753425121307373 1.0521913766860962 -0.5432802438735962 0.8063073754310608 -0.27212604880332947 -2.2517119759868365e-06 1.04937744140625 1 True False
4627.482 4.376445770263672 -1.1661729973605652 1.3589585463153284 -1.763623376885885 -1.5708172957049769 2.8056085109710693 1.0441396236419678 -0.5374086499214172 0.8084869980812073 -0.27096328139305115 1.2968377760547156e-10 1.0506088733673096 1 True False
4627.532 4.428643226623535 -1.1928614240935822 1.3994978109942835 -1.7772637806334437 -1.5707367102252405 2.8578202724456787 1.030308723449707 -0.5178635716438293 0.7943555116653442 -0.26345834136009216 1.969899827797258e-29 1.0183265209197998 1 True False
4627.581999999999 4.477897644042969 -1.2180653673461457 1.437718693410055 -1.790311952630514 -1.5707686583148401 2.907074213027954 0.9569493532180786 -0.4813826084136963 0.7452596426010132 -0.24494348466396332 -2.2335587345878594e-05 0.9619338512420654 1 True False
4627.632 4.5237650871276855 -1.2414943438819428 1.4731867949115198 -1.8026472530760707 -1.5708211104022425 2.952951192855835 0.8788109421730042 -0.4543692469596863 0.6888254284858704 -0.22764593362808228 1.0274927575437687e-07 0.8777349591255188 1 True False
4627.682 4.5661540031433105 -1.2633774143508454 1.5060423056231897 -1.8138390980162562 -1.570829216633932 2.995312213897705 0.8097780346870422 -0.4221005439758301 0.630471408367157 -0.230455681681633 0.0002051895862678066 0.8174980878829956 1 True False
4627.732 4.605040550231934 -1.2831053894809266 1.5363343397723597 -1.824000974694723 -1.5707967917071741 3.0342562198638916 0.7457795143127441 -0.3811849355697632 0.5757980346679688 -0.1980675756931305 1.7330184596403564e-12 0.749110758304596 1 True False
4627.782 4.640312194824219 -1.3012194496444245 1.5637176672564905 -1.8331958256163539 -1.570801083241598 3.069610357284546 0.6752756834030151 -0.3448410928249359 0.5322088599205017 -0.17009204626083374 -0.0002188196376664564 0.6704400777816772 1 True False
4627.831999999999 4.672203063964844 -1.3177303832820435 1.5885604063617151 -1.8418742618956507 -1.5707886854754847 3.101566791534424 0.6006877422332764 -0.3069571256637573 0.46428370475769043 -0.17572325468063354 -6.17989112574463e-13 0.6044654250144958 1 True False
4627.882 4.700680732727051 -1.3321625155261536 1.6107400099383753 -1.8491689167418421 -1.5708168188678187 3.129869222640991 0.5341697931289673 -0.27032917737960815 0.418291836977005 -0.14105109870433807 -3.2014626681012986e-14 0.5302612781524658 1 True False
4627.932 4.725637912750244 -1.3451379400542756 1.6297619978534144 -1.855943342248434 -1.5707805792437952 3.154722213745117 0.46690937876701355 -0.2344459742307663 0.360861212015152 -0.12376377731561661 0.00011115894449176267 0.4670950770378113 1 True False
4627.982 4.747084140777588 -1.3559416991523285 1.6465871969806116 -1.861464639703268 -1.5707967917071741 3.1760385036468506 0.39471787214279175 -0.2029614895582199 0.3051682710647583 -0.1240357980132103 0.00033166015055030584 0.3998711407184601 1 True False
4628.032 4.764887809753418 -1.3651572179845353 1.6604450384723108 -1.866160055200094 -1.570801083241598 3.194093704223633 0.32590219378471375 -0.16664859652519226 0.25358229875564575 -0.08101067692041397 0.00010941550863208249 0.32636788487434387 1 True False
4628.081999999999 4.779306411743164 -1.3725759100965043 1.671612564717428 -1.870019098321432 -1.5708449522601526 3.2084193229675293 0.2523419260978699 -0.13180169463157654 0.1959867626428604 -0.0634261816740036 2.206025783380028e-06 0.2660612463951111 1 True False
4628.132 4.790134429931641 -1.3781713110259552 1.6801026503192347 -1.8728496036925257 -1.5707967917071741 3.2194457054138184 0.18762925267219543 -0.09596499055624008 0.1495259404182434 -0.04672853648662567 3.3509581123814502e-25 0.18402907252311707 1 True False
4628.182 4.79768180847168 -1.3819468480399628 1.6858843008624476 -1.8749367199339808 -1.570784870778219 3.2269299030303955 0.11396755278110504 -0.05987881124019623 0.0909569039940834 -0.03516947478055954 5.044674471569341e-44 0.11293577402830124 1 True False
4628.232 4.801614761352539 -1.3839411747506638 1.689017120991842 -1.8759266338744105 -1.5707886854754847 3.230874538421631 0.04377337545156479 -0.02299812063574791 0.03520066663622856 -0.013928762637078762 0.0 0.04566534608602524 1 True False
4628.282 4.802215099334717 -1.3842006486705323 1.6897247473346155 -1.8763963184752406 -1.570813004170553 3.231504440307617 -0.005956847686320543 0.009990598075091839 0.02049982361495495 -0.039066970348358154 -0.00044559207162819803 -5.039027541897667e-07 1 True False
4628.331999999999 4.8022260665893555 -1.3833062809756775 1.6917532126056116 -1.8793627224364222 -1.5707925001727503 3.2314915657043457 0.00034175466862507164 0.03313510864973068 0.05958578735589981 -0.09304342418909073 -1.2003731647179054e-14 0.0006737090880051255 1 True False
4628.382 4.80230712890625 -1.380866677766182 1.695937458668844 -1.8858410320677699 -1.5707686583148401 3.231515407562256 0.00034132489236071706 0.06320841610431671 0.10281766951084137 -0.16566260159015656 -1.8233687969619605e-33 0.000514792394824326 1 True False
4628.432 4.802376747131348 -1.3771616083434601 1.7022627035724085 -1.8958450756468714 -1.5707886854754847 3.231510877609253 0.0005645387573167682 0.08895664662122726 0.14411292970180511 -0.2362566590309143 -0.0 0.00022729729244019836 1 True False
4628.482 4.802347660064697 -1.3721735042384644 1.710724178944723 -1.9094530544676722 -1.5707362333880823 3.231510877609253 0.0003544328501448035 0.11331401765346527 0.19116739928722382 -0.2968062460422516 -0.0 9.801597479963675e-05 1 True False
4628.532 4.802371501922607 -1.3658752602389832 1.7213762442218226 -1.926396986047262 -1.5707891623126429 3.2315478324890137 0.00018913389067165554 0.13715417683124542 0.2397693544626236 -0.3828580379486084 -0.0 3.6580901228577624e-17 1 True False
4628.581999999999 4.802334308624268 -1.3583429169705887 1.7346866766559046 -1.9468151531615199 -1.5708048979388636 3.2315971851348877 0.00014756160089746118 0.164717435836792 0.2815813422203064 -0.445349782705307 -0.0 5.5566466006779364e-36 1 True False
4628.632 4.802362442016602 -1.3496058148196717 1.7495506445514124 -1.970889230767721 -1.57074481645693 3.2315683364868164 8.449458255199715e-05 0.18992458283901215 0.33381229639053345 -0.5016825199127197 -0.0 0.0 1 True False
4628.682 4.802321910858154 -1.3394151789001008 1.7670477072345179 -1.9981171093382777 -1.5708048979388636 3.2315359115600586 9.085908095585182e-05 0.19528454542160034 0.33864349126815796 -0.555628776550293 -0.0 0.0 1 True False
4628.732 4.802341938018799 -1.32996221006427 1.7832725683795374 -2.0243197880186976 -1.5707767645465296 3.2315597534179688 7.336738053709269e-05 0.18244604766368866 0.3116598129272461 -0.4815231263637543 -0.0 0.0 1 True False
4628.782 4.802350997924805 -1.3216473025134583 1.7976973692523401 -2.0467668972411097 -1.5708335081683558 3.23154354095459 6.2538318161387e-05 0.1543319970369339 0.2657184302806854 -0.41375958919525146 -0.0 0.0 1 True False
4628.831999999999 4.802297115325928 -1.3144973379424592 1.8097017447101038 -2.066019197503561 -1.5708168188678187 3.2315521240234375 0.0 0.12987494468688965 0.22245483100414276 -0.3423261046409607 -0.0 0.0 1 True False
4628.882 4.802334308624268 -1.308857039814331 1.819594685231344 -2.0816012821593226 -1.5708168188678187 3.231506586074829 0.0 0.09873810410499573 0.17332452535629272 -0.27389001846313477 -0.0 0.0 1 True False
4628.932 4.802371501922607 -1.304420844917633 1.8274710814105433 -2.0938030682005824 -1.570853058491842 3.2315895557403564 0.0 0.07805978506803513 0.12622128427028656 -0.2040729969739914 -0.0 0.0 1 True False
4628.982 4.8024001121521 -1.3012038332274933 1.832846466694967 -2.102279325524801 -1.570801083241598 3.2314980030059814 1.2505690927255841e-11 0.05147874355316162 0.08874353766441345 -0.13677825033664703 -0.0 0.0 1 True False
4629.032 4.802379131317139 -1.2993439596942444 1.8359807173358362 -2.1076227627196253 -1.570801083241598 3.231555223464966 0.0 0.025898253545165062 0.04555860906839371 -0.06523217260837555 -0.0 0.0 1 True False
4629.081999999999 4.802371501922607 -1.298716591005661 1.8371871153460901 -2.1092845402159632 -1.5708449522601526 3.231576681137085 0.0 1.854119635602558e-09 1.4955501228541834e-06 0.00480588199570775 -0.0 0.0 1 True False
4629.132 4.802275657653809 -1.2987410885146637 1.8371227423297327 -2.1092645130553187 -1.5708168188678187 3.23154354095459 0.0 0.00010367526556365192 -1.851369372149607e-30 0.00015561793406959623 -0.0 0.0 1 True False
4629.182 4.802374839782715 -1.2987498801997681 1.837191406880514 -2.1092688045897425 -1.570784870778219 3.2315478324890137 0.0 0.0002265963121317327 0.00012014315871056169 -9.030439105117694e-05 -0.0 -7.461543318973418e-13 1 True False
4629.232 4.802375793457031 -1.298725501900055 1.8371265570269983 -2.1092645130553187 -1.5707605520831507 3.2315359115600586 0.0 0.0005918605020269752 0.00017281821055803448 -8.014417107915506e-05 -0.0 -1.1334104775684988e-31 1 True False
4629.282 4.802341938018799 -1.2986872357181092 1.8371599356280726 -2.109215875665182 -1.5707925001727503 3.231539011001587 0.0 0.0010476819006726146 0.0001076566259143874 -5.0771308451658115e-05 -0.0 -0.0 1 True False
4629.331999999999 4.80239725112915 -1.2987092596343537 1.8372038046466272 -2.109232564965719 -1.5707605520831507 3.2315478324890137 0.0 0.0005139155546203256 0.00010784898768179119 -9.81182893156074e-05 -0.0 -0.0 1 True False
4629.382 4.8023600578308105 -1.2986603838256379 1.837191406880514 -2.1092969379820765 -1.5707767645465296 3.2315478324890137 0.0 0.00015995559806469828 0.00010360956366639584 -0.00010250726336380467 -0.0 -0.0 1 True False
4629.432 4.802340030670166 -1.2986973089030762 1.837219540272848 -2.1092845402159632 -1.570813004170553 3.2315402030944824 0.0 0.0001072171944542788 9.336223592981696e-05 -8.704808715265244e-05 -0.0 -0.0 1 True False
4629.482 4.802301406860352 -1.2987298530391236 1.8371427694903772 -2.1092683277525843 -1.5708048979388636 3.231522798538208 0.0 8.596117550041527e-05 7.894742157077417e-05 -8.176454139174893e-05 -0.0 -0.0 1 True False
4629.532 4.802404880523682 -1.2986897689155121 1.8371222654925745 -2.109276433984274 -1.5708087126361292 3.2315971851348877 0.0 5.091197580584925e-41 1.662733062346433e-08 -1.5404947554132492e-13 -0.0 -0.0 1 True False
4629.581999999999 4.802343368530273 -1.2987003487399598 1.8372166792498987 -2.109293123284811 -1.570784870778219 3.231527328491211 0.0 2.1804896605155617e-18 3.9125850604198223e-38 -1.692542070941272e-07 -0.0 -0.0 1 True False
4629.632 4.802366733551025 -1.2987179321101685 1.8371999899493616 -2.1092969379820765 -1.5708406607257288 3.2315196990966797 0.0 0.0 0.0 -2.5709756517594263e-26 -0.0 -0.0 1 True False
4629.682 4.8023295402526855 -1.2987204653075715 1.8370707670794886 -2.1095077000060023 -1.5708211104022425 3.2315521240234375 -7.005105060627001e-28 -8.344584057340398e-05 -2.541540569444894e-15 -0.00069003103999421 -0.00030647002859041095 1.7616327951941457e-08 1 True False
4629.732 4.802310466766357 -1.29878984511409 1.837099854146139 -2.109523435632223 -1.5708168188678187 3.231527328491211 0.0 0.0 -5.605193857299268e-45 0.0007646797457709908 -5.3187446610536426e-05 -3.7590052670566365e-05 1 True False
4629.782 4.802313327789307 -1.2987530392459412 1.837066952382223 -2.109415670434469 -1.5708254019366663 3.2315640449523926 0.0 0.0005628875805996358 -0.0 0.0018708888674154878 -1.5294044715119526e-05 -1.838631033024285e-05 1 True True
4629.831999999999 4.802341938018799 -1.299020455484726 1.8365142981158655 -2.1074820957579554 -1.5707929770099085 3.2315640449523926 0.0 -0.017560433596372604 -0.03393789008259773 0.06106967851519585 0.0013104096287861466 -1.2170174159109592e-05 1 True True
4629.882 4.802392959594727 -1.300842748289444 1.8333151976214808 -2.102866312066549 -1.570829216633932 3.2315640449523926 0.0 -0.05754958465695381 -0.09287593513727188 0.13158714771270752 0.00015530515520367771 -5.15656874838788e-12 1 True True
4629.932 4.802383899688721 -1.3040740352920075 1.8278964201556605 -2.0941363773741664 -1.5707891623126429 3.2315478324890137 0.0 -0.07776892185211182 -0.13812246918678284 0.21017830073833466 8.336370956385508e-05 -7.832841719416147e-31 1 True True
4629.982 4.802383899688721 -1.3086272937110444 1.8200410048114222 -2.08211674312734 -1.5707891623126429 3.2315597534179688 0.0 -0.09629867970943451 -0.16921022534370422 0.2608203589916229 3.418507185415365e-05 -1.5100402706025307e-08 1 True True
4630.032 4.802351951599121 -1.314359412794449 1.8100999037372034 -2.0668589077391566 -1.5707686583148401 3.231511116027832 0.0 -0.12540002167224884 -0.21741481125354767 0.34941238164901733 -2.4382102578796895e-14 -2.2937546377810043e-27 1 True True
4630.081999999999 4.802383899688721 -1.3213917028955002 1.7982662359820765 -2.0476891003050746 -1.570784870778219 3.231506586074829 0.0 -0.1504824310541153 -0.2616250514984131 0.4023780822753906 -3.703648418235013e-33 -0.0 1 True True
4630.132 4.802301406860352 -1.3295803529075165 1.7839186827289026 -2.025255342523092 -1.5707967917071741 3.2315597534179688 0.0 -0.17848443984985352 -0.30502521991729736 0.48154422640800476 -0.0 -0.0 1 True True
4630.182 4.802282333374023 -1.3391765368035813 1.7675383726703089 -1.9992810688414515 -1.5707925001727503 3.2315521240234375 0.0 -0.2019018679857254 -0.3527849316596985 0.5465604066848755 -0.0 -0.0 1 True True
4630.232 4.802364349365234 -1.349227399831154 1.7501004377948206 -1.97196688274526 -1.5708492437945765 3.231592893600464 0.0 -0.18478608131408691 -0.33003392815589905 0.52041095495224 -0.0 -0.0 1 True True
4630.282 4.8022894859313965 -1.3579536390355607 1.7352002302752894 -1.9477864704527796 -1.5707405249225062 3.2315478324890137 0.0 -0.16633285582065582 -0.2793448567390442 0.45421475172042847 -0.0 -0.0 1 True True
4630.331999999999 4.8023295402526855 -1.3656332951835175 1.7218897978412073 -1.9271279774107875 -1.5708044211017054 3.2315478324890137 0.0 -0.14028112590312958 -0.23976054787635803 0.384462833404541 -0.0 -0.0 1 True True
4630.382 4.8023834228515625 -1.3718886536410828 1.7112954298602503 -1.9100810490050257 -1.5708087126361292 3.231515407562256 0.0 -0.11302987486124039 -0.1966155767440796 0.3119526207447052 -0.0 -0.0 1 True True
4630.432 4.802309036254883 -1.3769308042577286 1.7026312986956995 -1.8962747059264125 -1.5707967917071741 3.23154354095459 0.0 -0.08513619750738144 -0.1516614705324173 0.22847309708595276 -0.0 -0.0 1 True True
4630.482 4.802330017089844 -1.3806488078883667 1.6961892286883753 -1.8862220249571742 -1.5707767645465296 3.2315683364868164 0.0 -0.06144745647907257 -0.1133185476064682 0.17458797991275787 -0.0 -0.0 1 True True
4630.532 4.8023176193237305 -1.3831185710481186 1.6919282118426722 -1.879467626611227 -1.570813004170553 3.231539011001587 0.0 -0.03556957468390465 -0.06388363987207413 0.10721972584724426 -0.0 -0.0 1 True True
4630.581999999999 4.802392482757568 -1.3843182933381577 1.689826790486471 -1.8764921627440394 -1.570813004170553 3.231527328491211 0.0 -0.013254641555249691 -0.019824886694550514 0.027258379384875298 -0.0 -0.0 1 True True
4630.632 4.801715850830078 -1.3843621772578736 1.6897156874286097 -1.8762089214720667 -1.5707967917071741 3.230987548828125 -0.04117239639163017 0.00043304054997861385 2.590737536731902e-18 0.0007381264586001635 -8.937155587796213e-15 -0.03690117970108986 1 True True
4630.682 4.798076152801514 -1.3843175333789368 1.689695183430807 -1.8760529957213343 -1.5707772413836878 3.227114200592041 -0.1115754172205925 -6.0038419178454205e-05 0.0 0.0024919521529227495 -1.3575559260681011e-33 -0.11072473973035812 1 True True
4630.732 4.790665626525879 -1.3843578410199662 1.6896541754352015 -1.876061578790182 -1.5707967917071741 3.219770669937134 -0.17768745124340057 -4.9108020903076977e-05 0.0 0.0007718850392848253 -0.0001029638442560099 -0.17662769556045532 1 True True
4630.782 4.779857158660889 -1.3843492430499573 1.6896937529193323 -1.8760448894896449 -1.5707967917071741 3.209113836288452 -0.25167277455329895 -2.5663974156486802e-05 -0.00031093854340724647 0.0001975815393961966 -7.30963729438372e-05 -0.2501474618911743 1 True True
4630.831999999999 4.765390872955322 -1.3842923504165192 1.6896188894854944 -1.8760415516295375 -1.5708044211017054 3.194711923599243 -0.31604471802711487 -8.888414770912359e-15 -0.0005908919265493751 9.476514969719574e-05 -7.784897752571851e-05 -0.318126916885376 1 True True
4630.882 4.7477827072143555 -1.3843208116343995 1.689554516469137 -1.8761025867857875 -1.570784870778219 3.1769299507141113 -0.39109963178634644 0.0 -0.001232212409377098 6.729406595695764e-05 -1.3574756849266123e-05 -0.3834073543548584 1 True True
4630.932 4.726410865783691 -1.3842726659825821 1.6895001570331019 -1.8760858974852503 -1.5708254019366663 3.1556239128112793 -0.4566052258014679 0.000536352745257318 -0.0012481460580602288 5.688104283763096e-05 -2.062008844968313e-24 -0.45457813143730164 1 True True
4630.982 4.701646327972412 -1.3842898619225998 1.689446751271383 -1.8760858974852503 -1.5708449522601526 3.1309401988983154 -0.5305454730987549 0.00189881247933954 -0.001861708122305572 0.0001336513232672587 -3.919129812857136e-05 -0.5312084555625916 1 True True
4631.032 4.673527717590332 -1.3842171740582963 1.6893957296954554 -1.8759895763792933 -1.5707610289203089 3.1027755737304688 -0.5997809767723083 0.001241374178789556 -0.0011064696591347456 0.0004884550580754876 0.0004565342969726771 -0.6047903299331665 1 True True
4631.081999999999 4.64178466796875 -1.3842016470483323 1.6893566290484827 -1.8759857616820277 -1.5707486311541956 3.071021556854248 -0.6661040186882019 0.0005088348407298326 -0.0013394600246101618 0.0008686187793500721 0.0007991730235517025 -0.6742650270462036 1 True True
4631.132 4.606569766998291 -1.3841001105359574 1.6892684141742151 -1.8760062656798304 -1.5707610289203089 3.03564715385437 -0.7360619306564331 0.0005573389935307205 -0.0016291026258841157 0.0007999161607585847 0.0008298121974803507 -0.7437611818313599 1 True True
4631.182 4.567854404449463 -1.384004459982254 1.6892216841327112 -1.875998159448141 -1.570784870778219 2.99699330329895 -0.8086591958999634 0.0014459122903645039 -0.002062363550066948 0.0004498139023780823 0.0005738515174016356 -0.8080769777297974 1 True True
4631.232 4.525556564331055 -1.383850709801056 1.6891310850726526 -1.875953813592428 -1.5708006064044397 2.954798698425293 -0.8781019449234009 0.0018763577099889517 -0.0016184387495741248 0.00016825769853312522 -2.221324083603437e-14 -0.8702368140220642 1 True True
4631.282 4.479855537414551 -1.383873389368393 1.6889718214618128 -1.8759576282896937 -1.570772949849264 2.9089810848236084 -0.9444672465324402 0.0017169918864965439 -0.001933085615746677 0.00034408943611197174 0.000276474398560822 -0.9504984617233276 1 True True
4631.331999999999 4.430691242218018 -1.383707807665207 1.6889303366290491 -1.8759619198241175 -1.5708087126361292 2.8599958419799805 -1.0209006071090698 0.002910563489422202 -0.00230855168774724 0.0003350217011757195 1.4770178040635074e-06 -1.006914734840393 1 True True
4631.382 4.378621578216553 -1.3836649370244523 1.688716236745016 -1.875883241693014 -1.5708335081683558 2.807744264602661 -1.0434428453445435 0.0015822750283405185 -0.002067583380267024 0.0005969306221231818 4.409420216688886e-05 -1.0482242107391357 1 True True
4631.432 4.326320171356201 -1.383512408738472 1.688636604939596 -1.8759108982481898 -1.5707648436175745 2.7555043697357178 -1.0434235334396362 0.0014081073459237814 -0.002373645780608058 0.0005797053454443812 0.00019911692652385682 -1.0522865056991577 1 True True
4631.482 4.273951530456543 -1.383395941262581 1.688504997883932 -1.8758388958373011 -1.5708087126361292 2.7032055854797363 -1.0483145713806152 0.0026980822440236807 -0.0021835186053067446 0.0003796655801124871 7.169852324295789e-05 -1.0437051057815552 1 True True
4631.532 4.221574783325195 -1.3833404642394562 1.688418213521139 -1.8758226833739222 -1.570756737385885 2.650655746459961 -1.0460656881332397 0.002783594187349081 -0.0021359692327678204 0.00031929611577652395 -4.469169478937829e-11 -1.0444375276565552 1 True True
4631.581999999999 4.169248580932617 -1.3832810533097764 1.68829852739443 -1.875803133050436 -1.5707724730121058 2.598417282104492 -1.0442615747451782 0.0012923673493787646 -0.0021403429564088583 0.0002707556704990566 9.287883795394691e-10 -1.0542248487472534 1 True True
4631.632 4.1168694496154785 -1.3831734222224732 1.688211743031637 -1.875803133050436 -1.5708373228656214 2.546090602874756 -1.0507193803787231 0.0028314932715147734 -0.0020331598352640867 0.0004768095095641911 -9.484130332210877e-14 -1.040193796157837 1 True True
4631.682 4.064528465270996 -1.3831185561469574 1.68805438676943 -1.875779768029684 -1.570829216633932 2.493645191192627 -1.045822024345398 0.0025974425952881575 -0.0027105091139674187 0.0005311531131155789 -4.302525002941593e-09 -1.0495325326919556 1 True True
4631.732 4.012137413024902 -1.3829270762256165 1.6879752318011683 -1.8757549724974574 -1.570801083241598 2.4413537979125977 -1.0444753170013428 0.0013104128884151578 -0.001579577918164432 0.0014224881306290627 -9.338183190266136e-06 -1.05575430393219 1 True True
4631.782 3.9597976207733154 -1.382864774470665 1.6878512541400355 -1.8757320843138636 -1.5708044211017054 2.3890395164489746 -1.0494604110717773 0.002457595197483897 -0.0019915553275495768 0.0003598425246309489 1.9040381715740295e-08 -1.0464540719985962 1 True True
4631.831999999999 3.9073262214660645 -1.3827484113029023 1.6877239386187952 -1.8756872616209925 -1.5707481543170374 2.336564302444458 -1.0494039058685303 0.0025457004085183144 -0.002777480287477374 0.00028342806035652757 -3.2991811964961243e-21 -1.041656494140625 1 True True
4631.882 3.8550024032592773 -1.3827164036086579 1.6876357237445276 -1.8756758175291957 -1.5707691351519983 2.284182548522949 -1.0459307432174683 0.0013030575355514884 -0.0021050418727099895 0.000544618465937674 -2.8039272095955e-18 -1.054153561592102 1 True True
4631.932 3.802738904953003 -1.3826180708459397 1.687521759663717 -1.8756596050658167 -1.5708254019366663 2.231980800628662 -1.0508649349212646 0.0020743587519973516 -0.002104707295075059 0.00042915070662274957 1.943903271239833e-06 -1.044138789176941 1 True True
4631.982 3.750375270843506 -1.3824887734702607 1.687359635029928 -1.8756119213499964 -1.570813004170553 2.179516077041626 -1.0490562915802002 0.0027323218528181314 -0.0025123856030404568 0.00023618015984538943 2.9527928964227886e-25 -1.0464398860931396 1 True True
4632.032 3.697972297668457 -1.3823883843472977 1.6873062292682093 -1.8756000004210414 -1.5707967917071741 2.127117156982422 -1.0437425374984741 0.001030032872222364 -0.002370054367929697 0.0005744018708355725 -1.826221591727517e-07 -1.0542432069778442 1 True True
4632.081999999999 3.6455867290496826 -1.3823207479766388 1.6871278921710413 -1.8755961857237757 -1.5708296934710901 2.0748510360717773 -1.048203706741333 0.0020923898555338383 -0.001726843067444861 0.00044071165029890835 -0.00015106447972357273 -1.045007586479187 1 True True
4632.132 3.593299627304077 -1.3821964722922822 1.686958138142721 -1.875620504418844 -1.5707767645465296 2.0223805904388428 -1.0506092309951782 0.0030890507623553276 -0.0020913495682179928 0.00019952424918301404 -5.307984770242338e-22 -1.0370876789093018 1 True True
4632.182 3.5408287048339844 -1.3820864272168656 1.686920468007223 -1.875648637811178 -1.5707691351519983 1.9699654579162598 -1.0420876741409302 0.001088190940208733 -0.0031555909663438797 0.00029835119494237006 -8.062791104032132e-41 -1.048830509185791 1 True True
4632.232 3.4884965419769287 -1.3820624512485047 1.6868417898761194 -1.875552316705221 -1.570824925099508 1.917823314666748 -1.0491325855255127 0.00225043180398643 -0.0022797510027885437 0.000371599686332047 -0.0 -1.044573187828064 1 True True
4632.282 3.4361588954925537 -1.3819325280240555 1.686723534260885 -1.8755928478636683 -1.570756737385885 1.865354061126709 -1.0484566688537598 0.002862976398319006 -0.003735463134944439 0.0004418425087351352 -0.0 -1.0404363870620728 1 True True
4632.331999999999 3.3838822841644287 -1.3818447452834626 1.6865890661822718 -1.8755532703795375 -1.570784870778219 1.8130173683166504 -1.0452851057052612 0.0015513638500124216 -0.0037370133213698864 0.0003959411405958235 -0.0 -1.0538268089294434 1 True True
4632.382 3.3315489292144775 -1.381807343368866 1.6864503065692347 -1.8754893742003382 -1.5707610289203089 1.7608060836791992 -1.0483312606811523 0.001926763798110187 -0.0016730311326682568 0.0004000752232968807 -0.0 -1.0475178956985474 1 True True
4632.432 3.2790937423706055 -1.3816784632257004 1.6863067785846155 -1.8754774532713832 -1.5707810560809534 1.708255648612976 -1.0498695373535156 0.003001359524205327 -0.0029731127433478832 0.0005641017341986299 -0.0 -1.041091799736023 1 True True
4632.482 3.226787805557251 -1.381577954893448 1.686218563710348 -1.8754331074156703 -1.5707443396197718 1.6559168100357056 -1.0449880361557007 0.0012705647386610508 -0.0019177778158336878 0.0008065659203566611 -0.0 -1.0496774911880493 1 True True
4632.532 3.1743202209472656 -1.3814282280257721 1.6861432234393519 -1.87540926555776 -1.5707929770099085 1.6036399602890015 -1.0479648113250732 0.0018498036079108715 -0.0017645793268457055 0.0003626506368163973 -0.0 -1.0515810251235962 1 True True
4632.581999999999 3.1231534481048584 -1.3814418029836197 1.685998264943258 -1.87540926555776 -1.570829216633932 1.552267074584961 -0.9931336045265198 0.0027222386561334133 -0.0022656868677586317 0.00046141675557009876 -0.0 -0.9909506440162659 1 True True
4632.632 3.0751311779022217 -1.3813049656203766 1.6859243551837366 -1.875397344628805 -1.570801083241598 1.5045005083084106 -0.9219147562980652 0.0015558976447209716 -0.00222982419654727 0.0003381530405022204 -0.0 -0.9284610748291016 1 True True
4632.682 3.0308620929718018 -1.3812047851136704 1.6858318487750452 -1.8753658733763636 -1.5707805792437952 1.4600130319595337 -0.8578717708587646 0.0020800232887268066 -0.0019715179223567247 0.0003832385700661689 0.000196057342691347 -0.8538112044334412 1 True True
4632.732 2.9899940490722656 -1.3811375957778473 1.6857331434832972 -1.875322004357809 -1.5707767645465296 1.419211745262146 -0.7852382659912109 0.0015337979421019554 -0.0016903080977499485 0.0004702803853433579 -3.4355460229562595e-05 -0.7886516451835632 1 True True
4632.782 2.9525413513183594 -1.3810863059810181 1.685636345540182 -1.875317712823385 -1.5707967917071741 1.3818389177322388 -0.7112016677856445 0.001201155479066074 -0.0014164275489747524 0.00028319834382273257 -4.303117384552024e-05 -0.7184411883354187 1 True True
4632.831999999999 2.918684959411621 -1.381009892826416 1.685596768056051 -1.8753301105894984 -1.570784870778219 1.3478950262069702 -0.6443907022476196 0.0009570614784024656 -0.0009163891081698239 0.00019318402337376028 8.008320149110698e-18 -0.6465497016906738 1 True True
4632.882 2.8882462978363037 -1.3809486639550705 1.6855204741107386 -1.8753138981261195 -1.5707443396197718 1.3174800872802734 -0.5735383629798889 0.0009967706864699721 -0.0007501284126192331 9.874158422462642e-05 0.0003103362687397748 -0.5794145464897156 1 True True
4632.932 2.8613698482513428 -1.3809423458627244 1.6854522863971155 -1.875277658502096 -1.5707810560809534 1.2904763221740723 -0.5037760734558105 0.0009833782678470016 -0.0006238892092369497 0.00026138665270991623 -4.4750950167760095e-10 -0.5059780478477478 1 True True
4632.982 2.837937593460083 -1.3809107703021546 1.6854336897479456 -1.8752623997130335 -1.570784870778219 1.2670395374298096 -0.43098360300064087 0.0013638028176501393 -0.0006695257616229355 -7.972076232660996e-13 -3.6836817685070855e-07 -0.4345885217189789 1 True True
4633.032 2.8177967071533203 -1.3807807576707383 1.6853163878070276 -1.8752581081786097 -1.5707886854754847 1.2470283508300781 -0.3663104474544525 0.0015667772386223078 -0.000856664264574647 0.00017562590073794127 2.899185247429159e-08 -0.3658891022205353 1 True True
4633.081999999999 2.801494836807251 -1.3807852578214188 1.6852801481830042 -1.8752976856627406 -1.570853058491842 1.2305760383605957 -0.3000115752220154 0.0008162262965925038 -0.0009087169310078025 0.00013643207785207778 0.00010547907731961459 -0.29968613386154175 1 True True
4633.132 2.788464307785034 -1.3807521325400849 1.6852896849261683 -1.875282426873678 -1.5707767645465296 1.2176975011825562 -0.22691968083381653 0.0003144248330499977 -0.0009558610036037862 7.399671449093148e-05 5.5899896267419535e-08 -0.22953706979751587 1 True True
4633.182 2.778993606567383 -1.3807896834662934 1.6852691809283655 -1.8753024540343226 -1.5708211104022425 1.2081754207611084 -0.15714284777641296 0.00030721831717528403 -0.0011663889745250344 0.00010112258314620703 4.446617094799876e-05 -0.15493109822273254 1 True True
4633.232 2.7730891704559326 -1.3807985049537201 1.6852734724627894 -1.8753224811949671 -1.5707805792437952 1.2022278308868408 -0.08641794323921204 0.0001543636026326567 -0.00042783727985806763 7.769467629259452e-05 1.988918120332528e-05 -0.08681079000234604 1 True True
4633.282 2.7705719470977783 -1.3807522070458909 1.685221020375387 -1.8752457104124964 -1.5707529226886194 1.19965398311615 -0.016950182616710663 0.0001497790071880445 -0.00024762703105807304 3.782569635291111e-08 1.2810854968847707e-05 -0.016360124573111534 1 True True
4633.331999999999 2.7705042362213135 -1.3801342409900208 1.6856697241412562 -1.8762017689146937 -1.5708044211017054 1.1997134685516357 0.0002619685255922377 0.023363107815384865 0.030383752658963203 -0.0523967444896698 5.056246959758482e-19 -5.87273680139333e-05 1 True True
4633.382 2.7704803943634033 -1.3787171852639695 1.6883037726031702 -1.880728384057516 -1.5708048979388636 1.199655532836914 -0.000131998211145401 0.042976655066013336 0.07710231095552444 -0.1260467767715454 -2.2152840756461956e-05 -0.0003131255507469177 1 True True
4633.432 2.770543336868286 -1.3757549685290833 1.693646256123678 -1.8886882267394007 -1.570801083241598 1.199644923210144 -0.0005899356910958886 0.06826142221689224 0.1312849521636963 -0.1978587657213211 -2.7426624001236632e-05 -0.0002684753271751106 1 True True
4633.482 2.7703826427459717 -1.3715508443168183 1.701064411793844 -1.900367876092428 -1.5708091894732874 1.1996285915374756 -0.00048057432286441326 0.09567690640687943 0.1654442697763443 -0.25693148374557495 -1.9368839275557548e-05 -0.00019756007532123476 1 True True
4633.532 2.7704367637634277 -1.3661322605660935 1.7105348745929163 -1.915264745751852 -1.570756737385885 1.199644923210144 -0.0001747815404087305 0.12099644541740417 0.20777344703674316 -0.3264888823032379 -2.9421316878077595e-24 -0.00012295637861825526 1 True True
4633.581999999999 2.770397901535034 -1.359318034057953 1.7221997419940394 -1.9337355099120082 -1.5707648436175745 1.1996241807937622 -0.00012393445649649948 0.14552493393421173 0.257642924785614 -0.4064652919769287 -4.4701421011961665e-43 -0.00010227023449260741 1 True True
4633.632 2.770432233810425 -1.35124425709758 1.7363289038287562 -1.9555508098998011 -1.5707486311541956 1.1996197700500488 -0.00011381041986169294 0.1783689558506012 0.3020303547382355 -0.4652986526489258 -1.1777668980168502e-20 -8.110662747640163e-05 1 True True
4633.682 2.7704367637634277 -1.3418541115573426 1.7521002928363245 -1.980981012383932 -1.5707925001727503 1.199637532234192 -8.366980182472616e-05 0.1967463195323944 0.34056010842323303 -0.5473797917366028 -1.7890307429111723e-39 -6.709427543682978e-05 1 True True
4633.732 2.7704036235809326 -1.3317639094642182 1.769698444996969 -2.0084721050658167 -1.5707686583148401 1.199677586555481 -6.030888107488863e-05 0.19177938997745514 0.3314148783683777 -0.5452929735183716 -0.0 -1.9850279322886592e-16 1 True True
4633.782 2.7704575061798096 -1.3228579771569748 1.785189453755514 -2.03326477626943 -1.5707529226886194 1.1996331214904785 0.0 0.17143936455249786 0.2949061989784241 -0.458732008934021 -6.305345578994093e-09 -3.015262396004173e-35 1 True True
4633.831999999999 2.770399332046509 -1.314969615345337 1.7985394636737269 -2.0543095074095667 -1.5707972685443323 1.1996464729309082 0.0 0.14217351377010345 0.2432834506034851 -0.3829604387283325 -9.57783257678244e-28 -0.0 1 True True
4633.882 2.7704248428344727 -1.308469073181488 1.8097050825702112 -2.0719858608641566 -1.5707529226886194 1.199649453163147 0.0 0.11674889177083969 0.20458635687828064 -0.32174572348594666 -0.0 -0.0 1 True True
4633.932 2.7704529762268066 -1.3034536403468628 1.8186519781695765 -2.0862189731993617 -1.5707805792437952 1.1996045112609863 0.0 0.0900772362947464 0.15847846865653992 -0.2455964833498001 -0.0 -0.0 1 True True
4633.982 2.770394802093506 -1.2994775933078309 1.825533692036764 -2.096724649468893 -1.5707648436175745 1.1996405124664307 0.0 0.0664701983332634 0.11211950331926346 -0.18744179606437683 -0.0 -0.0 1 True True
4634.032 2.770448684692383 -1.2969568532756348 1.8299053351031702 -2.103947778741354 -1.5707805792437952 1.199637532234192 0.0 0.0433557890355587 0.07003527134656906 -0.11582200974225998 -0.0 -0.0 1 True True
4634.081999999999 2.7704455852508545 -1.2959210735610505 1.8316996733294886 -2.1077848873534144 -1.5707605520831507 1.1996241807937622 0.0 0.013396202586591244 0.02178758755326271 -0.03516947478055954 0.004002833738923073 -1.1937884364650688e-15 1 True True
4634.132 2.770411491394043 -1.2957993310740967 1.8319080511676233 -2.1081906757750453 -1.5707767645465296 1.1996285915374756 0.0 0.004062177613377571 0.0013540537329390645 0.0007263179868459702 -8.296495070680976e-05 -1.8133678655126072e-34 1 True True
4634.182 2.770382881164551 -1.2956840556911011 1.8318875471698206 -2.108222623864645 -1.5708406607257288 1.1996030807495117 0.0 0.005506573710590601 0.005826450884342194 0.0002681415935512632 -5.781084473710507e-05 -0.0 1 True True
4634.232 2.770465135574341 -1.2945167583278199 1.8337200323687952 -2.107143064538473 -1.5707648436175745 1.1996688842773438 -5.3364477281547806e-08 0.009711827151477337 0.023987162858247757 0.02614978328347206 0.0004427042440511286 -0.0 1 True True
4634.282 2.770456314086914 -1.2950254541686554 1.833155934010641 -2.107936044732565 -1.5706966559039515 1.199665904045105 0.00013827918155584484 -0.0030912868678569794 -0.001681082067079842 -0.0020476318895816803 0.002194916596636176 0.0014362159417942166 1 True False
4634.331999999999 2.770395040512085 -1.295184240942337 1.8330267111407679 -2.107999940911764 -1.5707085768329065 1.19959557056427 -7.540367021897885e-27 -0.007279896643012762 -0.005878494121134281 -0.0046737645752727985 -3.735896036971553e-09 -5.0167640874843045e-11 1 True False
4634.382 2.770439624786377 -1.2953241628459473 1.8329084555255335 -2.1081072292723597 -1.5707972685443323 1.19965398311615 0.0 -0.003323908196762204 -0.004823473282158375 -0.0018441877327859402 -5.674834433159627e-28 -7.620474464968343e-30 1 True False
4634.432 2.770437717437744 -1.2953705352595826 1.832745377217428 -2.1081110439696253 -1.5707929770099085 1.1996253728866577 0.0 -0.0001210218106280081 -0.0017577327089384198 -0.0002959652920253575 -0.0 -0.0 1 True False
4634.482 2.7704081535339355 -1.2953524750522156 1.8326705137835901 -2.1080948315062464 -1.5707610289203089 1.1995954513549805 0.0 -9.818741091294214e-05 -0.005677720066159964 -3.202819425496273e-05 -0.0 -0.0 1 True False
4634.532 2.7704246044158936 -1.2962709230235596 1.8312090078936976 -2.1061812839903773 -1.5707925001727503 1.1996241807937622 0.0 -0.02483987994492054 -0.04635196179151535 0.07295450568199158 -0.00041478214552626014 -0.0 1 True False
4634.581999999999 2.7704081535339355 -1.2980714601329346 1.8277738730060022 -2.1004392109312953 -1.5707843939410608 1.1995792388916016 0.0 -0.05396674573421478 -0.09758486598730087 0.14651399850845337 -0.00015053113747853786 -0.0 1 True False
4634.632 2.770399332046509 -1.3013440531543274 1.8220680395709437 -2.0912958584227503 -1.570723835621969 1.1995792388916016 0.0 -0.07833736389875412 -0.13331997394561768 0.20907025039196014 -0.0001034882225212641 -0.0 1 True False
4634.682 2.7704410552978516 -1.3060813707164307 1.8138273398028772 -2.078869482079977 -1.5707648436175745 1.199637532234192 0.0 -0.10241840779781342 -0.18344661593437195 0.2905167043209076 -7.336030103033409e-05 1.1286367585688125e-14 1 True False
4634.732 2.7704203128814697 -1.3119428914836426 1.8038061300860804 -2.062829156915182 -1.5708335081683558 1.19959557056427 0.0 -0.1290549337863922 -0.2200976461172104 0.3478943407535553 -2.5831970035043083e-20 1.714400286969742e-33 1 True False
4634.782 2.7704408168792725 -1.3191475731185456 1.7916467825519007 -2.0431887112059535 -1.5708168188678187 1.1995704174041748 0.0 -0.15641602873802185 -0.268094003200531 0.4290299117565155 -6.044090345699802e-19 0.0 1 True False
4634.831999999999 2.770416021347046 -1.3275488477996369 1.7768357435809534 -2.020294328729147 -1.5707925001727503 1.1996285915374756 0.0 -0.18289919197559357 -0.3165993094444275 0.4893761873245239 -9.180985800128792e-38 0.0 1 True False
4634.882 2.7704081535339355 -1.3372712892344971 1.7602694670306605 -1.9938179455199183 -1.5707610289203089 1.199615240097046 0.0 -0.20912261307239532 -0.35411521792411804 0.5588114261627197 -2.4015724193304777e-05 0.0 1 True False
4634.932 2.770460605621338 -1.34717711926017 1.7431419531451624 -1.9667712650694789 -1.570813004170553 1.199677586555481 0.0 -0.18269771337509155 -0.31723007559776306 0.5170294046401978 -9.915244299918413e-05 0.0 1 True False
4634.982 2.7704527378082275 -1.3556947720101853 1.7283499876605433 -1.9433852634825648 -1.5707643667804163 1.1996538639068604 0.0 -0.15980204939842224 -0.2736447751522064 0.43490302562713623 -1.1233719662244577e-18 0.0 1 True False
4635.032 2.7704615592956543 -1.3631086361459275 1.7156160513507288 -1.923159738580221 -1.5707529226886194 1.199615240097046 0.0 -0.13503871858119965 -0.23227012157440186 0.36727288365364075 -1.7064040757932767e-37 0.0 1 True False
4635.081999999999 2.770395278930664 -1.3692527425340195 1.705233399068014 -1.9067760906615199 -1.5707891623126429 1.199607491493225 0.0 -0.10919272899627686 -0.19288411736488342 0.30907678604125977 2.751175816229079e-05 4.091868049727054e-06 1 True False
4635.132 2.770395278930664 -1.3739363861135026 1.6970770994769495 -1.8935281238951625 -1.5707891623126429 1.1996208429336548 0.0 -0.0848008319735527 -0.14663852751255035 0.2345862090587616 1.990544296859298e-05 -2.754969863297059e-17 1 True False
4635.182 2.77044415473938 -1.3775597971728821 1.6908205191241663 -1.8840419254698695 -1.5707805792437952 1.1995792388916016 0.0 -0.05607394129037857 -0.09983427077531815 0.15845021605491638 3.0236413324853995e-24 -4.184804371745795e-36 1 True False
4635.232 2.7704365253448486 -1.3796892029098053 1.6869514624225062 -1.8779837093748988 -1.5707686583148401 1.1995866298675537 0.0 -0.03184353932738304 -0.051047343760728836 0.08417990803718567 4.5962589629854e-43 -0.0 1 True False
4635.282 2.7704484462738037 -1.3806873571923752 1.6853559652911585 -1.8754688702025355 -1.570801083241598 1.1996538639068604 0.0 -0.005982346832752228 -0.012934742495417595 0.01865224353969097 0.0 -0.0 1 True False
4635.331999999999 2.770432233810425 -1.3806214493564148 1.6853049437152308 -1.8753496609129847 -1.5707972685443323 1.1996657848358154 0.0 5.046452133683488e-05 8.242713724206631e-24 -7.159010051438486e-10 0.0 -0.0 1 False False
4635.382 2.7704081535339355 -1.3807234329036255 1.6853588263141077 -1.8753258190550746 -1.5708568731891077 1.1996241807937622 0.0 0.0 0.0 0.00037391268415376544 0.0 -0.0 1 False False
4635.432 2.770416021347046 -1.380695105796196 1.6853216330157679 -1.8753301105894984 -1.5708168188678187 1.1996822357177734 0.0 -0.0003888046776410192 -0.00039075574022717774 0.0007360493764281273 0.0 -0.0 1 False False
4635.482 2.770432233810425 -1.3807263386300583 1.6852853933917444 -1.8752700291075648 -1.570813004170553 1.199649453163147 0.0 -0.0007130498997867107 -0.0007332915556617081 0.0009373557986691594 0.0 -0.0 1 False False
4635.532 2.770395040512085 -1.3807594043067475 1.6852334181415003 -1.8752948246397914 -1.5708091894732874 1.1996119022369385 0.0 -0.00030563579639419913 -0.0008096343954093754 0.00034051912371069193 0.0 -0.0 1 False False
4635.581999999999 2.7704365253448486 -1.3807369482568284 1.6852200667010706 -1.875298639337057 -1.5707925001727503 1.199607491493225 0.0 -0.00015413202345371246 -0.0003419439890421927 0.00011881923273904249 0.0 -0.0 1 False False
4635.632 2.770416021347046 -1.380745993261673 1.6851885954486292 -1.8752266369261683 -1.5707686583148401 1.1995985507965088 0.0 -0.00011624199396464974 -0.00017403157835360616 7.155141793191433e-05 0.0 -0.0 1 False False
4635.682 2.770416021347046 -1.3807536673596879 1.6852543989764612 -1.875286718408102 -1.5708211104022425 1.199661374092102 0.0 -8.710134716238827e-05 -0.00011764494411181659 5.119865090819076e-05 0.0 -0.0 1 False False
4635.732 2.770416021347046 -1.3807414186051865 1.6851814428912562 -1.8752266369261683 -1.5707805792437952 1.199682354927063 0.0 -5.869359301868826e-05 -6.0370497521944344e-05 5.760764171677294e-22 0.0 -0.0 1 False False
4635.782 2.7704484462738037 -1.380738527779915 1.6852167288409632 -1.8752662144102992 -1.5707443396197718 1.199637532234192 0.0 -3.784773585835642e-27 -1.071926441618303e-15 8.750548390322753e-41 0.0 -0.0 1 False False
4635.831999999999 2.7704203128814697 -1.3807504189065476 1.68524676958193 -1.8752500019469203 -1.570784870778219 1.1996119022369385 0.0 0.0 -2.802596928649634e-45 0.0 0.0 -0.0 1 False False
4635.882 2.770395278930664 -1.3807655584863205 1.6852095762835901 -1.8752786121764125 -1.5707605520831507 1.1996405124664307 0.0 0.0 -0.0 0.0 0.0 -0.0 1 False False
4635.932 2.770415782928467 -1.3807459634593506 1.6851728598224085 -1.8752104244627894 -1.5707805792437952 1.1996495723724365 0.0 0.0 -0.0 0.0 0.0 -0.0 1 False False
4635.982 2.7704367637634277 -1.3807744842818757 1.6852334181415003 -1.8752581081786097 -1.5707648436175745 1.1996405124664307 0.0 0.0 -0.0 0.0 0.0 -0.0 1 False False
4636.032 2.770498275756836 -1.3806727242520829 1.685213867818014 -1.875270505944723 -1.5708168188678187 1.1995911598205566 0.0 0.0 -0.0 0.0 0.0 -0.0 1 False False
4636.081999999999 2.7703917026519775 -1.3807340276292344 1.6852672735797327 -1.8752147159972132 -1.5707610289203089 1.1996450424194336 0.0 0.0 -0.0 0.0 0.0 -0.0 1 False False
4636.132 2.7704575061798096 -1.3807744693807145 1.685213867818014 -1.8752662144102992 -1.5707805792437952 1.1996747255325317 0.0 0.0 -0.0 0.0 0.0 -0.0 1 False False
4636.182 2.770432233810425 -1.38078227758918 1.685242001210348 -1.8752223453917445 -1.5707767645465296 1.1996164321899414 0.0 0.0 -0.0 0.0 0.0 -0.0 1 False False
4636.232 2.770415782928467 -1.3807789993337174 1.685221020375387 -1.8752504787840785 -1.5707767645465296 1.1995747089385986 0.0 0.0 -0.0 0.0 0.0 -0.0 1 True False
4636.282 2.7704741954803467 -1.3807491672090073 1.6851885954486292 -1.8752905331053675 -1.5708335081683558 1.1997015476226807 0.0 0.0 -0.0 0.0 0.0 -0.0 1 True False
4636.331999999999 2.7704203128814697 -1.3807789993337174 1.6852625052081507 -1.8752829037108363 -1.570784870778219 1.1996732950210571 0.0 0.0 -0.0 0.0 2.9443611033892227e-22 -0.0 1 True False
4636.382 2.7703871726989746 -1.3807206761888047 1.6851475874530237 -1.8752743206419886 -1.5707648436175745 1.1996568441390991 0.0 0.0 -0.0 5.37964039442115e-25 4.4725243085855186e-41 -0.0 1 True False
4636.432 2.770432233810425 -1.3807833951762696 1.685221020375387 -1.8752662144102992 -1.5707686583148401 1.1996703147888184 0.0 0.0 -0.0 8.127531093083939e-44 0.0 -0.0 1 True False
4636.482 2.770382881164551 -1.3807281118682404 1.6852167288409632 -1.875253816644186 -1.5707925001727503 1.199661374092102 0.0 0.0 -0.0 0.0 0.0 -0.0 1 True False
4636.532 2.770432233810425 -1.3807206910899659 1.685221020375387 -1.875242372552389 -1.5708335081683558 1.1995866298675537 0.0 0.0 -0.0 0.0 0.0 3.6369158010716995e-13 1 True False
4636.581999999999 2.7704458236694336 -1.3807447713664551 1.6851971785174769 -1.8753024540343226 -1.5708048979388636 1.199644923210144 0.0 0.0 -0.0 0.0 0.0 5.524484318744539e-32 1 True False
4636.632 2.770378351211548 -1.3807592999986191 1.6852377096759241 -1.875286718408102 -1.5708335081683558 1.1996405124664307 0.0 -1.036361332065388e-37 -0.0 0.0 0.0 0.0 1 True False
4636.682 2.7703917026519775 -1.3807129126838227 1.6852181593524378 -1.8752104244627894 -1.5707724730121058 1.1996209621429443 0.0 0.0 -0.0 0.0 0.0 -7.238219404825941e-05 1 True False
4636.732 2.7704575061798096 -1.380712853079178 1.6852505842791956 -1.8752662144102992 -1.5707481543170374 1.1996285915374756 0.0 0.0 -1.242377418285806e-21 0.0 -0.00012749998131766915 -0.00017563026631250978 1 True False
4636.782 2.7703917026519775 -1.380803034906723 1.6851843039142054 -1.875282426873678 -1.570796314870016 1.1996896266937256 0.0 0.0 -0.0 0.0 6.457461131503806e-05 -1.6542369394301204e-06 1 True False
4636.831999999999 2.7704248428344727 -1.380737067466118 1.6852296034442347 -1.875230451623434 -1.5707367102252405 1.1996241807937622 0.0 0.0 -0.0 0.0 9.808898443909797e-24 -3.944681157008745e-05 1 True False
4636.882 2.7706170082092285 -1.3807385575822373 1.6852296034442347 -1.8752747974791468 -1.570833985005514 1.1997629404067993 0.026074601337313652 0.0 -0.0 0.0 0.00014417534111998975 0.020221857354044914 1 True False
4636.932 2.773287534713745 -1.3806260389140625 1.6849220434771937 -1.8752500019469203 -1.5708406607257288 1.2026177644729614 0.08831249177455902 0.006006552372127771 -0.014118274673819542 -7.843011644581566e-07 2.332528410799986e-22 0.09063471108675003 1 True False
4636.982 2.779802083969116 -1.380081759100296 1.68425161043276 -1.875071188012594 -1.5707891623126429 1.2089624404907227 0.16215360164642334 0.013315915130078793 -0.014021247625350952 0.008468406274914742 3.5431831670453e-41 0.16000190377235413 1 True False
4637.032 2.789642333984375 -1.379441724424698 1.6832621733294886 -1.8748170338072718 -1.5707805792437952 1.2188072204589844 0.23159818351268768 0.015922680497169495 -0.020807940512895584 0.005248792469501495 0.0 0.2288626879453659 1 True False
4637.081999999999 2.802917242050171 -1.3784669202617188 1.6820347944842737 -1.874490877191061 -1.5707925001727503 1.2320573329925537 0.2988969683647156 0.023581257089972496 -0.027378251776099205 0.00629360880702734 0.00010918857151409611 0.30188027024269104 1 True False
4637.132 2.819596767425537 -1.377146677379944 1.680521313344137 -1.874061723748678 -1.570801083241598 1.248873233795166 0.37259235978126526 0.027422474697232246 -0.0325852707028389 0.009138807654380798 6.510159437311813e-05 0.3664777874946594 1 True False
4637.182 2.8399670124053955 -1.3756471884301682 1.6785295645343226 -1.8736568890013636 -1.5708053747760218 1.2691199779510498 0.4390309751033783 0.031055741012096405 -0.04382793605327606 0.008530286140739918 4.061613799422048e-05 0.4415161609649658 1 True False
4637.232 2.8638269901275635 -1.3738585722497483 1.6761468092547815 -1.8731075725951136 -1.5707686583148401 1.292850136756897 0.5082406997680664 0.03636401891708374 -0.04843776673078537 0.013438825495541096 1.047050318447873e-05 0.5076460242271423 1 True False
4637.282 2.890946865081787 -1.371868984108307 1.6735647360431116 -1.8725673160948695 -1.5708254019366663 1.3202157020568848 0.578890323638916 0.04500504210591316 -0.0533611923456192 0.015153646469116211 -4.4735286792274565e-05 0.5761544108390808 1 True False
4637.331999999999 2.921647071838379 -1.3695516300252457 1.6707289854632776 -1.8718701801695765 -1.5707758108722132 1.3509314060211182 0.6441045999526978 0.047114014625549316 -0.06875107437372208 0.013804109767079353 -1.5520312078354878e-17 0.643689751625061 1 True False
4637.382 2.955904960632324 -1.367114709024765 1.6672447363482874 -1.8710724316039027 -1.5708168188678187 1.3851087093353271 0.7131267786026001 0.054079245775938034 -0.07049116492271423 0.016156310215592384 -0.00010546649718889967 0.7166204452514648 1 True False
4637.432 2.99367618560791 -1.364303396349289 1.6637089888202112 -1.8701735935606898 -1.570772949849264 1.422824501991272 0.7823673486709595 0.05837918445467949 -0.08183436095714569 0.012717096135020256 -0.0002556341059971601 0.7907472252845764 1 True False
4637.482 3.034958839416504 -1.3612681341222306 1.6596010367022913 -1.8692108593382777 -1.5707929770099085 1.4640929698944092 0.8621357083320618 0.06612367182970047 -0.07872509956359863 0.019355103373527527 -8.069287496158919e-19 0.8569240570068359 1 True False
4637.532 3.0796456336975098 -1.3580140632442017 1.6554024855243128 -1.8681408367552699 -1.5708211104022425 1.50887131690979 0.9284173846244812 0.06569679826498032 -0.09338095039129257 0.019746119156479836 0.0002614553668536246 0.9212527275085449 1 True False
4637.581999999999 3.127795934677124 -1.3544597190669556 1.6508434454547327 -1.8669969044127406 -1.5707967917071741 1.5570229291915894 0.9991936087608337 0.07519081979990005 -0.09612040966749191 0.028081489726901054 -0.00014523132995236665 0.9967980980873108 1 True False
4637.632 3.1794400215148926 -1.3507142823985596 1.6457093397723597 -1.865995546380514 -1.5707967917071741 1.608489751815796 1.0389127731323242 0.07513181865215302 -0.10382628440856934 0.024575965479016304 -2.2060676652513796e-23 1.0439386367797852 1 True False
4637.682 3.231682062149048 -1.3467803460410614 1.640838925038473 -1.8647309742369593 -1.570784870778219 1.661015510559082 1.0525387525558472 0.07272124290466309 -0.10375987738370895 0.02169516123831272 0.0002926491142716259 1.0435707569122314 1 True False
4637.732 3.284106969833374 -1.3429332983544846 1.6357839743243616 -1.8634664020934046 -1.5707367102252405 1.7132432460784912 1.0493245124816895 0.0764443501830101 -0.10071536153554916 0.028312141075730324 4.9385535696294207e-20 1.0546996593475342 1 True False
4637.782 3.336434841156006 -1.3391563308290024 1.6305230299579065 -1.8624526462950648 -1.5708211104022425 1.7655171155929565 1.042885422706604 0.07683276385068893 -0.09966155141592026 0.022364217787981033 -8.231676474679261e-05 1.0457290410995483 1 True False
4637.831999999999 3.3887481689453125 -1.3353312027505417 1.6254509131061 -1.8611165485777796 -1.5708087126361292 1.8180781602859497 1.0511977672576904 0.07584869116544724 -0.10203161090612411 0.022338125854730606 -4.7798628656892106e-05 1.043384075164795 1 True False
4637.882 3.441195487976074 -1.3313947928002854 1.620633904133932 -1.8597766361632289 -1.570824925099508 1.8702963590621948 1.0495026111602783 0.07853151857852936 -0.10101452469825745 0.025056473910808563 -1.596095444256207e-06 1.0470227003097534 1 True False
4637.932 3.493514060974121 -1.3275489968112488 1.6156252066241663 -1.8587719402708949 -1.5708048979388636 1.9227310419082642 1.0465364456176758 0.07916553318500519 -0.10310361534357071 0.021861864253878593 -2.4244732731926794e-25 1.045934796333313 1 True False
4637.982 3.5458359718322754 -1.3237206202796479 1.610462490712301 -1.8577224216856898 -1.5708006064044397 1.9751503467559814 1.052217960357666 0.07830529659986496 -0.09821219742298126 0.023162463679909706 -3.6433760072445244e-44 1.0454473495483398 1 True False
4638.032 3.598217487335205 -1.3198273938945313 1.605415169392721 -1.8563744030394496 -1.570784870778219 2.0273168087005615 1.0461794137954712 0.07571877539157867 -0.10428668558597565 0.023456910625100136 -0.00017187999037560076 1.0562477111816406 1 True False
4638.081999999999 3.650557518005371 -1.3158931893161316 1.6004346052752894 -1.855185171166891 -1.5708048979388636 2.079674005508423 1.0434476137161255 0.07946009933948517 -0.10012145340442657 0.02351009100675583 -2.6108599636241445e-23 1.047402024269104 1 True False
4638.132 3.7028872966766357 -1.312152163391449 1.595321003590719 -1.8539611301817835 -1.570756737385885 2.1323137283325195 1.0500767230987549 0.07808153331279755 -0.10126055032014847 0.02779994159936905 1.577430460558693e-12 1.0453205108642578 1 True False
4638.182 3.7553396224975586 -1.3082688313773652 1.5902798811541956 -1.8527480564513148 -1.570784870778219 2.184551477432251 1.048480749130249 0.07227293401956558 -0.09709413349628448 0.025551456958055496 7.245228456442513e-20 1.0455785989761353 1 True False
4638.232 3.807666063308716 -1.3044612568667908 1.5852387587176722 -1.8516398868956507 -1.570829216633932 2.236845016479492 1.0418483018875122 0.07666055858135223 -0.10129299759864807 0.02144749090075493 -2.8125055452979386e-13 1.0439196825027466 1 True False
4638.282 3.859984874725342 -1.3006043893149872 1.5802791754352015 -1.8503629169859828 -1.5708006064044397 2.2892937660217285 1.0500284433364868 0.0800146758556366 -0.10342247039079666 0.0241136085242033 -4.272202268822724e-32 1.045269250869751 1 True False
4638.331999999999 3.9123523235321045 -1.2968149942210694 1.5752061049090784 -1.849194189111227 -1.570801083241598 2.341566562652588 1.0505508184432983 0.08024691790342331 -0.09596103429794312 0.029030878096818924 -0.0 1.0552730560302734 1 True False
4638.382 3.9647138118743896 -1.292976127271988 1.5700061956988733 -1.8480574093260707 -1.5707925001727503 2.3938024044036865 1.0433076620101929 0.07815926522016525 -0.10123001784086227 0.023975919932127 -0.0 1.0444391965866089 1 True False
4638.432 4.017068386077881 -1.2890639168075104 1.5649712721454065 -1.846689363519186 -1.5707648436175745 2.446425437927246 1.0494476556777954 0.07959683984518051 -0.10461720079183578 0.02163488231599331 5.4531727073481306e-05 1.0416584014892578 1 True False
4638.482 4.0694684982299805 -1.2851249736598511 1.5599244276629847 -1.8455287418761195 -1.5707324186908167 2.4986371994018555 1.0498046875 0.07830730080604553 -0.10248421877622604 0.024007601663470268 0.001261918107047677 1.0506815910339355 1 True False
4638.532 4.121889114379883 -1.2813373071006318 1.5549119154559534 -1.8444630108275355 -1.5708211104022425 2.5509843826293945 1.0422379970550537 0.07455094158649445 -0.09952495992183685 0.022135909646749496 -2.148938145485335e-12 1.0483287572860718 1 True False
4638.581999999999 4.174215793609619 -1.2774099570563813 1.5498774687396448 -1.8432709179320277 -1.570772949849264 2.6034598350524902 1.0478157997131348 0.07477017492055893 -0.10375885665416718 0.020617017522454262 -7.978367300154332e-09 1.0445246696472168 1 True False
4638.632 4.226459980010986 -1.27364535749469 1.544924561177389 -1.841954847375387 -1.5707648436175745 2.655722141265869 1.0512094497680664 0.07709260284900665 -0.10195133835077286 0.023174187168478966 1.728060194938763e-10 1.0545625686645508 1 True False
4638.682 4.2789130210876465 -1.2697908145240326 1.5398643652545374 -1.840870042840475 -1.570829216633932 2.7078521251678467 1.0435941219329834 0.0802844762802124 -0.09971293807029724 0.026604048907756805 2.624927259329693e-29 1.0507142543792725 1 True False
4638.732 4.331265449523926 -1.2660359901240845 1.5346954504596155 -1.8396450481810511 -1.570829216633932 2.7605526447296143 1.0506083965301514 0.07533669471740723 -0.09622125327587128 0.023756545037031174 0.0 1.0423628091812134 1 True False
4638.782 4.3835954666137695 -1.2621170443347474 1.5296314398394983 -1.8383132419981898 -1.5707972685443323 2.8128156661987305 1.0488835573196411 0.07877737283706665 -0.09882514923810959 0.022826818749308586 0.0 1.0571069717407227 1 True False
4638.831999999999 4.435207843780518 -1.2582488817027588 1.5248797575580042 -1.837207933465475 -1.5708087126361292 2.8642077445983887 0.9938979744911194 0.07710400968790054 -0.09656534343957901 0.023333869874477386 2.977593638320286e-08 1.0034327507019043 1 True False
4638.882 4.483390808105469 -1.2547075611403962 1.5201447645770472 -1.8362022838988246 -1.5707772413836878 2.912604808807373 0.9349232316017151 0.06918992102146149 -0.08884526044130325 0.024700956419110298 0.0002504233561921865 0.9351710081100464 1 True False
4638.932 4.528053283691406 -1.2513679426959534 1.5157602469073694 -1.8351522884764613 -1.5708087126361292 2.95710825920105 0.8607263565063477 0.0625680685043335 -0.08655025064945221 0.01825486309826374 3.050767416958368e-18 0.8646758198738098 1 True False
4638.982 4.569286346435547 -1.2484162014773865 1.5119736830340784 -1.8341151676573695 -1.5708048979388636 2.998605728149414 0.7911105155944824 0.059113577008247375 -0.07845423370599747 0.019490733742713928 -3.0637678010555575e-18 0.7964988946914673 1 True False
4639.032 4.607121467590332 -1.2457133692554017 1.5080793539630335 -1.8333002529540003 -1.570756737385885 3.036320686340332 0.7259089946746826 0.05135224759578705 -0.06641708314418793 0.018743189051747322 8.067809540079907e-05 0.7243045568466187 1 True False
4639.081999999999 4.641352653503418 -1.2431715589812775 1.504906956349508 -1.8324772320189417 -1.570813004170553 3.0706071853637695 0.6547487378120422 0.04883892834186554 -0.0664149671792984 0.013163194060325623 7.278010658093755e-18 0.6493682861328125 1 True False
4639.132 4.672050952911377 -1.2408746641925354 1.5018094221698206 -1.8317610226073207 -1.5708325544940394 3.1014113426208496 0.5807809233665466 0.04631999880075455 -0.05537368357181549 0.010357865132391453 1.105531307609597e-36 0.5814171433448792 1 True False
4639.182 4.699366092681885 -1.2388552290252228 1.4993270079242151 -1.8311926327147425 -1.570768181477682 3.1286020278930664 0.5117775797843933 0.03665909543633461 -0.04894749075174332 0.009967719204723835 0.00031810105429030955 0.5062719583511353 1 True False
4639.232 4.72323751449585 -1.2371084255031128 1.4969757238971155 -1.830696245233053 -1.5707648436175745 3.152266025543213 0.4449065625667572 0.03203084319829941 -0.043081242591142654 0.010581276379525661 -6.194395751890625e-08 0.4497929513454437 1 True False
4639.282 4.743490695953369 -1.2356484693339844 1.495028320943014 -1.8302508793272914 -1.5707805792437952 3.172689437866211 0.3730308711528778 0.02711213007569313 -0.036328159272670746 0.009110899642109871 4.4580254574412125e-15 0.3734908998012543 1 True False
4639.331999999999 4.7602105140686035 -1.2343541544726868 1.4934833685504358 -1.8298856220641078 -1.5707886854754847 3.189455986022949 0.30064114928245544 0.023319078609347343 -0.027385687455534935 0.006919591687619686 6.7717515811960515e-34 0.2996242940425873 1 True False
4639.382 4.773581027984619 -1.2334207457355042 1.4921777884112757 -1.8295628033080042 -1.5708044211017054 3.2027225494384766 0.22974716126918793 0.016147125512361526 -0.02387992851436138 0.00569951580837369 0.0 0.23527483642101288 1 True False
4639.432 4.783334732055664 -1.2326417428306122 1.491192642842428 -1.8292767010130824 -1.5707805792437952 3.2125604152679443 0.16159948706626892 0.01310818362981081 -0.018612658604979515 0.0033000854309648275 0.0 0.161793053150177 1 True False
4639.482 4.789637565612793 -1.2323207420161744 1.490570370350973 -1.8291694126524867 -1.5707772413836878 3.218916177749634 0.0955348089337349 0.00610207486897707 -0.007478957064449787 0.003068897407501936 0.0 0.08956484496593475 1 True False
4639.532 4.792500972747803 -1.2321697932532807 1.4903672377215784 -1.829130312005514 -1.570784870778219 3.221724033355713 0.024166807532310486 0.0008621412562206388 -0.0010512762237340212 0.0006989986286498606 0.0 0.02210809476673603 1 True False
4639.581999999999 4.792571544647217 -1.23167176664386 1.4907100836383265 -1.8298026523985804 -1.5707767645465296 3.221862554550171 -0.00037729062023572624 0.021378012374043465 0.028248494490981102 -0.04310178756713867 6.48511340841651e-05 7.511859439546242e-05 1 True False
4639.632 4.792595386505127 -1.2302346688560029 1.4933026472674769 -1.8341242275633753 -1.5708211104022425 3.221890926361084 6.102928091422655e-05 0.038542523980140686 0.0767320990562439 -0.12571318447589874 6.902592576807365e-05 0.0004844711220357567 1 True False
4639.682 4.792614936828613 -1.2276954811862488 1.4983461538897913 -1.8417145214476527 -1.5708325544940394 3.221886157989502 0.0003300758544355631 0.06331504136323929 0.13261684775352478 -0.19317929446697235 4.210939005133696e-05 0.0003650803992059082 1 True False
4639.732 4.792651176452637 -1.2239388984492798 1.5059040228473108 -1.8528195820250453 -1.5707767645465296 3.2219436168670654 0.0005124768940731883 0.08863067626953125 0.17350368201732635 -0.2501159608364105 3.2188836485147476e-05 0.00015672585868742317 1 True False
4639.782 4.792664527893066 -1.2190064948848267 1.5157468954669397 -1.8674098453917445 -1.5707972685443323 3.221886157989502 0.0006561277550645173 0.10825507342815399 0.21140731871128082 -0.31628453731536865 3.54931361823987e-19 9.912611858453602e-05 1 True False
4639.831999999999 4.792691230773926 -1.2128617030433197 1.5276549498187464 -1.8854929409422816 -1.570784870778219 3.2219271659851074 0.00021661965001840144 0.13310733437538147 0.268005907535553 -0.3965488374233246 5.391415126698189e-38 8.949029142968357e-05 1 True False
4639.882 4.7926836013793945 -1.2056558293155213 1.542112175618307 -1.9071952305235804 -1.5707891623126429 3.2218987941741943 0.00012363935820758343 0.16176928579807281 0.31227928400039673 -0.4615359902381897 0.0 1.2008472438651552e-08 1 True False
4639.932 4.792693138122559 -1.1972511273673554 1.5585678259478968 -1.9322387180724085 -1.5707805792437952 3.2219271659851074 6.824191223131493e-05 0.17713017761707306 0.3496711552143097 -0.5427834391593933 0.0 1.824089080043972e-27 1 True False
4639.982 4.792707920074463 -1.188186065559723 1.576339069996969 -1.9585463009276332 -1.5707929770099085 3.2219226360321045 4.272233419423021e-32 0.17124901711940765 0.33066436648368835 -0.5000819563865662 4.7874398693988434e-21 1.3186485148253269e-07 1 True False
4640.032 4.792712211608887 -1.180468277340271 1.591412369404928 -1.9817992649474085 -1.570784870778219 3.2219643592834473 0.0 0.14368493854999542 0.2860974669456482 -0.42722147703170776 3.933934673937251e-17 -3.2839783671079203e-05 1 True False
4640.081999999999 4.792695999145508 -1.173784003858902 1.6045544783221644 -2.0015484295287074 -1.5707967917071741 3.2219390869140625 0.0 0.12174773216247559 0.23959414660930634 -0.36730509996414185 5.975657531335791e-36 -1.7171920262626372e-05 1 True False
4640.132 4.7927165031433105 -1.168452577 1.61511737505068 -2.0177837810912074 -1.5708449522601526 3.2218899726867676 0.0 0.09541228413581848 0.1917838305234909 -0.28465530276298523 0.0 -2.3252045139088295e-05 1 True False
4640.182 4.792677879333496 -1.1639737349799653 1.6235364119159144 -2.0305196247496546 -1.5708091894732874 3.22196888923645 0.0 0.07685982435941696 0.15041662752628326 -0.2187747061252594 0.0 -5.113254708533077e-09 1 True False
4640.232 4.792791366577148 -1.160932795410492 1.6295822302447718 -2.039610525170797 -1.5708168188678187 3.221956968307495 0.0 0.05275360494852066 0.10617481917142868 -0.14342527091503143 0.0 -7.76704387263791e-28 1 True False
4640.282 4.792745113372803 -1.1588574808887024 1.6335042158709925 -2.0453649959959925 -1.570801083241598 3.2219479084014893 0.0 0.023722369223833084 0.050778210163116455 -0.08017462491989136 0.0 -0.0 1 True False
4640.331999999999 4.792705059051514 -1.1582387846759339 1.6350553671466272 -2.0476719341673792 -1.5708416144000452 3.2218899726867676 0.0 0.001438023173250258 0.007145566400140524 -0.012584916315972805 0.0 -2.0638452042476274e-05 1 True False
4640.382 4.792691230773926 -1.158302204017975 1.6350253264056605 -2.047648092309469 -1.57074481645693 3.2219152450561523 0.0 -2.607504490104162e-10 5.565495727868381e-23 9.583975042914972e-05 0.0 -5.492380312640153e-22 1 True False
4640.432 4.792707920074463 -1.1582458776286622 1.6350296179400843 -2.0476285419859828 -1.5708048979388636 3.2218899726867676 0.0 0.00010736568219726905 8.481051190756261e-05 -2.1944504624116234e-05 0.0 -8.342910667050663e-41 1 True False
4640.482 4.792652606964111 -1.1582577389529725 1.6350744406329554 -2.0476561985411585 -1.570801083241598 3.221965789794922 3.0196872265166215e-28 8.366273686988279e-05 0.00010809272498590872 -1.3633264643431176e-05 0.0 -0.0 1 True False
4640.532 4.792770862579346 -1.1582826536944886 1.6350401083575647 -2.0476633510985316 -1.5708091894732874 3.2218987941741943 -2.4826525987009518e-05 0.0002092242648359388 0.0001597096852492541 -2.7174762635695515e-06 0.0 -0.0 1 True False
4640.581999999999 4.792712211608887 -1.1581674379161377 1.6350281874286097 -2.0476800403990687 -1.5707929770099085 3.2218987941741943 -1.469348444516072e-05 0.0003341005649417639 0.0002626650093588978 -4.127852983746391e-25 0.0 -0.0 1 True False
4640.632 4.792691230773926 -1.158177213077881 1.6350534597979944 -2.047664304772848 -1.5707805792437952 3.2219197750091553 -2.0869238142040558e-05 0.0001543764810776338 0.00018097826978191733 -6.305843089461677e-44 0.0 -0.0 1 True False
4640.682 4.792749404907227 -1.158192293053009 1.6350730101214808 -2.0476724110045375 -1.5708373228656214 3.221935987472534 -0.0 0.00010338560969103128 0.00012468485510908067 -0.0 0.0 -0.0 1 True False
4640.732 4.792675018310547 -1.1582142275622864 1.6350610891925257 -2.0476800403990687 -1.5707891623126429 3.2218945026397705 0.0 0.0001009656916721724 0.00010312275844626129 -0.0 0.0 -0.0 1 True False
4640.782 4.792662620544434 -1.1581815046123047 1.6350982824908655 -2.047676225701803 -1.5708487669574183 3.2219152450561523 0.0 7.762030872981995e-05 8.363121742149815e-05 -3.251932750858444e-11 0.0 -0.0 1 True False
4640.831999999999 4.792725563049316 -1.1581725937179108 1.6350982824908655 -2.0477124653258265 -1.570784870778219 3.2218945026397705 0.0 5.402679172095137e-13 4.027049698753226e-29 -4.93969282983899e-30 0.0 1.573466183735217e-12 1 True False
4640.882 4.792724132537842 -1.1582313042930146 1.6350863615619105 -2.0476285419859828 -1.5708368460284632 3.221940517425537 0.0 0.0 6.579407920840637e-23 -0.0 0.0 2.3900988092896535e-31 1 True False
4640.932 4.792695999145508 -1.1581978660872956 1.6350567976581019 -2.0476843319334925 -1.5708335081683558 3.2219064235687256 0.0 0.0 0.0 -0.0 0.0 0.0 1 True False
4640.982 4.792686939239502 -1.1581606429866333 1.6350982824908655 -2.0476442776122035 -1.5707805792437952 3.2219078540802 0.0 0.0 0.0 -0.0 0.0 0.0 1 True False
4641.032 4.792749404907227 -1.1581815046123047 1.635047737752096 -2.047691961328024 -1.5707605520831507 3.2219152450561523 0.0 0.0 0.0 -0.0 0.0 0.0 1 True False
4641.081999999999 4.79276180267334 -1.158185974960663 1.6350892225848597 -2.047708650628561 -1.5708254019366663 3.221919536590576 -0.0 0.0 0.0 -1.902939904391394e-21 0.0 0.0 1 True False
4641.132 4.792719841003418 -1.1582177144340058 1.6350653807269495 -2.0477005443968714 -1.5708335081683558 3.2219109535217285 0.0 0.0 0.0 -2.890570446239946e-40 0.0 0.0 1 True False
4641.182 4.7927751541137695 -1.158177064066269 1.635063950215475 -2.0476843319334925 -1.5707767645465296 3.221928596496582 0.0 0.0 0.0 -0.0 0.0 0.0 1 True False
4641.232 4.792695999145508 -1.1582023066333313 1.635096851979391 -2.0476719341673792 -1.5708406607257288 3.2219598293304443 -1.6774656614870764e-05 6.104356369623451e-36 3.377825403332023e-22 -3.419638794355251e-09 -0.0018192128045484424 1.551845052460976e-08 1 True False
4641.282 4.792721271514893 -1.1582231384566803 1.6351011435138147 -2.047688146630758 -1.5708254019366663 3.2219271659851074 0.0 0.0 0.0 -5.194438171551452e-28 -3.181233705282227e-12 2.357255822128357e-27 1 True False
4641.331999999999 4.792724132537842 -1.1581695836833497 1.635063950215475 -2.0477405987181605 -1.5708168188678187 3.2219033241271973 0.0 0.0 0.0 -0.0 -4.832300230185154e-31 0.0 1 True False
4641.382 4.792679309844971 -1.1582268339446564 1.6351178328143519 -2.0477286777892054 -1.5707686583148401 3.221989393234253 0.0 0.0 0.0 -0.0 -0.0 0.0 1 True False
4641.432 4.792712211608887 -1.1581889551929017 1.635059658681051 -2.0477005443968714 -1.570784870778219 3.2219760417938232 0.0 0.0 0.0 -0.0 -0.0 0.0 1 False False
4641.482 4.7927165031433105 -1.1582476657680054 1.6350105444537562 -2.047664304772848 -1.5708087126361292 3.221935987472534 0.0 0.0 0.0 -0.0 -0.0 -3.76519383280538e-05 1 False False
4641.532 4.792682647705078 -1.1581918162158509 1.6350730101214808 -2.0476962528624476 -1.570824925099508 3.2219109535217285 0.0 0.0 0.0 -0.0 -0.0 -4.4350283133098856e-05 1 False False
4641.581999999999 4.792695999145508 -1.1581978064826508 1.635096851979391 -2.047720571557516 -1.5707925001727503 3.221881866455078 0.0 0.0 0.0 -0.0 -0.0 -4.116572017665021e-05 1 False False
4641.632 4.7927327156066895 -1.1582804483226319 1.6350401083575647 -2.0476838550963343 -1.5707843939410608 3.221919536590576 0.0 0.0 0.0 -0.0 -0.0 -1.937769957294222e-05 1 False False
4641.682 4.792738914489746 -1.1581934255412598 1.635068718587057 -2.0477124653258265 -1.5707805792437952 3.2218613624572754 0.0 0.0 0.0 -0.0 -0.0 1.0327702533460651e-18 1 False False
4641.732 4.792707920074463 -1.1582113069346924 1.6350773016559046 -2.0476442776122035 -1.570772949849264 3.221924304962158 0.0 0.0 0.0 -0.0 -0.0 1.5687798631188849e-37 1 False False
4641.782 4.792707920074463 -1.1581934255412598 1.6351144949542444 -2.047664304772848 -1.570784870778219 3.221895217895508 0.0 0.0 0.0 -0.0 -0.0 0.0 1 False False
4641.831999999999 4.792684078216553 -1.158238725071289 1.6351059118853968 -2.0476838550963343 -1.5707925001727503 3.2219109535217285 0.0 0.0 0.0 -0.0 -0.0 0.0 1 False False
4641.882 4.792647361755371 -1.1581978660872956 1.6350520292865198 -2.047716280023092 -1.570784870778219 3.2219109535217285 0.0 0.0 0.0 -6.860675493425977e-14 -0.0 0.0 1 False False
4641.932 4.792707920074463 -1.1582142573646088 1.6351059118853968 -2.047692438165182 -1.5707686583148401 3.2219109535217285 0.0 8.262202770906169e-13 0.0 -1.0421381901413453e-32 -0.0 0.0 1 False False
4641.982 4.792740345001221 -1.1582520765117188 1.635031525288717 -2.047664304772848 -1.570784870778219 3.2219078540802 0.0 0.0 0.0 -0.0 -0.0 0.0 1 False False
4642.032 4.79268741607666 -1.158209816818573 1.6350892225848597 -2.047692438165182 -1.5707605520831507 3.2219109535217285 0.0 0.0 0.0 -0.0 -0.0 0.0 1 False False
4642.081999999999 4.792737007141113 -1.158238725071289 1.635068718587057 -2.04766382793569 -1.570784870778219 3.221818208694458 0.0 0.0 0.0 -0.0 -0.0 -0.0008771936409175396 1 False False
4642.132 4.792761325836182 -1.1581323903850098 1.635063950215475 -2.047664304772848 -1.5707362333880823 3.221952199935913 4.16286893596407e-05 0.0 0.0 -0.0 -0.0 -1.0370720701757818e-05 1 False False
4642.182 4.79268741607666 -1.1581607025912781 1.6350238958941858 -2.0476719341673792 -1.570784870778219 3.2219347953796387 2.6377867470728233e-05 0.0 0.0 -0.0 -0.0 -3.4322858937230194e-06 1 False False
4642.232 4.792691707611084 -1.1581740838340302 1.6351011435138147 -2.047648092309469 -1.5707810560809534 3.2218525409698486 1.8652093758397825e-10 0.0 0.0 -0.0 -0.0 -1.8649430456524575e-17 1 False False
4642.282 4.7927045822143555 -1.1582222443870087 1.6351054350482386 -2.047676225701803 -1.5707805792437952 3.2218689918518066 0.0 0.0 0.0 -0.0 -0.0 -2.8328531373096236e-36 1 False False
4642.331999999999 4.7927165031433105 -1.158260927801468 1.6349652449237269 -2.047420640985006 -1.570784870778219 3.2218902111053467 0.0 -0.007315392605960369 -0.01785139925777912 0.025645721703767776 -0.0 -0.0 1 False False
4642.382 4.792720794677734 -1.1591881674579163 1.633073631917135 -2.044584413568014 -1.5708444754229944 3.221919536590576 0.0 -0.029531266540288925 -0.0590086355805397 0.08706298470497131 -0.0 -0.0 1 False False
4642.432 4.792671203613281 -1.1612789195827027 1.6287558714496058 -2.038069864312643 -1.5707691351519983 3.2218775749206543 0.0 -0.056526217609643936 -0.11317034810781479 0.1669801026582718 -0.0 -0.0 1 False False
4642.482 4.792683124542236 -1.164734111433365 1.6221144835101526 -2.0281740627684535 -1.5707691351519983 3.221944808959961 0.0 -0.07849965989589691 -0.15394172072410583 0.22821404039859772 -0.0 -0.0 1 False False
4642.532 4.7927656173706055 -1.1692779821208497 1.6133444944964808 -2.0147468052306117 -1.5707691351519983 3.2219152450561523 0.0 -0.104341059923172 -0.20607981085777283 0.2952221930027008 -0.0 -0.0 1 False False
4642.581999999999 4.792724132537842 -1.1748787623694916 1.6021345297442835 -1.99804749111318 -1.5707491079913538 3.2219033241271973 0.0 -0.1262618601322174 -0.24040251970291138 0.3713543713092804 -0.0 -0.0 1 False False
4642.632 4.792645454406738 -1.1818246108344574 1.5885408560382288 -1.9776021442809046 -1.5708006064044397 3.2219302654266357 0.0 -0.15081311762332916 -0.29090771079063416 0.4330078065395355 -0.0 2.86726799904138e-23 1 False False
4642.682 4.792729377746582 -1.1900011462024231 1.5727971235858362 -1.9536472759642542 -1.5708330313311976 3.2218990325927734 0.0 -0.17372223734855652 -0.3436046540737152 0.5087243318557739 -0.0 4.3552356271215315e-42 1 False False
4642.732 4.7927165031433105 -1.1990509194186707 1.554899040852682 -1.9269987545409144 -1.5707610289203089 3.2219033241271973 0.0 -0.17857620120048523 -0.34033524990081787 0.528131902217865 -0.0 0.0 1 False False
4642.782 4.79268741607666 -1.2070551675609131 1.5390213171588343 -1.90252747158193 -1.5708125273333948 3.2219228744506836 0.0 -0.15634164214134216 -0.30411842465400696 0.44760698080062866 -0.0 0.0 1 False False
4642.831999999999 4.7927656173706055 -1.2143021088889618 1.5251496473895472 -1.8817044697203578 -1.5707691351519983 3.2218947410583496 0.0 -0.12713523209095 -0.2545027434825897 0.37806931138038635 -0.0 2.06457773106312e-22 1 False False
4642.882 4.792720794677734 -1.2201024454883118 1.5135801474200647 -1.8642827473082484 -1.5708168188678187 3.2218947410583496 1.1178397471667267e-05 -0.10577253997325897 -0.2071131467819214 0.3141722083091736 -0.0 3.1361059631589406e-41 1 False False
4642.932 4.792696952819824 -1.2247577470592041 1.5043976942645472 -1.850349565545553 -1.5708125273333948 3.221924066543579 0.0 -0.08316965401172638 -0.16476908326148987 0.25018686056137085 -0.0 0.0 1 False False
4642.982 4.7927327156066895 -1.2282983523658295 1.4975040594684046 -1.8399139843382777 -1.5707929770099085 3.2218902111053467 0.0 -0.05722841992974281 -0.11874093115329742 0.17051704227924347 -0.0 0.0 1 False False
4643.032 4.792707920074463 -1.2306802433780213 1.4930527845965784 -1.833052774468893 -1.5707886854754847 3.2218732833862305 0.0 -0.03650936856865883 -0.0689275860786438 0.10957551002502441 -0.0 0.0 1 False False
4643.081999999999 4.7927327156066895 -1.2318002146533509 1.4906404654132288 -1.8295399151244105 -1.5708444754229944 3.2218947410583496 0.0 -0.012407954782247543 -0.027104763314127922 0.03408393636345863 -0.0 0.0 1 False False
4643.132 4.792647361755371 -1.231914148931839 1.4903901259051722 -1.8291899166502894 -1.5708168188678187 3.2219109535217285 0.0 -1.67003133463026e-16 -9.377275431848853e-13 0.0005012609180994332 -0.0 0.0 1 False False
4643.182 4.792724132537842 -1.2319438618472596 1.490394417439596 -1.8291570148863734 -1.5708444754229944 3.2219433784484863 0.0 0.0 -0.000140359130455181 0.0015146139776334167 -0.0 0.0 1 False False
4643.232 4.792666912078857 -1.231978104715683 1.4903224150287073 -1.8291498623290003 -1.5707486311541956 3.2219185829162598 0.0 0.0 -0.0005720608751289546 0.0016882835188880563 -0.0 0.0 1 False False
4643.282 4.792745113372803 -1.2319526833346863 1.4903104940997522 -1.8290864429869593 -1.5707805792437952 3.221919536590576 0.0 -0.0006627620314247906 -0.0007987613789737225 0.0007607107982039452 -0.0 0.0 1 False False
4643.331999999999 4.792740345001221 -1.2319481831840058 1.4902790228473108 -1.8290945492186488 -1.5707648436175745 3.2219433784484863 0.0 -0.0008725409861654043 -0.0008420469821430743 0.0003205802640877664 -0.0 0.0 1 False False
4643.382 4.792613983154297 -1.2320100528052826 1.4902790228473108 -1.8290821514525355 -1.5707891623126429 3.221935749053955 0.0 -0.0005089303012937307 -0.000237761894823052 0.00012789333413820714 -0.0 0.0 1 False False
4643.432 4.792666912078857 -1.2319963735393067 1.4902704397784632 -1.8290783367552699 -1.5708211104022425 3.221956491470337 0.0 -0.00015420558338519186 -8.856647036736831e-05 8.032711048144847e-05 -0.0 0.0 1 False False
4643.482 4.792736053466797 -1.2320025128177186 1.490246597920553 -1.8290988407530726 -1.5707405249225062 3.2219109535217285 0.0 -9.965778008336201e-05 -5.935916124144569e-05 1.8689083844947163e-06 -0.0 0.0 1 False False
4643.532 4.792749404907227 -1.232005314236023 1.490307633076803 -1.8290544948973597 -1.5708211104022425 3.22194766998291 0.0 -7.956047920743003e-05 -4.244452320189247e-17 2.8388754652520854e-25 -0.0 0.0 1 False False
4643.581999999999 4.792724132537842 -1.2319419843009491 1.490286652241842 -1.8290983639159144 -1.5707405249225062 3.2219433784484863 0.0 -5.692874472247007e-32 -0.0 4.344025239406933e-44 -0.0 0.0 1 False False
4643.632 4.792705059051514 -1.2320308846286316 1.4902790228473108 -1.829062124291891 -1.5708048979388636 3.221912145614624 0.0 0.0 -0.0 0.0 -0.0 0.0 1 False False
4643.682 4.792703151702881 -1.2319601339152833 1.4902671019183558 -1.8290697536864222 -1.5707967917071741 3.221902370452881 0.0 0.0 -0.0 0.0 -0.0 0.0 1 False False
4643.732 4.792724132537842 -1.2320381563952942 1.4902928511248987 -1.82910217861318 -1.5707767645465296 3.2218616008758545 0.0 -2.240272526190343e-27 -0.0 0.0 -0.0 0.0 1 False False
4643.782 4.792707920074463 -1.2319601637176056 1.4902375380145472 -1.8290425739684046 -1.5708211104022425 3.221912145614624 0.0 -1.1210387714598537e-44 -0.0 0.0 -0.0 0.0 1 False False
4643.982 4.792736053466797 -1.2319844526103516 1.490246597920553 -1.8291059933104457 -1.5708335081683558 3.221935749053955 0.0 0.0 -0.0 0.0 -0.0 0.0 1 False False
4644.032 4.792712211608887 -1.2319601041129609 1.490241829548971 -1.829114099542135 -1.570784870778219 3.2219595909118652 0.0 0.0 -0.0 5.187675289342053e-11 -0.0 0.0 1 False False
4644.081999999999 4.792728424072266 -1.2319509846023102 1.4902671019183558 -1.8291059933104457 -1.5708044211017054 3.2218735218048096 0.0 0.0 -0.0 7.880088316838974e-30 -0.0 0.0 1 False False
4644.132 4.792757511138916 -1.2319331628135224 1.490274731312887 -1.8290940723814906 -1.5708048979388636 3.221890449523926 0.0 0.0 -0.0 0.0 -0.0 0.0 1 False False
4644.182 4.792733192443848 -1.2319816809943696 1.4902671019183558 -1.8290983639159144 -1.570801083241598 3.2219078540802 0.0 0.0 -0.0 0.0 -0.0 0.0 1 False False
4644.232 4.792679309844971 -1.2319390636733552 1.490274731312887 -1.829090257684225 -1.570801083241598 3.2219314575195312 0.0 0.0 -0.0 0.0 -0.0 0.0 1 False False
4644.282 4.7926926612854 -1.231959120636322 1.4903166929828089 -1.8290864429869593 -1.5707805792437952 3.2219314575195312 0.0 0.0 -0.0 0.0 -0.0 0.0 1 False False
4644.331999999999 4.792646884918213 -1.2319844526103516 1.490295712147848 -1.829062124291891 -1.5707648436175745 3.2219078540802 0.0 0.0 -0.0 0.0 -0.0 0.0 1 False False
4644.382 4.792728424072266 -1.232017235164978 1.490262810383932 -1.8291059933104457 -1.5707686583148401 3.2219152450561523 0.0 0.0 -1.2259550319360102e-10 0.0 -0.0 0.0 1 False False
4644.432 4.792688369750977 -1.2319047313979645 1.4902508894549769 -1.8290659389891566 -1.5707724730121058 3.2218990325927734 0.0 0.0 -2.884797096566928e-40 0.0 -0.0 0.0 1 False False
4644.482 4.792728424072266 -1.231977180843689 1.4902375380145472 -1.8290826282896937 -1.570813004170553 3.221928358078003 0.0 0.0 -0.0 0.0 -0.0 0.0 1 False False
4644.532 4.792712211608887 -1.232045666580536 1.490241829548971 -1.8290702305235804 -1.5708172957049769 3.221940279006958 0.0 0.0 -0.0 0.0 -0.0 0.0 1 False False
4644.581999999999 4.792703151702881 -1.2319635611823578 1.4902294317828577 -1.8291102848448695 -1.5707648436175745 3.2219109535217285 0.0 0.0 -0.0 0.0 -0.0 0.0 1 False False
4644.632 4.792695999145508 -1.2319601041129609 1.4902342001544397 -1.8290420971312464 -1.570853058491842 3.221890449523926 0.0 0.0 -0.0 -2.3283072247536757e-15 -0.0 0.0 1 False False
4644.682 4.792666912078857 -1.2319755119136353 1.490269962941305 -1.8291064701476039 -1.570801083241598 3.2218778133392334 0.0 0.0 -0.0 -3.5367029656568046e-34 -0.0 0.0 1 False False
4644.732 4.792721271514893 -1.2320053440383454 1.4902494589435022 -1.8291298351683558 -1.5707925001727503 3.221886396408081 0.0 0.0 -0.0 -0.0 -0.0 0.0 1 False False
4644.782 4.7927165031433105 -1.231991932993271 1.4902251402484339 -1.8290182552733363 -1.5707724730121058 3.2218778133392334 0.0 0.0 -0.0 -0.0 -0.0 0.0 1 False False
4644.831999999999 4.792703151702881 -1.2320008736899872 1.4902671019183558 -1.8290702305235804 -1.5707929770099085 3.221940279006958 0.0 0.0 -0.0 -0.0 -0.0 0.0 1 False False
