Andreas691667/Digital_Twin_UR/src/robot_connection_manager/robot_output/E6_robot_output.csv
timestamp actual_q_0 actual_q_1 actual_q_2 actual_q_3 actual_q_4 actual_q_5 actual_qd_0 actual_qd_1 actual_qd_2 actual_qd_3 actual_qd_4 actual_qd_5 safety_status output_bit_register_65 output_bit_register_66
6782.41 3.7120816707611084 -0.8254823845675965 0.8430169264422815 -1.5882412395873011 -1.5707805792437952 2.141247034072876 0.0 0.0 -0.0 -0.0 -0.0 0.0 1 False False
6782.46 3.7121026515960693 -0.8254913848689576 0.8430126349078577 -1.5882932148375453 -1.570756737385885 2.141308546066284 0.0 0.0 -0.0 -0.0 -0.0 0.0 1 False False
6782.509999999999 3.712111473083496 -0.8254823845675965 0.8430007139789026 -1.5882846317686976 -1.570801083241598 2.141275405883789 0.0 0.0 -0.0 -0.0 -0.0 0.0 1 False False
6782.5599999999995 3.7120981216430664 -0.8254572314075013 0.8429678122149866 -1.5882846317686976 -1.5707805792437952 2.1413004398345947 0.0 0.0 -0.0 -0.0 -0.0 0.0 1 False False
6782.61 3.7120652198791504 -0.8255127829364319 0.8430007139789026 -1.5883375606932582 -1.5707967917071741 2.141275405883789 0.0 0.0 -0.0 -0.0 -0.0 0.0 1 False False
6782.66 3.7121191024780273 -0.8255068224719544 0.8429930845843714 -1.5883332691588343 -1.570784870778219 2.141287088394165 0.0 0.0 -0.0 -0.0 -0.0 0.0 1 False False
6782.71 3.712111473083496 -0.8255365651896973 0.8429630438434046 -1.5882650814452113 -1.5708335081683558 2.1413381099700928 0.0 0.0 -0.0 -0.0 -0.0 0.0 1 False False
6782.759999999999 3.712062358856201 -0.8255157035640259 0.8430054823504847 -1.5883175335326136 -1.5707767645465296 2.141295909881592 0.0 0.0 -0.0 -0.0 -0.0 0.0 1 False False
6782.8099999999995 3.7120652198791504 -0.8254706424525757 0.8429587523089808 -1.588252683679098 -1.5708449522601526 2.1412336826324463 0.0 0.0 -0.0 -0.0 -0.0 0.0 1 False False
6782.86 3.7121026515960693 -0.825463132267334 0.8429845015155237 -1.588245531121725 -1.5707686583148401 2.1412885189056396 0.0 0.0 -0.0 -0.0 -0.0 0.0 1 False False
6782.91 3.7120862007141113 -0.8255646985820313 0.8429845015155237 -1.5883127651610316 -1.5708044211017054 2.141267776489258 0.0 0.0 -0.0 -0.0 -0.0 0.0 1 False False
6782.96 3.7120862007141113 -0.8255112928203125 0.8429515997516077 -1.5882612667479457 -1.5708492437945765 2.141267776489258 0.0 0.0 -0.0 -0.0 -0.0 0.0 1 False False
6783.009999999999 3.7120654582977295 -0.8255068820765992 0.8429845015155237 -1.5882932148375453 -1.5708087126361292 2.141270637512207 0.0 0.0 -0.0 -0.0 -0.0 0.0 1 False False
6783.0599999999995 3.7120535373687744 -0.8255275648883362 0.8429845015155237 -1.5883413753905238 -1.570801083241598 2.141247034072876 0.0 0.0 -0.0 -0.0 -0.0 0.0 1 False False
6783.11 3.712045669555664 -0.8254913848689576 0.8429325262652796 -1.5883046589293421 -1.5707648436175745 2.141279697418213 0.0 0.0 -0.0 -0.0 -0.0 0.0 1 False False
6783.16 3.712062358856201 -0.8254869741252442 0.8429892698871058 -1.5882569752135218 -1.5707967917071741 2.141270637512207 0.0 0.0 -0.0 -0.0 -0.0 0.0 1 False False
6783.21 3.7120773792266846 -0.8255112928203125 0.8430188337909144 -1.5882774792113246 -1.570784870778219 2.1413261890411377 0.0 0.0 -0.0 -0.0 -0.0 0.0 1 False False
6783.259999999999 3.7120862007141113 -0.8255319756320496 0.8429439703570765 -1.588320871392721 -1.5707891623126429 2.141329288482666 0.0 0.0 -0.0 -0.0 -0.0 0.0 1 False False
6783.3099999999995 3.712095022201538 -0.8254587215236207 0.8429802099810999 -1.588269372979635 -1.570813004170553 2.141317367553711 0.0 0.0 -0.0 -0.0 -0.0 0.0 1 False False
6783.36 3.7120206356048584 -0.8255409759334107 0.8429673353778284 -1.5882774792113246 -1.5708168188678187 2.1412782669067383 0.0 0.0 -0.0 -0.0 -0.0 0.0 1 False False
6783.41 3.7120206356048584 -0.8255365651896973 0.8429935614215296 -1.5883013210692347 -1.5707805792437952 2.141279697418213 0.0 0.0 -0.0 -0.0 -0.0 0.0 1 False False
6783.46 3.7120413780212402 -0.8254780334285279 0.8429892698871058 -1.5882731876769007 -1.5707648436175745 2.141329288482666 0.0 0.0 -0.0 -0.0 -0.0 0.0 1 False False
6783.509999999999 3.7120697498321533 -0.8255039614490052 0.8429587523089808 -1.5883094273009242 -1.5707481543170374 2.141254425048828 0.0 0.0 -0.0 -0.0 -0.0 0.0 1 False False
6783.5599999999995 3.7120447158813477 -0.8254869741252442 0.8430097738849085 -1.5882932148375453 -1.5707805792437952 2.141270637512207 0.0 0.0 -0.0 -0.0 -0.0 0.0 1 False False
6783.61 3.712029457092285 -0.8254949611476441 0.8430126349078577 -1.588313718835348 -1.5707605520831507 2.141279697418213 0.0 0.0 -0.0 -0.0 -0.0 0.0 1 False False
6783.66 3.7121145725250244 -0.8255127233317872 0.8429515997516077 -1.5882569752135218 -1.5708087126361292 2.141284227371216 0.0 0.0 -0.0 -0.0 -0.0 0.0 1 False False
6783.71 3.7120370864868164 -0.8255275648883362 0.8429845015155237 -1.5883013210692347 -1.5708168188678187 2.141275405883789 0.0 0.0 -0.0 -0.0 -0.0 0.0 1 False False
6783.759999999999 3.712106943130493 -0.8255721491626282 0.8430293242083948 -1.5882932148375453 -1.5707886854754847 2.1412723064422607 0.0 0.0 -0.0 -0.0 -0.0 0.0 1 False False
6783.8099999999995 3.7120981216430664 -0.8254861992648621 0.842992130910055 -1.588269372979635 -1.57074481645693 2.141287088394165 0.0 0.0 -0.0 -0.0 -0.0 0.0 1 False False
6783.86 3.7120981216430664 -0.8255617183497925 0.8429563681231897 -1.588252683679098 -1.5708087126361292 2.141308546066284 0.0 0.0 -0.0 -0.0 -0.0 0.0 1 False False
6783.91 3.7120251655578613 -0.8254869741252442 0.8429558912860315 -1.5882569752135218 -1.5708377997027796 2.141205310821533 0.0 0.0 -0.0 -0.0 -0.0 0.0 1 False False
6783.96 3.7120699882507324 -0.8255410355380555 0.8429763952838343 -1.5883332691588343 -1.5707886854754847 2.1413092613220215 0.0 0.0 -0.0 -0.0 -0.0 0.0 1 False False
6784.009999999999 3.71207857131958 -0.8255232137492676 0.8429978529559534 -1.5883332691588343 -1.570801083241598 2.14132022857666 0.0 0.0 -0.0 -0.0 -0.0 0.0 1 False False
6784.0599999999995 3.712062358856201 -0.8254949611476441 0.8429802099810999 -1.5882846317686976 -1.5707891623126429 2.141258955001831 0.0 0.0 -0.0 -0.0 -0.0 0.0 1 False False
6784.11 3.7120742797851562 -0.8254779738238831 0.8429721037494105 -1.5883575878539027 -1.5707805792437952 2.141317367553711 0.0 0.0 -0.0 -0.0 -0.0 0.0 1 False False
6784.16 3.712045669555664 -0.825466052894928 0.8429892698871058 -1.5882607899107875 -1.5708168188678187 2.141263246536255 0.0 0.0 -0.0 -0.0 -0.0 0.0 1 False False
6784.21 3.712110996246338 -0.8255320948413392 0.8429763952838343 -1.5882488689818324 -1.5708044211017054 2.141312837600708 0.0 0.0 -0.0 -0.0 -0.0 0.0 1 False False
6784.259999999999 3.712110996246338 -0.8254707020572205 0.8429515997516077 -1.5883013210692347 -1.5707891623126429 2.141266345977783 0.0 0.0 -0.0 -0.0 -0.0 0.0 1 False False
6784.3099999999995 3.712066650390625 -0.8255112928203125 0.8429563681231897 -1.5882612667479457 -1.5707891623126429 2.141254425048828 0.0 0.0 -0.0 -0.0 -0.0 0.0 1 False False
6784.36 3.7120862007141113 -0.8255068820765992 0.8429606596576136 -1.5882932148375453 -1.5707886854754847 2.141218662261963 0.0 0.0 -0.0 -0.0 -0.0 0.0 1 False False
6784.41 3.7120494842529297 -0.8255320352366944 0.8429721037494105 -1.5882488689818324 -1.5707805792437952 2.141275405883789 0.0 0.0 -0.0 -0.0 -0.0 0.0 1 False False
6784.46 3.7121143341064453 -0.8254528206637879 0.8430174032794397 -1.5882731876769007 -1.5708211104022425 2.1413040161132812 0.0 0.0 -0.0 -0.0 -0.0 0.0 1 False False
6784.509999999999 3.7120773792266846 -0.8254904907992859 0.8430259863482874 -1.5883251629271449 -1.570824925099508 2.1412439346313477 0.0 0.0 -0.0 -0.0 -0.0 0.0 1 False False
6784.5599999999995 3.7120938301086426 -0.825541154747345 0.8430174032794397 -1.5882932148375453 -1.570813004170553 2.141258955001831 0.0 0.0 -0.0 -0.0 -0.0 0.0 1 False False
6784.61 3.712090492248535 -0.8254527610591431 0.8429763952838343 -1.5883094273009242 -1.5708168188678187 2.1412839889526367 0.0 0.0 -0.0 -0.0 -0.0 0.0 1 False False
6784.66 3.7121353149414062 -0.8254823845675965 0.8430169264422815 -1.5883056126036585 -1.5707362333880823 2.141267776489258 0.0 0.0 -0.0 -0.0 -0.0 0.0 1 False False
6784.71 3.7120699882507324 -0.8254823845675965 0.8429845015155237 -1.5882607899107875 -1.5707891623126429 2.141308546066284 0.0 0.0 -0.0 -0.0 -0.0 0.0 1 False False
6784.759999999999 3.712090492248535 -0.8254913848689576 0.8429721037494105 -1.5882898769774378 -1.5708335081683558 2.1412575244903564 0.0 0.0 -0.0 -0.0 -0.0 0.0 1 False False
6784.8099999999995 3.7120938301086426 -0.8254823249629517 0.8430169264422815 -1.5882731876769007 -1.5707805792437952 2.141267776489258 0.0 0.0 -0.0 -0.0 -0.0 0.0 1 False False
6784.86 3.7120819091796875 -0.8254750531962891 0.8429234663592737 -1.5883056126036585 -1.5708368460284632 2.1413004398345947 0.0 0.0 -0.0 -0.0 -0.0 0.0 1 False False
6784.91 3.7121307849884033 -0.8255039614490052 0.8429630438434046 -1.5883094273009242 -1.570784870778219 2.141295909881592 0.0 0.0 -0.0 -0.0 -0.0 0.0 1 False False
6784.96 3.7120981216430664 -0.8255647581866761 0.8429964224444788 -1.5883013210692347 -1.5707605520831507 2.141324996948242 0.0 0.0 -0.0 -0.0 -0.0 0.0 1 False False
6785.009999999999 3.7120819091796875 -0.825440840130188 0.8429845015155237 -1.5882650814452113 -1.5707967917071741 2.141226291656494 0.0 0.0 -0.0 -0.0 -0.0 0.0 1 False False
6785.0599999999995 3.7121024131774902 -0.8255291742137452 0.8429935614215296 -1.588313718835348 -1.570784870778219 2.141275405883789 0.0 0.0 -0.0 -0.0 -0.0 0.0 1 False False
6785.11 3.712123155593872 -0.8254994314960022 0.8429845015155237 -1.5882445774474085 -1.5707648436175745 2.141235113143921 0.0 0.0 -0.0 -0.0 -0.0 0.0 1 False False
6785.16 3.7120862007141113 -0.8255202931216736 0.8430212179767054 -1.5882932148375453 -1.5707967917071741 2.141282558441162 0.0 0.0 -0.0 -0.0 -0.0 0.0 1 False False
6785.21 3.7120742797851562 -0.8254779738238831 0.8430007139789026 -1.588320871392721 -1.5707967917071741 2.141266345977783 0.0 0.0 -0.0 -0.0 -0.0 0.0 1 False False
6785.259999999999 3.7120656967163086 -0.8255157035640259 0.8429763952838343 -1.5882569752135218 -1.5707686583148401 2.141282558441162 0.0 0.0 -0.0 -0.0 -0.0 0.0 1 False False
6785.3099999999995 3.7120614051818848 -0.8255128425410767 0.8429759184466761 -1.588297029534811 -1.5707767645465296 2.141279697418213 0.0 0.0 -0.0 -0.0 -0.0 0.0 1 False False
6785.36 3.712118625640869 -0.8255558770946045 0.8430169264422815 -1.5882774792113246 -1.5707891623126429 2.141275405883789 0.0 0.0 -0.0 -0.0 -0.0 0.0 1 False False
6785.41 3.712095022201538 -0.8255039614490052 0.8429845015155237 -1.5882889233031214 -1.5708254019366663 2.141291618347168 0.0 0.0 -0.0 -0.0 -0.0 0.0 1 False False
6785.46 3.7120413780212402 -0.8255112928203125 0.8430169264422815 -1.5883056126036585 -1.5707724730121058 2.1412839889526367 0.0 0.0 -0.0 -0.0 -0.0 0.0 1 False False
6785.509999999999 3.712095260620117 -0.825445370083191 0.8430007139789026 -1.588280817071432 -1.570784870778219 2.141249895095825 0.0 0.0 -0.0 -0.0 -0.0 0.0 1 False False
6785.5599999999995 3.7120862007141113 -0.8255366843989869 0.8429678122149866 -1.588245531121725 -1.5708168188678187 2.141270637512207 0.0 0.0 -0.0 -0.0 -0.0 0.0 1 False False
6785.61 3.7120609283447266 -0.8255530160716553 0.8430212179767054 -1.5882331333556117 -1.5707891623126429 2.141287088394165 0.0 0.0 -0.0 -0.0 -0.0 0.0 1 False False
6785.66 3.7120816707611084 -0.8255320352366944 0.8429930845843714 -1.5883094273009242 -1.5708053747760218 2.1413040161132812 0.0 0.0 -0.0 -0.0 -0.0 0.0 1 False False
6785.71 3.7120697498321533 -0.8254779738238831 0.8429759184466761 -1.588297029534811 -1.5707891623126429 2.141251564025879 0.0 0.0 -0.0 -0.0 -0.0 0.0 1 False False
6785.759999999999 3.7120742797851562 -0.8254869145205994 0.8429678122149866 -1.588269372979635 -1.5707772413836878 2.1413004398345947 0.0 0.0 -0.0 -0.0 -0.0 0.0 1 False False
6785.8099999999995 3.7120490074157715 -0.8255736988833924 0.8429396788226526 -1.588313718835348 -1.5707843939410608 2.141313076019287 0.0 0.0 -0.0 -0.0 -0.0 0.0 1 False False
6785.86 3.7120742797851562 -0.8254869741252442 0.8429721037494105 -1.5882765255370082 -1.570801083241598 2.141267776489258 0.0 0.0 -0.0 -0.0 -0.0 0.0 1 False False
6785.91 3.7120697498321533 -0.8254616421512146 0.8429678122149866 -1.588292738000387 -1.570813004170553 2.141287088394165 0.0 0.0 -0.0 -0.0 -0.0 0.0 1 False False
6785.96 3.712116003036499 -0.825495795612671 0.8429635206805628 -1.5883051357665003 -1.570801083241598 2.141287088394165 0.0 0.0 -0.0 -0.0 -0.0 0.0 1 False False
6786.009999999999 3.712066888809204 -0.8255112332156678 0.8429396788226526 -1.5882889233031214 -1.5708211104022425 2.141270637512207 0.0 0.0 -0.0 -0.0 -0.0 0.0 1 False False
6786.0599999999995 3.7120578289031982 -0.8255439561656495 0.8430007139789026 -1.5883246860899867 -1.57074481645693 2.1412951946258545 0.0 0.0 -0.0 -0.0 -0.0 0.0 1 False False
6786.11 3.712062358856201 -0.8255202931216736 0.8429396788226526 -1.5882569752135218 -1.5708048979388636 2.1412513256073 0.0 0.0 -0.0 -0.0 -0.0 0.0 1 False False
6786.16 3.712104082107544 -0.8255112928203125 0.8429887930499476 -1.5882650814452113 -1.5707805792437952 2.1413633823394775 0.0 0.0 -0.0 -0.0 -0.0 0.0 1 False False
6786.21 3.7120532989501953 -0.825527624492981 0.8430050055133265 -1.588292738000387 -1.5707605520831507 2.141308546066284 0.0 0.0 -0.0 -0.0 -0.0 0.0 1 False False
6786.259999999999 3.7120606899261475 -0.8254869741252442 0.8429520765887659 -1.5882488689818324 -1.570813004170553 2.1412885189056396 0.0 0.0 -0.0 -0.0 -0.0 0.0 1 False False
6786.3099999999995 3.712036609649658 -0.8255039614490052 0.842931095753805 -1.5882889233031214 -1.570756737385885 2.141341209411621 0.0 0.0 -0.0 -0.0 -0.0 0.0 1 False False
6786.36 3.712078809738159 -0.8254913848689576 0.842992130910055 -1.5883094273009242 -1.5707767645465296 2.1412951946258545 0.0 0.0 -0.0 -0.0 -0.0 0.0 1 False False
6786.41 3.7120862007141113 -0.8255395454219361 0.8429678122149866 -1.5883127651610316 -1.5707967917071741 2.141254425048828 0.0 0.0 -0.0 -0.0 -0.0 0.0 1 False False
6786.46 3.712062358856201 -0.8255365651896973 0.8429673353778284 -1.588297506371969 -1.570813004170553 2.1413004398345947 0.0 0.0 -0.0 -0.0 -0.0 0.0 1 False False
6786.509999999999 3.712111473083496 -0.8255202931216736 0.8429721037494105 -1.588273664514059 -1.5708006064044397 2.141333818435669 0.0 0.0 -0.0 -0.0 -0.0 0.0 1 False False
6786.5599999999995 3.7121071815490723 -0.8254949611476441 0.8429673353778284 -1.588292738000387 -1.570824925099508 2.141263484954834 0.0 0.0 -0.0 -0.0 -0.0 0.0 1 False False
6786.61 3.712116003036499 -0.8254468005946656 0.8430054823504847 -1.5882488689818324 -1.5707810560809534 2.1412336826324463 0.0 0.0 -0.0 -0.0 -0.0 0.0 1 False False
6786.66 3.71209979057312 -0.8254736226848145 0.8430097738849085 -1.5883165798582972 -1.5708006064044397 2.141266345977783 0.0 0.0 -0.0 -0.0 -0.0 0.0 1 False False
6786.71 3.7120981216430664 -0.8254862588695069 0.8429563681231897 -1.588297029534811 -1.5708172957049769 2.141313076019287 0.0 0.0 -0.0 -0.0 -0.0 0.0 1 False False
6786.759999999999 3.712116003036499 -0.8255351942828675 0.8429430166827601 -1.5882889233031214 -1.570772949849264 2.1413116455078125 0.0 0.0 -0.0 -0.0 -0.0 0.0 1 False False
6786.8099999999995 3.7120742797851562 -0.8254617017558594 0.8429763952838343 -1.5883132419981898 -1.5708048979388636 2.141291618347168 0.0 0.0 -0.0 -0.0 -0.0 0.0 1 False False
6786.86 3.712106943130493 -0.8255246442607422 0.8429802099810999 -1.5882774792113246 -1.5708330313311976 2.1413381099700928 0.0 0.0 -0.0 -0.0 -0.0 0.0 1 False False
6786.91 3.7121145725250244 -0.8255202335170289 0.8429630438434046 -1.5883051357665003 -1.5708006064044397 2.1412453651428223 0.0 0.0 -0.0 -0.0 -0.0 0.0 1 False False
6786.96 3.712095260620117 -0.8254750531962891 0.8429763952838343 -1.5882851086058558 -1.5708125273333948 2.14127516746521 0.0 0.0 -0.0 -0.0 -0.0 0.0 1 False False
6787.009999999999 3.7121100425720215 -0.8254993718913575 0.8429473082171839 -1.5883051357665003 -1.5708168188678187 2.141308546066284 0.0 0.0 -0.0 -0.0 -0.0 0.0 1 False False
6787.21 3.712120532989502 -0.8255365055850525 0.8430293242083948 -1.5883013210692347 -1.570801083241598 2.141313076019287 0.0 0.0 -0.0 -0.0 -0.0 0.0 1 True False
6787.259999999999 3.712111473083496 -0.825454370384552 0.8429392019854944 -1.5882817707457484 -1.570784870778219 2.14127516746521 0.0 0.0 -0.0 -0.0 -0.0 0.0 1 True False
6787.3099999999995 3.712127923965454 -0.8254290980151673 0.8429630438434046 -1.5882412395873011 -1.5708206335650843 2.141324996948242 0.0 0.0 -0.0 -0.0 -0.0 0.0 1 True False
6787.36 3.7120652198791504 -0.8254869741252442 0.8429673353778284 -1.5882889233031214 -1.5707810560809534 2.1412885189056396 0.0 0.0 -0.0 -0.0 -0.0 0.0 1 True False
6787.41 3.7120771408081055 -0.8255112928203125 0.8430007139789026 -1.588269372979635 -1.570784870778219 2.141291618347168 0.0 0.0 -0.0 -0.0 -0.0 0.0 1 True False
6787.46 3.7120981216430664 -0.8255126637271424 0.8429935614215296 -1.5883332691588343 -1.5707524458514612 2.141313076019287 0.0 0.0 -0.0 -0.0 -0.0 0.0 1 True False
6787.509999999999 3.7120728492736816 -0.825498179798462 0.8429439703570765 -1.5883289776244105 -1.570813004170553 2.1412737369537354 0.0 0.0 -0.0 -0.0 -0.0 -0.001808376400731504 1 True False
6787.5599999999995 3.7120532989501953 -0.8255734604648133 0.8429892698871058 -1.588320871392721 -1.5708168188678187 2.141263246536255 0.0 0.0 -0.0 -0.0 -0.0 -1.667594708154585e-11 1 True False
6787.61 3.712127923965454 -0.8254736822894593 0.8429802099810999 -1.588297029534811 -1.570845905934469 2.141287088394165 0.0 0.0 -0.0 -0.0 -0.0 -3.226936678402126e-05 1 True False
6787.66 3.7121100425720215 -0.8255245846560975 0.8430216948138636 -1.5882774792113246 -1.570768181477682 2.141263246536255 0.0 0.0 -0.0 -0.0 -0.0 -4.612830117878275e-09 1 True False
6787.71 3.712106943130493 -0.8254956764033814 0.8429763952838343 -1.5882607899107875 -1.5708091894732874 2.1412112712860107 0.0 0.0 -0.0 -0.0 -0.0 -7.0069024347476e-28 1 True False
6787.759999999999 3.712463617324829 -0.8256667417338868 0.8431790510760706 -1.5883370838561 -1.5708335081683558 2.1416332721710205 0.031906548887491226 -0.015255813486874104 0.022572007030248642 -0.004194602370262146 2.3509622337769542e-07 0.027217231690883636 1 True False
6787.8099999999995 3.715667486190796 -0.8272069257548829 0.845555607472555 -1.5892144642271937 -1.5708368460284632 2.1450300216674805 0.098414346575737 -0.047827329486608505 0.08116011321544647 -0.02858106605708599 6.562987982761115e-05 0.10217250138521194 1 True False
6787.86 3.722708225250244 -0.8306285899928589 0.8512046972857874 -1.5911170444884242 -1.5708006064044397 2.1519460678100586 0.17796778678894043 -0.09174495190382004 0.13493137061595917 -0.04768279939889908 3.433013262110762e-05 0.17200589179992676 1 True False
6787.91 3.7331387996673584 -0.8361576956561585 0.8592365423785608 -1.5938879452147425 -1.5707648436175745 2.162349224090576 0.2416108399629593 -0.12702487409114838 0.18697689473628998 -0.05615074932575226 4.6491401008097455e-05 0.23338019847869873 1 True False
6787.96 3.7471349239349365 -0.8433749240687867 0.8701341787921351 -1.5974213085570277 -1.5708091894732874 2.1761457920074463 0.3110458552837372 -0.15531876683235168 0.24652771651744843 -0.08379671722650528 3.6907847925874565e-14 0.3126554489135742 1 True False
6788.009999999999 3.76431941986084 -0.8523086470416565 0.8836234251605433 -1.6020375690855921 -1.5707925001727503 2.1935393810272217 0.38052666187286377 -0.19292865693569183 0.2966446876525879 -0.09787698090076447 3.6018442299305134e-24 0.3756524622440338 1 True False
6788.0599999999995 3.7852237224578857 -0.8629917067340394 0.8997700850116175 -1.607680460015768 -1.570801083241598 2.2143659591674805 0.45431649684906006 -0.23348990082740784 0.34825021028518677 -0.12122774869203568 9.090425737667829e-05 0.45080626010894775 1 True False
6788.11 3.809568405151367 -0.8754810851863404 0.9188402334796351 -1.6139599285521449 -1.5707767645465296 2.238698959350586 0.5220681428909302 -0.2625085115432739 0.40639564394950867 -0.13748516142368317 -5.659044109052047e-05 0.525920569896698 1 True False
6788.16 3.8372576236724854 -0.8896790903857728 0.9402983824359339 -1.6214758358397425 -1.5708368460284632 2.2664594650268555 0.5827421545982361 -0.30466365814208984 0.4567995071411133 -0.153710275888443 3.127919581333294e-12 0.5893223881721497 1 True False
6788.21 3.8686106204986572 -0.9057987493327637 0.9645946661578577 -1.6296616993346156 -1.5708168188678187 2.297722339630127 0.6514294147491455 -0.33730724453926086 0.5105941295623779 -0.17099551856517792 5.677735614995072e-09 0.6613845229148865 1 True False
6788.259999999999 3.903430700302124 -0.9234766525081177 0.9916275183307093 -1.6388141117491664 -1.5707967917071741 2.3324594497680664 0.7279912233352661 -0.37194445729255676 0.5683795213699341 -0.18625307083129883 8.624495328380815e-28 0.7340893149375916 1 True False
6788.3099999999995 3.941721200942993 -0.9432749313167115 1.0213530699359339 -1.6489716968932093 -1.570784870778219 2.3708555698394775 0.8010954856872559 -0.40928688645362854 0.6180405616760254 -0.22142471373081207 -3.1057108571985736e-05 0.8026759624481201 1 True False
6788.36 3.983499050140381 -0.9645915788463135 1.053922478352682 -1.6598459682860316 -1.5707486311541956 2.41279935836792 0.8718926310539246 -0.43595436215400696 0.6770703792572021 -0.22670458257198334 3.449505675234832e-05 0.8672952055931091 1 True False
6788.41 4.028759956359863 -0.9877697986415406 1.088836971913473 -1.671917577783102 -1.5707925001727503 2.457782030105591 0.9329286813735962 -0.48219290375709534 0.7281765937805176 -0.24559202790260315 2.443708321080173e-22 0.9433410167694092 1 True False
6788.46 4.077487468719482 -1.0128188890269776 1.126767937337057 -1.6848069630064906 -1.5708168188678187 2.5068085193634033 1.01164972782135 -0.520709216594696 0.7842717170715332 -0.26608896255493164 3.7120396319964404e-41 1.0047022104263306 1 True False
6788.509999999999 4.129456520080566 -1.0393819969943543 1.1672428289996546 -1.6985680065550746 -1.5707686583148401 2.558520793914795 1.0497384071350098 -0.5390053391456604 0.80599445104599 -0.2834366261959076 0.0 1.0506309270858765 1 True False
6788.5599999999995 4.181793212890625 -1.0662556451610108 1.2078316847430628 -1.7120739422240199 -1.570829216633932 2.610851526260376 1.045090913772583 -0.5292157530784607 0.8105069994926453 -0.2749467194080353 -0.00023105980653781444 1.0429610013961792 1 True False
6788.61 4.234095096588135 -1.0930279356292267 1.2483895460711878 -1.7260719738402308 -1.5708335081683558 2.6634745597839355 1.0508143901824951 -0.5281571745872498 0.8159154057502747 -0.2768380045890808 0.00017849387950263917 1.0490593910217285 1 True False
6788.66 4.286442756652832 -1.119939164524414 1.289016071950094 -1.7400385342040003 -1.5708168188678187 2.715540647506714 1.0471786260604858 -0.538307785987854 0.8165493011474609 -0.27528128027915955 7.113921137556669e-23 1.0616981983184814 1 True False
6788.71 4.33888053894043 -1.1467595559409638 1.3296955267535608 -1.7537981472411097 -1.570813004170553 2.7679128646850586 1.0433272123336792 -0.537154495716095 0.8181703686714172 -0.2632029056549072 1.0805412458408664e-41 1.0432709455490112 1 True False
6788.759999999999 4.391162872314453 -1.1736182433417817 1.370239559804098 -1.7676893673338832 -1.5707486311541956 2.8205156326293945 1.0531747341156006 -0.537970244884491 0.8175703287124634 -0.28173744678497314 -2.886269937647857e-19 1.0439733266830444 1 True False
6788.8099999999995 4.442800045013428 -1.2000861030868073 1.4103453795062464 -1.781288286248678 -1.5707891623126429 2.8720321655273438 1.0013662576675415 -0.5132229328155518 0.7783017158508301 -0.2692458927631378 1.1357167295500403e-06 1.008286952972412 1 True False
6788.86 4.491135597229004 -1.2248610121062775 1.4481208960162562 -1.7939421139159144 -1.5708087126361292 2.92046856880188 0.9344016909599304 -0.47880035638809204 0.7210369110107422 -0.26048487424850464 0.0002140230208169669 0.9288367629051208 1 True False
6788.91 4.535965919494629 -1.2478894752315064 1.482858959828512 -1.8057195148863734 -1.5707686583148401 2.9652259349823 0.8656559586524963 -0.4438391625881195 0.6701610088348389 -0.21725209057331085 -3.0304616302601062e-05 0.8760287761688232 1 True False
6788.96 4.577329635620117 -1.269160435800888 1.5148208777057093 -1.816751619378561 -1.5708487669574183 3.0066261291503906 0.7954578399658203 -0.40463361144065857 0.6175698041915894 -0.20090767741203308 9.826782399954825e-13 0.7916998267173767 1 True False
6789.009999999999 4.615274906158447 -1.2886016529849549 1.5443409124957483 -1.8267551861205042 -1.570829216633932 3.0445451736450195 0.722481906414032 -0.37586113810539246 0.5579896569252014 -0.19321109354496002 -4.9090421262503944e-15 0.7184926867485046 1 True False
6789.0599999999995 4.6496758460998535 -1.305977926855423 1.5710585753070276 -1.8357826671996058 -1.5708044211017054 3.0788490772247314 0.6523374915122986 -0.3367545008659363 0.5049785375595093 -0.17548902332782745 4.0075665008743044e-10 0.6520029306411743 1 True False
6789.11 4.680521488189697 -1.3220108610442658 1.5948293844806116 -1.8440596065916957 -1.5708406607257288 3.109696865081787 0.5799387097358704 -0.2988719642162323 0.4522962272167206 -0.14572487771511078 -0.0002326489775441587 0.5823798775672913 1 True False
6789.16 4.707882404327393 -1.3358683002046128 1.6162946859942835 -1.8511163196959437 -1.570801083241598 3.137192487716675 0.5127584338188171 -0.26336216926574707 0.4010333716869354 -0.14290331304073334 6.62810925859958e-05 0.5079166889190674 1 True False
6789.21 4.7319135665893555 -1.3483684074929734 1.6348212401019495 -1.857532640496725 -1.5707686583148401 3.1611573696136475 0.44225382804870605 -0.2244853377342224 0.34652695059776306 -0.10972344130277634 0.00011092824570368975 0.4420495629310608 1 True False
6789.259999999999 4.752322673797607 -1.3587765407613297 1.650679890309469 -1.863002439538473 -1.5707929770099085 3.1815593242645264 0.371457040309906 -0.19692759215831757 0.286908894777298 -0.09669063985347748 0.00021233409643173218 0.37613800168037415 1 True False
6789.3099999999995 4.769326686859131 -1.3673520398190995 1.6639750639544886 -1.8672005138792933 -1.5708168188678187 3.198472738265991 0.3074966371059418 -0.15649381279945374 0.23887582123279572 -0.08026140183210373 3.313699827568414e-16 0.29916295409202576 1 True False
6789.36 4.782661437988281 -1.3743294936469574 1.6742351690875452 -1.870889802972311 -1.5707772413836878 3.211901903152466 0.23804588615894318 -0.11988642811775208 0.17949865758419037 -0.063495934009552 1.7694854262395587e-11 0.23585037887096405 1 True False
6789.41 4.792657375335693 -1.3793647301248093 1.682075325642721 -1.873390337029928 -1.5707805792437952 3.2218854427337646 0.16769282519817352 -0.08379551023244858 0.12795034050941467 -0.03928191587328911 2.6878520925902273e-30 0.16442608833312988 1 True False
6789.46 4.799160957336426 -1.3827636402896424 1.687068287526266 -1.8753344021239222 -1.5707767645465296 3.2283811569213867 0.09297844767570496 -0.04873226583003998 0.07825705409049988 -0.021857623010873795 0.0 0.09783899039030075 1 True False
6789.509999999999 4.802145004272461 -1.3842215251973649 1.6894367376910608 -1.875953813592428 -1.570813004170553 3.2312796115875244 0.025546813383698463 -0.015182127244770527 0.019061671569943428 -0.004216012544929981 0.0 0.026813946664333344 1 True False
6789.5599999999995 4.802170276641846 -1.3840641689351578 1.6901477018939417 -1.8768841228880824 -1.5707805792437952 3.2315001487731934 -0.00014879443915560842 0.014391087926924229 0.030820287764072418 -0.03568466752767563 8.333601170251725e-11 0.0001262068544747308 1 True False
6789.61 4.802219390869141 -1.382755846982338 1.6927841345416468 -1.8807956180968226 -1.5708044211017054 3.2314867973327637 0.00034636244527064264 0.04000924900174141 0.07388699799776077 -0.1138196811079979 -2.573237910487883e-19 0.0005768417031504214 1 True False
6789.66 4.802286624908447 -1.380028710966446 1.6974976698504847 -1.8882490597166957 -1.5708006064044397 3.23152232170105 0.0003560032637324184 0.07039076834917068 0.11565172672271729 -0.18231908977031708 2.1345475033740513e-05 0.0003246943815611303 1 True False
6789.71 4.802298545837402 -1.3758587700179596 1.7043994108783167 -1.8994375667967738 -1.570784870778219 3.231527090072632 0.0007452363497577608 0.09360218793153763 0.15860778093338013 -0.24980247020721436 1.3399627277976833e-05 0.00017447832215111703 1 True False
6789.759999999999 4.802359580993652 -1.3705270302346726 1.713520352040426 -1.9138156376280726 -1.5707686583148401 3.231510639190674 0.00021537518477998674 0.1172323152422905 0.20729133486747742 -0.31745100021362305 9.585877478457405e-07 0.00014085962902754545 1 True False
6789.8099999999995 4.8023223876953125 -1.3639733505300065 1.7248905340777796 -1.9318224392332972 -1.570801083241598 3.23152232170105 0.00018350791651755571 0.14374703168869019 0.24751587212085724 -0.39617058634757996 1.4560965919297289e-25 9.499073348706588e-05 1 True False
6789.86 4.802338600158691 -1.3560273957303544 1.7385972181903284 -1.9532152614989222 -1.5708168188678187 3.2315685749053955 0.00015410299238283187 0.1728113442659378 0.28851908445358276 -0.46775615215301514 2.2420775429197073e-44 1.3431399565888569e-06 1 True False
6789.91 4.8023552894592285 -1.3468189102462311 1.7542393843280237 -1.978161951104635 -1.5708211104022425 3.231576919555664 9.562604100210592e-05 0.19527767598628998 0.3402906358242035 -0.527644157409668 0.0 2.040232684806333e-25 1 True False
6789.96 4.802371501922607 -1.3365624707988282 1.7717731634723108 -2.005826612512106 -1.5708087126361292 3.231567621231079 6.875293183838949e-05 0.19393199682235718 0.33574533462524414 -0.5393979549407959 1.7722234764023513e-20 3.0828566215145976e-44 1 True False
6790.009999999999 4.802384853363037 -1.327503041630127 1.7876175085650843 -2.030889173547262 -1.5708492437945765 3.231529712677002 4.975042611476965e-05 0.17509005963802338 0.3008614778518677 -0.46643248200416565 4.101956801605411e-05 0.0 1 True False
6790.0599999999995 4.802301406860352 -1.319577769642212 1.8011897245990198 -2.0526024303831996 -1.5707967917071741 3.231597661972046 3.109654426225461e-05 0.14799539744853973 0.2512779235839844 -0.3979763686656952 2.6130977857974358e-05 0.0 1 True False
6790.11 4.802347660064697 -1.31280009568248 1.8127339521991175 -2.070721288720602 -1.5707529226886194 3.2315151691436768 -3.149305848637596e-05 0.11947087943553925 0.20816077291965485 -0.34138351678848267 4.61952005537114e-08 0.0 1 True False
6790.16 4.802350997924805 -1.3074258428863068 1.8221328894244593 -2.085400720635885 -1.5707486311541956 3.2315151691436768 0.0 0.09575483202934265 0.1656896322965622 -0.2604949474334717 7.017057959640851e-27 0.0 1 True False
6790.21 4.802383899688721 -1.303377018576004 1.829095188771383 -2.0966378651061 -1.5708449522601526 3.231555223464966 0.0 0.06754431128501892 0.11734052002429962 -0.19816716015338898 1.401298464324817e-45 0.0 1 True False
6790.259999999999 4.8024163246154785 -1.3005391222289582 1.8340190092669886 -2.1042548618712367 -1.5707648436175745 3.231550693511963 0.0 0.0468093678355217 0.07799801230430603 -0.13229484856128693 0.0 0.0 1 True False
6790.3099999999995 4.8023600578308105 -1.299032376413681 1.8365815321551722 -2.1083346805968226 -1.5708048979388636 3.2315642833709717 0.0 0.01924634724855423 0.033759959042072296 -0.04903874546289444 0.0 0.0 1 True False
6790.36 4.802350997924805 -1.298756257896759 1.8370569388019007 -2.109276433984274 -1.5707967917071741 3.2315597534179688 0.0 -0.0008711221744306386 1.2863026768172858e-06 0.0006664293468929827 0.0 0.0 1 True False
6790.41 4.802362442016602 -1.298793153171875 1.8371484915362757 -2.1092683277525843 -1.5707929770099085 3.2315611839294434 0.0 -2.7332326546655557e-41 0.00013456378655973822 2.2072626393310202e-08 0.0 0.0 1 True False
6790.46 4.8023176193237305 -1.2987410885146637 1.8371179739581507 -2.1092525921263636 -1.5707686583148401 3.2315685749053955 -1.1483950321842799e-37 0.00013469447731040418 0.00013119391223881394 3.352837573488139e-27 0.0 0.0 1 True False
6790.509999999999 4.802314758300781 -1.2987411481193085 1.8371260801898401 -2.1093012295165003 -1.5708087126361292 3.231527090072632 0.0 0.00032521592220291495 0.0004205346340313554 -4.8894846258917823e-05 0.0 0.0 1 True False
6790.5599999999995 4.802350997924805 -1.2987466913512726 1.837184254323141 -2.1092926464476527 -1.5708048979388636 3.2315549850463867 0.0 0.00021323472901713103 0.000324631342664361 -9.710309677757323e-05 0.0 0.0 1 True False
6790.61 4.802277565002441 -1.2987335187247773 1.837217156087057 -2.1092926464476527 -1.5708373228656214 3.231505870819092 0.0 0.00015616904420312494 0.00016208761371672153 -0.0001439155312255025 0.0 0.0 1 True False
6790.66 4.802310466766357 -1.298716591005661 1.8371780554400843 -2.1092850170531214 -1.5707805792437952 3.2315731048583984 0.0 0.00021937493875157088 0.00011273108248133212 -0.0001314490509685129 0.0 0.0 1 True False
6790.71 4.802343368530273 -1.2987135213664551 1.8371871153460901 -2.1092645130553187 -1.5707891623126429 3.2315313816070557 -6.85542590872501e-06 0.00012825612793676555 5.660392343997955e-05 -0.00013115652836859226 0.0 0.0 1 True False
6790.759999999999 4.802334308624268 -1.2986561518958588 1.8371170202838343 -2.1092645130553187 -1.5708044211017054 3.231585741043091 0.0 0.00011982709111180156 1.2725724388956717e-21 -0.0001136539940489456 0.0 0.0 1 True False
6790.8099999999995 4.802313327789307 -1.2986841660789032 1.837191406880514 -2.1092807255186976 -1.5707767645465296 3.2315549850463867 0.0 8.027762669371441e-05 0.0 -8.629065996501595e-05 0.0 0.0 1 True False
6790.86 4.802366733551025 -1.2986853879741211 1.837191406880514 -2.1092645130553187 -1.5707648436175745 3.2315685749053955 0.0 5.55177939531859e-05 0.0 -6.165788363432512e-05 0.0 0.0 1 True False
6790.91 4.802280426025391 -1.298700438146927 1.8372004667865198 -2.1092964611449183 -1.5708769003497522 3.2315433025360107 0.0 3.391810243407644e-36 8.25570098395012e-11 -1.231352348761535e-21 -0.0008562409202568233 0.0 1 True False
6790.96 4.8022847175598145 -1.2987888318351288 1.8370421568499964 -2.1095272503294886 -1.5708368460284632 3.23152232170105 0.0 0.00013737160770688206 -2.2662020057283814e-20 -0.0004017440078314394 3.011210809576747e-15 7.490372809115797e-06 1 True False
6791.009999999999 4.802375793457031 -1.2987705928138276 1.8370512167560022 -2.1095315418639125 -1.5708611647235315 3.2315478324890137 0.0 0.0006595105514861643 0.0002007428411161527 0.0008396916673518717 4.574036322639164e-34 1.1377892691726908e-24 1 True False
6791.0599999999995 4.802346706390381 -1.298946277504303 1.8367579619037073 -2.108225008050436 -1.5707805792437952 3.2315731048583984 0.0 -0.012140030972659588 -0.023451942950487137 0.05264885723590851 0.0011447336291894317 1.723597111119525e-43 1 True True
6791.11 4.802338600158691 -1.3002542716315766 1.8343804518329065 -2.1043621502318324 -1.5707686583148401 3.2315611839294434 0.0 -0.05007628723978996 -0.08206949383020401 0.10670235008001328 0.00025692596682347357 0.0 1 True True
6791.16 4.802326679229736 -1.303177074795105 1.829477612172262 -2.0965429745116175 -1.5707529226886194 3.2315313816070557 0.0 -0.0689162015914917 -0.12639109790325165 0.18130187690258026 0.00011886779975611717 0.0 1 True True
6791.21 4.802404880523682 -1.3074427408031006 1.822024170552389 -2.0853148899474085 -1.570801083241598 3.231527090072632 0.0 -0.09227623045444489 -0.16832484304904938 0.26114627718925476 8.076758240349591e-05 0.0 1 True True
6791.259999999999 4.802326679229736 -1.312886045580246 1.812631909047262 -2.070785184899801 -1.5707686583148401 3.2315611839294434 0.0 -0.11808788031339645 -0.21026313304901123 0.32530295848846436 5.910182282811705e-13 0.0 1 True True
6791.3099999999995 4.802343368530273 -1.3194850248149415 1.80129319826235 -2.0525175533690394 -1.5708168188678187 3.2315478324890137 0.0 -0.14562782645225525 -0.2530692517757416 0.39441683888435364 8.977581258889566e-32 -4.8198955482803285e-05 1 True True
6791.36 4.802326679229736 -1.3274674278548737 1.7876289526568812 -2.0309745273985804 -1.5707767645465296 3.2315478324890137 0.0 -0.1724209487438202 -0.29702386260032654 0.46988973021507263 0.0 -3.332565029268153e-05 1 True True
6791.41 4.8023881912231445 -1.336729259496071 1.7717073599444788 -2.0058819256224574 -1.5708254019366663 3.2315359115600586 0.0 -0.19730815291404724 -0.3403564691543579 0.5328540802001953 0.0 -4.1706155317348037e-17 1 True True
6791.46 4.8023552894592285 -1.3469243210605164 1.7541058699237269 -1.9782496891417445 -1.5707805792437952 3.2315523624420166 0.0 -0.19345127046108246 -0.3352164924144745 0.5253242254257202 0.0 -6.335172692314728e-36 1 True True
6791.509999999999 4.802350997924805 -1.3559996795705338 1.738589111958639 -1.9531804523863734 -1.5707891623126429 3.231494188308716 0.0 -0.1674041897058487 -0.29666486382484436 0.4606468677520752 0.0 -0.0 1 True True
6791.5599999999995 4.802341938018799 -1.3639483016780396 1.7249272505389612 -1.9317780933775843 -1.5708087126361292 3.2315731048583984 0.0 -0.14671069383621216 -0.2539336383342743 0.39354631304740906 0.0 -0.0 1 True True
6791.61 4.80239725112915 -1.3705462378314515 1.7136500517474573 -1.9138323269286097 -1.5708168188678187 3.2315597534179688 0.0 -0.11973336338996887 -0.20235216617584229 0.33615371584892273 0.0 -0.0 1 True True
6791.66 4.802319049835205 -1.3758350771716614 1.7045524756061 -1.8992401562132777 -1.5708335081683558 3.231581211090088 0.0 -0.0945996567606926 -0.16704480350017548 0.26610660552978516 0.0 -0.0 1 True True
6791.71 4.8022894859313965 -1.37984752774749 1.6976707617389124 -1.8883687458434046 -1.570801083241598 3.231593132019043 0.0 -0.06607148796319962 -0.11935625225305557 0.18097363412380219 0.0 -0.0 1 True True
6791.759999999999 4.802343368530273 -1.38264653206382 1.6927064100848597 -1.880909105340475 -1.5707967917071741 3.2315685749053955 0.0 -0.04216095060110092 -0.07324733585119247 0.12947764992713928 0.0 -0.0 1 True True
6791.8099999999995 4.802310466766357 -1.38405233741317 1.6900933424579065 -1.876838823358053 -1.5708654562579554 3.231593132019043 0.0 -0.020585792139172554 -0.03124723955988884 0.04676760733127594 0.0 -0.0 1 True True
6791.86 4.802138328552246 -1.3843088907054444 1.6897085348712366 -1.8761445484557093 -1.570784870778219 3.2313039302825928 -0.02426917478442192 2.34923419015513e-14 0.0009203298250213265 -1.2117548067180905e-06 0.0 -0.023476317524909973 1 True True
6791.91 4.79932165145874 -1.3843412858298798 1.6896632353412073 -1.8761526546873988 -1.5707362333880823 3.228397846221924 -0.09058359265327454 0.0 -0.00012567338126245886 0.004312001634389162 -4.028528815401161e-19 -0.09555073827505112 1 True True
6791.96 4.7926554679870605 -1.384304628973343 1.6896541754352015 -1.8761216602721156 -1.5708168188678187 3.2218551635742188 -0.16301707923412323 -2.0638076344463643e-15 -7.040774653432891e-05 0.00037585332756862044 -6.119347639961001e-38 -0.16231070458889008 1 True True
6792.009999999999 4.782826900482178 -1.384308860903122 1.6896279493915003 -1.876113077203268 -1.5707767645465296 3.2118873596191406 -0.23588606715202332 0.0 -0.00018180935876443982 0.0002814012987073511 -6.721902173012495e-05 -0.2309960126876831 1 True True
6792.0599999999995 4.769135475158691 -1.3843825918487092 1.6895979086505335 -1.876113077203268 -1.5707967917071741 3.1984994411468506 -0.3026176691055298 0.0 -0.0006498591392301023 0.00016059601330198348 -2.883670958908624e-06 -0.30898210406303406 1 True True
6792.11 4.75238037109375 -1.384304628973343 1.689582649861471 -1.8760529957213343 -1.5707805792437952 3.1814208030700684 -0.3731365501880646 0.0 -0.0015896614640951157 0.00013577086792793125 7.706069300184026e-05 -0.37159931659698486 1 True True
6792.16 4.731838226318359 -1.3842967313579102 1.6895692984210413 -1.8760572872557582 -1.5708168188678187 3.1610167026519775 -0.44159135222435 0.00033342052483931184 -0.001864716992713511 0.0001370210957247764 2.6839929390121142e-08 -0.43879520893096924 1 True True
6792.21 4.707977294921875 -1.3842934531024476 1.6895044485675257 -1.8760572872557582 -1.570784870778219 3.1373233795166016 -0.5139939785003662 0.0010654262732714415 -0.0012772144982591271 0.00015191016427706927 0.00012197707110317424 -0.5184164047241211 1 True True
6792.259999999999 4.680738925933838 -1.3842006784728547 1.6894148031817835 -1.8760014973082484 -1.5707529226886194 3.1098544597625732 -0.5832802653312683 0.0014828633284196258 -0.0014513764763250947 0.00034588202834129333 -2.1646975767453114e-08 -0.5788620114326477 1 True True
6792.3099999999995 4.649715423583984 -1.3841778200915833 1.6893270651446741 -1.87603821376943 -1.570740048085348 3.0790228843688965 -0.6480132937431335 0.0007307196501642466 -0.0009359521209262311 0.00023473205510526896 0.0028205865528434515 -0.6538046002388 1 True True
6792.36 4.615395545959473 -1.3840764623931427 1.6892936865436 -1.876005312005514 -1.5707891623126429 3.0445609092712402 -0.7176066637039185 0.0006659308564849198 -0.0009384317672811449 0.00024087044585030526 0.00229388615116477 -0.7216180562973022 1 True True
6792.41 4.577357292175293 -1.3839795899442215 1.6892011801349085 -1.8760301075377406 -1.5707772413836878 3.006655693054199 -0.7847570776939392 0.0010981668019667268 -0.0014729014365002513 0.00032679649302735925 0.00228590564802289 -0.8002403974533081 1 True True
6792.46 4.535924911499023 -1.3839367193034668 1.6890810171710413 -1.8760096035399378 -1.5708006064044397 2.9652113914489746 -0.8618844151496887 0.0023669025395065546 -0.002516619162634015 0.0006268030847422779 -2.5903282296901864e-10 -0.8575592637062073 1 True True
6792.509999999999 4.4911956787109375 -1.3838819426349183 1.6890009085284632 -1.8759461841978968 -1.570813004170553 2.920470714569092 -0.9361680150032043 0.0020165054593235254 -0.0020965870935469866 0.00036677252501249313 -0.0010322717716917396 -0.9218828082084656 1 True True
6792.5599999999995 4.442831039428711 -1.383707807665207 1.6889060179339808 -1.875925680200094 -1.5708053747760218 2.871924638748169 -1.0004072189331055 0.002692625392228365 -0.002687624888494611 0.0003411156067159027 0.0001473284646635875 -1.0033172369003296 1 True True
6792.61 4.391186714172363 -1.3836606305888672 1.6888015905963343 -1.875970026055807 -1.5708048979388636 2.820594072341919 -1.0460591316223145 0.0022327492479234934 -0.001918951515108347 0.0008281919290311635 -2.0278871376752368e-16 -1.053167462348938 1 True True
6792.66 4.338878154754639 -1.3835731011680146 1.6886780897723597 -1.8759070835509242 -1.5707925001727503 2.76802659034729 -1.0523558855056763 0.003349394304677844 -0.0029259442817419767 0.0004461857897695154 1.214406165672699e-05 -1.03827702999115 1 True True
6792.71 4.286540508270264 -1.3834806394628067 1.6885417143451136 -1.875866552392477 -1.5708087126361292 2.7156074047088623 -1.0446996688842773 0.002997348317876458 -0.0025132710579782724 0.00045311020221561193 0.00018428597832098603 -1.0488446950912476 1 True True
6792.759999999999 4.234094619750977 -1.3834013056806107 1.688458267842428 -1.8758465252318324 -1.5708048979388636 2.6634175777435303 -1.0429376363754272 0.0014896719949319959 -0.0017303169006481767 0.0003417530097067356 3.620454834458096e-21 -1.0521161556243896 1 True True
6792.8099999999995 4.181825160980225 -1.3832074862769623 1.6883061567889612 -1.87585510830068 -1.5708087126361292 2.6108858585357666 -1.0516340732574463 0.0029542602133005857 -0.0024238189216703176 0.0003904332988895476 7.269317393365782e-06 -1.0380258560180664 1 True True
6792.86 4.1294708251953125 -1.3831723046353837 1.6881898085223597 -1.87585510830068 -1.5708206335650843 2.558568239212036 -1.0451152324676514 0.002397765638306737 -0.003510830458253622 0.00045668406528420746 -2.3411390603911286e-09 -1.0504411458969116 1 True True
6792.91 4.077066898345947 -1.3831622016480942 1.6880949179278772 -1.8758436642088832 -1.57074481645693 2.5062930583953857 -1.0416648387908936 0.0013049658155068755 -0.0010897901374846697 0.00039344103424809873 -1.8627501049195416e-05 -1.0514678955078125 1 True True
6792.96 4.024681091308594 -1.3829977226308365 1.688084904347555 -1.8757668934264125 -1.5708368460284632 2.4539613723754883 -1.050800085067749 0.0028079114854335785 -0.002598515013232827 0.0003795672964770347 -8.207362740819679e-13 -1.0403622388839722 1 True True
6793.009999999999 3.9722483158111572 -1.3829375368407746 1.6878955999957483 -1.8757473431029261 -1.5707891623126429 2.4014530181884766 -1.0430688858032227 0.002829368459060788 -0.003177633276209235 0.0007186410948634148 0.00035166199086233974 -1.0463043451309204 1 True True
6793.0599999999995 3.9199674129486084 -1.3828373861363907 1.6877921263324183 -1.8757358990111292 -1.5708254019366663 2.3493034839630127 -1.0453107357025146 0.0013690188061445951 -0.0020824498496949673 0.000665529107209295 2.629329864944907e-09 -1.056337833404541 1 True True
6793.11 3.8676633834838867 -1.3827172231725235 1.6876314322101038 -1.8756872616209925 -1.5707758108722132 2.2968478202819824 -1.0523006916046143 0.002694655442610383 -0.002399673918262124 0.0003444173198658973 -0.0003927660291083157 -1.040239691734314 1 True True
6793.16 3.8152995109558105 -1.382641152744629 1.6875398794757288 -1.8757482967772425 -1.57074481645693 2.244340419769287 -1.0464669466018677 0.002905423054471612 -0.0030273704323917627 0.0006593808648176491 -1.543858296322067e-20 -1.0488200187683105 1 True True
6793.21 3.762885808944702 -1.3824789983085175 1.6874406973468226 -1.8756395779051722 -1.5707767645465296 2.1922245025634766 -1.043402910232544 0.001016331254504621 -0.0015457624103873968 0.0014842916280031204 -2.3451248280907614e-39 -1.0553311109542847 1 True True
6793.259999999999 3.7105300426483154 -1.3824864339879532 1.6872928778277796 -1.8756081066527308 -1.570813004170553 2.1398205757141113 -1.049525499343872 0.0024385349825024605 -0.0016719953855499625 0.0005109054036438465 7.374008418992162e-05 -1.0425896644592285 1 True True
6793.3099999999995 3.6581759452819824 -1.382312000995018 1.6871512571917933 -1.8756681881346644 -1.5707805792437952 2.0873053073883057 -1.0470404624938965 0.0031510621774941683 -0.0033194180577993393 0.00034659565426409245 0.00025226411526091397 -1.043777346611023 1 True True
6793.36 3.605792999267578 -1.3823261123946686 1.6870773474322718 -1.875620504418844 -1.570784870778219 2.035104513168335 -1.04420804977417 0.001428593648597598 -0.0014602476730942726 0.0003756194782909006 3.591343973789268e-21 -1.0534770488739014 1 True True
6793.41 3.553384780883789 -1.3821855199388047 1.6869366804706019 -1.8756042919554652 -1.57084829012026 1.9825904369354248 -1.0496844053268433 0.0022360957227647305 -0.0020422155503183603 0.0004371105751488358 5.455254921616513e-40 -1.0409252643585205 1 True True
6793.46 3.501077175140381 -1.3820448380759736 1.6868332068072718 -1.875608583489889 -1.570869270955221 1.9301860332489014 -1.0470889806747437 0.00283156824298203 -0.0034663667902350426 0.00035402883077040315 0.0 -1.0448408126831055 1 True True
6793.509999999999 3.4487249851226807 -1.3819403064301987 1.6867297331439417 -1.8755728207030238 -1.570784870778219 1.8780301809310913 -1.0459940433502197 0.0013983768876641989 -0.0024960776790976524 0.0004441932251211256 0.0 -1.0550737380981445 1 True True
6793.5599999999995 3.39640212059021 -1.381869063978531 1.6865528265582483 -1.8755489788451136 -1.5707324186908167 1.825669765472412 -1.048808217048645 0.0020363726653158665 -0.0020364364609122276 0.000486026459839195 0.0 -1.041218638420105 1 True True
6793.61 3.3440513610839844 -1.381781981592514 1.6864665190326136 -1.8755690060057582 -1.570813004170553 1.7731826305389404 -1.046575903892517 0.002324176486581564 -0.0026737698353827 0.00035895738983526826 0.0 -1.0423873662948608 1 True True
6793.66 3.2916533946990967 -1.3817013067058106 1.6863916555987757 -1.8754927120604457 -1.5708254019366663 1.7208524942398071 -1.0434004068374634 0.001404192065820098 -0.0017641732702031732 0.00038310838863253593 0.0 -1.0482594966888428 1 True True
6793.71 3.239307403564453 -1.3816140604070206 1.6862676779376429 -1.87540926555776 -1.570813004170553 1.6684832572937012 -1.0493261814117432 0.0019066749373450875 -0.0018691807053983212 0.0003836912801489234 0.0 -1.0451347827911377 1 True True
6793.759999999999 3.1868653297424316 -1.381468952899315 1.6861475149737757 -1.8754173717894496 -1.5708087126361292 1.6161396503448486 -1.0468668937683105 0.0029862697701901197 -0.0032821581698954105 0.00039291183929890394 0.0 -1.0434564352035522 1 True True
6793.8099999999995 3.1350700855255127 -1.3814383310130616 1.686019245778219 -1.8754378757872523 -1.570801083241598 1.5644302368164062 -1.0077686309814453 0.0014015843626111746 -0.002044645370915532 0.0011272125411778688 0.0 -1.0167033672332764 1 True True
6793.86 3.0864334106445312 -1.381346957092621 1.685927693043844 -1.875345369378561 -1.5708044211017054 1.5156301259994507 -0.9469398260116577 0.001641484908759594 -0.002939490368589759 0.00037448396324180067 6.92882458679378e-05 -0.9394854307174683 1 True True
6793.91 3.0412344932556152 -1.3812367779067536 1.6858771483050745 -1.87538542369985 -1.570772949849264 1.4704444408416748 -0.8684436082839966 0.00103682279586792 -0.0018295224290341139 0.00034312624484300613 8.099059778032824e-05 -0.8733477592468262 1 True True
6793.96 2.9994447231292725 -1.3812191498330613 1.6857441107379358 -1.875390192071432 -1.5707805792437952 1.4286004304885864 -0.8003706932067871 0.0018857859540730715 -0.0015955195995047688 0.0003001501318067312 -4.707280121252211e-10 -0.7943437099456787 1 True True
6794.009999999999 2.9612412452697754 -1.38104501486335 1.6855953375445765 -1.8753615818419398 -1.5707524458514612 1.3904500007629395 -0.7326796054840088 0.002086372347548604 -0.0015065526822581887 0.00021868232579436153 -7.150367002605571e-29 -0.7291149497032166 1 True True
6794.0599999999995 2.9265189170837402 -1.3810296070626755 1.685584847127096 -1.8752933941283167 -1.570801083241598 1.3556971549987793 -0.6630614399909973 0.0014102120185270905 -0.0015050697838887572 0.0003036558337043971 -0.0001133309633587487 -0.6660738587379456 1 True True
6794.11 2.8952412605285645 -1.3810062867454072 1.6855371634112757 -1.875350137750143 -1.5708048979388636 1.3244132995605469 -0.5880641341209412 0.001358594628982246 -0.001288990373723209 0.00018597461166791618 -1.8341183966476253e-20 -0.5954487919807434 1 True True
6794.16 2.867450475692749 -1.380950854425766 1.6854327360736292 -1.8752862415709437 -1.5708211104022425 1.2966715097427368 -0.5208945870399475 0.0014228345826268196 -0.0012797738891094923 0.0002468184975441545 -7.309246484510368e-06 -0.5256998538970947 1 True True
6794.21 2.843118667602539 -1.3809269678643723 1.6853559652911585 -1.8752819500365199 -1.5708211104022425 1.2723034620285034 -0.448361873626709 0.000748306280001998 -0.001151394098997116 0.00025710012414492667 -1.5849332157813478e-06 -0.44961705803871155 1 True True
6794.259999999999 2.8222992420196533 -1.3808420610478898 1.685333553944723 -1.8752418957152308 -1.5708168188678187 1.251596450805664 -0.3837926983833313 0.001345087424851954 -0.0012031699297949672 0.00018534075934439898 3.442270099185407e-05 -0.3852958679199219 1 True True
6794.3099999999995 2.8051388263702393 -1.3808747392943879 1.6853097120868128 -1.8753138981261195 -1.5707805792437952 1.234256625175476 -0.3152056634426117 0.00036919544800184667 -0.0011498081730678678 0.00014608482888434082 0.00012451833754312247 -0.31095537543296814 1 True True
6794.36 2.791247844696045 -1.3807843935540696 1.6853020826922815 -1.8753181896605433 -1.5707805792437952 1.2204272747039795 -0.24325674772262573 0.0003318062226753682 -0.0011702637420967221 7.018398173386231e-05 2.5112578441621736e-05 -0.24246984720230103 1 True True
6794.41 2.780925750732422 -1.3807441902211686 1.6852944532977503 -1.8753224811949671 -1.5708487669574183 1.210205078125 -0.1715937852859497 0.0003133228456135839 -0.0003288059961050749 7.069267303450033e-05 0.00011024854029528797 -0.1721513569355011 1 True True
6794.46 2.7741544246673584 -1.3807700288346787 1.6852782408343714 -1.8752457104124964 -1.5708211104022425 1.2033262252807617 -0.10355471819639206 0.00037022720789536834 -0.00023887318093329668 9.242684378400916e-23 2.1542320610024035e-05 -0.1005190759897232 1 True True
6794.509999999999 2.7707865238189697 -1.380771593456604 1.6852615515338343 -1.8752581081786097 -1.570784870778219 1.199990153312683 -0.03245518356561661 0.00019423010235186666 -0.00028210782329551876 5.0581071263877675e-05 4.845377571394138e-13 -0.035227566957473755 1 True True
6794.5599999999995 2.770540475845337 -1.3804627370885392 1.6854098478900355 -1.875648637811178 -1.5707810560809534 1.1996643543243408 4.2467434013815364e-07 0.020686225965619087 0.02009350247681141 -0.026652246713638306 7.360141586713202e-32 -6.266024366041734e-10 1 True True
6794.61 2.7705371379852295 -1.3791450274041672 1.6875384489642542 -1.879310747186178 -1.5707886854754847 1.1996732950210571 -0.00034811088698916137 0.0328354686498642 0.06672724336385727 -0.10378098487854004 0.0 -0.00029600851121358573 1 True True
6794.66 2.770456314086914 -1.3765452963164826 1.692176644002096 -1.8865882358946742 -1.5708087126361292 1.199615240097046 -0.00056878273608163 0.06395319849252701 0.12039707601070404 -0.16487878561019897 0.0 -0.0002029314637184143 1 True True
6794.71 2.770415782928467 -1.3726709944060822 1.6991904417621058 -1.8972612820067347 -1.570784870778219 1.1996732950210571 -0.0006298913503997028 0.08857052028179169 0.15884147584438324 -0.25106653571128845 0.0 -0.00024333705368917435 1 True True
6794.759999999999 2.770427703857422 -1.3675448161414643 1.7080562750445765 -1.9114042721190394 -1.5707405249225062 1.1996240615844727 -0.00021443604782689363 0.11395043879747391 0.20333711802959442 -0.3277418613433838 0.0 -0.00016554995090700686 1 True True
6794.8099999999995 2.770394802093506 -1.361061842446663 1.7191231886493128 -1.9288794002928675 -1.570784870778219 1.1996420621871948 -0.00011850384180434048 0.14198429882526398 0.24544060230255127 -0.38101255893707275 0.0 -0.00010511944128666073 1 True True
6794.86 2.7704529762268066 -1.3533688944629212 1.7327459494220179 -1.9500886402525843 -1.5707967917071741 1.1996583938598633 -8.060144318733364e-05 0.16990447044372559 0.2901391386985779 -0.45127683877944946 0.0 -2.854361014215101e-07 1 True True
6794.91 2.770415782928467 -1.3442759376815339 1.7480762640582483 -1.974684854547018 -1.5708368460284632 1.1996331214904785 -5.106808253757539e-30 0.19184346497058868 0.333548903465271 -0.5196912288665771 0.0 -4.335779831808897e-26 1 True True
6794.96 2.7704336643218994 -1.3341124069741745 1.7657888571368616 -2.0021168194212855 -1.5708048979388636 1.1996285915374756 0.0 0.20348624885082245 0.3445025086402893 -0.5434519052505493 -8.486434671794996e-05 -7.006492321624085e-45 1 True True
6795.009999999999 2.7704293727874756 -1.324992598300316 1.7815263907061976 -2.0275923214354457 -1.5707724730121058 1.1996376514434814 3.1696196414394872e-37 0.17796224355697632 0.3046589493751526 -0.4650411307811737 -2.526277967263013e-05 -0.0 1 True True
6795.0599999999995 2.770411491394043 -1.316755549316742 1.7956631819354456 -2.0494548283019007 -1.570784870778219 1.1995583772659302 0.0 0.14946278929710388 0.2515086233615875 -0.4142110049724579 -2.968875560327433e-05 -0.0 1 True True
6795.11 2.7704081535339355 -1.3099922698787232 1.8070996443377894 -2.068080087701315 -1.5708211104022425 1.199661374092102 0.0 0.12075310200452805 0.21008047461509705 -0.32257798314094543 -1.0513283086766023e-05 -0.0 1 True True
6795.16 2.7704367637634277 -1.3045934003642579 1.8166363875018519 -2.0829860172667445 -1.5708087126361292 1.199561357498169 0.0 0.09547300636768341 0.16993774473667145 -0.27563828229904175 -5.691479616466112e-21 -0.0 1 True True
6795.21 2.7704036235809326 -1.3003030580333252 1.8241007963763636 -2.0944892368712367 -1.5707929770099085 1.1996747255325317 0.0 0.07424317300319672 0.12449505925178528 -0.19014829397201538 -8.645366927590532e-40 -0.0 1 True True
6795.259999999999 2.7704172134399414 -1.2974049907973786 1.8290188948260706 -2.1024323902525843 -1.5707886854754847 1.1995493173599243 -4.543081859026529e-16 0.04515267536044121 0.07918722927570343 -0.1289619356393814 -0.0 -0.0 1 True True
6795.3099999999995 2.7703750133514404 -1.2960049372962494 1.8316229025470179 -2.1072217426695765 -1.570756737385885 1.1995582580566406 0.0 0.014118591323494911 0.030262058600783348 -0.07251501828432083 0.0047738440334796906 -9.017855351345361e-10 1 True True
6795.36 2.7704248428344727 -1.2957608264735718 1.8319500128375452 -2.108194967309469 -1.5708335081683558 1.1996241807937622 0.0 0.005227077752351761 0.003566901898011565 0.0021445690654218197 -0.00021789423772133887 -2.253662060733177e-21 1 True True
6795.41 2.770415782928467 -1.2955549222281952 1.832038704548971 -2.108214040795797 -1.5708325544940394 1.199607491493225 0.0 0.007873037829995155 0.0066210245713591576 0.00023267218784894794 -8.333375444635749e-05 -3.423316096406955e-40 1 True True
6795.46 2.770448684692383 -1.2949384313872834 1.8330934683429163 -2.107610364953512 -1.5707967917071741 1.1995999813079834 0.0002422093239147216 -0.003826647065579891 -0.004422137513756752 -0.007170897908508778 -0.0003532128466758877 -0.0 1 True True
6795.509999999999 2.7704217433929443 -1.2950897973826905 1.8330510298358362 -2.1078487835326136 -1.5707886854754847 1.1996164321899414 -0.0004673076909966767 -0.0006418308475986123 -0.00010237038804916665 -4.760261873570926e-08 -0.0010370423551648855 7.706874748691916e-05 1 True False
6795.5599999999995 2.7704036235809326 -1.2951796811870118 1.8329642454730433 -2.1080028019347132 -1.570829216633932 1.1995673179626465 3.7924646062448275e-11 -0.0011454300256446004 -0.001405993360094726 -0.0015008944319561124 -0.00012254982721060514 5.573903035838157e-05 1 True False
6795.61 2.7704248428344727 -1.2952743929675599 1.8327987829791468 -2.108058591882223 -1.5707967917071741 1.1996331214904785 0.0 -0.000733395223505795 -0.0025820687878876925 -0.0008411685121245682 -6.62233360344544e-05 5.695721847587265e-05 1 True False
6795.66 2.770415782928467 -1.2952708762935181 1.832756821309225 -2.108082433740133 -1.5708087126361292 1.1996285915374756 0.0 -0.000435627851402387 -0.0023499245289713144 -0.00023115231306292117 -4.536121559794992e-05 4.769727456732653e-05 1 True False
6795.71 2.770415782928467 -1.295719937687256 1.832064453755514 -2.107497831384176 -1.5707929770099085 1.1995627880096436 0.0 -0.02112332172691822 -0.02973545715212822 0.03568277135491371 -1.1534078347706146e-15 4.4113337935414165e-05 1 True False
6795.759999999999 2.770411252975464 -1.297022358780243 1.8297436873065394 -2.1034027538695277 -1.5707486311541956 1.1996164321899414 0.0 -0.037304624915122986 -0.07187164574861526 0.11204677820205688 -7.505435596447411e-16 6.749979206688295e-07 1 True False
6795.8099999999995 2.7704575061798096 -1.2998620134643097 1.8248336950885218 -2.095914503137106 -1.5707929770099085 1.199644923210144 0.0 -0.06756357848644257 -0.11355749517679214 0.18308761715888977 -1.1400770733739966e-34 0.00011310291301924735 1 True False
6795.86 2.7704126834869385 -1.3038519781878968 1.8176739851581019 -2.084761758843893 -1.5707967917071741 1.199665904045105 0.0 -0.0960368737578392 -0.15743565559387207 0.24494794011116028 -0.0 8.66094560478814e-05 1 True False
6795.91 2.770432233810425 -1.3091321152499695 1.8085482756244105 -2.070346017877096 -1.5708368460284632 1.1996208429336548 0.0 -0.11680835485458374 -0.20610632002353668 0.3241027295589447 -0.0 1.582481368167521e-10 1 True False
6795.96 2.7704412937164307 -1.315735177402832 1.7972272078143519 -2.0523253879942835 -1.5707925001727503 1.1996331214904785 0.0 -0.14085090160369873 -0.24329064786434174 0.3923226296901703 -1.3004875822064665e-11 2.403792885894812e-29 1 True False
6796.009999999999 2.770415782928467 -1.3236943793347855 1.7836249510394495 -2.030893465081686 -1.5707925001727503 1.19965398311615 0.0 -0.17210164666175842 -0.29233527183532715 0.4662374258041382 -1.975443835313928e-30 0.0 1 True False
6796.0599999999995 2.770460844039917 -1.332813711171486 1.7679365316974085 -2.005871912042135 -1.5708168188678187 1.1996569633483887 0.0 -0.19497689604759216 -0.33253857493400574 0.5228962302207947 -0.0 0.0 1 True False
6796.11 2.7704367637634277 -1.3430971068194886 1.7502067724811 -1.978363653222555 -1.5708335081683558 1.1996361017227173 1.304387708955801e-08 -0.19672025740146637 -0.3459705412387848 0.5353800058364868 -1.0950327123282477e-05 2.0901876285556523e-14 1 True False
6796.16 2.770415782928467 -1.3521513503840943 1.7346819082843226 -1.9531995258727015 -1.5708335081683558 1.199629783630371 0.0 -0.16911275684833527 -0.29018133878707886 0.4642108082771301 -4.923457163386047e-05 3.174999588653444e-33 1 True False
6796.21 2.770427703857422 -1.35995705545459 1.7208393255816858 -1.931584974328512 -1.57074481645693 1.199637532234192 0.0 -0.14448182284832 -0.24747641384601593 0.39399293065071106 -1.4927681149856653e-05 0.0 1 True False
6796.259999999999 2.7704098224639893 -1.3666692239097138 1.7096627394305628 -1.913600584069723 -1.5707925001727503 1.199644923210144 0.0 -0.12194779515266418 -0.21162733435630798 0.3422660827636719 -2.079589648928959e-05 0.0 1 True False
6796.3099999999995 2.770460844039917 -1.3720458459905167 1.7003582159625452 -1.8988567791380824 -1.5707724730121058 1.199644923210144 0.0 -0.09159553796052933 -0.15953923761844635 0.2573317587375641 -2.0131453631943542e-21 0.0 1 True False
6796.36 2.770432233810425 -1.3761804413846512 1.693232838307516 -1.8879653416075648 -1.5707805792437952 1.1996253728866577 0.0 -0.06738477945327759 -0.11898282170295715 0.18560791015625 -3.057969560788189e-40 0.0 1 True False
6796.41 2.7704620361328125 -1.3788600426963349 1.6883114019977015 -1.8801938496031703 -1.5707929770099085 1.1996331214904785 0.0 -0.045847728848457336 -0.07756024599075317 0.13329069316387177 -0.0 0.0 1 True False
6796.46 2.770382881164551 -1.3803411436131974 1.6858928839312952 -1.876141210595602 -1.5708335081683558 1.199649453163147 7.679583715337091e-26 -0.017425520345568657 -0.029441067948937416 0.044179435819387436 -0.0 0.0 1 True False
6796.509999999999 2.770460844039917 -1.380645678644516 1.6852691809283655 -1.8753892383971156 -1.5707805792437952 1.1996241807937622 0.0 -4.4371009644272874e-10 -0.0002668476081453264 -0.00018484023166820407 -0.0 0.0 1 False False
6796.5599999999995 2.770427703857422 -1.3806158763221283 1.6853259245501917 -1.8753897152342738 -1.5707686583148401 1.199561357498169 0.0 1.9479155679901774e-39 -0.00015402388817165047 -3.976727845269346e-22 -0.0 0.0 1 False False
6796.61 2.770448684692383 -1.3806980562261124 1.6852768103228968 -1.8753658733763636 -1.570784870778219 1.199600100517273 0.0 -0.00034780174610204995 -0.0005514452932402492 0.00028893048875033855 -0.0 0.0 1 False False
6796.66 2.770427703857422 -1.3807128828815003 1.6852691809283655 -1.87522616008901 -1.570813004170553 1.1996241807937622 0.0 -0.0009510500822216272 -0.0005543974111787975 0.0015720725059509277 -0.0 0.0 1 False False
6796.71 2.770427703857422 -1.3807879847339173 1.6852529684649866 -1.8752266369261683 -1.5707767645465296 1.1996196508407593 0.0 -0.0002862389956135303 -0.00037063585477881134 0.0005155802355147898 -0.0 0.0 1 False False
6796.759999999999 2.7704367637634277 -1.380734072332718 1.6852777639972132 -1.8752747974791468 -1.5707972685443323 1.1996777057647705 0.0 -0.00022664225252810866 -0.000395928043872118 0.00018708125571720302 -0.0 0.0 1 False False
6796.8099999999995 2.770465135574341 -1.3806876105121155 1.685221020375387 -1.875270505944723 -1.5707805792437952 1.1996777057647705 0.0 -0.0001569439918966964 -0.00025561460643075407 0.00010736379044828936 -0.0 0.0 1 False False
6796.86 2.770432233810425 -1.3807296019843598 1.6852124373065394 -1.8752662144102992 -1.5707805792437952 1.1996285915374756 0.0 -0.00013466393284033984 -0.00011589630594244227 7.528658170485869e-05 -0.0 0.0 1 False False
6796.91 2.7704696655273438 -1.3807218980840226 1.6852038542376917 -1.8752347431578578 -1.5707805792437952 1.1996197700500488 0.0 -8.182869351003319e-05 -0.00010056001337943599 1.2751542319539566e-18 -0.0 0.0 1 False False
6796.96 2.770448684692383 -1.3807340574315567 1.6852052847491663 -1.8752581081786097 -1.570784870778219 1.1996285915374756 0.0 -4.278081905795261e-05 -6.157820781060863e-12 1.9369619542061817e-37 -0.0 0.0 1 False False
6797.009999999999 2.770448684692383 -1.3807833802751084 1.685192886983053 -1.8752500019469203 -1.57074481645693 1.1996376514434814 0.0 -2.683576531126164e-05 -3.2450381086662067e-14 0.0 -0.0 0.0 1 False False
6797.0599999999995 2.7704410552978516 -1.3808001291802903 1.6852877775775355 -1.8752662144102992 -1.5707724730121058 1.1996495723724365 0.0 -1.9152080810158623e-08 -7.567011707354012e-44 0.0 -0.0 0.0 1 False False
6797.11 2.7704739570617676 -1.3807743948749085 1.6852095762835901 -1.8752786121764125 -1.5708168188678187 1.1996197700500488 0.0 0.0 -0.0 0.0 -0.0 0.0 1 False False
6797.16 2.770399332046509 -1.3807447266629715 1.685192886983053 -1.8752266369261683 -1.5707891623126429 1.1996331214904785 0.0 0.0 -0.0 2.4793338159853694e-24 -0.0 0.0 1 False False
6797.21 2.7704739570617676 -1.38077004373584 1.6851967016803187 -1.8752829037108363 -1.5707529226886194 1.1996331214904785 0.0 0.0 -0.0 3.769492869033758e-43 -0.0 0.0 1 False False
6797.259999999999 2.7704529762268066 -1.3807566475919266 1.6851843039142054 -1.8752662144102992 -1.5707767645465296 1.1996119022369385 0.0 0.0 -0.0 0.0 -0.0 0.0 1 False False
6797.3099999999995 2.7704455852508545 -1.3807866883328934 1.6852334181415003 -1.8752185306944789 -1.570784870778219 1.1996241807937622 0.0 0.0 -0.0 0.0 -0.0 0.0 1 False False
6797.36 2.7704367637634277 -1.380791188483574 1.6852334181415003 -1.8752266369261683 -1.5707805792437952 1.1996119022369385 0.0 0.0 -0.0 0.0 -0.0 0.0 1 False False
6797.41 2.77038311958313 -1.380754978661873 1.6852300802813929 -1.8752747974791468 -1.5707805792437952 1.1996911764144897 0.0 0.0 -0.0 0.0 -0.0 0.0 1 False False
6797.46 2.7704365253448486 -1.3807504040053864 1.685221020375387 -1.8752786121764125 -1.5707805792437952 1.1996119022369385 0.0 0.0 -0.0 0.0 -0.0 0.0 1 True False
6797.509999999999 2.770416021347046 -1.3807083678296586 1.6852052847491663 -1.8752862415709437 -1.5707767645465296 1.199665904045105 0.0 0.0 -0.0 0.0 -0.0 0.0 1 True False
6797.5599999999995 2.7704782485961914 -1.3807128828815003 1.685192886983053 -1.875253816644186 -1.5707772413836878 1.199627161026001 0.0 0.0 -0.0 0.0 -0.0 0.0 1 True False
6797.61 2.770456314086914 -1.3807835143855591 1.6852629820453089 -1.8752747974791468 -1.5708087126361292 1.199615240097046 0.0 0.0 -0.0 0.0 -0.0 0.0 1 True False
6797.66 2.7704203128814697 -1.3808121395162125 1.6852410475360315 -1.8752747974791468 -1.5707967917071741 1.1996151208877563 0.0 0.0 -0.0 0.0 -0.0 0.0 1 True False
6797.71 2.770432233810425 -1.3807262790254136 1.6852510611163538 -1.8752662144102992 -1.570813004170553 1.199607491493225 0.0 0.0 -0.0 0.0 -0.0 0.0 1 True False
6797.759999999999 2.7704529762268066 -1.3807789844325562 1.685213867818014 -1.8752786121764125 -1.5708368460284632 1.1996119022369385 -3.623638622229919e-05 0.0 -0.0 0.0 -0.0 0.0 1 True False
6797.8099999999995 2.770416021347046 -1.3807716977647324 1.6851838270770472 -1.8752581081786097 -1.5707967917071741 1.1995866298675537 -0.0 0.0 -0.0 0.0 -0.0 0.0 1 True False
6797.86 2.7703940868377686 -1.3807834696820755 1.6852052847491663 -1.8752948246397914 -1.5707362333880823 1.1996822357177734 0.0 0.0 -0.0 -3.289337868750408e-08 4.4973488821931085e-10 0.0015717538772150874 1 True False
6797.91 2.770416021347046 -1.380743072634079 1.6851633230792444 -1.8752500019469203 -1.5707643667804163 1.199583649635315 0.0 0.0 -0.0 -4.9965140104336704e-27 6.831481753916762e-29 6.590593693545088e-05 1 True False
6797.96 2.770399570465088 -1.3807671082070847 1.6852119604693812 -1.8752342663206996 -1.5707772413836878 1.1996164321899414 0.0 0.0 -9.028370586166156e-34 -1.401298464324817e-45 -0.00010444832150824368 -0.0015811319462954998 1 True False
6798.009999999999 2.770379066467285 -1.380749137406685 1.6851642767535608 -1.8753072224059046 -1.5708006064044397 1.199627161026001 0.0 0.0 -0.0 -0.0 -7.27942932599035e-08 0.00042228028178215027 1 True False
6798.0599999999995 2.770432233810425 -1.3807491225055237 1.6852377096759241 -1.8753024540343226 -1.5707686583148401 1.1996480226516724 0.0 0.0 -0.0 -0.0 -0.0005630626110360026 4.0089109874623385e-13 1 True False
6798.11 2.7705020904541016 -1.3807474982789536 1.6851676146136683 -1.8752504787840785 -1.570784870778219 1.1996568441390991 0.0 0.0 -0.0 -0.0 -1.217559778476906e-21 6.089545040931988e-32 1 True False
6798.16 2.771130323410034 -1.3807219129851838 1.685148064290182 -1.8752581081786097 -1.570784870778219 1.200256109237671 0.04312941059470177 0.0017389581771567464 -0.002943377709016204 -0.0 -1.0903148250918093e-07 0.0391426682472229 1 True False
6798.21 2.7749624252319336 -1.380600557928421 1.6847227255450647 -1.8752266369261683 -1.5708087126361292 1.2043185234069824 0.11724348366260529 0.008396188728511333 -0.01237344741821289 0.0009163027862086892 -1.6561900512033905e-26 0.10996130853891373 1 True False
6798.259999999999 2.7825140953063965 -1.3799588692239304 1.6840465704547327 -1.8749925098814906 -1.5708444754229944 1.2117528915405273 0.18377327919006348 0.01381154078990221 -0.01633938029408455 0.006609255913645029 -2.802596928649634e-45 0.18145671486854553 1 True False
6798.3099999999995 2.7933976650238037 -1.3790997874787827 1.6829898993121546 -1.8747502766051234 -1.5707724730121058 1.2226672172546387 0.25293466448783875 0.018218116834759712 -0.024278270080685616 0.005271620117127895 6.163380021462217e-05 0.2480126917362213 1 True False
6798.36 2.8077433109283447 -1.3781041961959382 1.6816113630877894 -1.8743521175780238 -1.5707643667804163 1.2370903491973877 0.3200598955154419 0.02399655431509018 -0.030700499191880226 0.008837911300361156 0.00010537215712247416 0.3219047486782074 1 True False
6798.41 2.825845241546631 -1.3767070186189194 1.6799996534930628 -1.8738857708373011 -1.5708134810077112 1.255002498626709 0.3917059600353241 0.028178665786981583 -0.0343770757317543 0.009050138294696808 1.3224621397966985e-05 0.387081116437912 1 True False
6798.46 2.847092390060425 -1.3751582366279145 1.6778319517718714 -1.8735095463194789 -1.5707929770099085 1.276328206062317 0.4614632725715637 0.03466189652681351 -0.04838988929986954 0.008974751457571983 -6.803260038656944e-11 0.46261486411094666 1 True False
6798.509999999999 2.8721120357513428 -1.3732914340547104 1.675351921712057 -1.8729330501952113 -1.5707767645465296 1.3012582063674927 0.5309478640556335 0.03981098160147667 -0.050578221678733826 0.009417704306542873 -1.0334169189604336e-29 0.5337051749229431 1 True False
6798.5599999999995 2.9004626274108887 -1.3711476486972352 1.6727350393878382 -1.872324605981344 -1.5707805792437952 1.3294771909713745 0.602688729763031 0.04254267364740372 -0.054213397204875946 0.015542823821306229 0.00010888485121540725 0.6053805947303772 1 True False
6798.61 2.9323067665100098 -1.3688460153392334 1.6695945898639124 -1.8716207943358363 -1.570801083241598 1.3614753484725952 0.6700970530509949 0.04980727285146713 -0.06495732814073563 0.016348283737897873 0.000232983089517802 0.673305094242096 1 True False
6798.66 2.9676809310913086 -1.3662808698466797 1.6662047545062464 -1.8708259067931117 -1.5708006064044397 1.3968181610107422 0.7413065433502197 0.0545806884765625 -0.06465388834476471 0.018571536988019943 2.762385979682147e-11 0.7464056611061096 1 True False
6798.71 3.006510019302368 -1.3634082537940522 1.6623848120318812 -1.8698588810362757 -1.5708125273333948 1.4356741905212402 0.8107063174247742 0.058108653873205185 -0.0787426009774208 0.01784329116344452 -1.6023468560888432e-05 0.8094947934150696 1 True False
6798.759999999999 3.048865556716919 -1.3602821242860337 1.6583741346942347 -1.868885179559225 -1.5707805792437952 1.4780327081680298 0.8781511783599854 0.06634077429771423 -0.08450141549110413 0.020832916721701622 0.00022655182692687958 0.8783515691757202 1 True False
6798.8099999999995 3.094686508178711 -1.3570050162127991 1.6538260618792933 -1.8679119549193324 -1.5707691351519983 1.5237964391708374 0.9487711191177368 0.06962522119283676 -0.09514530748128891 0.021225295960903168 1.0165833730368945e-09 0.9560421705245972 1 True False
6798.86 3.144029378890991 -1.3532744658044358 1.6492951552020472 -1.8666073284544886 -1.5708006064044397 1.5731970071792603 1.021421194076538 0.07486393302679062 -0.10015904903411865 0.020505504682660103 1.5441929349283216e-28 1.0147117376327515 1 True False
6798.91 3.1959941387176514 -1.349452869301178 1.6441810766803187 -1.865565916100973 -1.570784870778219 1.6252938508987427 1.0500763654708862 0.07917729765176773 -0.09829064458608627 0.02830314077436924 0.0 1.047256350517273 1 True False
6798.96 3.2484264373779297 -1.3455231052688141 1.63910419145693 -1.8643962345519007 -1.5707805792437952 1.6776485443115234 1.0453451871871948 0.07440691441297531 -0.10147097706794739 0.022210652008652687 -3.702895584964004e-15 1.0495084524154663 1 True False
6799.009999999999 3.300832986831665 -1.3416940879872818 1.6340721289264124 -1.8631326160826625 -1.5707691351519983 1.7300434112548828 1.0468753576278687 0.07575295120477676 -0.1043098196387291 0.019681673496961594 -5.62470786708351e-34 1.0420173406600952 1 True False
6799.0599999999995 3.353142738342285 -1.3378588420203705 1.62897235551943 -1.8619123897948207 -1.5708168188678187 1.7824277877807617 1.0521730184555054 0.0756111890077591 -0.10224214941263199 0.02663705125451088 -0.0 1.056897759437561 1 True False
6799.11 3.4055521488189697 -1.3341106337359925 1.6239045302020472 -1.8607551060118617 -1.5707886854754847 1.8346425294876099 1.043981909751892 0.07664796710014343 -0.09949953854084015 0.02678512968122959 6.309231896044579e-23 1.0551141500473022 1 True False
6799.16 3.4579296112060547 -1.330171377663948 1.6189397017108362 -1.8595191440977992 -1.5708168188678187 1.887144923210144 1.0448377132415771 0.07734937965869904 -0.10216468572616577 0.018409520387649536 9.583480197517424e-42 1.0385794639587402 1 True False
6799.21 3.510202169418335 -1.3262753796628495 1.613950554524557 -1.8583342037596644 -1.5707886854754847 1.9395110607147217 1.0511913299560547 0.07784221321344376 -0.10254541039466858 0.021287471055984497 0.0 1.0490084886550903 1 True False
6799.259999999999 3.562647819519043 -1.3224911105683823 1.6089285055743616 -1.8571330509581507 -1.5707810560809534 1.991899013519287 1.042862057685852 0.07970473915338516 -0.10011673718690872 0.03090399131178856 0.0 1.0498685836791992 1 True False
6799.3099999999995 3.614931344985962 -1.3186505001834412 1.603816334401266 -1.8560921154417933 -1.5707643667804163 2.0442776679992676 1.0463812351226807 0.07596449553966522 -0.09583476930856705 0.022074246779084206 0.0 1.0399608612060547 1 True False
6799.36 3.667281150817871 -1.3146872085383912 1.5987337271319788 -1.8547479114928187 -1.570784870778219 2.0965816974639893 1.0514849424362183 0.0748831257224083 -0.10092749446630478 0.024213191121816635 0.0 1.0486884117126465 1 True False
6799.41 3.7196547985076904 -1.3108666104129334 1.5937235991107386 -1.8534957371153773 -1.5707767645465296 2.148768901824951 1.0454529523849487 0.07830619812011719 -0.10166938602924347 0.026722094044089317 -1.7972040950553492e-05 1.0545682907104492 1 True False
6799.46 3.772150993347168 -1.307036356335022 1.5887025038348597 -1.852415224114889 -1.570801083241598 2.201292037963867 1.0453112125396729 0.07730034738779068 -0.09886987507343292 0.024733934551477432 3.6512814403977245e-05 1.039392352104187 1 True False
6799.509999999999 3.82446026802063 -1.3033171159080048 1.583531681691305 -1.8512493572630824 -1.5708048979388636 2.25363826751709 1.0512266159057617 0.0762505754828453 -0.10167841613292694 0.023461826145648956 2.5101768574298816e-22 1.0513745546340942 1 True False
6799.5599999999995 3.876763105392456 -1.299400882130005 1.5785935560809534 -1.849940916100973 -1.5707925001727503 2.3059520721435547 1.0454893112182617 0.07924660295248032 -0.10282593965530396 0.023748336359858513 3.812933121427827e-41 1.0504010915756226 1 True False
6799.61 3.9291601181030273 -1.2955360275558014 1.5736044088946741 -1.8488246403136195 -1.5707772413836878 2.358319044113159 1.04728102684021 0.07947038114070892 -0.10214409232139587 0.024015402421355247 0.0 1.0405741930007935 1 True False
6799.66 3.981478452682495 -1.291769192819931 1.5684226194964808 -1.847635885278219 -1.5708087126361292 2.4107613563537598 1.053055763244629 0.07734791934490204 -0.09892711043357849 0.02825717255473137 0.0 1.0493189096450806 1 True False
6799.71 4.033809661865234 -1.2877613467029114 1.5632308165179651 -1.846354146996969 -1.5708449522601526 2.4629335403442383 1.0425407886505127 0.07466517388820648 -0.10159492492675781 0.021084535866975784 0.0 1.0574990510940552 1 True False
6799.759999999999 4.086157321929932 -1.283863679771759 1.558328930531637 -1.845194479028219 -1.5708449522601526 2.5153777599334717 1.0451655387878418 0.07960283756256104 -0.1030610129237175 0.020744692534208298 0.0 1.0405797958374023 1 True False
6799.8099999999995 4.138590335845947 -1.2801314753345032 1.5533884207354944 -1.844058176080221 -1.5707362333880823 2.567910671234131 1.049291729927063 0.07733134180307388 -0.10244237631559372 0.024413341656327248 0.0 1.0488694906234741 1 True False
6799.86 4.1909332275390625 -1.276328222160675 1.5483163038836878 -1.84281649212026 -1.5707529226886194 2.6201319694519043 1.042581558227539 0.0773080512881279 -0.09823910892009735 0.026359237730503082 -1.0579690538892704e-14 1.0517590045928955 1 True False
6799.91 4.243373870849609 -1.2723789078048249 1.5432575384723108 -1.841591020623678 -1.5707891623126429 2.672534942626953 1.04695463180542 0.07599575072526932 -0.1042979508638382 0.01993890292942524 -1.6070572652595202e-33 1.038865327835083 1 True False
6799.96 4.295613765716553 -1.2685548526099701 1.5381868521319788 -1.840356012383932 -1.5707925001727503 2.724917411804199 1.0510536432266235 0.08036895841360092 -0.10100005567073822 0.02403063140809536 -2.794929875599881e-20 1.0516612529754639 1 True False
6800.009999999999 4.347985744476318 -1.2647732657245179 1.5331066290484827 -1.8391920528807582 -1.5707610289203089 2.777137041091919 1.0479559898376465 0.0767235979437828 -0.10043831914663315 0.02767874300479889 -4.245504148275648e-39 1.05815589427948 1 True False
6800.0599999999995 4.4003705978393555 -1.2608616811088105 1.5279839674579065 -1.8380667171873988 -1.570768181477682 2.829554796218872 1.044920802116394 0.07809299975633621 -0.09819741547107697 0.021248385310173035 -0.0 1.040664792060852 1 True False
6800.11 4.450865268707275 -1.2570623618415375 1.5232341925250452 -1.8369289837279261 -1.5707805792437952 2.8802905082702637 0.9774194955825806 0.07207965105772018 -0.09923677891492844 0.02039528638124466 -0.00029067008290439844 0.9767968058586121 1 True False
6800.16 4.498099327087402 -1.2535915535739441 1.5188129583941858 -1.8357483349242152 -1.570829216633932 2.9271697998046875 0.9050313830375671 0.06955380737781525 -0.08905667811632156 0.020945867523550987 -6.7853994992206346e-12 0.9082376956939697 1 True False
6800.21 4.54161262512207 -1.2505036753467103 1.5144360701190394 -1.834902902642721 -1.5707891623126429 2.9709017276763916 0.8441254496574402 0.058591749519109726 -0.07804398983716965 0.020182302221655846 -1.0307034454168147e-30 0.8389579057693481 1 True False
6800.259999999999 4.581738471984863 -1.2474461954883118 1.5106914679156702 -1.8339044056334437 -1.5708168188678187 3.011079788208008 0.7717176675796509 0.05527905374765396 -0.07626742124557495 0.014673899859189987 -9.511379175819457e-05 0.7647794485092163 1 True False
6800.3099999999995 4.618431091308594 -1.244777039890625 1.5070422331439417 -1.8330375156798304 -1.5708168188678187 3.04760479927063 0.6950700283050537 0.052766021341085434 -0.06295876204967499 0.018112067133188248 1.8897308109444566e-05 0.6963437795639038 1 True False
6800.36 4.6515398025512695 -1.2423420709422608 1.5038588682757776 -1.8322864971556605 -1.5708048979388636 3.0806503295898438 0.6257610321044922 0.04639006778597832 -0.0651383176445961 0.011671454645693302 2.8705050897659547e-24 0.6316879987716675 1 True False
6800.41 4.68111515045166 -1.2401759785464783 1.5009835402118128 -1.83158602337026 -1.5708087126361292 3.110311985015869 0.5570821762084961 0.043077658861875534 -0.0505729541182518 0.011584279127418995 4.358038224050181e-43 0.5572221875190735 1 True False
6800.46 4.707216262817383 -1.23832322776828 1.4985197226153772 -1.8310619793333949 -1.5708006064044397 3.1365625858306885 0.4875645637512207 0.036111924797296524 -0.05011173337697983 0.010250496678054333 -0.00016537625924684107 0.48252591490745544 1 True False
6800.509999999999 4.730045795440674 -1.2366437178901215 1.4963462988482874 -1.830456872979635 -1.5707529226886194 3.1592531204223633 0.4165726602077484 0.030569925904273987 -0.040425512939691544 0.008169171400368214 -2.4106142632713233e-14 0.4163672626018524 1 True False
6800.5599999999995 4.7492523193359375 -1.2352203589728852 1.4945457617389124 -1.8301035366454066 -1.5707891623126429 3.178370714187622 0.3497033417224884 0.02411329187452793 -0.03091382421553135 0.00838601402938366 6.670397384324686e-20 0.35958003997802734 1 True False
6800.61 4.764823913574219 -1.2340857249549408 1.4930761496173304 -1.829722066918844 -1.5707925001727503 3.1940526962280273 0.28155937790870667 0.020458398386836052 -0.02757307142019272 0.008550439961254597 1.0132351990411883e-38 0.2816585600376129 1 True False
6800.66 4.777059078216553 -1.2331817907145997 1.4918025175677698 -1.8295194111266078 -1.5708335081683558 3.2061171531677246 0.20679451525211334 0.01587577350437641 -0.022585902363061905 0.007248247042298317 1.7635079507805074e-10 0.2136298418045044 1 True False
6800.71 4.785665512084961 -1.2324672502330323 1.49086839357485 -1.829268594781393 -1.5708048979388636 3.214953899383545 0.13963252305984497 0.010664507746696472 -0.01394895650446415 0.0030065530445426702 2.678771746676453e-29 0.1392640769481659 1 True False
6800.759999999999 4.790997505187988 -1.2322119039348145 1.490457836781637 -1.829141756097311 -1.5707605520831507 3.2201976776123047 0.07327096164226532 0.0038709852378815413 -0.004662514664232731 0.0023796733003109694 0.0 0.0716376006603241 1 True False
6800.8099999999995 4.792728424072266 -1.232116089468338 1.490378204976217 -1.8290664158263148 -1.5707767645465296 3.2218945026397705 -0.0062204888090491295 0.00045261590275913477 -0.00017289408424403518 0.00047381414333358407 0.0 0.0006240952061489224 1 True False
6800.86 4.792658805847168 -1.2312270563891907 1.4913910071002405 -1.830660959283346 -1.5707967917071741 3.221916913986206 0.0014130135532468557 0.027200937271118164 0.04721938073635101 -0.06677984446287155 -4.412875205161981e-05 0.0001709683274384588 1 True False
6800.91 4.79266881942749 -1.229617641573288 1.4945805708514612 -1.836196085015768 -1.5707767645465296 3.221912384033203 0.0014021304668858647 0.04479929804801941 0.08821092545986176 -0.12791846692562103 -2.452730062558417e-21 0.00048621921450830996 1 True False
6800.96 4.79263162612915 -1.2266903680614014 1.5004919211017054 -1.844919343987936 -1.5708048979388636 3.2219271659851074 0.001014400040730834 0.07001961022615433 0.14368318021297455 -0.20258338749408722 -3.725702292023607e-40 0.0002969216729979962 1 True False
6801.009999999999 4.7927093505859375 -1.22249327719722 1.5088980833636683 -1.8570567570128382 -1.5708487669574183 3.2219107151031494 0.0007900004275143147 0.09667019546031952 0.18466629087924957 -0.2807271182537079 -0.0 0.00021624918736051768 1 True False
6801.0599999999995 4.7927165031433105 -1.2172288459590455 1.5192096869098108 -1.8728534183897914 -1.5708487669574183 3.2219078540802 0.00025940005434677005 0.11502443253993988 0.23036354780197144 -0.34450390934944153 6.090487295296043e-05 0.00015238103515002877 1 True False
6801.11 4.792653560638428 -1.210652546291687 1.5319941679583948 -1.8920990429320277 -1.5707767645465296 3.221935987472534 0.0001239591365447268 0.13880658149719238 0.27979153394699097 -0.42030152678489685 3.07195449633646e-11 7.535720214946195e-05 1 True False
6801.16 4.792728424072266 -1.2030716103366395 1.5472896734820765 -1.914659162560934 -1.5708044211017054 3.221952438354492 0.00010276934335706756 0.16741259396076202 0.32559075951576233 -0.4826999306678772 4.6663036888094914e-30 5.311836866894737e-05 1 True False
6801.21 4.792662620544434 -1.1943785411170502 1.5643041769610804 -1.9411288700499476 -1.570784870778219 3.2219197750091553 7.299627759493887e-05 0.17974452674388885 0.35535377264022827 -0.5579262971878052 0.0 1.0460237805600902e-19 1 True False
6801.259999999999 4.7927374839782715 -1.185430185203888 1.5813429991351526 -1.9664107761778773 -1.5707805792437952 3.221928834915161 6.625398964388296e-05 0.1587279736995697 0.3101772665977478 -0.48800405859947205 0.0 1.5889124302597167e-38 1 True False
6801.3099999999995 4.792731285095215 -1.1781435769847413 1.5958250204669397 -1.9884611568846644 -1.5708211104022425 3.221886396408081 5.044020508648828e-05 0.13918380439281464 0.2773696482181549 -0.4187622368335724 0.0 0.0 1 True False
6801.36 4.792773246765137 -1.1719280046275635 1.6082432905780237 -2.0070210895934046 -1.570824925099508 3.2219316959381104 1.4830518011876848e-05 0.11482538282871246 0.22114641964435577 -0.3470635712146759 0.0 4.4179392783005866e-11 1 True False
6801.41 4.792728424072266 -1.1669488114169617 1.6180322805987757 -2.0222870312132777 -1.570813004170553 3.221877336502075 1.0503575140319299e-05 0.0906946137547493 0.18158359825611115 -0.2748154103755951 0.0 6.71086076149979e-30 1 True False
6801.46 4.792665958404541 -1.1629703503898163 1.6256879011737269 -2.0337702236571253 -1.5708211104022425 3.2219033241271973 0.0 0.06626050919294357 0.12928786873817444 -0.20021790266036987 0.0 0.0 1 True False
6801.509999999999 4.792703151702881 -1.1600453418544312 1.6312568823443812 -2.0419184170165003 -1.5708048979388636 3.2218987941741943 0.0 0.04476263001561165 0.08859283477067947 -0.13754701614379883 0.0 0.0 1 True False
6801.5599999999995 4.792724132537842 -1.158603624706604 1.6342781225787562 -2.046457429925436 -1.570857350026266 3.2219107151031494 0.0 0.01799406111240387 0.037749022245407104 -0.060222525149583817 0.0 0.0 1 True False
6801.61 4.792724132537842 -1.1582818788341065 1.6350372473346155 -2.0476843319334925 -1.570784870778219 3.2219316959381104 0.0 -2.471216021149303e-06 0.0013263057917356491 0.0029324989300221205 0.0 0.0 1 True False
6801.66 4.792773246765137 -1.1582832795432587 1.6350253264056605 -2.0476561985411585 -1.5707686583148401 3.2218987941741943 0.0 -1.942596110124227e-25 -1.121510094141113e-21 4.118395281693665e-06 0.0 -3.3386191133601617e-15 1 True False
6801.71 4.79276180267334 -1.1582252246192475 1.6350129286395472 -2.047696729699606 -1.5707805792437952 3.221952438354492 0.0 0.00042081624269485474 0.00011952924251090735 6.255853346791482e-25 0.0 -5.071371452082765e-34 1 True False
6801.759999999999 4.79272985458374 -1.1582177442363282 1.6350329558001917 -2.0476728878416957 -1.5708211104022425 3.2219152450561523 0.0 0.00019998918287456036 0.0002354019379708916 9.528829557408756e-44 0.0 -0.0 1 True False
6801.8099999999995 4.792712211608887 -1.1582415860942383 1.6350205580340784 -2.0476447544493617 -1.5707605520831507 3.22186541557312 0.0 0.0002452852495480329 0.0002545270835980773 0.0 0.0 -0.0 1 True False
6801.86 4.792721271514893 -1.158196137552597 1.6350162664996546 -2.047636171380514 -1.5707967917071741 3.2219197750091553 -1.4756872390719877e-09 0.00029046618146821856 0.00029534014174714684 0.0 0.0 -0.0 1 True False
6801.91 4.792728424072266 -1.1581842762282868 1.6350773016559046 -2.0477129421629847 -1.5707891623126429 3.221869945526123 -6.675018812529743e-05 0.00022703401918988675 0.0001979457156267017 0.0 0.0 -0.0 1 True False
6801.96 4.792684078216553 -1.1581843358329316 1.6350610891925257 -2.0476962528624476 -1.570756737385885 3.2219271659851074 -3.463813118287362e-05 0.00013594455958809704 0.00010088131966767833 -5.195742778596468e-05 0.0 9.696044435258955e-05 1 True False
6802.009999999999 4.792752742767334 -1.1581726235202332 1.635047737752096 -2.047664304772848 -1.5707362333880823 3.2219152450561523 -2.338713238714263e-05 7.001215999480337e-05 5.215773489908315e-05 -5.029890626685327e-21 0.0 2.622951978992205e-05 1 True False
6802.0599999999995 4.792642593383789 -1.158184365635254 1.6350849310504358 -2.0476843319334925 -1.5707724730121058 3.221886157989502 -2.377785609408293e-28 5.573610542342067e-05 4.689550041803159e-05 -7.640411720915346e-40 0.0 1.517297641839832e-05 1 True False
6802.11 4.792724132537842 -1.1581934255412598 1.6350892225848597 -2.0476681194701136 -1.5708048979388636 3.221881866455078 0.0 3.676362757687457e-05 1.848425861821968e-18 -0.0 0.0 1.0674013537936844e-05 1 True False
6802.16 4.792703628540039 -1.1581978660872956 1.635096851979391 -2.047648092309469 -1.5707805792437952 3.221916913986206 0.0 7.777844398310439e-21 0.0 -0.0 0.0 4.9711538561693865e-20 1 True False
6802.21 4.7927374839782715 -1.158163533811905 1.6350668112384241 -2.047680517236227 -1.570784870778219 3.2219197750091553 0.0 0.0 0.0 -7.756519153190311e-06 0.0 7.551195251587178e-39 1 True False
6802.259999999999 4.792707920074463 -1.1582714778235932 1.635096851979391 -2.0476442776122035 -1.5707891623126429 3.221919536590576 0.0 3.820447957991746e-09 0.0 -1.1782171086662967e-24 0.0 0.0 1 True False
6802.3099999999995 4.792707920074463 -1.1581934255412598 1.6350892225848597 -2.047692438165182 -1.5708211104022425 3.221879005432129 0.0 0.0 0.0 -1.793662034335766e-43 0.0 0.0 1 True False
6802.36 4.792728424072266 -1.1581607323936005 1.635092560444967 -2.04763187984609 -1.5707805792437952 3.221867084503174 0.0 0.0 0.0 -0.0 0.0 0.0 1 True False
6802.41 4.79272985458374 -1.1581607323936005 1.6351102034198206 -2.0476280651488246 -1.5707805792437952 3.221956968307495 0.0 0.0 0.0 -0.0 0.0 0.0 1 True False
6802.46 4.7926716804504395 -1.158223108654358 1.6350653807269495 -2.047676225701803 -1.570716683064596 3.2219717502593994 0.0 0.0 2.0702211500633894e-08 -0.0 0.0019271946512162685 2.0406355716318103e-08 1 True False
6802.509999999999 4.792766094207764 -1.1582097870162507 1.6350715796100062 -2.0477405987181605 -1.5707324186908167 3.2218856811523438 0.0 -2.9064212618451256e-35 4.871448758006436e-38 -1.9503035519181732e-16 -0.0008370142313651741 -0.00018334839842282236 1 True False
6802.5599999999995 4.79276180267334 -1.1582066875747223 1.6350520292865198 -2.047721048394674 -1.5707925001727503 3.2218730449676514 0.0 0.0 0.0 -2.962515243856203e-35 -1.6389221574666945e-19 -6.840201967861503e-05 1 True False
6802.61 4.792725563049316 -1.1581680637649079 1.6350567976581019 -2.04766382793569 -1.5707767645465296 3.2219197750091553 0.0 0.0 0.0 -0.0 -2.4895269532812766e-38 -4.187657032161951e-05 1 True False
6802.66 4.792724132537842 -1.158191905622818 1.6350401083575647 -2.0477005443968714 -1.5707562605487269 3.221997022628784 0.0 0.0 0.0 -0.0 -0.0 -3.0175728170434013e-05 1 False False
6802.71 4.792671203613281 -1.1582097572139283 1.6350773016559046 -2.0477129421629847 -1.5707529226886194 3.2218945026397705 0.0 2.4127705216637257e-25 0.0 -0.0 -0.0 -2.351067635321109e-15 1 False False
6802.759999999999 4.792679786682129 -1.1581652623466034 1.635108772908346 -2.047708650628561 -1.5707891623126429 3.2219197750091553 0.0 0.0 0.0 -0.0 2.4858480236057604e-20 -3.5712781116053267e-34 1 False False
6802.8099999999995 4.792724132537842 -1.1581890445998688 1.6350653807269495 -2.0477005443968714 -1.5707648436175745 3.2218945026397705 0.0 0.0 0.0 -0.0 3.776007505594404e-39 -0.0 1 False False
6802.86 4.79271125793457 -1.1581457418254395 1.6351311842547815 -2.047708650628561 -1.5708048979388636 3.2218611240386963 0.0 0.0 0.0 -0.0 0.0 -0.0 1 False False
6802.91 4.792740345001221 -1.1582133334926148 1.6351178328143519 -2.0476962528624476 -1.5707686583148401 3.221933126449585 0.0 0.0 0.0 -0.0 0.0 2.4366903517147875e-07 1 False False
6802.96 4.792638778686523 -1.1581978362849732 1.6350982824908655 -2.047668596307272 -1.5708211104022425 3.221924304962158 0.0 0.0 0.0 -0.0 0.0 3.701337832487316e-26 1 False False
6803.009999999999 4.792691707611084 -1.1581192177585145 1.6351102034198206 -2.047688146630758 -1.570756737385885 3.2219152450561523 0.0 0.0 0.0 -0.0 0.0 5.605193857299268e-45 1 False False
6803.0599999999995 4.792728424072266 -1.1582185190967103 1.635080639516012 -2.047660013238424 -1.570801083241598 3.2219197750091553 0.0 0.0 0.0 -0.0 0.0 0.0 1 False False
6803.3099999999995 4.792683124542236 -1.1581890147975464 1.6350610891925257 -2.047692438165182 -1.570801083241598 3.2219314575195312 0.0 -1.271481414732989e-05 -3.0828566215145976e-44 -0.0 0.0 0.0 1 False False
6803.36 4.792695999145508 -1.158163772230484 1.635068718587057 -2.047708650628561 -1.5707686583148401 3.221858263015747 0.0 0.0 0.00018103192269336432 -0.0 0.0 6.790709903725656e-06 1 False False
6803.41 4.792712211608887 -1.1582415860942383 1.635096851979391 -2.0476399860777796 -1.570801083241598 3.221912384033203 2.4681865397724323e-05 0.0 1.1142779845777214e-32 -0.0 0.0 -0.0005520510021597147 1 False False
6803.46 4.792728424072266 -1.1582267147353669 1.635031525288717 -2.0476719341673792 -1.5707886854754847 3.221919536590576 1.3329288319907164e-38 0.0 0.0 -0.0 0.0 -6.733918977985809e-13 1 False False
6803.509999999999 4.7927327156066895 -1.1582222443870087 1.6351130644427698 -2.047708650628561 -1.570801083241598 3.221940279006958 0.0 0.0 0.0 -0.0 0.0 -1.0141295521265448e-17 1 False False
6803.5599999999995 4.792737007141113 -1.1581815046123047 1.6351025740252894 -2.0476838550963343 -1.5707967917071741 3.2219390869140625 0.0 0.0 0.0 -0.0 0.0 -1.5404658317096742e-36 1 False False
6803.61 4.792725086212158 -1.1587211054614563 1.6340277830706995 -2.046016832391256 -1.570813004170553 3.2219152450561523 0.0 -0.021445775404572487 -0.04452446848154068 0.06733077019453049 0.0 -0.0 1 False False
6803.66 4.792684078216553 -1.1603098970702668 1.6307485739337366 -2.0408903561034144 -1.5708087126361292 3.221924066543579 0.0 -0.044371459633111954 -0.08962742984294891 0.1387224644422531 0.0 -0.0 1 False False
6803.71 4.792741298675537 -1.1632983547500153 1.62468129793276 -2.032254835168356 -1.5708373228656214 3.2219033241271973 0.0 -0.0727795884013176 -0.13923875987529755 0.21560907363891602 0.0 -0.0 1 False False
6803.759999999999 4.792666912078857 -1.1674792033484955 1.616835896168844 -2.0199653110899867 -1.570756737385885 3.2219064235687256 0.0 -0.09609676897525787 -0.1768033653497696 0.2608638107776642 0.0 -0.0 1 False False
6803.8099999999995 4.792675495147705 -1.1727902454188843 1.6064398924456995 -2.004472394982809 -1.5708048979388636 3.221890926361084 0.0 -0.11983134597539902 -0.2302248477935791 0.355636328458786 0.0 -0.0 1 False False
6803.86 4.7926716804504395 -1.1791798633388062 1.5936873594867151 -1.9852310619749964 -1.5707929770099085 3.2219271659851074 0.0 -0.1450328230857849 -0.28499069809913635 0.40786251425743103 0.0 -0.0 1 False False
6803.91 4.792720794677734 -1.1869115990451355 1.5787814299212855 -1.9625727138915003 -1.5708211104022425 3.2219066619873047 0.0 -0.16303452849388123 -0.32447028160095215 0.4853648543357849 0.0 -0.0 1 False False
6803.96 4.792741298675537 -1.1957909327796479 1.5612157026873987 -1.9364906750121058 -1.570784870778219 3.2219271659851074 0.0 -0.18761375546455383 -0.3671070635318756 0.5535377860069275 0.0 -0.0 1 False False
6804.009999999999 4.792691707611084 -1.2042124432376404 1.5446403662311 -1.9109260044493617 -1.570784870778219 3.2219152450561523 0.0 -0.15690039098262787 -0.31936660408973694 0.47960662841796875 0.0 -0.0 1 False False
6804.0599999999995 4.792741298675537 -1.211866096859314 1.5297568480121058 -1.8888007603087367 -1.5707929770099085 3.2219390869140625 0.0 -0.1414269655942917 -0.27476316690444946 0.4014081656932831 0.0 -0.0 1 False False
6804.11 4.792712211608887 -1.2181415122798462 1.5175603071795862 -1.870035310784811 -1.5708125273333948 3.221940279006958 0.0 -0.1118813157081604 -0.23240812122821808 0.33804184198379517 0.0 -0.0 1 False False
6804.16 4.792723178863525 -1.2232535642436524 1.5074270407306116 -1.8549372158446253 -1.5707929770099085 3.221890449523926 0.0 -0.08881048858165741 -0.17309075593948364 0.2613745331764221 0.0 -0.0 1 False False
6804.21 4.7927045822143555 -1.2271894079497834 1.4997051397906702 -1.8432098827757777 -1.5708006064044397 3.2218778133392334 0.0 -0.06793344020843506 -0.13029828667640686 0.19844402372837067 0.0 -0.0 1 False False
6804.259999999999 4.792694568634033 -1.2299061578563233 1.4943516890155237 -1.8350287876524867 -1.570841137562887 3.221890449523926 0.0 -0.046381495893001556 -0.08696330338716507 0.1251370757818222 0.0 -0.0 1 False False
6804.3099999999995 4.792740345001221 -1.2314889591983338 1.4913361708270472 -1.8302861652769984 -1.5707529226886194 3.2219486236572266 0.0 -0.019233694300055504 -0.04122857749462128 0.052364643663167953 0.0 -0.0 1 False False
6804.36 4.792789936065674 -1.2319349509528656 1.4903391043292444 -1.8292046986021937 -1.5707572142230433 3.2218990325927734 0.0 4.0694567360333167e-07 -0.004008544143289328 -0.002894005971029401 0.0 -0.0 1 False False
6804.41 4.792686939239502 -1.2319906812957306 1.4903062025653284 -1.8292294941344203 -1.5708048979388636 3.2219598293304443 0.0 1.5476159308074056e-14 -0.0011702667688950896 0.00025434463168494403 0.0 -0.0 1 False False
6804.46 4.792745113372803 -1.2319644552520295 1.4903391043292444 -1.829165597955221 -1.5707886854754847 3.2219066619873047 0.0 0.0 -0.0014300127513706684 0.00047231753706000745 0.0 -0.0 1 False False
6804.509999999999 4.792719841003418 -1.231956885462143 1.4903314749347132 -1.8291260204710902 -1.5707810560809534 3.2218990325927734 0.0 -0.0002243909111712128 -0.001093982718884945 0.0007600105600431561 0.0 -0.0 1 False False
6804.5599999999995 4.792695999145508 -1.231985704307892 1.4902775923358362 -1.8290344677367152 -1.5707929770099085 3.2218456268310547 0.0 -0.0003051917883567512 -0.00036175272543914616 0.0005261009209789336 0.0 -0.0 1 False False
6804.61 4.792700290679932 -1.2319481831840058 1.4902790228473108 -1.8290349445738734 -1.5708168188678187 3.2219433784484863 0.0 -0.00031622545793652534 -0.00020377170585561544 0.00021260534413158894 0.0 -0.0 1 False False
6804.66 4.7927165031433105 -1.2319887739470978 1.4903119246112269 -1.829074045220846 -1.5707648436175745 3.2219033241271973 0.0 -0.0001552133762743324 -0.0001146828435594216 0.0001224959851242602 0.0 -0.0 1 False False
6804.71 4.792721271514893 -1.2320050162127991 1.4902837912188929 -1.8290821514525355 -1.5708091894732874 3.221902370452881 0.0 -0.00015357235679402947 -7.490955613320693e-05 8.594095561420545e-05 0.0 -0.0 1 False False
6804.759999999999 4.7927165031433105 -1.2319887739470978 1.4902508894549769 -1.8290344677367152 -1.5707891623126429 3.221870183944702 0.0 -0.0001476718607591465 -1.180193963390419e-12 9.464576787389132e-19 0.0 -0.0 1 False False
6804.8099999999995 4.792733192443848 -1.231942669754364 1.4902671019183558 -1.8290864429869593 -1.5708168188678187 3.2219271659851074 0.0 -0.00010448580724187195 -2.7773735562917874e-42 1.4376718004074806e-37 0.0 -0.0 1 False False
6804.86 4.79272985458374 -1.2319963735393067 1.4902704397784632 -1.829074045220846 -1.570784870778219 3.2219228744506836 0.0 -7.933264714665711e-05 -0.0 0.0 0.0 -0.0 1 False False
