Andreas691667/Digital_Twin_UR/src/robot_connection_manager/robot_output/E7_robot_output.csv
timestamp actual_q_0 actual_q_1 actual_q_2 actual_q_3 actual_q_4 actual_q_5 actual_qd_0 actual_qd_1 actual_qd_2 actual_qd_3 actual_qd_4 actual_qd_5 safety_status output_bit_register_65 output_bit_register_66
7149.116 3.712123394012451 -0.8254546088031312 0.8429845015155237 -1.5882445774474085 -1.5707600752459925 2.141221761703491 0.0 0.0 0.0 -0.0 0.0 0.0 1 False False
7149.165999999999 3.7120907306671143 -0.8254589599421998 0.8429473082171839 -1.5883175335326136 -1.5708335081683558 2.141254425048828 0.0 0.0 0.0 -0.0 0.0 0.0 1 False False
7149.215999999999 3.7120532989501953 -0.825478271847107 0.8429539839373987 -1.5883175335326136 -1.5707605520831507 2.1412839889526367 0.0 0.0 0.0 -0.0 0.0 0.0 1 False False
7149.266 3.7120862007141113 -0.8254740399173279 0.8429845015155237 -1.588320871392721 -1.5708048979388636 2.141242742538452 0.0 0.0 0.0 -0.0 0.0 0.0 1 False False
7149.316 3.7120935916900635 -0.8255403798869629 0.8429845015155237 -1.5883375606932582 -1.5708087126361292 2.141221761703491 0.0 0.0 0.0 -0.0 0.0 0.0 1 False False
7149.366 3.7120532989501953 -0.8255028289607544 0.8429473082171839 -1.5883013210692347 -1.5708048979388636 2.141317367553711 0.0 0.0 0.0 -0.0 0.0 0.0 1 False False
7149.415999999999 3.7121026515960693 -0.8254706424525757 0.8429587523089808 -1.5882889233031214 -1.5707967917071741 2.141258955001831 0.0 0.0 0.0 -0.0 0.0 0.0 1 False False
7149.465999999999 3.712111473083496 -0.8254783314517518 0.8429630438434046 -1.588313718835348 -1.5708006064044397 2.1412839889526367 0.0 0.0 0.0 -0.0 0.0 0.0 1 False False
7149.516 3.7120816707611084 -0.8254869741252442 0.8430174032794397 -1.588320871392721 -1.5707767645465296 2.1413004398345947 0.0 0.0 0.0 -0.0 0.0 0.0 1 False False
7149.566 3.7120862007141113 -0.8255573076060791 0.8429515997516077 -1.5883013210692347 -1.5707967917071741 2.1413040161132812 0.0 0.0 0.0 -0.0 0.0 0.0 1 False False
7149.616 3.712106943130493 -0.8254454296878357 0.8430174032794397 -1.5882374248900355 -1.5707967917071741 2.141270637512207 0.0 0.0 0.0 -0.0 0.0 0.0 1 False False
7149.665999999999 3.712066888809204 -0.8254794639400025 0.8429515997516077 -1.5883094273009242 -1.570784870778219 2.1412928104400635 0.0 0.0 0.0 -0.0 0.0 0.0 1 False False
7149.715999999999 3.7120907306671143 -0.8254616421512146 0.8430007139789026 -1.5883013210692347 -1.570784870778219 2.141263246536255 0.0 0.0 0.0 -0.0 0.0 0.0 1 False False
7149.766 3.7121312618255615 -0.8254707020572205 0.8429425398456019 -1.5882889233031214 -1.570801083241598 2.1412839889526367 0.0 0.0 0.0 -0.0 0.0 0.0 1 False False
7149.816 3.712078809738159 -0.8254736226848145 0.8429515997516077 -1.5882569752135218 -1.570784870778219 2.141324996948242 0.0 0.0 0.0 -0.0 0.0 0.0 1 False False
7149.866 3.712106943130493 -0.8255290550044556 0.8429349104510706 -1.5883094273009242 -1.5707967917071741 2.1413004398345947 0.0 0.0 0.0 -0.0 0.0 0.0 1 False False
7149.915999999999 3.71205472946167 -0.8255202335170289 0.8429673353778284 -1.5882731876769007 -1.5707529226886194 2.141275405883789 0.0 0.0 0.0 -0.0 0.0 0.0 1 False False
7149.965999999999 3.712083101272583 -0.8255453270724793 0.8429754416095179 -1.5883251629271449 -1.5707648436175745 2.141291618347168 0.0 0.0 0.0 -0.0 0.0 0.0 1 False False
7150.016 3.7120907306671143 -0.8254779738238831 0.8430264631854456 -1.5883094273009242 -1.5708006064044397 2.141295909881592 0.0 0.0 0.0 -0.0 0.0 0.0 1 False False
7150.066 3.712087631225586 -0.8255127829364319 0.8429935614215296 -1.588269372979635 -1.5707810560809534 2.141295909881592 0.0 0.0 0.0 -0.0 0.0 0.0 1 False False
7150.116 3.712103843688965 -0.8254823845675965 0.8430264631854456 -1.5883051357665003 -1.570824925099508 2.141263246536255 0.0 0.0 0.0 -0.0 0.0 0.0 1 False False
7150.165999999999 3.712095022201538 -0.8254869741252442 0.8429935614215296 -1.588245531121725 -1.5708444754229944 2.1413381099700928 0.0 0.0 0.0 -0.0 0.0 0.0 1 False False
7150.215999999999 3.7120697498321533 -0.8255039614490052 0.8429673353778284 -1.588280817071432 -1.5708406607257288 2.141279697418213 0.0 0.0 0.0 -0.0 0.0 0.0 1 False False
7150.266 3.712062358856201 -0.8255202931216736 0.8429721037494105 -1.5882650814452113 -1.5707529226886194 2.141254186630249 0.0 0.0 0.0 -0.0 0.0 0.0 1 False False
7150.316 3.7120654582977295 -0.8254823845675965 0.8429606596576136 -1.588280817071432 -1.5708048979388636 2.141275405883789 0.0 0.0 0.0 -0.0 0.0 0.0 1 False False
7150.366 3.712111234664917 -0.8254823845675965 0.8429630438434046 -1.5882569752135218 -1.5708444754229944 2.141287088394165 0.0 0.0 0.0 -0.0 0.0 0.0 1 False False
7150.415999999999 3.7120492458343506 -0.8255529564670105 0.8429301420794886 -1.5882932148375453 -1.5707886854754847 2.141313076019287 0.0 0.0 0.0 -0.0 0.0 0.0 1 False False
7150.465999999999 3.71211576461792 -0.8255083721927186 0.8429892698871058 -1.5883094273009242 -1.5708087126361292 2.141267776489258 0.0 0.0 0.0 -0.0 0.0 0.0 1 False False
7150.516 3.712045669555664 -0.8255202931216736 0.8429811636554163 -1.5882932148375453 -1.5707886854754847 2.141242504119873 0.0 0.0 0.0 -0.0 0.0 0.0 1 False False
7150.566 3.7120206356048584 -0.8254869741252442 0.8430054823504847 -1.588313718835348 -1.5708006064044397 2.1412558555603027 0.0 0.0 0.0 -0.0 0.0 0.0 1 False False
7150.616 3.7120370864868164 -0.8255202335170289 0.8429845015155237 -1.5882774792113246 -1.5707767645465296 2.141308546066284 0.0 0.0 0.0 -0.0 0.0 0.0 1 False False
7150.665999999999 3.712106943130493 -0.825487033729889 0.8430054823504847 -1.588320871392721 -1.5707810560809534 2.141296148300171 0.0 0.0 0.0 -0.0 0.0 0.0 1 False False
7150.715999999999 3.712111234664917 -0.825495795612671 0.8429802099810999 -1.5882731876769007 -1.5707691351519983 2.141263246536255 0.0 0.0 0.0 -0.0 0.0 0.0 1 False False
7150.766 3.7121024131774902 -0.8255275648883362 0.8429845015155237 -1.5882331333556117 -1.5708206335650843 2.141279697418213 0.0 0.0 0.0 -0.0 0.0 0.0 1 False False
7150.816 3.7120699882507324 -0.8255602282336731 0.8429802099810999 -1.5882817707457484 -1.5707810560809534 2.141296148300171 0.0 0.0 0.0 -0.0 0.0 0.0 1 False False
7150.866 3.7120862007141113 -0.8255202931216736 0.8429721037494105 -1.588297029534811 -1.5707967917071741 2.1413040161132812 0.0 0.0 0.0 -0.0 0.0 0.0 1 False False
7150.915999999999 3.7121198177337646 -0.8254735630801697 0.8429430166827601 -1.5882288418211878 -1.5707886854754847 2.141258955001831 0.0 0.0 0.0 -0.0 0.0 0.0 1 False False
7150.965999999999 3.7120776176452637 -0.8254409593394776 0.8429473082171839 -1.5882774792113246 -1.5708330313311976 2.1412930488586426 0.0 0.0 0.0 -0.0 0.0 0.0 1 False False
7151.016 3.7120862007141113 -0.8254905504039307 0.8429935614215296 -1.588280817071432 -1.5708087126361292 2.1412558555603027 0.0 0.0 0.0 -0.0 0.0 0.0 1 False False
7151.066 3.7120580673217773 -0.8255573076060791 0.8429887930499476 -1.5882650814452113 -1.5708087126361292 2.1412558555603027 0.0 0.0 0.0 -0.0 0.0 0.0 1 False False
7151.116 3.7120492458343506 -0.8254706424525757 0.8429439703570765 -1.5883251629271449 -1.5707925001727503 2.1412973403930664 0.0 0.0 0.0 -0.0 0.0 0.0 1 False False
7151.165999999999 3.712062358856201 -0.8255157035640259 0.8430126349078577 -1.5883332691588343 -1.570784870778219 2.1412172317504883 0.0 0.0 0.0 -0.0 0.0 0.0 1 False False
7151.215999999999 3.712106704711914 -0.8255157035640259 0.8430140654193323 -1.5883056126036585 -1.570784870778219 2.141267776489258 0.0 0.0 0.0 -0.0 0.0 0.0 1 False False
7151.266 3.7120535373687744 -0.8254780334285279 0.8429721037494105 -1.588297029534811 -1.570784870778219 2.141279697418213 0.0 0.0 0.0 -0.0 0.0 0.0 1 False False
7151.316 3.712118625640869 -0.8254290384105225 0.8430584112750452 -1.5883008442320765 -1.5708044211017054 2.141308546066284 0.0 0.0 0.0 -0.0 0.0 0.0 1 False False
7151.366 3.7120981216430664 -0.8254691523364563 0.8429721037494105 -1.5883332691588343 -1.5707405249225062 2.1413049697875977 0.0 0.0 0.0 -0.0 0.0 0.0 1 False False
7151.415999999999 3.712135076522827 -0.8255246442607422 0.8429978529559534 -1.5882774792113246 -1.5708091894732874 2.141371011734009 0.0 0.0 0.0 -0.0 0.0 0.0 1 False False
7151.465999999999 3.7120862007141113 -0.8255203527263184 0.8429802099810999 -1.5882569752135218 -1.5708168188678187 2.141313076019287 0.0 0.0 0.0 -0.0 0.0 0.0 1 False False
7151.516 3.7120819091796875 -0.8255231541446229 0.8430140654193323 -1.5882569752135218 -1.5708211104022425 2.141321897506714 0.0 0.0 0.0 -0.0 0.0 0.0 1 False False
7151.566 3.7120862007141113 -0.8254913848689576 0.8430007139789026 -1.5882607899107875 -1.5707443396197718 2.141308546066284 0.0 0.0 0.0 -0.0 0.0 0.0 1 False False
7151.616 3.7120537757873535 -0.8255202335170289 0.8429520765887659 -1.588297506371969 -1.570801083241598 2.141284227371216 0.0 0.0 0.0 -0.0 0.0 0.0 1 False False
7151.665999999999 3.7120742797851562 -0.825482503776886 0.8429477850543421 -1.5882417164244593 -1.5707686583148401 2.141308546066284 0.0 0.0 0.0 -0.0 0.0 0.0 1 False False
7151.715999999999 3.712094783782959 -0.825445370083191 0.8429973761187952 -1.588320871392721 -1.570801083241598 2.141254186630249 0.0 0.0 0.0 -0.0 0.0 0.0 1 False False
7151.766 3.7120699882507324 -0.8255068820765992 0.8430007139789026 -1.5883246860899867 -1.570813004170553 2.1413040161132812 0.0 0.0 0.0 -0.0 0.0 0.0 1 False False
7151.816 3.7121360301971436 -0.8254706424525757 0.8429964224444788 -1.5882774792113246 -1.5708168188678187 2.141258955001831 0.0 0.0 0.0 -0.0 0.0 0.0 1 False False
7151.866 3.712070941925049 -0.8255039614490052 0.8430050055133265 -1.5883051357665003 -1.570784870778219 2.1412439346313477 0.0 0.0 0.0 -0.0 0.0 0.0 1 False False
7151.915999999999 3.712094783782959 -0.8254736226848145 0.8429930845843714 -1.5883165798582972 -1.5707886854754847 2.141263246536255 0.0 0.0 0.0 -0.0 0.0 0.0 1 False False
7151.965999999999 3.712106704711914 -0.825466052894928 0.8429845015155237 -1.5883094273009242 -1.570829216633932 2.141296148300171 0.0 0.0 0.0 -0.0 0.0 0.0 1 False False
7152.016 3.71207857131958 -0.8254779738238831 0.8430007139789026 -1.588269372979635 -1.5707686583148401 2.141286849975586 0.0 0.0 0.0 -0.0 0.0 0.0 1 True False
7152.066 3.712066650390625 -0.8254497212222596 0.8429525534259241 -1.588269372979635 -1.570784870778219 2.14127516746521 0.0 0.0 0.0 -0.0 0.0 0.0 1 True False
7152.116 3.7120327949523926 -0.8255202335170289 0.8429887930499476 -1.5882655582823695 -1.5707648436175745 2.141322135925293 0.0 0.0 0.0 -0.0 0.0 0.0 1 True False
7152.165999999999 3.712070941925049 -0.8255438965610047 0.8429845015155237 -1.588292738000387 -1.5708168188678187 2.14127516746521 0.0 0.0 0.0 -0.0 0.0 0.0 1 True False
7152.215999999999 3.7121057510375977 -0.8254957360080262 0.8429477850543421 -1.5883127651610316 -1.5707524458514612 2.141267776489258 0.0 0.0 0.0 -0.0 0.0 0.0 1 True False
7152.266 3.712106704711914 -0.8254993718913575 0.8430417219745081 -1.588320871392721 -1.5707886854754847 2.1412394046783447 0.0 0.0 0.0 -0.0 0.0 0.0 1 True False
7152.316 3.712099313735962 -0.8254779738238831 0.8429845015155237 -1.5882493458189906 -1.5708048979388636 2.14123797416687 0.0 0.0 0.0 -0.0 0.0 0.0 1 True False
7152.366 3.7120494842529297 -0.8255320352366944 0.8429396788226526 -1.588332315484518 -1.5707925001727503 2.141296148300171 0.0 0.0 0.0 -0.0 0.0 0.0 1 True False
7152.415999999999 3.7120652198791504 -0.8254869741252442 0.8429482618915003 -1.5882932148375453 -1.5707972685443323 2.141221523284912 0.0 0.0 0.0 -0.0 0.0 0.0 1 True False
7152.465999999999 3.7120490074157715 -0.8254823845675965 0.8430126349078577 -1.5882889233031214 -1.5708325544940394 2.141284227371216 0.0 0.0 0.0 -0.0 0.0 3.9932088839123026e-05 1 True False
7152.516 3.712066888809204 -0.8254779738238831 0.8429396788226526 -1.5882727108397425 -1.5707767645465296 2.141308546066284 0.0 0.0 0.0 -0.0 0.0 -5.601756569717509e-08 1 True False
7152.566 3.7120609283447266 -0.8254949611476441 0.8429549376117151 -1.5882932148375453 -1.5707686583148401 2.141263246536255 0.0 0.0 0.0 -0.0 0.0 -8.50908359127742e-27 1 True False
7152.616 3.7120816707611084 -0.8255112928203125 0.8429754416095179 -1.5882889233031214 -1.5708487669574183 2.141324996948242 0.03167759254574776 -0.013175133615732193 0.00556510966271162 -0.0 0.0 0.010178717784583569 1 True False
7152.665999999999 3.714383125305176 -0.8265471619418641 0.8444951216327112 -1.5888077221312464 -1.5707767645465296 2.1436009407043457 0.07637828588485718 -0.037627726793289185 0.05966833233833313 -0.015899647027254105 0.0 0.0761793851852417 1 True False
7152.715999999999 3.7202064990997314 -0.8293813031962891 0.8490250746356409 -1.5903789005675257 -1.570784870778219 2.1493799686431885 0.15128372609615326 -0.07696440815925598 0.12173550575971603 -0.03893471136689186 8.388684364035726e-05 0.14928372204303741 1 True False
7152.766 3.729562759399414 -0.8342371147922059 0.8564117590533655 -1.5929590664305628 -1.570784870778219 2.158651351928711 0.2181159108877182 -0.11601459234952927 0.1735069304704666 -0.051076292991638184 8.227532089222223e-05 0.2145334780216217 1 True False
7152.816 3.742302656173706 -0.8408945363811036 0.8663795630084437 -1.5962807140746058 -1.570772949849264 2.1712749004364014 0.28533098101615906 -0.14684729278087616 0.2239861935377121 -0.07186120748519897 2.711635169877491e-13 0.29015910625457764 1 True False
7152.866 3.758344888687134 -0.8493281167796631 0.879005257283346 -1.6005627117552699 -1.5708211104022425 2.1876189708709717 0.35419949889183044 -0.18414083123207092 0.2784721553325653 -0.08864876627922058 5.882872574147768e-05 0.35475558042526245 1 True False
7152.915999999999 3.7782444953918457 -0.859269456272461 0.8943212668048304 -1.6056982479491175 -1.5707443396197718 2.2071731090545654 0.4296342730522156 -0.22160348296165466 0.33397841453552246 -0.1260593831539154 1.6962536789674049e-13 0.4350913166999817 1 True False
7152.965999999999 3.801262140274048 -0.8712299031070252 0.9125326315509241 -1.6117669544615687 -1.5708168188678187 2.230537176132202 0.4946848750114441 -0.25392478704452515 0.386602520942688 -0.13328292965888977 2.6273024559486657e-05 0.4964873790740967 1 True False
7153.016 3.828057289123535 -0.8850399416736145 0.9330156485186976 -1.6187802753844203 -1.570801083241598 2.2572731971740723 0.5668560862541199 -0.2915046513080597 0.44576770067214966 -0.1505981981754303 7.566139538539574e-05 0.5605291724205017 1 True False
7153.066 3.8582310676574707 -0.900373176937439 0.9566577116595667 -1.626939435998434 -1.5708048979388636 2.2875492572784424 0.6396721005439758 -0.3210991322994232 0.4935014545917511 -0.18309609591960907 9.475587285123765e-05 0.6323801279067993 1 True False
7153.116 3.8919014930725098 -0.9177220028689881 0.9826915899859827 -1.63580383876943 -1.5707805792437952 2.321136713027954 0.7077662348747253 -0.36296984553337097 0.5524648427963257 -0.18179641664028168 1.803254769341366e-19 0.6998851299285889 1 True False
7153.165999999999 3.9291248321533203 -0.9367047113231202 1.011698071156637 -1.645546098748678 -1.5708211104022425 2.3582515716552734 0.7732651233673096 -0.3982565104961395 0.5984732508659363 -0.192795068025589 2.7391478157431636e-38 0.775503396987915 1 True False
7153.215999999999 3.969637155532837 -0.9576854270747681 1.0432141462909144 -1.656316419641012 -1.5708044211017054 2.3987817764282227 0.8481851816177368 -0.43240734934806824 0.6585001945495605 -0.22149215638637543 0.0 0.8530554175376892 1 True False
7153.266 4.013978958129883 -0.9802267712405701 1.0774501005755823 -1.6678616009154261 -1.5707891623126429 2.4432156085968018 0.9178220629692078 -0.4757896959781647 0.7089006900787354 -0.2455141842365265 -3.0413399144890718e-05 0.9116815328598022 1 True False
7153.316 4.061548709869385 -1.0047046107104798 1.1144774595843714 -1.6804081402220667 -1.570813004170553 2.490689754486084 0.981882631778717 -0.5000426173210144 0.7659358382225037 -0.25786590576171875 3.790794414482157e-11 0.987948477268219 1 True False
7153.366 4.1126627922058105 -1.0307691258243104 1.1541293303119105 -1.6940037212767542 -1.5708091894732874 2.5419576168060303 1.0300415754318237 -0.523634135723114 0.8152202367782593 -0.27723532915115356 5.758226221740294e-30 1.0434142351150513 1 True False
7153.415999999999 4.164867877960205 -1.0576275748065491 1.1948006788836878 -1.707874437371725 -1.5708211104022425 2.5941851139068604 1.0485306978225708 -0.5393214225769043 0.811805784702301 -0.2666000425815582 9.640940697863698e-05 1.0529032945632935 1 True False
7153.465999999999 4.217358112335205 -1.0844786924174805 1.2353113333331507 -1.7217632732787074 -1.5707925001727503 2.646359920501709 1.0423898696899414 -0.538696825504303 0.8147364854812622 -0.25986212491989136 6.79612802963918e-21 1.0525643825531006 1 True False
7153.516 4.2696533203125 -1.1113213461688538 1.2759488264666956 -1.7355014286436976 -1.5707529226886194 2.698946714401245 1.0494414567947388 -0.5392975211143494 0.8059763312339783 -0.27881506085395813 -0.00010285163443768397 1.0423170328140259 1 True False
7153.566 4.322044372558594 -1.1381734174541016 1.3165844122516077 -1.74937166790151 -1.5707443396197718 2.7512967586517334 1.0491554737091064 -0.5378415584564209 0.8092145919799805 -0.26695311069488525 1.3032108654442709e-05 1.0501959323883057 1 True False
7153.616 4.374377727508545 -1.1650345188430329 1.3573158423053187 -1.7632152042784632 -1.5708449522601526 2.8035480976104736 1.0454826354980469 -0.5373184084892273 0.809521496295929 -0.27288955450057983 -5.9675181546481326e-05 1.0472633838653564 1 True False
7153.665999999999 4.426529884338379 -1.1917866927436371 1.3978984991656702 -1.7767068348326625 -1.5708048979388636 2.855879545211792 1.029577612876892 -0.5195044875144958 0.7981700301170349 -0.25660794973373413 -3.1794407443773214e-21 1.0235446691513062 1 True False
7153.715999999999 4.475952625274658 -1.217094586496689 1.436246697102682 -1.7898875675597132 -1.5707443396197718 2.905139446258545 0.959908664226532 -0.48694148659706116 0.742815375328064 -0.24954204261302948 -0.0002503896539565176 0.9698020219802856 1 True False
7153.766 4.521928787231445 -1.2405737203410645 1.4717915693866175 -1.8022195301451625 -1.5708168188678187 2.9512827396392822 0.8827303051948547 -0.45323845744132996 0.6930131912231445 -0.22764545679092407 -1.2746018433415496e-12 0.8780958652496338 1 True False
7153.816 4.564526081085205 -1.2625041765025635 1.5047600905047815 -1.8133145771422328 -1.570784870778219 2.993673086166382 0.8139107823371887 -0.4202185273170471 0.6305878758430481 -0.22508572041988373 -1.9361237138481316e-31 0.8206933736801147 1 True False
7153.866 4.603527545928955 -1.282369689350464 1.5352180639850062 -1.8236257038512171 -1.5707767645465296 3.0327537059783936 0.7488958239555359 -0.3803103268146515 0.5817419290542603 -0.19837258756160736 8.985206919861002e-16 0.7509113550186157 1 True False
7153.915999999999 4.6390252113342285 -1.3005731266788025 1.5626915136920374 -1.8328610859312953 -1.5708087126361292 3.0683507919311523 0.6770061254501343 -0.3476807177066803 0.5312644243240356 -0.16829103231430054 0.0004437136522028595 0.6729103922843933 1 True False
7153.965999999999 4.671078681945801 -1.3170927625945588 1.5876124540912073 -1.8415395222105921 -1.5708254019366663 3.100308895111084 0.6053721904754639 -0.3079799711704254 0.46916651725769043 -0.18526940047740936 -8.428215590716714e-12 0.60662442445755 1 True False
7154.016 4.69957971572876 -1.3316013228944321 1.6098864714251917 -1.8489257297911585 -1.5708087126361292 3.128830909729004 0.539342999458313 -0.2721323072910309 0.42109453678131104 -0.14301007986068726 0.0001093224054784514 0.5307048559188843 1 True False
7154.066 4.724668979644775 -1.344596506362297 1.6289494673358362 -1.8557001552977503 -1.5708048979388636 3.1538517475128174 0.46868348121643066 -0.2361534982919693 0.36371588706970215 -0.12968090176582336 -4.117007890158675e-08 0.4725622832775116 1 True False
7154.116 4.746255397796631 -1.3555044096759339 1.6460240522967737 -1.861201902429098 -1.570784870778219 3.1753315925598145 0.399021178483963 -0.20400118827819824 0.31087279319763184 -0.1217978447675705 -2.553669808946779e-08 0.4001014530658722 1 True False
7154.165999999999 4.764190196990967 -1.364804522400238 1.6598785559283655 -1.8660046062865199 -1.5708044211017054 3.1934492588043213 0.3290523886680603 -0.1686682254076004 0.2586286664009094 -0.08046147972345352 -7.368403021246195e-05 0.32818853855133057 1 True False
7154.215999999999 4.778754234313965 -1.3722962153008957 1.6712964216815394 -1.8698564968504847 -1.5707724730121058 3.2078607082366943 0.25532791018486023 -0.13100530207157135 0.1966085135936737 -0.06430711597204208 4.5432825572788715e-05 0.26996904611587524 1 True False
7154.266 4.789700031280518 -1.3779592227986832 1.6798432509051722 -1.8727461300291957 -1.5708168188678187 3.219050884246826 0.19019760191440582 -0.09460626542568207 0.14946025609970093 -0.04867907613515854 6.901254966017395e-24 0.1841355711221695 1 True False
7154.316 4.797447681427002 -1.381892905836441 1.6857479254352015 -1.87489714244985 -1.5707648436175745 3.2267332077026367 0.11711373925209045 -0.06176965683698654 0.09102687239646912 -0.03774169459939003 1.9145527403452434e-05 0.11576750129461288 1 True False
7154.366 4.801498889923096 -1.3838722270778199 1.6889780203448694 -1.8758145771422328 -1.5707967917071741 3.2307591438293457 0.04693852737545967 -0.024735121056437492 0.03720186650753021 -0.014081602916121483 7.602804620030801e-22 0.05114756524562836 1 True False
7154.415999999999 4.802285194396973 -1.384251744752266 1.6896799246417444 -1.8763286075987757 -1.5707724730121058 3.2314794063568115 -0.0011196304112672806 0.008759861811995506 0.020994191989302635 -0.039052147418260574 -9.872142254607752e-05 0.00020760175539180636 1 True False
7154.465999999999 4.80224609375 -1.3832784009030838 1.6916049162494105 -1.8791347942748011 -1.5707767645465296 3.231541872024536 0.00019445268844719976 0.031362928450107574 0.05751699581742287 -0.08999387919902802 -3.308374353552107e-13 0.000222220754949376 1 True False
7154.516 4.80224609375 -1.3810327512076874 1.6957905928241175 -1.885538240472311 -1.5708087126361292 3.2315239906311035 0.00035423069493845105 0.06290386617183685 0.1004147008061409 -0.15562263131141663 -5.025428192102937e-32 0.0003030215739272535 1 True False
7154.566 4.802319049835205 -1.377282292847969 1.7020180861102503 -1.8953138790526332 -1.570784870778219 3.2315194606781006 0.0006358554819598794 0.08772033452987671 0.144539013504982 -0.22395019233226776 -0.0 0.00030180715839378536 1 True False
7154.616 4.802321910858154 -1.3723724794438859 1.7103264967547815 -1.9088098011412562 -1.570784870778219 3.2315032482147217 0.00042796056368388236 0.11203240603208542 0.1907544881105423 -0.29135361313819885 -0.0 0.00012704040273092687 1 True False
7154.665999999999 4.802335739135742 -1.3662071239999314 1.7209880987750452 -1.92559876064443 -1.5708449522601526 3.2315194606781006 0.0001451807183912024 0.13551084697246552 0.23617321252822876 -0.3858911395072937 -0.0 8.936685480875894e-05 1 True False
7154.715999999999 4.8023552894592285 -1.358660028581955 1.734079662953512 -1.945925851861471 -1.5707724730121058 3.2315433025360107 0.00014347460819408298 0.16440488398075104 0.2771487236022949 -0.4428194761276245 -0.0 6.321263208519667e-05 1 True False
7154.766 4.802364349365234 -1.3499684494784852 1.748894993458883 -1.9699121914305628 -1.5708168188678187 3.2314987182617188 0.00011177280975971371 0.1882224828004837 0.32734015583992004 -0.5072935223579407 -0.0 5.264379043561778e-20 1 True False
7154.816 4.8023552894592285 -1.3398288947394867 1.7663663069354456 -1.9970280132689417 -1.5707925001727503 3.231538772583008 8.445775893051177e-05 0.19474945962429047 0.33744171261787415 -0.5628056526184082 -0.0 7.996604974965143e-39 1 True False
7154.866 4.8024001121521 -1.330390603547432 1.7825959364520472 -2.0233193836607875 -1.5708168188678187 3.2315478324890137 7.927006663521752e-05 0.18331463634967804 0.31403815746307373 -0.48687902092933655 -0.0 0.0 1 True False
7154.915999999999 4.802350997924805 -1.3219803881696244 1.797175709401266 -2.0459729633727015 -1.5708211104022425 3.231576681137085 1.5648410019544702e-32 0.15604659914970398 0.2649277448654175 -0.42045480012893677 -0.0 0.0 1 True False
7154.965999999999 4.802346706390381 -1.3148091298392792 1.8092549482928675 -2.0653392277159632 -1.5708449522601526 3.2315685749053955 0.0 0.12986400723457336 0.22531333565711975 -0.3445266783237457 -0.0 0.0 1 True False
7155.016 4.802383899688721 -1.3090812128833313 1.819266144429342 -2.0810562572874964 -1.5707686583148401 3.231534242630005 0.0 0.10362320393323898 0.175375834107399 -0.27392321825027466 -0.0 0.0 1 True False
7155.066 4.802366733551025 -1.3045343917659302 1.8271334807025355 -2.093413015405172 -1.570784870778219 3.2315597534179688 0.0 0.07757130265235901 0.1275789737701416 -0.20820358395576477 -0.0 1.1003119349676295e-20 1 True False
7155.116 4.802370548248291 -1.301339940433838 1.8326299826251429 -2.1020852528014125 -1.5708044211017054 3.231585741043091 0.0 0.05472889170050621 0.08938256651163101 -0.13782033324241638 -0.0 1.6713763225479964e-39 1 True False
7155.165999999999 4.802341938018799 -1.299441174869873 1.8358891646014612 -2.1074396572508753 -1.5708087126361292 3.2315642833709717 0.0 0.025918707251548767 0.04671810567378998 -0.06852710247039795 3.7649196911113125e-13 0.0 1 True False
7155.215999999999 4.802364349365234 -1.2986792784980317 1.8371709028827112 -2.10921635250234 -1.5707925001727503 3.2315642833709717 0.0 2.216216543615701e-08 -0.0010586049174889922 -0.002938342746347189 5.718922839314054e-32 0.0 1 True False
7155.266 4.8023834228515625 -1.2987991136363526 1.8372319380389612 -2.109180589715475 -1.5708211104022425 3.2315478324890137 0.0 -2.1931737514260264e-20 0.0003170767449773848 -8.216049172915518e-05 0.0 0.0 1 True False
7155.316 4.802374839782715 -1.2987528604320069 1.8371384779559534 -2.10921635250234 -1.5707967917071741 3.2315566539764404 0.0 0.0001235429081134498 8.163370512193069e-05 -0.0001622390263946727 0.0 0.0 1 True False
7155.366 4.8024001121521 -1.298759089117386 1.8371999899493616 -2.109276433984274 -1.5708211104022425 3.2315151691436768 0.0 0.00037935914588160813 6.198807386681437e-05 -0.0002547393087297678 0.0 0.0 1 True False
7155.415999999999 4.802346706390381 -1.298683689241745 1.8371222654925745 -2.1093250713744105 -1.570824925099508 3.23152232170105 0.0 0.0005505490116775036 3.485186243779026e-05 -0.0005915489164181054 0.0 0.0 1 True False
7155.465999999999 4.802330017089844 -1.2986627382091065 1.8371709028827112 -2.1092807255186976 -1.5707925001727503 3.2315549850463867 0.0 0.00019285018788650632 2.794239284398259e-09 -0.00035494775511324406 0.0 0.0 1 True False
7155.516 4.802379131317139 -1.2986955803683777 1.837191406880514 -2.109272619287008 -1.5707925001727503 3.2315523624420166 -6.693402247037739e-05 0.00021489676146302372 6.575137621843299e-39 -0.00011980660929111764 0.0 0.0 1 True False
7155.566 4.802350997924805 -1.2987226706794281 1.837236229573385 -2.1093489132323207 -1.5708087126361292 3.231576681137085 -2.340854007343296e-05 0.0001567237195558846 0.0 -8.631226228317246e-05 0.0 0.0 1 True False
7155.616 4.802366733551025 -1.2986672681621094 1.837219540272848 -2.109312673608297 -1.5708211104022425 3.231538772583008 -1.4185016880219337e-05 7.551605813205242e-05 3.3753508432710078e-06 -6.166892853798345e-05 0.0 0.0 1 True False
7155.665999999999 4.802338600158691 -1.2986987692168732 1.8371785322772425 -2.1093207798399867 -1.5708048979388636 3.2315359115600586 -1.0175620445806999e-05 6.383768050000072e-05 7.942555749736588e-36 -1.0671442744210797e-21 0.0 0.0 1 True False
7155.715999999999 4.802368640899658 -1.2987435025027771 1.8372152487384241 -2.109312673608297 -1.5707891623126429 3.2315032482147217 0.0 3.7274539151040134e-43 0.0 -1.6209940375616619e-40 0.0 0.0 1 True False
7155.766 4.802374839782715 -1.2986645263484498 1.8372038046466272 -2.1093045673766078 -1.5707600752459925 3.2315902709960938 0.0 -3.132554691697159e-33 0.0 -0.0 0.0 0.0 1 True False
7155.816 4.802362442016602 -1.2987841826728364 1.8370426336871546 -2.1093327007689417 -1.570829216633932 3.231550693511963 0.0 -0.0007251089555211365 8.691745101430115e-09 -0.0007981639355421066 8.682215922351524e-19 0.0 1 True False
7155.866 4.802359580993652 -1.2987484198859711 1.8370750586139124 -2.109459539453024 -1.5707929770099085 3.2315268516540527 0.0 0.00014866066339891404 7.905687380116433e-05 -0.00019260628323536366 1.3188305923488987e-37 3.924734360882852e-15 1 True False
7155.915999999999 4.802359580993652 -1.2987164419940491 1.83708364168276 -2.1094795666136683 -1.570801083241598 3.2315642833709717 0.0 0.0001669468911131844 0.00011333040311001241 0.0004355065757408738 0.0 5.961680312313508e-34 1 True False
7155.965999999999 4.802338600158691 -1.2989301842502137 1.8367636839496058 -2.1081863842406214 -1.5707686583148401 3.2315597534179688 0.0 -0.013168011792004108 -0.02607497200369835 0.052896853536367416 0.0 0.0 1 True True
7156.016 4.802304744720459 -1.3003798884204407 1.8341978232013147 -2.1041141949095667 -1.5707605520831507 3.2315597534179688 0.0 -0.05139562860131264 -0.0809701606631279 0.11455395072698593 0.0 0.0 1 True True
7156.066 4.80233097076416 -1.3032773298076172 1.8291786352740687 -2.0961648426451625 -1.5708254019366663 3.2315194606781006 0.0 -0.06902354955673218 -0.127290740609169 0.18901774287223816 0.0 0.0 1 True True
7156.116 4.802326679229736 -1.3077280682376404 1.8217147032367151 -2.084768911401266 -1.5708087126361292 3.231550693511963 0.0 -0.09147282689809799 -0.16615258157253265 0.25821900367736816 0.0 0.0 1 True True
7156.165999999999 4.802350997924805 -1.3130744856647034 1.812187973652975 -2.0701800785460414 -1.5707767645465296 3.2315597534179688 -1.7128321040373483e-33 -0.11854151636362076 -0.2116478681564331 0.32593750953674316 0.0 -5.2325776778161526e-05 1 True True
7156.215999999999 4.802379608154297 -1.3198073369315644 1.8007600943194788 -2.0517107448973597 -1.570756737385885 3.231505870819092 0.0 -0.14662572741508484 -0.25599321722984314 0.40606531500816345 0.0 -1.1979877481433638e-20 1 True True
7156.266 4.802309513092041 -1.3277511608651658 1.786980454121725 -2.02999271968984 -1.570857350026266 3.231576681137085 0.0 -0.17557750642299652 -0.3022415339946747 0.46938028931617737 0.0 -1.8197472052491723e-39 1 True True
7156.316 4.802395343780518 -1.3371647608331223 1.7709367910968226 -2.0048004589476527 -1.5708406607257288 3.23152232170105 0.0 -0.19862008094787598 -0.3380151391029358 0.539192259311676 0.0 -0.0 1 True True
7156.366 4.802350997924805 -1.3472984445146103 1.7534268538104456 -1.977213521996969 -1.5707925001727503 3.231538772583008 0.0 -0.19298145174980164 -0.33932963013648987 0.5248381495475769 0.0 -0.0 1 True True
7156.415999999999 4.802399635314941 -1.3563541036895295 1.7379735151873987 -1.9522630176939906 -1.5707572142230433 3.2315478324890137 0.0 -0.16750574111938477 -0.29557350277900696 0.45930564403533936 0.0 -0.0 1 True True
7156.465999999999 4.802379131317139 -1.3641971063664933 1.7243521849261683 -1.930894514123434 -1.5708211104022425 3.231538772583008 0.0 -0.14830583333969116 -0.2483726590871811 0.3914670944213867 0.0 -0.0 1 True True
7156.516 4.802366733551025 -1.3707383436015625 1.7132185141192835 -1.913201471368307 -1.5707925001727503 3.2315642833709717 0.0 -0.11956148594617844 -0.20385323464870453 0.33116334676742554 0.0 -0.0 1 True True
7156.566 4.802334308624268 -1.3760652256063004 1.7042205969439905 -1.8986927471556605 -1.5708006064044397 3.2315731048583984 -2.236763543409126e-17 -0.09359816461801529 -0.16507309675216675 0.2546439468860626 0.0 -0.0 1 True True
7156.616 4.802379131317139 -1.3799396020225068 1.6974104086505335 -1.8880053959288539 -1.5708211104022425 3.231527090072632 0.0 -0.0661558210849762 -0.11785023659467697 0.17802931368350983 0.0 -0.0 1 True True
7156.665999999999 4.802306175231934 -1.3827070009759446 1.6925986448871058 -1.8806458912291468 -1.5707891623126429 3.2315731048583984 0.0 -0.04075844585895538 -0.07147788256406784 0.13025344908237457 0.0 -0.0 1 True True
7156.715999999999 4.802371025085449 -1.384108991628029 1.690052334462301 -1.876798769036764 -1.5708373228656214 3.2315731048583984 0.0 -0.019413450732827187 -0.02846815250813961 0.044717006385326385 0.0 -0.0 1 True True
7156.766 4.802046775817871 -1.3843088907054444 1.6897037664996546 -1.8762127361693324 -1.5708125273333948 3.2312660217285156 -0.024274028837680817 0.00040590911521576345 0.0006890801014378667 0.0006250173319131136 0.0 -0.024512680247426033 1 True True
7156.816 4.799127578735352 -1.3843612384847184 1.6896918455706995 -1.8761445484557093 -1.5707929770099085 3.228198289871216 -0.09499324858188629 3.7791656630235755e-28 -0.00010141518578166142 0.003565226448699832 0.0 -0.09507077187299728 1 True True
7156.866 4.792300224304199 -1.3843523573926468 1.6897338072406214 -1.8761059246458949 -1.5707529226886194 3.2215771675109863 -0.16646666824817657 0.0 -7.058515620883554e-05 0.0015560230240225792 0.0 -0.1654667854309082 1 True True
7156.915999999999 4.782260417938232 -1.3843282473138352 1.6896966139422815 -1.8760858974852503 -1.570841137562887 3.2114453315734863 -0.2370540201663971 0.0 -0.00019367730419617146 0.0002779127098619938 0.0 -0.22954076528549194 1 True True
7156.965999999999 4.768567085266113 -1.3843252223781128 1.6896651426898401 -1.8760415516295375 -1.5708048979388636 3.1979360580444336 -0.3055485785007477 0.0 -0.0007040238124318421 0.00010587446740828454 0.0 -0.3036801815032959 1 True True
7157.016 4.7516584396362305 -1.3843745452216645 1.689575497304098 -1.8760491810240687 -1.570813004170553 3.1806819438934326 -0.3765343725681305 0.0 -0.0014712270349264145 9.33254777919501e-05 -8.389223512494937e-05 -0.3718075156211853 1 True True
7157.066 4.730866432189941 -1.384334148173668 1.6895783583270472 -1.876050134698385 -1.5708368460284632 3.1601598262786865 -0.4442399740219116 0.0005351749714463949 -0.001414401107467711 8.354112651431933e-05 -7.747271592961624e-05 -0.4421409070491791 1 True True
7157.116 4.707013130187988 -1.384247363810875 1.689467732106344 -1.8759972057738246 -1.5707767645465296 3.1362199783325195 -0.5165631771087646 0.0013307053595781326 -0.0010288195917382836 0.00010958306665997952 1.3127419151715003e-05 -0.5260787606239319 1 True True
7157.165999999999 4.679506301879883 -1.3842094999602814 1.6894148031817835 -1.8760415516295375 -1.5707772413836878 3.1086835861206055 -0.5841159820556641 0.000914179312530905 -0.0008665966452099383 0.0002542835718486458 0.001002530101686716 -0.5840668082237244 1 True True
7157.215999999999 4.64849853515625 -1.3841737371734162 1.689348045979635 -1.8760420284666957 -1.5707643667804163 3.077683925628662 -0.6510588526725769 0.0008175005787052214 -0.001035302528180182 0.00025010353419929743 0.0018006045138463378 -0.6593696475028992 1 True True
7157.266 4.6139302253723145 -1.3841059666923066 1.689284626637594 -1.8760138950743617 -1.5708015600787562 3.0431785583496094 -0.7203925251960754 0.0005785055691376328 -0.0010044235968962312 0.0007321172161027789 0.0022697437088936567 -0.7263578772544861 1 True True
7157.316 4.57576322555542 -1.3839954298785706 1.6891544500934046 -1.8760105572142542 -1.5707891623126429 3.0050604343414307 -0.7894551753997803 0.0008624538313597441 -0.0019328228663653135 0.0006173625006340444 0.0017061574617400765 -0.8003981709480286 1 True True
7157.366 4.5342631340026855 -1.3838929545930405 1.6891263167010706 -1.8759619198241175 -1.5707724730121058 2.9634456634521484 -0.8628734350204468 0.0019314013188704848 -0.002477014437317848 0.00031431170646101236 9.105055505642667e-05 -0.8602145910263062 1 True True
7157.415999999999 4.489282131195068 -1.3838004779866715 1.6889928022967737 -1.8759495220580042 -1.5708044211017054 2.9186580181121826 -0.9388237595558167 0.0020090830512344837 -0.002269764430820942 0.00034111554850824177 -0.0007602293626405299 -0.9287784695625305 1 True True
7157.465999999999 4.440828800201416 -1.3838597697070618 1.688913647328512 -1.8759423695006312 -1.5708168188678187 2.8698809146881104 -1.002341389656067 0.0035753401461988688 -0.0025959345512092113 0.0005025825230404735 1.6022256695761954e-14 -1.0031975507736206 1 True True
7157.516 4.389104843139648 -1.3836215001395722 1.68874437013735 -1.8759061298766078 -1.570784870778219 2.8183863162994385 -1.0497643947601318 0.0018141070613637567 -0.0028577211778610945 0.00045795488404110074 -4.06701146857813e-05 -1.0533818006515503 1 True True
7157.566 4.336801052093506 -1.383553997879364 1.6886399427997034 -1.8759027920165003 -1.5707843939410608 2.7660374641418457 -1.0518206357955933 0.0030196146108210087 -0.0025546473916620016 0.00045875049545429647 -0.0004605111025739461 -1.0411431789398193 1 True True
7157.616 4.2843918800354 -1.3834761393121262 1.6885750929461878 -1.8758751354613246 -1.5707929770099085 2.71347975730896 -1.0481414794921875 0.0024922825396060944 -0.0025393562391400337 0.00039982248563319445 0.0004575993225444108 -1.0414695739746094 1 True True
7157.665999999999 4.232005596160889 -1.3833847802928467 1.6884139219867151 -1.8758593998351039 -1.5707805792437952 2.661202907562256 -1.0418651103973389 0.0011587557382881641 -0.0021267172414809465 0.0009619659977033734 0.0001173332566395402 -1.0561604499816895 1 True True
7157.715999999999 4.179737567901611 -1.3833230447820206 1.6883013884173792 -1.8758427105345667 -1.5708087126361292 2.608891010284424 -1.0516248941421509 0.002650116104632616 -0.0020385216921567917 0.0003416782128624618 3.524703515722649e-06 -1.0407036542892456 1 True True
7157.766 4.127348899841309 -1.3832377803376694 1.688206974660055 -1.8758756122984828 -1.5707886854754847 2.556356906890869 -1.0454500913619995 0.0020847783889621496 -0.002796533750370145 0.0003344473661854863 5.35403002513315e-25 -1.0456293821334839 1 True True
7157.816 4.074971675872803 -1.3830955934575577 1.6881149450885218 -1.8758279285826625 -1.570801083241598 2.5042388439178467 -1.0439246892929077 0.0010536778718233109 -0.0013365718768909574 0.0003686230047605932 0.0007505988469347358 -1.0532283782958984 1 True True
7157.866 4.02256965637207 -1.3829634201577683 1.6880319754229944 -1.8757549724974574 -1.5707691351519983 2.451871395111084 -1.0507991313934326 0.0025519831106066704 -0.0017696436261758208 0.00035592683707363904 1.5476172066507824e-17 -1.0444376468658447 1 True True
7157.915999999999 3.970219850540161 -1.3828962606242676 1.687859837208883 -1.8757392368712367 -1.5707886854754847 2.399278163909912 -1.045478343963623 0.0029365369118750095 -0.003111249068751931 0.0005788066191598773 7.899240208339778e-14 -1.0415288209915161 1 True True
7157.965999999999 3.9178848266601562 -1.382783756857254 1.6877506414996546 -1.8757473431029261 -1.5708125273333948 2.3471028804779053 -1.0456569194793701 0.0011707170633599162 -0.0024243048392236233 0.0012024100869894028 2.5964430605540656e-10 -1.05482816696167 1 True True
7158.016 3.8655433654785156 -1.3827417355826874 1.6876519362079065 -1.8757440052428187 -1.5707691351519983 2.2948105335235596 -1.0517847537994385 0.002133819507434964 -0.0018707502167671919 0.00041393781430087984 -1.9380566148772226e-14 -1.0444002151489258 1 True True
7158.066 3.8131561279296875 -1.3826248359731217 1.6875351111041468 -1.8756758175291957 -1.570772949849264 2.2422935962677 -1.0487635135650635 0.0031266422010958195 -0.002919531660154462 0.000500755209941417 -2.943913378658114e-33 -1.0426216125488281 1 True True
7158.116 3.760852098464966 -1.3825498086265107 1.6874201933490198 -1.8756596050658167 -1.5707767645465296 2.190136432647705 -1.0474326610565186 0.001122438465245068 -0.001974581042304635 0.0004642413114197552 -0.0 -1.055662989616394 1 True True
7158.165999999999 3.7084434032440186 -1.3824406427196045 1.6873167196856897 -1.875591894189352 -1.5708368460284632 2.137744665145874 -1.0496118068695068 0.00183479196857661 -0.001681010820902884 0.000394036149373278 -0.0 -1.0452486276626587 1 True True
7158.215999999999 3.6560416221618652 -1.3823412221721192 1.6871894041644495 -1.8756567440428675 -1.5707925001727503 2.085158109664917 -1.0477194786071777 0.0026124396827071905 -0.0026881007943302393 0.00033554795663803816 -0.0 -1.040380835533142 1 True True
7158.266 3.60371994972229 -1.3822201651385804 1.6870563665973108 -1.8755847416319789 -1.5707362333880823 2.032870292663574 -1.0458208322525024 0.0011712006526067853 -0.0023715621791779995 0.0005430579767562449 -0.0 -1.0528441667556763 1 True True
7158.316 3.5513458251953125 -1.3821447950652619 1.6869891325580042 -1.875580450097555 -1.5707805792437952 1.980608582496643 -1.0485628843307495 0.0020238093566149473 -0.0024413452483713627 0.00047541948151774704 -0.0 -1.042013168334961 1 True True
7158.366 3.4989829063415527 -1.3820534509471436 1.6868465582477015 -1.8755566082396449 -1.570784870778219 1.9281026124954224 -1.0469642877578735 0.002727498533204198 -0.004067627247422934 0.0004688264452852309 -0.0 -1.0410494804382324 1 True True
7158.415999999999 3.4466490745544434 -1.3819531959346314 1.6867120901690882 -1.875545164147848 -1.5708168188678187 1.8759032487869263 -1.044424057006836 0.0010767191415652633 -0.0025718004908412695 0.0004952910239808261 -0.0 -1.053560733795166 1 True True
7158.465999999999 3.3943235874176025 -1.3819437784007569 1.6865771452533167 -1.8755208454527796 -1.5707767645465296 1.823553204536438 -1.047919750213623 0.0019174087792634964 -0.002794844564050436 0.00043348679901100695 -0.0 -1.0446428060531616 1 True True
7158.516 3.3419511318206787 -1.381773204808571 1.6864545981036585 -1.8755408726134242 -1.5708254019366663 1.77108895778656 -1.047658920288086 0.002538887085393071 -0.0032448850106447935 0.0005413792678155005 -0.0 -1.0416568517684937 1 True True
7158.566 3.289602518081665 -1.3817518514445801 1.686373535786764 -1.8754612408080042 -1.5707967917071741 1.7186968326568604 -1.0453152656555176 0.0020081624388694763 -0.0019632235635071993 0.0003846876497846097 -0.0 -1.0488362312316895 1 True True
7158.616 3.2371654510498047 -1.3815675687840958 1.6863120237933558 -1.8754331074156703 -1.570801083241598 1.6664695739746094 -1.0467045307159424 0.0018150685355067253 -0.0019041011109948158 0.0004212388303130865 -0.0 -1.05105721950531 1 True True
7158.665999999999 3.184857130050659 -1.3815106314471741 1.6861475149737757 -1.875465532342428 -1.5708211104022425 1.6140496730804443 -1.0477938652038574 0.002741995733231306 -0.0029756699223071337 0.0005238200537860394 -0.0 -1.0424991846084595 1 True True
7158.715999999999 3.1330766677856445 -1.3814059060863038 1.6860101858722132 -1.8753735027708949 -1.5707805792437952 1.5623211860656738 -1.0044406652450562 0.001300215139053762 -0.0020880589727312326 0.0005520500126294792 -0.0 -1.019054889678955 1 True True
7158.766 3.084545850753784 -1.3813458246043702 1.6859234015094202 -1.875397344628805 -1.5708211104022425 1.5138461589813232 -0.9411627650260925 0.0015541951870545745 -0.0026822208892554045 0.00031327540636993945 -0.0 -0.9371060729026794 1 True True
7158.816 3.0395731925964355 -1.3812334400466462 1.6857989470111292 -1.875341077844137 -1.5707524458514612 1.4686745405197144 -0.8667534589767456 0.001468624104745686 -0.001781789935193956 0.0002482768031768501 0.00017709926760289818 -0.8707590103149414 1 True True
7158.866 2.9977638721466064 -1.3811552238515397 1.6857202688800257 -1.8753658733763636 -1.570784870778219 1.4271247386932373 -0.7988917231559753 0.001869078609161079 -0.002307500224560499 0.000476417422760278 -8.087311376137052e-11 -0.7926554083824158 1 True True
7158.915999999999 2.959697723388672 -1.3810448062470932 1.6856606642352503 -1.875333925286764 -1.5707967917071741 1.3889739513397217 -0.7275022864341736 0.0015923136379569769 -0.0020713484846055508 0.00025519696646369994 -1.2284647969935049e-29 -0.7263206243515015 1 True True
7158.965999999999 2.9252004623413086 -1.380988897090294 1.6855762640582483 -1.8754025898375453 -1.5708048979388636 1.3543541431427002 -0.6582295894622803 0.0012103357585147023 -0.0012969761155545712 0.000307294336380437 -7.691602513659745e-05 -0.6632916927337646 1 True True
7159.016 2.894044876098633 -1.3809607040933152 1.6855247656451624 -1.8753258190550746 -1.5707891623126429 1.3232824802398682 -0.5874454975128174 0.001023999648168683 -0.0010967626003548503 0.00016057871107477695 -4.4323019095233485e-21 -0.5924440026283264 1 True True
7159.066 2.866438150405884 -1.3809511077455063 1.685481373463766 -1.8753258190550746 -1.5708335081683558 1.2956264019012451 -0.5170508623123169 0.0008275880827568471 -0.0010968496790155768 1.9380543392344407e-08 0.0002373129827901721 -0.5225721597671509 1 True True
7159.116 2.842219591140747 -1.380901889210083 1.6854007879840296 -1.8753305874266566 -1.5708325544940394 1.271404504776001 -0.4464481770992279 0.0009677528869360685 -0.0010590278543531895 0.00018547689251136035 -0.00020271229732315987 -0.44582226872444153 1 True True
7159.165999999999 2.8215115070343018 -1.3808257442763825 1.6853087584124964 -1.8752900562682093 -1.570829216633932 1.250810146331787 -0.3776237666606903 0.001509595662355423 -0.0011157243279740214 0.0001709470379864797 -2.8346615253075626e-21 -0.3806203305721283 1 True True
7159.215999999999 2.804459810256958 -1.3808257442763825 1.6852691809283655 -1.8753262958922328 -1.5708168188678187 1.2336336374282837 -0.3113362789154053 0.00029525201534852386 -0.001133965328335762 0.0001628254831302911 0.00015188954421319067 -0.3099222183227539 1 True True
7159.266 2.790757656097412 -1.38082671285186 1.6852887312518519 -1.8753138981261195 -1.5708091894732874 1.220028281211853 -0.2393098622560501 0.0003291119064670056 -0.0010117193451151252 0.00012406567111611366 1.5939180229906924e-05 -0.23910044133663177 1 True True
7159.316 2.7806355953216553 -1.380831093793251 1.6852853933917444 -1.875230451623434 -1.5708044211017054 1.2098193168640137 -0.17221949994564056 0.0002953043731395155 -0.0003317964728921652 0.00013985826808493584 9.711342136142775e-05 -0.17214584350585938 1 True True
7159.366 2.7739620208740234 -1.3808118116906662 1.6852453390704554 -1.8752418957152308 -1.5707886854754847 1.2031694650650024 -0.10035216808319092 0.00030637625604867935 -0.00021914108947385103 9.904645412461832e-05 2.2773423552280292e-05 -0.10176020115613937 1 True True
7159.415999999999 2.770723581314087 -1.380786658530571 1.6852410475360315 -1.8752786121764125 -1.5707529226886194 1.1998900175094604 -0.030332567170262337 0.00019433080160524696 -0.0002650461392477155 8.12326543382369e-05 1.1553172698033909e-12 -0.03146971017122269 1 True True
7159.465999999999 2.77054500579834 -1.3804011952928086 1.6854093710528772 -1.8756963215269984 -1.5707324186908167 1.1996183395385742 -0.000752874300815165 0.02071496471762657 0.021638935431838036 -0.03114643692970276 -9.98464089185802e-10 2.3618114408652247e-11 1 True True
7159.516 2.7705132961273193 -1.379122481947281 1.6876290480243128 -1.879493852654928 -1.5707886854754847 1.1996285915374756 -0.0003611748688854277 0.034632306545972824 0.06749499589204788 -0.10752563923597336 -1.5166699515755698e-28 -0.0004891492426395416 1 True True
7159.566 2.7704427242279053 -1.3764758867076416 1.6924007574664515 -1.886867185632223 -1.5707686583148401 1.1996285915374756 -0.0007205689325928688 0.0642804279923439 0.12149237841367722 -0.16801322996616364 -0.0 -0.00043267416185699403 1 True True
7159.616 2.770415782928467 -1.3725440365127106 1.6994546095477503 -1.897752424279684 -1.5708373228656214 1.199591040611267 -0.0008229344966821373 0.09159372001886368 0.16141198575496674 -0.2533588111400604 1.0962391883140299e-08 -0.00024304202815983444 1 True True
7159.665999999999 2.7704293727874756 -1.3673281234553833 1.7084162870990198 -1.912011285821432 -1.5708211104022425 1.199600100517273 -0.000131077496916987 0.11919448524713516 0.20372311770915985 -0.32062575221061707 1.6651898447963143e-27 -0.00013669747568201274 1 True True
7159.715999999999 2.770415782928467 -1.3607911628535767 1.7196643988238733 -1.9296266041197718 -1.5708006064044397 1.1996910572052002 -1.936736771313008e-05 0.14230939745903015 0.2515990138053894 -0.38379475474357605 0.0 -9.766541188582778e-05 1 True True
7159.766 2.7704575061798096 -1.3529763382724305 1.7333300749408167 -1.9509450397887171 -1.570801083241598 1.1995925903320312 -2.8871945687569678e-05 0.17257316410541534 0.2911834418773651 -0.4477883577346802 0.00013256678357720375 -7.038580224616453e-05 1 True True
7159.816 2.77046537399292 -1.3438846480897446 1.7488067785846155 -1.9757534466185511 -1.5707967917071741 1.1996748447418213 -1.6022269846871495e-05 0.19100239872932434 0.33275407552719116 -0.5268473625183105 3.542810923969922e-17 -3.890144176251843e-23 1 True True
7159.866 2.7704575061798096 -1.3337340962937851 1.7664440313922327 -2.003212114373678 -1.5707805792437952 1.1996285915374756 -1.1087630809925031e-05 0.1997321993112564 0.34289610385894775 -0.5385998487472534 5.3815396271110936e-36 -5.01582633205544e-07 1 True True
7159.915999999999 2.7704081535339355 -1.3245743823102494 1.7821381727801722 -2.0285450420775355 -1.5708406607257288 1.1996285915374756 0.0 0.1773173213005066 0.30387815833091736 -0.4706963300704956 0.0 1.7382303951762879e-07 1 True True
7159.965999999999 2.770411491394043 -1.3164758545211335 1.7961605230914515 -2.05031742672109 -1.5707686583148401 1.19965398311615 0.0 0.14552174508571625 0.2529374063014984 -0.40767335891723633 1.1113666514528479e-16 2.640375689896245e-26 1 True True
7160.016 2.7704291343688965 -1.3097830277732392 1.8075531164752405 -2.0687204800047816 -1.5707891623126429 1.1996405124664307 0.0 0.11945994198322296 0.20730216801166534 -0.3304160237312317 1.6881684475046401e-35 4.203895392974451e-45 1 True True
7160.066 2.7704410552978516 -1.3043669623187562 1.8169406096087855 -2.0835658512511195 -1.5707767645465296 1.1996331214904785 0.0 0.09519223123788834 0.16693300008773804 -0.27448588609695435 0.0 0.0 1 True True
7160.116 2.7705070972442627 -1.3001953226378937 1.8243592421161097 -2.0947944126524867 -1.5707805792437952 1.1995837688446045 0.0 0.0715484619140625 0.12119389325380325 -0.19080713391304016 0.0 0.0 1 True True
7160.165999999999 2.7703664302825928 -1.297293559913971 1.8291776815997522 -2.1027032337584437 -1.5707724730121058 1.1995898485183716 0.0 0.04605713486671448 0.07879961282014847 -0.12936639785766602 0.0 0.0 1 True True
7160.415999999999 2.7704007625579834 -1.2950643760016938 1.8329466024981897 -2.1078883610167445 -1.570824925099508 1.1995925903320312 5.53399930047771e-11 -0.004566466435790062 -0.0006159412441775203 -0.0012760100653395057 3.2366266219266623e-22 4.2803025121669613e-13 1 True False
7160.465999999999 2.7704246044158936 -1.2952129405787964 1.832902733479635 -2.108039518395895 -1.570801083241598 1.199567437171936 0.0 -0.001042927266098559 -0.0007307148771360517 -0.0007788066286593676 4.916455662083621e-41 0.00013085815589874983 1 True False
7160.516 2.770465135574341 -1.2953048211387177 1.832799259816305 -2.108079572717184 -1.5708087126361292 1.199637532234192 0.0 -0.001185266999527812 -0.0014755057636648417 -0.0006618231418542564 0.0 5.734984370064922e-05 1 True False
7160.566 2.770415782928467 -1.2953078907779236 1.8326705137835901 -2.108119150201315 -1.5707891623126429 1.1996045112609863 0.0 -0.0001448026450816542 -0.0014168445486575365 -0.00019891044939868152 0.0 4.788045407622121e-05 1 True False
7160.616 2.7704081535339355 -1.2957348984530945 1.8320296446429651 -2.1074663601317347 -1.5707724730121058 1.1996747255325317 0.0 -0.022194216027855873 -0.03160049021244049 0.040123917162418365 0.0 3.3172920666402206e-05 1 True False
7160.665999999999 2.770427703857422 -1.2970808905414124 1.8295801321612757 -2.1031843624510707 -1.5707767645465296 1.1996331214904785 0.0 -0.039647843688726425 -0.0748087465763092 0.12165359407663345 0.0 2.0088378732907586e-05 1 True False
7160.715999999999 2.7704203128814697 -1.2998956006816407 1.8246009985553187 -2.0955363712706507 -1.570829216633932 1.1995927095413208 0.0 -0.06892230361700058 -0.11588644981384277 0.18660281598567963 0.0 1.110271552545002e-23 1 True False
7160.766 2.7704126834869385 -1.30408330381427 1.8173702398883265 -2.0842486820616664 -1.570756737385885 1.1996240615844727 -3.7311452615540475e-05 -0.09895528852939606 -0.1613435298204422 0.24825815856456757 0.0 1.6871633510470798e-42 1 True False
7160.816 2.7704529762268066 -1.3094129127315064 1.8081768194781702 -2.0696941814818324 -1.5707767645465296 1.1996583938598633 -5.885453550164232e-44 -0.11743216961622238 -0.2087131142616272 0.32518941164016724 0.0 0.0 1 True False
7160.866 2.7704203128814697 -1.316093848352768 1.7967656294452112 -2.0515037975706996 -1.5707686583148401 1.1996405124664307 0.0 -0.14366787672042847 -0.24691152572631836 0.3975845277309418 -0.00017133960500359535 1.1897247631509345e-09 1 True False
7160.915999999999 2.7704367637634277 -1.324069858794548 1.7830289045916956 -2.0299254856505335 -1.570813004170553 1.199579119682312 0.0 -0.1728000044822693 -0.29293784499168396 0.4703458249568939 -5.421553578344174e-05 1.8071943170151969e-28 1 True False
7160.965999999999 2.7703657150268555 -1.3332073253444214 1.7673042456256312 -2.0048724613585414 -1.5707562605487269 1.199600100517273 0.0 -0.1984109729528427 -0.3386583924293518 0.5266003012657166 1.6325733668054454e-05 0.0 1 True False
7161.016 2.7704365253448486 -1.3434087199023743 1.7495749632464808 -1.9772774181761683 -1.5708211104022425 1.1996612548828125 0.0 -0.19388507306575775 -0.34130850434303284 0.5355680584907532 8.665293681099765e-21 0.0 1 True False
7161.066 2.7704246044158936 -1.3523718875697632 1.7341011206256312 -1.9522634945311488 -1.5708335081683558 1.199694037437439 0.0 -0.16898223757743835 -0.29195788502693176 0.4586242437362671 1.3162592657188012e-39 0.0 1 True False
7161.116 2.7704529762268066 -1.3602794122746964 1.7203744093524378 -1.9308239422240199 -1.5707767645465296 1.199644923210144 0.0 -0.14719396829605103 -0.24533502757549286 0.38988906145095825 0.0 0.0 1 True False
7161.165999999999 2.7704246044158936 -1.3669158083251496 1.7091754118548792 -1.9129229984679164 -1.5708044211017054 1.1996164321899414 0.0 -0.11968941241502762 -0.20753414928913116 0.3375535011291504 0.0 0.0 1 True False
7161.215999999999 2.770399570465088 -1.372224585419037 1.7000086943255823 -1.8983622990050257 -1.570784870778219 1.1996909379959106 0.0 -0.09213262796401978 -0.16063882410526276 0.25363588333129883 0.0 0.0 1 True False
7161.266 2.7704124450683594 -1.3762954336455842 1.6930354277240198 -1.887521883050436 -1.5708048979388636 1.199644923210144 0.0 -0.06889447569847107 -0.11788632720708847 0.18445101380348206 0.0 0.0 1 True False
7161.316 2.7703754901885986 -1.3790625792792817 1.6881802717791956 -1.8799630604186 -1.570829216633932 1.1996821165084839 0.0 -0.04424922168254852 -0.07528702169656754 0.1289437711238861 0.0 0.0 1 True False
7161.366 2.7704246044158936 -1.3804316979697724 1.6857555548297327 -1.876077791253561 -1.5708335081683558 1.1996164321899414 0.0 -0.016315996646881104 -0.028460700064897537 0.043036941438913345 6.026670718028981e-08 0.0 1 True False
7161.415999999999 2.770399570465088 -1.3806825441173096 1.6853216330157679 -1.875402113000387 -1.5707891623126429 1.199637532234192 0.0 1.0325205895576813e-17 5.033652748093198e-12 -0.0005702807102352381 9.154529738003648e-27 0.0 1 False False
7161.465999999999 2.770432233810425 -1.3806588065675278 1.6853473822223108 -1.8753777943053187 -1.5708168188678187 1.199600100517273 0.0 0.0 1.1845175918937679e-41 8.271044498542324e-05 1.401298464324817e-45 0.0 1 False False
7161.516 2.7704074382781982 -1.3806490016034623 1.6852648893939417 -1.8753859005370082 -1.570784870778219 1.199607491493225 0.0 -0.0006566295051015913 -0.000562604982405901 0.0003514601557981223 0.0 0.0 1 False False
7161.566 2.77048921585083 -1.3807067436030884 1.6852691809283655 -1.8753100834288539 -1.5708211104022425 1.1996285915374756 0.0 -0.0011554270749911666 -0.000524503702763468 0.0010124697582796216 0.0 0.0 1 False False
7161.616 2.7704365253448486 -1.3807384085706254 1.6852496306048792 -1.8752662144102992 -1.5707767645465296 1.199637532234192 0.0 -0.00038200727431103587 -0.00035616866080090404 0.0004614556673914194 0.0 0.0 1 False False
7161.665999999999 2.770432233810425 -1.3807502102902909 1.6852119604693812 -1.8752504787840785 -1.570801083241598 1.1996657848358154 0.0 -0.00019575032638385892 -0.0002832930476870388 0.00017519042012281716 0.0 0.0 1 False False
7161.715999999999 2.770432233810425 -1.380745993261673 1.6852706114398401 -1.8752504787840785 -1.570784870778219 1.1996331214904785 0.0 -0.00011548720067366958 -0.00015083437028806657 0.00011285114305792376 0.0 0.0 1 False False
7161.766 2.770427942276001 -1.3807123464396973 1.6852377096759241 -1.8752104244627894 -1.5708487669574183 1.199637532234192 0.0 -9.3397444288712e-05 -0.00010089744318975136 7.794416887918487e-05 0.0 0.0 1 False False
7161.816 2.7704572677612305 -1.3807625037482758 1.685213867818014 -1.875230451623434 -1.5708048979388636 1.1996612548828125 0.0 -5.986735898758223e-28 -7.75857552071102e-05 1.499987485235489e-16 0.0 0.0 1 False False
7161.866 2.770423412322998 -1.3807210487178345 1.6852052847491663 -1.8752786121764125 -1.5707929770099085 1.1996866464614868 0.0 0.0 -1.263783522276185e-09 2.2784844339348782e-35 0.0 0.0 1 False False
7161.915999999999 2.770432233810425 -1.3807656478932877 1.685258690510885 -1.8752743206419886 -1.570801083241598 1.1996612548828125 0.0 -0.0 -2.973815982811626e-39 0.0 0.0 0.0 1 False False
7161.965999999999 2.7704038619995117 -1.3807459634593506 1.6852095762835901 -1.8752747974791468 -1.5707929770099085 1.199607491493225 0.0 0.0 -0.0 0.0 0.0 0.0 1 False False
7162.016 2.7704365253448486 -1.3807712209275742 1.6852253119098108 -1.875253816644186 -1.5708168188678187 1.1996331214904785 0.0 0.0 -0.0 0.0 0.0 0.0 1 False False
7162.066 2.7704038619995117 -1.3807372909835358 1.6852424780475062 -1.875242372552389 -1.570813004170553 1.1996568441390991 0.0 0.0 -0.0 0.0 0.0 0.0 1 False False
7162.116 2.7704694271087646 -1.3807667952826996 1.68518573442568 -1.8752786121764125 -1.5707891623126429 1.1996703147888184 0.0 0.0 -0.0 0.0 0.0 0.0 1 False False
7162.165999999999 2.7704648971557617 -1.3807952565005799 1.6851790587054651 -1.8752023182311 -1.5707891623126429 1.1996164321899414 0.0 0.0 -0.0 8.606595159609219e-22 0.0 0.0 1 False False
7162.215999999999 2.7704648971557617 -1.3807589274695893 1.685192886983053 -1.8752662144102992 -1.570801083241598 1.1996119022369385 0.0 0.0 -0.0 1.307341402291838e-40 0.0 0.0 1 False False
7162.266 2.770416021347046 -1.3807427150062104 1.685213867818014 -1.875282426873678 -1.5707686583148401 1.1996583938598633 0.0 0.0 -0.0 0.0 0.0 0.0 1 False False
7162.316 2.7704074382781982 -1.3807743352702637 1.6852095762835901 -1.8752309284605921 -1.570784870778219 1.1996405124664307 0.0 0.0 -0.0 0.0 0.0 0.0 1 False False
7162.366 2.7704203128814697 -1.3807087999633332 1.6852119604693812 -1.8753301105894984 -1.5707891623126429 1.1996361017227173 0.0 0.0 -0.0 0.0 0.0 0.0 1 True False
7162.415999999999 2.770432233810425 -1.380704478626587 1.6852052847491663 -1.8752662144102992 -1.5707605520831507 1.199649453163147 0.0 0.0 -0.0 0.0 0.0 0.00011697931040544063 1 True False
7162.465999999999 2.770493268966675 -1.3807174575379868 1.6852014700519007 -1.8752266369261683 -1.5707891623126429 1.1996119022369385 0.0 0.0 -0.0 0.0 0.0 4.487300248001702e-05 1 True False
7162.516 2.7704038619995117 -1.380766825085022 1.685213867818014 -1.8752385578551234 -1.570772949849264 1.1996612548828125 0.0 0.0 -0.0 0.0 0.0 2.7643087378237396e-05 1 True False
7162.566 2.77044415473938 -1.3807056707194825 1.6851838270770472 -1.8752581081786097 -1.5708087126361292 1.199637532234192 0.0 0.0 -0.0 0.0 0.0 1.9974162569269538e-05 1 True False
7162.616 2.7704484462738037 -1.3807132107070466 1.6851814428912562 -1.8752500019469203 -1.5707805792437952 1.199577808380127 0.0 0.0 -0.0 0.0 0.0 3.8503440925450895e-24 1 True False
7162.665999999999 2.770382881164551 -1.3806764048388978 1.6852005163775843 -1.8752786121764125 -1.5707891623126429 1.199644923210144 0.0 0.0 -0.0 0.0 0.0 5.843414596234487e-43 1 True False
7162.715999999999 2.770415782928467 -1.38077004373584 1.6851962248431605 -1.8752781353392542 -1.5707967917071741 1.1996285915374756 0.0 0.0 -0.0 0.0 0.0 0.0 1 True False
7162.766 2.770432233810425 -1.38079089046035 1.68524676958193 -1.8752829037108363 -1.5707929770099085 1.1996064186096191 0.0 0.0 -0.0 0.0 2.3205883395438498e-11 0.002326746704056859 1 True False
7162.816 2.7704620361328125 -1.3807711464217682 1.6851885954486292 -1.875286718408102 -1.5707605520831507 1.199644923210144 0.0 0.0 -0.0 0.0 3.524977291223233e-30 -2.2445152019542197e-13 1 True False
7162.866 2.77044415473938 -1.3807297360948105 1.6851962248431605 -1.8752581081786097 -1.57074481645693 1.199600100517273 0.0 0.0 -0.0 0.0 0.0 -0.00018120893219020218 1 True False
7162.915999999999 2.7704367637634277 -1.380778731112816 1.6852005163775843 -1.8752747974791468 -1.5708254019366663 1.1996241807937622 0.0 0.0 -0.0 0.0 0.0 -3.3155345410504263e-19 1 True False
7162.965999999999 2.770432233810425 -1.3807340425303956 1.6852496306048792 -1.8752623997130335 -1.5707886854754847 1.199633002281189 0.0 0.0 -0.0 0.0 0.0 -5.036302554024079e-38 1 True False
7163.016 2.771761417388916 -1.380693719988205 1.6851289908038538 -1.8753024540343226 -1.5707967917071741 1.2008808851242065 0.05951488018035889 0.002413508715108037 -0.006862308830022812 -1.160623330775934e-08 0.0 0.06073924899101257 1 True False
7163.066 2.776465892791748 -1.3803414714387436 1.6846326033221644 -1.8752347431578578 -1.570784870778219 1.2057071924209595 0.13452139496803284 0.01050530094653368 -0.013360203243792057 0.003488922957330942 0.0 0.12829552590847015 1 True False
7163.116 2.784844160079956 -1.3797592681697388 1.6838105360614222 -1.874892374078268 -1.5708168188678187 1.213996410369873 0.1972174197435379 0.013916890136897564 -0.018824635073542595 0.0037846805062144995 0.0 0.19866874814033508 1 True False
7163.165999999999 2.7965803146362305 -1.3789717865041276 1.6826942602740687 -1.8746100864806117 -1.5707767645465296 1.2257977724075317 0.26810866594314575 0.020217906683683395 -0.02595921978354454 0.007624582387506962 3.277909854659811e-05 0.26772528886795044 1 True False
7163.215999999999 2.8118362426757812 -1.3777432602695008 1.6812461058246058 -1.87426819423818 -1.5707886854754847 1.2410365343093872 0.3374263346195221 0.02659810148179531 -0.03244667500257492 0.006983059924095869 3.3850334148155525e-05 0.3358781635761261 1 True False
7163.266 2.830617666244507 -1.3763922315886994 1.6795132795916956 -1.8737989864745082 -1.5707767645465296 1.2597603797912598 0.4085337817668915 0.02964882366359234 -0.04153032600879669 0.00931554939597845 1.6082027376462804e-10 0.4101894795894623 1 True False
7163.316 2.8527719974517822 -1.3746920687011261 1.6772382895099085 -1.8734294376769007 -1.5707925001727503 1.2820721864700317 0.48014435172080994 0.03707008436322212 -0.04618982598185539 0.009648042730987072 2.4428629326924145e-29 0.47668004035949707 1 True False
7163.366 2.8785321712493896 -1.372791365986206 1.674722973500387 -1.8728534183897914 -1.5707972685443323 1.3076984882354736 0.5460243225097656 0.04078563675284386 -0.05325529724359512 0.008708733133971691 0.0 0.5475249290466309 1 True False
7163.415999999999 2.9078285694122314 -1.3706207287362595 1.6720808188067835 -1.8721381626524867 -1.5708211104022425 1.33694326877594 0.6192203164100647 0.0434371642768383 -0.05714842304587364 0.01445867121219635 0.0 0.6205804944038391 1 True False
7163.465999999999 2.9404995441436768 -1.3683200490525742 1.6688006559955042 -1.8714453182616175 -1.5707529226886194 1.3696415424346924 0.6901013255119324 0.049830205738544464 -0.06800572574138641 0.018746905028820038 -2.9681359592359513e-08 0.6880689859390259 1 True False
7163.516 2.9766886234283447 -1.365612418656685 1.665415112172262 -1.8705154858031214 -1.5708373228656214 1.4059802293777466 0.7612608075141907 0.05680318549275398 -0.07017397880554199 0.021202143281698227 0.00029015628388151526 0.7551378011703491 1 True False
7163.566 3.0163660049438477 -1.3626980793527146 1.6613505522357386 -1.8696848354735316 -1.5707891623126429 1.4455959796905518 0.826323390007019 0.06070230156183243 -0.08002164959907532 0.0203410517424345 5.132876971705395e-18 0.8231961131095886 1 True False
7163.616 3.059478998184204 -1.3594941657832642 1.6573265234576624 -1.868638654748434 -1.5707925001727503 1.4887064695358276 0.89405757188797 0.06841346621513367 -0.08743921667337418 0.020874464884400368 -0.00027848538593389094 0.900162398815155 1 True False
7163.665999999999 3.1061248779296875 -1.356168658738472 1.6528061071978968 -1.8676172695555628 -1.5707529226886194 1.535459041595459 0.9701659679412842 0.07264777272939682 -0.09139338880777359 0.02618183009326458 7.569439185317606e-05 0.9679698348045349 1 True False
7163.715999999999 3.1563961505889893 -1.3523500573686142 1.6480463186847132 -1.8663283787169398 -1.5708335081683558 1.5855295658111572 1.0339428186416626 0.07531226426362991 -0.10613247007131577 0.01924200728535652 8.15499917574984e-21 1.0421476364135742 1 True False
7163.766 3.208639621734619 -1.3484706443599244 1.6430466810809534 -1.8652202091612757 -1.5707805792437952 1.6378847360610962 1.0447349548339844 0.08140267431735992 -0.10407591611146927 0.023842457681894302 1.238746441164674e-39 1.0448644161224365 1 True False
7163.816 3.2609899044036865 -1.3446279627135773 1.637918774281637 -1.864138742486471 -1.5707767645465296 1.6902797222137451 1.0524173974990845 0.0746687725186348 -0.09992337226867676 0.02443443424999714 2.782355248975854e-11 1.044864296913147 1 True False
7163.866 3.3132822513580322 -1.340762512092926 1.6328070799456995 -1.8628860912718714 -1.5707529226886194 1.7426337003707886 1.044577956199646 0.07522226870059967 -0.10380744189023972 0.02120172418653965 4.2264051147091794e-30 1.047433853149414 1 True False
7163.915999999999 3.365719795227051 -1.3369123202613373 1.6277383009540003 -1.8616377315916957 -1.5707925001727503 1.7949609756469727 1.0474884510040283 0.07946651428937912 -0.10306577384471893 0.024056484922766685 0.0 1.047348976135254 1 True False
7163.965999999999 3.4180989265441895 -1.333141492014267 1.6227462927447718 -1.8603979549803675 -1.5707405249225062 1.84738028049469 1.0482560396194458 0.07713325321674347 -0.0991494432091713 0.027398165315389633 0.0 1.049033761024475 1 True False
7164.016 3.4704432487487793 -1.329297201042511 1.617753807698385 -1.8592640362181605 -1.5707772413836878 1.8995623588562012 1.0454338788986206 0.07381215691566467 -0.09619907289743423 0.022404257208108902 -6.749286108059945e-16 1.0535075664520264 1 True False
7164.066 3.522895097732544 -1.3254139137319108 1.6126654783831995 -1.858163972894186 -1.5708168188678187 1.9520045518875122 1.044776439666748 0.08051225543022156 -0.10269638895988464 0.019698984920978546 -1.0252176147686056e-34 1.042506456375122 1 True False
7164.116 3.5751864910125732 -1.3215563011220475 1.6077459494220179 -1.8568231068053187 -1.5708048979388636 2.0044546127319336 1.0508215427398682 0.07946547865867615 -0.10418155044317245 0.02541765198111534 -0.0 1.0438321828842163 1 True False
7164.165999999999 3.627554416656494 -1.3177186113647004 1.6026867071734827 -1.8557301960387171 -1.5707362333880823 2.0567476749420166 1.047695517539978 0.07898935675621033 -0.09761503338813782 0.027868252247571945 -0.0 1.0499796867370605 1 True False
7164.215999999999 3.6799683570861816 -1.3138451439193268 1.5974400679217737 -1.8544937572874964 -1.570829216633932 2.10908842086792 1.044752836227417 0.07520708441734314 -0.10053294897079468 0.023475229740142822 -0.0 1.0438237190246582 1 True False
7164.266 3.732329845428467 -1.3099068862250824 1.5925152937518519 -1.8532372913756312 -1.5707805792437952 2.1615285873413086 1.047367811203003 0.0745164006948471 -0.10467246174812317 0.022125182673335075 -0.0 1.0452988147735596 1 True False
7164.316 3.7845935821533203 -1.306093083029129 1.587548557912008 -1.8520127735533656 -1.5707486311541956 2.2137832641601562 1.046615719795227 0.07616651803255081 -0.10080050677061081 0.024289168417453766 -0.0 1.0550634860992432 1 True False
7164.366 3.836991310119629 -1.3023536068252106 1.58240253130068 -1.8509799442686976 -1.5708168188678187 2.2661490440368652 1.044542908668518 0.0780516117811203 -0.10236641019582748 0.02494928613305092 -0.0 1.0417040586471558 1 True False
7164.415999999999 3.8893117904663086 -1.2984953087619324 1.577324692402975 -1.8497387371458949 -1.5708006064044397 2.3186724185943604 1.047810435295105 0.0749792829155922 -0.10243882238864899 0.020924771204590797 -0.0 1.0464887619018555 1 True False
7164.465999999999 3.941654682159424 -1.2946786445430298 1.5723708311664026 -1.848558088342184 -1.570784870778219 2.3709278106689453 1.0444482564926147 0.07590258121490479 -0.10295593738555908 0.023232407867908478 -0.0 1.048482060432434 1 True False
7164.516 3.9941494464874268 -1.2907356184772034 1.567249600087301 -1.8472610912718714 -1.5708335081683558 2.4232242107391357 1.044205665588379 0.08139613270759583 -0.09808656573295593 0.02647397480905056 0.00017793480947148055 1.04592764377594 1 True False
7164.566 4.046458721160889 -1.2869468492320557 1.5620668570147913 -1.846077104608053 -1.5707929770099085 2.475677251815796 1.0481531620025635 0.07449284195899963 -0.09726522117853165 0.024019809439778328 -1.9834426723264187e-07 1.0474299192428589 1 True False
7164.616 4.098657608032227 -1.2829485398582001 1.5571334997760218 -1.8449365101256312 -1.570772949849264 2.5279622077941895 1.0506294965744019 0.07686633616685867 -0.10052046179771423 0.02330043353140354 -3.0128548552238116e-26 1.0547529458999634 1 True False
7164.665999999999 4.151138782501221 -1.2790790063193818 1.552098576222555 -1.8437954388060511 -1.5707767645465296 2.5802767276763916 1.0422968864440918 0.07804238796234131 -0.10465706139802933 0.022877655923366547 1.993901378227747e-06 1.042860746383667 1 True False
7164.715999999999 4.203507900238037 -1.2753821772388 1.5471156279193323 -1.8424955807127894 -1.5707648436175745 2.632835626602173 1.0479048490524292 0.07692649215459824 -0.099139504134655 0.026415986940264702 3.0287404800729415e-25 1.042622685432434 1 True False
7164.766 4.255835056304932 -1.271552638416626 1.5420478026019495 -1.8414465389647425 -1.5708220640765589 2.6850647926330566 1.0486125946044922 0.07441103458404541 -0.09719427675008774 0.025574902072548866 4.624284932271896e-44 1.0482984781265259 1 True False
7164.816 4.3082756996154785 -1.2676026386073609 1.5369699637042444 -1.840114255944723 -1.570784870778219 2.737384080886841 1.043776035308838 0.07441461831331253 -0.10306605696678162 0.022476937621831894 1.5156016641153952e-15 1.0419403314590454 1 True False
7164.866 4.360626220703125 -1.2638579469970246 1.5318611303912562 -1.8387896023192347 -1.570784870778219 2.789930582046509 1.0494972467422485 0.07811716943979263 -0.10137823969125748 0.024029061198234558 3.1478191906374187e-13 1.0450791120529175 1 True False
7164.915999999999 4.41283655166626 -1.2599798005870362 1.526881519948141 -1.8377281628050746 -1.5707853476153772 2.8419318199157715 1.0281214714050293 0.07478504627943039 -0.09747271239757538 0.025634562596678734 0.0005645985947921872 1.037329077720642 1 True False
7164.965999999999 4.462521553039551 -1.256289617424347 1.5220964590655726 -1.836675306359762 -1.5708048979388636 2.8917465209960938 0.9569469690322876 0.06895365566015244 -0.09541443735361099 0.02283848635852337 5.783716119367455e-07 0.9535708427429199 1 True False
7165.016 4.508800506591797 -1.2527770561030884 1.5177400747882288 -1.8354817829527796 -1.570784870778219 2.938056707382202 0.8953036069869995 0.06434182077646255 -0.08845443278551102 0.019058413803577423 -3.0011241847205383e-07 0.8952492475509644 1 True False
7165.066 4.551626205444336 -1.2496889990619202 1.5135605970965784 -1.8346559009947718 -1.5707967917071741 2.980956792831421 0.8233718276023865 0.05722727254033089 -0.07758405804634094 0.021870870143175125 -4.558715005112266e-26 0.8177961707115173 1 True False
7165.116 4.59083890914917 -1.2467770737460633 1.5097177664386194 -1.833705564538473 -1.570780102406637 3.0198261737823486 0.7511669993400574 0.05539481341838837 -0.07659897953271866 0.01507765706628561 -6.187400867929682e-05 0.7546407580375671 1 True False
7165.165999999999 4.626680374145508 -1.2441751521876832 1.5063689390765589 -1.8327871761717738 -1.5707410017596644 3.055804967880249 0.682303786277771 0.049305349588394165 -0.0629565566778183 0.019538655877113342 -3.248845947596694e-18 0.690477728843689 1 True False
7165.215999999999 4.658981800079346 -1.2418311399272461 1.503080193196432 -1.8321310482420863 -1.5707772413836878 3.0880515575408936 0.614435613155365 0.043793611228466034 -0.06269511580467224 0.01677020452916622 3.9475999074056745e-05 0.6261672973632812 1 True False
7165.266 4.687845230102539 -1.239740715628006 1.5004079977618616 -1.8314882717528285 -1.570784870778219 3.1169328689575195 0.5444868206977844 0.040496740490198135 -0.04691430926322937 0.011490712873637676 1.4113080495925523e-11 0.5485624670982361 1 True False
7165.316 4.712959289550781 -1.237887666826584 1.4979332129107874 -1.830947061578268 -1.5708087126361292 3.1422173976898193 0.47248050570487976 0.035258568823337555 -0.05026264488697052 0.011203259229660034 4.5401200160499755e-11 0.4747377932071686 1 True False
7165.366 4.73487663269043 -1.2362550061992188 1.4958542029010218 -1.8303853474059046 -1.570780102406637 3.164215326309204 0.40092793107032776 0.029293492436408997 -0.037640202790498734 0.007304600439965725 -0.00015480752335861325 0.40151527523994446 1 True False
7165.415999999999 4.753303050994873 -1.2349326771548768 1.494162384663717 -1.8299604854979457 -1.5708254019366663 3.182482957839966 0.3320562541484833 0.02533729188144207 -0.030994165688753128 0.007588149979710579 -3.458272840362042e-05 0.3323608934879303 1 True False
7165.465999999999 4.768245220184326 -1.233816460972168 1.4927566687213343 -1.829634805718893 -1.5708254019366663 3.1973445415496826 0.26376214623451233 0.018950412049889565 -0.02668791078031063 0.006449595093727112 -1.766516470524948e-05 0.26064950227737427 1 True False
7165.516 4.779494762420654 -1.2330184143832703 1.4916160742389124 -1.8294197521605433 -1.570784870778219 3.2086222171783447 0.1932329386472702 0.014842173084616661 -0.019222304224967957 0.007489899639040232 -1.2734128176816739e-05 0.20878711342811584 1 True False
7165.566 4.787240505218506 -1.2324648660472413 1.490732494984762 -1.829217096368307 -1.570784870778219 3.2165486812591553 0.1259244829416275 0.008477255702018738 -0.012586347758769989 0.0027684092056006193 -8.066948666137982e-14 0.12339744716882706 1 True False
7165.616 4.791709899902344 -1.2321642202189942 1.4904182592975062 -1.829125543633932 -1.5708125273333948 3.2209413051605225 0.05550297722220421 0.002745556877925992 -0.0030518712010234594 0.0009284905972890556 -1.2253715312168372e-32 0.053254805505275726 1 True False
7165.665999999999 4.792655944824219 -1.2320157450488587 1.490434471760885 -1.8292046986021937 -1.5707767645465296 3.221867084503174 0.002060492057353258 0.011388094164431095 0.009357325732707977 -0.013951499946415424 0.0014444380067288876 -0.0006937741418369114 1 True False
7165.715999999999 4.792660236358643 -1.2309834522059937 1.4919379393206995 -1.8316189251341761 -1.5708087126361292 3.221886396408081 0.0004051256983075291 0.03160198777914047 0.055124763399362564 -0.08667579293251038 -3.822776488959789e-05 0.0003602831857278943 1 True False
7165.766 4.792628288269043 -1.2289640468410035 1.4957597891436976 -1.8378735981383265 -1.5707805792437952 3.2218821048736572 0.0006455945549532771 0.05254559591412544 0.10425297915935516 -0.14693227410316467 -1.8537535652285442e-05 0.0006201902288012207 1 True False
7165.816 4.792729377746582 -1.2258195143989106 1.502319637929098 -1.847527643243307 -1.570829216633932 3.221890449523926 0.0010031231213361025 0.0763498991727829 0.1513218879699707 -0.22464527189731598 -1.223627168656094e-05 0.00028883886989206076 1 True False
7165.866 4.792701244354248 -1.2212373179248353 1.5111849943744105 -1.860459943810934 -1.5708168188678187 3.221886157989502 0.0008118823752738535 0.10014724731445312 0.1967615932226181 -0.2888599634170532 -6.144089577386769e-12 0.00014449712762143463 1 True False
7165.915999999999 4.7927165031433105 -1.2157958310893555 1.5221179167376917 -1.877209802667135 -1.570853058491842 3.221968412399292 0.00021581062173936516 0.12079229205846786 0.24264994263648987 -0.3724135458469391 -9.332890060500469e-31 9.621868230169639e-05 1 True False
7165.965999999999 4.792666435241699 -1.2090169054320832 1.535445515309469 -1.8972474537291468 -1.570784870778219 3.2219152450561523 0.00012594445433933288 0.1451278030872345 0.28810203075408936 -0.43748220801353455 -0.0 5.629801746315222e-12 1 True False
7166.016 4.792736053466797 -1.2010597747615357 1.5511367956744593 -1.9206348858275355 -1.5708125273333948 3.221935749053955 9.597231110092252e-05 0.17121939361095428 0.3348727822303772 -0.5088396072387695 -0.0 8.551682846017435e-31 1 True False
7166.066 4.79268741607666 -1.192049042587616 1.5686972776996058 -1.9474336109557093 -1.5707805792437952 3.221935749053955 1.997078847707884e-23 0.1819639354944229 0.3516516387462616 -0.5222508907318115 -0.0 0.0 1 True False
7166.116 4.792715549468994 -1.1836460393718262 1.5849688688861292 -1.9722076855101527 -1.570784870778219 3.2219066619873047 4.0300328691955656e-05 0.14945882558822632 0.2991648018360138 -0.46799400448799133 -0.0 0.0 1 True False
7166.165999999999 4.792748928070068 -1.1765869718841095 1.5990403334247034 -1.9932338200011195 -1.5707648436175745 3.2219066619873047 0.0 0.1307365745306015 0.2586875855922699 -0.3904438316822052 1.2767178304784466e-05 0.0 1 True False
7166.215999999999 4.792691707611084 -1.1706088346293946 1.610772434865133 -2.0110966167845667 -1.5708048979388636 3.2219390869140625 0.0 0.10885415971279144 0.21191686391830444 -0.32239076495170593 7.040585156819341e-24 0.0 1 True False
7166.266 4.79271125793457 -1.1658284229091187 1.6201279799090784 -2.025299688378805 -1.5707805792437952 3.2219033241271973 0.0 0.08855262398719788 0.1662888079881668 -0.23820389807224274 1.0691907282798354e-42 2.7147390077632565e-16 1 True False
7166.316 4.792737007141113 -1.1621987086585541 1.6271613279925745 -2.036175390283102 -1.5707686583148401 3.2219607830047607 0.0 0.060474418103694916 0.1196209192276001 -0.18101325631141663 0.0 4.123694162743013e-35 1 True False
7166.366 4.792707920074463 -1.159587339763977 1.632235352193014 -2.0432454548277796 -1.570824925099508 3.2219033241271973 0.0 0.039874423295259476 0.07032573223114014 -0.10817836225032806 0.0 0.0 1 True False
7166.415999999999 4.7927165031433105 -1.1584134262851258 1.6346481482135218 -2.04705872158193 -1.5707772413836878 3.221912145614624 0.0 0.013555867597460747 0.029009459540247917 -0.04882442206144333 0.0 0.0 1 True False
7166.465999999999 4.792757034301758 -1.1583180588534852 1.634960953389303 -2.0476800403990687 -1.570813004170553 3.2219152450561523 0.0 -0.0015548643423244357 -0.0006024890462867916 0.0003360440896358341 0.0 0.0 1 True False
7166.516 4.792649745941162 -1.1582698386958619 1.6349847952472132 -2.0476843319334925 -1.570801083241598 3.221912145614624 0.0 0.00012200621131341904 8.037977386265993e-05 8.166419138433412e-05 0.0 0.0 1 True False
7166.566 4.792684078216553 -1.158244566326477 1.6350086371051233 -2.0476604900755824 -1.5707772413836878 3.2219033241271973 0.0 0.00013384759949985892 0.00014545652084052563 -1.575988244439941e-05 0.0 0.0 1 True False
7166.616 4.792728424072266 -1.1581917864135285 1.6350329558001917 -2.047692438165182 -1.5707805792437952 3.2219433784484863 0.0 0.0004939625505357981 0.000380552199203521 -1.0961151929222979e-05 0.0 0.0 1 True False
7166.665999999999 4.792667388916016 -1.1582142871669312 1.6350982824908655 -2.047648092309469 -1.5707925001727503 3.2219607830047607 6.96487471636933e-19 0.0005949377664364874 0.0001547038700664416 -2.4542144785573218e-18 0.0 0.0 1 True False
7166.715999999999 4.7927327156066895 -1.1582432252219697 1.6350448767291468 -2.0476604900755824 -1.5707925001727503 3.221935749053955 0.0 0.00019878694729413837 0.000164247234351933 -3.727957485720153e-37 0.0 -4.4581365643410906e-17 1 True False
7166.766 4.792675495147705 -1.1581515830806275 1.635050121937887 -2.0476442776122035 -1.5707767645465296 3.221874713897705 0.0 0.00015911388618405908 0.00013842424959875643 -0.0 0.0 -6.771919353168095e-36 1 True False
7166.816 4.792725086212158 -1.1582387548736115 1.6350935141192835 -2.0476604900755824 -1.5708048979388636 3.2219433784484863 0.0 0.0001351308892481029 0.00010601661779219285 -0.0 0.0 -0.0 1 True False
7166.866 4.792691707611084 -1.1582415264895936 1.6350730101214808 -2.047648092309469 -1.5707362333880823 3.221924066543579 0.0 0.00010026124800788239 8.296521991724148e-05 -0.0 0.0 -0.0 1 True False
7166.915999999999 4.7927327156066895 -1.1582551461509247 1.6350696722613733 -2.047664304772848 -1.5707805792437952 3.2218735218048096 0.0 6.84767437633127e-05 2.864729947701823e-17 -0.0 0.0 -0.0 1 True False
7166.965999999999 4.7926716804504395 -1.1581934255412598 1.6350329558001917 -2.047704359094137 -1.5708335081683558 3.221935749053955 0.0 1.586215250834342e-31 2.683572253303623e-10 -0.0 0.0 -0.0 1 True False
7167.016 4.7927656173706055 -1.158197895889618 1.6351097265826624 -2.0476442776122035 -1.5707724730121058 3.2218832969665527 0.0 0.0 6.314727321725496e-40 -0.0 0.0 -0.0 1 True False
7167.066 4.792663097381592 -1.1581934255412598 1.6350978056537073 -2.0476719341673792 -1.5708048979388636 3.2219271659851074 0.0 8.453549665832227e-11 0.0 -1.6674314706754956e-11 0.0 -0.0 1 True False
7167.116 4.792725086212158 -1.1581620436957856 1.6350567976581019 -2.047676225701803 -1.570801083241598 3.2218422889709473 0.0 0.0 0.0 -2.532830718790226e-30 0.0 -0.0 1 True False
7167.165999999999 4.7927069664001465 -1.1581962567618866 1.6350763479815882 -2.047676225701803 -1.5707805792437952 3.2219314575195312 0.0 0.0 0.0 -0.0 0.0 -0.0 1 True False
7167.215999999999 4.792696952819824 -1.1581561726382752 1.6351097265826624 -2.047636171380514 -1.5707891623126429 3.2219152450561523 0.0 0.0 0.0 -0.0 0.0 -0.0 1 True False
7167.266 4.792720794677734 -1.158231334095337 1.6350773016559046 -2.047676225701803 -1.5707967917071741 3.221890926361084 0.0 0.0 0.0 -0.0 0.0 -0.0 1 True False
7167.316 4.7927446365356445 -1.1581634742072602 1.6350730101214808 -2.047688146630758 -1.5708335081683558 3.221970558166504 -2.5966498035426798e-15 -4.005009031970985e-05 1.4271473780524957e-08 -5.934031719334598e-07 1.3115113688400015e-05 -0.0 1 True False
7167.366 4.792708873748779 -1.1581770342639466 1.635096851979391 -2.0477124653258265 -1.5707805792437952 3.2219271659851074 3.7537753087235615e-05 9.906104581187226e-17 6.623224908253178e-05 -9.013810048835841e-26 -0.00041842946666292846 -0.0001501780207036063 1 True False
7167.415999999999 4.7926716804504395 -1.1581515830806275 1.6350815931903284 -2.047676225701803 -1.570813004170553 3.221919536590576 1.8285272744833492e-05 0.0 1.7248377844225615e-05 -1.401298464324817e-44 -3.5483466831465194e-07 -7.350082887569442e-05 1 True False
7167.465999999999 4.792720794677734 -1.158243255024292 1.6350935141192835 -2.047688146630758 -1.5707686583148401 3.2219109535217285 1.2126185538363643e-05 0.0 1.1661145435937215e-05 -0.0 -5.389946985407379e-26 -6.066144851502031e-05 1 False False
7167.516 4.792728424072266 -1.1582566064647217 1.635096851979391 -2.047676225701803 -1.5707605520831507 3.2219066619873047 8.046060640182439e-23 0.0 1.1819609622164355e-19 -0.0 -8.407790785948902e-45 -3.343880283779299e-09 1 False False
7167.566 4.792737007141113 -1.158167914753296 1.635096851979391 -2.0476843319334925 -1.570801083241598 3.2219314575195312 0.0 0.0 0.0 -0.0 -0.0 -5.079359042549454e-28 1 False False
7167.616 4.792719841003418 -1.15815623224292 1.635064427052633 -2.047652383843893 -1.5707686583148401 3.221935749053955 0.0 0.0 0.0 -0.0 -0.0 -0.0001720377040328458 1 False False
7167.665999999999 4.7927045822143555 -1.1581978660872956 1.6350567976581019 -2.0476399860777796 -1.5707843939410608 3.2218821048736572 0.0 0.0 2.577706618467346e-05 -0.0 -0.0 -2.6822996063014685e-19 1 False False
7167.715999999999 4.7927327156066895 -1.1581934255412598 1.635092560444967 -2.0476604900755824 -1.570784870778219 3.2219433784484863 0.0 0.0 2.644231342757343e-32 -0.0 -0.0 -4.074419899025924e-38 1 False False
7167.766 4.792657852172852 -1.1581815046123047 1.635068718587057 -2.047652383843893 -1.5707767645465296 3.221940279006958 0.0 0.0 0.0 -0.0 -0.0 -0.0 1 False False
7167.816 4.792724132537842 -1.1581770044616242 1.6351335684405726 -2.0477167568602503 -1.570801083241598 3.2219650745391846 0.0 0.0 0.0 -0.0 -0.0 -0.0 1 False False
7167.866 4.792728424072266 -1.1582133036902924 1.635080639516012 -2.047648092309469 -1.5707886854754847 3.2218821048736572 0.0 0.0 0.0 -0.0 -0.0 -0.0 1 False False
7167.915999999999 4.792724132537842 -1.1581934255412598 1.6351011435138147 -2.0476719341673792 -1.5707886854754847 3.2219314575195312 0.0 0.0 0.0 -0.0 -0.0 -0.0 1 False False
7167.965999999999 4.792662620544434 -1.1581562024405976 1.6351216475116175 -2.04763187984609 -1.5708416144000452 3.2218821048736572 0.0 0.0 0.0 -0.0 -0.0 4.645841909223236e-05 1 False False
7168.016 4.792749404907227 -1.1582023364356537 1.6350849310504358 -2.0477129421629847 -1.5707891623126429 3.221935749053955 0.0 0.0 0.0 -0.0 -0.0 2.0278599549783394e-05 1 False False
7168.066 4.792712211608887 -1.158185974960663 1.6350448767291468 -2.047688146630758 -1.5707648436175745 3.2218990325927734 0.0 0.0 0.0 -0.0 -0.0 1.2971334399480838e-05 1 False False
7168.116 4.7927374839782715 -1.1582097870162507 1.635080639516012 -2.0476561985411585 -1.5707686583148401 3.2218821048736572 0.0 0.0 0.0 -0.0 -0.0 9.709546944236536e-09 1 False False
7168.165999999999 4.7926836013793945 -1.1581695836833497 1.63511830965151 -2.0476800403990687 -1.570784870778219 3.2218832969665527 0.0 -2.6174736156813365e-24 0.0 -0.0 -0.0 -0.00019663736748043448 1 False False
7168.215999999999 4.792675018310547 -1.158209816818573 1.635080639516012 -2.047659536401266 -1.5707805792437952 3.221919536590576 0.0 -8.532960579440974e-13 0.0 -0.0 -0.0 -0.0006193924928084016 1 False False
7168.266 4.792700290679932 -1.1582268935493012 1.635096851979391 -2.0477048359312953 -1.5708087126361292 3.2219033241271973 0.0 0.0 0.0 -0.0 -0.0 -9.914845577441156e-05 1 False False
7168.316 4.792728424072266 -1.158218727712967 1.6350939909564417 -2.047720571557516 -1.570801083241598 3.2219271659851074 0.0 0.0 0.0 -0.0 -0.0 -1.5060673656102645e-23 1 False False
7168.366 4.792740345001221 -1.1581605535796662 1.6350773016559046 -2.04772486309194 -1.5707648436175745 3.2218573093414307 0.0 0.0 0.0 -0.0 -0.0 -2.2883203922424263e-42 1 False False
7168.415999999999 4.792724132537842 -1.1585588914207001 1.6342900435077112 -2.0463997326292933 -1.5707405249225062 3.221870183944702 0.0 -0.019215943291783333 -0.04035162180662155 0.06122400239109993 -0.0 -0.0 1 False False
7168.465999999999 4.792651176452637 -1.1601156455329438 1.631228272114889 -2.041679998437399 -1.5708254019366663 3.221935749053955 0.0 -0.04267042502760887 -0.07896793633699417 0.12530918419361115 -0.0 -0.0 1 False False
7168.516 4.792725563049316 -1.162877694969513 1.6255372206317347 -2.0335074863829554 -1.5708168188678187 3.221890926361084 0.0 -0.07046069949865341 -0.13481023907661438 0.19450674951076508 -0.0 -0.0 1 False False
7168.566 4.79265832901001 -1.1668740969947358 1.6178205649005335 -2.0215846500792445 -1.570756737385885 3.2219152450561523 8.331874327252653e-18 -0.0888342633843422 -0.17132356762886047 0.2620513141155243 -0.0 -0.0 1 False False
7168.616 4.792703151702881 -1.1721421343139191 1.6077960173236292 -2.0065304241576136 -1.5707648436175745 3.221890449523926 0.0 -0.11490167677402496 -0.22673703730106354 0.3352942168712616 -0.0 -0.0 1 False False
7168.665999999999 4.792660236358643 -1.1783528488925477 1.5953124205218714 -1.987699647943014 -1.5707925001727503 3.221886157989502 0.0 -0.13966679573059082 -0.27202901244163513 0.4015420079231262 -0.0 -0.0 1 False False
7168.715999999999 4.792749404907227 -1.185919926767685 1.5805824438678187 -1.9655353031554164 -1.5707767645465296 3.2218990325927734 0.0 -0.15936584770679474 -0.31767767667770386 0.4784660339355469 -0.0 -0.0 1 False False
7168.766 4.7927093505859375 -1.1946543020061036 1.5634387175189417 -1.939982076684469 -1.5708044211017054 3.221924066543579 0.0 -0.18575286865234375 -0.36616167426109314 0.5536482930183411 -0.0 -0.0 1 False False
7168.816 4.792719841003418 -1.2033021611026307 1.5465062300311487 -1.9138270817198695 -1.5708335081683558 3.2218990325927734 0.0 -0.16167838871479034 -0.31762126088142395 0.4948761463165283 -0.0 -0.0 1 False False
7168.866 4.792691230773926 -1.2110245090774079 1.5313904921161097 -1.8912197552123011 -1.5708091894732874 3.2219271659851074 0.0 -0.1457468420267105 -0.2837984263896942 0.4140138626098633 -0.0 -0.0 1 False False
7168.915999999999 4.792770862579346 -1.2174540621093293 1.5189960638629358 -1.8720933399596156 -1.5708048979388636 3.221919536590576 0.0 -0.1155298501253128 -0.2319215089082718 0.3578091859817505 -0.0 -0.0 1 False False
7168.965999999999 4.792721271514893 -1.2227543753436585 1.5085051695453089 -1.856516023675436 -1.5707805792437952 3.2218947410583496 0.0 -0.08997086435556412 -0.18382413685321808 0.2782483696937561 -0.0 -0.0 1 False False
7169.016 4.792721271514893 -1.226774052982666 1.5004575888263147 -1.844442983666891 -1.570784870778219 3.2219314575195312 0.0 -0.07037303596735 -0.1387801617383957 0.21397380530834198 -0.0 -0.0 1 False False
7169.066 4.792724132537842 -1.229560987358429 1.4948928991900843 -1.8357864818968714 -1.570829216633932 3.221890449523926 0.0 -0.04809655621647835 -0.09169595688581467 0.13202372193336487 -0.0 -0.0 1 False False
7169.116 4.792745113372803 -1.2313810747912903 1.4915755430804651 -1.830595155755514 -1.5707648436175745 3.221886157989502 0.0 -0.02287060022354126 -0.04457005485892296 0.06502404808998108 -0.0 -0.0 1 False False
7169.165999999999 4.792648792266846 -1.2319572132876893 1.4903267065631312 -1.8291403255858363 -1.5707891623126429 3.221963882446289 0.0 -0.00042970632784999907 0.00105156353674829 -0.003494666423648596 -0.0 -0.0 1 False False
7169.215999999999 4.792703151702881 -1.2319154304317017 1.4903267065631312 -1.8291450939574183 -1.5707767645465296 3.2219314575195312 0.0 3.0313675181137256e-11 -0.0006134430877864361 -3.34864218657392e-18 -0.0 -0.0 1 False False
7169.266 4.792624473571777 -1.231961653833725 1.4903505484210413 -1.8291694126524867 -1.570829216633932 3.2219271659851074 0.0 0.0 -0.0013084356905892491 0.0005953612853772938 -0.0 -0.0 1 False False
7169.316 4.792675971984863 -1.2319079500487824 1.4903062025653284 -1.8291503391661585 -1.5707767645465296 3.2219433784484863 0.0 -0.00029303267365321517 -0.00028992348234169185 0.0010250672930851579 -0.0 -0.0 1 False False
7169.366 4.792695999145508 -1.2319861215404053 1.490269962941305 -1.829062124291891 -1.5708087126361292 3.2219271659851074 0.0 -0.00039075524546206 -0.0004353501135483384 0.0007385925273410976 -0.0 -0.0 1 False False
7169.415999999999 4.792691230773926 -1.2319936019233246 1.490253750477926 -1.829090257684225 -1.5708087126361292 3.2219228744506836 0.0 -0.00033041503047570586 -0.00030198469175957143 0.00024148037482518703 -0.0 -0.0 1 False False
7169.465999999999 4.792721271514893 -1.23197095215831 1.4902914206134241 -1.8290659389891566 -1.5708335081683558 3.2218947410583496 0.0 -0.0002578088315203786 -0.00016788832726888359 9.951375250238925e-05 -0.0 -0.0 1 False False
7169.516 4.792721271514893 -1.2319601339152833 1.4902837912188929 -1.8290821514525355 -1.5707925001727503 3.2219390869140625 0.0 -0.0001230111374752596 -0.00010605958959786221 6.408258923329413e-05 -0.0 -0.0 1 False False
7169.566 4.792782306671143 -1.2319635611823578 1.4902294317828577 -1.82902254680776 -1.570801083241598 3.22194766998291 0.0 -0.0001023028526105918 -1.7118516382197413e-07 8.59428705979326e-09 -0.0 -0.0 1 False False
7169.616 4.792724132537842 -1.2319784325412293 1.4902342001544397 -1.8290544948973597 -1.5707805792437952 3.221956491470337 0.0 -8.09984267107211e-05 -4.0281667361465076e-37 1.3054740868403939e-27 -0.0 -0.0 1 False False
7169.665999999999 4.792707920074463 -1.2319300931743165 1.490204159413473 -1.8290583095946253 -1.5707925001727503 3.2218573093414307 0.0 -6.703389954054728e-05 -0.0 0.0 -0.0 -0.0 1 False False
7169.715999999999 4.792733192443848 -1.2319844526103516 1.490295712147848 -1.829062124291891 -1.5707967917071741 3.221885919570923 0.0 -4.120580939423257e-35 -0.0 0.0 -0.0 -0.0 1 False False
7169.766 4.7927165031433105 -1.2320008438876648 1.490241829548971 -1.8290463886656703 -1.5707805792437952 3.221940279006958 -0.0 -3.406116957194172e-05 -0.0 0.0 -0.0 -0.0 1 False False
7169.816 4.792649269104004 -1.2319122713855286 1.4902508894549769 -1.8290821514525355 -1.5708048979388636 3.221919536590576 6.754258598045618e-43 0.0 -0.0 0.0 -0.0 -0.0 1 False False
7169.866 4.792725563049316 -1.231950120334961 1.4902294317828577 -1.8290544948973597 -1.5708006064044397 3.221935749053955 0.0 0.0 -0.0 0.0 -0.0 -0.0 1 False False
7169.915999999999 4.7927165031433105 -1.2319844526103516 1.4903000036822718 -1.8290544948973597 -1.570756737385885 3.221956491470337 0.0 0.0 -0.0 0.0 -0.0 -0.0 1 False False
7169.965999999999 4.792724132537842 -1.2320083242705842 1.490262810383932 -1.8290783367552699 -1.5707805792437952 3.2219078540802 0.0 0.0 -0.0 0.0 -0.0 -0.0 1 False False
7170.016 4.792695999145508 -1.2320172649673005 1.4902342001544397 -1.8290983639159144 -1.5708048979388636 3.221968412399292 0.0 0.0 -0.0 0.0 -0.0 -0.0 1 False False
7170.066 4.792736053466797 -1.2320337158492585 1.490204159413473 -1.8290578327574671 -1.570829216633932 3.2219033241271973 0.0 0.0 -0.0 0.0 -0.0 -0.0 1 False False
7170.116 4.7927093505859375 -1.2319710117629548 1.4902508894549769 -1.8290783367552699 -1.5708335081683558 3.2218945026397705 0.0 0.0 -0.0 3.680350707963248e-21 -0.0 -0.0 1 False False
7170.165999999999 4.792653560638428 -1.2319755417159577 1.490258518849508 -1.82910217861318 -1.5707967917071741 3.2219109535217285 0.0 0.0 -0.0 5.590452197454571e-40 -0.0 -0.0 1 False False
7170.215999999999 4.792707920074463 -1.2319935721210022 1.4902837912188929 -1.829038759271139 -1.570829216633932 3.2218947410583496 0.0 0.0 -0.0 0.0 -0.0 -0.0 1 False False
7170.266 4.792670726776123 -1.2319816511920472 1.490246597920553 -1.829050680200094 -1.5708487669574183 3.221919536590576 0.0 0.0 -0.0 0.0 -0.0 -0.0 1 False False
7170.316 4.792703628540039 -1.2319799822619935 1.4902880827533167 -1.8290697536864222 -1.5707929770099085 3.2219390869140625 0.0 0.0 -1.954303622951201e-33 0.0 -0.0 -0.0 1 False False
7170.366 4.792691707611084 -1.2320172649673005 1.4902837912188929 -1.829050680200094 -1.5708368460284632 3.2219760417938232 0.0 0.0 -0.0 0.0 -0.0 -0.0 1 False False
7170.415999999999 4.792721271514893 -1.2319799822619935 1.490253750477926 -1.8290463886656703 -1.5707886854754847 3.2219152450561523 0.0 0.0 -0.0 0.0 -0.0 -0.0 1 False False
7170.465999999999 4.792675018310547 -1.232005314236023 1.4902222792254847 -1.829118391076559 -1.570784870778219 3.2218990325927734 0.0 0.0 -0.0 0.0 -0.0 -0.0 1 False False
7170.516 4.792670726776123 -1.2320082944682618 1.490302864705221 -1.8291217289366664 -1.570801083241598 3.2219152450561523 0.0 0.0 -0.0 0.0 -0.0 -0.0 1 False False
7170.566 4.792728424072266 -1.2319936019233246 1.490274731312887 -1.8290702305235804 -1.5707524458514612 3.2219152450561523 0.0 0.0 -0.0 -2.579610716722145e-18 -0.0 -0.0 1 False False
7170.616 4.792724132537842 -1.2319935721210022 1.490262810383932 -1.8290783367552699 -1.570784870778219 3.221935749053955 0.0 0.0 -0.0 -3.918432734963388e-37 -0.0 -0.0 1 False False
7170.665999999999 4.792679309844971 -1.2319680613330384 1.4902251402484339 -1.8290988407530726 -1.570813004170553 3.2219033241271973 0.0 0.0 -0.0 -0.0 -0.0 -0.0 1 False False
7170.715999999999 4.792695999145508 -1.2320381861976166 1.4902704397784632 -1.8290578327574671 -1.5708168188678187 3.2219033241271973 0.0 0.0 -0.0 -0.0 -0.0 -0.0 1 False False
7170.766 4.792698860168457 -1.2320083540729065 1.490290943776266 -1.8290702305235804 -1.570829216633932 3.221919536590576 0.0 0.0 -0.0 -0.0 -0.0 -0.0 1 False False
7170.816 4.79265832901001 -1.2319889229587098 1.49022084871401 -1.829090257684225 -1.570801083241598 3.2219033241271973 0.0 0.0 -0.0 -0.0 -0.0 -0.0 1 False False
7170.866 4.792728424072266 -1.232020155792572 1.4902251402484339 -1.8290659389891566 -1.5707805792437952 3.221924066543579 0.0 0.0 -0.0 -0.0 -0.0 -0.0 1 False False
7170.915999999999 4.792700290679932 -1.2320321661284943 1.4902790228473108 -1.8290344677367152 -1.5707805792437952 3.221924066543579 0.0 0.0 -0.0 -0.0 -0.0 -0.0 1 False False
7170.965999999999 4.792720794677734 -1.231968031530716 1.4902046362506312 -1.8291059933104457 -1.5707805792437952 3.2218945026397705 0.0 0.0 -0.0 -0.0 -0.0 -0.0 1 False False
7171.016 4.7927327156066895 -1.2319665116122742 1.4902332464801233 -1.8290578327574671 -1.570784870778219 3.2218732833862305 0.0 0.0 -0.0 -0.0 -0.0 -0.0 1 False False
7171.066 4.792740345001221 -1.2319799822619935 1.4902661482440394 -1.8290826282896937 -1.5708168188678187 3.221869945526123 0.0 0.0 -0.0 -0.0 -0.0 -0.0 1 False False
7171.116 4.792649745941162 -1.2319919031909485 1.490274731312887 -1.8291102848448695 -1.5707610289203089 3.2218990325927734 0.0 0.0 -0.0 -0.0 -0.0 -0.0 1 False False
7171.165999999999 4.792658805847168 -1.2320263546756287 1.4902876059161585 -1.829074045220846 -1.5707686583148401 3.221886396408081 0.0 0.0 -0.0 -0.0 -0.0 -0.0 1 False False
7171.215999999999 4.7927446365356445 -1.2319590908339997 1.4903042952166956 -1.8290697536864222 -1.5707967917071741 3.221932888031006 0.0 0.0 -0.0 -0.0 -0.0 -0.0 1 True False
7171.266 4.792805194854736 -1.2319816809943696 1.4902790228473108 -1.829050680200094 -1.570784870778219 3.221968412399292 0.006859923712909222 0.0 -0.0 -0.0 -0.0 0.0035183746367692947 1 True False
7171.316 4.793586254119873 -1.2319799822619935 1.490229908620016 -1.8290659389891566 -1.5707929770099085 3.222646713256836 0.022284654900431633 0.00039530612411908805 -0.0026569031178951263 -0.0 -0.0 0.019631508737802505 1 True False
7171.366 4.7953572273254395 -1.2318359476378937 1.4898999373065394 -1.829022069970602 -1.5707843939410608 3.2245116233825684 0.054070767015218735 0.006117477081716061 -0.01177467592060566 0.0036837670486420393 -0.0 0.05286122485995293 1 True False
7171.415999999999 4.799195766448975 -1.2313363415053864 1.4892337957965296 -1.8287073574461878 -1.5708006064044397 3.2283966541290283 0.10359799116849899 0.013203402981162071 -0.017093762755393982 0.006388782057911158 -0.0 0.10113206505775452 1 True False
7171.465999999999 4.8059258460998535 -1.2305715841105958 1.4881780783282679 -1.828409811059469 -1.5708368460284632 3.235076904296875 0.1694064736366272 0.020515382289886475 -0.026392512023448944 0.00872997846454382 -0.0 0.17044652998447418 1 True False
7171.516 4.816614151000977 -1.2293591064265748 1.4865697065936487 -1.8279725513853968 -1.5707686583148401 3.2458465099334717 0.24874700605869293 0.03063029609620571 -0.038831621408462524 0.00824073888361454 -0.0 0.2545008063316345 1 True False
7171.566 4.8312201499938965 -1.2277726095965882 1.4842093626605433 -1.8273288212218226 -1.5707891623126429 3.260575771331787 0.3263741731643677 0.03810615837574005 -0.05555731803178787 0.014305658638477325 -0.0 0.3214159905910492 1 True False
