Andreas691667/Digital_Twin_UR/src/robot_connection_manager/robot_output/E7b_robot_output.csv
timestamp actual_q_0 actual_q_1 actual_q_2 actual_q_3 actual_q_4 actual_q_5 actual_qd_0 actual_qd_1 actual_qd_2 actual_qd_3 actual_qd_4 actual_qd_5 safety_status output_bit_register_65 output_bit_register_66
4915.842 3.7120652198791504 -0.8255128425410767 0.8429845015155237 -1.5883013210692347 -1.5707486311541956 2.1413002014160156 0.0 0.0 0.0 -0.0 -0.0 0.0 1 False False
4915.892 3.712083339691162 -0.8254527610591431 0.8429673353778284 -1.5882650814452113 -1.5708211104022425 2.141275405883789 0.0 0.0 0.0 -0.0 -0.0 0.0 1 False False
4915.942 3.712120532989502 -0.8254869741252442 0.8429234663592737 -1.5882774792113246 -1.57074481645693 2.141263484954834 0.0 0.0 0.0 -0.0 -0.0 0.0 1 False False
4915.992 3.712071418762207 -0.8254616421512146 0.8429935614215296 -1.5882817707457484 -1.5707767645465296 2.141275405883789 0.0 0.0 0.0 -0.0 -0.0 0.0 1 False False
4916.0419999999995 3.712036609649658 -0.8255335849574585 0.8429349104510706 -1.5882932148375453 -1.5708254019366663 2.141308307647705 0.0 0.0 0.0 -0.0 -0.0 0.0 1 False False
4916.092 3.71213698387146 -0.8255291742137452 0.8429349104510706 -1.5882650814452113 -1.5707686583148401 2.1412839889526367 0.0 0.0 0.0 -0.0 -0.0 0.0 1 False False
4916.142 3.712041139602661 -0.8255366247943421 0.8429811636554163 -1.5882774792113246 -1.5707810560809534 2.1412384510040283 0.0 0.0 0.0 -0.0 -0.0 0.0 1 False False
4916.192 3.7120203971862793 -0.8254706424525757 0.8429721037494105 -1.5882774792113246 -1.5707648436175745 2.1412763595581055 0.0 0.0 0.0 -0.0 -0.0 0.0 1 False False
4916.242 3.7121236324310303 -0.8254913848689576 0.8429649511920374 -1.5882817707457484 -1.570784870778219 2.141340970993042 0.0 0.0 0.0 -0.0 -0.0 0.0 1 False False
4916.2919999999995 3.7120742797851562 -0.8254869741252442 0.8429482618915003 -1.5882731876769007 -1.570853058491842 2.141295909881592 0.0 0.0 0.0 -0.0 -0.0 0.0 1 False False
4916.342 3.712033748626709 -0.825428919201233 0.8429439703570765 -1.5883127651610316 -1.5708087126361292 2.1412601470947266 0.0 0.0 0.0 -0.0 -0.0 0.0 1 False False
4916.392 3.712066888809204 -0.8255188030055542 0.8429673353778284 -1.5882569752135218 -1.5708087126361292 2.1412997245788574 0.0 0.0 0.0 -0.0 -0.0 0.0 1 False False
4916.442 3.712078809738159 -0.8254333895495911 0.8430231253253382 -1.5882774792113246 -1.570784870778219 2.1413087844848633 0.0 0.0 0.0 -0.0 -0.0 0.0 1 False False
4916.492 3.712099552154541 -0.8254823845675965 0.8429887930499476 -1.588252683679098 -1.5708006064044397 2.141279697418213 0.0 0.0 0.0 -0.0 -0.0 0.0 1 False False
4916.5419999999995 3.7120590209960938 -0.825495795612671 0.8429234663592737 -1.5883370838561 -1.570801083241598 2.141291618347168 0.0 0.0 0.0 -0.0 -0.0 0.0 1 False False
4916.592 3.7120742797851562 -0.8255291146091004 0.8429892698871058 -1.588320871392721 -1.5707605520831507 2.1413004398345947 0.0 0.0 0.0 -0.0 -0.0 0.0 1 False False
4916.642 3.712045669555664 -0.825527624492981 0.8430054823504847 -1.5882655582823695 -1.570784870778219 2.1413092613220215 0.0 0.0 0.0 -0.0 -0.0 0.0 1 False False
4916.692 3.7120249271392822 -0.8255171936801453 0.8429563681231897 -1.5883246860899867 -1.570784870778219 2.1412513256073 0.0 0.0 0.0 -0.0 -0.0 0.0 1 False False
4916.742 3.712106943130493 -0.8254993718913575 0.8430307547198694 -1.5882889233031214 -1.5707891623126429 2.141279697418213 0.0 0.0 0.0 -0.0 -0.0 0.0 1 False False
4916.7919999999995 3.7120862007141113 -0.8255083721927186 0.8429935614215296 -1.5882488689818324 -1.5708406607257288 2.14131760597229 0.0 0.0 0.0 -0.0 -0.0 0.0 1 False False
4916.842 3.7120370864868164 -0.825527624492981 0.8429563681231897 -1.588269372979635 -1.570853058491842 2.141258955001831 0.0 0.0 0.0 -0.0 -0.0 0.0 1 False False
4916.892 3.712099313735962 -0.8254913848689576 0.8429721037494105 -1.5882812939085902 -1.570784870778219 2.141321897506714 0.0 0.0 0.0 -0.0 -0.0 0.0 1 False False
4916.942 3.712017297744751 -0.8255692285350342 0.842926327382223 -1.588269372979635 -1.5707967917071741 2.1412618160247803 0.0 0.0 0.0 -0.0 -0.0 0.0 1 False False
4916.992 3.71207857131958 -0.8254994314960022 0.8429759184466761 -1.5882770023741664 -1.570756737385885 2.141263246536255 0.0 0.0 0.0 -0.0 -0.0 0.0 1 False False
4917.0419999999995 3.7120862007141113 -0.8254542511752625 0.8429515997516077 -1.5883246860899867 -1.5707972685443323 2.141263246536255 0.0 0.0 0.0 -0.0 -0.0 0.0 1 False False
4917.092 3.7120449542999268 -0.8254706424525757 0.8429678122149866 -1.5882655582823695 -1.5707886854754847 2.141284227371216 0.0 0.0 0.0 -0.0 -0.0 0.0 1 False False
4917.142 3.7120862007141113 -0.8254736822894593 0.8430097738849085 -1.588320871392721 -1.5708048979388636 2.141313076019287 0.0 0.0 0.0 -0.0 -0.0 0.0 1 False False
4917.192 3.7120938301086426 -0.8255025309375306 0.8429649511920374 -1.5882650814452113 -1.5708254019366663 2.1413323879241943 0.0 0.0 0.0 -0.0 -0.0 0.0 1 False False
4917.242 3.7120611667633057 -0.8254587811282654 0.8430007139789026 -1.5882731876769007 -1.5707805792437952 2.141263246536255 0.0 0.0 0.0 -0.0 -0.0 0.0 1 False False
4917.2919999999995 3.7120742797851562 -0.8254692715457459 0.8429678122149866 -1.588292738000387 -1.5708373228656214 2.141279697418213 0.0 0.0 0.0 -0.0 -0.0 0.0 1 False False
4917.342 3.7120862007141113 -0.8254780334285279 0.8429678122149866 -1.588297029534811 -1.570801083241598 2.141284227371216 0.0 0.0 0.0 -0.0 -0.0 0.0 1 False False
4917.392 3.7120537757873535 -0.8254824441722413 0.8429520765887659 -1.5882889233031214 -1.570784870778219 2.141296148300171 0.0 0.0 0.0 -0.0 -0.0 0.0 1 False False
4917.442 3.7121024131774902 -0.8254950207522889 0.8429845015155237 -1.5882607899107875 -1.5707767645465296 2.1412274837493896 0.0 0.0 0.0 -0.0 -0.0 0.0 1 False False
4917.492 3.7121024131774902 -0.825461820965149 0.8429563681231897 -1.5882650814452113 -1.5707529226886194 2.141287088394165 0.0 0.0 0.0 -0.0 -0.0 0.0 1 False False
4917.5419999999995 3.7121472358703613 -0.8255319160274048 0.8429635206805628 -1.5882569752135218 -1.5707767645465296 2.141263246536255 0.0 0.0 0.0 -0.0 -0.0 0.0 1 False False
4917.592 3.7120819091796875 -0.8255526584437867 0.8429721037494105 -1.588292738000387 -1.5707686583148401 2.141267776489258 0.0 0.0 0.0 -0.0 -0.0 0.0 1 False False
4917.642 3.712066650390625 -0.8255069416812439 0.8429845015155237 -1.5883127651610316 -1.5707605520831507 2.141313076019287 0.0 0.0 0.0 -0.0 -0.0 0.0 1 False False
4917.692 3.7120656967163086 -0.8254780930331727 0.8429635206805628 -1.5882207355894984 -1.5708211104022425 2.141258955001831 0.0 0.0 0.0 -0.0 -0.0 0.0 1 False False
4917.742 3.7120819091796875 -0.8255644601634522 0.8430050055133265 -1.5882774792113246 -1.5707805792437952 2.1412723064422607 0.0 0.0 0.0 -0.0 -0.0 0.0 1 False False
4917.7919999999995 3.712024211883545 -0.8254587811282654 0.8429721037494105 -1.588269372979635 -1.5707805792437952 2.141258955001831 0.0 0.0 0.0 -0.0 -0.0 0.0 1 False False
4917.842 3.7120730876922607 -0.8254956764033814 0.8429396788226526 -1.5883251629271449 -1.5707767645465296 2.141284227371216 0.0 0.0 0.0 -0.0 -0.0 0.0 1 False False
4917.892 3.712062358856201 -0.8254950207522889 0.8429845015155237 -1.5882731876769007 -1.570784870778219 2.141284227371216 0.0 0.0 0.0 -0.0 -0.0 0.0 1 False False
4917.942 3.7120656967163086 -0.8254780930331727 0.8429678122149866 -1.5883056126036585 -1.5707891623126429 2.141247034072876 0.0 0.0 0.0 -0.0 -0.0 0.0 1 False False
4917.992 3.712090492248535 -0.8255244654468079 0.8429482618915003 -1.5883451900877894 -1.5707605520831507 2.1413040161132812 0.0 0.0 0.0 -0.0 -0.0 0.0 1 False False
4918.0419999999995 3.7120254039764404 -0.8255039018443604 0.8429721037494105 -1.588297029534811 -1.570813004170553 2.141284227371216 0.0 0.0 0.0 -0.0 -0.0 0.0 1 False False
4918.092 3.712094783782959 -0.8254824441722413 0.8429845015155237 -1.5882774792113246 -1.570801083241598 2.141296148300171 0.0 0.0 0.0 -0.0 -0.0 0.0 1 False False
4918.142 3.7120370864868164 -0.8254738611033936 0.842902962361471 -1.5882932148375453 -1.5707572142230433 2.1412439346313477 0.0 0.0 0.0 -0.0 -0.0 0.0 1 False False
4918.192 3.7121152877807617 -0.8255156439593812 0.8429721037494105 -1.588297029534811 -1.5707648436175745 2.141267776489258 0.0 0.0 0.0 -0.0 -0.0 0.0 1 False False
4918.242 3.712038278579712 -0.825490729217865 0.8429887930499476 -1.5882774792113246 -1.5707805792437952 2.141313076019287 0.0 0.0 0.0 -0.0 -0.0 0.0 1 False False
4918.2919999999995 3.7120907306671143 -0.8255039018443604 0.8429515997516077 -1.5883013210692347 -1.5708125273333948 2.141313076019287 0.0 0.0 0.0 -0.0 -0.0 0.0 1 False False
4918.342 3.712062358856201 -0.8254781526378174 0.8429649511920374 -1.5883251629271449 -1.570756737385885 2.14131760597229 0.0 0.0 0.0 -0.0 -0.0 0.0 1 False False
4918.392 3.7120203971862793 -0.825463132267334 0.8430174032794397 -1.588313718835348 -1.570772949849264 2.1412723064422607 0.0 0.0 0.0 -0.0 -0.0 0.0 1 False False
4918.442 3.7120907306671143 -0.8255275648883362 0.8429673353778284 -1.5883094273009242 -1.570784870778219 2.1413204669952393 0.0 0.0 0.0 -0.0 -0.0 0.0 1 False False
4918.492 3.712066888809204 -0.8254707616618653 0.8429721037494105 -1.5882498226561488 -1.5707481543170374 2.141234874725342 0.0 0.0 0.0 -0.0 -0.0 0.0 1 True False
4918.5419999999995 3.7120862007141113 -0.8255155843547364 0.8429763952838343 -1.5882569752135218 -1.570784870778219 2.141279697418213 0.0 0.0 0.0 -0.0 -0.0 0.0 1 True False
4918.592 3.712083101272583 -0.8254950803569336 0.8429673353778284 -1.5882774792113246 -1.5707805792437952 2.141291618347168 0.0 0.0 0.0 -0.0 -0.0 0.0 1 True False
4918.642 3.712066888809204 -0.8254781526378174 0.8429606596576136 -1.5882612667479457 -1.570801083241598 2.141279697418213 0.0 0.0 0.0 -0.0 -0.0 0.0 1 True False
4918.692 3.712104082107544 -0.8254913252643128 0.8429515997516077 -1.5883165798582972 -1.570801083241598 2.141284227371216 0.0 0.0 0.0 -0.0 -0.0 0.0 1 True False
4918.742 3.7120907306671143 -0.8255449098399659 0.8430007139789026 -1.588269372979635 -1.570813004170553 2.1412513256073 0.0 0.0 0.0 -0.0 -0.0 0.0 1 True False
4918.7919999999995 3.7120981216430664 -0.8254864376834412 0.8429811636554163 -1.5882774792113246 -1.5707891623126429 2.1413049697875977 0.0 0.0 0.0 -0.0 -0.0 0.0 1 True False
4918.842 3.712078809738159 -0.8254653376391907 0.8429845015155237 -1.5883170566954554 -1.5708254019366663 2.141321897506714 0.0 0.0 0.0 -0.0 -0.0 0.0 1 True False
4918.892 3.712095022201538 -0.8255363267711182 0.8429845015155237 -1.588269372979635 -1.5708416144000452 2.141270637512207 0.0 0.0 0.0 -0.0 -0.0 0.0 1 True False
4918.942 3.7120490074157715 -0.8255232137492676 0.8429811636554163 -1.5882207355894984 -1.5708335081683558 2.1412723064422607 0.0 0.0 0.0 -0.0 -0.0 0.0013736766995862126 1 True False
4918.992 3.7121071815490723 -0.8255124253085633 0.8429763952838343 -1.5882536373534144 -1.5708211104022425 2.1412453651428223 0.0 0.0 0.0 -0.0 -0.0 -9.665617426435347e-07 1 True False
4919.0419999999995 3.7120771408081055 -0.8254619997790833 0.8429673353778284 -1.5882932148375453 -1.5708087126361292 2.1412439346313477 0.0 0.0 0.0 -0.0 -0.0 0.00011828686547232792 1 True False
4919.092 3.7120578289031982 -0.8255275052836915 0.8429630438434046 -1.588280817071432 -1.5707967917071741 2.141263246536255 0.0 0.0 0.0 -0.0 -0.0 -9.006229418377993e-20 1 True False
4919.142 3.712224006652832 -0.8256049913218995 0.8430488745318812 -1.5883170566954554 -1.5707843939410608 2.141396999359131 0.030000610277056694 -0.014223684556782246 0.017266610637307167 -0.002452702494338155 -0.0 0.022163648158311844 1 True False
4919.192 3.714779853820801 -0.8268553179553528 0.8449028174029749 -1.5889197788634242 -1.5708406607257288 2.144116163253784 0.0858083963394165 -0.04060995578765869 0.06363359838724136 -0.02319430373609066 -0.0 0.08795159310102463 1 True False
4919.242 3.7211575508117676 -0.8298913401416321 0.8499348799334925 -1.5906621418394984 -1.5707810560809534 2.1502315998077393 0.16183379292488098 -0.08186063915491104 0.12702235579490662 -0.04411087930202484 0.00010722795559559017 0.15792806446552277 1 True False
4919.2919999999995 3.7308192253112793 -0.8349440854838868 0.8575170675860804 -1.593273778954977 -1.5708006064044397 2.1599998474121094 0.22466614842414856 -0.12240973860025406 0.18080081045627594 -0.05909654498100281 0.0001143231856985949 0.22543615102767944 1 True False
4919.342 3.744051933288574 -0.8418227595141907 0.8677790800677698 -1.5965763531126917 -1.57074481645693 2.173074960708618 0.29503321647644043 -0.14819027483463287 0.23327422142028809 -0.06728433817625046 8.183660247595981e-05 0.2975996136665344 1 True False
4919.392 3.760570526123047 -0.8504109543612977 0.8807652632342737 -1.6011010609068812 -1.5708449522601526 2.1897835731506348 0.3643853962421417 -0.1906874179840088 0.27967140078544617 -0.09166668355464935 7.110142905730754e-05 0.3616122901439667 1 True False
4919.442 3.780836582183838 -0.8606969279101868 0.8963897863971155 -1.6063724956908167 -1.570772949849264 2.2098422050476074 0.4367455840110779 -0.2255471795797348 0.33860084414482117 -0.1211249828338623 4.844682055700489e-13 0.4434443414211273 1 True False
4919.492 3.804299831390381 -0.8728032273105164 0.9148824850665491 -1.6125489674010218 -1.570824925099508 2.233488082885742 0.504146158695221 -0.2592947483062744 0.3905940353870392 -0.14626693725585938 4.748758352692006e-13 0.5072240829467773 1 True False
4919.5419999999995 3.8313846588134766 -0.8868007820895691 0.935711685811178 -1.6198350391783656 -1.570772949849264 2.2606868743896484 0.5715650916099548 -0.29682835936546326 0.44504815340042114 -0.16474729776382446 7.959746289998293e-05 0.5698729157447815 1 True False
4919.592 3.86208438873291 -0.9023763102344056 0.9595821539508265 -1.6279236278929652 -1.5708563963519495 2.291317939758301 0.6435567140579224 -0.32619956135749817 0.5028700828552246 -0.17737670242786407 0.00014343913062475622 0.6380731463432312 1 True False
4919.642 3.896205425262451 -0.9198476237109681 0.9859245459185999 -1.636973043481344 -1.5708048979388636 2.325366735458374 0.7124875783920288 -0.366046667098999 0.5560876727104187 -0.18471284210681915 9.536643483443186e-05 0.7104440927505493 1 True False
4919.692 3.9338181018829346 -0.9391470712474366 1.0152958075152796 -1.646771093408102 -1.5708091894732874 2.3629043102264404 0.7787103056907654 -0.40032875537872314 0.6094218492507935 -0.20366521179676056 5.097071653636931e-09 0.7891659736633301 1 True False
4919.742 3.9747705459594727 -0.9601983588984986 1.0472000280963343 -1.6576134167113246 -1.570824925099508 2.4040119647979736 0.8601353764533997 -0.43441343307495117 0.6663609743118286 -0.21660219132900238 7.742462747275209e-28 0.8609442114830017 1 True False
4919.7919999999995 4.01945161819458 -0.9830765289119263 1.0817073027240198 -1.6693741283812464 -1.5707810560809534 2.4487104415893555 0.9255363345146179 -0.47966432571411133 0.7157613635063171 -0.2527742385864258 0.0 0.9173589944839478 1 True False
4919.842 4.06746244430542 -1.0077814620784302 1.1190198103534144 -1.6820360622801722 -1.5707810560809534 2.4966914653778076 0.9975825548171997 -0.5091708898544312 0.7676122784614563 -0.27311280369758606 0.0 0.9969421029090881 1 True False
4919.892 4.118930816650391 -1.0340262216380616 1.1590445677386683 -1.6956078014769496 -1.5707810560809534 2.548049211502075 1.0369149446487427 -0.5298216342926025 0.8134446740150452 -0.2734251618385315 -0.0003231228911317885 1.0417853593826294 1 True False
4919.942 4.171250820159912 -1.0608871144107361 1.1997535864459437 -1.7094174824156703 -1.570784870778219 2.60056471824646 1.051090121269226 -0.5380766987800598 0.8108687996864319 -0.2788477838039398 0.0002488101599738002 1.0499833822250366 1 True False
4919.992 4.223580837249756 -1.0877195757678528 1.2401679197894495 -1.7232991657652796 -1.5707691351519983 2.65275502204895 1.0486021041870117 -0.5357800126075745 0.8163884282112122 -0.2739180624485016 -4.111810269371674e-16 1.0564543008804321 1 True False
4920.0419999999995 4.276011943817139 -1.1144841772368927 1.2807634512530726 -1.7371450863280238 -1.5708449522601526 2.705084800720215 1.0421767234802246 -0.5381707549095154 0.813610851764679 -0.2918570637702942 -8.290136611321941e-05 1.0451841354370117 1 True False
4920.092 4.328346252441406 -1.1413662892631073 1.3215606848346155 -1.7510868511595667 -1.5707772413836878 2.7576820850372314 1.0493638515472412 -0.5387831330299377 0.8096039891242981 -0.2889825403690338 -5.165657679384594e-09 1.0455950498580933 1 True False
4920.142 4.3806233406066895 -1.1682907205871125 1.362140957509176 -1.7647987804808558 -1.5707967917071741 2.809821367263794 1.0500999689102173 -0.5386210083961487 0.8140648603439331 -0.2744331359863281 -7.846646409099323e-28 1.0519475936889648 1 True False
4920.192 4.432764053344727 -1.194860355263092 1.402571980153219 -1.7784058056273402 -1.5707772413836878 2.86189341545105 1.0190470218658447 -0.5183462500572205 0.7839125990867615 -0.28958430886268616 -0.0 1.013465166091919 1 True False
4920.242 4.4817118644714355 -1.2200432282737275 1.4407241980182093 -1.7913390598692835 -1.570784870778219 2.910895586013794 0.9518480896949768 -0.4794185757637024 0.737779974937439 -0.24270465970039368 -1.6769341755207279e-06 0.9559032917022705 1 True False
4920.2919999999995 4.527247905731201 -1.243350313310959 1.4759071508990687 -1.803610464135641 -1.5708006064044397 2.9564287662506104 0.8725599646568298 -0.44962695240974426 0.6816790103912354 -0.22751832008361816 -0.00026734330458566546 0.8771166801452637 1 True False
4920.342 4.569362163543701 -1.2650046807578583 1.5085752646075647 -1.8147646389403285 -1.5708335081683558 2.9986259937286377 0.8055118322372437 -0.41966456174850464 0.6250678896903992 -0.22376617789268494 2.3958676709234794e-10 0.8127069473266602 1 True False
4920.392 4.6079936027526855 -1.2846867901137848 1.538628880177633 -1.8247906170287074 -1.570784870778219 3.0371859073638916 0.7383800745010376 -0.38005027174949646 0.5670185685157776 -0.19666539132595062 9.632989531382918e-05 0.7421697974205017 1 True False
4920.442 4.642970085144043 -1.302589700823166 1.565902058278219 -1.833961626092428 -1.5708087126361292 3.0723347663879395 0.6652723550796509 -0.3418639302253723 0.5218926668167114 -0.18201060593128204 8.351579162990674e-05 0.6645172238349915 1 True False
4920.492 4.67458963394165 -1.318965808754303 1.590351406727926 -1.84254850963735 -1.5707486311541956 3.1039586067199707 0.5935401320457458 -0.30473774671554565 0.4626566171646118 -0.16351763904094696 0.00015889861970208585 0.594539999961853 1 True False
4920.5419999999995 4.7027387619018555 -1.3332004708102723 1.6123421827899378 -1.8497444591917933 -1.5708006064044397 3.1320481300354004 0.5268256068229675 -0.26878389716148376 0.4095780849456787 -0.13681626319885254 4.428355623531388e-06 0.5276650786399841 1 True False
4920.592 4.727398872375488 -1.3461153966239472 1.6311677137957972 -1.8563467464842738 -1.5707772413836878 3.156599521636963 0.4586805999279022 -0.23110069334506989 0.35865262150764465 -0.11687935888767242 0.00033058974076993763 0.4602636694908142 1 True False
4920.642 4.748640537261963 -1.3567725282958527 1.6478522459613245 -1.861941476861471 -1.5707648436175745 3.177717685699463 0.3876658082008362 -0.20074088871479034 0.2992473542690277 -0.11552044004201889 -2.5552382432181275e-09 0.39693284034729004 1 True False
4920.692 4.766135215759277 -1.3658794623664399 1.6614039579974573 -1.8664618931212367 -1.570801083241598 3.1954076290130615 0.3216584324836731 -0.16087527573108673 0.2519454061985016 -0.0799596831202507 -3.881414487477309e-28 0.3171647787094116 1 True False
4920.742 4.780270576477051 -1.3730454605868836 1.6724546591388147 -1.8702575169005335 -1.570784870778219 3.2094244956970215 0.24657215178012848 -0.1285906285047531 0.1932559609413147 -0.06328406929969788 1.5093436900315282e-07 0.26294276118278503 1 True False
4920.7919999999995 4.79085111618042 -1.3784885716489335 1.6806991736041468 -1.8729683361449183 -1.5707967917071741 3.2201781272888184 0.18242241442203522 -0.09229546040296555 0.13994424045085907 -0.04390130564570427 2.222430905973738e-09 0.17982463538646698 1 True False
4920.842 4.798096179962158 -1.3822364521077652 1.6862295309649866 -1.8750516376891078 -1.5707843939410608 3.227353096008301 0.1076020821928978 -0.05715784803032875 0.08503644168376923 -0.028956225141882896 3.375879543787534e-28 0.10769728571176529 1 True False
4920.892 4.801807403564453 -1.3840291959098359 1.68921405473818 -1.8759266338744105 -1.5707805792437952 3.2309529781341553 0.03849233314394951 -0.021916186437010765 0.030560053884983063 -0.012099080719053745 0.0 0.042135607451200485 1 True False
4920.942 4.802211284637451 -1.3842452627471467 1.6898072401629847 -1.8765722713866175 -1.5708325544940394 3.2314460277557373 -0.0027867890894412994 0.012380002997815609 0.023592500016093254 -0.034608736634254456 2.9610105229949113e-06 3.554287506674081e-12 1 True False
4920.992 4.802206516265869 -1.3830536019853135 1.6920202414142054 -1.8796941242613734 -1.5708087126361292 3.2314956188201904 0.00040334186633117497 0.03385692089796066 0.0643187165260315 -0.10306389629840851 4.497779691007502e-25 5.398970321688314e-31 1 True False
4921.0419999999995 4.802331924438477 -1.3807000678828736 1.6963971296893519 -1.8865686855711878 -1.5708406607257288 3.2315077781677246 0.00030788371805101633 0.06551482528448105 0.10562348365783691 -0.16131316125392914 2.6621990400599316e-05 0.0 1 True False
4921.092 4.802343845367432 -1.3767533016255875 1.7029121557818812 -1.8968349895873011 -1.5708406607257288 3.2315196990966797 0.0008499679388478398 0.09141400456428528 0.15082146227359772 -0.24351656436920166 1.53034197865054e-05 0.0003609888954088092 1 True False
4921.142 4.802334308624268 -1.3717639458230515 1.7114999930011194 -1.9106337032713832 -1.5708487669574183 3.2315478324890137 0.0002712935383897275 0.11530139297246933 0.19765383005142212 -0.31756576895713806 2.1476738766068593e-05 0.00020317784219514579 1 True False
4921.192 4.802335262298584 -1.3654514116099854 1.7224019209491175 -1.9279419384398402 -1.5707805792437952 3.231555223464966 0.00016647636948619038 0.1368267834186554 0.24112828075885773 -0.37931814789772034 2.365274364734395e-19 0.00012858535046689212 1 True False
4921.242 4.802342414855957 -1.3577440244010468 1.7358463446246546 -1.9486762485899867 -1.5708211104022425 3.23154354095459 0.00020128567120991647 0.16364696621894836 0.2879209518432617 -0.45171380043029785 3.5928555542296075e-38 8.889428136171773e-05 1 True False
4921.2919999999995 4.802399635314941 -1.3487668347409745 1.7508633772479456 -1.9728905163206996 -1.570784870778219 3.2315359115600586 0.00013303232844918966 0.19363246858119965 0.3341965973377228 -0.5154826045036316 2.205701633791357e-24 1.1124715000534227e-16 1 True False
4921.342 4.802293300628662 -1.338649482732155 1.7683966795550745 -2.0003630123534144 -1.5708168188678187 3.231489896774292 9.950687672244385e-05 0.19744227826595306 0.3448059558868408 -0.548299252986908 3.3491033297363128e-43 1.6898467411969274e-35 1 True False
4921.392 4.802330017089844 -1.3292992872050782 1.7845123449908655 -2.026278635064596 -1.5707972685443323 3.231527090072632 4.5065473386785015e-05 0.17729061841964722 0.30952712893486023 -0.47582921385765076 0.0 0.0 1 True False
4921.442 4.802338600158691 -1.3210469496301194 1.7986801306353968 -2.0484429798521937 -1.5707891623126429 3.2315478324890137 2.938681964437251e-09 0.15352438390254974 0.2547041177749634 -0.415377676486969 0.0 0.0 1 True False
4921.492 4.802346706390381 -1.3140741747668763 1.8106067816363733 -2.067371984521383 -1.5707967917071741 3.2315728664398193 0.0 0.12866084277629852 0.21950006484985352 -0.3271167576313019 0.0 0.0 1 True False
4921.5419999999995 4.802338600158691 -1.3084035080722352 1.8204177061664026 -2.0827037296690882 -1.570801083241598 3.2315640449523926 0.0 0.09969824552536011 0.17288914322853088 -0.2757757902145386 0.0 0.0 1 True False
4921.592 4.802285671234131 -1.3041460675052186 1.827902619038717 -2.0946508846678675 -1.5707929770099085 3.2315855026245117 0.0 0.07440746575593948 0.12337280809879303 -0.20091183483600616 0.0 0.0 1 True False
4921.642 4.802334308624268 -1.300962046985962 1.833186451588766 -2.1028806171812953 -1.5707925001727503 3.231576681137085 0.0 0.049829088151454926 0.08641411364078522 -0.14196722209453583 0.0 0.0 1 True False
4921.692 4.802338600158691 -1.2992604237845917 1.8361824194537562 -2.107804914514059 -1.5707605520831507 3.231546401977539 0.0 0.02518516406416893 0.04203752055764198 -0.06211888790130615 0.0 0.0 1 True False
4921.742 4.802289962768555 -1.2987409991076966 1.8372004667865198 -2.1092850170531214 -1.5707686583148401 3.231597423553467 0.0 -0.0033237598836421967 -0.0016408053925260901 0.006673234514892101 0.0 0.0 1 True False
4921.7919999999995 4.802321434020996 -1.298815445309021 1.8372095266925257 -2.109253068963522 -1.5708211104022425 3.2315402030944824 0.0 0.0001714222162263468 -7.802871646009677e-18 -7.277130498550832e-05 0.0 0.0 1 True False
4921.842 4.802285671234131 -1.2987754505923768 1.8372176329242151 -2.109260221520895 -1.570784870778219 3.2315640449523926 0.0 0.0001002418648567982 5.739048356190324e-05 -0.0001384146889904514 0.0 0.0 1 True False
4921.892 4.802387714385986 -1.2987454694560547 1.837121311818258 -2.1092969379820765 -1.5708087126361292 3.2315609455108643 0.0 0.00023187760962173343 4.7905683459248394e-05 -0.00017511604528408498 0.0 0.0 1 True False
4921.942 4.802334308624268 -1.298716501598694 1.8371089140521448 -2.1092645130553187 -1.5707886854754847 3.23154354095459 0.0 0.00021578049927484244 7.41373878554441e-05 -0.0002575605467427522 0.0 0.0 1 True False
4921.992 4.802309036254883 -1.2987545889667054 1.837175194417135 -2.1092807255186976 -1.5707610289203089 3.2315728664398193 0.0 0.00019477735622785985 7.35132853151299e-05 -0.0003128718526568264 0.0 0.0 1 True False
4922.0419999999995 4.802380084991455 -1.2986719471267243 1.837142292653219 -2.109236856500143 -1.5707805792437952 3.231555223464966 -2.6764186213962764e-28 0.00020533980568870902 8.226268255384639e-05 -0.0002446420257911086 0.0 0.0 1 True False
4922.092 4.802371501922607 -1.2987137001803895 1.8372085730182093 -2.1093207798399867 -1.570784870778219 3.231522798538208 0.0 0.0001291358785238117 6.778424722142518e-05 -0.00013631602632813156 0.0 6.515430122505661e-12 1 True False
4922.142 4.802350997924805 -1.2986764770797272 1.8372152487384241 -2.1092564068236292 -1.570784870778219 3.2315478324890137 0.0 0.00010526810365263373 9.014189618135074e-22 -9.74983413470909e-05 2.2367798919731285e-06 9.896950554544803e-31 1 True False
4922.192 4.802342891693115 -1.2987516087344666 1.8371332327472132 -2.109340330163473 -1.5708006064044397 3.2315852642059326 0.0 8.48588315420784e-05 5.8124089264310896e-05 -7.029895641608164e-05 3.3976749482267043e-25 0.0 1 True False
4922.242 4.802343368530273 -1.2987345618060608 1.8372152487384241 -2.1093327007689417 -1.5707610289203089 3.2315359115600586 0.0 1.5694542800437951e-43 2.9876721994831426e-19 -3.8854409875349155e-23 5.184804318001823e-44 0.0 1 True False
4922.2919999999995 4.8023223876953125 -1.2986928683570405 1.8371709028827112 -2.1093322239317835 -1.570784870778219 3.2315640449523926 0.0 0.0 0.0 -5.90226913173613e-42 0.0 0.0 1 True False
4922.342 4.8023295402526855 -1.2988293927958985 1.837066952382223 -2.109408041039938 -1.5707967917071741 3.2316091060638428 0.0 -0.0020215522963553667 -0.0005235534044913948 -0.010180574841797352 0.002780491253361106 0.0 1 True False
4922.392 4.802375793457031 -1.29878123224292 1.837034050618307 -2.1095153294005335 -1.5708044211017054 3.23150634765625 0.0 0.000244292983552441 -1.079056806152837e-21 -0.000131989290821366 -8.182106103049591e-05 0.0 1 True False
4922.442 4.802383899688721 -1.298760400419571 1.8370736281024378 -2.1094514332213343 -1.570869270955221 3.2315640449523926 0.0 0.0004715452087111771 0.00016557271010242403 0.0008142629521898925 -1.9145942133036442e-05 0.0 1 True True
4922.492 4.802366733551025 -1.29910101116214 1.8364689985858362 -2.1072594128050746 -1.570784870778219 3.231515407562256 0.0 -0.019412754103541374 -0.0347488671541214 0.0662994310259819 0.0003637984918896109 0.0 1 True True
4922.5419999999995 4.8022685050964355 -1.301082805996277 1.8328903357135218 -2.102384229699606 -1.5707772413836878 3.231527328491211 0.0 -0.05745059624314308 -0.09318538010120392 0.14604532718658447 0.0001701406145002693 0.0 1 True True
4922.592 4.8023176193237305 -1.3043905657580872 1.8273218313800257 -2.0932680569090785 -1.5708211104022425 3.231580972671509 0.0 -0.08090803027153015 -0.13994084298610687 0.2107837051153183 9.358228271594271e-05 0.0 1 True True
4922.642 4.802350997924805 -1.309051440363266 1.819294277821676 -2.081118722955221 -1.5707891623126429 3.2315726280212402 0.0 -0.10118047147989273 -0.17745432257652283 0.27353572845458984 1.1283987078058999e-05 0.0 1 True True
4922.692 4.802326679229736 -1.3149011892131348 1.809183422719137 -2.0653091869749964 -1.5708091894732874 3.2315726280212402 0.0 -0.1279095560312271 -0.22180496156215668 0.3649332523345947 3.3351273788537834e-17 0.0 1 True True
4922.742 4.802338600158691 -1.3219099652818223 1.7971447149859827 -2.0460154018797816 -1.570784870778219 3.231522798538208 0.0 -0.1553269624710083 -0.2608281075954437 0.41447052359580994 5.06606568499083e-36 0.0 1 True True
4922.7919999999995 4.802369117736816 -1.3302615594914933 1.782651726399557 -2.0232736072936 -1.570829216633932 3.2315597534179688 0.0 -0.18221460282802582 -0.30468153953552246 0.4912222623825073 0.0 0.0 1 True True
4922.842 4.80229377746582 -1.3399952811053772 1.7661317030536097 -1.997080465356344 -1.570813004170553 3.231515407562256 0.0 -0.2033589482307434 -0.3608371317386627 0.5599121451377869 0.0 0.0 1 True True
4922.892 4.80229377746582 -1.3499626082232972 1.7488659063922327 -1.969844480554098 -1.5708044211017054 3.231511116027832 0.0 -0.18550316989421844 -0.32031023502349854 0.521343469619751 0.0 0.0 1 True True
4922.942 4.80239725112915 -1.3586106461337586 1.734030548726217 -1.945963521996969 -1.570784870778219 3.231527328491211 0.0 -0.16491323709487915 -0.27866464853286743 0.4392578899860382 0.0 0.0 1 True True
4922.992 4.8023295402526855 -1.3661296528628846 1.720961872731344 -1.9255863628783167 -1.5708373228656214 3.231522798538208 0.0 -0.13662639260292053 -0.23223723471164703 0.37209704518318176 0.0 0.0 1 True True
4923.0419999999995 4.802416801452637 -1.3723758471063157 1.710517708455221 -1.9088121853270472 -1.5707886854754847 3.2315683364868164 0.0 -0.10971160233020782 -0.19036881625652313 0.3076625168323517 0.0 0.0 1 True True
4923.092 4.802366733551025 -1.3772660356811066 1.702050511037008 -1.8954211674132289 -1.5708168188678187 3.231515407562256 0.0 -0.08378132432699203 -0.1505032479763031 0.22344596683979034 0.0 0.0 1 True True
4923.142 4.8023176193237305 -1.3807852131179352 1.6957305113421839 -1.8855349026122035 -1.5707648436175745 3.2315564155578613 0.0 -0.060004767030477524 -0.10559907555580139 0.16824926435947418 0.0 0.0 1 True True
4923.192 4.802347660064697 -1.3832629931024094 1.6917370001422327 -1.8790532551207484 -1.5707925001727503 3.231494903564453 0.0 -0.033192288130521774 -0.05969245359301567 0.09687303751707077 0.0 0.0 1 True True
4923.242 4.802310466766357 -1.3843415838531037 1.6897509733783167 -1.8763357601561488 -1.5707925001727503 3.231527328491211 0.0 -0.010047144256532192 -0.01644408330321312 0.021576616913080215 0.0 0.0 1 True True
4923.2919999999995 4.8015851974487305 -1.384329692726471 1.6896217505084437 -1.876204629937643 -1.5708654562579554 3.2307753562927246 -0.04562787711620331 -7.579511162831566e-27 2.784130082034153e-08 0.0004874825244769454 0.0 -0.04220741614699364 1 True True
4923.342 4.797613143920898 -1.3843537730029603 1.6896713415728968 -1.8761536083617152 -1.5707405249225062 3.226687431335449 -0.11743669211864471 5.039300231146626e-05 6.55135114093077e-38 0.002042612759396434 0.0 -0.11205656081438065 1 True True
4923.392 4.789883613586426 -1.3842878204635163 1.689678970967428 -1.8760491810240687 -1.570801083241598 3.2190098762512207 -0.18460991978645325 4.203895392974451e-44 0.0 0.0008667170186527073 -0.0002289696130901575 -0.18458473682403564 1 True True
4923.442 4.778865814208984 -1.3842922461083909 1.6897128264056605 -1.876077791253561 -1.5707929770099085 3.208117723464966 -0.25750988721847534 2.5555078536854126e-05 -0.0003012469387613237 0.00020257025607861578 -0.00011113181244581938 -0.2601241171360016 1 True True
4923.492 4.76418399810791 -1.3842714887908478 1.6896851698504847 -1.8760258160033167 -1.5707843939410608 3.193403959274292 -0.3220338821411133 2.9891411031712778e-05 -0.00047226710012182593 0.00012194599548820406 -8.613404497737065e-05 -0.3286415636539459 1 True True
4923.5419999999995 4.746246337890625 -1.3843415540507813 1.6895917097674769 -1.8760529957213343 -1.5707843939410608 3.1754214763641357 -0.39671534299850464 6.191644934006035e-05 -0.0008910574251785874 9.391614730702713e-05 2.8506643660192177e-12 -0.3907015323638916 1 True True
4923.592 4.724616527557373 -1.3842893105796357 1.6895197073565882 -1.8760529957213343 -1.570829216633932 3.1537678241729736 -0.4604770839214325 0.0005742587381973863 -0.001667090691626072 1.0912810932683925e-10 4.330165248739878e-31 -0.4603244960308075 1 True True
4923.642 4.699549674987793 -1.3842741262963791 1.6894686857806605 -1.8760940037169398 -1.570796314870016 3.128828525543213 -0.5346530079841614 0.0017515934305265546 -0.0014034496853128076 0.00010179969103774056 0.0 -0.5352693796157837 1 True True
4923.692 4.671004772186279 -1.3842173379710694 1.6893871466266077 -1.8760415516295375 -1.5707805792437952 3.1002349853515625 -0.6056785583496094 0.0025904951617121696 -0.0016771646915003657 0.000282694207271561 0.0 -0.606843888759613 1 True True
4923.742 4.639084339141846 -1.3840902608684083 1.689324204121725 -1.8760506115355433 -1.5707686583148401 3.0682923793792725 -0.6736294627189636 0.001513819326646626 -0.0016517417971044779 0.0003135129518341273 0.0004895252059213817 -0.6785652041435242 1 True True
4923.942 4.476062774658203 -1.3838079434684296 1.6890137831317347 -1.875929971734518 -1.5708006064044397 2.9051990509033203 -0.9510372877120972 0.0017866793787106872 -0.0021915414836257696 0.00033096803235821426 0.00016864649660419673 -0.9494240880012512 1 True True
4923.992 4.426586627960205 -1.3837073159268876 1.6888893286334437 -1.8759547672667445 -1.5707443396197718 2.8559184074401855 -1.022856593132019 0.0016296785324811935 -0.0019910954870283604 0.00035788590321317315 7.520330310484324e-21 -1.0137969255447388 1 True True
4924.0419999999995 4.374493598937988 -1.3835993123105546 1.6887901465045374 -1.8760143719115199 -1.5708048979388636 2.803577423095703 -1.048248529434204 0.0031627595890313387 -0.004203306045383215 0.0006156964227557182 1.1423399094160552e-39 -1.042478322982788 1 True True
4924.092 4.322129249572754 -1.3835779440454026 1.6886304060565394 -1.8759070835509242 -1.5707810560809534 2.7513158321380615 -1.0454998016357422 0.0019634251948446035 -0.0037126075476408005 0.0005284056533128023 0.0003405743045732379 -1.0527617931365967 1 True True
4924.142 4.269773006439209 -1.3834523570588608 1.6885173956500452 -1.8758751354613246 -1.5707648436175745 2.6990673542022705 -1.0474499464035034 0.0017083782004192472 -0.0021769977174699306 0.00041522379615344107 9.587289241608232e-05 -1.0466536283493042 1 True True
4924.192 4.21744441986084 -1.3833323431066056 1.6884062925921839 -1.8758303127684535 -1.5708287397967737 2.6464805603027344 -1.0500309467315674 0.0024144966155290604 -0.002596220700070262 0.0005363785894587636 -5.823134509308492e-12 -1.03913152217865 1 True True
4924.242 4.165042877197266 -1.3832589101842423 1.6883147398578089 -1.8758465252318324 -1.5707967917071741 2.5941550731658936 -1.0451734066009521 0.0014655872946605086 -0.0020955237559974194 0.0004020327760372311 -1.94608546166819e-07 -1.0508266687393188 1 True True
4924.2919999999995 4.112694263458252 -1.3831645560315629 1.688206974660055 -1.8758312664427699 -1.5707491079913538 2.541881799697876 -1.0456533432006836 0.0018954654224216938 -0.001657035667449236 0.0004796632856596261 -8.980457641882822e-05 -1.0468381643295288 1 True True
4924.342 4.060415267944336 -1.3830773842385788 1.6880171934710901 -1.8757835827269496 -1.5708006064044397 2.4894933700561523 -1.0505980253219604 0.002802422037348151 -0.0027106362394988537 0.0005582662997767329 -2.562944127759703e-11 -1.0459977388381958 1 True True
4924.392 4.007955074310303 -1.382944108252861 1.6879842917071741 -1.8757668934264125 -1.5707529226886194 2.4371140003204346 -1.0451502799987793 0.001763775828294456 -0.002836748491972685 0.0007619630778208375 0.00025374777032993734 -1.0541880130767822 1 True True
4924.442 3.955622673034668 -1.382869155412056 1.6879003683673304 -1.8757716617979945 -1.5707767645465296 2.3848867416381836 -1.0459293127059937 0.0018291871529072523 -0.0017451336607336998 0.00039454063517041504 -9.088626393349841e-05 -1.0487115383148193 1 True True
4924.492 3.903231143951416 -1.3827312302640458 1.6876862684832972 -1.8757034740843714 -1.5707767645465296 2.3324337005615234 -1.0523837804794312 0.0024892399087548256 -0.002969075459986925 0.0003500656457617879 2.060468432318885e-05 -1.0446244478225708 1 True True
4924.5419999999995 3.850851058959961 -1.382696510558464 1.6876118818866175 -1.8757606945433558 -1.5707648436175745 2.279978036880493 -1.0470112562179565 0.0018441644497215748 -0.003037242218852043 0.0008564782328903675 -2.533476362032161e-08 -1.051555871963501 1 True True
4924.592 3.7984650135040283 -1.38264715791259 1.6875575224505823 -1.875712057153219 -1.570784870778219 2.227827548980713 -1.0472502708435059 0.0017327351961284876 -0.001828423235565424 0.0003939527668990195 -0.00013281482097227126 -1.0484247207641602 1 True True
4924.642 3.7461256980895996 -1.3824929159930726 1.6873887220965784 -1.8756596050658167 -1.570784870778219 2.1752896308898926 -1.0525702238082886 0.0027492400258779526 -0.0029805644880980253 0.0005231308750808239 7.241632556542754e-05 -1.0428807735443115 1 True True
4924.692 3.693847894668579 -1.3823384505561371 1.6872480551349085 -1.8756562672057093 -1.5707610289203089 2.1229560375213623 -1.0445934534072876 0.0017134799854829907 -0.0036200126633048058 0.000999203883111477 -1.173471364523948e-08 -1.051688313484192 1 True True
4924.742 3.641448974609375 -1.382345662718155 1.6871641317950647 -1.8756643734373988 -1.5707805792437952 2.0706710815429688 -1.0460187196731567 0.001652289880439639 -0.0015470845391973853 0.00044350576354190707 -0.00012926632189191878 -1.0455843210220337 1 True True
4924.7919999999995 3.5891237258911133 -1.3821959060481568 1.6870325247394007 -1.8756162128844203 -1.5707967917071741 2.0182735919952393 -1.0544277429580688 0.002182695781812072 -0.002370745874941349 0.000405749335186556 -1.8681297660805285e-05 -1.044122338294983 1 True True
4924.842 3.536691427230835 -1.3821569991162796 1.6869338194476526 -1.875596662560934 -1.570801083241598 1.9658474922180176 -1.0425221920013428 0.0027174341958016157 -0.0030401316471397877 0.000725821009837091 -7.088649311981499e-08 -1.0459685325622559 1 True True
4924.892 3.4843356609344482 -1.3820698273232956 1.6868298689471644 -1.875540395776266 -1.5707805792437952 1.9135552644729614 -1.0444284677505493 0.0017422023229300976 -0.001423098612576723 0.0003850616340059787 -1.0767674792726797e-26 -1.0484408140182495 1 True True
4924.942 3.4320032596588135 -1.3819171351245423 1.6867149511920374 -1.8755036793150843 -1.570824925099508 1.8611680269241333 -1.0507081747055054 0.0020556782837957144 -0.0034005711786448956 0.0003925008641090244 -9.107882215175778e-05 -1.0413819551467896 1 True True
4924.992 3.3796260356903076 -1.381857008939125 1.6865204016314905 -1.8755694828429164 -1.5708044211017054 1.8087857961654663 -1.0460954904556274 0.002739852061495185 -0.0030985840130597353 0.000707398634403944 -6.4582731200900565e-19 -1.0551527738571167 1 True True
4925.0419999999995 3.3272528648376465 -1.381777600651123 1.6864383856402796 -1.8755046329894007 -1.570772949849264 1.7565525770187378 -1.0456228256225586 0.0015363683924078941 -0.00136280944570899 0.0004608339804690331 1.4353197741456825e-08 -1.0513654947280884 1 True True
4925.092 3.274975061416626 -1.3816605669311066 1.6862977186786097 -1.875481744805807 -1.5708048979388636 1.704124093055725 -1.051950454711914 0.0025899074971675873 -0.0021870064083486795 0.0005298905889503658 2.180254578740409e-27 -1.0454446077346802 1 True True
4925.142 3.2225964069366455 -1.3816321653178711 1.6862571875201624 -1.875481744805807 -1.570813004170553 1.6517279148101807 -1.047743558883667 0.0025619356893002987 -0.004023251123726368 0.000594288285356015 0.0002517611428629607 -1.0457518100738525 1 True True
4925.192 3.170168876647949 -1.381535993223526 1.6861475149737757 -1.8754250011839808 -1.570784870778219 1.5994110107421875 -1.0452213287353516 0.0019731807988137007 -0.0014436431229114532 0.000337490055244416 2.519957116239868e-12 -1.0481528043746948 1 True True
4925.242 3.119286060333252 -1.3814104509404679 1.6859954039203089 -1.8754378757872523 -1.5708168188678187 1.548370361328125 -0.9908894300460815 0.0022705127485096455 -0.001689677475951612 0.0004155892238486558 3.827821264399026e-31 -0.9851141571998596 1 True True
4925.2919999999995 3.071504592895508 -1.38129015386615 1.6858590284930628 -1.8754178486266078 -1.5708254019366663 1.5007847547531128 -0.9142831563949585 0.001464395085349679 -0.002411704510450363 0.00026959163369610906 0.00013141255476512015 -0.9267072081565857 1 True True
4925.342 3.027466297149658 -1.3811839681914826 1.6858661810504358 -1.8753615818419398 -1.570829216633932 1.4566487073898315 -0.8524320721626282 0.0014790281420573592 -0.001491150469519198 0.00038510648300871253 0.0001722996385069564 -0.8480366468429565 1 True True
4925.392 2.986851692199707 -1.3811583381942292 1.6856959501849573 -1.8753701649107875 -1.5707648436175745 1.4160252809524536 -0.7775294184684753 0.0019616729114204645 -0.0026119062677025795 0.0003699820372276008 -4.018448635179084e-06 -0.7849625945091248 1 True True
4925.442 2.9497299194335938 -1.3810863357833405 1.6856239477740687 -1.8753344021239222 -1.570784870778219 1.378933310508728 -0.7048565149307251 0.0009559646132402122 -0.0010295677930116653 0.000275332567980513 -6.104032135201041e-25 -0.7113339304924011 1 True True
4925.492 2.916046142578125 -1.381038488154747 1.685535732899801 -1.8753420315184535 -1.5707281271563929 1.3453153371810913 -0.6390634179115295 0.0010234002256765962 -0.0007470747223123908 0.0002261833578813821 0.00010809698869707063 -0.63922119140625 1 True True
4925.5419999999995 2.885976552963257 -1.3809649658254166 1.6854546705829065 -1.875326772729391 -1.5707891623126429 1.3151599168777466 -0.5679438710212708 0.00061701430240646 -0.0006458554998971522 0.00043066346552222967 -2.159568968096437e-09 -0.5749375820159912 1 True True
4925.592 2.8593578338623047 -1.3809423309615632 1.6854208151446741 -1.8753138981261195 -1.5707686583148401 1.2884951829910278 -0.49879127740859985 0.0007419182802550495 -0.0004875619488302618 0.00024975521955639124 -3.2803912149210857e-28 -0.4978843033313751 1 True True
4925.642 2.8361740112304688 -1.3808958989432831 1.6853678862201136 -1.875270505944723 -1.5708168188678187 1.2653439044952393 -0.42702314257621765 0.0007653554785065353 -0.0005646833451464772 0.0002428050502203405 0.0002750144340097904 -0.42775559425354004 1 True True
4925.692 2.816425323486328 -1.3808256697705765 1.6853755156146448 -1.8752786121764125 -1.5708006064044397 1.2456239461898804 -0.35652047395706177 0.001247798791155219 -0.0007548535941168666 0.00015873204392846674 1.525798865031902e-08 -0.35923781991004944 1 True True
4925.742 2.8003218173980713 -1.3808268171599885 1.6853049437152308 -1.8752418957152308 -1.5708211104022425 1.2294613122940063 -0.29140612483024597 0.0008044943679124117 -0.0006980198086239398 0.00012601017078850418 2.317692406245782e-27 -0.291811466217041 1 True True
4925.7919999999995 2.787534475326538 -1.3807941240123291 1.6852691809283655 -1.8752743206419886 -1.5708211104022425 1.2167693376541138 -0.22175879776477814 0.00040547881508246064 -0.0007608832675032318 9.600317571312189e-05 -7.392920088022947e-05 -0.22253334522247314 1 True True
4925.842 2.778365135192871 -1.3808149111321946 1.6852691809283655 -1.8753067455687464 -1.5707843939410608 1.207648754119873 -0.14917662739753723 0.0003621680662035942 -0.0006057829014025629 7.420042675221339e-05 -8.630311640445143e-05 -0.14861352741718292 1 True True
4925.892 2.7727274894714355 -1.3807956141284485 1.6852453390704554 -1.8752905331053675 -1.5707767645465296 1.20194673538208 -0.08269447833299637 0.00023564814182464033 -0.00033846122096292675 1.5381659834723393e-10 -1.962280111911241e-05 -0.08221223205327988 1 True True
4925.942 2.7705209255218506 -1.3807459634593506 1.6852377096759241 -1.875253816644186 -1.5707724730121058 1.199676275253296 -0.011063769459724426 0.00015999512106645852 -0.00022673729108646512 2.3364781736831093e-29 -1.2699806575255934e-05 -0.010504682548344135 1 True True
4925.992 2.7704713344573975 -1.3800249856761475 1.6858332792865198 -1.8764368496336878 -1.5707724730121058 1.1996599435806274 -0.00028971891151741147 0.024050112813711166 0.03778720274567604 -0.059810809791088104 -1.257490856235166e-12 4.572364559862763e-05 1 True True
4926.0419999999995 2.7704758644104004 -1.3785465520671387 1.6887310186969202 -1.8812509975829066 -1.5708211104022425 1.199649453163147 -0.0006915104459039867 0.04411587491631508 0.08266804367303848 -0.13833080232143402 -1.9101311827627492e-31 4.868859725612707e-20 1 True True
4926.092 2.7704696655273438 -1.3754956883243104 1.6942084471331995 -1.8895460567870082 -1.5707405249225062 1.1996524333953857 -0.000997847761027515 0.07252485305070877 0.13128621876239777 -0.21068716049194336 -0.0 -0.00024452179786749184 1 True True
4926.142 2.7704203128814697 -1.3712211859277268 1.7017787138568323 -1.9013530216612757 -1.5707529226886194 1.1996119022369385 -0.0002818627399392426 0.09614747762680054 0.16496865451335907 -0.25670579075813293 -0.0 -0.00013513320300262421 1 True True
4926.192 2.770411252975464 -1.3656487178853531 1.711311165486471 -1.91656555751943 -1.570801083241598 1.199649453163147 -0.00041005562525242567 0.12432056665420532 0.21614333987236023 -0.3375053107738495 -0.0 -0.0001227839820785448 1 True True
4926.242 2.7704741954803467 -1.3587594342282792 1.7231867949115198 -1.9353705845274867 -1.5708335081683558 1.199600100517273 -0.00018861463468056172 0.1482209861278534 0.2543081045150757 -0.4061484634876251 -0.0 -0.00014040670066606253 1 True True
4926.2919999999995 2.7704081535339355 -1.3505315047553559 1.737537686024801 -1.95750155071401 -1.5708416144000452 1.1996361017227173 -0.00011398122296668589 0.17607760429382324 0.30062708258628845 -0.47148919105529785 -0.0 -9.255086479242891e-05 1 True True
4926.342 2.7704248428344727 -1.341053531771042 1.7535513083087366 -1.9832102260985316 -1.5707767645465296 1.199579119682312 -5.434221020550467e-05 0.20296254754066467 0.3505550026893616 -0.5428493022918701 -4.1919171053450555e-05 -7.334595284191892e-05 1 True True
4926.392 2.7703752517700195 -1.3310131591609498 1.7709296385394495 -2.0106731853880824 -1.570801083241598 1.199613332748413 -7.047306382901297e-08 0.18875038623809814 0.32679739594459534 -0.5411979556083679 1.1699751004167272e-14 -3.683461521908349e-11 1 True True
4926.442 2.7704126834869385 -1.3221550744822999 1.7863238493548792 -2.0350176296629847 -1.5707805792437952 1.1995627880096436 0.0 0.16909314692020416 0.28500932455062866 -0.46142083406448364 1.777194827848684e-33 -5.595186847993108e-30 1 True True
4926.492 2.7703874111175537 -1.3144348126700898 1.7994869391070765 -2.055873533288473 -1.5708254019366663 1.1996241807937622 0.0 0.14182449877262115 0.2379758059978485 -0.3932575285434723 0.0 -0.0 1 True True
4926.5419999999995 2.7704169750213623 -1.308105544453003 1.810441795979635 -2.073191305200094 -1.570813004170553 1.1996910572052002 0.0 0.11247006058692932 0.20191684365272522 -0.31384438276290894 0.0 -0.0 1 True True
4926.592 2.7703917026519775 -1.3031168741038819 1.8192127386676233 -2.087083478967184 -1.5708048979388636 1.199649453163147 0.0 0.0895952433347702 0.15119805932044983 -0.23248441517353058 0.0 -0.0 1 True True
4926.642 2.7703917026519775 -1.2992963057807465 1.8260090986834925 -2.097494741479391 -1.5708211104022425 1.199607491493225 0.0 0.062130581587553024 0.10702382773160934 -0.18157073855400085 0.0 -0.0 1 True True
4926.692 2.770448684692383 -1.2967381936362763 1.8301718870746058 -2.1044355831541957 -1.570824925099508 1.1995747089385986 0.0 0.03944338113069534 0.068018838763237 -0.10899258404970169 0.0 -0.0 1 True True
4926.742 2.7704293727874756 -1.295839325790741 1.8317669073687952 -2.1078764400877894 -1.5707767645465296 1.1996252536773682 0.0 0.010902930982410908 0.022187914699316025 -0.03430083766579628 0.002517479471862316 -0.0 1 True True
4926.7919999999995 2.770432233810425 -1.2958423358253022 1.8318379561053675 -2.1081391773619593 -1.5708006064044397 1.1996495723724365 0.0 0.005540900863707066 0.004671960603445768 0.0004965284606441855 9.86910077409941e-22 -0.0 1 True True
4926.842 2.770415782928467 -1.295100138788559 1.8325961271869105 -2.1079594097533167 -1.5707686583148401 1.1996119022369385 0.0 0.01640237495303154 0.023744413629174232 0.021513229236006737 0.0008478926029056311 -0.0 1 True True
4926.892 2.7704081535339355 -1.2950731080821534 1.8329866568194788 -2.10789217571401 -1.5708168188678187 1.199585199356079 0.0 -0.008563042618334293 -0.008283253759145737 -0.015210969373583794 0.00012500263983383775 -0.0007404975476674736 1 True True
4926.942 2.770432233810425 -1.2951809626868744 1.8329618612872522 -2.1079637012877406 -1.5707362333880823 1.1996331214904785 0.0 -0.007840619422495365 -0.004175515845417976 -0.0055057937279343605 -6.416210396252431e-22 8.129246270982549e-05 1 True False
4926.992 2.7704203128814697 -1.2952604454806824 1.8329060713397425 -2.1079870663084925 -1.570784870778219 1.199600100517273 0.0 -0.0031753184739500284 -0.003914620727300644 -0.0015471114311367273 -9.746170949225535e-41 -4.755853311166902e-08 1 True False
4927.0419999999995 2.7704575061798096 -1.2952915591052552 1.832794491444723 -2.108115335504049 -1.5707810560809534 1.1996331214904785 0.0 -8.743329090066254e-05 -0.001649381942115724 -0.00043821861618198454 -0.0 -7.224153206560811e-27 1 True False
4927.092 2.770394802093506 -1.2952990990928193 1.832686726246969 -2.1080833874144496 -1.5707805792437952 1.1996331214904785 0.0 -5.0997485232073814e-05 -0.001746656373143196 -0.00011437209468567744 -0.0 -1.401298464324817e-45 1 True False
4927.142 2.7703750133514404 -1.29611228526149 1.8314574400531214 -2.106622358361715 -1.5707929770099085 1.1996241807937622 0.0 -0.02471982315182686 -0.04535812512040138 0.0674901157617569 -0.0 -0.0 1 True False
4927.192 2.7704036235809326 -1.2976844173720856 1.828301731740133 -2.10129513363027 -1.5707362333880823 1.1995911598205566 0.0 -0.05072794854640961 -0.09152252227067947 0.14674755930900574 -6.032629607943818e-05 -0.0 1 True False
4927.242 2.7703874111175537 -1.300908700828888 1.8228572050677698 -2.09254850963735 -1.5707925001727503 1.1996119022369385 0.0 -0.07760847359895706 -0.12855930626392365 0.20950739085674286 -0.00010973078315146267 -0.0 1 True False
4927.2919999999995 2.7704575061798096 -1.3054909867099305 1.8149617354022425 -2.0805770359435023 -1.5707686583148401 1.1996241807937622 6.434386309631238e-35 -0.10231007635593414 -0.17825810611248016 0.2815592885017395 -6.891239172546193e-05 -0.0 1 True False
4927.342 2.7704410552978516 -1.3112075191787262 1.8051446119891565 -2.0649167499937953 -1.5707972685443323 1.199607491493225 0.0 -0.12486651539802551 -0.21808110177516937 0.3580302298069 -5.979984416626394e-05 -0.0 1 True False
4927.392 2.770415782928467 -1.3182221812060853 1.7932522932635706 -2.045821805993551 -1.5707767645465296 1.19965398311615 0.0 -0.14980949461460114 -0.2613759934902191 0.42202749848365784 -9.083609472457831e-24 -0.0 1 True False
4927.442 2.7704203128814697 -1.3264925640872498 1.7787483374225062 -2.023306509057516 -1.570796314870016 1.199607491493225 8.993015944724903e-05 -0.18106524646282196 -0.31241825222969055 0.4938863217830658 -3.203093001502566e-06 -0.0 1 True False
4927.492 2.7703962326049805 -1.336005152469017 1.7623804251300257 -1.9971472225584925 -1.5707925001727503 1.1996583938598633 2.5930883566616103e-05 -0.20681986212730408 -0.34822121262550354 0.559208869934082 -1.7096174736302983e-12 -0.0 1 True False
4927.5419999999995 2.7704367637634277 -1.3461419504931946 1.7451069990741175 -1.9699489078917445 -1.5707686583148401 1.1996315717697144 3.0146986318868585e-05 -0.18508319556713104 -0.32466164231300354 0.52294921875 -0.00024381438561249524 1.183171199903299e-10 1 True False
4927.592 2.770399332046509 -1.3547623765519639 1.7299802939044397 -1.94598450283193 -1.5707486311541956 1.1996029615402222 3.187459515174851e-05 -0.16514469683170319 -0.2851581573486328 0.4459315836429596 5.696669264781962e-14 1.7972391550400038e-29 1 True False
4927.642 2.770399332046509 -1.3623327177814026 1.7170103232013147 -1.9254070721068324 -1.570796314870016 1.199631690979004 1.8637269575520067e-43 -0.13902582228183746 -0.24039478600025177 0.3802450895309448 8.653253257416478e-33 0.0 1 True False
4927.692 2.7704038619995117 -1.3685715359500428 1.7064030806170862 -1.9086486301817835 -1.570784870778219 1.1996241807937622 0.0 -0.11338778585195541 -0.1946185976266861 0.3032247722148895 0.0 0.0 1 True False
4927.742 2.770432233810425 -1.37345144272361 1.6979458967791956 -1.8950096569456996 -1.5707925001727503 1.1996285915374756 0.0 -0.08672905713319778 -0.15304455161094666 0.23075281083583832 0.0 0.0 1 True False
4927.7919999999995 2.7705111503601074 -1.3771608483842392 1.691395107899801 -1.8850285015501917 -1.5708006064044397 1.199627161026001 0.0 -0.06045493111014366 -0.10833925008773804 0.16454888880252838 6.061673385460153e-10 0.0 1 True False
4927.842 2.7704617977142334 -1.3795388799956818 1.6872747580157679 -1.8784319363036097 -1.5708211104022425 1.1996151208877563 0.0 -0.03618600219488144 -0.05699096992611885 0.0918000265955925 9.207696526714165e-29 0.0 1 True False
4927.892 2.7704453468322754 -1.3806913656047364 1.685453240071432 -1.8756042919554652 -1.5707529226886194 1.199661374092102 0.0 -0.01120961643755436 -0.017208468168973923 0.02472613751888275 0.0 0.0 1 True False
4927.942 2.7704203128814697 -1.3807079505971451 1.6853082815753382 -1.8753577671446742 -1.5708449522601526 1.1996119022369385 0.0 0.0002748113765846938 -2.2191724505108215e-14 -5.171845729456948e-10 0.0 0.0 1 False False
4927.992 2.7704038619995117 -1.380584867005684 1.685333553944723 -1.8753820858397425 -1.5707805792437952 1.1996196508407593 0.0 -0.00018623692449182272 -0.00010857685265364125 0.0009945929050445557 0.0 0.0 1 False False
4928.0419999999995 2.7704572677612305 -1.3807067585042496 1.6852720419513147 -1.875362058679098 -1.5707724730121058 1.1996164321899414 0.0 -0.00029152812203392386 -0.0003651929146144539 0.001630185404792428 0.0 0.0 1 False False
4928.092 2.7704408168792725 -1.38068179905925 1.6852691809283655 -1.8752991161742152 -1.570801083241598 1.1996119022369385 0.0 -0.000376235693693161 -0.0003960634348914027 0.002303461544215679 0.0 0.0 1 False False
4928.142 2.770460605621338 -1.3806774777225037 1.6852615515338343 -1.8752180538573207 -1.5708168188678187 1.1996852159500122 0.0 -0.00027579793822951615 -0.0005283548962324858 0.0002953775110654533 0.0 0.0 1 False False
4928.192 2.7704005241394043 -1.3806850922158738 1.6852362791644495 -1.8752833805479945 -1.570813004170553 1.199661374092102 0.0 -0.00012653310841415077 -0.00039466441376134753 0.0001038703485392034 0.0 0.0 1 False False
4928.242 2.770399570465088 -1.3807219427875062 1.6852543989764612 -1.8753181896605433 -1.5708211104022425 1.1995866298675537 0.0 -0.00010378933802712709 -0.00017673303955234587 6.586127710761502e-05 0.0 0.0 1 False False
4928.2919999999995 2.770427942276001 -1.3807001125863572 1.6852291266070765 -1.875230451623434 -1.5708449522601526 1.1996240615844727 0.0 -8.811189036350697e-05 -0.00010812270920723677 2.1993029974964884e-07 0.0 0.0 1 False False
4928.342 2.770423650741577 -1.3807384383729477 1.6851871649371546 -1.8752829037108363 -1.5708416144000452 1.1996405124664307 0.0 -8.281726331915706e-05 -9.456594125367701e-05 3.340745198627716e-26 0.0 0.0 1 False False
4928.392 2.770378828048706 -1.3807632488063355 1.6852005163775843 -1.8752385578551234 -1.5708368460284632 1.1996568441390991 0.0 -6.137352633761445e-26 -5.187670922168763e-06 5.605193857299268e-45 0.0 0.0 1 False False
4928.442 2.770432233810425 -1.3806926173022767 1.685192886983053 -1.8752786121764125 -1.570801083241598 1.1996480226516724 0.0 -1.5474772852019925e-10 -5.257355223875493e-05 0.0 0.0 0.0 1 False False
4928.492 2.7704572677612305 -1.3807667952826996 1.685267750416891 -1.875253816644186 -1.5708373228656214 1.1996703147888184 0.0 0.0 -9.849728144093739e-29 0.0 0.0 0.0 1 False False
4928.5419999999995 2.770510673522949 -1.3807502698949357 1.6852052847491663 -1.875207086602682 -1.5707529226886194 1.1996119022369385 0.0 0.0 -0.0 0.0 0.0 0.0 1 False False
4928.592 2.770411729812622 -1.380708785062172 1.6852253119098108 -1.8752385578551234 -1.5708006064044397 1.1996420621871948 0.0 0.0 -0.0 8.949444891042905e-18 0.0 0.0 1 False False
4928.642 2.770416021347046 -1.3807253253510972 1.6852424780475062 -1.875254293481344 -1.5707967917071741 1.1996285915374756 0.0 0.0 -0.0 1.3594232717388074e-36 0.0 0.0 1 False False
4928.692 2.7704648971557617 -1.3806937050870438 1.6852052847491663 -1.8752428493895472 -1.5708125273333948 1.199665904045105 0.0 0.0 -0.0 0.0 0.0 0.0 1 False False
4928.742 2.77044415473938 -1.3807174873403092 1.6851723829852503 -1.8751775226988734 -1.5707529226886194 1.1995866298675537 0.0 0.0 -0.0 0.0 0.0 0.0 1 False False
4928.7919999999995 2.770416021347046 -1.3807297360948105 1.6851971785174769 -1.875253816644186 -1.5707967917071741 1.1996568441390991 0.0 0.0 -0.0 0.0 0.0 0.0 1 False False
4928.842 2.770465850830078 -1.3807873886874695 1.6851962248431605 -1.8752266369261683 -1.5707886854754847 1.1996732950210571 0.0 0.0 -0.0 -3.0163518349723972e-09 0.0 0.0 1 True False
4928.892 2.770432233810425 -1.3807384234717865 1.6852095762835901 -1.8752747974791468 -1.5708125273333948 1.1996538639068604 0.0 0.0 -0.0 -4.581846560043024e-28 0.0 0.0 1 True False
4928.942 2.770399570465088 -1.3807012897780915 1.6851795355426233 -1.8752309284605921 -1.570784870778219 1.1996731758117676 0.0 0.0 -0.0 -0.0 8.926982070223133e-11 0.0 1 True False
4928.992 2.770416021347046 -1.380716697578766 1.685213867818014 -1.8752385578551234 -1.5707767645465296 1.1996703147888184 0.0 0.0 -0.0 -0.0 1.356010259876934e-29 0.0 1 True False
4929.0419999999995 2.7704203128814697 -1.3807667803815384 1.6852014700519007 -1.8753305874266566 -1.5707405249225062 1.1996331214904785 1.961817850054744e-44 0.0 -0.0 -0.0 0.0 0.0 1 True False
4929.092 2.7704005241394043 -1.3807952565005799 1.6851962248431605 -1.875253816644186 -1.5707929770099085 1.1996241807937622 0.0 0.0 -0.0 -0.0 0.0 0.0 1 True False
4929.142 2.770427942276001 -1.380721078520157 1.6852343718158167 -1.8752457104124964 -1.5707691351519983 1.19959557056427 0.0 0.0 -0.0 -0.0 0.0 0.0 1 True False
4929.192 2.770416021347046 -1.3807132107070466 1.6851723829852503 -1.8752747974791468 -1.5708006064044397 1.1996701955795288 0.0 0.0 -0.0 -1.5769778832316786e-16 0.0 0.0 1 True False
4929.242 2.7704246044158936 -1.3807581079057236 1.6852181593524378 -1.8753024540343226 -1.5707452932940882 1.1996089220046997 0.0 0.0 -0.0 -2.395432920489123e-35 2.408254151653466e-10 0.0001861699129221961 1 True False
4929.2919999999995 2.7704081535339355 -1.3807132256082078 1.6851723829852503 -1.875298639337057 -1.570772949849264 1.1995881795883179 0.0 0.0 -0.0 -0.0 3.658144137363481e-29 3.9408120811054646e-23 1 True False
4929.342 2.7704203128814697 -1.3807218831828614 1.6852095762835901 -1.8752500019469203 -1.5707886854754847 1.1996030807495117 0.0 0.0 -0.0 -0.0 0.0 4.146568054604017e-15 1 True False
4929.392 2.7704203128814697 -1.3806969982436677 1.6852009932147425 -1.8753024540343226 -1.570853058491842 1.1996153593063354 0.0 0.0 -0.0 -0.0 -8.59838692122139e-05 6.298642196461447e-34 1 True False
4929.442 2.770432233810425 -1.3806882959655304 1.685192886983053 -1.875298639337057 -1.5707529226886194 1.1996331214904785 0.026833301410079002 0.0 -0.0 -0.0 -2.4282122757215676e-20 0.006862007547169924 1 True False
4929.492 2.772646188735962 -1.3805726629546662 1.6849897543536585 -1.875282426873678 -1.5707929770099085 1.2018910646438599 0.07771559804677963 0.005668307188898325 -0.01083963830024004 -5.8781697731546956e-08 -3.6884585814387824e-39 0.08050410449504852 1 True False
4929.5419999999995 2.778435230255127 -1.38016930342231 1.684343163167135 -1.8751875362791957 -1.570813004170553 1.2076932191848755 0.1501849889755249 0.012367344461381435 -0.014073697850108147 0.00635245768353343 -0.0 0.14572617411613464 1 True False
4929.592 2.787764310836792 -1.3795835983804245 1.683544937764303 -1.874812742272848 -1.570784870778219 1.216922402381897 0.22080469131469727 0.014093239791691303 -0.020858099684119225 0.004857345949858427 -0.0 0.21656455099582672 1 True False
4929.642 2.8005332946777344 -1.3786349904588242 1.682270352040426 -1.8745304546751917 -1.570784870778219 1.2296714782714844 0.2862839102745056 0.02197529561817646 -0.028091032058000565 0.006544515490531921 -0.0 0.2891363501548767 1 True False
4929.692 2.816638708114624 -1.3773301106742402 1.680763069783346 -1.8741933308043421 -1.5708406607257288 1.245964527130127 0.35991621017456055 0.02868957258760929 -0.033331867307424545 0.008771710097789764 -0.0 0.35464826226234436 1 True False
4929.742 2.836503267288208 -1.3759691727212449 1.678950611745016 -1.8737207851805628 -1.570784870778219 1.2656137943267822 0.42787620425224304 0.030221959576010704 -0.04233893007040024 0.008275037631392479 -0.0 0.43200820684432983 1 True False
4929.7919999999995 2.859745740890503 -1.374176488523819 1.6765101591693323 -1.8732673130431117 -1.5708335081683558 1.2888641357421875 0.49931761622428894 0.03591592609882355 -0.04795214533805847 0.012460455298423767 -0.0 0.4941679835319519 1 True False
4929.842 2.886296272277832 -1.3721799862435837 1.6739357153521937 -1.8726822338499964 -1.5708087126361292 1.315521001815796 0.5675127506256104 0.04250604659318924 -0.05173281580209732 0.013264590874314308 -0.0 0.56494140625 1 True False
4929.892 2.916468620300293 -1.3699721705964585 1.671215836201803 -1.8719712696471156 -1.5707886854754847 1.3458383083343506 0.6379940509796143 0.04533213749527931 -0.06630205363035202 0.010845586657524109 0.00012273956963326782 0.6361892223358154 1 True False
4929.942 2.9501285552978516 -1.367538796072342 1.6679099241839808 -1.8711306057372035 -1.570784870778219 1.3794007301330566 0.7074862122535706 0.052153341472148895 -0.06721049547195435 0.01439494639635086 0.00019439845345914364 0.7071073055267334 1 True False
4929.992 2.9874677658081055 -1.3647795480540772 1.6643412748919886 -1.870312353173727 -1.5708449522601526 1.4165730476379395 0.7739753127098083 0.057141248136758804 -0.07640048116445541 0.01492460910230875 0.0002521614951547235 0.7736887335777283 1 True False
4930.0419999999995 3.028191328048706 -1.361793116932251 1.6602681318866175 -1.8694421253600062 -1.5708168188678187 1.4573115110397339 0.842573344707489 0.06391564011573792 -0.08191369473934174 0.018979806452989578 -5.1433260428446204e-11 0.8460857272148132 1 True False
4930.092 3.0722408294677734 -1.358541579251625 1.6560967604266565 -1.8683649502196253 -1.5708211104022425 1.5015252828598022 0.9226335287094116 0.06684110313653946 -0.09134570509195328 0.023879075422883034 0.00019032499403692782 0.9128066897392273 1 True False
4930.142 3.1199028491973877 -1.3550543648055573 1.6515467802630823 -1.8671990833678187 -1.5707643667804163 1.5490955114364624 0.9832876920700073 0.07666096836328506 -0.09120400249958038 0.02561122737824917 1.9121545318272954e-22 0.9871107339859009 1 True False
4930.192 3.170928716659546 -1.351294384603836 1.6465967337237757 -1.8661943874754847 -1.5707805792437952 1.600225567817688 1.0379154682159424 0.07759923487901688 -0.1059601679444313 0.018384987488389015 -5.034292982486477e-09 1.0418694019317627 1 True False
4930.242 3.2233545780181885 -1.3473419112018128 1.6415827910052698 -1.864889761010641 -1.5707891623126429 1.6525547504425049 1.048717975616455 0.07636681199073792 -0.10048681497573853 0.02198317088186741 0.0010975361801683903 1.0491915941238403 1 True False
4930.2919999999995 3.2757251262664795 -1.3435727965882798 1.6365426222430628 -1.8637248478331507 -1.5708406607257288 1.704894781112671 1.0453484058380127 0.07662023603916168 -0.09752845764160156 0.029134897515177727 -9.666645928518847e-05 1.0456812381744385 1 True False
4930.342 3.3280110359191895 -1.3397600662759324 1.631324593220846 -1.86259188274526 -1.5707805792437952 1.7572187185287476 1.0494846105575562 0.07360249757766724 -0.09657040238380432 0.02050979621708393 -8.35860992083326e-05 1.0415880680084229 1 True False
4930.392 3.3804116249084473 -1.3358710420182724 1.6263130346881312 -1.8613153896727503 -1.5708048979388636 1.8096492290496826 1.047121286392212 0.07501760870218277 -0.10018139332532883 0.02459844760596752 1.250390102569554e-08 1.0424623489379883 1 True False
4930.442 3.432800054550171 -1.3319775027087708 1.6213987509356897 -1.8601037464537562 -1.5707724730121058 1.8619834184646606 1.0437681674957275 0.08020326495170593 -0.10095246881246567 0.02463889867067337 -8.099199476419017e-05 1.0448940992355347 1 True False
4930.492 3.4850828647613525 -1.3281679612449189 1.616387669240133 -1.8589188061156214 -1.5708087126361292 1.9143719673156738 1.0509029626846313 0.07805527001619339 -0.0985708236694336 0.024001451209187508 -1.3149137465007298e-21 1.0468276739120483 1 True False
4930.5419999999995 3.5374395847320557 -1.3244037491134186 1.6112716833697718 -1.8578092060484828 -1.5708168188678187 1.9666626453399658 1.0508462190628052 0.07637335360050201 -0.09991377592086792 0.023285165429115295 -1.9973547791100213e-40 1.0523191690444946 1 True False
4930.592 3.5898847579956055 -1.3204337519458313 1.6063597838031214 -1.8566328487791957 -1.5707805792437952 2.0189316272735596 1.0406594276428223 0.0768236294388771 -0.10102085024118423 0.020369350910186768 -0.0 1.0467191934585571 1 True False
4930.642 3.642198324203491 -1.3165605825236817 1.6011970678912562 -1.8553840122618617 -1.5708168188678187 2.0714375972747803 1.0500476360321045 0.07734239101409912 -0.1011698916554451 0.024080045521259308 -1.0458716115380184e-09 1.04484224319458 1 True False
4930.692 3.694542646408081 -1.3127636772445221 1.5960505644427698 -1.8542033634581507 -1.5707486311541956 2.1237363815307617 1.0504698753356934 0.07458630949258804 -0.10083872079849243 0.02744491770863533 0.00019856895960401744 1.049994945526123 1 True False
4930.742 3.7469913959503174 -1.308821753864624 1.591071907673971 -1.8529511890807093 -1.5708087126361292 2.176177978515625 1.0415316820144653 0.0729198232293129 -0.10093843936920166 0.021371232345700264 8.876284570893408e-17 1.0475634336471558 1 True False
4930.7919999999995 3.7992725372314453 -1.3050854367068787 1.586083714162008 -1.8517824612059535 -1.5707405249225062 2.2285919189453125 1.0495086908340454 0.07561710476875305 -0.10043946653604507 0.01819293014705181 0.0002886700094677508 1.0447726249694824 1 True False
4930.842 3.851616144180298 -1.3011824053576966 1.580989185963766 -1.8505855999388636 -1.5708091894732874 2.2808473110198975 1.052056074142456 0.07728395611047745 -0.10141206532716751 0.02742435596883297 0.0005790946306660771 1.0509071350097656 1 True False
4930.892 3.9039971828460693 -1.2974512738040467 1.575989071522848 -1.8494249782957972 -1.5707882086383265 2.333092451095581 1.0450022220611572 0.07523615658283234 -0.09810206294059753 0.02394837886095047 4.759967850986868e-06 1.0474880933761597 1 True False
4930.942 3.9563255310058594 -1.2935679715922852 1.5708029905902308 -1.848252912560934 -1.570784870778219 2.385645627975464 1.049462080001831 0.07684251666069031 -0.10303576290607452 0.0238263588398695 0.00026992763741873205 1.0377455949783325 1 True False
4930.992 4.008767604827881 -1.2896229785731812 1.5658286253558558 -1.8469087086119593 -1.5707605520831507 2.4380006790161133 1.0502017736434937 0.076924629509449 -0.0997721403837204 0.028953269124031067 0.00020586182654369622 1.0460216999053955 1 True False
4931.0419999999995 4.061122417449951 -1.2858371895602723 1.5607474485980433 -1.8457514248290003 -1.5708254019366663 2.490253210067749 1.041866421699524 0.0793568566441536 -0.0979468822479248 0.024224281311035156 6.060447412892245e-05 1.047348141670227 1 True False
4931.092 4.11342716217041 -1.2819433373263855 1.555725399647848 -1.844614168206686 -1.5707891623126429 2.5426857471466064 1.0506359338760376 0.07455944269895554 -0.09670543670654297 0.022029390558600426 0.0004170210158918053 1.0451079607009888 1 True False
4931.142 4.165783882141113 -1.278020904665329 1.5506938139544886 -1.8434096775450648 -1.5707967917071741 2.5949862003326416 1.049402117729187 0.07444123923778534 -0.10337567329406738 0.02863209880888462 0.0003786835877690464 1.0505595207214355 1 True False
4931.192 4.218174934387207 -1.2742404800704499 1.5457990805255335 -1.842161317864889 -1.5708406607257288 2.647251844406128 1.0435982942581177 0.07892709970474243 -0.0999569371342659 0.022187959402799606 2.2337228529067943e-06 1.0491617918014526 1 True False
4931.242 4.270489692687988 -1.2704473298839112 1.5406549612628382 -1.8410526714720667 -1.5707529226886194 2.6997580528259277 1.0496126413345337 0.07464087754487991 -0.09916578233242035 0.02376517467200756 2.793743426703077e-13 1.0424766540527344 1 True False
4931.2919999999995 4.322881698608398 -1.2666567128947754 1.5354679266559046 -1.8397556744017542 -1.5707929770099085 2.7521612644195557 1.0495339632034302 0.07515929639339447 -0.10007517039775848 0.026574091985821724 1.9587462762871155e-09 1.0472973585128784 1 True False
4931.342 4.375238418579102 -1.2627093356898804 1.5304363409625452 -1.8386041126646937 -1.5708254019366663 2.8043408393859863 1.0426737070083618 0.07887090742588043 -0.10459546744823456 0.01858385279774666 2.9753398006521888e-28 1.047079086303711 1 True False
4931.392 4.427150726318359 -1.2588620346835633 1.5255802313434046 -1.8374344311156214 -1.570784870778219 2.8563594818115234 1.0127071142196655 0.07849951088428497 -0.0997140035033226 0.019208792597055435 -0.0005676636355929077 1.0108979940414429 1 True False
4931.442 4.475858211517334 -1.2553172272494812 1.5208929220782679 -1.8363210163512171 -1.5707648436175745 2.904971122741699 0.9458245635032654 0.06996569037437439 -0.08706776797771454 0.024386709555983543 -0.0002061300619971007 0.9560793042182922 1 True False
4931.492 4.521079063415527 -1.2518628996661683 1.516470734273092 -1.8352838955321253 -1.570756737385885 2.9504168033599854 0.8732957243919373 0.06171021610498428 -0.08757540583610535 0.01678824983537197 -2.9474559624925858e-21 0.8659589886665344 1 True False
4931.5419999999995 4.5630316734313965 -1.2489108604243775 1.5125544706927698 -1.8343211613097132 -1.5707967917071741 2.9920599460601807 0.7941275238990784 0.059816427528858185 -0.07489936798810959 0.019246770069003105 3.4761173992592376e-06 0.8038145303726196 1 True False
4931.592 4.601314067840576 -1.2460704010776062 1.508728329335348 -1.8334232769408167 -1.570829216633932 3.030388832092285 0.7355358600616455 0.05169987305998802 -0.07046441733837128 0.020708352327346802 7.106099656084552e-05 0.7427275776863098 1 True False
4931.642 4.636046886444092 -1.2435012322715302 1.505409065877096 -1.832592626611227 -1.570784870778219 3.065326452255249 0.6669301986694336 0.04805241525173187 -0.06452884525060654 0.015392264351248741 9.405299351783469e-05 0.6603676676750183 1 True False
4931.692 4.66742467880249 -1.2412797671607514 1.5022271315204065 -1.8318854771056117 -1.570845905934469 3.0965960025787354 0.592268705368042 0.042987897992134094 -0.05594410374760628 0.014113765209913254 -2.1831954654771835e-05 0.5945148468017578 1 True False
4931.742 4.69527006149292 -1.239154891376831 1.4996965567218226 -1.8312841854491175 -1.5707891623126429 3.124497413635254 0.5252320766448975 0.03717717155814171 -0.051346905529499054 0.011530219577252865 -1.0254107785101496e-08 0.5208511352539062 1 True False
4931.7919999999995 4.719576835632324 -1.2373593014529725 1.4973152319537562 -1.8307401142516078 -1.5707648436175745 3.148656129837036 0.45608973503112793 0.034009531140327454 -0.044476717710494995 0.010345946066081524 -0.0001616350346012041 0.4675537049770355 1 True False
4931.842 4.740397930145264 -1.235859529381134 1.4953435103045862 -1.8303224049010218 -1.5708168188678187 3.1696975231170654 0.38504400849342346 0.027544304728507996 -0.037125833332538605 0.009815095923841 1.470565336170182e-11 0.37853068113327026 1 True False
4931.892 4.757730960845947 -1.2345455151847382 1.4936984221087855 -1.8299533329405726 -1.5707805792437952 3.1870369911193848 0.31131669878959656 0.025981565937399864 -0.028318477794528008 0.007332747336477041 2.2337915387094007e-30 0.314140647649765 1 True False
4931.942 4.771692276000977 -1.2335749131492157 1.4924424330340784 -1.829583307305807 -1.5708335081683558 3.2007813453674316 0.24479851126670837 0.018268924206495285 -0.024880344048142433 0.005795207805931568 0.0 0.24683557450771332 1 True False
4931.992 4.7820515632629395 -1.2328572434237977 1.4913314024554651 -1.8293043575682582 -1.5707486311541956 3.2112154960632324 0.17340441048145294 0.012423038482666016 -0.018600041046738625 0.0054875994101166725 0.0 0.17566828429698944 1 True False
4932.0419999999995 4.788815975189209 -1.2323689025691529 1.490617577229635 -1.829217096368307 -1.5707967917071741 3.2181434631347656 0.10451553761959076 0.007370915729552507 -0.00988149642944336 0.003118522698059678 0.0 0.10289115458726883 1 True False
4932.092 4.792298793792725 -1.2320579451373597 1.490373436604635 -1.829158445397848 -1.5707805792437952 3.2214908599853516 0.03415459766983986 0.001567504950799048 -0.001637108507566154 0.0011991305509582162 0.0 0.035519324243068695 1 True False
4932.142 4.792592525482178 -1.2318670612624665 1.4905379454242151 -1.8295237026610316 -1.5708044211017054 3.221846580505371 -0.0008180199074558914 0.01972225308418274 0.019851960241794586 -0.025341467931866646 6.665960643713331e-13 -0.00026750718825496733 1 True False
4932.192 4.792657852172852 -1.2304889124682923 1.4928043524371546 -1.8330627880492152 -1.5707762877093714 3.221895217895508 0.0003506622451823205 0.03614596650004387 0.0656437799334526 -0.11388389021158218 1.0125608420963365e-31 0.0003693545004352927 1 True False
4932.242 4.792640686035156 -1.2282377642444153 1.4973610083209437 -1.8401643238463343 -1.570801083241598 3.221944570541382 0.0003936336433980614 0.06041412055492401 0.11965285986661911 -0.1796436309814453 0.0 0.00026456642081029713 1 True False
4932.2919999999995 4.792644023895264 -1.2246198815158387 1.5045669714557093 -1.8508068523802699 -1.5707605520831507 3.2218821048736572 0.0008453060872852802 0.08099393546581268 0.16465893387794495 -0.2400181144475937 0.0 0.00016874345601536334 1 True False
4932.342 4.792695999145508 -1.2198849481395264 1.5140655676471155 -1.8648377857603968 -1.570813004170553 3.221956491470337 0.000414187932619825 0.1069229394197464 0.21101565659046173 -0.3154999315738678 0.0 0.00018461116997059435 1 True False
4932.392 4.7927327156066895 -1.2139979165843506 1.5255606810199183 -1.8822795353331507 -1.5707157293902796 3.2219314575195312 0.00024101619783323258 0.12968669831752777 0.2529834806919098 -0.3820292353630066 0.0 0.0001469542330596596 1 True False
4932.442 4.792719841003418 -1.2069273454001923 1.5395882765399378 -1.903466363946432 -1.5708168188678187 3.2219109535217285 0.00016486612730659544 0.15111292898654938 0.29715365171432495 -0.44457119703292847 0.0 9.282070095650852e-05 1 True False
4932.492 4.792712211608887 -1.1986378592303772 1.5558274427997034 -1.9279190502562464 -1.5708044211017054 3.2219152450561523 8.351110591320321e-05 0.17801335453987122 0.3505757451057434 -0.5299784541130066 0.0 9.15072064344713e-07 1 True False
4932.5419999999995 4.792675495147705 -1.189529613857605 1.5736263434039515 -1.9545480213561 -1.5707805792437952 3.2219078540802 6.845421739853919e-05 0.17149248719215393 0.33800023794174194 -0.5035041570663452 0.0 1.897764237424049e-11 1 True False
4932.592 4.792786121368408 -1.1815654796412964 1.5890582243548792 -1.9784413776793421 -1.5708087126361292 3.2219066619873047 1.5857618626632298e-31 0.1424332559108734 0.2922511696815491 -0.4313996136188507 0.0 2.8827071143181253e-30 1 True False
4932.642 4.792695999145508 -1.1747889083674927 1.6025636831866663 -1.9985972843565882 -1.5707648436175745 3.22194766998291 0.0 0.12618741393089294 0.24408918619155884 -0.364494651556015 0.0 0.0 1 True False
4932.692 4.792691707611084 -1.1691820484450837 1.613537613545553 -2.015472551385397 -1.5707767645465296 3.2218990325927734 0.0 0.10043410211801529 0.19688591361045837 -0.3028644323348999 1.3271128177568124e-22 0.0 1 True False
4932.742 4.792712211608887 -1.1645449560931702 1.622371021901266 -2.0286337337889613 -1.5708168188678187 3.2219228744506836 0.0 0.08105667680501938 0.15495680272579193 -0.2430667132139206 2.0159079707776818e-41 -0.0001113844191422686 1 True False
4932.7919999999995 4.792724132537842 -1.1612779063037415 1.6287897268878382 -2.0384403667845667 -1.570829216633932 3.2219066619873047 5.700293754997651e-22 0.05535360798239708 0.1085229441523552 -0.15782099962234497 0.0 -2.7179683456779458e-05 1 True False
4932.842 4.7927446365356445 -1.159146474008896 1.6331384817706507 -2.0446864567198695 -1.5708254019366663 3.221924066543579 0.0 0.028430268168449402 0.05695420503616333 -0.0888398066163063 0.0 -1.5486029951716773e-05 1 True False
4932.892 4.7927045822143555 -1.158240095978119 1.6349943319903772 -2.0475856266417445 -1.5707686583148401 3.221951961517334 0.0 0.006463088560849428 0.015420665964484215 -0.024842871353030205 0.0 -2.165594014513772e-05 1 True False
4932.942 4.792675495147705 -1.1582609576037903 1.6349814573871058 -2.047668596307272 -1.5707925001727503 3.2218496799468994 0.0 -0.00028669132734648883 -0.00012523627083282918 1.1021747958750439e-08 0.0 -8.672740568434729e-19 1 True False
4932.992 4.792646884918213 -1.1583046180060883 1.6349847952472132 -2.047652383843893 -1.5707724730121058 3.2219533920288086 0.0 -5.369428617996164e-05 -4.399449355975084e-31 -0.00023220818547997624 0.0 -3.0981158039075743e-19 1 True False
4933.0419999999995 4.792700290679932 -1.1582818192294617 1.635033909474508 -2.047664304772848 -1.5708091894732874 3.221956491470337 0.0 0.00016915220476221293 0.000142757358844392 -0.00014281396579463035 0.0 -4.706043971432621e-38 1 True False
4933.092 4.7927045822143555 -1.1582579475692292 1.6350210348712366 -2.0476442776122035 -1.5708168188678187 3.2219488620758057 0.0 0.0002773685264401138 0.000328836526023224 -9.568463428877294e-05 0.0 -0.0 1 True False
4933.142 4.7927374839782715 -1.1582505267909546 1.6350491682635706 -2.0476042232909144 -1.5708168188678187 3.2219390869140625 0.0 0.000359836412826553 0.00035578536335378885 -8.66888149175793e-05 0.0 -0.0 1 True False
4933.192 4.792725563049316 -1.1581934255412598 1.635092560444967 -2.0476442776122035 -1.5708335081683558 3.221870183944702 -6.0078448882450175e-09 0.000313119642669335 0.00021931578521616757 -9.361458796774969e-05 0.0 -0.0 1 True False
4933.242 4.792695999145508 -1.1582415860942383 1.635064427052633 -2.047668596307272 -1.570772949849264 3.221928358078003 0.0 0.00014912424376234412 0.00016554507601540536 -0.00013077148469164968 1.440841427181242e-24 -0.0 1 True False
4933.2919999999995 4.792728424072266 -1.1582580667785187 1.6350601355182093 -2.047676225701803 -1.570784870778219 3.2219078540802 0.0 0.00010706888133427128 5.619351941277273e-05 -0.00011403633834561333 2.1860256043467146e-43 -0.0 1 True False
4933.342 4.792703151702881 -1.1582006973079224 1.6350935141192835 -2.0477005443968714 -1.5707767645465296 3.221951961517334 0.0 5.098803376313299e-05 3.696174826472998e-05 -9.727998258313164e-05 0.0 -0.0 1 True False
4933.392 4.792719841003418 -1.1581933957389374 1.635090176259176 -2.0476800403990687 -1.5708330313311976 3.2219314575195312 -1.1301502977540234e-18 0.0 5.0964237712815275e-14 -3.9450042095268145e-05 0.0 -0.0 1 True False
4933.442 4.792728424072266 -1.1581934255412598 1.6350892225848597 -2.0476438007750453 -1.5708172957049769 3.2218990325927734 0.0 0.0 1.2051166793193427e-43 -3.1521633303555063e-08 0.0 -0.0 1 True False
4933.492 4.792670726776123 -1.1581515234759827 1.635063950215475 -2.0476561985411585 -1.5708168188678187 3.2219228744506836 0.0 0.0 0.0 -4.7881441830765155e-27 0.0 -0.0 1 True False
4933.5419999999995 4.79276180267334 -1.158167914753296 1.63507587114443 -2.0476399860777796 -1.5708325544940394 3.2219033241271973 0.0 0.0 0.0 -1.401298464324817e-45 0.0 -0.0 1 True False
4933.592 4.7927374839782715 -1.1582268339446564 1.635129753743307 -2.0476800403990687 -1.5707767645465296 3.2219033241271973 0.0 0.0 0.0 -0.0 0.0 -0.0 1 True False
4933.642 4.792705059051514 -1.1582042437842865 1.6351431051837366 -2.0476719341673792 -1.570784870778219 3.2218735218048096 0.0 0.0 0.0 -0.0 0.0 -0.0 1 True False
4933.692 4.792707920074463 -1.1582097870162507 1.6350610891925257 -2.0476519070067347 -1.570784870778219 3.2218658924102783 0.0 8.361217070557869e-17 0.0 -0.0 0.0 -0.0 1 True False
4933.742 4.79276180267334 -1.158231334095337 1.635063950215475 -2.0476399860777796 -1.5707610289203089 3.2219314575195312 0.0 0.0 0.0 -0.0 0.0 -0.0 1 True False
4933.7919999999995 4.792724132537842 -1.158160613184311 1.635047737752096 -2.0477167568602503 -1.5708006064044397 3.2219464778900146 -2.128991240578517e-21 0.0 4.583274948802285e-14 -0.0001905537210404873 -0.007026410195976496 0.0010798174189403653 1 True False
4933.842 4.792752742767334 -1.1581962269595643 1.635063950215475 -2.047708650628561 -1.5708006064044397 3.2218987941741943 0.0 0.0 1.0789998175301091e-43 2.556234473497388e-14 -0.0001696106482995674 -7.753694080747664e-05 1 True False
4933.892 4.7927165031433105 -1.1582023960402985 1.6350567976581019 -2.047652383843893 -1.570772949849264 3.2218945026397705 0.0 0.0 0.0 3.8829263677567816e-33 -7.533438474638388e-05 -5.599096402875148e-05 1 True False
4933.942 4.792695999145508 -1.1581889253905793 1.635092560444967 -2.047648092309469 -1.5707886854754847 3.2219555377960205 0.0 0.0 0.0 0.0 -4.43761600763537e-05 -3.687317803269252e-05 1 True False
4933.992 4.792719841003418 -1.1582505267909546 1.6351221243487757 -2.0477005443968714 -1.5707572142230433 3.2218899726867676 0.0 0.0 0.0 0.0 -4.1936331399483606e-05 -3.793822547781822e-11 1 False False
4934.0419999999995 4.792733192443848 -1.158179835682251 1.6350730101214808 -2.047732492486471 -1.5707810560809534 3.2219345569610596 0.0 0.0 0.0 0.0 -4.001118446977925e-12 -2.8291367026866965e-09 1 False False
4934.092 4.792733192443848 -1.1581442517093201 1.6350773016559046 -2.047692438165182 -1.5708368460284632 3.221877336502075 0.0 0.0 0.0 0.0 -0.00013494075392372906 -4.297464707419777e-28 1 False False
4934.142 4.792733192443848 -1.158179835682251 1.6350730101214808 -2.0477243862547816 -1.5708087126361292 3.2218987941741943 0.0 0.0 0.0 0.0 -7.71185223129578e-05 -9.568799214321189e-06 1 False False
4934.192 4.792724132537842 -1.1581934255412598 1.6350982824908655 -2.0476843319334925 -1.570772949849264 3.2219316959381104 0.0 0.0 0.0 0.0 -5.398743087425828e-05 -3.633353844634257e-05 1 False False
4934.242 4.792745113372803 -1.1581962269595643 1.6350730101214808 -2.047676225701803 -1.5707967917071741 3.2219018936157227 0.0 0.0 0.0 0.0 -1.4060234072441603e-18 -3.61612401320599e-05 1 False False
4934.2919999999995 4.792707920074463 -1.158197895889618 1.6350849310504358 -2.047696729699606 -1.5707405249225062 3.221858263015747 0.0 0.0 0.0 0.0 -2.1357526206405975e-37 -3.521905455272645e-05 1 False False
4934.342 4.792715072631836 -1.158174143438675 1.6350849310504358 -2.047688146630758 -1.5707648436175745 3.2219107151031494 0.0 0.0 0.0 0.0 -0.0 -5.852343609724642e-11 1 False False
4934.392 4.792677879333496 -1.1581442815116425 1.6350849310504358 -2.047744413415426 -1.5707362333880823 3.221879005432129 0.0 0.0 0.0 0.0 -0.0 -8.889721731313909e-30 1 False False
4934.442 4.792745113372803 -1.1581634444049378 1.6350730101214808 -2.047676225701803 -1.5708335081683558 3.221886396408081 0.0 0.0 0.0 0.0 -0.0 -0.0 1 False False
4934.492 4.7926716804504395 -1.1582142871669312 1.6351059118853968 -2.047728200952047 -1.570813004170553 3.2219033241271973 0.0 0.0 1.727519349792317e-09 -1.6604375559836626e-05 -0.0 -0.0 1 False False
4934.5419999999995 4.792728424072266 -1.158179835682251 1.6351011435138147 -2.047708650628561 -1.5707967917071741 3.221935987472534 0.0 0.0 4.065035122950648e-39 -8.53939711498662e-20 -0.0 -0.0 1 False False
4934.592 4.792698860168457 -1.1581842762282868 1.6351011435138147 -2.047676225701803 -1.5707805792437952 3.2219316959381104 0.0 0.0 0.0 -1.2971363060955462e-38 -0.0 -0.0 1 False False
4934.642 4.792657852172852 -1.1582232278636475 1.6350849310504358 -2.0476843319334925 -1.5707724730121058 3.221853494644165 0.0 0.0 0.0 -0.0 -0.0 -0.0 1 False False
4934.692 4.792703151702881 -1.158167914753296 1.6351059118853968 -2.047720571557516 -1.5707886854754847 3.221858263015747 0.0 -6.47035847123334e-07 0.0 -0.0 -0.00013912057329434901 -0.00012148741370765492 1 False False
4934.742 4.792696952819824 -1.1581934553435822 1.6351011435138147 -2.0476838550963343 -1.5708087126361292 3.221849203109741 0.0 0.0 0.0 -0.0 -4.801551403943449e-05 0.0007674655062146485 1 False False
4934.7919999999995 4.792691230773926 -1.1581843060306092 1.6350191275226038 -2.047692438165182 -1.5707686583148401 3.221928834915161 0.0 0.0 0.0 -0.0 -1.7453096006647684e-05 4.6740069592488e-06 1 False False
4934.842 4.792721271514893 -1.1582097572139283 1.6350892225848597 -2.0476719341673792 -1.5708487669574183 3.2219078540802 0.0 0.0 0.0 -0.0 -6.397279861609147e-16 7.099827033079628e-25 1 False False
4934.892 4.792691230773926 -1.1581889551929017 1.6350520292865198 -2.047676225701803 -1.5708211104022425 3.2219033241271973 0.0 0.0 0.0 -0.0 -9.71748004251798e-35 1.0789998175301091e-43 1 False False
4934.942 4.792691707611084 -1.158468560581543 1.6346185843097132 -2.0468508205809535 -1.5707767645465296 3.2219152450561523 0.0 -0.016142800450325012 -0.03096945397555828 0.04452676698565483 -0.0 0.0 1 False False
4934.992 4.79275369644165 -1.1597220462611695 1.6318429152118128 -2.042729517022604 -1.570801083241598 3.221886396408081 0.0 -0.038885269314050674 -0.07355690002441406 0.11635251343250275 -0.0 0.0 1 False False
4935.0419999999995 4.792807579040527 -1.1623348456672211 1.626584831868307 -2.035027166406149 -1.5708211104022425 3.221865653991699 0.0 -0.06383098661899567 -0.12707553803920746 0.1815328747034073 -0.0 0.0 1 False False
4935.092 4.792695999145508 -1.166178123360016 1.6192181746112269 -2.0236827335753382 -1.570801083241598 3.2218945026397705 0.0 -0.08463779091835022 -0.1718258559703827 0.2679540812969208 -0.0 0.0 1 False False
4935.142 4.7926926612854 -1.1712409418872376 1.6095107237445276 -2.009179254571432 -1.5708048979388636 3.2218987941741943 0.0 -0.11070031672716141 -0.21959304809570312 0.3241311013698578 -0.0 0.0 1 False False
4935.192 4.792703628540039 -1.1772400897792359 1.5975115934955042 -1.9909359417357386 -1.5707925001727503 3.2218565940856934 0.0 -0.13453124463558197 -0.2618389427661896 0.38871267437934875 -0.0 0.0 1 False False
4935.242 4.79274845123291 -1.184679166679718 1.583139721547262 -1.9693790874876917 -1.5707967917071741 3.221869945526123 0.0 -0.1578667312860489 -0.30592799186706543 0.4715690314769745 -0.0 0.0 1 False False
4935.2919999999995 4.792691707611084 -1.193120763903 1.5664523283587855 -1.9442631206908167 -1.570801083241598 3.221877336502075 0.0 -0.18095341324806213 -0.36028429865837097 0.5273722410202026 -0.0 0.0 1 False False
4935.342 4.792695999145508 -1.201973782186844 1.5489419142352503 -1.9177714786925257 -1.5708048979388636 3.221869945526123 0.0 -0.16364388167858124 -0.3229284882545471 0.500982403755188 -0.0 0.0 1 False False
4935.392 4.7927446365356445 -1.2097830039313813 1.5336211363421839 -1.8946448765196742 -1.5707886854754847 3.2219078540802 0.0 -0.14915557205677032 -0.2816380560398102 0.416098028421402 -0.0 0.0 1 False False
4935.442 4.7927165031433105 -1.2165183883956452 1.5207703749286097 -1.8749801121153773 -1.5708168188678187 3.2219226360321045 0.0 -0.11719287186861038 -0.23329028487205505 0.34830740094184875 -0.0 0.0 1 False False
4935.492 4.792724132537842 -1.221949891453125 1.5101044813739222 -1.8587810001769007 -1.5707686583148401 3.2219316959381104 0.0 -0.0950862392783165 -0.19272054731845856 0.30462712049484253 -0.0 0.0 1 False False
4935.5419999999995 4.792667388916016 -1.226208285694458 1.5015915075885218 -1.8462983570494593 -1.5708654562579554 3.221881866455078 0.0 -0.0744730681180954 -0.14724814891815186 0.22374674677848816 -0.0 0.0 1 False False
4935.592 4.792707920074463 -1.2292496722987671 1.495563809071676 -1.8368641338744105 -1.5707724730121058 3.221949577331543 0.0 -0.050294097512960434 -0.10003457963466644 0.14720363914966583 -0.0 0.0 1 False False
4935.642 4.792707920074463 -1.2312338811210175 1.4919264952289026 -1.831172605554098 -1.5708373228656214 3.2219479084014893 0.0 -0.028399985283613205 -0.051996324211359024 0.08436385542154312 -0.0 0.0 1 False False
4935.692 4.7926788330078125 -1.231936292057373 1.490378204976217 -1.8292933903136195 -1.570801083241598 3.2218987941741943 0.0 -0.0025908085517585278 -0.010234365239739418 0.013207105919718742 -0.0 0.0 1 False False
4935.742 4.792719841003418 -1.2318715912154694 1.4903748671161097 -1.8291894398131312 -1.570813004170553 3.2219033241271973 0.0 -0.00016882270574569702 -8.705500151866097e-20 -0.00010373781697126105 -0.0 0.0 1 False False
4935.7919999999995 4.792712211608887 -1.2319258910468598 1.4903462568866175 -1.829193731347555 -1.5708335081683558 3.221867084503174 0.0 -9.59730678005144e-05 -0.0001687849435256794 0.0008218088769353926 -0.0 0.0 1 False False
4935.842 4.792651653289795 -1.2319288116744538 1.4904072920428675 -1.8291064701476039 -1.5707767645465296 3.221890926361084 0.0 -0.000255814753472805 -0.00034758367110043764 0.0025258692912757397 -0.0 0.0 1 False False
4935.892 4.792774677276611 -1.2319948834231873 1.4902661482440394 -1.8290463886656703 -1.5707486311541956 3.2219152450561523 0.0 -0.0005432387697510421 -0.0005744826048612595 0.0003801409329753369 -0.0 0.0 1 False False
4935.942 4.792675495147705 -1.2319725912860413 1.4903443495379847 -1.8290783367552699 -1.5708406607257288 3.2219107151031494 0.0 -0.00035444897366687655 -0.00037707897718064487 0.00024090046645142138 -0.0 0.0 1 False False
4935.992 4.792691707611084 -1.2319555443576355 1.490197483693258 -1.8290702305235804 -1.5707648436175745 3.2218987941741943 0.0 -0.00017680105520412326 -0.00018309750885237008 0.0001441670610802248 -0.0 0.0 1 False False
4936.0419999999995 4.792700290679932 -1.2319800418666382 1.4902833143817347 -1.829074045220846 -1.5707605520831507 3.2218899726867676 0.0 -0.00014208321226760745 -0.00011193289537914097 9.170064004138112e-05 -0.0 0.0 1 False False
4936.092 4.7926716804504395 -1.2319844228080292 1.4902671019183558 -1.8291064701476039 -1.5708373228656214 3.221924304962158 0.0 -0.00011116707901237532 -8.060305844992399e-05 1.6200910124553047e-07 -0.0 0.0 1 False False
4936.142 4.792708873748779 -1.231993482714035 1.4902094046222132 -1.8290826282896937 -1.5708172957049769 3.221912384033203 0.0 -8.815862383926287e-05 -5.667142019286744e-33 2.4609226221332953e-26 -0.0 0.0 1 False False
4936.192 4.7927045822143555 -1.232005165224411 1.490258518849508 -1.8290544948973597 -1.5708254019366663 3.2218854427337646 0.0 -5.68921968806535e-05 -0.0 4.203895392974451e-45 -0.0 0.0 1 False False
4936.242 4.7927045822143555 -1.2319423419288178 1.490274731312887 -1.8290945492186488 -1.570801083241598 3.2219316959381104 0.0 -3.5615077882703757e-32 -0.0 0.0 -0.0 0.0 1 False False
4936.2919999999995 4.792724132537842 -1.2319217187217255 1.4902952353106897 -1.829090257684225 -1.5707405249225062 3.221890926361084 0.0 0.0 -0.0 0.0 -0.0 0.0 1 False False
4936.342 4.792724132537842 -1.2319919925979157 1.4902423063861292 -1.8291064701476039 -1.570813004170553 3.2218945026397705 0.0 0.0 -0.0 1.7843835298236854e-09 -0.0 0.0 1 False False
4936.392 4.7927446365356445 -1.2320170563510437 1.4902380148517054 -1.829022069970602 -1.5708416144000452 3.22186541557312 0.0 0.0 -0.0 2.7104820628401673e-28 -0.0 0.0 1 False False
4936.442 4.792675971984863 -1.2319593590549012 1.4902718702899378 -1.8290783367552699 -1.5707929770099085 3.2219078540802 0.0 0.0 -0.0 0.0 -0.0 0.0 1 False False
4936.492 4.792725086212158 -1.2319903534701844 1.4902375380145472 -1.8291064701476039 -1.5707967917071741 3.2219107151031494 0.0 0.0 -0.0 0.0 -0.0 0.0 1 False False
4936.5419999999995 4.79263973236084 -1.2320616108230134 1.4902084509478968 -1.8290301762022914 -1.5707529226886194 3.2218945026397705 0.0 0.0 -0.0 0.0 -0.0 0.0 1 False False
4936.592 4.792695999145508 -1.231959418659546 1.4902251402484339 -1.829074045220846 -1.5707486311541956 3.2218987941741943 0.0 0.0 -0.0 0.0 -0.0 0.0 1 False False
4936.642 4.7927446365356445 -1.2319725316813965 1.4903047720538538 -1.829090257684225 -1.5707686583148401 3.221890926361084 0.0 0.0 -0.0 0.0 -0.0 0.0 1 False False
4936.692 4.792695999145508 -1.232020155792572 1.490246597920553 -1.8291102848448695 -1.5707772413836878 3.2218987941741943 0.0 0.0 -0.0 0.0 -0.0 0.0 1 False False
4936.742 4.792691707611084 -1.2320377093604584 1.4902837912188929 -1.8290306530394496 -1.570772949849264 3.2218987941741943 0.0 0.0 -0.0 0.0 -0.0 0.0 1 False False
4936.7919999999995 4.792700290679932 -1.2320201855948945 1.4902375380145472 -1.8290826282896937 -1.5707724730121058 3.2219033241271973 0.0 0.0 -0.0 0.0 -0.0 0.0 1 False False
4936.842 4.7927374839782715 -1.2319725316813965 1.490258518849508 -1.8290821514525355 -1.5707767645465296 3.2219362258911133 0.0 0.0 -0.0 0.0 -0.0 0.0 1 False False
4936.892 4.7926926612854 -1.2319800716689606 1.490290943776266 -1.829118391076559 -1.5707929770099085 3.221940755844116 0.0 0.0 -0.0 0.0 -0.0 0.0 1 False False
4936.942 4.7927374839782715 -1.2320007246783753 1.4902294317828577 -1.829090257684225 -1.5708168188678187 3.2219643592834473 0.0 -1.2918142188135561e-31 -0.0 0.0 -0.0 0.0 1 False False
4936.992 4.792740345001221 -1.231968180542328 1.490258518849508 -1.829074045220846 -1.5708044211017054 3.2218945026397705 0.0 0.0 -0.0 0.0 -0.0 0.0 1 False False
4937.0419999999995 4.792712211608887 -1.2320095163634797 1.4902837912188929 -1.8290945492186488 -1.5707405249225062 3.2219598293304443 0.0 0.0 -0.0 0.0 -0.0 0.0 1 False False
4937.092 4.792700290679932 -1.2319933635047455 1.490262810383932 -1.8290783367552699 -1.5707605520831507 3.2219808101654053 0.0 0.0 -1.3514033980754903e-06 0.0 -0.0 0.0 1 False False
4937.142 4.7927374839782715 -1.232005075817444 1.490262810383932 -1.8290697536864222 -1.570829216633932 3.2219033241271973 0.0 0.0 -3.179994900110899e-36 0.0 -0.0 0.0 1 False False
4937.192 4.792719841003418 -1.231968180542328 1.4902508894549769 -1.8290425739684046 -1.570813004170553 3.2219197750091553 0.0 0.0 -0.0 0.0 -0.0 0.0 1 True False
4937.242 4.7927165031433105 -1.2320408088019867 1.490241829548971 -1.82910217861318 -1.570801083241598 3.2219152450561523 0.0 0.0 -0.0 0.0 -0.0 0.0 1 True False
4937.2919999999995 4.79289436340332 -1.2319187086871644 1.4902880827533167 -1.8290821514525355 -1.5708254019366663 3.2220349311828613 0.012438932433724403 0.0 -0.0 0.0 -0.0 0.010437222197651863 1 True False
4937.342 4.793796062469482 -1.2319725316813965 1.4901836554156702 -1.8290697536864222 -1.5707891623126429 3.2230002880096436 0.026165856048464775 0.0010387599468231201 -0.0066212816163897514 -8.617027447491155e-14 -0.0 0.02616814896464348 1 True False
4937.392 4.796022891998291 -1.2317732733539124 1.4897344748126429 -1.8290306530394496 -1.5708168188678187 3.225224494934082 0.06412824988365173 0.007520361803472042 -0.012644418515264988 0.0055182627402246 -0.0 0.0629509836435318 1 True False
4937.442 4.800564765930176 -1.2312500339797516 1.4890545050250452 -1.828712602654928 -1.570784870778219 3.229661464691162 0.11699612438678741 0.01491918321698904 -0.01718025840818882 0.005773970391601324 -0.0 0.11268293112516403 1 True False
4937.492 4.808172702789307 -1.230343059902527 1.4878552595721644 -1.8282987080016078 -1.5708335081683558 3.237255811691284 0.1910882294178009 0.022065995261073112 -0.029407747089862823 0.00974530354142189 -0.0 0.19098597764968872 1 True False
4937.5419999999995 4.819796085357666 -1.2290299099734803 1.4860566298114222 -1.8278418980040492 -1.570801083241598 3.2490782737731934 0.2768913507461548 0.03167073428630829 -0.04408683255314827 0.01322201918810606 1.5785704985582966e-21 0.27228888869285583 1 True False
4937.592 4.835335731506348 -1.2272970539382477 1.4835179487811487 -1.8271814785399378 -1.570833985005514 3.2644903659820557 0.3456757068634033 0.04109562933444977 -0.0566457062959671 0.016423899680376053 9.304520062869415e-05 0.34139472246170044 1 True False
4937.642 4.854320526123047 -1.2251298290542145 1.4806206862079065 -1.8263355694212855 -1.5708091894732874 3.2835822105407715 0.41091322898864746 0.04717634618282318 -0.06298685818910599 0.01823483407497406 4.801324280379049e-07 0.4075160026550293 1 True False
4937.692 4.876936912536621 -1.222625122671463 1.477175537739889 -1.8252016506590785 -1.570772949849264 3.3059914112091064 0.48386067152023315 0.05520006641745567 -0.07881494611501694 0.022604066878557205 7.293218132887306e-26 0.48842576146125793 1 True False
4937.742 4.9028825759887695 -1.2197413009456177 1.472865406666891 -1.8241163692870082 -1.570813004170553 3.3319056034088135 0.5558479428291321 0.06134534999728203 -0.08090291172266006 0.024058625102043152 2.6620800832807823e-13 0.5509548187255859 1 True False
4937.7919999999995 4.929689884185791 -1.216617004280426 1.4686630407916468 -1.8228994808592738 -1.570813004170553 3.3591678142547607 0.5065985321998596 0.05674588680267334 -0.08264464139938354 0.019480546936392784 -0.0015267266426235437 0.5067963004112244 1 True False
4937.842 4.953485488891602 -1.2140288215926667 1.4650991598712366 -1.821850915948385 -1.5707929770099085 3.3828723430633545 0.4364627003669739 0.052980177104473114 -0.06620197743177414 0.01981894113123417 1.8407619108984363e-06 0.4379414916038513 1 True False
4937.892 4.973855972290039 -1.211805747156479 1.4618971983539026 -1.8209206066527308 -1.5707405249225062 3.4030110836029053 0.36984843015670776 0.03872731700539589 -0.061059970408678055 0.01730859838426113 0.00017167723854072392 0.3719269335269928 1 True False
4937.942 4.990601062774658 -1.2099240285209198 1.4593666235553187 -1.8200646839537562 -1.5708487669574183 3.419757604598999 0.3049512803554535 0.03428201004862785 -0.04442011937499046 0.01601327210664749 5.7196491197484606e-18 0.2979838252067566 1 True False
4937.992 5.003783226013184 -1.2084553998759766 1.4572370688067835 -1.8195368252196253 -1.5708168188678187 3.4330594539642334 0.2306952029466629 0.026280933991074562 -0.03718488663434982 0.011815106496214867 -2.258532913401723e-05 0.23351235687732697 1 True False
