Andreas691667/Digital_Twin_UR/src/robot_connection_manager/robot_output/E8_robot_output.csv
timestamp actual_q_0 actual_q_1 actual_q_2 actual_q_3 actual_q_4 actual_q_5 actual_qd_0 actual_qd_1 actual_qd_2 actual_qd_3 actual_qd_4 actual_qd_5 safety_status output_bit_register_65 output_bit_register_66
7495.139999999999 3.712090492248535 -0.825519935493805 0.8429515997516077 -1.5882731876769007 -1.5707648436175745 2.141279697418213 0.0 0.0 0.0 -0.0 -1.6363753275040575e-14 0.0 1 False False
7495.19 3.7120537757873535 -0.8255273860744019 0.8429892698871058 -1.5882488689818324 -1.5707929770099085 2.141279697418213 0.0 0.0 0.0 -0.0 -2.4856588446045458e-33 0.0 1 False False
7495.24 3.712052583694458 -0.8254427474788208 0.8429811636554163 -1.588313718835348 -1.5708048979388636 2.1412839889526367 0.0 0.0 0.0 -0.0 -0.0 0.0 1 False False
7495.29 3.7120580673217773 -0.8255317372134705 0.8429673353778284 -1.5882774792113246 -1.5707529226886194 2.141270875930786 0.0 0.0 0.0 -0.0 -0.0 0.0 1 False False
7495.339999999999 3.712062358856201 -0.8255317372134705 0.8429678122149866 -1.5882846317686976 -1.5707686583148401 2.141230821609497 0.0 0.0 0.0 -0.0 -0.0 0.0 1 False False
7495.389999999999 3.712094783782959 -0.825458900337555 0.8429721037494105 -1.5882817707457484 -1.570784870778219 2.141267776489258 0.0 0.0 0.0 -0.0 -0.0 0.0 1 False False
7495.44 3.712094783782959 -0.8255037826350708 0.8429754416095179 -1.5883251629271449 -1.5708048979388636 2.1413047313690186 0.0 0.0 0.0 -0.0 -0.0 0.0 1 False False
7495.49 3.7120742797851562 -0.8254546684077759 0.8429186979876917 -1.5882331333556117 -1.5707810560809534 2.141251564025879 0.0 0.0 0.0 -0.0 -0.0 0.0 1 False False
7495.54 3.7120330333709717 -0.8255403798869629 0.8430307547198694 -1.588320871392721 -1.5707967917071741 2.1412839889526367 0.0 0.0 0.0 -0.0 -0.0 0.0 1 False False
7495.589999999999 3.712066650390625 -0.8255317372134705 0.8429439703570765 -1.588268896142477 -1.5707805792437952 2.141263484954834 0.0 0.0 0.0 -0.0 -0.0 0.0 1 False False
7495.639999999999 3.7121195793151855 -0.8254912060550232 0.8429892698871058 -1.5883013210692347 -1.5708254019366663 2.141258955001831 0.0 0.0 0.0 -0.0 -0.0 0.0 1 False False
7495.69 3.7120907306671143 -0.8254869741252442 0.8429473082171839 -1.5883094273009242 -1.5707686583148401 2.141308546066284 0.0 0.0 0.0 -0.0 -0.0 0.0 1 False False
7495.74 3.712050199508667 -0.8254578870585938 0.8430054823504847 -1.5882569752135218 -1.5708048979388636 2.141251564025879 0.0 0.0 0.0 -0.0 -0.0 0.0 1 False False
7495.79 3.712062358856201 -0.8255070012858887 0.8429935614215296 -1.588313718835348 -1.5707648436175745 2.14132022857666 0.0 0.0 0.0 -0.0 -0.0 0.0 1 False False
7495.839999999999 3.712123394012451 -0.8254954379848023 0.8429935614215296 -1.588280817071432 -1.5708044211017054 2.141282558441162 0.0 0.0 0.0 -0.0 -0.0 0.0 1 False False
7495.889999999999 3.7120654582977295 -0.8254459661296387 0.8429191748248499 -1.5882650814452113 -1.5708048979388636 2.1412720680236816 0.0 0.0 0.0 -0.0 -0.0 0.0 1 False False
7495.94 3.7120609283447266 -0.8254869741252442 0.8429763952838343 -1.5883051357665003 -1.5707929770099085 2.141295909881592 0.0 0.0 0.0 -0.0 -0.0 0.0 1 False False
7495.99 3.7120249271392822 -0.8255273860744019 0.8429630438434046 -1.5882817707457484 -1.5707767645465296 2.1412720680236816 0.0 0.0 0.0 -0.0 -0.0 0.0 1 False False
7496.04 3.712095022201538 -0.8255284589580079 0.8429802099810999 -1.5883094273009242 -1.5708006064044397 2.141254425048828 0.0 0.0 0.0 -0.0 -0.0 0.0 1 False False
7496.089999999999 3.712062358856201 -0.8254783314517518 0.8429563681231897 -1.5883094273009242 -1.5707967917071741 2.1412558555603027 0.0 0.0 0.0 -0.0 -0.0 0.0 1 False False
7496.139999999999 3.7120697498321533 -0.8254954975894471 0.8430007139789026 -1.5882731876769007 -1.5707805792437952 2.1412839889526367 0.0 0.0 0.0 -0.0 -0.0 0.0 1 False False
7496.19 3.712071418762207 -0.8254341048053284 0.8429887930499476 -1.588269372979635 -1.570801083241598 2.1412885189056396 0.0 0.0 0.0 -0.0 -0.0 0.0 1 False False
7496.24 3.7120654582977295 -0.8255284589580079 0.8429802099810999 -1.5882650814452113 -1.5707886854754847 2.141308546066284 0.0 0.0 0.0 -0.0 -0.0 0.0 1 False False
7496.29 3.7120535373687744 -0.8254178923419495 0.8429630438434046 -1.5882569752135218 -1.570801083241598 2.141317367553711 0.0 0.0 0.0 -0.0 -0.0 0.0 1 False False
7496.339999999999 3.712029457092285 -0.8255112928203125 0.8429845015155237 -1.5882488689818324 -1.5707967917071741 2.141291618347168 0.0 0.0 0.0 -0.0 -0.0 0.0 1 False False
7496.389999999999 3.7120580673217773 -0.8255284589580079 0.8429678122149866 -1.588269372979635 -1.570784870778219 2.1412839889526367 0.0 0.0 0.0 -0.0 -0.0 0.0 1 False False
7496.44 3.712062358856201 -0.8254706424525757 0.8429678122149866 -1.5882846317686976 -1.5707886854754847 2.141267776489258 0.0 0.0 0.0 -0.0 -0.0 4.113455842629952e-15 1 False False
7496.49 3.712078809738159 -0.8254750531962891 0.8429473082171839 -1.5882846317686976 -1.5707529226886194 2.141230821609497 0.0 0.0 0.0 -0.0 -0.0 6.248348946168004e-34 1 False False
7496.54 3.712062358856201 -0.8254572314075013 0.8429845015155237 -1.5882650814452113 -1.5707967917071741 2.1412112712860107 0.0 0.0 0.0 -0.0 -0.0 0.0 1 False False
7496.589999999999 3.71209979057312 -0.8254869741252442 0.8429473082171839 -1.5883094273009242 -1.570772949849264 2.141254425048828 0.0 0.0 0.0 -0.0 -0.0 0.0 1 False False
7496.639999999999 3.712087631225586 -0.8254736226848145 0.8430140654193323 -1.588269372979635 -1.5708168188678187 2.1412558555603027 0.0 0.0 0.0 -0.0 -0.0 0.0 1 False False
7496.69 3.712066888809204 -0.8254497212222596 0.8429845015155237 -1.5882774792113246 -1.5708211104022425 2.141267776489258 0.0 0.0 0.0 -0.0 -0.0 0.0 1 False False
7496.74 3.7120742797851562 -0.8255290550044556 0.8429563681231897 -1.5883013210692347 -1.5707643667804163 2.141279697418213 0.0 0.0 0.0 -0.0 -0.0 0.0 1 False False
7496.79 3.712104082107544 -0.825495795612671 0.8429887930499476 -1.5882889233031214 -1.570824925099508 2.141230583190918 0.0 0.0 0.0 -0.0 -0.0 0.0 1 False False
7496.839999999999 3.712078809738159 -0.8254779738238831 0.8429887930499476 -1.5882607899107875 -1.5707805792437952 2.1413047313690186 0.0 0.0 0.0 -0.0 -0.0 0.0 1 False False
7496.889999999999 3.712036609649658 -0.8254869741252442 0.8430007139789026 -1.5882932148375453 -1.5707967917071741 2.141263484954834 0.0 0.0 0.0 -0.0 -0.0 0.0 1 False False
7496.94 3.712062358856201 -0.8254993718913575 0.8429396788226526 -1.5882774792113246 -1.570833985005514 2.141295909881592 0.0 0.0 0.0 -0.0 -0.0 0.0 1 False False
7496.99 3.712095260620117 -0.8254913848689576 0.8429434935199183 -1.5882498226561488 -1.5707529226886194 2.141263484954834 0.0 0.0 0.0 -0.0 -0.0 0.0 1 False False
7497.04 3.712078809738159 -0.8255202931216736 0.8429887930499476 -1.5882889233031214 -1.5707605520831507 2.1412765979766846 0.0 0.0 0.0 -0.0 -0.0 0.0 1 False False
7497.089999999999 3.7120907306671143 -0.8254949611476441 0.843029801045553 -1.588245531121725 -1.5707967917071741 2.141295909881592 0.0 0.0 0.0 -0.0 -0.0 0.0 1 False False
7497.139999999999 3.712123394012451 -0.8254905504039307 0.8429964224444788 -1.5883251629271449 -1.5707815329181116 2.14127516746521 0.0 0.0 0.0 -0.0 -0.0 0.0 1 False False
7497.19 3.712078809738159 -0.8254869741252442 0.8429845015155237 -1.5882650814452113 -1.5707805792437952 2.141214370727539 0.0 0.0 0.0 -0.0 -0.0 0.0 1 False False
7497.24 3.712041139602661 -0.8254751128009339 0.8429520765887659 -1.5883332691588343 -1.5707805792437952 2.141235113143921 0.0 0.0 0.0 -0.0 -0.0 0.0 1 False False
7497.29 3.7120697498321533 -0.8255112928203125 0.8429887930499476 -1.5883375606932582 -1.5707967917071741 2.141267776489258 0.0 0.0 0.0 -0.0 -0.0 0.0 1 False False
7497.339999999999 3.712165594100952 -0.8255365651896973 0.8430126349078577 -1.5882488689818324 -1.5707929770099085 2.141284227371216 0.0 0.0 0.0 -0.0 -0.0 0.0 1 False False
7497.389999999999 3.7120578289031982 -0.8255127233317872 0.8429721037494105 -1.5882889233031214 -1.5708168188678187 2.1412930488586426 0.0 0.0 0.0 -0.0 -0.0 0.0 1 False False
7497.44 3.7120490074157715 -0.8254949015429993 0.8429520765887659 -1.588252683679098 -1.5708048979388636 2.141267776489258 0.0 0.0 0.0 -0.0 -0.0 0.0 1 False False
7497.49 3.712078809738159 -0.8255291146091004 0.8429501692401331 -1.5882932148375453 -1.5708048979388636 2.1413381099700928 0.0 0.0 0.0 -0.0 -0.0 0.0 1 False False
7497.54 3.712036609649658 -0.8255483073047181 0.8429635206805628 -1.588313718835348 -1.5708048979388636 2.14127516746521 0.0 0.0 0.0 -0.0 -0.0 0.0 1 False False
7497.589999999999 3.7120771408081055 -0.825442449455597 0.8429501692401331 -1.5882889233031214 -1.5708330313311976 2.141247034072876 0.0 0.0 0.0 -0.0 -0.0 0.0 1 False False
7497.639999999999 3.712095260620117 -0.8254993718913575 0.8429802099810999 -1.5883494816222132 -1.5708487669574183 2.1413049697875977 0.0 0.0 0.0 -0.0 -0.0 0.0 1 False False
7497.69 3.7121026515960693 -0.8255039614490052 0.8429802099810999 -1.5883456669249476 -1.570824925099508 2.1412885189056396 0.0 0.0 0.0 -0.0 -0.0 0.0 1 False False
7497.74 3.7120981216430664 -0.8255202931216736 0.8429930845843714 -1.5883013210692347 -1.5708006064044397 2.1412394046783447 0.0 0.0 0.0 -0.0 -0.0 0.0 1 False False
7497.79 3.712066888809204 -0.8254706424525757 0.8430255095111292 -1.5882412395873011 -1.5708330313311976 2.141205310821533 0.0 0.0 0.0 -0.0 -0.0 0.0 1 False False
7497.839999999999 3.7121026515960693 -0.8254706424525757 0.8429678122149866 -1.5882932148375453 -1.570784870778219 2.141247034072876 0.0 0.0 0.0 -0.0 -0.0 0.0 1 False False
7497.889999999999 3.7120907306671143 -0.8255617183497925 0.8430126349078577 -1.5883494816222132 -1.5708206335650843 2.141221523284912 0.0 0.0 0.0 -0.0 -0.0 0.0 1 False False
7497.94 3.7120742797851562 -0.8255202931216736 0.8429477850543421 -1.5882445774474085 -1.5708487669574183 2.14127516746521 0.0 0.0 0.0 -0.0 -0.0 0.0 1 False False
7497.99 3.7120280265808105 -0.8254949611476441 0.8429678122149866 -1.5882932148375453 -1.5707529226886194 2.1413042545318604 0.0 0.0 0.0 -0.0 -0.0 0.0 1 False False
7498.04 3.7120323181152344 -0.8254993718913575 0.8430050055133265 -1.588273664514059 -1.570784870778219 2.1413040161132812 0.0 0.0 0.0 -0.0 -0.0 0.0 1 False False
7498.089999999999 3.7120368480682373 -0.8254333895495911 0.8430050055133265 -1.5883251629271449 -1.570824925099508 2.141296148300171 0.0 0.0 0.0 -0.0 -0.0 0.0 1 False False
7498.139999999999 3.7120862007141113 -0.825454370384552 0.842959229146139 -1.588252683679098 -1.5707929770099085 2.141242504119873 0.0 0.0 0.0 -0.0 -0.0 0.0 1 False False
7498.19 3.7120819091796875 -0.825524703865387 0.8429673353778284 -1.588269372979635 -1.5708330313311976 2.1412513256073 0.0 0.0 0.0 -0.0 -0.0 0.0 1 False False
7498.24 3.7120368480682373 -0.8254838746837159 0.8429430166827601 -1.5882765255370082 -1.5707886854754847 2.141254186630249 0.0 0.0 0.0 -0.0 -0.0 0.0 1 False False
7498.29 3.7120535373687744 -0.8254869741252442 0.8429845015155237 -1.5883175335326136 -1.5707967917071741 2.141258955001831 0.0 0.0 0.0 -0.0 -0.0 0.0 1 False False
7498.339999999999 3.7120535373687744 -0.8255409759334107 0.8429887930499476 -1.5882731876769007 -1.5707648436175745 2.141284227371216 -7.006492321624085e-44 0.0 0.0 -0.0 -0.0 0.0 1 False False
7498.389999999999 3.712062358856201 -0.8254706424525757 0.8429515997516077 -1.5882774792113246 -1.570784870778219 2.1413004398345947 0.0 0.0 0.0 -0.0 -0.0 0.0 1 False False
7498.44 3.712054491043091 -0.8255320352366944 0.8429964224444788 -1.5883051357665003 -1.570732895527975 2.141326427459717 0.0 0.0 0.0 -0.0 -0.0 0.0 1 False False
7498.49 3.7120699882507324 -0.825466052894928 0.8429721037494105 -1.588269372979635 -1.5708087126361292 2.141291618347168 0.0 0.0 0.0 -0.0 -0.0 0.0 1 False False
7498.54 3.712071180343628 -0.8254823845675965 0.8429845015155237 -1.588269372979635 -1.570829216633932 2.141263246536255 0.0 0.0 0.0 -0.0 -0.0 0.0 1 False False
7498.589999999999 3.7120413780212402 -0.8254572314075013 0.8429754416095179 -1.5882889233031214 -1.5707810560809534 2.141326427459717 0.0 0.0 0.0 -0.0 -0.0 0.0 1 False False
7498.639999999999 3.7120699882507324 -0.8254572314075013 0.8429935614215296 -1.588273664514059 -1.5708006064044397 2.141249895095825 0.0 0.0 0.0 -0.0 -0.0 0.0 1 False False
7498.69 3.712050199508667 -0.8254630726626893 0.8429587523089808 -1.588273664514059 -1.5707610289203089 2.1412558555603027 0.0 0.0 0.0 -0.0 -0.0 0.0 1 False False
7498.74 3.7120535373687744 -0.8254824441722413 0.8429277578936976 -1.5883451900877894 -1.5707929770099085 2.1413040161132812 0.0 0.0 0.0 -0.0 -0.0 0.0 1 False False
7498.79 3.712115526199341 -0.8255202335170289 0.8429845015155237 -1.588280817071432 -1.570784870778219 2.14127516746521 0.0 0.0 0.0 -0.0 -0.0 0.0 1 False False
7498.839999999999 3.712087392807007 -0.8254706424525757 0.8429854551898401 -1.5883094273009242 -1.5707929770099085 2.1412994861602783 0.0 0.0 0.0 -0.0 -0.0 0.0 1 True False
7498.889999999999 3.712062358856201 -0.8255068820765992 0.8429439703570765 -1.5883013210692347 -1.5707572142230433 2.1412930488586426 0.0 0.0 0.0 -0.0 -0.0 0.0 1 True False
7498.94 3.712127447128296 -0.8254869741252442 0.8429802099810999 -1.5882612667479457 -1.5708168188678187 2.141270637512207 0.0 0.0 0.0 -0.0 -0.0 0.0 1 True False
7498.99 3.7120656967163086 -0.8254706424525757 0.8429845015155237 -1.588297029534811 -1.5708335081683558 2.1412572860717773 0.0 0.0 0.0 -0.0 -0.0 0.0 1 True False
7499.04 3.7121024131774902 -0.825495795612671 0.8429606596576136 -1.5883051357665003 -1.5707929770099085 2.141313076019287 0.0 0.0 0.0 -0.0 -0.0 6.1162655376837185e-21 1 True False
7499.089999999999 3.712066650390625 -0.8255188030055542 0.8430054823504847 -1.588297506371969 -1.570813004170553 2.141270637512207 0.0 0.0 0.0 -0.0 -0.0 9.29062283145818e-40 1 True False
7499.139999999999 3.7120611667633057 -0.8254949611476441 0.8429978529559534 -1.588273664514059 -1.570813004170553 2.1413474082946777 0.0 0.0 0.0 -0.0 -0.0 0.0 1 True False
7499.19 3.712094783782959 -0.8254913848689576 0.8429892698871058 -1.5882889233031214 -1.570784870778219 2.1413049697875977 0.0 0.0 0.0 -0.0 -0.0 0.0 1 True False
7499.24 3.7120494842529297 -0.8254706424525757 0.8429935614215296 -1.5883165798582972 -1.570784870778219 2.141235113143921 0.0 0.0 0.0 -0.0 -0.0 -0.00012751604663208127 1 True False
7499.29 3.7120773792266846 -0.8254913848689576 0.8429721037494105 -1.5883285007872523 -1.5707686583148401 2.141385793685913 0.0 0.0 0.0 -0.0 -0.0 -4.997834954568197e-22 1 True False
7499.339999999999 3.7120819091796875 -0.8254869741252442 0.8429673353778284 -1.588269372979635 -1.5708492437945765 2.141282558441162 0.0 0.0 0.0 -0.0 -0.0 -7.591674560326129e-41 1 True False
7499.389999999999 3.7120656967163086 -0.8254736226848145 0.8429473082171839 -1.5882889233031214 -1.5707929770099085 2.14127516746521 0.0 0.0 0.0 -0.0 -0.0 -0.0 1 True False
7499.44 3.7123985290527344 -0.8257013124278565 0.8432224432574671 -1.5883809528746546 -1.5708606878863733 2.1416051387786865 0.026369338855147362 -0.015077314339578152 0.022860730066895485 -0.0061524794436991215 -0.0 0.031871646642684937 1 True False
7499.49 3.7156548500061035 -0.8271431487849732 0.8454602400409144 -1.589214941064352 -1.5708211104022425 2.144864082336426 0.09599605202674866 -0.04683719202876091 0.077696293592453 -0.027820024639368057 -2.35019831952402e-20 0.09947193413972855 1 True False
7499.54 3.722517967224121 -0.8304565113833924 0.850936237965719 -1.5910173855223597 -1.570813004170553 2.15156888961792 0.16934993863105774 -0.08764389902353287 0.1338827908039093 -0.04648621380329132 -3.5699549742062256e-39 0.16682837903499603 1 True False
7499.589999999999 3.7326371669769287 -0.8358809512904664 0.8588936964618128 -1.5937444172301234 -1.570784870778219 2.1618876457214355 0.23920679092407227 -0.12444230914115906 0.186091810464859 -0.054331790655851364 -0.0 0.2315414398908615 1 True False
7499.639999999999 3.746443510055542 -0.8430506151965638 0.8695858160602015 -1.597161432305807 -1.5708487669574183 2.1755666732788086 0.30721351504325867 -0.15680372714996338 0.2468295693397522 -0.08203878253698349 -0.0 0.30890557169914246 1 True False
7499.69 3.7635316848754883 -0.8519740265658875 0.8829620520221155 -1.6017824612059535 -1.5707805792437952 2.1927762031555176 0.3787018656730652 -0.19227084517478943 0.2929200232028961 -0.09469062834978104 -0.0 0.373390793800354 1 True False
7499.74 3.784341812133789 -0.8624878090671082 0.899154011403219 -1.6073810062804164 -1.5708373228656214 2.213461399078369 0.44809502363204956 -0.23040257394313812 0.34811311960220337 -0.12193703651428223 7.190293499492739e-12 0.45024099946022034 1 True False
7499.79 3.8085062503814697 -0.8748638194850464 0.9180014769183558 -1.613720556298727 -1.5707925001727503 2.2376463413238525 0.5177609920501709 -0.26140081882476807 0.40027281641960144 -0.14084595441818237 5.4393727623391896e-05 0.5247284770011902 1 True False
7499.839999999999 3.836054563522339 -0.8891055744937439 0.9393194357501429 -1.6211730442442835 -1.5707805792437952 2.265316963195801 0.5820767283439636 -0.3026276230812073 0.4562935531139374 -0.1580040603876114 1.191102425024404e-11 0.5879625082015991 1 True False
7499.889999999999 3.8673436641693115 -0.9050389689258118 0.9635651747332972 -1.6292787990965785 -1.5707605520831507 2.2964587211608887 0.652918815612793 -0.3367193639278412 0.5067445635795593 -0.17513146996498108 3.350670141344381e-08 0.656346321105957 1 True False
7499.94 3.901970624923706 -0.9227962654880066 0.9903901259051722 -1.6384192905821742 -1.5707724730121058 2.3310279846191406 0.7212847471237183 -0.37064695358276367 0.5688303112983704 -0.18764431774616241 5.089674323331592e-27 0.7305329442024231 1 True False
7499.99 3.9401025772094727 -0.9424321812442322 1.020179573689596 -1.6485048733153285 -1.5707810560809534 2.3692545890808105 0.7955251336097717 -0.40806496143341064 0.6158981919288635 -0.22056473791599274 1.401298464324817e-45 0.7977937459945679 1 True False
7500.04 3.9817471504211426 -0.9637453717044373 1.0525482336627405 -1.6594511471190394 -1.5707805792437952 2.411048412322998 0.8731967210769653 -0.4344666600227356 0.678007960319519 -0.2245457023382187 -1.2240877367730718e-05 0.8644109964370728 1 True False
7500.089999999999 4.026947498321533 -0.986813561325409 1.0874183813678187 -1.6714593372740687 -1.5707486311541956 2.455941915512085 0.9306002259254456 -0.48158884048461914 0.7261655926704407 -0.25112205743789673 3.0241038984968327e-05 0.9382162690162659 1 True False
7500.139999999999 4.075436592102051 -1.011811987762787 1.1252244154559534 -1.684192796746725 -1.5708048979388636 2.504793167114258 1.0100173950195312 -0.5176814794540405 0.7814328074455261 -0.2678906321525574 1.074696134530069e-23 1.005018711090088 1 True False
7500.19 4.127321720123291 -1.0383021396449585 1.1656058470355433 -1.6979214153685511 -1.5707443396197718 2.556433916091919 1.0496875047683716 -0.5383213758468628 0.8108915686607361 -0.28794196248054504 -5.585964026977308e-05 1.0509432554244995 1 True False
7500.24 4.179652214050293 -1.0651221436313172 1.2062557379352015 -1.7115994892516078 -1.5707967917071741 2.6088757514953613 1.0473827123641968 -0.5339646339416504 0.8141348958015442 -0.27203240990638733 0.00017502855916973203 1.0415480136871338 1 True False
7500.29 4.231945514678955 -1.0919523698142548 1.2467744986163538 -1.7255450687804164 -1.570829216633932 2.6612582206726074 1.0490719079971313 -0.5324766039848328 0.8184534311294556 -0.2761385440826416 -9.532597323413938e-05 1.0493836402893066 1 True False
7500.339999999999 4.28433895111084 -1.1188064378551026 1.287410084401266 -1.7394076786436976 -1.570801083241598 2.713392972946167 1.0432863235473633 -0.5388112664222717 0.818630576133728 -0.27699214220046997 -0.00034440442686900496 1.05782151222229 1 True False
7500.389999999999 4.336785793304443 -1.1457247895053406 1.3280695120440882 -1.7533132038512171 -1.5708254019366663 2.7659239768981934 1.0452909469604492 -0.5393354892730713 0.8160338401794434 -0.26590579748153687 0.0001896277826745063 1.0399640798568726 1 True False
7500.44 4.3890180587768555 -1.1724716883948822 1.3686521689044397 -1.7670556507506312 -1.570756737385885 2.818354606628418 1.05165433883667 -0.537823498249054 0.815018892288208 -0.2796567678451538 1.4884835866716935e-15 1.04793119430542 1 True False
7500.49 4.440831661224365 -1.1990180772593995 1.4087885061847132 -1.7807265720763148 -1.5708048979388636 2.8699100017547607 1.0037842988967896 -0.5169088244438171 0.7787950038909912 -0.2767105996608734 -0.0002947117609437555 1.0092685222625732 1 True False
7500.54 4.489299297332764 -1.2238620680621644 1.4466374556170862 -1.7933880291380824 -1.5707891623126429 2.9185872077941895 0.9397980570793152 -0.47756776213645935 0.7266865372657776 -0.2642952501773834 0.00024034846865106374 0.934208333492279 1 True False
7500.589999999999 4.5342254638671875 -1.2470258933356781 1.4814770857440394 -1.8052965603270472 -1.5708091894732874 2.9634287357330322 0.8655291199684143 -0.44631263613700867 0.6753095984458923 -0.22020919620990753 3.1318608954906165e-20 0.8787133097648621 1 True False
7500.639999999999 4.575716972351074 -1.2682731610587616 1.5135882536517542 -1.8164063892760218 -1.5708168188678187 3.005065441131592 0.7980177402496338 -0.41216957569122314 0.6174004673957825 -0.20062901079654694 1.3060722494628862e-06 0.7963806986808777 1 True False
7500.69 4.613781929016113 -1.2878002387336274 1.543229881917135 -1.82631315807485 -1.570784870778219 3.043133497238159 0.7255777716636658 -0.3765125572681427 0.5629392862319946 -0.19654275476932526 5.705945659428835e-05 0.7222145199775696 1 True False
7500.74 4.648336410522461 -1.3053596180728455 1.5700300375567835 -1.8354641399779261 -1.5708449522601526 3.0775604248046875 0.6543146967887878 -0.33763477206230164 0.5131802558898926 -0.18247398734092712 -0.0003072536492254585 0.6528294086456299 1 True False
7500.79 4.679376602172852 -1.321395219569542 1.5939105192767542 -1.843773981133932 -1.5708649794207972 3.1086409091949463 0.5846445560455322 -0.2975758910179138 0.45444929599761963 -0.1447635293006897 9.856655196927022e-06 0.5832039713859558 1 True False
7500.839999999999 4.706855773925781 -1.3353028756431122 1.6155098120318812 -1.8508860073485316 -1.5708087126361292 3.1362144947052 0.5165467262268066 -0.2635037899017334 0.40026673674583435 -0.14025311172008514 -2.6633379093254916e-05 0.5128970742225647 1 True False
7500.889999999999 4.730986595153809 -1.3478966814330597 1.634104077016012 -1.8572775326170863 -1.570824925099508 3.1602566242218018 0.44504231214523315 -0.22609779238700867 0.34940671920776367 -0.10902585834264755 -0.00033993987017311156 0.4470929503440857 1 True False
7500.94 4.751614570617676 -1.3583438408425828 1.6500824133502405 -1.8628040752806605 -1.570784870778219 3.1807539463043213 0.3774895668029785 -0.2006675750017166 0.2882594168186188 -0.10100621730089188 7.46434016036801e-05 0.3846645653247833 1 True False
7500.99 4.7686991691589355 -1.3671300870231171 1.6634519735919397 -1.8670736751952113 -1.570869270955221 3.197934150695801 0.308370977640152 -0.15602050721645355 0.24139943718910217 -0.07802257686853409 7.362415671490299e-17 0.30421578884124756 1 True False
7501.04 4.782243251800537 -1.3741029065898438 1.6738923231707972 -1.870814939538473 -1.570801083241598 3.2114667892456055 0.2404451221227646 -0.12238218635320663 0.18223202228546143 -0.06333058327436447 8.592310687277095e-15 0.2459098845720291 1 True False
7501.089999999999 4.792272567749023 -1.379173533325531 1.6817916075335901 -1.873326917687887 -1.5707925001727503 3.221574544906616 0.1737024039030075 -0.08608873188495636 0.13012760877609253 -0.04017956927418709 1.3051739692500407e-33 0.1706104427576065 1 True False
7501.139999999999 4.798919677734375 -1.382660598759987 1.6868475119220179 -1.8752948246397914 -1.570801083241598 3.2281863689422607 0.09734906256198883 -0.050668150186538696 0.07956277579069138 -0.022458750754594803 0.0 0.09506545960903168 1 True False
7501.19 4.80204439163208 -1.3841723662665864 1.6894367376910608 -1.8759776554503382 -1.5707967917071741 3.231252908706665 0.029247794300317764 -0.015992240980267525 0.021044589579105377 -0.006367567926645279 0.0 0.029892941936850548 1 True False
7501.24 4.802186012268066 -1.3841125679067154 1.690091911946432 -1.8768278561034144 -1.5708087126361292 3.231475830078125 -0.0006292216130532324 0.013886523433029652 0.029031170532107353 -0.033548690378665924 1.5857832824650586e-09 0.00019273353973403573 1 True False
7501.29 4.802267074584961 -1.3828332287124177 1.6925643126117151 -1.880564352075094 -1.5708168188678187 3.2315611839294434 0.00035746386856772006 0.04084988310933113 0.07153398543596268 -0.11403729766607285 9.9919707281515e-05 0.0007892585126683116 1 True False
7501.339999999999 4.80228328704834 -1.3801585596850892 1.6972578207599085 -1.8879128895201625 -1.5708487669574183 3.2315404415130615 0.0003794249496422708 0.07095813006162643 0.1127508282661438 -0.17601126432418823 5.1895793149014935e-05 0.0005911768530495465 1 True False
7501.389999999999 4.8023176193237305 -1.3759586972049256 1.7041080633746546 -1.8988386593260707 -1.570813004170553 3.2315642833709717 0.000422974320827052 0.09267480671405792 0.15686076879501343 -0.2508741319179535 3.5051787563133985e-05 0.00022704110597260296 1 True False
7501.44 4.802319049835205 -1.370785967712738 1.7131465117083948 -1.9131399593748988 -1.570829216633932 3.231602191925049 0.00028654749621637166 0.11864607036113739 0.2071612924337387 -0.31877386569976807 4.276632758863641e-14 0.00013658091484103352 1 True False
7501.49 4.8023552894592285 -1.3642839354327698 1.7243502775775355 -1.9309598408141078 -1.570813004170553 3.231513500213623 0.00019662977138068527 0.14485089480876923 0.24530009925365448 -0.3837599456310272 6.496214511501857e-33 8.106436143862084e-05 1 True False
7501.54 4.8023176193237305 -1.35639143109832 1.7380426565753382 -1.9522863827147425 -1.570801083241598 3.2315433025360107 0.00011530619667610154 0.17143870890140533 0.28581559658050537 -0.4616953730583191 0.0 2.7216279902507468e-14 1 True False
7501.589999999999 4.802350997924805 -1.347247229223587 1.753557030354635 -1.977089067498678 -1.5707886854754847 3.2315731048583984 9.83969439403154e-05 0.19485247135162354 0.3389430046081543 -0.5278218984603882 0.0 1.3185326311684897e-12 1 True False
7501.639999999999 4.802326679229736 -1.3370040518096467 1.7710564772235315 -2.0047337017455042 -1.5707605520831507 3.2315478324890137 0.00010336052218917757 0.19676102697849274 0.342411607503891 -0.5375102758407593 4.209367762086913e-05 2.002853589408436e-31 1 True False
7501.69 4.8022966384887695 -1.327897073035576 1.7869818846331995 -2.030044218102926 -1.5708211104022425 3.2315478324890137 7.329723302973434e-05 0.17740438878536224 0.2991093695163727 -0.4715332090854645 1.940102083608508e-05 0.0 1 True False
7501.74 4.8023176193237305 -1.3199008864215394 1.8006685415851038 -2.051732679406637 -1.5707925001727503 3.2315433025360107 1.401298464324817e-45 0.14879412949085236 0.2513353228569031 -0.4106954336166382 1.181329328231601e-21 0.0 1 True False
7501.79 4.802346706390381 -1.3130170863917847 1.8122809568988245 -2.070036550561422 -1.5707967917071741 3.231527090072632 0.0 0.12055538594722748 0.20979498326778412 -0.34514281153678894 1.7944467614757877e-40 3.5944605770055205e-05 1 True False
7501.839999999999 4.802353382110596 -1.307639555340149 1.8218053022967737 -2.0849434338011683 -1.5708406607257288 3.2315313816070557 0.0 0.09400345385074615 0.16882875561714172 -0.26385441422462463 0.0 1.0943002746578975e-23 1 True False
7501.889999999999 4.802362442016602 -1.3036102515510102 1.8288763205157679 -2.0962254009642542 -1.570813004170553 3.2315642833709717 0.0 0.07002384960651398 0.11837524175643921 -0.19574537873268127 0.0 1.661939978689233e-42 1 True False
7501.94 4.8023552894592285 -1.3005990248969574 1.833796803151266 -2.103990694085592 -1.570801083241598 3.2315194606781006 0.0 0.04881159961223602 0.07826714217662811 -0.13271793723106384 0.0 0.0 1 True False
7501.99 4.8023600578308105 -1.2991236013225098 1.8364875952350062 -2.1082307300963343 -1.570801083241598 3.2315151691436768 1.3791042068866122e-33 0.02053053490817547 0.035374484956264496 -0.05213223025202751 0.0 0.0 1 True False
7502.04 4.802362442016602 -1.2987075310996552 1.8371222654925745 -2.109288831750387 -1.5708254019366663 3.231618642807007 0.0 3.652529812825378e-06 1.831134795793332e-05 0.0006269324221648276 0.0 0.0 1 True False
7502.089999999999 4.8023295402526855 -1.2988230150989075 1.8371179739581507 -2.1092363796629847 -1.5708211104022425 3.2315404415130615 0.0 -1.6545335013812513e-30 0.0001185371438623406 -6.357362872222438e-05 0.0 0.0 1 True False
7502.139999999999 4.8023552894592285 -1.2988066536239167 1.8371017614947718 -2.1092525921263636 -1.5708168188678187 3.2315478324890137 0.0 0.0003121219342574477 0.00010781019955174997 -0.00019617869111243635 0.0 0.0 1 True False
7502.19 4.802351951599121 -1.298773781662323 1.837175194417135 -2.1092645130553187 -1.5707767645465296 3.231550693511963 0.0 0.0005094430525787175 0.0001898547780001536 -0.00010237422247882932 0.0 0.0 1 True False
7502.24 4.802338600158691 -1.2987574201873322 1.8371871153460901 -2.109293123284811 -1.5708091894732874 3.231538772583008 -2.459275310684461e-05 0.00041838185279630125 0.00016435346333310008 -0.00023818001500330865 0.0 -2.5774216349298116e-19 1 True False
7502.29 4.8023295402526855 -1.2986837190440674 1.837191406880514 -2.1092969379820765 -1.5707686583148401 3.231510639190674 -1.7316880720955584e-20 0.00024639692855998874 0.0001260214194189757 -0.00013127004785928875 0.0 -3.915109359473457e-38 1 True False
7502.339999999999 4.802313327789307 -1.2986883086017151 1.8371828238116663 -2.109276433984274 -1.5707925001727503 3.2315611839294434 0.0 0.00021309489966370165 9.574354771757498e-05 -0.00010205677972408012 0.0 -0.0 1 True False
7502.389999999999 4.802319049835205 -1.2986764174750824 1.8372367064105433 -2.1093045673766078 -1.570784870778219 3.231477975845337 0.0 0.00013608712470158935 6.634032615693286e-05 -8.758810145081952e-05 0.0 -0.0 1 True False
7502.44 4.802305698394775 -1.298734651213028 1.8372276465045374 -2.1093207798399867 -1.570829216633932 3.231494188308716 0.0 8.836713095661253e-05 7.462310196750494e-24 -1.1985204650954984e-07 0.0 -0.0 1 True False
7502.49 4.802371501922607 -1.2986645263484498 1.8372109572040003 -2.1092640362181605 -1.5707967917071741 3.231581211090088 0.0 1.9095684139957338e-16 0.0 -5.6973389291670173e-05 0.0 -0.0 1 True False
7502.54 4.802371501922607 -1.2987137001803895 1.8371709028827112 -2.1092196903624476 -1.570784870778219 3.2315523624420166 0.0 0.0 0.0 -2.226845594925056e-15 0.0 -0.0 1 True False
7502.589999999999 4.802350997924805 -1.2987335485270997 1.8371871153460901 -2.1092921696104945 -1.5707805792437952 3.2315359115600586 0.0 0.0 0.0 -3.382584176826983e-34 0.0 -0.0 1 True False
7502.639999999999 4.802326679229736 -1.2987320286086579 1.8371122519122522 -2.1095077000060023 -1.5707724730121058 3.2315902709960938 0.0 0.00028140004724264145 1.3707684076366689e-12 -0.0008694264688529074 0.00010520083014853299 -0.00030119443545117974 1 True False
7502.69 4.802338600158691 -1.298736498957016 1.8370941321002405 -2.1094795666136683 -1.570772949849264 3.231534242630005 0.0 0.00013006718654651195 3.225789064875729e-42 -2.1757783130738062e-08 5.358542694011703e-05 3.809490465300769e-07 1 True False
7502.74 4.802334308624268 -1.2987709802440186 1.8370702902423304 -2.1094638309874476 -1.570784870778219 3.23152232170105 0.0 9.928421786753461e-05 0.0 0.0008044924470596015 3.071932587772608e-05 5.786625075300183e-26 1 True True
7502.79 4.8022894859313965 -1.2991382342628022 1.836426083241598 -2.107274194756979 -1.570829216633932 3.2315313816070557 0.0 -0.020015457645058632 -0.03758653253316879 0.06274759769439697 1.076603166438872e-05 8.407790785948902e-45 1 True True
7502.839999999999 4.802380084991455 -1.3011446756175538 1.8329113165484827 -2.1022569141783656 -1.570801083241598 3.231527090072632 0.0 -0.05532480776309967 -0.0894169956445694 0.14733971655368805 1.8233167426291326e-19 0.0 1 True True
7502.889999999999 4.802338600158691 -1.3044428092292328 1.8273127714740198 -2.0933248005309046 -1.5707605520831507 3.231538772583008 0.0 -0.08139903098344803 -0.13990627229213715 0.21127426624298096 2.769621012667757e-38 0.0 1 True True
7502.94 4.802384376525879 -1.3090016704848786 1.8192928473102015 -2.0810753307738246 -1.570784870778219 3.231597661972046 0.0 -0.10133235156536102 -0.17727819085121155 0.27360638976097107 0.0 0.0 1 True True
7502.99 4.802371501922607 -1.3148597341826935 1.8091991583453577 -2.0654670200743617 -1.570813004170553 3.2315404415130615 0.0 -0.1271064132452011 -0.22034989297389984 0.3656463623046875 0.0 0.0 1 True True
7503.04 4.8022894859313965 -1.3219527763179322 1.7971819082843226 -2.0460335216917933 -1.5707805792437952 3.2315433025360107 -3.44719422223905e-43 -0.15536363422870636 -0.26226115226745605 0.4160533547401428 0.0 -7.396165277451239e-12 1 True True
7503.089999999999 4.802371501922607 -1.330272526746132 1.7826345602618616 -2.023339410821432 -1.570768181477682 3.2315194606781006 0.0 -0.18280518054962158 -0.30601465702056885 0.4934271574020386 0.0 -1.1234791959961416e-30 1 True True
7503.139999999999 4.802383899688721 -1.3399952811053772 1.7661431471454065 -1.9970981083311976 -1.570801083241598 3.2314822673797607 0.0 -0.20170743763446808 -0.359645277261734 0.5606215596199036 0.0 -0.0 1 True True
7503.19 4.802334308624268 -1.349954829817154 1.7488725821124476 -1.969903131524557 -1.5707362333880823 3.2315688133239746 0.0 -0.1854044646024704 -0.32021746039390564 0.5218390822410583 0.0 -3.2551088224863634e-05 1 True True
7503.24 4.802310466766357 -1.3585610550693055 1.734030548726217 -1.945970197717184 -1.570784870778219 3.231555223464966 0.0 -0.16513097286224365 -0.2792382538318634 0.43743517994880676 0.0 -2.0062469596134104e-18 1 True True
7503.29 4.802310466766357 -1.3661671739867707 1.7209308783160608 -1.9256311855711878 -1.570784870778219 3.2315478324890137 0.0 -0.13636033236980438 -0.23062367737293243 0.37400802969932556 0.0 -3.0474927808456336e-37 1 True True
7503.339999999999 4.802364349365234 -1.3723337811282654 1.7105334440814417 -1.9088617763915003 -1.5707724730121058 3.2315478324890137 0.0 -0.11046555638313293 -0.1919432133436203 0.3073207437992096 0.0 -0.0 1 True True
7503.389999999999 4.802387714385986 -1.3772468280843277 1.7020905653582972 -1.8954111538329066 -1.5707805792437952 3.2315313816070557 0.0 -0.08254456520080566 -0.1501455456018448 0.2242950201034546 0.0 1.3253357981272753e-21 1 True True
7503.44 4.802346706390381 -1.3808718931725998 1.6957505385028284 -1.8855043850340785 -1.5707686583148401 3.2315685749053955 0.0 -0.06011867895722389 -0.10529990494251251 0.16680625081062317 0.0 2.0131894517568917e-40 1 True True
7503.49 4.802334308624268 -1.3832556468299408 1.6917288939105433 -1.8791085682311 -1.57074481645693 3.231538772583008 0.0 -0.03396781533956528 -0.06057010218501091 0.09892290085554123 0.0 0.0 1 True True
7503.54 4.802318096160889 -1.3843134206584473 1.6897504965411585 -1.8763514957823695 -1.570784870778219 3.231572151184082 0.0 -0.009896824136376381 -0.016215993091464043 0.020825758576393127 0.0 0.0 1 True True
7503.589999999999 4.801539421081543 -1.3842803847840806 1.6896126906024378 -1.8762170277037562 -1.5707767645465296 3.2308058738708496 -0.04607510194182396 -2.3740996202359788e-27 0.0001330831873929128 0.0007051444263197482 -0.0001333216787315905 -0.044133510440588 1 True True
7503.639999999999 4.797588348388672 -1.384283335213997 1.689690415059225 -1.876113077203268 -1.5707767645465296 3.226677656173706 -0.11745800077915192 0.0 1.7518556879513666e-31 0.0023148679174482822 -7.039602496661246e-05 -0.1141626164317131 1 True True
7503.69 4.789878845214844 -1.3843342077783127 1.6896832625018519 -1.87611784557485 -1.5708254019366663 3.2190191745758057 -0.1850283443927765 0.0 0.0 0.0006216934998519719 -3.033232133020647e-05 -0.18443109095096588 1 True True
7503.74 4.778794765472412 -1.3843208116343995 1.6896846930133265 -1.8761259518065394 -1.5707767645465296 3.208139657974243 -0.25702086091041565 0.0 -0.000341915525496006 0.0002020307001657784 -2.1341227693483233e-05 -0.26063477993011475 1 True True
7503.79 4.764191627502441 -1.384316400890686 1.689615551625387 -1.876061578790182 -1.5708335081683558 3.193429708480835 -0.32148224115371704 0.0 -0.00043970716069452465 0.00015852408250793815 -9.939356357762578e-20 -0.32569289207458496 1 True True
7503.839999999999 4.746250152587891 -1.3843252521804352 1.689575497304098 -1.8760296307005824 -1.5707810560809534 3.1753501892089844 -0.3981567323207855 0.0 -0.0011265743523836136 0.00012413183867465705 6.579470209544525e-05 -0.39115187525749207 1 True True
7503.889999999999 4.724555015563965 -1.384313390856125 1.6895197073565882 -1.8760377369322718 -1.570784870778219 3.1537859439849854 -0.4593892991542816 0.0005042061675339937 -0.00139170594047755 0.00011754177830880508 4.528798236557862e-16 -0.45834290981292725 1 True True
7503.94 4.699522972106934 -1.3842904281667252 1.6894281546222132 -1.8760739765562953 -1.570853058491842 3.128796339035034 -0.5351551175117493 0.002391995396465063 -0.0017158073605969548 0.00024132784164976329 -0.001690100529231131 -0.5345514416694641 1 True True
7503.99 4.670964241027832 -1.3842217487147828 1.6894210020648401 -1.8760010204710902 -1.570829216633932 3.1002748012542725 -0.6061975359916687 0.0022136783227324486 -0.0017208079807460308 0.00047311210073530674 0.00025783764431253076 -0.6072003245353699 1 True True
7504.04 4.6390204429626465 -1.384115533237793 1.689376179371969 -1.8760339222350062 -1.5708091894732874 3.068314552307129 -0.6731497645378113 0.0015429462073370814 -0.0016148925060406327 0.0002311789576197043 8.352219447260723e-05 -0.6785075664520264 1 True True
7504.089999999999 4.603568077087402 -1.3841496717980881 1.689265553151266 -1.8760177097716273 -1.5707653204547327 3.032745361328125 -0.7433154582977295 0.0008439648663625121 -0.0018246802501380444 0.0006831341306678951 0.0005356143228709698 -0.7443827986717224 1 True True
7504.139999999999 4.564648628234863 -1.3839518439820786 1.6891844908343714 -1.8759619198241175 -1.5707805792437952 2.993640184402466 -0.8162249326705933 0.0016823854530230165 -0.00219117128290236 0.0004829804238397628 7.667122554266825e-05 -0.8117212653160095 1 True True
7504.19 4.522101402282715 -1.3838873219541092 1.6890767256366175 -1.8759938679137171 -1.5707886854754847 2.951352834701538 -0.8830526471138 0.0014693208504468203 -0.0019380142912268639 0.00042528784251771867 -3.274668415542692e-05 -0.885079026222229 1 True True
7504.24 4.476081848144531 -1.3838242453387757 1.6889765898333948 -1.875998159448141 -1.5708048979388636 2.9052276611328125 -0.9499156475067139 0.0020492770709097385 -0.0026757640298455954 0.00036293972516432405 0.00035759678576141596 -0.9504572749137878 1 True True
7504.29 4.426600933074951 -1.3837296676686783 1.688875977193014 -1.875941892663473 -1.5707805792437952 2.8559038639068604 -1.023569941520691 0.0020330382976680994 -0.0021665648091584444 0.0005230059614405036 -0.0002992254158016294 -1.0157729387283325 1 True True
7504.339999999999 4.374516487121582 -1.3835993272117157 1.68874437013735 -1.875962873498434 -1.5708406607257288 2.803525686264038 -1.046990156173706 0.0025624698027968407 -0.00405315263196826 0.0005007774452678859 -2.841781821703411e-21 -1.043573260307312 1 True True
7504.389999999999 4.32210636138916 -1.3835452210954209 1.6886127630816858 -1.875962873498434 -1.5708296934710901 2.751296043395996 -1.0446354150772095 0.0022775670513510704 -0.0033796182833611965 0.0007802815525792539 0.00044056042679585516 -1.053354263305664 1 True True
7504.44 4.269748210906982 -1.3834657234004517 1.6885336081134241 -1.8758708439269007 -1.5707767645465296 2.699105739593506 -1.0483372211456299 0.0016811088426038623 -0.0018390400800853968 0.0003978729073423892 8.358891356863296e-09 -1.0482312440872192 1 True True
7504.49 4.217428207397461 -1.3833579582026978 1.6884225050555628 -1.875862260858053 -1.5708325544940394 2.64646053314209 -1.0500917434692383 0.0023461198434233665 -0.0030873252544552088 0.0006087722722440958 -1.231588527405671e-21 -1.036137580871582 1 True True
7504.54 4.165000915527344 -1.383260430102684 1.6882908979998987 -1.8758064709105433 -1.5707891623126429 2.5941250324249268 -1.0445624589920044 0.001504137646406889 -0.002450997242704034 0.00039402765105478466 0.00038847370888106525 -1.0534050464630127 1 True True
7504.589999999999 4.112698554992676 -1.3832225513509293 1.6881697813617151 -1.8758474789061488 -1.570756737385885 2.5419819355010986 -1.0463062524795532 0.002055068500339985 -0.0017105031292885542 0.0005514255026355386 -7.490810821764171e-05 -1.0468395948410034 1 True True
7504.639999999999 4.060354232788086 -1.383061022763588 1.6880548636065882 -1.8757878742613734 -1.570829216633932 2.489441156387329 -1.050291895866394 0.0023597651161253452 -0.002829437842592597 0.0005557710537686944 -1.1378558884761367e-23 -1.0444235801696777 1 True True
7504.69 4.007955551147461 -1.3829890054515381 1.688000504170553 -1.8758112392821253 -1.570772949849264 2.437086582183838 -1.0460065603256226 0.0017591840587556362 -0.0033213121350854635 0.0003458111023064703 0.0005379579379223287 -1.056079626083374 1 True True
7504.74 3.955674409866333 -1.3829140675118943 1.6878259817706507 -1.8757792911925257 -1.5707686583148401 2.384950876235962 -1.0457974672317505 0.0016834778944030404 -0.0016610120655968785 0.0003369037003722042 -9.912787936627865e-05 -1.0490491390228271 1 True True
7504.79 3.903229236602783 -1.3827851575664063 1.6877077261554163 -1.8757597408690394 -1.5708254019366663 2.3323922157287598 -1.0508500337600708 0.0023549741599708796 -0.0031796928960829973 0.00046198396012187004 0.00012847481411881745 -1.0423227548599243 1 True True
7504.839999999999 3.8508341312408447 -1.382659227853157 1.6876357237445276 -1.875711580316061 -1.570801083241598 2.2799813747406006 -1.0464693307876587 0.0016809634398669004 -0.00322075211443007 0.0008383133681491017 0.00033122781314887106 -1.0517232418060303 1 True True
7504.889999999999 3.7984490394592285 -1.382661984567978 1.6875007788287562 -1.8756395779051722 -1.5708211104022425 2.2278480529785156 -1.0480866432189941 0.0017794145969673991 -0.0016584735130891204 0.00037325796438381076 4.700775946275826e-08 -1.0485185384750366 1 True True
7504.94 3.746171474456787 -1.382555530672409 1.6873067061053675 -1.8756476841368617 -1.5708325544940394 2.175264596939087 -1.0518537759780884 0.002054986311122775 -0.0035601293202489614 0.00048438357771374285 7.140490039404652e-27 -1.041501522064209 1 True True
7504.99 3.693758964538574 -1.3823968035033722 1.6872528235064905 -1.8756562672057093 -1.570801083241598 2.1229119300842285 -1.0439231395721436 0.002241859445348382 -0.002825185190886259 0.0009189664851874113 1.401298464324817e-45 -1.0548503398895264 1 True True
7505.04 3.6413941383361816 -1.3823787730983277 1.6871565024005335 -1.8756042919554652 -1.570772949849264 2.070753335952759 -1.0465284585952759 0.0016131699085235596 -0.0013804425252601504 0.00048235850408673286 0.0 -1.0462833642959595 1 True True
7505.089999999999 3.589146852493286 -1.3822378826192399 1.6870372931109827 -1.8755761585631312 -1.5708168188678187 2.0182127952575684 -1.053658366203308 0.002782997442409396 -0.002496665343642235 0.0005272986018098891 0.0 -1.042589783668518 1 True True
7505.139999999999 3.5366671085357666 -1.382113279109337 1.6869495550738733 -1.875580450097555 -1.5707967917071741 1.9658639430999756 -1.043012261390686 0.0023262128233909607 -0.0028239984530955553 0.00047367566730827093 0.0 -1.0460703372955322 1 True True
7505.19 3.4842607975006104 -1.3820653867772599 1.686760727559225 -1.875580450097555 -1.5707929770099085 1.9136302471160889 -1.0452238321304321 0.0016485733212903142 -0.001254303497262299 0.0003482075408101082 -1.8613056016268168e-17 -1.0511888265609741 1 True True
7505.24 3.4319770336151123 -1.3819755476764222 1.686690632496969 -1.8755608997740687 -1.570768181477682 1.8611770868301392 -1.050749659538269 0.0029082747641950846 -0.003013269044458866 0.0004044109082315117 -2.8273275820466488e-36 -1.040337324142456 1 True True
7505.29 3.3796823024749756 -1.3818582904389878 1.6865266005145472 -1.8755370579161585 -1.5708087126361292 1.8087587356567383 -1.0456886291503906 0.002083325060084462 -0.004235424567013979 0.0004172599583398551 -0.0 -1.0545923709869385 1 True True
7505.339999999999 3.327287435531616 -1.381765441303589 1.6864426771747034 -1.8754531345763148 -1.5707767645465296 1.7566132545471191 -1.0477745532989502 0.0017487527802586555 -0.002041151048615575 0.00045951633364893496 -0.0 -1.0530825853347778 1 True True
7505.389999999999 3.274925708770752 -1.3816907417825242 1.6863911787616175 -1.8754688702025355 -1.5708048979388636 1.7040932178497314 -1.0510995388031006 0.0022370910737663507 -0.0023342715576291084 0.0005092674982734025 -0.0 -1.0419564247131348 1 True True
7505.44 3.222700357437134 -1.3815363061479111 1.686190430318014 -1.8754893742003382 -1.570772949849264 1.651736855506897 -1.0471891164779663 0.002613377058878541 -0.0024057612754404545 0.000586857320740819 -0.0 -1.045072317123413 1 True True
7505.49 3.170149564743042 -1.3815344882062455 1.6861193815814417 -1.875425478021139 -1.5708087126361292 1.599381446838379 -1.0447862148284912 0.0016196768265217543 -0.0014852727763354778 0.0004318601859267801 -0.0 -1.0483980178833008 1 True True
7505.54 3.1192615032196045 -1.3813487601331254 1.6860159079181116 -1.8754335842528285 -1.5707925001727503 1.5483208894729614 -0.9901396632194519 0.001960261957719922 -0.0014444428961724043 0.0005368614802137017 -0.0 -0.9849259853363037 1 True True
7505.589999999999 3.071500539779663 -1.3812693816474457 1.6859124342547815 -1.875402113000387 -1.5707686583148401 1.5007928609848022 -0.9147616028785706 0.001705166301690042 -0.0020302324555814266 0.00023053394397720695 0.00012967230577487499 -0.9267072081565857 1 True True
7505.639999999999 3.0274269580841064 -1.381213740711548 1.6857293287860315 -1.8753658733763636 -1.5708172957049769 1.4566404819488525 -0.8521585464477539 0.0017321417108178139 -0.0021196065936237574 0.00046476078568957746 0.00015306795830838382 -0.8464258909225464 1 True True
7505.69 2.9868459701538086 -1.3811419767192383 1.6857078711139124 -1.8753940067686976 -1.570784870778219 1.416041612625122 -0.7779396176338196 0.0016668598400428891 -0.0021728351712226868 0.00039853923954069614 -4.1363270447680733e-11 -0.7864393591880798 1 True True
7505.74 2.9497146606445312 -1.3810461324504395 1.685603443776266 -1.8753019771971644 -1.5708254019366663 1.3790332078933716 -0.7051965594291687 0.0011666836217045784 -0.0010126976994797587 0.00026846694527193904 -6.2830914083090026e-30 -0.7117286920547485 1 True True
7505.79 2.916114091873169 -1.381026254301407 1.685572926198141 -1.8753019771971644 -1.5708048979388636 1.345266580581665 -0.63885098695755 0.0009484652546234429 -0.0009179796907119453 0.0002532393264118582 -0.0 -0.6410154104232788 1 True True
7505.839999999999 2.885948657989502 -1.3809783321670075 1.6855128447162073 -1.8753224811949671 -1.5707290808307093 1.3151357173919678 -0.5672647356987 0.0009918705327436328 -0.0007068293634802103 0.0002483858843334019 0.0004150788299739361 -0.574493944644928 1 True True
7505.889999999999 2.859370231628418 -1.3809976142695923 1.6854608694659632 -1.87530579189443 -1.5707810560809534 1.2885479927062988 -0.49906793236732483 0.0006648091366514564 -0.00047542082029394805 0.00020480985403992236 -1.1306713378067546e-11 -0.5000107884407043 1 True True
7505.94 2.8362221717834473 -1.3808539670756836 1.6854212919818323 -1.8752418957152308 -1.5707648436175745 1.2653651237487793 -0.4268076419830322 0.0008076733793132007 -0.00047428146353922784 0.00021931248193141073 -3.0710185683346936e-07 -0.42763635516166687 1 True True
7505.99 2.8164784908294678 -1.3808464866927643 1.6853659788714808 -1.8753138981261195 -1.570829216633932 1.2455931901931763 -0.3562919795513153 0.0011131518986076117 -0.0005243423511274159 0.00016114531899802387 -4.664885514044908e-26 -0.35887524485588074 1 True True
7506.04 2.800330638885498 -1.3807896834662934 1.6852973143206995 -1.875254293481344 -1.5708449522601526 1.229469895362854 -0.29252004623413086 0.0010183071717619896 -0.0007272600196301937 0.00014807996922172606 4.85245582240168e-05 -0.292265385389328 1 True True
7506.089999999999 2.787545919418335 -1.3807970744422455 1.685244385396139 -1.8752943478026332 -1.570784870778219 1.2167527675628662 -0.22059935331344604 0.0005619831499643624 -0.0008545421878807247 9.898841381072998e-05 2.6660370092135288e-11 -0.22208155691623688 1 True True
7506.139999999999 2.7783477306365967 -1.3807581228068848 1.6852777639972132 -1.875270505944723 -1.5707886854754847 1.2076070308685303 -0.1500900387763977 0.00032412249129265547 -0.0008512763306498528 8.888448792276904e-05 4.0497168409557256e-30 -0.15047797560691833 1 True True
7506.19 2.7726986408233643 -1.3807941240123291 1.6852496306048792 -1.8752747974791468 -1.5707491079913538 1.2018646001815796 -0.0815039724111557 0.00025743257720023394 -0.0006434626993723214 7.140095112845302e-05 0.0 -0.08146322518587112 1 True True
7506.24 2.7704007625579834 -1.3807744842818757 1.6852424780475062 -1.875286718408102 -1.5708048979388636 1.1996434926986694 -0.011376990005373955 0.00020399033383000642 -0.00020353957370389253 1.3418456883823593e-12 0.0 -0.011042047291994095 1 True True
7506.29 2.770510196685791 -1.3800489765456696 1.6858199278460901 -1.8764449558653773 -1.570784870778219 1.1996599435806274 -0.0015300075756385922 0.024792885407805443 0.03754101321101189 -0.06117025762796402 -7.962083327583969e-05 8.405332928731037e-17 1 True True
7506.339999999999 2.770555257797241 -1.3784929376891633 1.6886680761920374 -1.881230970422262 -1.5708254019366663 1.1996480226516724 -0.0011994984233751893 0.04360377416014671 0.08222151547670364 -0.13757358491420746 -9.054034308064729e-05 -0.0005469443276524544 1 True True
7506.389999999999 2.770427703857422 -1.37542079508815 1.6942313353167933 -1.889601846734518 -1.570813004170553 1.1996331214904785 -0.0007085369434207678 0.07122501730918884 0.13139091432094574 -0.20988769829273224 -6.56567353871651e-05 -0.00044404057553038 1 True True
7506.44 2.770427703857422 -1.3711912643960495 1.7017601172076624 -1.901381631890768 -1.570801083241598 1.1996612548828125 -0.00043510241084732115 0.09593190252780914 0.1652681529521942 -0.25667962431907654 -4.0472328691976145e-05 -0.00020221849263180047 1 True True
7506.49 2.7704501152038574 -1.3656152349761506 1.7113326231585901 -1.9165541134276332 -1.5707929770099085 1.1996405124664307 -0.0001253695081686601 0.12446177005767822 0.21534261107444763 -0.3379535377025604 -2.9631733013957273e-06 -0.00026495958445593715 1 True True
7506.54 2.7703990936279297 -1.3586649012616654 1.7231877485858362 -1.9353586635985316 -1.5707886854754847 1.1996241807937622 -0.00011829735740320757 0.1481836587190628 0.25653937458992004 -0.40823107957839966 -4.501068254906142e-25 -3.183685475960374e-05 1 True True
7506.589999999999 2.7704248428344727 -1.3505339634469529 1.7375529448138636 -1.9574820003905238 -1.5708254019366663 1.1996419429779053 -7.680762064410374e-05 0.17560985684394836 0.3004181981086731 -0.4727538526058197 -5.2542782214004546e-05 -1.6893764041014947e-05 1 True True
7506.639999999999 2.770406723022461 -1.341076837187149 1.753552261983053 -1.9831983051695765 -1.5707810560809534 1.1996207237243652 -5.3835690778214484e-05 0.20182307064533234 0.3503158986568451 -0.5461702346801758 -3.412278031202934e-20 -1.149786839960143e-05 1 True True
7506.69 2.7704577445983887 -1.3310538840344925 1.7709763685809534 -2.010739942590231 -1.5708168188678187 1.1996654272079468 -1.120575475368569e-18 0.1901913434267044 0.3257382810115814 -0.5393174886703491 -5.1832572844972086e-39 -2.685146048435721e-24 1 True True
7506.74 2.7704455852508545 -1.3221556109241028 1.7863529364215296 -2.0350376568236292 -1.5707724730121058 1.199633002281189 0.0 0.16985630989074707 0.28584223985671997 -0.46116697788238525 -0.0 -4.077778531185218e-43 1 True True
7506.79 2.7704367637634277 -1.3144251567176362 1.7995088736163538 -2.0559169254698695 -1.5707925001727503 1.199625015258789 0.0 0.14150790870189667 0.23779715597629547 -0.39021173119544983 -2.8318836431376918e-24 -0.0 1 True True
7506.839999999999 2.7704367637634277 -1.3081320089152833 1.8104193846331995 -2.0731994114317835 -1.570784870778219 1.199612021446228 0.0 0.11267323046922684 0.20207448303699493 -0.31609824299812317 -4.3019862854771884e-43 -0.0 1 True True
7506.889999999999 2.7704081535339355 -1.3030659717372437 1.8192346731769007 -2.087094923058981 -1.5708406607257288 1.1996619701385498 0.0 0.09046582132577896 0.1513214260339737 -0.2321150302886963 -0.0 -0.0 1 True True
7506.94 2.7704412937164307 -1.299237774019577 1.8259242216693323 -2.097450395623678 -1.570829216633932 1.199641466140747 0.0 0.061775945127010345 0.1063862070441246 -0.181220144033432 -0.0 -0.0 1 True True
7506.99 2.770432233810425 -1.29674385607753 1.8301766554461878 -2.104392190972799 -1.570853058491842 1.1996285915374756 0.0 0.03927859663963318 0.06790059804916382 -0.10896258801221848 -0.0 -0.0 1 True True
7507.04 2.7704081535339355 -1.2957302194884797 1.8318966070758265 -2.1078411541380824 -1.5707925001727503 1.1996164321899414 0.0 0.011245043016970158 0.014403656125068665 -0.023150702938437462 -0.0006759296520613134 -0.0 1 True True
7507.089999999999 2.7704367637634277 -1.2957080167583008 1.8320310751544397 -2.108126779595846 -1.5708168188678187 1.1995916366577148 0.0 0.003199103055521846 0.0023011083249002695 0.0006674702162854373 -0.000158320355694741 -0.0 1 True True
7507.139999999999 2.770415782928467 -1.2956374746612092 1.8320086638080042 -2.108171125451559 -1.5708087126361292 1.1996405124664307 0.0 0.0036417918745428324 0.004199250601232052 0.00017603454762138426 -7.539848593296483e-05 -0.0 1 True True
7507.19 2.770411252975464 -1.294722245340683 1.8334010283099573 -2.107514043847555 -1.5707772413836878 1.1996933221817017 0.0 0.009123461320996284 0.01891590654850006 0.01861783117055893 0.0006658228230662644 1.8968273789379252e-19 1 True True
7507.24 2.770427703857422 -1.2950028044036408 1.8330796400653284 -2.1078878841795863 -1.5707486311541956 1.1996448040008545 4.928787143195338e-27 -0.0015710816951468587 -0.001252192654646933 -0.0012749452143907547 2.5422200802815986e-11 0.0006844895542599261 1 True False
7507.29 2.770432233810425 -1.2952086192420502 1.8329957167254847 -2.107999464074606 -1.5707805792437952 1.1995840072631836 0.0 -0.0051733460277318954 -0.00411258777603507 -0.0027252531144768 -6.624137313337997e-05 -0.000375011091819033 1 True False
7507.339999999999 2.770493745803833 -1.2952617865851899 1.8328951040851038 -2.1080638370909632 -1.570784870778219 1.1996405124664307 -2.2578731926414794e-17 -0.0036626989021897316 -0.004774431698024273 -0.0016653990605846047 -5.893145134905353e-05 6.136845698279103e-09 1 True False
7507.389999999999 2.770448684692383 -1.2953241926482697 1.8327544371234339 -2.1081439457335414 -1.5707805792437952 1.1996859312057495 0.0 3.0049331324216514e-19 -0.0018479139544069767 -0.00029717638972215354 2.5569020181137603e-06 6.138096320389156e-20 1 True False
7507.44 2.770414352416992 -1.2952988010695954 1.832674805318014 -2.1080151997008265 -1.5707805792437952 1.199633002281189 0.0 -0.012178109027445316 -0.02238409034907818 0.011415107175707817 3.883940889637547e-25 9.32377895442257e-39 1 True False
7507.49 2.77046537399292 -1.2963530284217377 1.8309701124774378 -2.1058179340758265 -1.5707686583148401 1.1996243000030518 0.0 -0.026122404262423515 -0.047647953033447266 0.0816745012998581 5.885453550164232e-44 0.0 1 True False
7507.54 2.7704036235809326 -1.298303411608078 1.8274367491351526 -2.0998226604857386 -1.5708211104022425 1.1995840072631836 0.0 -0.056846994906663895 -0.09817738831043243 0.14756685495376587 0.0 0.0 1 True False
7507.589999999999 2.770432233810425 -1.3016275030425568 1.8214815298663538 -2.09043612102651 -1.5707686583148401 1.199612021446228 0.0 -0.07961548864841461 -0.1362203061580658 0.21284501254558563 0.0 0.0 1 True False
7507.639999999999 2.770448684692383 -1.3064639133265992 1.8131588141070765 -2.0776807270445765 -1.570784870778219 1.1996285915374756 0.0 -0.10665332525968552 -0.1870078593492508 0.28800979256629944 -6.146550731500611e-05 0.0 1 True False
7507.69 2.770448684692383 -1.312486009006836 1.8029711882220667 -2.0614940128722132 -1.5708254019366663 1.1995949745178223 0.0 -0.13015560805797577 -0.22780758142471313 0.3498440086841583 -5.6910674089971636e-11 0.0 1 True False
7507.74 2.7704126834869385 -1.3197768491557618 1.7905376593219202 -2.041520734826559 -1.570829216633932 1.1996448040008545 0.0 -0.1590999811887741 -0.2675427496433258 0.42326322197914124 -4.9549154937267303e-05 0.0 1 True False
7507.79 2.7704617977142334 -1.3282714051059266 1.7756789366351526 -2.0183116398253382 -1.5707891623126429 1.1996078491210938 0.0 -0.18293479084968567 -0.30914565920829773 0.49411600828170776 -1.784080351157346e-21 0.0 1 True False
7507.839999999999 2.770432233810425 -1.3381401312402268 1.7588399092303675 -1.9915372333922328 -1.5707925001727503 1.1995795965194702 0.0 -0.21186962723731995 -0.3662309944629669 0.5614092350006104 -2.7100271520963367e-40 0.0 1 True False
7507.889999999999 2.7704365253448486 -1.347936527138092 1.7419121901141565 -1.9646889171996058 -1.5708325544940394 1.1996492147445679 0.0 -0.1791994571685791 -0.3080618381500244 0.5024676322937012 -3.6971711803168716e-10 0.0 1 True False
7507.94 2.7704036235809326 -1.3563957822373887 1.7272256056415003 -1.941681524316305 -1.5707281271563929 1.1995915174484253 0.0 -0.15773196518421173 -0.26669058203697205 0.4381170868873596 -5.616011115980072e-29 0.0 1 True False
7507.99 2.7704572677612305 -1.3636285376599808 1.7147591749774378 -1.9218155346312464 -1.5707967917071741 1.1996372938156128 0.0 -0.13391253352165222 -0.22629453241825104 0.36366036534309387 -0.0 0.0 1 True False
7508.04 2.7704617977142334 -1.3696511399796982 1.7045195738421839 -1.9055425129332484 -1.5708044211017054 1.1996207237243652 0.0 -0.10778285562992096 -0.1920582801103592 0.2987326383590698 -0.0 0.0 1 True False
7508.089999999999 2.770432233810425 -1.3743260663798829 1.6964133421527308 -1.8926431141295375 -1.5707529226886194 1.1995795965194702 0.0 -0.08006077259778976 -0.1473338007926941 0.2266678363084793 -0.0 0.0 1 True False
7508.139999999999 2.7704365253448486 -1.3776637029698868 1.6904414335833948 -1.8834835491576136 -1.5707967917071741 1.1996577978134155 0.0 -0.0542922206223011 -0.09490935504436493 0.15044693648815155 -0.0 0.0 1 True False
7508.19 2.770416021347046 -1.3798794460347672 1.6867435614215296 -1.8776804409422816 -1.5708254019366663 1.1995925903320312 0.0 -0.02859286591410637 -0.048951320350170135 0.07779975235462189 -0.0 0.0 1 True False
7508.24 2.770427942276001 -1.3807099920562287 1.6852558294879358 -1.875413557092184 -1.5707805792437952 1.199620008468628 0.0 -0.003062780946493149 -0.010095919482409954 0.014416826888918877 -0.0 0.0 1 True False
7508.29 2.7704410552978516 -1.3807158333114167 1.6852510611163538 -1.8753735027708949 -1.5708091894732874 1.1996362209320068 0.0 1.0641460538082661e-41 -3.425165778025985e-05 0.00021757926151622087 -0.0 0.0 1 False False
7508.339999999999 2.7704038619995117 -1.380673961048462 1.6852601210223597 -1.8753859005370082 -1.5707925001727503 1.1996978521347046 0.0 0.0 -0.0001244560698978603 0.0005798667552880943 -0.0 0.0 1 False False
7508.389999999999 2.770399332046509 -1.3807277095368882 1.6852648893939417 -1.8753820858397425 -1.5708044211017054 1.1996654272079468 0.0 -0.000192474719369784 -0.00024340901290997863 0.0010065779788419604 -0.0 0.0 1 False False
7508.44 2.770378828048706 -1.3807218235782166 1.6852782408343714 -1.8752385578551234 -1.5707724730121058 1.1996002197265625 0.0 -0.0004452041466720402 -0.0005981111316941679 0.0012447303161025047 -0.0 0.0 1 False False
7508.49 2.7704246044158936 -1.3807789844325562 1.6852529684649866 -1.87522616008901 -1.5708211104022425 1.199633002281189 -5.042010271517771e-17 -0.00038272031815722585 -0.0005620543961413205 0.0002782859664876014 -0.0 0.0 1 False False
7508.54 2.77048921585083 -1.3807307344726105 1.6851590315448206 -1.875242372552389 -1.5707724730121058 1.1995925903320312 0.0 -0.00018409235053695738 -0.0001975057239178568 0.00015110841195564717 -0.0 0.0 1 False False
7508.589999999999 2.770432233810425 -1.3807340574315567 1.6852496306048792 -1.8752223453917445 -1.5707925001727503 1.1996405124664307 0.0 -7.394605927402154e-05 -0.00015066596097312868 6.720936653437093e-05 -0.0 0.0 1 False False
7508.639999999999 2.770432233810425 -1.3807867181352158 1.6852291266070765 -1.8752504787840785 -1.5707686583148401 1.1996610164642334 0.0 -6.289694283623248e-05 -0.00010289471538271755 2.4026292066992028e-06 2.350833536590312e-16 0.0 1 False False
7508.69 2.770432233810425 -1.3807206910899659 1.6852119604693812 -1.8752409420409144 -1.5707529226886194 1.1996243000030518 0.0 -1.401298464324817e-45 -9.292607865063474e-05 3.649598664385166e-25 3.5709205271421615e-35 0.0 1 False False
7508.74 2.7704105377197266 -1.3807218831828614 1.6852119604693812 -1.8752466640868128 -1.5708487669574183 1.1996610164642334 0.0 0.0 -6.54301984468475e-05 5.605193857299268e-44 0.0 0.0 1 False False
7508.79 2.7704365253448486 -1.3806505662253876 1.685258690510885 -1.8752790890135707 -1.570756737385885 1.1996610164642334 0.0 0.0 -6.9948336012259915e-09 0.0 0.0 0.0 1 False False
7508.839999999999 2.770390748977661 -1.3808164310506363 1.6852033774005335 -1.8752910099425257 -1.5708211104022425 1.1995991468429565 0.0 0.0 -1.6459581697036085e-38 0.0 0.0 0.0 1 False False
7508.889999999999 2.77038311958313 -1.380750374203064 1.6852791945086878 -1.8752581081786097 -1.5707805792437952 1.1996285915374756 0.0 0.0 -0.0 0.0 0.0 0.0 1 False False
7508.94 2.7703962326049805 -1.3807340425303956 1.68524676958193 -1.8752504787840785 -1.57074481645693 1.1996620893478394 0.0 0.0 -0.0 0.0 0.0 0.0 1 False False
7508.99 2.7704453468322754 -1.3807759445956727 1.6852167288409632 -1.8752623997130335 -1.570829216633932 1.199633002281189 0.0 0.0 -0.0 4.5293043459816763e-20 0.0 0.0 1 False False
7509.04 2.7703919410705566 -1.380687729721405 1.685258690510885 -1.875282426873678 -1.570801083241598 1.1996285915374756 0.0 0.0 -0.0 6.880023733920306e-39 0.0 0.0 1 False False
7509.089999999999 2.7704246044158936 -1.380708472137787 1.6851471106158655 -1.8752581081786097 -1.570853058491842 1.1996729373931885 0.0 0.0 -0.0 0.0 0.0 0.0 1 False False
7509.139999999999 2.7703821659088135 -1.380705477004387 1.6852052847491663 -1.875270505944723 -1.570801083241598 1.1996448040008545 0.0 0.0 -0.0 0.0 0.0 0.0 1 False False
7509.19 2.7704484462738037 -1.380756826405861 1.6851885954486292 -1.8752428493895472 -1.5707929770099085 1.1996492147445679 0.0 0.0 -0.0 0.0 0.0 0.0 1 True False
7509.24 2.7704334259033203 -1.3807866883328934 1.6852377096759241 -1.875310560266012 -1.5707891623126429 1.1996243000030518 0.0 0.0 -0.0 -1.1561576728919868e-21 0.0 0.0 1 True False
7509.29 2.7704408168792725 -1.38076704860244 1.6851795355426233 -1.8752185306944789 -1.5708335081683558 1.199633002281189 0.0 0.0 -0.0 -1.7562053263843635e-40 0.0 0.0 1 True False
7509.339999999999 2.7704365253448486 -1.3807142686894913 1.6852496306048792 -1.8752747974791468 -1.5707805792437952 1.1996535062789917 0.0 0.0 -0.0 -0.0 0.0 0.0 1 True False
7509.389999999999 2.7704081535339355 -1.380800039773323 1.6852582136737269 -1.875270505944723 -1.5707281271563929 1.1996164321899414 0.0 0.0 -0.0 -0.0 0.0 0.0 1 True False
7509.44 2.770423650741577 -1.3807207357934494 1.6851843039142054 -1.8752862415709437 -1.5707967917071741 1.1995872259140015 0.0 0.0 -0.0 -5.581776554774695e-23 0.0 0.0 1 True False
7509.49 2.7704408168792725 -1.380708472137787 1.6852167288409632 -1.8752309284605921 -1.5707324186908167 1.199633002281189 0.0 0.0 -0.0 -8.479257007629468e-42 0.0 0.0 1 True False
7509.54 2.770449638366699 -1.380738542681076 1.6851843039142054 -1.8752385578551234 -1.5707362333880823 1.1996405124664307 0.0 0.0 -0.0 -0.0 0.0 0.0 1 True False
7509.589999999999 2.77044415473938 -1.3807636958411713 1.6852095762835901 -1.8752228222289027 -1.5708254019366663 1.199612021446228 0.0 0.0 -0.0 -0.0 0.0 0.0 1 True False
7509.639999999999 2.7704451084136963 -1.380745993261673 1.6852052847491663 -1.875298639337057 -1.5708211104022425 1.1996045112609863 -6.02161162532866e-05 0.0 -0.0 -0.0 4.278609254659522e-17 -0.0001305303885601461 1 True False
7509.69 2.770432233810425 -1.380750374203064 1.6851900259601038 -1.8752266369261683 -1.5708449522601526 1.1996285915374756 -2.252969534310978e-05 0.0 -0.0 -0.0 6.499217434651009e-36 0.0007260454585775733 1 True False
7509.74 2.7703986167907715 -1.3807744991830369 1.6852181593524378 -1.875242372552389 -1.5707529226886194 1.1995753049850464 -1.3857455087418202e-05 0.0 -0.0 -1.0632909618968692e-13 1.7090381944680555e-17 -5.626607526210137e-05 1 True False
7509.79 2.7706966400146484 -1.3807428789189835 1.685213867818014 -1.8752466640868128 -1.5708211104022425 1.1999077796936035 0.022938350215554237 -8.31251907584818e-12 -0.0 1.2614457773452159e-05 2.5960337865218312e-36 0.025007572025060654 1 True False
7509.839999999999 2.77370023727417 -1.3805900377086182 1.684903923665182 -1.875298639337057 -1.5708406607257288 1.2029991149902344 0.09503693133592606 0.007184821180999279 -0.013684015721082687 0.0005785556277260184 0.0 0.09708761423826218 1 True False
7509.889999999999 2.780385732650757 -1.3800249856761475 1.6841829458819788 -1.8749991856017054 -1.570801083241598 1.2095659971237183 0.1654338836669922 0.013796931132674217 -0.015214704908430576 0.00782183837145567 0.0 0.16553683578968048 1 True False
7509.94 2.790520429611206 -1.3793162417462845 1.683244530354635 -1.8747979603209437 -1.5707648436175745 1.2196879386901855 0.23635372519493103 0.016446564346551895 -0.022838732227683067 0.006301942281424999 0.0 0.23380641639232635 1 True False
7509.99 2.8041117191314697 -1.3783175361207505 1.6819475332843226 -1.8744756184019984 -1.5707972685443323 1.233262300491333 0.30589184165000916 0.0222825538367033 -0.02910192497074604 0.007854956202208996 0.0 0.30305051803588867 1 True False
7510.04 2.821117401123047 -1.377051667576172 1.6804121176349085 -1.8740502796568812 -1.5707686583148401 1.2503662109375 0.3789042532444 0.028372127562761307 -0.03280283138155937 0.010142654180526733 3.3047958813980927e-10 0.3716239929199219 1 True False
7510.089999999999 2.8417716026306152 -1.3754809361747284 1.67839223543276 -1.8735763035216273 -1.570772949849264 1.270925760269165 0.4445202052593231 0.03313980996608734 -0.04643424227833748 0.009268620051443577 7.139040437775725e-21 0.4444256126880646 1 True False
7510.139999999999 2.865826368331909 -1.373768613939621 1.6760128180133265 -1.8730718098082484 -1.5708168188678187 1.2949061393737793 0.5125621557235718 0.03608302026987076 -0.049859222024679184 0.01147626806050539 1.0844214412885819e-39 0.5135836601257324 1 True False
7510.19 2.8932673931121826 -1.3717085731080552 1.6733787695514124 -1.8724872074522914 -1.5708087126361292 1.322504997253418 0.5840484499931335 0.04222451522946358 -0.05363808944821358 0.011681401170790195 0.0 0.581940233707428 1 True False
7510.24 2.9243009090423584 -1.3694461447051545 1.6703770796405237 -1.871859689752096 -1.5708449522601526 1.3535479307174683 0.6503945589065552 0.048325955867767334 -0.06923655420541763 0.012616806663572788 0.0 0.6509052515029907 1 True False
7510.29 2.95878005027771 -1.3668418538621445 1.6670196692096155 -1.870988508264059 -1.5708211104022425 1.3879884481430054 0.7195770144462585 0.05599595978856087 -0.06779118627309799 0.014386547729372978 1.252176616617362e-06 0.7266055345535278 1 True False
7510.339999999999 2.996926784515381 -1.364072636967041 1.663379971181051 -1.870066305200094 -1.570813004170553 1.4260282516479492 0.7910289168357849 0.05789114534854889 -0.07980919629335403 0.01746729016304016 4.874498582552178e-09 0.7976844906806946 1 True False
7510.389999999999 3.038429021835327 -1.3610277634910126 1.6592829863177698 -1.8691517315306605 -1.5707362333880823 1.4675663709640503 0.8624114990234375 0.062484610825777054 -0.07699473947286606 0.02094290591776371 -8.223101366500174e-11 0.8635663390159607 1 True False
7510.44 3.083404779434204 -1.3577575844577332 1.655001465474264 -1.8681222401061 -1.570784870778219 1.512519359588623 0.9301117062568665 0.06667337566614151 -0.09396723657846451 0.01996731013059616 0.00014623170136474073 0.9290930032730103 1 True False
7510.49 3.131761312484741 -1.3541312676719208 1.6504786650287073 -1.8668934307494105 -1.5707805792437952 1.5610390901565552 1.006436824798584 0.07529685646295547 -0.09254097938537598 0.02482011541724205 4.314685793360695e-05 0.9981281757354736 1 True False
7510.54 3.1835312843322754 -1.3503528100303193 1.645350758229391 -1.865892072717184 -1.5707686583148401 1.612739086151123 1.0476691722869873 0.07453759014606476 -0.09641878306865692 0.02339351363480091 1.9623881598818116e-05 1.0465315580368042 1 True False
7510.589999999999 3.235954523086548 -1.3464393329671402 1.6403310934649866 -1.8646394215025843 -1.570784870778219 1.665079116821289 1.048729419708252 0.07444656640291214 -0.10092724114656448 0.022946950048208237 1.4830499695767307e-17 1.0457894802093506 1 True False
7510.639999999999 3.288323402404785 -1.342638762002327 1.6353266874896448 -1.8633748493590296 -1.5707972685443323 1.7174923419952393 1.0499491691589355 0.07563935965299606 -0.09931641817092896 0.027053426951169968 2.2527570066721425e-36 1.0494705438613892 1 True False
7510.69 3.3406875133514404 -1.3387931895307084 1.6301077047931116 -1.8622328243651332 -1.5707805792437952 1.769647479057312 1.0416467189788818 0.07546915858983994 -0.0964536964893341 0.02580711618065834 -5.762468936154619e-05 1.0500460863113403 1 True False
7510.74 3.3930153846740723 -1.3349673610976716 1.625040356312887 -1.861093660394186 -1.5707929770099085 1.8221697807312012 1.0464905500411987 0.07705991715192795 -0.10181409865617752 0.02376888133585453 7.4251052151913e-15 1.0434664487838745 1 True False
7510.79 3.4452927112579346 -1.3311227721026917 1.6201961676227015 -1.8596693478026332 -1.570784870778219 1.87456214427948 1.0500811338424683 0.07604669034481049 -0.10486043989658356 0.02226562798023224 1.1278749828349805e-33 1.0477192401885986 1 True False
7510.839999999999 3.4977097511291504 -1.327260972266533 1.6152709166156214 -1.8586007557311 -1.570813004170553 1.9268466234207153 1.0453673601150513 0.07895553112030029 -0.10545875132083893 0.02046426758170128 0.0 1.0498287677764893 1 True False
7510.889999999999 3.5500640869140625 -1.3234531593373795 1.6100929419146937 -1.8576394520201625 -1.5707925001727503 1.9793286323547363 1.0497920513153076 0.0779772400856018 -0.10153696686029434 0.023796357214450836 0.0 1.0463758707046509 1 True False
7510.94 3.6024434566497803 -1.3195375961116333 1.6049874464618128 -1.8563147983946742 -1.5707805792437952 2.0316338539123535 1.0502030849456787 0.07385183870792389 -0.10276941955089569 0.024042218923568726 0.0 1.051832675933838 1 True False
7510.99 3.6547293663024902 -1.3155716222575684 1.5999863783465784 -1.8550621471800746 -1.5708087126361292 2.083895206451416 1.0451313257217407 0.07623489201068878 -0.1017431765794754 0.022989556193351746 0.0 1.0513561964035034 1 True False
7511.04 3.7071518898010254 -1.3118156355670472 1.5949204603778284 -1.8538538418211878 -1.5708335081683558 2.1363871097564697 1.046651005744934 0.07669246941804886 -0.10075583308935165 0.02705349773168564 0.0 1.0392515659332275 1 True False
7511.089999999999 3.7595620155334473 -1.3079240781119843 1.589858357106344 -1.8526374302306117 -1.5707967917071741 2.1887683868408203 1.0518816709518433 0.07267644256353378 -0.09499893337488174 0.024871772155165672 0.0 1.0452948808670044 1 True False
7511.139999999999 3.811896562576294 -1.3041818302920838 1.584827725087301 -1.8515202007689417 -1.5708087126361292 2.2409558296203613 1.0402470827102661 0.0743938460946083 -0.10304615646600723 0.021986376494169235 0.0 1.050655722618103 1 True False
7511.19 3.8642280101776123 -1.3002537053874512 1.5798385779010218 -1.850351472894186 -1.5707805792437952 2.2934796810150146 1.0465004444122314 0.08111999928951263 -0.10281435400247574 0.0240876916795969 -3.4412076633850173e-22 1.0434978008270264 1 True False
7511.24 3.91656231880188 -1.2964606446078797 1.574841324483053 -1.8491069279112757 -1.5707925001727503 2.3457932472229004 1.0527645349502563 0.07885877788066864 -0.09729593247175217 0.027677418664097786 -5.227263661470865e-41 1.0482127666473389 1 True False
7511.29 3.968862771987915 -1.2926799815944214 1.569564167653219 -1.8479939899840296 -1.5707643667804163 2.3980093002319336 1.045879602432251 0.07986482977867126 -0.09753234684467316 0.024875987321138382 -0.0 1.049931287765503 1 True False
7511.339999999999 4.021263122558594 -1.288767622118332 1.5645278135882776 -1.8466388187804164 -1.5707767645465296 2.4505085945129395 1.0457894802093506 0.07654882222414017 -0.10369552671909332 0.020141538232564926 2.1352391426157635e-13 1.037134051322937 1 True False
7511.389999999999 4.073556900024414 -1.284855679874756 1.5595834890948694 -1.8454138241209925 -1.5707886854754847 2.5028603076934814 1.0498324632644653 0.07874318957328796 -0.09984008967876434 0.023302804678678513 3.2434351799851885e-32 1.0470116138458252 1 True False
7511.44 4.126042366027832 -1.281031386261322 1.5545323530780237 -1.8443800411620082 -1.5707767645465296 2.5551445484161377 1.0432565212249756 0.07499454915523529 -0.09643229842185974 0.02222655527293682 1.5046445069142837e-19 1.0497682094573975 1 True False
7511.49 4.17843770980835 -1.2771915358356019 1.5494754950152796 -1.8431555233397425 -1.5707805792437952 2.6076207160949707 1.0452568531036377 0.0757375955581665 -0.10076694935560226 0.02130761928856373 -2.506585772277248e-10 1.0413787364959717 1 True False
7511.54 4.230682373046875 -1.2733391684344788 1.544532601033346 -1.8418871364989222 -1.570801083241598 2.6599388122558594 1.05305016040802 0.0766533687710762 -0.1029338464140892 0.022413689643144608 6.792935138000278e-12 1.045777440071106 1 True False
7511.589999999999 4.283084869384766 -1.2694955629161377 1.539421860371725 -1.8407260380186976 -1.5708211104022425 2.7121329307556152 1.045067310333252 0.0803103968501091 -0.10165271162986755 0.02353071980178356 1.0318485649936117e-30 1.0551053285598755 1 True False
7511.639999999999 4.335452556610107 -1.2657022339156647 1.5342581907855433 -1.8395577869811 -1.5707925001727503 2.7647078037261963 1.044297218322754 0.07749546319246292 -0.09859413653612137 0.023888470605015755 0.00022595888003706932 1.0387325286865234 1 True False
7511.69 4.38778829574585 -1.2618285876563569 1.5292452017413538 -1.838325639764303 -1.570784870778219 2.81705379486084 1.0521314144134521 0.07819144427776337 -0.10238455981016159 0.019826509058475494 -1.453930398298553e-08 1.0511679649353027 1 True False
7511.74 4.439161777496338 -1.2579449278167267 1.5244467894183558 -1.8372003040709437 -1.5707443396197718 2.868250846862793 0.9873601198196411 0.07735136896371841 -0.095111183822155 0.019886773079633713 -0.0017783476505428553 0.9957991242408752 1 True False
7511.79 4.487087249755859 -1.2544627648643036 1.5197833220111292 -1.8360988102354945 -1.5707686583148401 2.9164483547210693 0.9258122444152832 0.06934652477502823 -0.08719024807214737 0.02567148208618164 -5.488605125947288e-10 0.9278457164764404 1 True False
7511.839999999999 4.531490325927734 -1.2511607271483918 1.515458885823385 -1.8351208172240199 -1.570829216633932 2.960531234741211 0.850944995880127 0.05877412483096123 -0.08570080250501633 0.01693127118051052 -8.337203275240977e-29 0.8623403310775757 1 True False
7511.889999999999 4.572453498840332 -1.2482057374766846 1.5116656462298792 -1.8341108761229457 -1.570801083241598 3.001715660095215 0.7885042428970337 0.057889245450496674 -0.07696034759283066 0.018447980284690857 -0.0 0.786787748336792 1 True False
7511.94 4.609907150268555 -1.2454523605159302 1.5078290144549769 -1.83325256923818 -1.5707686583148401 3.0392160415649414 0.715262234210968 0.05050443112850189 -0.06537090241909027 0.01823095977306366 -0.0 0.7159432172775269 1 True False
7511.99 4.6439127922058105 -1.2429096859744568 1.5046566168414515 -1.832437654534811 -1.5707886854754847 3.073162794113159 0.6469179391860962 0.04605729505419731 -0.0670599713921547 0.014784685336053371 -0.0 0.6418340802192688 1 True False
7512.04 4.674376487731934 -1.240708367233612 1.5016353766070765 -1.8317495785155238 -1.5708368460284632 3.1036722660064697 0.5721955895423889 0.04466649889945984 -0.054401006549596786 0.012067809700965881 -0.0 0.5739604234695435 1 True False
7512.089999999999 4.701412200927734 -1.2387498182109375 1.4990947882281702 -1.8311735592284144 -1.5707805792437952 3.1306662559509277 0.5040693283081055 0.03752024099230766 -0.04886104166507721 0.008588957600295544 -0.0 0.5011810660362244 1 True False
7512.139999999999 4.72501277923584 -1.2370166939548035 1.49677020708193 -1.830644269982809 -1.5707972685443323 3.1540567874908447 0.4366007447242737 0.031652554869651794 -0.04112657159566879 0.00976361334323883 -1.037473129628097e-08 0.4375825524330139 1 True False
7512.19 4.744981288909912 -1.2355555456927796 1.4948509375201624 -1.8302351437010707 -1.570801083241598 3.1740407943725586 0.36733579635620117 0.025458185002207756 -0.03478530794382095 0.009429041296243668 -6.372921052388847e-05 0.37097102403640747 1 True False
7512.24 4.761325359344482 -1.234262542133667 1.493340317402975 -1.8298217258849085 -1.5707767645465296 3.1906328201293945 0.29799413681030273 0.0231365654617548 -0.0268796905875206 0.006460615433752537 -1.6901243725442328e-05 0.29606571793556213 1 True False
7512.29 4.774468898773193 -1.2333319944194336 1.4920771757708948 -1.8295632801451625 -1.5708087126361292 3.203603744506836 0.22450755536556244 0.016299182549118996 -0.023522818461060524 0.006053209770470858 -1.7181352621471177e-16 0.22982244193553925 1 True False
7512.339999999999 4.7839765548706055 -1.2326341432384034 1.4910667578326624 -1.8292728863158167 -1.5707648436175745 3.213160753250122 0.1559855043888092 0.012240037322044373 -0.017123699188232422 0.0027516637928783894 -2.60985144136954e-35 0.15657322108745575 1 True False
7512.389999999999 4.790033340454102 -1.232240156536438 1.4905336538897913 -1.8291298351683558 -1.5707886854754847 3.219221353530884 0.09061408042907715 0.005310537293553352 -0.006282681133598089 0.002541790483519435 -0.0 0.09016664326190948 1 True False
7512.44 4.792601585388184 -1.2321568888476868 1.490366284047262 -1.8290821514525355 -1.5707767645465296 3.2218401432037354 0.019178416579961777 0.0008450158056803048 -0.0007070853025652468 0.0009563578641973436 -0.0 0.018680378794670105 1 True False
7512.49 4.792623996734619 -1.2315847438624878 1.4908373991595667 -1.829984804193014 -1.5707767645465296 3.2218832969665527 0.0002612974785733968 0.022579027339816093 0.03274928778409958 -0.04695073142647743 0.00015752755280118436 7.485518290195614e-05 1 True False
7512.54 4.792661666870117 -1.2300954026034852 1.4935901800738733 -1.8346334896483363 -1.5707767645465296 3.221846580505371 0.00024268405104521662 0.03903492912650108 0.0782301053404808 -0.1271790862083435 8.540430280845612e-05 0.0006688002613373101 1 True False
7512.589999999999 4.792684555053711 -1.2275015872767945 1.4988701979266565 -1.8424855671324671 -1.5707724730121058 3.2219033241271973 0.0003531179390847683 0.06556686758995056 0.13657696545124054 -0.19606541097164154 5.360486829886213e-05 0.0003040238516405225 1 True False
7512.639999999999 4.7927374839782715 -1.2235909861377259 1.5065997282611292 -1.8538485966124476 -1.570784870778219 3.221919536590576 0.0006887827184982598 0.09030432999134064 0.17793428897857666 -0.25732699036598206 1.004548084893031e-05 0.00021601497428491712 1 True False
7512.69 4.7927093505859375 -1.2185247105411072 1.5165908972369593 -1.8688065014281214 -1.5708168188678187 3.221935749053955 0.0002895475772675127 0.10941149294376373 0.2155137062072754 -0.3352113366127014 5.552145834769326e-24 0.00012355056242085993 1 True False
7512.74 4.792724132537842 -1.2122965318015595 1.52875262895693 -1.887073656121725 -1.5708087126361292 3.2218735218048096 0.00016636692453175783 0.13516800105571747 0.26999732851982117 -0.397097110748291 8.435816755235399e-43 7.859818288125098e-05 1 True False
7512.79 4.792724132537842 -1.2050242584994812 1.5433762709247034 -1.90903963665151 -1.5707772413836878 3.2219228744506836 0.00011502633424242958 0.1598942130804062 0.3114930987358093 -0.4638388752937317 2.226870243760004e-09 1.2911536373394483e-07 1 True False
7512.839999999999 4.792789936065674 -1.1965141755393525 1.5599520842181605 -1.9343539677061976 -1.570801083241598 3.2219152450561523 8.766143582761288e-05 0.18241167068481445 0.3573039472103119 -0.5407236218452454 3.3826212615578615e-28 1.9612659825604796e-26 1 True False
7512.889999999999 4.792749404907227 -1.1873872739127656 1.5776589552508753 -1.9605361423888148 -1.5708087126361292 3.2219347953796387 0.00010172135807806626 0.1701379120349884 0.32379746437072754 -0.49888724088668823 0.0 2.802596928649634e-45 1 True False
7512.94 4.79278564453125 -1.1798524123481293 1.5924771467791956 -1.9835530720152796 -1.5708497206317347 3.2219390869140625 8.85656409082003e-05 0.14506292343139648 0.2838115990161896 -0.4201183617115021 1.0625743016134948e-05 0.0 1 True False
7512.99 4.792694568634033 -1.173329935675003 1.6055343786822718 -2.0029922924437464 -1.570829216633932 3.2219228744506836 -2.0334889327955352e-08 0.12042056024074554 0.23420235514640808 -0.354701429605484 2.09242993828303e-20 0.0 1 True False
7513.04 4.792724132537842 -1.1680786472610016 1.6158235708819788 -2.0189296207823695 -1.5707925001727503 3.2218947410583496 0.0 0.09672223776578903 0.18707489967346191 -0.27721527218818665 3.178404157304585e-39 8.734218352095344e-15 1 True False
7513.089999999999 4.792752742767334 -1.1637185972980042 1.6240819136248987 -2.0313216648497523 -1.5708487669574183 3.2219078540802 0.0 0.07261477410793304 0.1450878381729126 -0.21371622383594513 0.0 1.326729964250229e-33 1 True False
7513.139999999999 4.79268741607666 -1.160672352915146 1.6300566832171839 -2.040227552453512 -1.5708087126361292 3.221989154815674 0.0 0.05172594636678696 0.10151823610067368 -0.14337000250816345 0.0 0.0 1 True False
7513.19 4.792724132537842 -1.1588216882995148 1.6337278524981897 -2.0456344089903773 -1.5708335081683558 3.221870183944702 0.0 0.021307751536369324 0.04641914367675781 -0.07542071491479874 0.0 0.0 1 True False
7513.24 4.792728424072266 -1.1582223337939759 1.6350372473346155 -2.0476681194701136 -1.5707967917071741 3.2219271659851074 0.0 0.00020245276391506195 0.001351855811662972 -0.005725059192627668 0.0 0.0 1 True False
7513.29 4.792622089385986 -1.1582208436778565 1.6350372473346155 -2.0476728878416957 -1.5707767645465296 3.221890926361084 0.0 0.00031541456701233983 -2.6145337006511227e-09 2.1472444031574124e-17 0.0 0.0 1 True False
7513.339999999999 4.79276180267334 -1.1582566660693665 1.6350329558001917 -2.047648092309469 -1.5707891623126429 3.2219109535217285 0.0 -1.3279090196880214e-18 0.00013470431440509856 -7.699786510784179e-05 0.0 0.0 1 True False
7513.389999999999 4.792761325836182 -1.1582773190787812 1.6350491682635706 -2.0476442776122035 -1.570784870778219 3.221935749053955 0.0 0.00014108164759818465 0.00011471139441709965 -9.248739661416039e-05 0.0 0.0 1 True False
7513.44 4.792712211608887 -1.1582416158965607 1.6350372473346155 -2.047652383843893 -1.5707686583148401 3.2219078540802 -8.499725888237747e-21 0.00010733392264228314 0.0001909759739646688 -5.631379463011399e-05 0.0 0.0 1 True False
7513.49 4.792725086212158 -1.1582340759089966 1.6350610891925257 -2.0476886234679164 -1.5707643667804163 3.221886396408081 -1.401298464324817e-45 0.0002245160285383463 0.00019793839601334184 -4.0482147596776485e-05 0.0 0.0 1 True False
7513.54 4.792728424072266 -1.158205346470215 1.6350863615619105 -2.047668596307272 -1.5708048979388636 3.2219109535217285 0.0 0.00014678326260764152 0.00017231778474524617 -2.919355729380513e-11 0.0 -4.742017108844143e-12 1 True False
7513.589999999999 4.792651653289795 -1.158205346470215 1.6350892225848597 -2.0476604900755824 -1.570772949849264 3.2219109535217285 -4.0083334170049056e-05 0.00010941322398139164 0.00011447133147157729 -4.434508616047681e-30 0.0 9.052350162798667e-16 1 True False
7513.639999999999 4.792658805847168 -1.1581652623466034 1.6350567976581019 -2.0476800403990687 -1.570784870778219 3.2219314575195312 -1.2033789964505104e-08 0.00011319837358314544 8.728948887437582e-05 -7.603465928696096e-05 0.0 1.3750541467116746e-34 1 True False
7513.69 4.792658805847168 -1.1582177442363282 1.6351173559771937 -2.0476719341673792 -1.5707524458514612 3.2218990325927734 0.0 9.903239697450772e-05 6.972704748656189e-13 -5.0271617979547045e-09 0.0 0.0 1 True False
7513.74 4.7927165031433105 -1.1581727129272004 1.635052506123678 -2.047692438165182 -1.5708168188678187 3.2218658924102783 -1.0655416190274991e-05 4.817394074052572e-05 1.6409205017243608e-42 -7.636266970141697e-28 0.0 0.0 1 True False
7513.79 4.792707920074463 -1.1582399171641846 1.635031525288717 -2.047676225701803 -1.5708454290973108 3.221890926361084 -6.1352002680616664e-34 4.1206058085663244e-05 0.0 -4.758989202713337e-09 0.0 0.0 1 True False
7513.839999999999 4.792688369750977 -1.1582007867148896 1.6350892225848597 -2.047676225701803 -1.5708168188678187 3.2219152450561523 0.0 2.620754821691662e-05 0.0 -7.228913046121867e-28 0.0 0.0 1 True False
7513.889999999999 4.792699337005615 -1.1581978064826508 1.635035816823141 -2.047688146630758 -1.5707324186908167 3.2218947410583496 0.0 1.843517352662083e-11 0.0 -0.0 0.0 0.0 1 True False
7513.94 4.7927327156066895 -1.1582666498473664 1.6350567976581019 -2.04766382793569 -1.5707810560809534 3.221956729888916 0.0 0.0 -2.0182765657503495e-24 -0.0 0.0 0.0 1 True False
7513.99 4.79268741607666 -1.1582141679576416 1.6350482145892542 -2.0477129421629847 -1.5708125273333948 3.221935749053955 0.0 0.0 -0.0 -0.0 0.0 0.0 1 True False
7514.04 4.792731761932373 -1.1581727129272004 1.635064427052633 -2.0476604900755824 -1.5707886854754847 3.2219314575195312 0.0 0.0 -0.0 -0.0 0.0 0.0 1 True False
7514.089999999999 4.792724132537842 -1.158168153171875 1.635080639516012 -2.047692438165182 -1.5708006064044397 3.2219390869140625 0.0 0.0 -0.0 -0.0 0.0 0.0 1 True False
7514.139999999999 4.792707920074463 -1.158172683124878 1.635096851979391 -2.0477005443968714 -1.5707805792437952 3.2219271659851074 -9.513436220196937e-28 -0.00012744693958666176 -0.0 -0.00013706252502743155 -0.0020796561148017645 1.5163680311403027e-09 1 True False
7514.19 4.792695999145508 -1.1581947368434449 1.6351054350482386 -2.047692438165182 -1.570784870778219 3.2218658924102783 0.0 -2.8085842131986283e-05 -0.0 -4.748123319586739e-05 -0.00017036247299984097 2.303366713392198e-28 1 True False
7514.24 4.792663097381592 -1.1581770938685914 1.635080639516012 -2.047676225701803 -1.570784870778219 3.2219152450561523 0.0 -1.5777148291817866e-05 -0.0 -2.861102439055685e-05 -6.607815157622099e-05 0.0 1 False False
7514.29 4.792707920074463 -1.1581890147975464 1.6350720564471644 -2.0476962528624476 -1.5708091894732874 3.2219064235687256 0.0 -2.183215292461682e-05 -0.0 -2.047460111498367e-05 -4.099407306057401e-05 0.0 1 False False
7514.339999999999 4.792741298675537 -1.158172683124878 1.635064427052633 -2.047732492486471 -1.5707524458514612 3.2219772338867188 0.0 -1.3238648131339242e-38 -0.0 -2.3037760085264903e-22 -1.6740495993872173e-05 -9.202121781743175e-23 1 False False
7514.389999999999 4.792695999145508 -1.1582223337939759 1.6350362936602991 -2.0476681194701136 -1.5708377997027796 3.2219152450561523 0.0 9.721670357976109e-05 -0.0 -3.4994626549583657e-41 -9.934409429958599e-20 -1.397795218164005e-41 1 False False
7514.44 4.792667388916016 -1.1582430762103577 1.6350849310504358 -2.047708650628561 -1.5707572142230433 3.2219314575195312 0.0 0.0 -0.0 -0.0 -1.509038417793202e-38 0.0002977425465360284 1 False False
7514.49 4.792695999145508 -1.1581890147975464 1.6350677649127405 -2.047680517236227 -1.5707648436175745 3.22188138961792 0.0 0.0 -0.0 -0.0 -0.0 4.52271627447483e-23 1 False False
7514.54 4.792688369750977 -1.158172683124878 1.6350978056537073 -2.0476886234679164 -1.5708373228656214 3.2219479084014893 0.0 0.0 -0.0 -0.0 -0.0 6.870566370584578e-42 1 False False
7514.589999999999 4.792695999145508 -1.1581962567618866 1.6351173559771937 -2.0476800403990687 -1.5708006064044397 3.221924066543579 0.0 0.0 -0.0 -0.0 -0.0 0.0 1 False False
7514.639999999999 4.792737007141113 -1.1581963461688538 1.6350362936602991 -2.0477129421629847 -1.5708125273333948 3.221968412399292 0.0 0.0 -0.0 -0.0 -0.0 0.0 1 False False
7514.69 4.792728424072266 -1.1582177144340058 1.6350773016559046 -2.047692438165182 -1.5707367102252405 3.221865653991699 0.0 0.0 -8.217033269391669e-16 -0.0 -0.0 0.0 1 False False
7514.74 4.792720794677734 -1.1581770938685914 1.6351054350482386 -2.0476399860777796 -1.5707767645465296 3.2219033241271973 0.0 0.0 -1.401298464324817e-45 -0.0 -0.0 0.0 1 False False
7514.79 4.7927165031433105 -1.1582518380931397 1.6350677649127405 -2.0476800403990687 -1.5708168188678187 3.2219033241271973 0.0 0.0 -0.0 -0.0 -0.0 0.0 1 False False
7514.839999999999 4.792740345001221 -1.1581815046123047 1.6351097265826624 -2.0476800403990687 -1.5707967917071741 3.2218990325927734 0.0 0.0 -0.0 -0.0 -0.0 0.0 1 False False
7514.889999999999 4.792741298675537 -1.1582007867148896 1.6350892225848597 -2.0476681194701136 -1.5707886854754847 3.2218775749206543 0.0 0.0 -0.0 -0.0 -0.0 0.0 1 False False
7514.94 4.792748928070068 -1.1581963461688538 1.635064427052633 -2.0477129421629847 -1.5707767645465296 3.221867084503174 0.0 0.0 -1.47197098954166e-07 -0.0 -0.0 -0.003409785684198141 1 False False
7514.99 4.7927327156066895 -1.1581978362849732 1.6351011435138147 -2.047704359094137 -1.5707767645465296 3.221881866455078 0.0 0.0 -3.463701966564305e-37 -0.0 -0.0 0.0001942115486599505 1 False False
7515.04 4.792712211608887 -1.1581770938685914 1.6350849310504358 -2.047636648217672 -1.570784870778219 3.221912384033203 1.761974775905166e-29 0.0 -0.0 -0.0 -7.455695595126599e-05 -0.0012471284717321396 1 False False
7515.089999999999 4.792757511138916 -1.1581890147975464 1.635096851979391 -2.047721048394674 -1.570784870778219 3.2219109535217285 -2.4702633272255525e-09 0.0 -0.0 -0.0 -3.9123925781339724e-23 -9.274086490082545e-13 1 False False
7515.139999999999 4.7927165031433105 -1.1581843954375763 1.635068718587057 -2.0476962528624476 -1.570772949849264 3.2219033241271973 0.0 0.0 -0.0 -0.0 -5.942906787201549e-42 -1.4087359399124458e-31 1 False False
7515.19 4.792737007141113 -1.1581563514522095 1.6350730101214808 -2.0476800403990687 -1.5707929770099085 3.2219314575195312 0.0 0.0 -0.0 -0.0 -0.0 -0.0 1 False False
7515.24 4.7927045822143555 -1.158649669294693 1.6342137495623987 -2.0462709865965785 -1.5707648436175745 3.221919536590576 0.0 -0.01878546178340912 -0.04190435633063316 0.06584134697914124 -0.0 -0.0 1 False False
7515.29 4.792658805847168 -1.160202906732895 1.6311114470111292 -2.041472097436422 -1.570784870778219 3.221865653991699 0.0 -0.04566914588212967 -0.08319027721881866 0.12507009506225586 -0.0 -0.0 1 False False
7515.339999999999 4.7927165031433105 -1.1630290907672425 1.6252148787127894 -2.0330501995482386 -1.5708487669574183 3.2218945026397705 0.0 -0.07086192816495895 -0.13532663881778717 0.20226287841796875 -0.0 -0.0 1 False False
7515.389999999999 4.792670726776123 -1.1670633119395752 1.6176064650165003 -2.0210310421385707 -1.570772949849264 3.2219347953796387 0.0 -0.09280138462781906 -0.1716345250606537 0.2620352506637573 -0.0 -0.0 1 False False
7515.44 4.792733192443848 -1.1723430317691346 1.607361141835348 -2.0058499775328578 -1.570784870778219 3.221881866455078 0.0 -0.11729452013969421 -0.22726474702358246 0.3396357297897339 -0.0 -0.0 1 False False
7515.49 4.7927751541137695 -1.1786843103221436 1.5947192350970667 -1.9869429073729457 -1.5707562605487269 3.221853733062744 0.0 -0.14303678274154663 -0.2747440040111542 0.3984566628932953 -0.0 1.477087323564774e-07 1 False False
7515.54 4.792707920074463 -1.1862751704505463 1.5800302664386194 -1.9645186863341273 -1.5707767645465296 3.221919536590576 0.0 -0.15977786481380463 -0.3232739269733429 0.47687673568725586 -0.0 2.2436988325986056e-26 1 False False
7515.589999999999 4.792700290679932 -1.1950178009322663 1.5627082029925745 -1.9387804470457972 -1.570784870778219 3.2219152450561523 0.0 -0.18715529143810272 -0.3671901524066925 0.5532296299934387 -0.0 2.802596928649634e-45 1 False False
7515.639999999999 4.792675971984863 -1.2036113303950806 1.5458744207965296 -1.9128662548460902 -1.5707767645465296 3.2219109535217285 0.0 -0.15914063155651093 -0.3209080398082733 0.4935157597064972 -0.0 0.0 1 False False
7515.69 4.792712211608887 -1.2112267178348084 1.5307782332049769 -1.8903705082335414 -1.5707648436175745 3.2219109535217285 0.0 -0.1461772322654724 -0.2818693518638611 0.4124080538749695 -0.0 0.0 1 False False
7515.74 4.792679309844971 -1.2177406412414093 1.5184844175921839 -1.8714434109129847 -1.5707452932940882 3.221886396408081 0.0 -0.11508015543222427 -0.22925668954849243 0.35429105162620544 -0.0 0.0 1 False False
7515.79 4.792724132537842 -1.2228534084609528 1.508202854787008 -1.8559652767577113 -1.570829216633932 3.221924304962158 0.0 -0.09070785343647003 -0.1831021010875702 0.26770973205566406 -0.0 0.0 1 False False
7515.839999999999 4.792707920074463 -1.226865367298462 1.5001652876483362 -1.8440033398070277 -1.5707767645465296 3.221940517425537 0.0 -0.06766911596059799 -0.13286256790161133 0.21268069744110107 -0.0 0.0 1 False False
7515.889999999999 4.792670726776123 -1.2297733587077637 1.4947431723224085 -1.8355089626707972 -1.5707767645465296 3.22194504737854 0.0 -0.046642936766147614 -0.08946539461612701 0.1301904022693634 -0.0 0.0 1 False False
7515.94 4.792725563049316 -1.231461988096573 1.4915040175067347 -1.8304654560484828 -1.570784870778219 3.221940517425537 0.0 -0.021121203899383545 -0.044450607150793076 0.06330563873052597 -0.0 0.0 1 False False
7515.99 4.792712211608887 -1.2319689852050324 1.4902852217303675 -1.8292457065977992 -1.5707691351519983 3.221886396408081 0.0 -0.00037213563336990774 0.0016187094151973724 -0.008593397215008736 -0.0 0.0 1 False False
7516.04 4.792757511138916 -1.2319948834231873 1.4903267065631312 -1.8292094669737757 -1.5708168188678187 3.221881866455078 0.0 0.0 -0.0009500844753347337 0.0002825766277965158 -0.0 0.0 1 False False
7516.089999999999 4.792688369750977 -1.2319690150073548 1.490335766469137 -1.8291775188841761 -1.5707886854754847 3.221935987472534 0.0 0.0 -0.0014697189908474684 0.0005561896832659841 -0.0 0.0 1 False False
7516.139999999999 4.792639255523682 -1.231977866297104 1.4903767744647425 -1.82910217861318 -1.570784870778219 3.221952199935913 0.0 -0.00015550560783594847 -0.000257290608715266 0.000917106110136956 -0.0 0.0 1 False False
7516.19 4.792700290679932 -1.2319079798511048 1.4902656714068812 -1.829090257684225 -1.5707686583148401 3.2219390869140625 0.0 -0.0002902342239394784 -0.00021968649525661021 0.00047563062980771065 -0.0 0.0 1 False False
7516.24 4.792700290679932 -1.2319035095027466 1.490274731312887 -1.8290659389891566 -1.5708168188678187 3.2218902111053467 0.0 -0.00029707589419558644 -0.00013793287507724017 0.00019715017697308213 -0.0 0.0 1 False False
7516.29 4.792715072631836 -1.231903539305069 1.490274731312887 -1.8290149174132289 -1.570784870778219 3.2219152450561523 0.0 -0.00016168352158274502 -0.00014602739247493446 0.00011731602717190981 -0.0 0.0 1 False False
7516.339999999999 4.792728424072266 -1.231957034473755 1.4902570883380335 -1.8290544948973597 -1.5707686583148401 3.2219271659851074 0.0 -0.00015928629727568477 -0.00011616590927587822 8.335884922416881e-05 -0.0 0.0 1 False False
7516.389999999999 4.792707920074463 -1.2319889229587098 1.490274731312887 -1.829050680200094 -1.5708048979388636 3.2219316959381104 6.342850724649907e-07 -0.00010626501170918345 -8.883112604962662e-05 1.2410796575308284e-20 -0.0 0.0 1 False False
7516.44 4.792724132537842 -1.2319347721389313 1.490253750477926 -1.8290783367552699 -1.570801083241598 3.221952199935913 0.0 -9.354585927212611e-05 -7.343545439653099e-05 1.885203257816249e-39 -0.0 0.0 1 False False
7516.49 4.792712211608887 -1.2319888037494202 1.4902551809894007 -1.829050203362936 -1.5707772413836878 3.221890926361084 0.0 -2.407097987600082e-08 -7.714973226955241e-29 0.0 -0.0 0.0 1 False False
7516.54 4.792746543884277 -1.2319844526103516 1.490241829548971 -1.8290306530394496 -1.570801083241598 3.2219064235687256 0.0 -5.3621624829247594e-05 -0.0 0.0 -0.0 0.0 1 False False
7516.589999999999 4.792705059051514 -1.2319963735393067 1.4903000036822718 -1.829062124291891 -1.5707724730121058 3.2219152450561523 0.0 -1.0010876229136493e-41 -1.1061129461411153e-18 1.0141949207206867e-23 -0.0 0.0 1 False False
7516.639999999999 4.792700290679932 -1.23200078428302 1.4902508894549769 -1.8290940723814906 -1.5707925001727503 3.2218945026397705 0.0 0.0 -0.0 1.540027012292974e-42 -0.0 0.0 1 False False
7516.69 4.7927165031433105 -1.2320305866054078 1.490253750477926 -1.8291026554503382 -1.5707843939410608 3.221940517425537 0.0 0.0 -0.0 0.0 -0.0 0.0 1 False False
7516.74 4.79276180267334 -1.231993482714035 1.4902837912188929 -1.8290535412230433 -1.570801083241598 3.2218687534332275 0.0 -2.282862990384719e-22 -0.0 0.0 -0.0 0.0 1 False False
7516.79 4.792758464813232 -1.23200078428302 1.4902718702899378 -1.829038759271139 -1.5707486311541956 3.2219064235687256 0.0 0.0 -0.0 0.0 -0.0 0.0 1 False False
7516.839999999999 4.792679309844971 -1.232029066686966 1.4902671019183558 -1.8291107616820277 -1.5708044211017054 3.2218899726867676 0.0 0.0 -0.0 0.0 -0.0 0.0 1 False False
7516.889999999999 4.792733192443848 -1.2319391828826447 1.4902790228473108 -1.8290659389891566 -1.5707805792437952 3.2219226360321045 0.0 0.0 -0.0 0.0 -0.0 0.0 1 False False
7516.94 4.792700290679932 -1.2319504183581849 1.4903329054461878 -1.82910217861318 -1.5708048979388636 3.221952199935913 0.0 0.0 -0.0 0.0 -0.0 0.0 1 False False
7516.99 4.792700290679932 -1.2319347721389313 1.4902384916888636 -1.8290945492186488 -1.5707648436175745 3.221912384033203 0.0 0.0 -0.0 0.0 -0.0 0.0 1 False False
7517.04 4.792778015136719 -1.2320052248290558 1.490246597920553 -1.8290783367552699 -1.570801083241598 3.2218730449676514 0.0 0.0 -0.0 0.0 -0.0 0.0 1 False False
7517.089999999999 4.792695999145508 -1.2320365768722077 1.490241829548971 -1.8290463886656703 -1.570784870778219 3.2219316959381104 0.0 0.0 -0.0 0.0 -0.0 0.0 1 False False
7517.139999999999 4.792697429656982 -1.2320676904967804 1.490274731312887 -1.829074045220846 -1.570784870778219 3.2219152450561523 0.0 0.0 -0.0 0.0 -0.0 0.0 1 False False
7517.19 4.7927422523498535 -1.2320142549327393 1.4902775923358362 -1.8291026554503382 -1.570801083241598 3.2218358516693115 0.0 0.0 -5.11830831779029e-20 0.0 -0.0 0.0 1 False False
7517.24 4.792691230773926 -1.2319680911353608 1.4902551809894007 -1.829022069970602 -1.5708211104022425 3.2219033241271973 0.0 0.0 -0.0 0.0 -0.0 0.0 1 False False
7517.29 4.792736053466797 -1.2319637101939698 1.490258518849508 -1.82910217861318 -1.5707405249225062 3.2219390869140625 0.0 0.0 -0.0 0.0 -0.0 0.0 1 False False
