Andreas691667/Digital_Twin_UR/src/robot_connection_manager/robot_output/new_tv_robot_output.csv
timestamp actual_q_0 actual_q_1 actual_q_2 actual_q_3 actual_q_4 actual_q_5 actual_qd_0 actual_qd_1 actual_qd_2 actual_qd_3 actual_qd_4 actual_qd_5 safety_status output_bit_register_65 output_bit_register_66
513.066 3.712066888809204 -0.825463132267334 0.8429520765887659 -1.588292738000387 -1.570784870778219 2.1412546634674072 0.0 0.0 -0.0 0.0 0.0 -0.0 1 False False
513.116 3.712078809738159 -0.8254993718913575 0.8429482618915003 -1.5882889233031214 -1.570829216633932 2.141267776489258 0.0 0.0 -0.0 0.0 0.0 -0.0 1 False False
513.1659999999999 3.712111473083496 -0.8254543107799073 0.8429282347308558 -1.5883013210692347 -1.5707648436175745 2.141219139099121 0.0 0.0 -0.0 0.0 0.0 -0.0 1 False False
513.216 3.7121071815490723 -0.8254913848689576 0.8429887930499476 -1.5883132419981898 -1.570801083241598 2.1412839889526367 0.0 0.0 -0.0 0.0 0.0 -0.0 1 False False
513.266 3.712078809738159 -0.8254823845675965 0.8429520765887659 -1.5882569752135218 -1.5708048979388636 2.141279697418213 0.0 0.0 -0.0 0.0 0.0 -0.0 1 False False
513.316 3.7120981216430664 -0.8254379791072388 0.8429649511920374 -1.58825745205068 -1.5708087126361292 2.1412353515625 0.0 0.0 -0.0 0.0 0.0 -0.0 1 False False
513.366 3.712062358856201 -0.8255574268153687 0.8429396788226526 -1.588292738000387 -1.5708087126361292 2.141317129135132 0.0 0.0 -0.0 0.0 0.0 -0.0 1 False False
513.4159999999999 3.7120862007141113 -0.825463132267334 0.8429649511920374 -1.588229318658346 -1.5707610289203089 2.1413300037384033 0.0 0.0 -0.0 0.0 0.0 -0.0 1 False False
513.466 3.712066888809204 -0.8254839342883606 0.8429515997516077 -1.5883094273009242 -1.5707886854754847 2.141312837600708 -4.514630927587859e-05 0.0 -0.0 0.0 0.0 -0.00026159826666116714 1 False False
513.516 3.712095022201538 -0.8254556816867371 0.8429887930499476 -1.5882889233031214 -1.5707967917071741 2.1413159370422363 -1.974810948013328e-05 0.0 -0.0 0.0 0.0 -8.562902803532779e-05 1 False False
513.566 3.712066888809204 -0.8254543107799073 0.8429887930499476 -1.5883294544615687 -1.5707810560809534 2.1413040161132812 -1.2752581824315712e-05 0.0 -0.0 0.0 0.0 -4.814318162971176e-05 1 False False
513.616 3.712071418762207 -0.825463132267334 0.8429649511920374 -1.5882889233031214 -1.570784870778219 2.141295909881592 -8.784848158330694e-16 0.0 -0.0 0.0 0.0 -4.1168867028318346e-05 1 False False
513.6659999999999 3.7120742797851562 -0.8255217236331482 0.8430007139789026 -1.5882374248900355 -1.5707648436175745 2.141291618347168 0.0 0.0 -0.0 0.0 0.0 -2.6197130864602514e-05 1 False False
513.716 3.7120742797851562 -0.825466052894928 0.8430216948138636 -1.5882650814452113 -1.5707886854754847 2.1412546634674072 0.0 0.0 -0.0 0.0 0.0 -4.628411787166442e-08 1 False False
513.766 3.712071418762207 -0.8254869741252442 0.8429887930499476 -1.588252683679098 -1.5707572142230433 2.1412665843963623 0.0 0.0 -0.0 0.0 0.0 -7.030567202642761e-27 1 False False
513.816 3.7121026515960693 -0.8254763644984742 0.8429439703570765 -1.5882412395873011 -1.5707767645465296 2.1412742137908936 0.0 0.0 -0.0 0.0 0.0 -1.401298464324817e-45 1 False False
513.866 3.712036609649658 -0.8254543107799073 0.8429763952838343 -1.5883056126036585 -1.5707610289203089 2.141267776489258 0.0 0.0 -0.0 0.0 0.0 -1.5364980754384305e-07 1 False False
513.9159999999999 3.712116241455078 -0.825495795612671 0.8429439703570765 -1.5883013210692347 -1.5708048979388636 2.141312837600708 0.0 0.0 -0.0 0.0 0.0 -2.3339437497839116e-26 1 False False
513.966 3.712104082107544 -0.8254706424525757 0.8429763952838343 -1.5882774792113246 -1.5707605520831507 2.1413614749908447 0.0 0.0 -0.0 0.0 0.0 -4.203895392974451e-45 1 False False
514.016 3.7120742797851562 -0.8254706424525757 0.8429887930499476 -1.5882731876769007 -1.5708168188678187 2.141263484954834 0.0 0.0 -0.0 0.0 0.0 -0.0 1 False False
514.066 3.712045669555664 -0.8254869741252442 0.8429439703570765 -1.5882250271239222 -1.5707767645465296 2.141226053237915 0.0 0.0 -0.0 0.0 0.0 -0.0 1 False False
514.116 3.712111711502075 -0.8255039614490052 0.8430007139789026 -1.5882774792113246 -1.5708211104022425 2.141296148300171 0.0 0.0 -0.0 0.0 0.0 -5.6249518931572595e-12 1 False False
514.1659999999999 3.712095260620117 -0.825495795612671 0.8430054823504847 -1.5883289776244105 -1.570801083241598 2.14131760597229 0.0 0.0 -0.0 0.0 0.0 -8.544318609008403e-31 1 False False
514.216 3.7120578289031982 -0.8254141372493287 0.8429606596576136 -1.5883456669249476 -1.5707805792437952 2.141287088394165 0.0 0.0 -0.0 0.0 0.0 -0.0 1 False False
514.266 3.712095260620117 -0.825420157318451 0.8429301420794886 -1.588252683679098 -1.570829216633932 2.141258955001831 0.0 0.0 -0.0 0.0 0.0 -0.0 1 False False
514.316 3.712083339691162 -0.8254839342883606 0.8429606596576136 -1.5883013210692347 -1.5707891623126429 2.141296148300171 0.0 0.0 -0.0 0.0 0.0 -0.0 1 False False
514.366 3.7120907306671143 -0.8254913848689576 0.8429845015155237 -1.5882774792113246 -1.570801083241598 2.141296148300171 0.0 0.0 -0.0 0.0 0.0 -0.0 1 False False
514.4159999999999 3.7120652198791504 -0.8254794639400025 0.8429845015155237 -1.5882331333556117 -1.570857350026266 2.141258955001831 0.0 0.0 -0.0 0.0 0.0 -0.0 1 False False
514.466 3.712111473083496 -0.8254543107799073 0.8429349104510706 -1.5882569752135218 -1.570784870778219 2.1412618160247803 0.0 0.0 -0.0 0.0 0.0 -0.0 1 False False
514.516 3.71216082572937 -0.8254993122867127 0.8429964224444788 -1.5883175335326136 -1.5707805792437952 2.1413004398345947 3.1136851877297435e-42 0.0 -0.0 0.0 0.0 -0.0 1 False False
514.566 3.7120578289031982 -0.8254261177829285 0.8429763952838343 -1.5882774792113246 -1.5707925001727503 2.1412930488586426 0.0 0.0 -0.0 0.0 0.0 -0.0 1 False False
514.616 3.7120161056518555 -0.8254661124995728 0.8429892698871058 -1.5883094273009242 -1.570784870778219 2.141270637512207 -1.126116967498092e-05 0.0 -0.0 0.0 0.0 -0.0 1 False False
514.6659999999999 3.712116003036499 -0.8254661124995728 0.8429964224444788 -1.588269372979635 -1.570772949849264 2.141286849975586 -7.567011707354012e-44 0.0 -0.0 0.0 0.0 -0.0 1 False False
514.716 3.712095022201538 -0.8254913252643128 0.8429887930499476 -1.5883013210692347 -1.5708091894732874 2.141267776489258 0.0 0.0 -0.0 0.0 0.0 -0.0 1 False False
514.766 3.7120609283447266 -0.8255409163287659 0.8429854551898401 -1.5882445774474085 -1.570801083241598 2.1412723064422607 0.0 0.0 -0.0 0.0 0.0 -0.0 1 False False
514.816 3.7120862007141113 -0.8254588407329102 0.8429763952838343 -1.5883094273009242 -1.5708168188678187 2.141333818435669 0.0 0.0 -0.0 0.0 0.0 -0.0 1 False False
514.866 3.7120862007141113 -0.8254707020572205 0.8429234663592737 -1.588245531121725 -1.5707925001727503 2.1412885189056396 0.0 0.0 -0.0 0.0 0.0 -0.0 1 False False
514.9159999999999 3.7120773792266846 -0.8254794043353577 0.8429802099810999 -1.5882607899107875 -1.5708211104022425 2.141263246536255 0.0 0.0 -0.0 0.0 0.0 -0.0 1 False False
514.966 3.7120862007141113 -0.8254956764033814 0.8429811636554163 -1.5882531605162562 -1.5707281271563929 2.141279697418213 0.0 0.0 -0.0 0.0 0.0 -0.0 1 False False
515.016 3.712095022201538 -0.8254499000361939 0.8429763952838343 -1.5882569752135218 -1.5707886854754847 2.141279697418213 0.0 0.0 -0.0 0.0 0.0 -0.0 1 False False
515.066 3.7121188640594482 -0.8254794043353577 0.8429763952838343 -1.588285585443014 -1.5707486311541956 2.141333818435669 0.0 0.0 -0.0 0.0 0.0 -0.0 1 False False
515.116 3.7121024131774902 -0.8254262369922181 0.8429887930499476 -1.5882812939085902 -1.5708048979388636 2.141322135925293 0.0 0.0 -0.0 0.0 0.0 -0.0 1 False False
515.1659999999999 3.7121036052703857 -0.8254468601993104 0.8429392019854944 -1.588297506371969 -1.5707686583148401 2.141267776489258 0.0 0.0 -0.0 0.0 0.0 -0.0 1 False False
515.216 3.712087392807007 -0.8255244654468079 0.8429392019854944 -1.588273664514059 -1.570801083241598 2.1412723064422607 0.0 0.0 -0.0 0.0 0.0 -0.0 1 False False
515.266 3.7120492458343506 -0.825433687572815 0.8429563681231897 -1.5883094273009242 -1.570784870778219 2.141279697418213 0.0 0.0 -0.0 0.0 0.0 -0.0 1 False False
515.316 3.7120699882507324 -0.8254707616618653 0.8429678122149866 -1.5882932148375453 -1.5707605520831507 2.141287088394165 0.0 0.0 -0.0 0.0 0.0 -0.0 1 False False
515.366 3.7120742797851562 -0.8255155843547364 0.8429721037494105 -1.588280817071432 -1.5707772413836878 2.1413004398345947 0.0 0.0 -0.0 0.0 0.0 -0.0 1 False False
515.4159999999999 3.7120370864868164 -0.8254913252643128 0.8429587523089808 -1.5882402859129847 -1.5707686583148401 2.1412723064422607 0.0 0.0 -0.0 0.0 0.0 -0.0 1 False False
515.466 3.712062358856201 -0.8255437773517151 0.8429721037494105 -1.5882817707457484 -1.570813004170553 2.141267776489258 0.0 0.0 -0.0 0.0 0.0 -0.0 1 False False
515.516 3.7120327949523926 -0.8255363267711182 0.8429563681231897 -1.5883056126036585 -1.5707724730121058 2.1412513256073 0.0 0.0 -0.0 0.0 0.0 -0.0 1 False False
515.566 3.712050199508667 -0.8254780930331727 0.8429430166827601 -1.5882774792113246 -1.5708091894732874 2.1413049697875977 0.0 0.0 -0.0 0.0 0.0 -0.0 1 False False
515.616 3.7120537757873535 -0.8255568903735657 0.8429964224444788 -1.5882412395873011 -1.5708044211017054 2.141275405883789 0.0 0.0 -0.0 0.0 0.0 -0.0 1 False False
515.6659999999999 3.712094783782959 -0.825491265659668 0.8429396788226526 -1.5883094273009242 -1.5707805792437952 2.141270637512207 0.0 0.0 -0.0 0.0 0.0 -0.0 1 False False
515.716 3.712094783782959 -0.8255112332156678 0.8430083433734339 -1.5882932148375453 -1.5707686583148401 2.141275405883789 0.0 0.0 -0.0 0.0 0.0 -0.0 1 False False
515.766 3.7120819091796875 -0.8254707616618653 0.8429635206805628 -1.5882607899107875 -1.570784870778219 2.141267776489258 0.0 0.0 -0.0 0.0 0.0 -0.0 1 False False
515.816 3.712054491043091 -0.8254707616618653 0.8429763952838343 -1.588313718835348 -1.570716683064596 2.141317367553711 0.0 0.0 -0.0 0.0 0.0 -0.0 1 False False
515.866 3.712062358856201 -0.8255155843547364 0.8429845015155237 -1.588320871392721 -1.570801083241598 2.141282558441162 0.0 0.0 -0.0 0.0 0.0 -0.0 1 False False
515.9159999999999 3.7120087146759033 -0.8255081337741395 0.8430092970477503 -1.5882932148375453 -1.5707605520831507 2.141270875930786 0.0 0.0 -0.0 0.0 0.0 -0.0 1 False False
515.966 3.7120494842529297 -0.8255041402629395 0.8430169264422815 -1.5882889233031214 -1.5707925001727503 2.141329288482666 0.0 0.0 -0.0 0.0 0.0 -0.0 1 False False
516.016 3.712070941925049 -0.825491265659668 0.8429520765887659 -1.5882569752135218 -1.5707805792437952 2.141242742538452 0.0 0.0 -0.0 0.0 0.0 -0.0 1 False False
516.066 3.712066650390625 -0.8254707616618653 0.8429678122149866 -1.5882135830321253 -1.5707648436175745 2.141254425048828 0.0 0.0 -0.0 0.0 0.0 -0.0 1 False False
516.116 3.712094783782959 -0.8255166572383423 0.8429649511920374 -1.5882731876769007 -1.5707967917071741 2.1412665843963623 0.0 0.0 -0.0 0.0 0.0 -0.0 1 False False
516.1659999999999 3.7120580673217773 -0.8254869741252442 0.8429930845843714 -1.588280817071432 -1.5708254019366663 2.1412806510925293 0.0 0.0 -0.0 0.0 0.0 -0.0 1 False False
516.216 3.712090492248535 -0.8254545491984864 0.8429973761187952 -1.588268896142477 -1.5707362333880823 2.141291618347168 0.0 0.0 -0.0 0.0 0.0 -0.0 1 False False
516.266 3.7121033668518066 -0.8255275052836915 0.8429439703570765 -1.5882207355894984 -1.5707362333880823 2.1413300037384033 0.0 0.0 -0.0 0.0 0.0 -0.0 1 False False
516.316 3.7120494842529297 -0.8255070012858887 0.8429887930499476 -1.5882898769774378 -1.5708168188678187 2.1412384510040283 0.0 0.0 -0.0 0.0 0.0 -0.0 1 False False
516.366 3.712111473083496 -0.8254869741252442 0.8429763952838343 -1.5882612667479457 -1.5708048979388636 2.1412546634674072 0.0 0.0 -0.0 0.0 0.0 -0.0 1 False False
516.4159999999999 3.7120862007141113 -0.8254954975894471 0.8429763952838343 -1.5882932148375453 -1.5707767645465296 2.1413214206695557 0.0 0.0 -0.0 0.0 0.0 -0.0 1 False False
516.466 3.7120323181152344 -0.825478271847107 0.8429353872882288 -1.5882731876769007 -1.5707891623126429 2.141291618347168 0.0 0.0 -0.0 0.0 0.0 -0.0 1 False False
516.516 3.7120578289031982 -0.8254588407329102 0.8429282347308558 -1.5882536373534144 -1.570784870778219 2.1412546634674072 0.0 0.0 -0.0 0.0 0.0 -0.0 1 False False
516.566 3.7120490074157715 -0.8255037826350708 0.8429153601275843 -1.5882607899107875 -1.5707925001727503 2.141324758529663 0.0 0.0 -0.0 0.0 0.0 -0.0 1 True False
516.616 3.712083101272583 -0.8254750531962891 0.8430007139789026 -1.5883013210692347 -1.5707767645465296 2.141270875930786 0.0 0.0 -0.0 0.0 0.0 3.528055822243914e-05 1 True False
516.6659999999999 3.712106943130493 -0.8254869741252442 0.8429678122149866 -1.5882488689818324 -1.5708211104022425 2.1412622928619385 0.0 0.0 -0.0 0.0 0.0 5.3591257707580385e-24 1 True False
516.716 3.7120742797851562 -0.825478271847107 0.8430050055133265 -1.588269372979635 -1.5708444754229944 2.141357183456421 0.0 0.0 -0.0 0.0 0.0 8.141544077727187e-43 1 True False
516.766 3.712106943130493 -0.825491265659668 0.8429482618915003 -1.588292738000387 -1.5708125273333948 2.1412839889526367 0.0 0.0 -0.0 0.0 0.0 0.0 1 True False
516.816 3.712062358856201 -0.8255070012858887 0.8430007139789026 -1.5882889233031214 -1.5707648436175745 2.141291618347168 0.0 0.0 -0.0 0.0 0.0 0.0 1 True False
516.866 3.7120862007141113 -0.8255112332156678 0.8429763952838343 -1.5882531605162562 -1.5707610289203089 2.1412384510040283 0.0 0.0 -0.0 0.0 0.0 0.0 1 True False
516.9159999999999 3.712123394012451 -0.8254588407329102 0.8429635206805628 -1.5882774792113246 -1.5708487669574183 2.141287088394165 0.0 0.0 -0.0 0.0 0.0 0.0 1 True False
516.966 3.712066888809204 -0.825478271847107 0.8429721037494105 -1.588285585443014 -1.570756737385885 2.141312837600708 0.0 0.0 -0.0 0.0 0.0 0.0 1 True False
517.016 3.7120490074157715 -0.825478271847107 0.8429845015155237 -1.5883051357665003 -1.5707486311541956 2.1412353515625 0.0 0.0 -0.0 0.0 0.0 0.0 1 True False
517.066 3.712099552154541 -0.825519935493805 0.8429678122149866 -1.5882774792113246 -1.5708168188678187 2.1413114070892334 6.72390524414368e-05 0.0 -0.0 0.0 0.0 0.0 1 True False
517.116 3.712050199508667 -0.825478271847107 0.8429563681231897 -1.5883132419981898 -1.570824925099508 2.141242504119873 2.802596928649634e-45 0.0 -0.0 0.0 1.6596199783371068e-13 -2.049629074463155e-05 1 True False
517.1659999999999 3.712024688720703 -0.8255123657039185 0.8429721037494105 -1.5882731876769007 -1.570813004170553 2.141296148300171 0.0 0.0 -0.0 0.0 -3.1756302632857114e-05 -9.488740801033337e-19 1 True False
517.216 3.71209979057312 -0.8254869741252442 0.8429515997516077 -1.5882889233031214 -1.5707691351519983 2.141287088394165 0.0 0.0 -0.0 0.0 -4.08571760141124e-18 -1.4413415208258545e-37 1 True False
517.266 3.712150812149048 -0.8254955571940918 0.8430007139789026 -1.5882650814452113 -1.5707886854754847 2.141353130340576 0.04636630788445473 -0.005994052160531282 0.008398210629820824 -3.9496401882388454e-07 -6.206214580180005e-37 0.01995599828660488 1 True False
517.316 3.7147605419158936 -0.8267262142947693 0.8448160330401819 -1.5889870129027308 -1.570836369191305 2.1437442302703857 0.08173003047704697 -0.04153772443532944 0.062206871807575226 -0.01565936952829361 -0.0 0.07901738584041595 1 True False
517.366 3.7205471992492676 -0.8297223609736939 0.849583927785055 -1.5905310116209925 -1.5708211104022425 2.149611473083496 0.14967742562294006 -0.0789961963891983 0.12122157961130142 -0.04064486175775528 -0.0 0.15027493238449097 1 True False
517.4159999999999 3.729848861694336 -0.8345641058734437 0.8568185011493128 -1.5930458507933558 -1.5707886854754847 2.1590943336486816 0.22051860392093658 -0.11641581356525421 0.1737358123064041 -0.05533306300640106 7.295449904631823e-05 0.21814092993736267 1 True False
517.466 3.7428927421569824 -0.8412965101054688 0.8668802420245569 -1.596344610253805 -1.5707767645465296 2.171901226043701 0.2916660010814667 -0.14641253650188446 0.2261977642774582 -0.07187817245721817 7.474400626961142e-05 0.2954333424568176 1 True False
517.516 3.759042739868164 -0.849784867172577 0.8795607725726526 -1.6007658443846644 -1.5707653204547327 2.1883370876312256 0.356670081615448 -0.18550413846969604 0.277895450592041 -0.09178569167852402 0.00013399067393038422 0.3611219525337219 1 True False
517.566 3.7791025638580322 -0.8597247165492554 0.8949673811541956 -1.605905672112936 -1.5707891623126429 2.2081334590911865 0.4337143898010254 -0.2214035987854004 0.3343397080898285 -0.12941637635231018 9.417799446964636e-05 0.4352589547634125 1 True False
517.616 3.802234649658203 -0.8718124193004151 0.913250748311178 -1.612030645410055 -1.5708254019366663 2.231597900390625 0.5005913376808167 -0.25544726848602295 0.389726847410202 -0.14218132197856903 3.880945223500021e-05 0.49757444858551025 1 True False
517.6659999999999 3.8291358947753906 -0.8855771583369751 0.9339569250689905 -1.6191355190672816 -1.570801083241598 2.258392572402954 0.5655975937843323 -0.29268062114715576 0.44692373275756836 -0.15828865766525269 2.0212553863530047e-05 0.5605877637863159 1 True False
517.716 3.8594865798950195 -0.9011155527881165 0.9575708548175257 -1.6272298298277796 -1.5707648436175745 2.288761615753174 0.6433057188987732 -0.3216088116168976 0.4959305226802826 -0.18461059033870697 3.3942372442574754e-22 0.6356319189071655 1 True False
517.766 3.893296718597412 -0.9184084099582215 0.9837287108050745 -1.6362658939757289 -1.5707648436175745 2.3225553035736084 0.7125746607780457 -0.36297622323036194 0.5528168678283691 -0.18124254047870636 5.155797439790299e-41 0.7023506760597229 1 True False
517.816 3.9306845664978027 -0.9374922078898926 1.0128439108477991 -1.6458641491331996 -1.5708335081683558 2.359708786010742 0.7752617597579956 -0.3997253179550171 0.6018090844154358 -0.1927473545074463 0.0 0.7775927186012268 1 True False
517.866 3.971344470977783 -0.9584870499423523 1.0445368925677698 -1.6568194828429164 -1.5708211104022425 2.4005720615386963 0.8482002019882202 -0.4339366853237152 0.6655028462409973 -0.21862758696079254 0.0 0.8565622568130493 1 True False
517.9159999999999 4.015772819519043 -0.9812099498561402 1.0788787047015589 -1.6683880291380824 -1.5708091894732874 2.4450464248657227 0.9194198250770569 -0.4761332869529724 0.713047206401825 -0.24715103209018707 0.0 0.9140664339065552 1 True False
517.966 4.063525676727295 -1.0056523841670533 1.1159470717059534 -1.681002756158346 -1.570784870778219 2.4926912784576416 0.9869252443313599 -0.5013310313224792 0.7704091668128967 -0.2657710015773773 0.0 0.9896020889282227 1 True False
518.016 4.114806175231934 -1.0318602484515687 1.1557806173907679 -1.6945706806578578 -1.5707686583148401 2.5439321994781494 1.0312403440475464 -0.5273591876029968 0.8147851824760437 -0.27362877130508423 -8.007814176380634e-05 1.0423916578292847 1 True False
518.066 4.1669793128967285 -1.0587066572955628 1.1963995138751429 -1.708344121972555 -1.570801083241598 2.596332550048828 1.051947832107544 -0.5359799861907959 0.8133611679077148 -0.27305811643600464 -0.00023063404660206288 1.0467270612716675 1 True False
518.116 4.219440460205078 -1.0855797988227387 1.2368910948382776 -1.7222339115538539 -1.5707967917071741 2.6485493183135986 1.0418102741241455 -0.5385173559188843 0.8165237307548523 -0.26222825050354004 -0.0001374994171783328 1.0486806631088257 1 True False
518.1659999999999 4.271796703338623 -1.1123532515815278 1.2776301542865198 -1.736000200311178 -1.5707443396197718 2.701005458831787 1.0465775728225708 -0.5369545817375183 0.808121919631958 -0.2813242971897125 -9.300635429099202e-05 1.0428450107574463 1 True False
518.216 4.3241353034973145 -1.1393627387336274 1.3182562033282679 -1.7499376736082972 -1.570784870778219 2.753410577774048 1.050053358078003 -0.5424841046333313 0.8093177676200867 -0.2728521525859833 -5.552153379539959e-05 1.0474745035171509 1 True False
518.266 4.376470565795898 -1.1662346583655854 1.3589137236224573 -1.7637058697142542 -1.5707967917071741 2.805640459060669 1.0453767776489258 -0.5387321710586548 0.8106629252433777 -0.2685451805591583 -6.356919766403735e-05 1.0482869148254395 1 True False
518.316 4.4286980628967285 -1.192786620264389 1.3995145002948206 -1.777233739892477 -1.5707405249225062 2.8578312397003174 1.030672311782837 -0.517160177230835 0.7925618886947632 -0.26343971490859985 8.313663532476991e-19 1.018233060836792 1 True False
518.366 4.477992534637451 -1.2180610758117218 1.4377062956439417 -1.7903863392271937 -1.5707529226886194 2.9070656299591064 0.9602273106575012 -0.48398885130882263 0.7439097762107849 -0.24325977265834808 -0.000353826122591272 0.9596362709999084 1 True False
518.4159999999999 4.523728847503662 -1.241467760210373 1.4731667677508753 -1.8026496372618617 -1.5708044211017054 2.9529788494110107 0.8797415494918823 -0.45240354537963867 0.6891218423843384 -0.22947493195533752 -9.822126293725086e-14 0.8772911429405212 1 True False
518.466 4.5661821365356445 -1.2633275252631684 1.5060942808734339 -1.8138276539244593 -1.570824925099508 2.995366096496582 0.8093723058700562 -0.4209759533405304 0.6302879452705383 -0.2307962030172348 3.6579936857350503e-09 0.8154528141021729 1 True False
518.516 4.605047702789307 -1.2831866604140778 1.5363391081439417 -1.823984762231344 -1.5707972685443323 3.0342044830322266 0.7463722825050354 -0.38025322556495667 0.5748087167739868 -0.1978408396244049 5.556499519586642e-28 0.751312255859375 1 True False
518.566 4.640343189239502 -1.3012285691550751 1.5637648741351526 -1.8331920109190882 -1.5707767645465296 3.0696160793304443 0.6756622195243835 -0.3446192741394043 0.5325443744659424 -0.16976135969161987 1.8903743827131553e-16 0.6737668514251709 1 True False
518.616 4.672201633453369 -1.317770318394043 1.5885804335223597 -1.8418547115721644 -1.5707967917071741 3.10152530670166 0.6014954447746277 -0.3077690601348877 0.46585431694984436 -0.17153345048427582 8.17568288766779e-05 0.6082532405853271 1 True False
518.6659999999999 4.700644016265869 -1.3321184676936646 1.6106951872455042 -1.8491488895811976 -1.5708168188678187 3.1298916339874268 0.5332101583480835 -0.2697942852973938 0.42035984992980957 -0.140593022108078 4.539261653774318e-22 0.532382607460022 1 True False
518.716 4.725666522979736 -1.3451173317483445 1.6296990553485315 -1.8559152088561 -1.5707610289203089 3.1547341346740723 0.4653018116950989 -0.2355373650789261 0.3631327152252197 -0.1279788613319397 6.895089093710262e-41 0.46826839447021484 1 True False
518.766 4.7470903396606445 -1.3558620375445862 1.646651569996969 -1.8614088497557582 -1.5707805792437952 3.1760733127593994 0.39513465762138367 -0.20177410542964935 0.30714839696884155 -0.12172971665859222 0.0002523436851333827 0.3969653248786926 1 True False
518.816 4.764834403991699 -1.3650665146163483 1.6604273954974573 -1.8661633930602015 -1.5708087126361292 3.194119453430176 0.3284838795661926 -0.1672150194644928 0.2529446482658386 -0.08148035407066345 1.7983111527675177e-11 0.3267754316329956 1 True False
518.866 4.779306888580322 -1.372533993130066 1.6716726461993616 -1.8700553379454554 -1.5707805792437952 3.2083728313446045 0.25093528628349304 -0.13132187724113464 0.19633328914642334 -0.06420809030532837 2.7316391631188095e-30 0.2636650502681732 1 True False
518.9159999999999 4.790122032165527 -1.3782331210425873 1.6800735632525843 -1.872902055779928 -1.5708254019366663 3.2194788455963135 0.18769371509552002 -0.09645616263151169 0.14844560623168945 -0.047806594520807266 0.0 0.1841801106929779 1 True False
518.966 4.7977142333984375 -1.3820029360106965 1.685922924672262 -1.8750049076476039 -1.5707967917071741 3.2269082069396973 0.1136847734451294 -0.06094706431031227 0.08988209813833237 -0.033788345754146576 0.0 0.11338120698928833 1 True False
519.016 4.801634311676025 -1.3839650613120575 1.6889970938311976 -1.8758822880186976 -1.5708335081683558 3.2308621406555176 0.04342078045010567 -0.023517504334449768 0.03630571439862251 -0.013879713602364063 0.0 0.0464964285492897 1 True False
519.066 4.802250862121582 -1.3841844660094758 1.6897409597979944 -1.8763638935484828 -1.5707967917071741 3.2314670085906982 -0.006784242577850819 0.012300826609134674 0.019732125103473663 -0.038344722241163254 0.00024201009364333004 0.0003449483774602413 1 True False
519.116 4.802210807800293 -1.3832169634154816 1.69179612794985 -1.8792745075621546 -1.5708211104022425 3.231525421142578 0.0003297949442639947 0.029436368495225906 0.059684500098228455 -0.09356100857257843 0.00010621183173498139 0.0006243414827622473 1 True False
519.1659999999999 4.802287578582764 -1.380978302364685 1.6959970633136194 -1.885881086389059 -1.570829216633932 3.231515407562256 0.00032505084527656436 0.063838891685009 0.10317908227443695 -0.16177015006542206 6.432725058402866e-05 0.0007334269466809928 1 True False
519.216 4.802335262298584 -1.3770819169333954 1.702331844960348 -1.8958412609496058 -1.5708368460284632 3.2315359115600586 0.000361341837560758 0.0879131555557251 0.14439739286899567 -0.23593690991401672 4.446350794751197e-05 0.00026589707704260945 1 True False
519.266 4.802379608154297 -1.3721937549165268 1.7106993834124964 -1.909412523309225 -1.5707605520831507 3.2315478324890137 0.00036187819205224514 0.1134493499994278 0.19017799198627472 -0.29924166202545166 2.490884289194778e-13 0.00012577531742863357 1 True False
519.316 4.802338600158691 -1.3659359973720093 1.7214210669146937 -1.9263612232603968 -1.570784870778219 3.231539011001587 0.00016899549518711865 0.13629645109176636 0.2404995858669281 -0.38804247975349426 3.783660057528464e-32 8.884302951628342e-05 1 True False
519.366 4.802347183227539 -1.358313800101616 1.7346647421466272 -1.9468022785582484 -1.570784870778219 3.2315640449523926 0.0001271662476938218 0.16387443244457245 0.2817150354385376 -0.44377076625823975 0.0 6.295005732681602e-05 1 True False
519.4159999999999 4.8023223876953125 -1.3495971274426957 1.749556843434469 -1.970889230767721 -1.5707767645465296 3.2315359115600586 0.00013719010166823864 0.18872001767158508 0.33078160881996155 -0.5087783932685852 0.0 2.2165060608137038e-20 1 True False
519.466 4.802330017089844 -1.339457319383957 1.7670591513263147 -1.9981371364989222 -1.5708087126361292 3.2315726280212402 0.00012440849968697876 0.1967853158712387 0.34064945578575134 -0.5568414926528931 0.0 3.366877399457809e-39 1 True False
519.516 4.802350997924805 -1.3300095212510605 1.783229176198141 -2.0243760548033656 -1.5708168188678187 3.231580972671509 9.244501416105777e-05 0.18181918561458588 0.31130510568618774 -0.48656049370765686 0.0 0.0 1 True False
519.566 4.802350997924805 -1.3216211062720795 1.7976978460894983 -2.0467831097044886 -1.5707724730121058 3.2315640449523926 7.552812894573435e-05 0.15285849571228027 0.2661532759666443 -0.4095248878002167 3.9321836084127426e-05 0.0 1 True False
519.616 4.802330017089844 -1.314564661388733 1.809702221547262 -2.066014429131979 -1.570829216633932 3.2315478324890137 1.4188987730367368e-40 0.12945656478405 0.22122502326965332 -0.3418014943599701 1.1061876392659542e-07 0.0 1 True False
519.6659999999999 4.802353858947754 -1.3088033956340333 1.819639031087057 -2.0815769634642542 -1.570784870778219 3.231539011001587 0.0 0.09925886988639832 0.17266744375228882 -0.27456724643707275 1.68030161558635e-26 0.0 1 True False
519.716 4.802366733551025 -1.3043843668750306 1.8274911085711878 -2.093846460381979 -1.57074481645693 3.2315478324890137 0.0 0.07735690474510193 0.12772446870803833 -0.2035771608352661 2.802596928649634e-45 0.0 1 True False
519.766 4.802371025085449 -1.301219717865326 1.8328459898578089 -2.1024238071837367 -1.570824925099508 3.2315521240234375 1.875347049493951e-29 0.050628673285245895 0.08863617479801178 -0.13997726142406464 0.0 0.0 1 True False
519.816 4.802359580993652 -1.2993651789477845 1.8360570112811487 -2.107570310632223 -1.570784870778219 3.2315316200256348 0.0 0.02506650798022747 0.045816559344530106 -0.06480488926172256 0.0 0.0 1 True False
519.866 4.802338600158691 -1.2987335485270997 1.8371394316302698 -2.109288831750387 -1.5708373228656214 3.2315640449523926 0.0 1.6749239772906321e-09 -0.0026399828493595123 0.005807848647236824 0.0 0.0 1 True False
519.9159999999999 4.8023552894592285 -1.2987932425788422 1.837135140095846 -2.1092568836607875 -1.5707805792437952 3.231515407562256 0.0 0.00015132997941691428 0.00016799716104287654 0.00019584699475672096 0.0 8.139417612129662e-11 1 True False
519.966 4.802350997924805 -1.2987409991076966 1.8371599356280726 -2.1092807255186976 -1.570813004170553 3.231527328491211 0.0 0.00019090449495706707 0.0001375305000692606 5.626755955745466e-05 0.0 1.2363791653587211e-29 1 True False
520.016 4.802383899688721 -1.2987709504416962 1.8371227423297327 -2.109276910821432 -1.5707767645465296 3.2315521240234375 0.0 0.00020691423560492694 0.00010363568435423076 -4.971960879629478e-05 0.0 0.0 1 True False
520.066 4.802347660064697 -1.298748479490616 1.8371108214007776 -2.109276433984274 -1.570801083241598 3.2315316200256348 -3.250810186727904e-05 0.0006244278629310429 0.00017391543951816857 -0.00016242617857642472 0.0 0.0 1 True False
520.116 4.802350997924805 -1.298672006731369 1.8370989004718226 -2.1093136272826136 -1.570829216633932 3.23154354095459 -3.359435868333094e-05 0.0003773384087253362 0.0002063695137621835 -0.0002482689160387963 0.0 0.0 1 True False
520.1659999999999 4.802325248718262 -1.2987092298320313 1.8371995131122034 -2.1092807255186976 -1.5707805792437952 3.231580972671509 -6.550532383537802e-35 0.00011222938337596133 0.0002956375537905842 -0.000284323439700529 0.0 0.0 1 True False
520.216 4.802305698394775 -1.2987425786307831 1.8371341864215296 -2.109288831750387 -1.5707648436175745 3.231567859649658 0.0 6.896582635818049e-05 0.00023754638095851988 -0.00017697707517072558 0.0 0.0 1 True False
520.266 4.802343368530273 -1.298716501598694 1.8371871153460901 -2.1093532047667445 -1.570801083241598 3.2314987182617188 -1.3046065516969447e-27 5.829056681250222e-05 0.000143363606184721 -8.756582246860489e-05 0.0 0.0 1 True False
520.316 4.802358150482178 -1.2987120610526581 1.8371880690204065 -2.109276433984274 -1.5707967917071741 3.2315359115600586 2.6473076409191985e-22 8.63093591760844e-05 0.00010443168866913766 -7.068619743222371e-05 0.0 0.0 1 True False
520.366 4.802334308624268 -1.2986629468253632 1.8371995131122034 -2.109324117700094 -1.5707805792437952 3.231555223464966 0.0 2.657260120031424e-05 5.811750816064887e-05 -3.1342216690911917e-13 0.0 0.0 1 True False
520.4159999999999 4.8023600578308105 -1.2987092298320313 1.8372023741351526 -2.1092521152892054 -1.570801083241598 3.2315523624420166 0.0 3.0095492547843605e-05 2.9873819107869247e-19 -4.7608878904277844e-32 0.0 0.0 1 True False
520.466 4.802321910858154 -1.2987856727889557 1.8370512167560022 -2.109519144097799 -1.5708325544940394 3.2315359115600586 0.0 -0.00026016152696684003 -0.00010369058145442978 -0.0012600190239027143 -0.0002568246563896537 -0.00042647140799090266 1 True False
520.516 4.80229377746582 -1.298769311313965 1.8371403853045862 -2.1095034084715785 -1.5708172957049769 3.2316064834594727 0.0 0.00019381807942409068 -3.062345690813047e-31 0.0006217004847712815 -2.808143472066149e-05 -0.000128841886180453 1 True False
520.566 4.802301406860352 -1.2987573903850098 1.8370373884784144 -2.109408041039938 -1.5708487669574183 3.231585741043091 0.0 1.867528226284776e-05 -8.674120908835903e-05 0.007588479667901993 -1.3367767179653378e-12 -6.799272523494437e-05 1 True True
520.616 4.802319049835205 -1.2992062729648133 1.8362496534930628 -2.1070004902281703 -1.5707605520831507 3.2315685749053955 0.0 -0.02315460331737995 -0.04248907044529915 0.06565073132514954 0.0005592546658590436 -2.512812898203265e-05 1 True True
520.6659999999999 4.802343368530273 -1.301335023050644 1.8324945608722132 -2.1017233333983363 -1.570801083241598 3.2315478324890137 0.0 -0.05977731570601463 -0.09368348866701126 0.15990372002124786 0.00016350149235222489 -5.897342059135724e-10 1 True True
520.716 4.8023552894592285 -1.3047835391810914 1.8266633192645472 -2.092476030389303 -1.5707762877093714 3.2315523624420166 0.0 -0.08271417766809464 -0.1411270797252655 0.21398261189460754 9.305364801548421e-05 -8.95807554291592e-29 1 True True
520.766 4.802364349365234 -1.3093936306289216 1.8186057249652308 -2.079907556573385 -1.5707767645465296 3.231510639190674 0.0 -0.10176102817058563 -0.1774161458015442 0.28858786821365356 5.4236279538599774e-05 -6.521742034237832e-05 1 True True
520.816 4.802350997924805 -1.315380559568741 1.8082669417010706 -2.063892503777975 -1.5707810560809534 3.2315478324890137 0.0 -0.13115030527114868 -0.22678473591804504 0.3623097240924835 2.1702808041905854e-18 -4.016019776587828e-18 1 True True
520.866 4.802343368530273 -1.3225309562734147 1.7960775534259241 -2.0443979702391566 -1.5707805792437952 3.2315151691436768 0.0 -0.15746954083442688 -0.2683042287826538 0.42510291934013367 3.2966622570461923e-37 -6.100340988110285e-37 1 True True
520.9159999999999 4.802319049835205 -1.3310058873942872 1.7813828627215784 -2.021271368066305 -1.5707886854754847 3.2315239906311035 0.0 -0.18399204313755035 -0.3145458996295929 0.4921923279762268 0.0 -0.0 1 True True
520.966 4.802321910858154 -1.3408171099475403 1.7647860685931605 -1.994843145410055 -1.570772949849264 3.2315642833709717 0.0 -0.2055170089006424 -0.36172953248023987 0.5711968541145325 0.0 -2.13091548563434e-18 1 True True
521.016 4.802310466766357 -1.3507331919721146 1.7475793997394007 -1.9678322277464808 -1.5708125273333948 3.2315313816070557 0.0 -0.18386968970298767 -0.3197033703327179 0.5141712427139282 0.0 -3.2368667215997866e-37 1 True True
521.066 4.8023176193237305 -1.3592266005328675 1.732908074055807 -1.9442321262755335 -1.57082444826235 3.231534242630005 0.0 -0.1660512536764145 -0.2812540531158447 0.4302244186401367 0.0 -0.0 1 True True
521.116 4.802347660064697 -1.3667970162681122 1.7200482527362269 -1.924166818658346 -1.5708006064044397 3.2315404415130615 0.0 -0.13637728989124298 -0.23011311888694763 0.3647420406341553 0.0 -0.0 1 True True
521.1659999999999 4.802325248718262 -1.3727817100337525 1.7097833792315882 -1.9076062641539515 -1.5708211104022425 3.2315313816070557 0.0 -0.10775630176067352 -0.19375266134738922 0.3103949725627899 0.0 -0.0 1 True True
521.216 4.802358150482178 -1.3775614959052582 1.7014530340777796 -1.894510885278219 -1.5707805792437952 3.231538772583008 0.0 -0.08040409535169601 -0.14562472701072693 0.22656360268592834 3.00598760293036e-12 -0.0 1 True True
521.266 4.802338600158691 -1.381099821334221 1.69533616701235 -1.8849202595152796 -1.5708168188678187 3.2315478324890137 0.0 -0.058295320719480515 -0.1004968211054802 0.1520724594593048 4.566102481475342e-31 -0.0 1 True True
521.316 4.802347660064697 -1.3833456498435517 1.6915391127215784 -1.8787018261351527 -1.5707805792437952 3.231538772583008 0.0 -0.03127488121390343 -0.05654926598072052 0.09166771173477173 0.0 -0.0 1 True True
521.366 4.802366733551025 -1.3843448919108887 1.6896918455706995 -1.8763123951353968 -1.570801083241598 3.231489658355713 0.0 -0.004510432947427034 -0.013140134513378143 0.016079576686024666 0.0 -0.0 1 True True
521.4159999999999 4.801337242126465 -1.384358213548996 1.6896875540362757 -1.8762170277037562 -1.570756737385885 3.2305660247802734 -0.05087335407733917 1.1962228850432183e-34 8.854997577145696e-05 0.0005635992274619639 -4.0265374720441574e-14 -0.04836219549179077 1 True True
521.466 4.797056198120117 -1.3843119007400055 1.6896966139422815 -1.876141210595602 -1.5707486311541956 3.2261393070220947 -0.12283239513635635 0.0 1.5017185532529465e-33 0.0009245348046533763 -6.1163211859389874e-33 -0.12089387327432632 1 True True
521.516 4.789156436920166 -1.3843000692180176 1.6896875540362757 -1.8760816059508265 -1.5707805792437952 3.2183175086975098 -0.1898704618215561 0.0 -5.2366267482284456e-05 0.000803288770839572 -7.484214438591152e-05 -0.19025187194347382 1 True True
521.566 4.777789115905762 -1.3842911583236237 1.6896756331073206 -1.8760858974852503 -1.570801083241598 3.2070651054382324 -0.26217442750930786 2.3668140784138814e-05 -0.00013559818034991622 0.00015357461234088987 -5.286173109197989e-05 -0.26668912172317505 1 True True
521.616 4.762866973876953 -1.3843089056066056 1.6896393934832972 -1.8760572872557582 -1.5708211104022425 3.1921286582946777 -0.32836663722991943 0.0 -0.0005506200832314789 0.00011600626021390781 -0.00015758896188344806 -0.3256736695766449 1 True True
521.6659999999999 4.7446208000183105 -1.3843088907054444 1.689582649861471 -1.876050134698385 -1.5707805792437952 3.1739449501037598 -0.4006262421607971 0.0 -0.0014454026240855455 8.003033144632354e-05 -4.943304884363897e-05 -0.39887741208076477 1 True True
521.716 4.722747802734375 -1.3843178463033219 1.6895316282855433 -1.8760377369322718 -1.5708168188678187 3.151881217956543 -0.46980637311935425 0.00039099372224882245 -0.001613226835615933 7.60194452595897e-05 -4.396221993374638e-05 -0.46703460812568665 1 True True
521.766 4.697429180145264 -1.3842770767262955 1.6894572416888636 -1.8760696850218714 -1.5708087126361292 3.126575231552124 -0.539394199848175 0.0013322144513949752 -0.0016418781597167253 0.00024643910001032054 1.6121183554762553e-10 -0.5385004878044128 1 True True
521.816 4.668527603149414 -1.3842470061830063 1.68939716020693 -1.8759972057738246 -1.5708048979388636 3.0978527069091797 -0.6141003370285034 0.0025312379002571106 -0.0021482501178979874 0.00033377663930878043 2.4488114983448637e-29 -0.6103024482727051 1 True True
521.866 4.636322975158691 -1.384091080432274 1.6893656889544886 -1.876026292840475 -1.5707805792437952 3.065582275390625 -0.68360835313797 0.0026414869353175163 -0.0017461982788518071 0.0002202620089519769 0.0 -0.681073009967804 1 True True
521.9159999999999 4.6005072593688965 -1.384028361444809 1.68925649324526 -1.8760177097716273 -1.570801083241598 3.029700994491577 -0.7543111443519592 0.002425254788249731 -0.0023665479384362698 0.0005399362999014556 0.00025586492847651243 -0.7460089921951294 1 True True
521.966 4.561318397521973 -1.3839815866998215 1.6891773382769983 -1.875953813592428 -1.570796314870016 2.990402936935425 -0.823731541633606 0.0022045045625418425 -0.0029353126883506775 0.00028642508550547063 1.0841749826795422e-05 -0.8147435188293457 1 True True
522.016 4.518528938293457 -1.383870692258217 1.6890528837787073 -1.8759814701476039 -1.5707772413836878 2.947781801223755 -0.8853973746299744 0.0012116538127884269 -0.002057027770206332 0.00032469257712364197 1.4469465895672329e-05 -0.8927567005157471 1 True True
522.066 4.472227573394775 -1.383849413400032 1.6889823118792933 -1.875925680200094 -1.5708335081683558 2.901393413543701 -0.9580914974212646 0.0021752233151346445 -0.0021185900550335646 0.00043186903349123895 0.00013345899060368538 -0.9541561007499695 1 True True
522.116 4.422457218170166 -1.3837623757174988 1.6888569037066858 -1.8759142361082972 -1.5707886854754847 2.851752281188965 -1.023829698562622 0.001166865578852594 -0.0020196218974888325 0.0007874414441175759 7.046864931387007e-22 -1.0297162532806396 1 True True
522.1659999999999 4.370376110076904 -1.3836501997760315 1.6887415091144007 -1.8759228191771449 -1.5707925001727503 2.79947566986084 -1.0486201047897339 0.002874506637454033 -0.002918877173215151 0.00048674034769646823 1.0704238709284413e-40 -1.0416415929794312 1 True True
522.216 4.3179168701171875 -1.3835373979857941 1.6886261145221155 -1.8759142361082972 -1.5708044211017054 2.747091293334961 -1.0455009937286377 0.0032301885075867176 -0.003162105567753315 0.0003151508281007409 0.0 -1.0518109798431396 1 True True
522.266 4.265565872192383 -1.3834237468293686 1.6884930769549769 -1.8758579693236292 -1.570829216633932 2.6948699951171875 -1.0431877374649048 0.0012803818099200726 -0.0014699514722451568 0.00034172655432485044 0.0 -1.0531989336013794 1 True True
522.316 4.2132697105407715 -1.3833609384349366 1.6883705298053187 -1.875890394250387 -1.5708649794207972 2.6424238681793213 -1.0525920391082764 0.0027168693486601114 -0.0030056934338063 0.00043801075662486255 3.810335692833178e-05 -1.0414925813674927 1 True True
522.366 4.160799503326416 -1.3832812172225495 1.68823749223818 -1.875805994073385 -1.5708044211017054 2.589916229248047 -1.0459356307983398 0.0032553754281252623 -0.0026511196047067642 0.00027453675284050405 5.552371294470504e-05 -1.0487881898880005 1 True True
522.4159999999999 4.108417510986328 -1.3831225496581574 1.6881745497332972 -1.875774999658102 -1.570784870778219 2.5377724170684814 -1.045148491859436 0.0012668869458138943 -0.0016469241818413138 0.0016291935462504625 4.348477523308247e-05 -1.0511966943740845 1 True True
522.466 4.056194305419922 -1.383086310034134 1.6880338827716272 -1.8757668934264125 -1.5708211104022425 2.485328197479248 -1.0522668361663818 0.002709704451262951 -0.0020201890729367733 0.0004715431423392147 -6.8354948979700014e-15 -1.0433214902877808 1 True True
522.516 4.003749847412109 -1.3829530042460938 1.6879232565509241 -1.8757959804930628 -1.5707767645465296 2.432889223098755 -1.04718017578125 0.003172966418787837 -0.0026467388961464167 0.00028413673862814903 -1.0383129662198765e-33 -1.0536692142486572 1 True True
522.566 3.9514524936676025 -1.3828973782113572 1.6878674666034144 -1.875740190545553 -1.5707810560809534 2.3806636333465576 -1.0434057712554932 0.000615189375821501 -0.0015319960657507181 0.00046702451072633266 0.00013910724373999983 -1.0493175983428955 1 True True
522.616 3.899080514907837 -1.3827940982631226 1.6877401510821741 -1.875711580316061 -1.5708168188678187 2.3282744884490967 -1.0514596700668335 0.0025093441363424063 -0.0018451412906870246 8.94916447577998e-05 -0.00010954726894851774 -1.0435657501220703 1 True True
522.6659999999999 3.846633195877075 -1.382660449748375 1.6876204649554651 -1.8757320843138636 -1.5707886854754847 2.2757792472839355 -1.0487909317016602 0.0028506815433502197 -0.002826431067660451 0.00026524218264967203 -1.3642961867320755e-21 -1.048163890838623 1 True True
522.716 3.7942371368408203 -1.3826051366380234 1.6875126997577112 -1.8756557903685511 -1.570801083241598 2.223618268966675 -1.0441293716430664 0.0010255828965455294 -0.0022335611283779144 0.00042630083044059575 -2.0723662859053287e-40 -1.0528564453125 1 True True
522.766 3.7419214248657227 -1.3824762266925354 1.6873887220965784 -1.8756681881346644 -1.5708006064044397 2.171142816543579 -1.0519158840179443 0.00238279951736331 -0.0024944122415035963 0.00042315528844483197 -0.0 -1.040151834487915 1 True True
522.816 3.6895687580108643 -1.3823879224113007 1.6872404257403772 -1.8756519756712855 -1.570813004170553 2.1186740398406982 -1.045046329498291 0.0029949184972792864 -0.0028783439192920923 0.0005629042279906571 -3.0867948225932196e-05 -1.0498859882354736 1 True True
522.866 3.637242317199707 -1.382333756690361 1.6871817747699183 -1.875603815118307 -1.5707767645465296 2.0665104389190674 -1.045632243156433 0.001417990424670279 -0.0017915494972839952 0.0007035629241727293 -3.323388591525145e-05 -1.0492607355117798 1 True True
522.9159999999999 3.5849292278289795 -1.3822215509465714 1.6870906988727015 -1.8756286106505335 -1.57074481645693 2.0141851902008057 -1.0520498752593994 0.00209634518250823 -0.0019395410781726241 0.00046607767581008375 -2.2500980776385404e-05 -1.0432804822921753 1 True True
522.966 3.5325348377227783 -1.382150800233223 1.6869257132159632 -1.8756243191161097 -1.5707886854754847 1.9616910219192505 -1.0453463792800903 0.002600655425339937 -0.002665571868419647 0.0005627609207294881 -8.095512628822647e-16 -1.0449104309082031 1 True True
523.016 3.480088233947754 -1.3820203703692933 1.6867931524859827 -1.875500818292135 -1.5707319418536585 1.9093869924545288 -1.0422800779342651 0.0015298259677365422 -0.0023796837776899338 0.0004313882382120937 -1.2297101247453788e-34 -1.0515468120574951 1 True True
523.066 3.427783489227295 -1.3819290709546586 1.6866744200335901 -1.8755408726134242 -1.5708368460284632 1.8569401502609253 -1.0480304956436157 0.002833371050655842 -0.0024053261149674654 0.00044018737389706075 -0.0 -1.0429906845092773 1 True True
523.116 3.3753836154937744 -1.381812037234642 1.6865385214435022 -1.8755127392210902 -1.5708168188678187 1.804597020149231 -1.0486139059066772 0.0030393830966204405 -0.002643309533596039 0.000470965460408479 -0.0 -1.0505784749984741 1 True True
523.1659999999999 3.323052406311035 -1.3817281287959595 1.6864059607135218 -1.875476976434225 -1.570784870778219 1.7523853778839111 -1.0460255146026611 0.0019171686144545674 -0.0016797520220279694 0.0005539984558708966 -0.0 -1.0544708967208862 1 True True
523.216 3.270753860473633 -1.3816784930280228 1.686359707509176 -1.8754812679686488 -1.5707967917071741 1.6999602317810059 -1.049628496170044 0.001986338756978512 -0.002455857116729021 0.00045934010995551944 -4.2554442188702524e-05 -1.0418155193328857 1 True True
523.266 3.2184736728668213 -1.3815690589002152 1.6862033049212855 -1.87540926555776 -1.5708168188678187 1.6475551128387451 -1.048733115196228 0.0021157118026167154 -0.0027932620141655207 0.0006878982530906796 -4.4521711317635493e-10 -1.043705701828003 1 True True
523.316 3.165923595428467 -1.381507472401001 1.6861398855792444 -1.875437398950094 -1.570772949849264 1.5952184200286865 -1.0406147241592407 0.0018562350887805223 -0.0016480318736284971 0.0003614584857132286 -6.762859064438922e-29 -1.0498833656311035 1 True True
523.366 3.115360736846924 -1.3813908112100144 1.6859954039203089 -1.875481744805807 -1.5708087126361292 1.5443923473358154 -0.9841859936714172 0.0015423077857121825 -0.0017632337985560298 0.0005251604015938938 -0.0 -0.9819559454917908 1 True True
523.4159999999999 3.067885160446167 -1.3812559109977265 1.6859124342547815 -1.8753615818419398 -1.5708616415606897 1.4971178770065308 -0.9064863324165344 0.0013034193543717265 -0.0021380684338510036 0.00031245677382685244 0.00028925572405569255 -0.9223520755767822 1 True True
523.466 3.0240509510040283 -1.3811928045800705 1.685767952595846 -1.8753820858397425 -1.5707886854754847 1.4533169269561768 -0.8462175130844116 0.002068146364763379 -0.002498835325241089 0.0005961853312328458 0.0002162138989660889 -0.8390241861343384 1 True True
523.516 2.9837465286254883 -1.38113425791774 1.6856840292560022 -1.875378271142477 -1.5708091894732874 1.4129750728607178 -0.770426332950592 0.0022889962419867516 -0.0014517545932903886 0.00041804846841841936 -1.5292305724674826e-13 -0.7755187153816223 1 True True
523.566 2.9468655586242676 -1.3811149311116715 1.6856449286090296 -1.8753534756102503 -1.570784870778219 1.3761365413665771 -0.6991172432899475 0.0009213173761963844 -0.0007754666148684919 0.0002886410220526159 -2.322903790614729e-32 -0.7135244607925415 1 True True
523.616 2.913552761077881 -1.380997748380043 1.6855652968036097 -1.8753100834288539 -1.5708125273333948 1.342717170715332 -0.6350221633911133 0.0008662439067848027 -0.0011305203661322594 0.000277553015621379 -0.0 -0.6347761750221252 1 True True
523.6659999999999 2.883702278137207 -1.3809857976487656 1.6855247656451624 -1.8753138981261195 -1.5707805792437952 1.3128749132156372 -0.5636435151100159 0.0006341795669868588 -0.0015525211347267032 0.00023787366808392107 -0.0 -0.5695356130599976 1 True True
523.716 2.857348680496216 -1.3809423309615632 1.6854413191424769 -1.8752943478026332 -1.5707772413836878 1.2864999771118164 -0.4964599311351776 0.0004209172329865396 -0.0007924418314360082 0.0001876708265626803 -0.0 -0.49642643332481384 1 True True
523.766 2.834545135498047 -1.3809062254479905 1.6854255835162562 -1.8753301105894984 -1.570813004170553 1.2637484073638916 -0.4234352111816406 0.0005225084023550153 -0.0005404709954746068 0.0002631909737829119 -1.5452656043635216e-07 -0.42282456159591675 1 True True
523.816 2.8150081634521484 -1.3808628183654328 1.6853778998004358 -1.8752981624998988 -1.570801083241598 1.244241714477539 -0.3516950011253357 0.0009410919738002121 -0.0008164129103533924 0.00017232693789992481 -2.3472622486841293e-26 -0.3522689640522003 1 True True
523.866 2.799172878265381 -1.3807926636985322 1.6853049437152308 -1.8753181896605433 -1.5707805792437952 1.2283002138137817 -0.2858748733997345 0.0008960161358118057 -0.0005140113644301891 0.00010492476576473564 -4.203895392974451e-45 -0.28645050525665283 1 True True
523.9159999999999 2.7866930961608887 -1.3807808321765442 1.6852691809283655 -1.875230451623434 -1.5708335081683558 1.2158629894256592 -0.21252648532390594 0.0008645991329103708 -0.0006854069652035832 0.00010367533832322806 -0.0 -0.21488912403583527 1 True True
523.966 2.7777669429779053 -1.380801649098732 1.6852615515338343 -1.8752662144102992 -1.5708254019366663 1.206998586654663 -0.14433330297470093 0.0003392691141925752 -0.0005242342012934387 8.223541226470843e-05 -0.0 -0.14811864495277405 1 True True
524.016 2.772400140762329 -1.380795643930771 1.6852124373065394 -1.8752581081786097 -1.5708449522601526 1.2016029357910156 -0.07757657021284103 0.00021434422524180263 -0.0002848883159458637 5.161890294402838e-05 -0.0 -0.07676492631435394 1 True True
524.066 2.770432233810425 -1.3807626527598877 1.6852167288409632 -1.8752943478026332 -1.5708211104022425 1.1996405124664307 -0.005219840910285711 0.00017707078950479627 -0.00020393515296746045 6.125152140157297e-05 -0.0 -0.0054130153730511665 1 True True
524.116 2.7705464363098145 -1.3799246859601517 1.6860101858722132 -1.876744886437887 -1.5707648436175745 1.1996673345565796 -0.0015561897307634354 0.02511313371360302 0.04029064252972603 -0.06423177570104599 7.655869993082246e-21 -0.0006821345305070281 1 True True
524.1659999999999 2.7704668045043945 -1.3782934111407776 1.6889837423907679 -1.8818723164000453 -1.5707762877093714 1.1996806859970093 -0.0013558781938627362 0.04978461191058159 0.08775462955236435 -0.15072759985923767 1.1629291877523797e-39 -0.00047244105371646583 1 True True
524.216 2.770427703857422 -1.3750883501819153 1.6948302427874964 -1.8903709850706996 -1.570829216633932 1.1996732950210571 -0.0008025303832255304 0.07494006305932999 0.13190189003944397 -0.20925754308700562 0.0 -0.00031016531283967197 1 True True
524.266 2.770415782928467 -1.370766968732216 1.702470604573385 -1.9023882351317347 -1.5707891623126429 1.1996866464614868 -0.0002470018807798624 0.10176919400691986 0.1704603135585785 -0.2680801749229431 0.0 -0.00026449424331076443 1 True True
524.316 2.7703826427459717 -1.3650712084821244 1.7122424284564417 -1.9179383716978968 -1.5707648436175745 1.1996285915374756 -0.00012183072249172255 0.1256471425294876 0.21960237622261047 -0.3514653444290161 0.0 -0.00012934747792314738 1 True True
524.366 2.7703962326049805 -1.3581806433251877 1.7242582480060022 -1.9369446239867152 -1.5707648436175745 1.1996196508407593 -9.636559843784198e-05 0.15011511743068695 0.25986483693122864 -0.41053450107574463 0.0 -9.438047709409148e-05 1 True True
524.4159999999999 2.7704203128814697 -1.3497579258731385 1.7387421766864222 -1.9592977962889613 -1.5708296934710901 1.199661374092102 -6.276411295402795e-05 0.17805953323841095 0.3053886890411377 -0.48851677775382996 -4.140202872804366e-05 -5.185358531889506e-06 1 True True
524.466 2.7704577445983887 -1.3403186661056061 1.7549956480609339 -1.9853249988951625 -1.5707762877093714 1.199600100517273 -4.2796998095791117e-17 0.20221510529518127 0.35470128059387207 -0.5416586995124817 -1.9252931451774202e-05 -7.876570048720314e-25 1 True True
524.516 2.7704203128814697 -1.330286593442299 1.7722352186786097 -2.0128399334349574 -1.5708211104022425 1.199644923210144 -3.078434929193463e-07 0.18550889194011688 0.3209017515182495 -0.5243104100227356 -1.2543910088425037e-05 -1.1911036946760945e-43 1 True True
524.566 2.7704036235809326 -1.3214189273170014 1.7875545660602015 -2.036760469476217 -1.570813004170553 1.1996450424194336 0.0 0.16934923827648163 0.28412625193595886 -0.4503434896469116 -1.276463379440429e-10 -0.0 1 True True
524.616 2.7704172134399414 -1.3138824266246338 1.8004658857928675 -2.057457586328024 -1.5707610289203089 1.1995881795883179 0.0 0.13651415705680847 0.2353319227695465 -0.37862738966941833 -1.9389505849807857e-29 -0.0 1 True True
524.6659999999999 2.7704367637634277 -1.3076321643641968 1.8112357298480433 -2.0744053326048792 -1.5707967917071741 1.1996164321899414 0.0 0.1107676699757576 0.19684453308582306 -0.2995617687702179 -0.0 -0.0 1 True True
524.716 2.770411252975464 -1.3027561765960236 1.8198841253863733 -2.0880867443480433 -1.5707891623126429 1.1997268199920654 0.0 0.08885890990495682 0.14819540083408356 -0.22691188752651215 -0.0 -0.0 1 True True
524.766 2.7704412937164307 -1.2990349990180512 1.826374355946676 -2.0982099972166957 -1.5707610289203089 1.199644923210144 0.0 0.06340515613555908 0.10327450931072235 -0.1685970276594162 -0.0 -0.0 1 True True
524.816 2.7704126834869385 -1.296571211223938 1.830447022114889 -2.1047774753966273 -1.5707972685443323 1.1996583938598633 0.0 0.037641726434230804 0.06509736180305481 -0.09899069368839264 -0.0 -0.0 1 True True
524.866 2.7704293727874756 -1.2958066028407593 1.8318584601031702 -2.1080242596068324 -1.5708125273333948 1.1996405124664307 0.0 0.01162119209766388 0.015998071059584618 -0.02603820338845253 3.0911252724141747e-11 -0.0 1 True True
524.9159999999999 2.7703750133514404 -1.2957036060145875 1.831963364277975 -2.1081630192198695 -1.5707643667804163 1.199698567390442 0.0 0.0046802400611341 0.0034452651161700487 0.0005212461110204458 -5.7633900723885745e-05 -0.0 1 True True
524.966 2.7704007625579834 -1.2955261033824463 1.8319667021380823 -2.1082707844176234 -1.5708606878863733 1.199644923210144 0.0 0.004943953361362219 0.004527708515524864 0.00023098393285181373 -3.200805440428667e-05 -1.2119318049119698e-10 1 True True
525.016 2.7704203128814697 -1.2947372657111664 1.8334172407733362 -2.107295652429098 -1.570784870778219 1.1996493339538574 0.0004141955287195742 -0.0030353975016623735 -0.00047814298886805773 -0.007495270576328039 3.294522321084514e-05 -1.8409272207323823e-29 1 True True
525.066 2.7704367637634277 -1.2949963074973603 1.8331382910357874 -2.1078244648375453 -1.5707486311541956 1.199637532234192 0.00015674302994739264 -0.0017752591520547867 -0.00015336708747781813 0.0001645329175516963 5.0043860657328226e-24 0.00022552679001819342 1 True False
525.116 2.7704036235809326 -1.2952292424491425 1.832982365285055 -2.108011385003561 -1.5707610289203089 1.1996252536773682 1.3807506353546994e-11 -0.0019596649799495935 -0.0021344178821891546 -0.0014398369239643216 -0.00020501810649875551 1.2187401668266064e-21 1 True False
525.1659999999999 2.770465135574341 -1.2953122419169922 1.832844082509176 -2.1081272564330042 -1.5707281271563929 1.1995837688446045 0.0 -0.00046671793097630143 -0.003293027635663748 -0.0007256768294610083 -0.0001780941238394007 1.851269414204159e-40 1 True False
525.216 2.770378351211548 -1.295319752102234 1.8327253500567835 -2.108079572717184 -1.5707929770099085 1.1996045112609863 0.0 7.006492321624085e-45 -0.002816640306264162 -0.00021403239225037396 -0.00014657943393103778 0.0 1 True False
525.266 2.7704529762268066 -1.2958716315082093 1.831933323537008 -2.107238908807272 -1.570784870778219 1.1996208429336548 0.0 -0.023162709549069405 -0.032730624079704285 0.04174993932247162 -0.0002508581674192101 0.0 1 True False
525.316 2.770394802093506 -1.2971974474242707 1.8293831984149378 -2.102894445458883 -1.570756737385885 1.199612021446228 0.0 -0.043050073087215424 -0.07624508440494537 0.11947381496429443 -0.0001842568744905293 7.070839637890458e-05 1 True False
525.366 2.770448684692383 -1.3000435692122956 1.8243573347674769 -2.095119615594381 -1.5707767645465296 1.1996002197265625 0.0 -0.0691419243812561 -0.11585475504398346 0.19437873363494873 -0.00012745482672471553 3.6508055151034113e-13 1 True False
525.4159999999999 2.7704529762268066 -1.304221735601761 1.8169949690448206 -2.083757062951559 -1.5708335081683558 1.1995826959609985 0.0 -0.09974465519189835 -0.16487900912761688 0.24836696684360504 -8.439055091002956e-05 4.214775344735244e-06 1 True False
525.466 2.770394802093506 -1.309628651743271 1.8077595869647425 -2.069091936151022 -1.570784870778219 1.1995956897735596 0.0 -0.11919230222702026 -0.2072509378194809 0.32853588461875916 -3.537851443979889e-05 6.4022521257346605e-25 1 True False
525.516 2.770399332046509 -1.316389576797821 1.796302620564596 -2.0507074795165003 -1.570829216633932 1.1996655464172363 0.0 -0.14765000343322754 -0.25060775876045227 0.3959880769252777 -1.1986796265646276e-18 9.668959403841238e-44 1 True False
525.566 2.7704365253448486 -1.324454353456833 1.7823732534991663 -2.0290571651854457 -1.5707925001727503 1.1996372938156128 0.0 -0.17515160143375397 -0.29701757431030273 0.4675769507884979 -1.8207968899028288e-37 0.0 1 True False
525.616 2.770416021347046 -1.3335501563600083 1.7666237990008753 -2.003824850121969 -1.5708406607257288 1.1996448040008545 0.0 -0.19771409034729004 -0.3473666310310364 0.5398977398872375 -0.0 0.0 1 True False
525.6659999999999 2.7704453468322754 -1.3438555014184494 1.7488845030414026 -1.976326128045553 -1.5707805792437952 1.1996448040008545 0.0 -0.19262142479419708 -0.33385512232780457 0.5393218398094177 -0.0 0.0 1 True False
525.716 2.7704038619995117 -1.352760301237442 1.7335236708270472 -1.9513875446715296 -1.570813004170553 1.1996577978134155 0.0 -0.16909827291965485 -0.296049565076828 0.45393770933151245 -0.0 0.0 1 True False
525.766 2.770411491394043 -1.3605598223260422 1.7199276129352015 -1.9300743542113246 -1.5708168188678187 1.1996164321899414 0.0 -0.1450541913509369 -0.24348583817481995 0.3875848054885864 -0.0 0.0 1 True False
525.816 2.770498037338257 -1.3671840590289612 1.7087715307818812 -1.9122358761229457 -1.5707605520831507 1.1996243000030518 0.0 -0.11721807718276978 -0.20900660753250122 0.32619616389274597 -0.0 0.0 1 True False
525.866 2.7704310417175293 -1.3724659544280549 1.6997349897967737 -1.897879262963766 -1.5708335081683558 1.1995958089828491 0.0 -0.09184744209051132 -0.1598026603460312 0.2479710727930069 -0.0 0.0 1 True False
525.9159999999999 2.7704410552978516 -1.3764292162707825 1.6927393118487757 -1.887177129785055 -1.5707805792437952 1.1996088027954102 0.0 -0.0679863691329956 -0.11605191230773926 0.186642587184906 -0.0 0.0 1 True False
525.966 2.7703874111175537 -1.37910848975692 1.6880248228656214 -1.8797556362547816 -1.5708449522601526 1.1995882987976074 0.0 -0.04369519650936127 -0.07092957943677902 0.12374535202980042 -0.0 0.0 1 True False
526.016 2.7704572677612305 -1.3804428738406678 1.6857689062701624 -1.875920911828512 -1.570801083241598 1.1996610164642334 -3.623166776378639e-05 -0.015288385562598705 -0.02708343043923378 0.03971613198518753 -0.0 0.0 1 True False
526.066 2.7704572677612305 -1.3805804711631318 1.685357395802633 -1.8754178486266078 -1.5707805792437952 1.1997063159942627 -1.8057675333693624e-05 0.0015791598707437515 0.0001986943680094555 -2.368394416407682e-05 -0.0 0.0 1 False False
526.116 2.7704038619995117 -1.3806295704892655 1.6853159109698694 -1.8754059276976527 -1.5707925001727503 1.199633002281189 -3.3623603431259586e-30 -0.00013464991934597492 2.1426770117183537e-23 0.0001411763805663213 -0.0 0.0 1 False False
526.1659999999999 2.7704484462738037 -1.3806490016034623 1.6853216330157679 -1.8753940067686976 -1.5708211104022425 1.1996164321899414 0.0 -0.000434324232628569 0.0 0.0013798722065985203 -0.0 0.0 1 False False
526.216 2.7704081535339355 -1.380733997826912 1.6852691809283655 -1.8753544292845667 -1.5708087126361292 1.1996729373931885 0.0 -0.0006247152341529727 -0.0006330095347948372 0.0008622631430625916 -0.0 0.0 1 False False
526.266 2.770395278930664 -1.380690560942032 1.6852734724627894 -1.8753138981261195 -1.5707891623126429 1.1996654272079468 0.0 -0.0004907863913103938 -0.0007919627823866904 0.000331163959344849 -0.0 0.0 1 False False
526.316 2.7704288959503174 -1.3807340127280732 1.6852734724627894 -1.8752662144102992 -1.5707843939410608 1.1996285915374756 0.0 -0.00022815208649262786 -0.0006533723790198565 0.00019622620311565697 -0.0 0.0 1 False False
526.366 2.770432233810425 -1.3807132107070466 1.6852377096759241 -1.8752581081786097 -1.570784870778219 1.1995795965194702 0.0 -0.00014962880231905729 -0.0003926468489225954 0.00013889865658711642 -0.0 0.0 1 False False
526.4159999999999 2.7703754901885986 -1.3807415676167984 1.685253922139303 -1.8752581081786097 -1.5707929770099085 1.19960355758667 0.0 -0.00013073228183202446 -0.0001759005681378767 0.00010084049426950514 -0.0 0.0 1 False False
526.466 2.7704484462738037 -1.3807613265565415 1.685221020375387 -1.8752786121764125 -1.570801083241598 1.1996002197265625 0.0 -8.089056791504845e-05 -0.00011838891077786684 1.3730023340485786e-08 -0.0 0.0 1 False False
526.516 2.7704038619995117 -1.380778731112816 1.685221020375387 -1.8752743206419886 -1.5708087126361292 1.199575424194336 0.0 -5.581032019108534e-05 -6.13336669630371e-05 2.0855941590088042e-27 -0.0 0.0 1 False False
526.566 2.7704148292541504 -1.3807700288346787 1.6852453390704554 -1.8752747974791468 -1.5707805792437952 1.199657678604126 0.0 -3.4310140275061953e-35 -3.2448968235706047e-14 0.0 -0.0 0.0 1 False False
526.616 2.7704203128814697 -1.3807830077460785 1.6851728598224085 -1.8752786121764125 -1.570801083241598 1.1996045112609863 0.0 0.0 -7.567011707354012e-44 0.0 -0.0 0.0 1 False False
526.6659999999999 2.770432233810425 -1.3807502400926133 1.685242001210348 -1.8752623997130335 -1.5707967917071741 1.19959557056427 0.0 0.0 -0.0 0.0 -0.0 0.0 1 False False
526.716 2.7704451084136963 -1.380762518649437 1.6851728598224085 -1.875286718408102 -1.5707605520831507 1.199600100517273 0.0 0.0 -0.0 0.0 -0.0 0.0 1 False False
526.766 2.770432233810425 -1.3807415676167984 1.6852496306048792 -1.8752457104124964 -1.5707967917071741 1.1996241807937622 0.0 0.0 -0.0 0.0 -0.0 0.0 1 False False
526.816 2.77038311958313 -1.3807502102902909 1.6851800123797815 -1.8752948246397914 -1.570756737385885 1.1996405124664307 0.0 0.0 -0.0 0.0 -0.0 0.0 1 False False
526.866 2.7704334259033203 -1.380791650419571 1.685213867818014 -1.875270505944723 -1.5707648436175745 1.199615240097046 2.0288419780241753e-35 0.0 -0.0 0.0 -0.0 0.0 1 False False
526.9159999999999 2.770432233810425 -1.380734072332718 1.6852181593524378 -1.8752466640868128 -1.5707724730121058 1.199637532234192 2.2616182832280174e-05 -5.885453550164232e-44 -0.0 0.0 -0.0 0.0 1 False False
526.966 2.7703745365142822 -1.3807384234717865 1.685213867818014 -1.875286718408102 -1.570829216633932 1.1996361017227173 1.3890124137105886e-05 0.0 -0.0 0.0 -0.0 0.0 1 True False
527.016 2.7704038619995117 -1.3807668548873444 1.685213867818014 -1.8752948246397914 -1.5708254019366663 1.1996241807937622 1.0022944479715079e-05 0.0 -0.0 0.0 -0.0 0.0 1 True False
527.066 2.7704203128814697 -1.380721093421318 1.685242001210348 -1.8752581081786097 -1.5708168188678187 1.1995866298675537 0.0 0.0 -0.0 0.0 -0.0 0.0 1 True False
527.116 2.770461320877075 -1.3807546359351655 1.685242001210348 -1.8752457104124964 -1.5707529226886194 1.1995702981948853 0.0 0.0 -0.0 0.0 -0.0 0.0 1 True False
527.1659999999999 2.770432233810425 -1.3807743352702637 1.6852167288409632 -1.8752905331053675 -1.5707805792437952 1.1996821165084839 0.0 0.0 -0.0 0.0 -0.0 0.0 1 True False
527.216 2.770432233810425 -1.3807668101838608 1.685192886983053 -1.8752747974791468 -1.5707891623126429 1.1996285915374756 0.0 0.0 -0.0 0.0 -0.0 0.0 1 True False
527.266 2.7704529762268066 -1.3806979221156617 1.6852167288409632 -1.875286718408102 -1.5707967917071741 1.1996241807937622 0.0 0.0 -0.0 0.0 -0.0 0.0 1 True False
527.316 2.7704036235809326 -1.3807581526092072 1.6852296034442347 -1.875253816644186 -1.570801083241598 1.1996405124664307 0.0 0.0 -0.0 0.0 -0.0 0.0 1 True False
527.366 2.770373821258545 -1.3807415825179596 1.6852095762835901 -1.8752623997130335 -1.570813004170553 1.199591040611267 0.0 0.0 -0.0 0.0 -0.0 0.0 1 True False
527.4159999999999 2.770411491394043 -1.3807581228068848 1.685164753590719 -1.875270505944723 -1.5707805792437952 1.1995954513549805 0.0 0.0 -1.041996892416075e-12 6.870183710816491e-07 7.0981568502982446e-15 0.00030439227703027427 1 True False
527.466 2.7704081535339355 -1.3807459634593506 1.6851967016803187 -1.8752500019469203 -1.570801083241598 1.1995881795883179 0.0 0.0 -2.45227231256843e-42 -3.160610662078511e-11 -2.5260544134653173e-05 -0.002041731495410204 1 True False
527.516 2.7704410552978516 -1.3807495099357148 1.6851728598224085 -1.875270505944723 -1.5707929770099085 1.1996568441390991 0.0 0.0 -0.0 -4.80097622096173e-30 -1.1663314794579901e-22 -0.00031604012474417686 1 True False
527.566 2.770423173904419 -1.3807830077460785 1.6851967016803187 -1.8752747974791468 -1.5708211104022425 1.1997076272964478 0.0 0.0 -0.0 -0.0 -1.7716616484458662e-41 -1.0508024843440109e-22 1 True False
527.616 2.7714474201202393 -1.3806980413249512 1.685192886983053 -1.8752271137633265 -1.570756737385885 1.200622320175171 0.05091756582260132 0.0022563859820365906 -0.003816687734797597 -0.0 -0.0 0.04590793699026108 1 True False
527.6659999999999 2.775752305984497 -1.3804309082082291 1.6846297422992151 -1.8751546345152796 -1.5707925001727503 1.2049658298492432 0.12248893827199936 0.01042183768004179 -0.013553107157349586 0.004802302457392216 -0.0 0.11924677342176437 1 True False
527.716 2.7836174964904785 -1.3798388850739975 1.683936897908346 -1.8749481640257777 -1.570784870778219 1.212873935699463 0.19065925478935242 0.013083441182971 -0.017584344372153282 0.004386626649647951 -0.0 0.19045321643352509 1 True False
527.766 2.795018196105957 -1.3790089947036286 1.6828296820269983 -1.874669691125387 -1.570862118397848 1.2241281270980835 0.25935623049736023 0.019496314227581024 -0.025787394493818283 0.007286709733307362 -0.0 0.25753623247146606 1 True False
527.816 2.809799909591675 -1.377897785311081 1.6814630667315882 -1.8742958507933558 -1.5707925001727503 1.2389744520187378 0.3297823667526245 0.026970960199832916 -0.029256008565425873 0.007334713824093342 -0.0 0.3300819396972656 1 True False
527.866 2.8281426429748535 -1.3765524488738556 1.6797345320331019 -1.8739077053465785 -1.5708168188678187 1.2572873830795288 0.40213778614997864 0.0291164368391037 -0.03758607432246208 0.007400971837341785 -0.0 0.39813217520713806 1 True False
527.9159999999999 2.849936008453369 -1.3749200862697144 1.677521053944723 -1.8734618626036585 -1.5708254019366663 1.2791814804077148 0.4701417088508606 0.03535357490181923 -0.04884108155965805 0.009024755097925663 1.887917096610181e-05 0.4651179611682892 1 True False
527.966 2.8752617835998535 -1.3730849635652085 1.6750543753253382 -1.8728729687132777 -1.5707686583148401 1.3044838905334473 0.5388479828834534 0.040071241557598114 -0.05237969756126404 0.010825499892234802 3.983102214988321e-05 0.5431762337684631 1 True False
528.016 2.904182195663452 -1.3708564204028626 1.672375504170553 -1.8722573719420375 -1.570740048085348 1.3331775665283203 0.6120578050613403 0.043194111436605453 -0.05614539235830307 0.015206358395516872 3.503033804008737e-05 0.6103866100311279 1 True False
528.066 2.936370611190796 -1.368623287682869 1.6691950003253382 -1.8714601002135218 -1.5707605520831507 1.3655298948287964 0.6814009547233582 0.04816417023539543 -0.06632335484027863 0.016802078112959862 1.55989349041874e-12 0.6808438301086426 1 True False
528.116 2.9721765518188477 -1.3659199488214036 1.6658571402179163 -1.8706709347166957 -1.5707967917071741 1.4013170003890991 0.753445029258728 0.05331922322511673 -0.06817327439785004 0.02177460864186287 2.249222401211337e-13 0.7500576376914978 1 True False
528.1659999999999 3.011350631713867 -1.3630478841117402 1.661889378224508 -1.8698159656920375 -1.5707929770099085 1.4406641721725464 0.8227987885475159 0.05857427045702934 -0.08022323250770569 0.0181355532258749 3.416573742917803e-32 0.8178722858428955 1 True False
528.216 3.0541346073150635 -1.3598293227008362 1.6579092184649866 -1.868782182733053 -1.5708325544940394 1.4833388328552246 0.8840020895004272 0.06610267609357834 -0.08308646082878113 0.018332963809370995 -4.760166260188263e-14 0.8884901404380798 1 True False
528.266 3.1003804206848145 -1.3565426778844376 1.6533106009112757 -1.8677360020079554 -1.570784870778219 1.529571294784546 0.9605394601821899 0.07232394814491272 -0.09133650362491608 0.022314423695206642 -6.378408314960179e-18 0.9605753421783447 1 True False
528.316 3.150174379348755 -1.3527568739703675 1.6486828962909144 -1.8664919338622035 -1.5707605520831507 1.5793246030807495 1.0266786813735962 0.07533829659223557 -0.10013338923454285 0.0174205731600523 -2.0348689909726464e-13 1.0277130603790283 1 True False
528.366 3.202348232269287 -1.3489664804986496 1.6436117331134241 -1.8654147587218226 -1.5707610289203089 1.6315853595733643 1.0503120422363281 0.08216176182031631 -0.09719739109277725 0.02635812759399414 -3.0909697423268976e-32 1.0488522052764893 1 True False
528.4159999999999 3.2547500133514404 -1.3450972151807328 1.6385119597064417 -1.8643132648863734 -1.5707891623126429 1.6839210987091064 1.049401879310608 0.07286963611841202 -0.0980575829744339 0.02429448440670967 4.926582697351023e-09 1.04576575756073 1 True False
528.466 3.3070523738861084 -1.341255323295929 1.633439842854635 -1.862957616845602 -1.570853058491842 1.736350417137146 1.0440006256103516 0.07550808042287827 -0.09908917546272278 0.021287301555275917 7.483487762478319e-28 1.0435305833816528 1 True False
528.516 3.3593780994415283 -1.3373952966979523 1.62834340730776 -1.8617483578123988 -1.570784870778219 1.7886704206466675 1.0506166219711304 0.07734911143779755 -0.09950866550207138 0.024539530277252197 0.0 1.050635576248169 1 True False
528.566 3.4118258953094482 -1.333597944383957 1.6233275572406214 -1.8606044254698695 -1.570784870778219 1.840991497039795 1.0484907627105713 0.0774126723408699 -0.09820694476366043 0.02878243289887905 0.0 1.0521353483200073 1 True False
528.616 3.4642348289489746 -1.3297855716994782 1.6183598677264612 -1.8594476185240687 -1.5707929770099085 1.89326810836792 1.042301893234253 0.07715606689453125 -0.09959264099597931 0.02099616266787052 0.0 1.0454434156417847 1 True False
528.866 3.7259511947631836 -1.3104365330985566 1.5930946508990687 -1.8533412418761195 -1.5707648436175745 2.1551826000213623 1.0527822971343994 0.07468359172344208 -0.10139665752649307 0.026455342769622803 -0.0 1.054480791091919 1 True False
528.9159999999999 3.7783684730529785 -1.3066052359393616 1.5881832281695765 -1.8522364101805628 -1.5707886854754847 2.2074332237243652 1.0411089658737183 0.07684610038995743 -0.0994856208562851 0.02310960926115513 -0.0 1.0494017601013184 1 True False
528.966 3.83066987991333 -1.3028122347644349 1.5829623381244105 -1.8511702022948207 -1.5707605520831507 2.260002374649048 1.0496882200241089 0.07749311625957489 -0.09595333784818649 0.022256506606936455 -0.0 1.0404006242752075 1 True False
529.016 3.882983922958374 -1.2988602680018921 1.5779650847064417 -1.84985413173818 -1.5707967917071741 2.312257766723633 1.0526705980300903 0.0751786157488823 -0.10311567038297653 0.026386501267552376 -0.0 1.0478429794311523 1 True False
529.066 3.935425043106079 -1.2950478059104462 1.5730045477496546 -1.848661562005514 -1.5708006064044397 2.36453914642334 1.0424460172653198 0.07783034443855286 -0.10179789364337921 0.02247724123299122 -0.0 1.0508862733840942 1 True False
529.116 3.987786293029785 -1.2912901204875489 1.5678141752826136 -1.8474484882750453 -1.570784870778219 2.4171133041381836 1.0515938997268677 0.08087670058012009 -0.09718936681747437 0.02871832065284252 -5.47376366739627e-05 1.0457159280776978 1 True False
529.1659999999999 4.0401105880737305 -1.287414328461029 1.5626142660724085 -1.8462487659850062 -1.570801083241598 2.469348430633545 1.0492894649505615 0.07405165582895279 -0.10116685926914215 0.026841824874281883 -1.478537037590764e-17 1.05538809299469 1 True False
529.216 4.09249210357666 -1.2833510798266907 1.5577705542193812 -1.845055719415182 -1.570829216633932 2.521561861038208 1.044201374053955 0.07614091038703918 -0.10184446722269058 0.01886288821697235 1.7037924408214167e-05 1.0520896911621094 1 True False
529.266 4.1448187828063965 -1.2796447438052674 1.5527327696429651 -1.8438788853087367 -1.570756737385885 2.5740766525268555 1.0484685897827148 0.07669029384851456 -0.1015767753124237 0.022175712510943413 2.588064683919471e-24 1.0409427881240845 1 True False
529.316 4.197173595428467 -1.2758361560157319 1.5477469603167933 -1.8426348171629847 -1.570801083241598 2.626462697982788 1.0522204637527466 0.07634928822517395 -0.10025162249803543 0.028671080246567726 3.937648684752736e-43 1.051108956336975 1 True False
529.366 4.249638080596924 -1.2719925206950684 1.5426390806781214 -1.8415376148619593 -1.570853058491842 2.67877197265625 1.0450031757354736 0.07605018466711044 -0.10130074620246887 0.021079890429973602 -5.237087407294894e-06 1.0450359582901 1 True False
529.4159999999999 4.301969051361084 -1.2680329245379944 1.5375531355487269 -1.8402296505370082 -1.5708168188678187 2.7312371730804443 1.0489917993545532 0.07722994685173035 -0.10243871062994003 0.022118238732218742 -6.141048013228907e-23 1.0417232513427734 1 True False
529.466 4.354251861572266 -1.2642862063697358 1.5324977079974573 -1.8389774761595667 -1.5708087126361292 2.783554792404175 1.0507817268371582 0.07717670500278473 -0.102006696164608 0.02886955253779888 -9.328443877010307e-42 1.0495731830596924 1 True False
529.516 4.406641006469727 -1.2604330343059083 1.5274203459369105 -1.837935586968893 -1.5707886854754847 2.835674285888672 1.0245345830917358 0.07744553685188293 -0.09805894643068314 0.020357733592391014 -0.0 1.0433140993118286 1 True False
529.566 4.45668888092041 -1.256675199871399 1.5226996580706995 -1.8368379078307093 -1.5707405249225062 2.8861169815063477 0.971845269203186 0.07075364142656326 -0.0961097702383995 0.0194342490285635 -0.00022295098460745066 0.9641901850700378 1 True False
529.616 4.503427982330322 -1.2531797748855134 1.5182669798480433 -1.835613866845602 -1.570756737385885 2.932603359222412 0.8969556093215942 0.06784305721521378 -0.08911024034023285 0.020334554836153984 -0.0001354129781248048 0.9052022695541382 1 True False
529.6659999999999 4.546713829040527 -1.2501147252372284 1.5139887968646448 -1.8347670040526332 -1.5708211104022425 2.975972890853882 0.8331922888755798 0.05969119444489479 -0.07641499489545822 0.01793808676302433 -3.7739704339401214e-07 0.828091025352478 1 True False
529.716 4.586369037628174 -1.2471001011184235 1.5101802984820765 -1.833797117272848 -1.5707805792437952 3.0155131816864014 0.7582067847251892 0.05356308072805405 -0.07807304710149765 0.01616334542632103 -5.732667605680648e-26 0.7560095191001892 1 True False
529.766 4.622530937194824 -1.2444991630366822 1.506678883229391 -1.8329302273192347 -1.5708006064044397 3.0516817569732666 0.6879550218582153 0.05114997178316116 -0.06489687412977219 0.015754997730255127 -8.407790785948902e-45 0.6938307881355286 1 True False
529.816 4.655338287353516 -1.242112712269165 1.5033815542804163 -1.8322178326048792 -1.5707724730121058 3.0843827724456787 0.6176446080207825 0.043315339833498 -0.06358473002910614 0.011725678108632565 -0.0 0.6272450685501099 1 True False
529.866 4.684542179107666 -1.2399784189513703 1.5006969610797327 -1.831522604028219 -1.5708044211017054 3.1135969161987305 0.549765944480896 0.042501695454120636 -0.0495486818253994 0.009999176487326622 -3.3972046367125586e-05 0.5541639924049377 1 True False
529.9159999999999 4.7101359367370605 -1.238083378677704 1.4982288519488733 -1.8310023746886195 -1.5708449522601526 3.139483690261841 0.4807102382183075 0.0357331708073616 -0.04920965060591698 0.012622705660760403 1.1799603516493562e-09 0.47663387656211853 1 True False
529.966 4.732409477233887 -1.2364415985396882 1.4960740248309534 -1.830433031121725 -1.5708087126361292 3.161790370941162 0.4060666561126709 0.03056321293115616 -0.043053340166807175 0.007794890087097883 1.7923622490309847e-28 0.4084157645702362 1 True False
530.016 4.751315116882324 -1.2350694102099915 1.4943864981280726 -1.8300515613951625 -1.570801083241598 3.1804463863372803 0.3400874435901642 0.02558094449341297 -0.03116428293287754 0.008242456242442131 2.22586932068225e-05 0.34429532289505005 1 True False
530.066 4.7664947509765625 -1.2339078348926087 1.4929769674884241 -1.8297225437560023 -1.570824925099508 3.1957669258117676 0.27393174171447754 0.018822263926267624 -0.026967067271471024 0.007795777637511492 1.375381452817237e-05 0.267968088388443 1 True False
530.116 4.77834939956665 -1.2331216794303437 1.4916952292071741 -1.829423566857809 -1.570784870778219 3.207319498062134 0.20069333910942078 0.01569797657430172 -0.019499611109495163 0.004170362371951342 9.951621905202046e-06 0.21110542118549347 1 True False
530.1659999999999 4.786497116088867 -1.2325204473784943 1.4908135573016565 -1.8292442760863246 -1.570784870778219 3.2157936096191406 0.1324513703584671 0.00986956711858511 -0.013990516774356365 0.00212677288800478 1.5116537235536323e-24 0.1328614056110382 1 True False
530.216 4.791337966918945 -1.2321419280818482 1.490434471760885 -1.8291012249388636 -1.570829216633932 3.2205939292907715 0.06325995922088623 0.002611376577988267 -0.0038867436815053225 0.002106556436046958 2.2981294814927e-43 0.06288598477840424 1 True False
530.266 4.792655944824219 -1.2321188908866425 1.490378204976217 -1.829090257684225 -1.5707805792437952 3.2218105792999268 -0.0019661004189401865 0.007613848894834518 0.009259668178856373 -0.0001601019612280652 0.0 -0.008030091412365437 1 True False
530.316 4.792661190032959 -1.2311431926539917 1.4916651884662073 -1.831130167047018 -1.5707925001727503 3.221829891204834 0.0007947316044010222 0.028576737269759178 0.054769836366176605 -0.07353277504444122 0.0 0.0006338904495351017 1 True False
530.366 4.792636394500732 -1.229314164524414 1.495159927998678 -1.836982866326803 -1.5708168188678187 3.2219042778015137 0.0007689133635722101 0.048301927745342255 0.09733492881059647 -0.13984128832817078 1.8371550114526514e-10 0.0004962533130310476 1 True False
530.4159999999999 4.792684555053711 -1.2262894672206421 1.5014613310443323 -1.8461715183653773 -1.5707767645465296 3.221881866455078 0.0005992655642330647 0.07037663459777832 0.1455225944519043 -0.20869621634483337 2.79064209583517e-29 0.00034834930556826293 1 True False
530.466 4.792664527893066 -1.221849874859192 1.5100763479815882 -1.858715673486227 -1.5707967917071741 3.221952438354492 0.0009258232894353569 0.09735075384378433 0.18801835179328918 -0.2802003026008606 0.0 0.00018979707965627313 1 True False
530.516 4.792720794677734 -1.2165398460677643 1.5206049124347132 -1.8749634228148402 -1.5707843939410608 3.221869945526123 0.0002664084604475647 0.11628513783216476 0.2368883192539215 -0.35145410895347595 0.0 8.307738607982174e-05 1 True False
530.566 4.7927327156066895 -1.20977737129245 1.5336712042437952 -1.894661088983053 -1.5708006064044397 3.2219436168670654 0.00013916389434598386 0.14562325179576874 0.28634169697761536 -0.4218476414680481 1.6236161790519904e-16 5.684049392584711e-05 1 True False
530.616 4.7927327156066895 -1.2020703715137024 1.549126450215475 -1.9176012478270472 -1.5708168188678187 3.2219271659851074 0.00010246147576253861 0.17114749550819397 0.33228686451911926 -0.4963389039039612 2.466276687633913e-35 2.2222927928335643e-15 1 True False
530.6659999999999 4.792728424072266 -1.1931669575027009 1.566502873097555 -1.944327016870016 -1.5707691351519983 3.221933364868164 1.6199741139644175e-06 0.17638632655143738 0.3465740382671356 -0.5410630106925964 0.0 3.375665979312661e-34 1 True False
530.716 4.792699337005615 -1.1845046442798157 1.5831440130816858 -1.9693638286986292 -1.5707767645465296 3.2219152450561523 0.0 0.15677708387374878 0.31269749999046326 -0.4767131209373474 0.0 0.0 1 True False
530.766 4.792679786682129 -1.1773631137660523 1.5974724928485315 -1.9909817181029261 -1.570756737385885 3.2219226360321045 0.0 0.13950321078300476 0.26868170499801636 -0.3995819091796875 0.0 0.0 1 True False
530.816 4.792663097381592 -1.1712475282004853 1.6095340887652796 -2.009010454217428 -1.5707891623126429 3.2218987941741943 0.0 0.111869215965271 0.21933802962303162 -0.3377028703689575 0.0 0.0 1 True False
530.866 4.7927727699279785 -1.1663487714580079 1.6191123167621058 -2.0238553486266078 -1.570784870778219 3.2219107151031494 0.0 0.0914997085928917 0.17070789635181427 -0.2546059191226959 0.0 0.0 1 True False
530.9159999999999 4.792691707611084 -1.1624768537333985 1.6264632383929651 -2.034962316552633 -1.5708048979388636 3.2219316959381104 0.0 0.062081772834062576 0.12625941634178162 -0.20060935616493225 0.0 0.0 1 True False
530.966 4.792715549468994 -1.1598566335490723 1.6316750685321253 -2.0426603756346644 -1.5707648436175745 3.221987009048462 0.0 0.04324132204055786 0.07976870983839035 -0.1212339848279953 0.0 0.0 1 True False
531.016 4.7927327156066895 -1.158519671564438 1.6344640890704554 -2.046795507470602 -1.5708254019366663 3.2219078540802 0.0 0.015486792661249638 0.03420290723443031 -0.05552235245704651 0.0 1.4249857174167522e-22 1 True False
531.066 4.792675495147705 -1.1582609576037903 1.6349971930133265 -2.0476204357542933 -1.5707967917071741 3.2219197750091553 0.0 -0.0011594650568440557 -1.520599757220964e-09 0.001061244634911418 0.0 2.164585737842545e-41 1 True False
531.116 4.7927165031433105 -1.1583136183074494 1.634989086781637 -2.0476085148253382 -1.5707805792437952 3.221886396408081 0.0 0.00024161706096492708 -3.578131550745561e-39 3.298611773061566e-05 0.0 0.0 1 True False
531.1659999999999 4.7926926612854 -1.1582579475692292 1.6350415388690394 -2.0476042232909144 -1.5708087126361292 3.2218565940856934 0.0 0.0005218613077886403 7.22316253813915e-05 4.010428740446857e-23 0.0 0.0 1 True False
531.216 4.792724132537842 -1.1582832795432587 1.6350448767291468 -2.0476447544493617 -1.5707886854754847 3.221881866455078 1.7792156920794505e-22 0.0006301063112914562 0.00014076790830586106 6.09144442441998e-42 0.0 0.0 1 True False
531.266 4.7927165031433105 -1.1581889551929017 1.6350286642657679 -2.0476724110045375 -1.5708048979388636 3.22186541557312 0.0 0.0006516568246297538 0.0001727067428873852 -9.032779780682176e-05 0.0 0.0 1 True False
531.316 4.792705059051514 -1.1581798058799286 1.6350286642657679 -2.047664304772848 -1.5707767645465296 3.2218945026397705 0.0 8.288784010801464e-05 0.0004867888055741787 -0.00014165707398205996 0.0 0.0 1 True False
531.366 4.792695999145508 -1.1582088035396119 1.635012451802389 -2.047652383843893 -1.570857350026266 3.2219152450561523 0.0 0.00016286275058519095 0.0004009614058304578 -0.00010683612345019355 0.0 0.0 1 True False
531.4159999999999 4.792700290679932 -1.1582088035396119 1.63511830965151 -2.0476719341673792 -1.570857350026266 3.2219107151031494 0.0 0.00016051896091084927 0.0002380804653512314 -9.373787179356441e-05 0.0 0.0 1 True False
531.466 4.7927093505859375 -1.1582387548736115 1.6350567976581019 -2.047664304772848 -1.570784870778219 3.2218945026397705 0.0 0.00011826078116428107 0.0001399052853230387 -7.120619557099417e-05 0.0 0.0 1 True False
531.516 4.792686939239502 -1.1582052868655701 1.6350892225848597 -2.047688146630758 -1.5707686583148401 3.221912384033203 0.0 8.073593198787421e-05 5.7002122048288584e-05 -6.422265869332477e-05 0.0 0.0 1 True False
531.566 4.792653560638428 -1.1581770044616242 1.6350863615619105 -2.0476561985411585 -1.5707805792437952 3.2219314575195312 0.0 5.83753992889536e-30 3.0750939913559705e-05 -4.599374427930131e-19 0.0 0.0 1 True False
531.616 4.792713642120361 -1.1581815046123047 1.635080639516012 -2.047708650628561 -1.5707686583148401 3.221924304962158 0.0 0.0 1.6584028344368562e-05 -4.762789103551768e-05 0.0 0.0 1 True False
531.6659999999999 4.792766094207764 -1.1582908195308228 1.6349518934832972 -2.047844549218649 -1.5708497206317347 3.221935987472534 0.0 0.00016866615624167025 -0.00020306379883550107 -0.000489481259137392 6.679778902045613e-15 8.537964458810166e-05 1 True False
531.716 4.792675018310547 -1.1582341355136414 1.635021988545553 -2.047795911828512 -1.570784870778219 3.221956968307495 0.0 0.0001607118610991165 9.144807700067759e-05 0.0005830110749229789 1.0146599995004166e-33 4.440870693380702e-23 1 True False
531.766 4.792719841003418 -1.1581962269595643 1.6349847952472132 -2.0477477512755335 -1.5708048979388636 3.2218945026397705 -1.2062018583947065e-07 0.00013584777479991317 5.452586628962308e-05 0.000606370740570128 0.0 6.74585080725967e-42 1 True True
531.816 4.792745113372803 -1.1583836537650605 1.6346591154681605 -2.0464474163451136 -1.570829216633932 3.2219479084014893 2.4410619248538313e-42 -0.012288459576666355 -0.025207288563251495 0.04652092233300209 0.0 0.0 1 True True
531.866 4.792691230773926 -1.1597612661174317 1.631697956715719 -2.0424729786314906 -1.5708487669574183 3.2218732833862305 0.0 -0.04370417818427086 -0.07967368513345718 0.11858382076025009 0.0 0.0 1 True True
531.9159999999999 4.792746543884277 -1.1625298422626038 1.6264084021197718 -2.0346552334227503 -1.5708048979388636 3.2219479084014893 0.0 -0.06568151712417603 -0.13096629083156586 0.1878461241722107 0.0 0.0 1 True True
531.966 4.792733192443848 -1.1663991969874878 1.618918244038717 -2.023187299767965 -1.5708048979388636 3.221944808959961 0.0 -0.0863884687423706 -0.17300209403038025 0.26114699244499207 0.0 0.0 1 True True
532.016 4.792721271514893 -1.1714335542968293 1.6090901533709925 -2.0085884533324183 -1.5707691351519983 3.221952199935913 0.0 -0.1138661578297615 -0.22311711311340332 0.32389336824417114 0.0 0.0 1 True True
532.066 4.792686939239502 -1.1775624316981812 1.5969732443438929 -1.9900738201537074 -1.5708330313311976 3.221940517425537 0.0 -0.1349315047264099 -0.261001855134964 0.4002017378807068 0.0 0.0 1 True True
532.116 4.792700290679932 -1.184945510034897 1.5824850241290491 -1.9684058628477992 -1.5707767645465296 3.2219033241271973 0.0 -0.15632130205631256 -0.3025686740875244 0.47768962383270264 0.0 -1.2708252938864462e-07 1 True True
532.1659999999999 4.7927093505859375 -1.193484054212906 1.5657337347613733 -1.943123003045553 -1.5707810560809534 3.2218902111053467 0.0 -0.1808796525001526 -0.36270707845687866 0.5298363566398621 0.0 -1.9303867003529435e-26 1 True True
532.216 4.7927374839782715 -1.202315942650177 1.5483477751361292 -1.9167167148985804 -1.5708168188678187 3.2219271659851074 0.0 -0.16269241273403168 -0.3226567208766937 0.493429571390152 0.0 -2.802596928649634e-45 1 True True
532.266 4.792757511138916 -1.2100868684104462 1.5331147352801722 -1.8937069378294886 -1.570784870778219 3.2219390869140625 0.0 -0.14895747601985931 -0.2796827554702759 0.42107918858528137 0.0 -0.0 1 True True
532.316 4.7926836013793945 -1.2167290908149262 1.520322624837057 -1.8742529354491175 -1.570824925099508 3.221952199935913 0.0 -0.11976803094148636 -0.22872225940227509 0.3490362763404846 0.0 -0.0 1 True True
532.366 4.792719841003418 -1.2221991878798981 1.5097277800189417 -1.858164449731344 -1.5707767645465296 3.221940279006958 0.0 -0.09675446897745132 -0.19125691056251526 0.302164763212204 0.0 -0.0 1 True True
532.4159999999999 4.792712211608887 -1.226331190471985 1.5013073126422327 -1.8458177051939906 -1.5708330313311976 3.221912145614624 0.0 -0.07394295930862427 -0.14564797282218933 0.2243233621120453 0.0 -0.0 1 True True
532.466 4.7926716804504395 -1.2293084424785157 1.4953916708575647 -1.8366261921324671 -1.5708330313311976 3.2219271659851074 0.0 -0.04981865733861923 -0.09771601110696793 0.14243946969509125 0.0 -0.0 1 True True
532.516 4.792691230773926 -1.231250361805298 1.49184495607485 -1.8309456310667933 -1.5708087126361292 3.2219271659851074 0.0 -0.02790561318397522 -0.05138677731156349 0.08027468621730804 0.0 -0.0 1 True True
532.566 4.792712211608887 -1.2319571536830445 1.4903181234942835 -1.8290940723814906 -1.5707691351519983 3.221924066543579 0.0 -0.0010551097802817822 -0.004388144239783287 0.00830693356692791 0.0 -0.0 1 True True
532.616 4.791295528411865 -1.2320545476726075 1.4904845396624964 -1.8292132816710414 -1.57084829012026 3.220494031906128 -0.06219508871436119 -0.006634294521063566 0.002623391803354025 0.0003891498490702361 0.0 -0.0612136647105217 1 True True
532.6659999999999 4.786423683166504 -1.2324139934829255 1.490922753010885 -1.8292414150633753 -1.5707686583148401 3.2155380249023438 -0.13607335090637207 -0.011940023861825466 0.011056208051741123 -0.00014073892089072615 2.426022831514274e-07 -0.13355253636837006 1 True True
532.716 4.777980327606201 -1.233097867374756 1.4915970007525843 -1.8293644390501917 -1.5707691351519983 3.2071781158447266 -0.20267845690250397 -0.013862119056284428 0.020235540345311165 -0.005311938002705574 3.685135060902384e-26 -0.20548558235168457 1 True True
532.766 4.7659711837768555 -1.2338929635337372 1.4927027861224573 -1.8297225437560023 -1.570772949849264 3.195206880569458 -0.26856404542922974 -0.01872996613383293 0.02444015070796013 -0.007649103179574013 5.605193857299268e-45 -0.2718982994556427 1 True True
532.816 4.750596523284912 -1.235080049639084 1.4941399733172815 -1.830059667626852 -1.5707767645465296 3.1797468662261963 -0.3425498306751251 -0.025076471269130707 0.03327189013361931 -0.008142883889377117 0.0 -0.33515268564224243 1 True True
532.866 4.731590747833252 -1.236416445379593 1.496002499257223 -1.830517431298727 -1.5708048979388636 3.1608362197875977 -0.4115094542503357 -0.02958936057984829 0.039189714938402176 -0.008179955184459686 -8.346372487721965e-05 -0.40800151228904724 1 True True
532.9159999999999 4.709346771240234 -1.2380834382823487 1.4981520811664026 -1.8309627972044886 -1.57074481645693 3.138631820678711 -0.4816855490207672 -0.03666124865412712 0.04928785189986229 -0.010325044393539429 -5.7050943723879755e-05 -0.48860183358192444 1 True True
532.966 4.6835761070251465 -1.2399873596480866 1.500744644795553 -1.8316146335997523 -1.57074481645693 3.1126186847686768 -0.5502772331237793 -0.04017107933759689 0.053972311317920685 -0.00957086868584156 -4.115029206329477e-15 -0.5444490313529968 1 True True
533.016 4.654104232788086 -1.2421340209296723 1.503542725239889 -1.832306524316305 -1.5708335081683558 3.083319664001465 -0.6225955486297607 -0.046408358961343765 0.0592639297246933 -0.014476384036242962 -6.250738505778035e-34 -0.6120741367340088 1 True True
533.066 4.621249198913574 -1.2444524627975007 1.5067880789386194 -1.8330699406065882 -1.5708325544940394 3.05039644241333 -0.6931085586547852 -0.0476980023086071 0.06567874550819397 -0.015188922174274921 -1.668963967237601e-15 -0.6836389899253845 1 True True
533.116 4.584843635559082 -1.2471596759608765 1.5102537314044397 -1.8339125118651332 -1.570824925099508 3.0142149925231934 -0.7600920796394348 -0.056074779480695724 0.07217729836702347 -0.015601931139826775 2.8962121329662027e-12 -0.7648140788078308 1 True True
533.1659999999999 4.5449676513671875 -1.2500699621490021 1.5140932242022913 -1.8347999058165492 -1.570756737385885 2.974208354949951 -0.8296754956245422 -0.05776474252343178 0.07976214587688446 -0.01779072917997837 4.399349674054134e-31 -0.8372437953948975 1 True True
533.216 4.50174617767334 -1.2531738740256806 1.5181024710284632 -1.8357736072936 -1.5708044211017054 2.9308180809020996 -0.9033483266830444 -0.06602752953767776 0.08797910064458847 -0.020157799124717712 0.0 -0.8982080221176147 1 True True
533.266 4.454904079437256 -1.2565400165370484 1.5226743857013147 -1.8367988071837367 -1.570723835621969 2.884279727935791 -0.9668958187103271 -0.07076265662908554 0.09331374615430832 -0.019960403442382812 0.0 -0.9774629473686218 1 True True
533.316 4.404616832733154 -1.2602414947799225 1.5274527708636683 -1.8380114040770472 -1.5708044211017054 2.8337104320526123 -1.0456100702285767 -0.07542623579502106 0.10086306929588318 -0.023671742528676987 0.0 -1.029957890510559 1 True True
533.366 4.352335453033447 -1.2641154390624543 1.532402817402975 -1.8392840824522914 -1.5707891623126429 2.7813830375671387 -1.045216679573059 -0.079762764275074 0.10050129890441895 -0.02750212512910366 0.0 -1.0525082349777222 1 True True
533.4159999999999 4.2998785972595215 -1.2679183048060914 1.5375617186175745 -1.8404485187926234 -1.5707686583148401 2.7291998863220215 -1.045241117477417 -0.0798320397734642 0.09727299213409424 -0.020889734849333763 0.0 -1.0447020530700684 1 True True
533.466 4.247611999511719 -1.2717224222472687 1.5426338354693812 -1.8416010342040003 -1.5708487669574183 2.6766488552093506 -1.0509170293807983 -0.07741747796535492 0.09953563660383224 -0.022109074518084526 4.9629798013484105e-05 -1.0456453561782837 1 True True
533.516 4.195141792297363 -1.2755269569209595 1.5474842230426233 -1.8428942165770472 -1.5707886854754847 2.624397039413452 -1.0435436964035034 -0.07683122903108597 0.10001148283481598 -0.02793189324438572 9.605816012481228e-05 -1.0540063381195068 1 True True
533.566 4.142759323120117 -1.2793121498874207 1.5524972120868128 -1.8440028629698695 -1.5707929770099085 2.572129487991333 -1.045556664466858 -0.07750251144170761 0.1029992550611496 -0.022546442225575447 3.3575067193071326e-20 -1.048561453819275 1 True True
533.616 4.090486526489258 -1.2830750507167359 1.5575688521014612 -1.8451749287047328 -1.5708044211017054 2.5195510387420654 -1.0507065057754517 -0.07141712307929993 0.10043706744909286 -0.02508949302136898 6.666449189651757e-05 -1.0408427715301514 1 True True
533.6659999999999 4.038093090057373 -1.2869896751693268 1.5625479857074183 -1.846459528008932 -1.5707891623126429 2.4671719074249268 -1.0461528301239014 -0.07445432990789413 0.10430330038070679 -0.02752399444580078 -7.052964378662627e-21 -1.050081491470337 1 True True
533.716 3.985666275024414 -1.2907411617091675 1.5676406065570276 -1.8476973972716273 -1.570784870778219 2.414992332458496 -1.0443689823150635 -0.08011572062969208 0.10356344282627106 -0.01996348425745964 -1.0713473266164313e-39 -1.0447195768356323 1 True True
533.766 3.9334468841552734 -1.2945441168597718 1.572775665913717 -1.8488007984557093 -1.570813004170553 2.362534284591675 -1.0536638498306274 -0.07648728042840958 0.09992744028568268 -0.02547256089746952 -0.0 -1.038665771484375 1 True True
533.816 3.8810837268829346 -1.2983430486968537 1.5776856581317347 -1.8499332867064417 -1.5707972685443323 2.3102009296417236 -1.0430971384048462 -0.07612062990665436 0.09887238591909409 -0.025934264063835144 -0.0 -1.0553488731384277 1 True True
533.866 3.8285889625549316 -1.3022818726352234 1.5826271216021937 -1.8512140713133753 -1.5707648436175745 2.2579469680786133 -1.0430243015289307 -0.07662059366703033 0.10412103682756424 -0.019526490941643715 -0.0 -1.046765685081482 1 True True
533.9159999999999 3.776365041732788 -1.3060440582088013 1.5876763502704065 -1.852450510064596 -1.5708492437945765 2.205514907836914 -1.0507116317749023 -0.07669269293546677 0.09997909516096115 -0.024356761947274208 -0.0 -1.0419752597808838 1 True True
533.966 3.7238786220550537 -1.3098165553859253 1.5926173369037073 -1.8537026844420375 -1.570780102406637 2.152973175048828 -1.0433766841888428 -0.07416300475597382 0.09936026483774185 -0.02979840338230133 -0.0 -1.0482298135757446 1 True True
534.016 3.6715738773345947 -1.313691423540451 1.597736660634176 -1.8549000225462855 -1.5708373228656214 2.1008498668670654 -1.046528697013855 -0.07659835368394852 0.09963873028755188 -0.021090596914291382 -0.0 -1.0494303703308105 1 True True
534.066 3.619277238845825 -1.3175388735583802 1.6028359572040003 -1.8560720882811488 -1.5707925001727503 2.0484018325805664 -1.0510379076004028 -0.076273113489151 0.10057983547449112 -0.02463626116514206 -0.0 -1.0439866781234741 1 True True
534.116 3.5667927265167236 -1.3212252718261261 1.6077778975116175 -1.8572656116881312 -1.570723835621969 1.9959701299667358 -1.0433212518692017 -0.0755835771560669 0.0980549231171608 -0.029416343197226524 -0.0 -1.0557007789611816 1 True True
534.1659999999999 3.5144879817962646 -1.3251154881766816 1.6127484480487269 -1.858394285241598 -1.5707929770099085 1.9437979459762573 -1.0464109182357788 -0.07666651904582977 0.10059426724910736 -0.021972693502902985 -0.0 -1.048177719116211 1 True True
534.216 3.462233781814575 -1.3289021861604233 1.6177714506732386 -1.8596545658507289 -1.5708449522601526 1.891344666481018 -1.0506771802902222 -0.0799238532781601 0.10530944168567657 -0.02383391000330448 -0.0 -1.043984293937683 1 True True
534.266 3.4097678661346436 -1.3327146780541916 1.6226733366595667 -1.8610059223570765 -1.570801083241598 1.838894248008728 -1.0473017692565918 -0.07801546901464462 0.10426541417837143 -0.022866232320666313 -0.0 -1.0460283756256104 1 True True
534.316 3.3573334217071533 -1.336539701824524 1.627817455922262 -1.8621756039061488 -1.570829216633932 1.7865842580795288 -1.0423099994659424 -0.07831504195928574 0.10122840851545334 -0.025038985535502434 -0.0 -1.04771089553833 1 True True
534.366 3.3050670623779297 -1.3403072965196152 1.6329496542560022 -1.8632847271361292 -1.5708168188678187 1.734264612197876 -1.0519232749938965 -0.07335037738084793 0.09891150891780853 -0.022691290825605392 -0.0 -1.0424376726150513 1 True True
534.4159999999999 3.2530152797698975 -1.344132126574852 1.6379230658160608 -1.8645440540709437 -1.5708168188678187 1.6821898221969604 -1.0172667503356934 -0.07326783984899521 0.09479949623346329 -0.023737270385026932 -0.0 -1.0184316635131836 1 True True
534.466 3.2040116786956787 -1.3477287006429215 1.642510239277975 -1.8656336269774378 -1.5708087126361292 1.6332886219024658 -0.9503151178359985 -0.06870605796575546 0.08894331008195877 -0.023296989500522614 6.743361882399768e-05 -0.9463934302330017 1 True True
534.516 3.158547878265381 -1.3510779005340119 1.6469600836383265 -1.8666402302184046 -1.5707648436175745 1.5876647233963013 -0.8794437646865845 -0.06270983815193176 0.08360817283391953 -0.01997235417366028 0.0001809546520235017 -0.87632817029953 1 True True
534.566 3.1164300441741943 -1.354022578602173 1.650933567677633 -1.8678370914854945 -1.5708368460284632 1.5456745624542236 -0.8103249669075012 -0.05747734755277634 0.07688959687948227 -0.021341614425182343 -7.128337165340781e-05 -0.8095375299453735 1 True True
534.616 3.077866792678833 -1.3568594318679352 1.6545351187335413 -1.8686233959593714 -1.570772949849264 1.5071581602096558 -0.7369797229766846 -0.05548889935016632 0.0703260749578476 -0.01715504378080368 -2.0566907628415927e-22 -0.7413960099220276 1 True True
534.6659999999999 3.0429296493530273 -1.359409512286522 1.6580126921283167 -1.8693152866759242 -1.5707772413836878 1.4719982147216797 -0.6663901209831238 -0.048158276826143265 0.06907375901937485 -0.014996216632425785 -3.124054796365747e-41 -0.6698552966117859 1 True True
534.716 3.0111489295959473 -1.3617648792317887 1.6610568205462855 -1.8700505695738734 -1.5707319418536585 1.440384864807129 -0.5932643413543701 -0.0465051531791687 0.05750763416290283 -0.011836841702461243 2.133953694174853e-19 -0.6022279858589172 1 True True
534.766 2.9831950664520264 -1.363792137508728 1.6637819449054163 -1.8706866703429164 -1.5707610289203089 1.4123507738113403 -0.525435209274292 -0.038578350096940994 0.05108294263482094 -0.011943182907998562 6.224310345714912e-05 -0.5308319926261902 1 True True
534.816 2.958646774291992 -1.3656436663917084 1.6662166754352015 -1.871246954003805 -1.5707805792437952 1.387765884399414 -0.45710763335227966 -0.0338110513985157 0.047049541026353836 -0.008264285512268543 1.240274693180071e-17 -0.45837435126304626 1 True True
534.866 2.937408924102783 -1.3670350772193451 1.6680315176593226 -1.8718158207335414 -1.5708168188678187 1.3666293621063232 -0.3847484290599823 -0.028112515807151794 0.03716198727488518 -0.007109747268259525 1.8839802717789124e-36 -0.3880382478237152 1 True True
