Andreas691667/Digital_Twin_UR/src/robot_connection_manager/robot_output/no_faults_robot_output.csv
timestamp actual_q_0 actual_q_1 actual_q_2 actual_q_3 actual_q_4 actual_q_5 actual_qd_0 actual_qd_1 actual_qd_2 actual_qd_3 actual_qd_4 actual_qd_5 safety_status output_bit_register_65 output_bit_register_66
3214.042 3.7120871543884277 -0.8255410355380555 0.8430007139789026 -1.588252683679098 -1.570756737385885 2.141279697418213 0.0 0.0 0.0 -0.0 0.0 0.0 1 False False
3214.0919999999996 3.712099075317383 -0.8254869741252442 0.8429973761187952 -1.5883413753905238 -1.5707767645465296 2.1413087844848633 0.0 0.0 0.0 -0.0 0.0 0.0 1 False False
3214.142 3.7120871543884277 -0.8254497212222596 0.8429802099810999 -1.5882250271239222 -1.5707767645465296 2.141295909881592 0.0 0.0 0.0 -0.0 0.0 0.0 1 False False
3214.192 3.7120373249053955 -0.8255068820765992 0.8429439703570765 -1.588297029534811 -1.570784870778219 2.1413214206695557 0.0 0.0 0.0 -0.0 0.0 0.0 1 False False
3214.2419999999997 3.712071418762207 -0.8255112928203125 0.8429887930499476 -1.588269372979635 -1.570813004170553 2.141291618347168 0.0 0.0 0.0 -0.0 0.0 0.0 1 False False
3214.292 3.712066888809204 -0.825457291012146 0.8430007139789026 -1.588269372979635 -1.5708449522601526 2.141267776489258 0.0 0.0 0.0 -0.0 0.0 0.0 1 False False
3214.3419999999996 3.712071180343628 -0.825454370384552 0.8429763952838343 -1.5882569752135218 -1.570813004170553 2.1412925720214844 0.0 0.0 0.0 -0.0 0.0 0.0 1 False False
3214.392 3.712066888809204 -0.8255112928203125 0.8430307547198694 -1.588292738000387 -1.5707967917071741 2.141279697418213 0.0 0.0 0.0 -0.0 0.0 0.0 1 False False
3214.442 3.712050199508667 -0.8255320352366944 0.8430021444903772 -1.5882851086058558 -1.5708211104022425 2.141275405883789 0.0 0.0 0.0 -0.0 0.0 0.0 1 False False
3214.4919999999997 3.712104082107544 -0.8254823845675965 0.8429845015155237 -1.5882889233031214 -1.5707529226886194 2.1412882804870605 0.0 0.0 0.0 -0.0 0.0 0.0 1 False False
3214.542 3.712012767791748 -0.8255366247943421 0.8429978529559534 -1.5883289776244105 -1.570801083241598 2.141287088394165 0.0 0.0 0.0 -0.0 0.0 0.0 1 False False
3214.5919999999996 3.7120742797851562 -0.8255171340755005 0.8429802099810999 -1.5882774792113246 -1.5708254019366663 2.141230583190918 0.0 0.0 0.0 -0.0 0.0 0.0 1 False False
3214.642 3.7120490074157715 -0.8254572314075013 0.8430007139789026 -1.5883246860899867 -1.570813004170553 2.1413049697875977 0.0 0.0 0.0 -0.0 0.0 0.0 1 False False
3214.692 3.7120368480682373 -0.8255171936801453 0.8429563681231897 -1.5882817707457484 -1.5708335081683558 2.141278028488159 0.0 0.0 0.0 -0.0 0.0 0.0 1 False False
3214.7419999999997 3.7120742797851562 -0.8254779738238831 0.8429978529559534 -1.588245531121725 -1.570824925099508 2.1413004398345947 0.0 0.0 0.0 -0.0 0.0 0.0 1 False False
3214.792 3.7120935916900635 -0.8254823845675965 0.8429630438434046 -1.5882889233031214 -1.5708087126361292 2.141296148300171 0.0 0.0 0.0 -0.0 0.0 0.0 1 False False
3214.8419999999996 3.7120862007141113 -0.825533465748169 0.8430054823504847 -1.5882889233031214 -1.5707891623126429 2.1412723064422607 0.0 0.0 0.0 -0.0 0.0 0.0 1 False False
3214.892 3.712066888809204 -0.8254869741252442 0.8429935614215296 -1.5883127651610316 -1.570813004170553 2.141267776489258 0.0 0.0 0.0 -0.0 0.0 0.0 1 False False
3214.942 3.7121026515960693 -0.8255157035640259 0.8429673353778284 -1.588308950463766 -1.5708087126361292 2.141267776489258 0.0 0.0 0.0 -0.0 0.0 0.0 1 False False
3214.9919999999997 3.712104082107544 -0.8254616421512146 0.8429630438434046 -1.588297029534811 -1.5708044211017054 2.141279697418213 0.0 0.0 0.0 -0.0 0.0 0.0 1 False False
3215.042 3.7120490074157715 -0.8254706424525757 0.8429763952838343 -1.5883094273009242 -1.5708211104022425 2.14131760597229 0.0 0.0 0.0 -0.0 0.0 0.0 1 False False
3215.0919999999996 3.7121026515960693 -0.825524703865387 0.8429673353778284 -1.5883294544615687 -1.570768181477682 2.141249895095825 0.0 0.0 0.0 -0.0 0.0 0.0 1 False False
3215.142 3.7120487689971924 -0.8255128425410767 0.8429301420794886 -1.5882932148375453 -1.570813004170553 2.141230583190918 0.0 0.0 0.0 -0.0 0.0 0.0 1 False False
3215.192 3.712062358856201 -0.8255084317973633 0.8429563681231897 -1.588320871392721 -1.5707929770099085 2.141287088394165 0.0 0.0 0.0 -0.0 0.0 0.0 1 False False
3215.2419999999997 3.7120935916900635 -0.8255203527263184 0.8429563681231897 -1.588313718835348 -1.5707405249225062 2.14131760597229 0.0 0.0 0.0 -0.0 0.0 0.0 1 False False
3215.292 3.712033748626709 -0.8254779142192383 0.8429763952838343 -1.5882846317686976 -1.570756737385885 2.141254186630249 0.0 0.0 0.0 -0.0 0.0 0.0 1 False False
3215.3419999999996 3.7121071815490723 -0.8254779142192383 0.8429892698871058 -1.5883375606932582 -1.5708168188678187 2.141279697418213 0.0 0.0 0.0 -0.0 0.0 0.0 1 False False
3215.392 3.712078809738159 -0.8255084317973633 0.8429935614215296 -1.5883289776244105 -1.570784870778219 2.141254186630249 0.0 0.0 0.0 -0.0 0.0 0.0 1 False False
3215.442 3.712087631225586 -0.8254794639400025 0.8429811636554163 -1.5882774792113246 -1.5708211104022425 2.141279697418213 0.0 0.0 0.0 -0.0 0.0 0.0 1 False False
3215.4919999999997 3.7120907306671143 -0.8254994314960022 0.8429630438434046 -1.5883094273009242 -1.5707686583148401 2.141313076019287 0.0 0.0 0.0 -0.0 0.0 0.0 1 False False
3215.542 3.7120862007141113 -0.8255202931216736 0.8430097738849085 -1.5883294544615687 -1.570829216633932 2.141282558441162 0.0 0.0 0.0 -0.0 0.0 0.0 1 False False
3215.5919999999996 3.7120652198791504 -0.8254913848689576 0.8429678122149866 -1.5883170566954554 -1.5707886854754847 2.1413040161132812 0.0 0.0 0.0 -0.0 0.0 0.0 1 False False
3215.642 3.712029218673706 -0.8254869741252442 0.8429678122149866 -1.5882331333556117 -1.5707886854754847 2.141278028488159 0.0 0.0 0.0 -0.0 0.0 0.0 1 False False
3215.692 3.712132692337036 -0.825442449455597 0.8429935614215296 -1.588252683679098 -1.570813004170553 2.141300678253174 0.0 0.0 0.0 -0.0 0.0 0.0 1 False False
3215.7419999999997 3.7120368480682373 -0.8254542511752625 0.8429845015155237 -1.5883499584593714 -1.5707724730121058 2.141313076019287 0.0 0.0 0.0 -0.0 0.0 0.0 1 False False
3215.792 3.7120249271392822 -0.8254779738238831 0.8429515997516077 -1.5883170566954554 -1.5707925001727503 2.1413004398345947 0.0 0.0 0.0 -0.0 0.0 0.0 1 False False
3215.8419999999996 3.7120862007141113 -0.8254823845675965 0.8429649511920374 -1.5882889233031214 -1.5708335081683558 2.141338348388672 0.0 0.0 0.0 -0.0 0.0 0.0 1 False False
3215.892 3.71205472946167 -0.8254543107799073 0.8429721037494105 -1.5883494816222132 -1.5707967917071741 2.141279697418213 0.0 0.0 0.0 -0.0 0.0 0.0 1 False False
3215.942 3.7120907306671143 -0.8254319590381165 0.8429721037494105 -1.5882650814452113 -1.5707805792437952 2.14131760597229 0.0 0.0 0.0 -0.0 0.0 0.0 1 False False
3215.9919999999997 3.712087631225586 -0.8255157631686707 0.8429515997516077 -1.5883251629271449 -1.5707967917071741 2.141308546066284 0.0 0.0 0.0 -0.0 0.0 0.0 1 False False
3216.042 3.712083101272583 -0.825428919201233 0.8430007139789026 -1.5882731876769007 -1.5707605520831507 2.141270637512207 0.0 0.0 0.0 -0.0 0.0 0.0 1 False False
3216.0919999999996 3.712108612060547 -0.8255128425410767 0.8429887930499476 -1.588320871392721 -1.5707724730121058 2.141329526901245 0.0 0.0 0.0 -0.0 0.0 0.0 1 False False
3216.142 3.712066888809204 -0.825466052894928 0.8430007139789026 -1.588269372979635 -1.570772949849264 2.141326665878296 0.0 0.0 0.0 -0.0 0.0 0.0 1 False False
3216.192 3.712111473083496 -0.8254869741252442 0.8429353872882288 -1.5883127651610316 -1.5708048979388636 2.141313076019287 0.0 0.0 0.0 -0.0 0.0 0.0 1 False False
3216.2419999999997 3.712071180343628 -0.825440840130188 0.8430050055133265 -1.5882731876769007 -1.5708091894732874 2.1412765979766846 0.0 0.0 0.0 -0.0 0.0 0.0 1 False False
3216.292 3.712050199508667 -0.8254690927318116 0.8429721037494105 -1.5882932148375453 -1.5707925001727503 2.141279697418213 0.0 0.0 0.0 -0.0 0.0 0.0 1 False False
3216.3419999999996 3.7120697498321533 -0.8255202931216736 0.8429845015155237 -1.5882898769774378 -1.570756737385885 2.141242504119873 0.0 0.0 0.0 -0.0 0.0 0.0 1 False False
3216.392 3.7120654582977295 -0.8255247634700318 0.8429396788226526 -1.5882889233031214 -1.5707486311541956 2.141326665878296 0.0 0.0 0.0 -0.0 0.0 0.0 1 False False
3216.442 3.712045669555664 -0.825463132267334 0.8429721037494105 -1.5882817707457484 -1.5707405249225062 2.1413004398345947 0.0 0.0 0.0 -0.0 0.0 0.0 1 False False
3216.4919999999997 3.7120907306671143 -0.8255188030055542 0.8429520765887659 -1.588297029534811 -1.5708168188678187 2.1412885189056396 0.0 0.0 0.0 -0.0 0.0 0.0 1 False False
3216.542 3.7120492458343506 -0.8254497212222596 0.8429887930499476 -1.5883127651610316 -1.5707767645465296 2.14127516746521 0.0 0.0 0.0 -0.0 0.0 0.0 1 False False
3216.5919999999996 3.7120699882507324 -0.825524703865387 0.8429563681231897 -1.5882774792113246 -1.570784870778219 2.141279697418213 0.0 0.0 0.0 -0.0 0.0 0.0 1 False False
3216.642 3.712029457092285 -0.8254453104785462 0.8429964224444788 -1.5882846317686976 -1.5708087126361292 2.141270637512207 0.0 0.0 0.0 -0.0 0.0 0.0 1 False False
3216.692 3.7120862007141113 -0.825454370384552 0.8429964224444788 -1.5882932148375453 -1.5708168188678187 2.1412723064422607 0.0 0.0 0.0 -0.0 0.0 0.0 1 False False
3216.7419999999997 3.7120862007141113 -0.8254869741252442 0.8429649511920374 -1.588313718835348 -1.5707925001727503 2.141313076019287 0.0 0.0 0.0 -0.0 0.0 0.0 1 False False
3216.792 3.7120370864868164 -0.8254913848689576 0.8429887930499476 -1.5882889233031214 -1.5707691351519983 2.141313076019287 0.0 0.0 0.0 -0.0 0.0 0.0 1 False False
3216.8419999999996 3.7121024131774902 -0.8255366247943421 0.8429392019854944 -1.5882846317686976 -1.5707767645465296 2.1413140296936035 0.0 0.0 0.0 -0.0 0.0 0.0 1 False False
3216.892 3.7120656967163086 -0.8254779142192383 0.8429563681231897 -1.5882846317686976 -1.570801083241598 2.1413137912750244 0.0 0.0 0.0 -0.0 0.0 0.0 1 False False
3216.942 3.7120580673217773 -0.8255128425410767 0.8429802099810999 -1.5882817707457484 -1.5707929770099085 2.141350507736206 0.0 0.0 0.0 -0.0 0.0 0.0 1 True False
3216.9919999999997 3.712127447128296 -0.825541154747345 0.8429520765887659 -1.5882731876769007 -1.5708211104022425 2.141263484954834 0.0 0.0 0.0 -0.0 0.0 0.0 1 True False
3217.042 3.712106704711914 -0.8255366843989869 0.8429520765887659 -1.5883289776244105 -1.570801083241598 2.141284227371216 0.0 0.0 0.0 -0.0 0.0 0.0 1 True False
3217.0919999999996 3.7120492458343506 -0.8254779738238831 0.8429973761187952 -1.5883251629271449 -1.5708087126361292 2.14131760597229 0.0 0.0 0.0 -0.0 0.0 0.0 1 True False
3217.142 3.712106704711914 -0.8254823845675965 0.8429845015155237 -1.5882731876769007 -1.5708330313311976 2.141296148300171 0.0 0.0 0.0 -0.0 0.0 0.0 1 True False
3217.192 3.7120654582977295 -0.8255320352366944 0.8429515997516077 -1.588245531121725 -1.5707529226886194 2.141296148300171 0.0 0.0 0.0 -0.0 0.0 0.0 1 True False
3217.2419999999997 3.712127447128296 -0.8254949611476441 0.8429887930499476 -1.588292738000387 -1.5707367102252405 2.141258955001831 0.0 0.0 0.0 -0.0 0.0 0.0 1 True False
3217.292 3.71207857131958 -0.8255320352366944 0.8429606596576136 -1.5882336101927699 -1.570829216633932 2.141333818435669 0.0 0.0 0.0 -0.0 0.0 0.0 1 True False
3217.3419999999996 3.712094783782959 -0.825466052894928 0.8429473082171839 -1.5882650814452113 -1.570784870778219 2.1411993503570557 0.0 0.0 0.0 -0.0 0.0 0.000255207676673308 1 True False
3217.392 3.7120416164398193 -0.8254958552173157 0.8429721037494105 -1.588229318658346 -1.5707367102252405 2.1412765979766846 0.0 0.0 0.0 -0.0 0.0 -5.901739768887637e-06 1 True False
3217.442 3.7119719982147217 -0.8255203527263184 0.8430007139789026 -1.5882770023741664 -1.5707810560809534 2.1412994861602783 0.0 0.0 0.0 -0.0 0.0 3.691140726402864e-10 1 True False
3217.4919999999997 3.7120537757873535 -0.8255276840976258 0.8429811636554163 -1.5882770023741664 -1.5708373228656214 2.14123797416687 0.0 0.0 0.0 -0.0 0.0 1.9412363426798973e-13 1 True False
3217.542 3.7123334407806396 -0.8256799739650269 0.8432462851153772 -1.5883738003172816 -1.5708649794207972 2.141528367996216 0.02606409415602684 -0.015318579040467739 0.02192959375679493 -0.007762628141790628 0.0 0.031956788152456284 1 True False
3217.5919999999996 3.715702772140503 -0.8271612685969849 0.8454569021808069 -1.5891906223692835 -1.5708048979388636 2.1448991298675537 0.09802994132041931 -0.04643300175666809 0.07876921445131302 -0.026655036956071854 0.0 0.0969591736793518 1 True False
3217.642 3.7225289344787598 -0.8304698032191773 0.8510125319110315 -1.5910412273802699 -1.5707767645465296 2.1516408920288086 0.16811567544937134 -0.08570089191198349 0.13322442770004272 -0.048120107501745224 0.0 0.16623936593532562 1 True False
3217.692 3.7326817512512207 -0.8359572452357789 0.858868424092428 -1.5936995945372523 -1.5707967917071741 2.161853790283203 0.23986750841140747 -0.12697087228298187 0.18318584561347961 -0.05326353386044502 6.070242670830339e-05 0.23174221813678741 1 True False
3217.7419999999997 3.7465052604675293 -0.8429965537837525 0.8696015516864222 -1.5972210369505824 -1.5707691351519983 2.175516128540039 0.30658820271492004 -0.15635742247104645 0.2427835911512375 -0.08416135609149933 3.743271008715965e-07 0.31026315689086914 1 True False
3217.792 3.7635116577148438 -0.8519658011249085 0.8830941359149378 -1.6018578014769496 -1.5707610289203089 2.192786693572998 0.37846097350120544 -0.19461950659751892 0.2920304238796234 -0.0943089947104454 5.686035449123189e-26 0.37297865748405457 1 True False
3217.8419999999996 3.784379243850708 -0.8624645632556458 0.8990853468524378 -1.6073771915831507 -1.5707691351519983 2.213435173034668 0.44735297560691833 -0.23119762539863586 0.3486271798610687 -0.11739177256822586 8.407790785948902e-45 0.4508097171783447 1 True False
3217.892 3.8085193634033203 -0.8748799127391358 0.9180110136615198 -1.6137172184386195 -1.5708330313311976 2.237572431564331 0.5186066627502441 -0.2603793442249298 0.40038445591926575 -0.14090488851070404 4.79057626900925e-11 0.5251821875572205 1 True False
3217.942 3.8360488414764404 -0.8891210120967408 0.9393180052386683 -1.6211372814574183 -1.5707767645465296 2.265315532684326 0.5811306238174438 -0.3045216500759125 0.45725345611572266 -0.16193628311157227 1.8896147667424312e-12 0.5848823189735413 1 True False
3217.9919999999997 3.8673202991485596 -0.9050989908031006 0.9636076132403772 -1.6292783222594203 -1.5707967917071741 2.296477794647217 0.6507704257965088 -0.3351520895957947 0.5075454115867615 -0.174350306391716 -0.00011841404193546623 0.6531052589416504 1 True False
3218.042 3.901937246322632 -0.9227774304202576 0.9904635588275355 -1.6383587322630824 -1.5708168188678187 2.3310487270355225 0.7215978503227234 -0.37073472142219543 0.5692229866981506 -0.18569768965244293 -0.00010610902972985059 0.7271006107330322 1 True False
3218.0919999999996 3.940119743347168 -0.9424236577800293 1.020123306904928 -1.6485372982420863 -1.5707648436175745 2.369276523590088 0.795732319355011 -0.408735454082489 0.6147056221961975 -0.22133302688598633 -3.0400440664379857e-05 0.8023641705513 1 True False
3218.142 3.9817800521850586 -0.9637088936618348 1.0525677839862269 -1.6594840488829554 -1.570801083241598 2.4110004901885986 0.8731024861335754 -0.4358818531036377 0.6775835156440735 -0.22414255142211914 0.0002688868553377688 0.8664308190345764 1 True False
3218.192 4.026871681213379 -0.9868510526469727 1.0874064604388636 -1.6714111767210902 -1.5707925001727503 2.455893039703369 0.9282686710357666 -0.47905874252319336 0.72543865442276 -0.24892954528331757 4.6891036720574334e-18 0.9331458210945129 1 True False
3218.2419999999997 4.075453281402588 -1.0118590754321595 1.125261131917135 -1.6842404804625453 -1.5707767645465296 2.5047316551208496 1.0112507343292236 -0.5190961360931396 0.7805473208427429 -0.26950982213020325 7.1227588399362554e-37 1.0066100358963013 1 True False
3218.442 4.28430700302124 -1.1188285511783143 1.28740102449526 -1.739411016503805 -1.570784870778219 2.713371753692627 1.043485164642334 -0.5379853844642639 0.8189151287078857 -0.27725785970687866 2.864540896152512e-11 1.0561631917953491 1 True False
3218.4919999999997 4.336742877960205 -1.1457758706859131 1.3281005064593714 -1.7532960377135218 -1.5708449522601526 2.7658870220184326 1.0451081991195679 -0.5396228432655334 0.8155295252799988 -0.26718869805336 1.2539014733192744e-06 1.034556269645691 1 True False
3218.542 4.389072418212891 -1.1725877088359375 1.3686602751361292 -1.7670237026610316 -1.5707891623126429 2.8183422088623047 1.0537381172180176 -0.537192702293396 0.8145477175712585 -0.2756788730621338 0.0001723274472169578 1.0496481657028198 1 True False
3218.5919999999996 4.440821170806885 -1.1989465814879914 1.4087165037738245 -1.7807375393309535 -1.5707891623126429 2.870033025741577 1.0050452947616577 -0.5167292356491089 0.7782278656959534 -0.27941036224365234 1.5582781998091377e-05 1.0119353532791138 1 True False
3218.642 4.489272117614746 -1.2239037615111847 1.4466756025897425 -1.7934805355467738 -1.5708168188678187 2.9186840057373047 0.9388819932937622 -0.478096604347229 0.7253537178039551 -0.26364627480506897 -3.333317788456469e-10 0.9335233569145203 1 True False
3218.692 4.534239768981934 -1.2470085483840485 1.4815309683429163 -1.8053084812560023 -1.5707767645465296 2.9633655548095703 0.8666067719459534 -0.44797343015670776 0.6770979166030884 -0.21812978386878967 -1.9427697232479382e-16 0.8799892663955688 1 True False
3218.7419999999997 4.575693130493164 -1.2682893139174958 1.5136221090899866 -1.8164259395995082 -1.5707767645465296 3.0051236152648926 0.7983680367469788 -0.4113706946372986 0.617587685585022 -0.20147570967674255 -2.9510713930912154e-35 0.7936280965805054 1 True False
3218.792 4.613842010498047 -1.2878183287433167 1.5432174841510218 -1.8262893162169398 -1.5707767645465296 3.0431556701660156 0.724700927734375 -0.3758126497268677 0.5636194348335266 -0.19632211327552795 1.9069636553340288e-16 0.71957927942276 1 True False
3218.8419999999996 4.648307800292969 -1.3053999704173584 1.5700748602496546 -1.8354326687254847 -1.5708368460284632 3.0776102542877197 0.6538122296333313 -0.33855941891670227 0.5116461515426636 -0.1799163669347763 -0.00032978630042634904 0.6506453156471252 1 True False
3218.892 4.679285049438477 -1.3213790369084855 1.5939191023456019 -1.8437382183470667 -1.570796314870016 3.1086862087249756 0.5832029581069946 -0.29765093326568604 0.45479726791381836 -0.15182098746299744 -0.00114628323353827 0.5805496573448181 1 True False
3218.942 4.706779956817627 -1.3353301000646134 1.6155222097979944 -1.8508383236327113 -1.5707967917071741 3.1362228393554688 0.5144911408424377 -0.2619873285293579 0.39925727248191833 -0.1430390626192093 2.1536843419767138e-09 0.512432336807251 1 True False
3218.9919999999997 4.730967998504639 -1.3478798282197495 1.6341155211078089 -1.8572536907591761 -1.5708406607257288 3.1602747440338135 0.4453844428062439 -0.2255549430847168 0.34871265292167664 -0.11248721927404404 4.073240779689513e-05 0.44677847623825073 1 True False
3219.042 4.751623630523682 -1.3583716762116929 1.650078598652975 -1.862727781335348 -1.5707891623126429 3.1807541847229004 0.375370591878891 -0.20040415227413177 0.28838133811950684 -0.10057487338781357 -2.415934646619617e-14 0.38419514894485474 1 True False
3219.0919999999996 4.768699645996094 -1.3670947414687653 1.6634796301471155 -1.867077489892477 -1.5707686583148401 3.197929859161377 0.3086453676223755 -0.15729811787605286 0.24235977232456207 -0.07792959362268448 7.313063429167425e-17 0.3022032082080841 1 True False
3219.142 4.782190322875977 -1.3740894061378022 1.6739442984210413 -1.870786806146139 -1.570801083241598 3.2114498615264893 0.23887018859386444 -0.12401217967271805 0.18098406493663788 -0.062209468334913254 -6.821319402661175e-05 0.24484683573246002 1 True False
3219.192 4.7922892570495605 -1.3791716408780594 1.6817806402789515 -1.87339510540151 -1.5708373228656214 3.2215750217437744 0.17403312027454376 -0.08477388322353363 0.12964704632759094 -0.03877734765410423 5.845669233040908e-20 0.17013679444789886 1 True False
3219.2419999999997 4.799012660980225 -1.3826597940972825 1.6868680159198206 -1.875322004357809 -1.5707967917071741 3.2281999588012695 0.09786641597747803 -0.05060531571507454 0.07817420363426208 -0.024251410737633705 8.879585558111639e-39 0.09463147819042206 1 True False
3219.292 4.8020920753479 -1.3841854941895981 1.689319912587301 -1.8759857616820277 -1.5707767645465296 3.231297016143799 0.028526263311505318 -0.01578691229224205 0.0207353588193655 -0.0050659687258303165 0.0 0.030090492218732834 1 True False
3219.3419999999996 4.8022308349609375 -1.3840807241252442 1.6899989287005823 -1.8767711124815882 -1.5707648436175745 3.2314584255218506 -0.00017690230743028224 0.013688191771507263 0.029419520869851112 -0.03336980938911438 3.9214810954035784e-07 -1.3989129299396552e-11 1 True False
3219.392 4.802250862121582 -1.382823185329773 1.6925395170794886 -1.8806005916991175 -1.5708254019366663 3.2315282821655273 0.0002364689571550116 0.04049341753125191 0.07137663662433624 -0.1118645966053009 5.95673615023769e-26 0.00040014865226112306 1 True False
3219.442 4.80226993560791 -1.3801945012858887 1.6972759405719202 -1.8878609142699183 -1.5708006064044397 3.2315120697021484 0.0002798920904751867 0.07088600099086761 0.11372706294059753 -0.1746118813753128 -2.578790940788167e-07 0.00036390364402905107 1 True False
3219.4919999999997 4.802351951599121 -1.3759852063706894 1.7041485945331019 -1.898830076257223 -1.570813004170553 3.2315359115600586 0.0013081599026918411 0.09355488419532776 0.15716171264648438 -0.2539301812648773 -3.9171895895296245e-26 0.00023769796825945377 1 True False
3219.542 4.802350997924805 -1.3707916748574753 1.7130854765521448 -1.9131857357420863 -1.5707805792437952 3.2315402030944824 0.000382476020604372 0.11954386532306671 0.20570845901966095 -0.3185504972934723 -5.605193857299268e-45 0.00010271625069435686 1 True False
3219.5919999999996 4.802364349365234 -1.3642493349364777 1.7243664900409144 -1.9309684238829554 -1.5707805792437952 3.231515407562256 0.00015450794307980686 0.1439812183380127 0.2462979257106781 -0.3897680938243866 -0.0 7.84743097028695e-05 1 True False
3219.642 4.802338600158691 -1.3563476663878937 1.7380383650409144 -1.9521900616087855 -1.5708087126361292 3.2315022945404053 0.00010519113129703328 0.17086094617843628 0.2849827706813812 -0.459289014339447 -0.0 1.3869532722310396e-07 1 True False
3219.692 4.802362442016602 -1.3472231191447754 1.7535613218890589 -1.9771272144713343 -1.5708087126361292 3.2315640449523926 8.48151757963933e-05 0.19492687284946442 0.3403129279613495 -0.5237201452255249 -0.0 2.1067853972984903e-26 1 True False
3219.7419999999997 4.8023834228515625 -1.3370127093843003 1.7711156050311487 -2.0047503910460414 -1.5707925001727503 3.23154354095459 6.418988050427288e-05 0.1972471922636032 0.3419910967350006 -0.5372915863990784 -0.0 2.802596928649634e-45 1 True False
3219.792 4.802330017089844 -1.3278827530196686 1.7869680563556116 -2.030016084710592 -1.570784870778219 3.2315196990966797 5.3017523896414787e-05 0.17756913602352142 0.29889386892318726 -0.47280755639076233 -0.0 0.0 1 True False
3219.8419999999996 4.802364349365234 -1.3198906642249604 1.8007343451129358 -2.0517922840514125 -1.5708373228656214 3.231539011001587 4.582375549944118e-05 0.1492786705493927 0.2516147494316101 -0.40620070695877075 -0.0 0.0 1 True False
3219.892 4.802364349365234 -1.3130676013282319 1.8122976461993616 -2.0700236759581507 -1.5707772413836878 3.231499195098877 3.217317134840414e-05 0.11981462687253952 0.2109021693468094 -0.34252995252609253 -0.0 0.0 1 True False
3219.942 4.802309036254883 -1.307667390709259 1.821791950856344 -2.0849057636656703 -1.5707925001727503 3.2315564155578613 6.005965218096166e-42 0.0934024453163147 0.16985630989074707 -0.26490798592567444 -0.0 0.0 1 True False
3219.9919999999997 4.802338600158691 -1.3035973769477387 1.8288400808917444 -2.09623446087026 -1.5707767645465296 3.2315726280212402 -2.4095927757740856e-27 0.070207379758358 0.1193540021777153 -0.19466303288936615 -0.0 2.2810981192833424e-07 1 True False
3220.042 4.802260398864746 -1.3005875510028382 1.833827320729391 -2.103994985620016 -1.5708254019366663 3.2315316200256348 0.0 0.04668194800615311 0.07979299873113632 -0.12967810034751892 -0.0 3.4649929482415634e-26 1 True False
3220.0919999999996 4.802346706390381 -1.2990267735770722 1.8364809195147913 -2.1082354984679164 -1.5707891623126429 3.2315433025360107 0.0 0.021177945658564568 0.03493475168943405 -0.051904574036598206 -0.0 5.605193857299268e-45 1 True False
3220.142 4.802346706390381 -1.2988387209228058 1.8370955626117151 -2.1092645130553187 -1.570772949849264 3.2315328121185303 0.0 6.102071438363055e-06 4.5382998905552085e-06 0.000811760313808918 -0.0 0.0 1 True False
3220.192 4.802358150482178 -1.298723892574646 1.8371227423297327 -2.109224935571188 -1.570784870778219 3.2315478324890137 0.0 -5.0201551736499505e-29 1.0679091388196822e-35 9.132434206549078e-05 -0.0 0.0 1 True False
3220.2419999999997 4.802330017089844 -1.2987855535796662 1.8371227423297327 -2.1093045673766078 -1.5707772413836878 3.2315359115600586 0.0 7.032611028989777e-05 0.0001927220291690901 -0.00022371522209141403 -0.0 0.0 1 True False
3220.292 4.802358150482178 -1.2987530690482636 1.8371270338641565 -2.1092525921263636 -1.5708373228656214 3.2315328121185303 0.0 0.00012770794273819774 0.0005467237788252532 -0.00013720513379666954 -0.0 0.0 1 True False
3220.3419999999996 4.802346706390381 -1.2987868052772065 1.8372038046466272 -2.109293123284811 -1.570801083241598 3.2315433025360107 0.0 0.000382282305508852 0.0004019194166176021 -0.0003337160451337695 -0.0 0.0 1 True False
3220.392 4.802346706390381 -1.2987424296191712 1.837170426045553 -2.1093207798399867 -1.570784870778219 3.2315404415130615 0.0 0.00023113351198844612 0.00016590682207606733 -0.00021594215650111437 -0.0 0.0 1 True False
3220.442 4.802313804626465 -1.29867239416156 1.837182346974508 -2.10929598430776 -1.5707929770099085 3.231477975845337 0.0 0.000111299981654156 0.00010947042028419673 -0.0001268016785616055 -0.0 0.0 1 True False
3220.4919999999997 4.802334308624268 -1.2986430090716858 1.8372085730182093 -2.1093322239317835 -1.570772949849264 3.2315492630004883 0.0 9.628443513065577e-05 8.721964695723727e-05 -9.640381176723167e-05 -0.0 0.0 1 True False
3220.542 4.802371025085449 -1.2987629634192963 1.8372085730182093 -2.1093207798399867 -1.570784870778219 3.2315313816070557 0.0 7.781677413731813e-05 5.664464540707986e-25 -5.638758557302559e-12 -0.0 0.0 1 True False
3220.5919999999996 4.8023834228515625 -1.2987178725055237 1.8371871153460901 -2.10929598430776 -1.5708168188678187 3.231527090072632 0.0 7.606144936289638e-05 0.0 -8.56528660704063e-31 -0.0 0.0 1 True False
3220.642 4.802342891693115 -1.2987059515765687 1.8372152487384241 -2.109324117700094 -1.5708211104022425 3.2315359115600586 0.0 5.019417585572228e-05 0.0 -0.0 -0.0 0.0 1 True False
3220.692 4.802371025085449 -1.2986973089030762 1.8371952215777796 -2.10929598430776 -1.5707367102252405 3.23152232170105 0.0 4.533261380856857e-05 4.995873041480081e-06 -1.6694658597771195e-06 -0.0 0.0 1 True False
3220.7419999999997 4.802298545837402 -1.2987444561770936 1.8370626608477991 -2.1094681225218714 -1.5707810560809534 3.2316064834594727 -2.503224812109964e-30 0.00040581991197541356 -0.00034932501148432493 -0.0008535476517863572 0.0018831681227311492 0.0 1 True False
3220.792 4.8023834228515625 -1.2987210911563416 1.8371108214007776 -2.10943140606069 -1.5707891623126429 3.231538772583008 0.0 0.00012546643847599626 -7.126163109205663e-05 -0.000128674553707242 3.647629716869541e-22 0.0 1 True False
3220.8419999999996 4.802375316619873 -1.2987855535796662 1.8371003309832972 -2.109335561791891 -1.5708048979388636 3.231527090072632 0.0 -0.0063913846388459206 -0.007148766424506903 0.020352313295006752 5.540734127940327e-41 0.0 1 True True
3220.892 4.802363872528076 -1.2992826265147706 1.8360546270953577 -2.1067615948119105 -1.5707967917071741 3.2315685749053955 0.0 -0.028127923607826233 -0.052031051367521286 0.07135995477437973 0.0 0.0 1 True True
3220.942 4.802319049835205 -1.3015214067748566 1.8321707884417933 -2.100999494592184 -1.570801083241598 3.2315523624420166 0.0 -0.05759960040450096 -0.09268411248922348 0.16625253856182098 0.0 0.0 1 True True
3220.9919999999997 4.8023681640625 -1.3051635187915345 1.8260791937457483 -2.0916344128050746 -1.570829216633932 3.2315523624420166 0.0 -0.0847473070025444 -0.14332309365272522 0.21238590776920319 0.0 0.0 1 True True
3221.042 4.802289962768555 -1.3098275524428864 1.8178461233722132 -2.0787869892516078 -1.5708168188678187 3.231517791748047 0.0 -0.10489414632320404 -0.17837001383304596 0.2914012372493744 0.0 0.0 1 True True
3221.0919999999996 4.802326679229736 -1.315968082552292 1.807370964680807 -2.062446733514303 -1.5707929770099085 3.2315404415130615 0.0 -0.13422487676143646 -0.22841580212116241 0.3603421151638031 0.0 0.0 1 True True
3221.142 4.80239200592041 -1.3231323671391984 1.795007054005758 -2.0425855122008265 -1.570824925099508 3.231505870819092 0.0 -0.16057316958904266 -0.276382178068161 0.42750516533851624 0.0 0.0 1 True True
3221.192 4.80233097076416 -1.3317392629436036 1.7801201979266565 -2.01934876064443 -1.5708487669574183 3.231494188308716 0.0 -0.18635199964046478 -0.3258734345436096 0.4912734925746918 0.0 0.0 1 True True
3221.2419999999997 4.802334308624268 -1.341695786719658 1.76329213777651 -1.9924618206419886 -1.5708006064044397 3.231527090072632 0.0 -0.20653143525123596 -0.35906490683555603 0.5660487413406372 0.0 0.0 1 True True
3221.292 4.802351951599121 -1.3514863413623353 1.7463467756854456 -1.965750356713766 -1.5707929770099085 3.2315523624420166 0.0 -0.18356084823608398 -0.3214699625968933 0.498335063457489 0.0 0.0 1 True True
3221.3419999999996 4.802346706390381 -1.3599314999631424 1.7317989508258265 -1.9425555668272914 -1.5707529226886194 3.2315776348114014 0.0 -0.16105398535728455 -0.2747408449649811 0.4331243634223938 0.0 0.0 1 True True
3221.392 4.802313327789307 -1.3672613960555573 1.7191193739520472 -1.9227615795531214 -1.570829216633932 3.2315478324890137 0.0 -0.13473449647426605 -0.22929221391677856 0.3525767922401428 -1.5775333250868406e-15 0.0 1 True True
3221.642 4.802334308624268 -1.384304628973343 1.6896632353412073 -1.876200338403219 -1.5707810560809534 3.231576681137085 0.0 -0.002060035476461053 -0.00896157044917345 0.012675094418227673 -0.0 0.0 1 True True
3221.692 4.801111221313477 -1.384336994295456 1.6896308104144495 -1.8762408695616664 -1.5707967917071741 3.23038911819458 -0.05430087447166443 -3.217382982256822e-05 1.640019009485627e-09 0.0004601369728334248 -0.0 -0.0586148165166378 1 True True
3221.7419999999997 4.796546459197998 -1.384296031003334 1.689643685017721 -1.8761254749693812 -1.5708006064044397 3.2256879806518555 -0.1302957683801651 -2.1961260666017088e-30 3.859136734393545e-39 0.0012990733375772834 -0.0 -0.12288554012775421 1 True True
3221.792 4.788402557373047 -1.3842960608056565 1.6896474997149866 -1.8760820827879847 -1.5707767645465296 3.217491626739502 -0.19538185000419617 0.0 0.0 0.0004242584982421249 -0.0 -0.19214051961898804 1 True True
3221.8419999999996 4.776789665222168 -1.3843003821424027 1.6896474997149866 -1.8760653934874476 -1.5707572142230433 3.2059571743011475 -0.2687740623950958 0.0 -0.00026740136672742665 0.00015216095198411494 -0.0 -0.27186399698257446 1 True True
3221.892 4.761490345001221 -1.3843009930900116 1.6896393934832972 -1.8760529957213343 -1.570824925099508 3.190760612487793 -0.3318009376525879 0.0 -0.0005822476232424378 9.823618893278763e-05 -0.0003025636833626777 -0.3340601325035095 1 True True
3221.942 4.743008613586426 -1.3842555445483704 1.689599339162008 -1.876089712182516 -1.5708087126361292 3.1722686290740967 -0.40963122248649597 0.0 -0.0016428105300292373 0.00011211603123228997 -1.0007132616173635e-17 -0.4089999198913574 1 True True
3221.9919999999997 4.720905780792236 -1.3842597615769883 1.689512077962057 -1.8760339222350062 -1.570801083241598 3.1500184535980225 -0.4737895429134369 0.00038492376916110516 -0.0011504595167934895 8.171082299668342e-05 7.865916995797306e-05 -0.4668639898300171 1 True True
3222.042 4.695227146148682 -1.38422046721492 1.6894524733172815 -1.876089712182516 -1.570829216633932 3.124423027038574 -0.5430984497070312 0.001239558681845665 -0.0012490085791796446 0.00013086704711895436 -0.0004525301919784397 -0.5404966473579407 1 True True
3222.0919999999996 4.666090965270996 -1.3841639471105118 1.6893881003009241 -1.875993391076559 -1.5708006064044397 3.0952470302581787 -0.6161295175552368 0.001944053336046636 -0.0019014638382941484 0.00037585062091238797 -0.0005270467954687774 -0.6112641096115112 1 True True
3222.142 4.633469581604004 -1.3841418635896225 1.6893327871905726 -1.8759900532164515 -1.570784870778219 3.0627081394195557 -0.6899646520614624 0.002615721430629492 -0.001834908383898437 0.00039491953793913126 -0.0016071536811068654 -0.6843461394309998 1 True True
3222.192 4.597501754760742 -1.3840978753617783 1.6892402807818812 -1.8760024509825648 -1.5708449522601526 3.0265896320343018 -0.7608286738395691 0.0022233296185731888 -0.0022716594394296408 0.0002487681049387902 -0.0020277705043554306 -0.7474690675735474 1 True True
3222.2419999999997 4.558067798614502 -1.3839977842620392 1.6891353766070765 -1.875941892663473 -1.570829216633932 2.9872446060180664 -0.8322187662124634 0.0020049673039466143 -0.0019191927276551723 0.0003846310719382018 -0.0012739470694214106 -0.8214020133018494 1 True True
3222.292 4.514970302581787 -1.3839212667993088 1.6890738646136683 -1.8759504757323207 -1.5707929770099085 2.944190740585327 -0.8897738456726074 0.0009871202055364847 -0.0018209862755611539 0.0007335946429520845 0.0018106616334989667 -0.9026973247528076 1 True True
3222.3419999999996 4.468436241149902 -1.3838055741837998 1.6889241377459925 -1.8759170971312464 -1.5708168188678187 2.897589921951294 -0.967551052570343 0.002080189995467663 -0.0025466331280767918 0.00040300883119925857 0.0001726677146507427 -0.9530247449874878 1 True True
3222.392 4.418274879455566 -1.383777530198433 1.6888535658465784 -1.875939508477682 -1.5708211104022425 2.847562313079834 -1.0285060405731201 0.0010962144006043673 -0.0026123174466192722 0.0015123195480555296 0.00038539632805623114 -1.0411609411239624 1 True True
3222.442 4.366209983825684 -1.3836127084544678 1.6887295881854456 -1.8758985004820765 -1.5707967917071741 2.795414447784424 -1.050492286682129 0.0023107442539185286 -0.0024503031745553017 0.0004056244215462357 7.281630678335205e-05 -1.0447710752487183 1 True True
3222.4919999999997 4.313781261444092 -1.3835328084281464 1.6885727087603968 -1.8758465252318324 -1.5708048979388636 2.7429423332214355 -1.0488636493682861 0.0022761663421988487 -0.0043344260193407536 0.0005073468200862408 0.0002945265150628984 -1.0456156730651855 1 True True
3222.542 4.261362552642822 -1.3834534597447892 1.6885259787188929 -1.8758708439269007 -1.570784870778219 2.6906208992004395 -1.041553258895874 0.0008406001725234091 -0.0009755475330166519 0.0008709801477380097 -1.742766073675739e-07 -1.0563194751739502 1 True True
3222.5919999999996 4.209012031555176 -1.383315996532776 1.6883614698993128 -1.8758985004820765 -1.5708006064044397 2.6383743286132812 -1.051405906677246 0.0024312417954206467 -0.0021203970536589622 0.00021444213052745908 -2.3941564131061722e-15 -1.048613429069519 1 True True
3222.642 4.156682014465332 -1.383233220582344 1.6882670561419886 -1.8758064709105433 -1.5708211104022425 2.5858662128448486 -1.047131061553955 0.003325937082991004 -0.004194684326648712 0.00018313669716008008 0.00021505047334358096 -1.0408087968826294 1 True True
3222.692 4.104182720184326 -1.3831853729537507 1.6882146040545862 -1.8757792911925257 -1.5707772413836878 2.53346848487854 -1.0426403284072876 0.0010923075024038553 -0.0010003217030316591 0.0007522990927100182 0.0003449729410931468 -1.0571982860565186 1 True True
3222.7419999999997 4.051951885223389 -1.3830773693374177 1.688059155141012 -1.8758312664427699 -1.5708168188678187 2.4812655448913574 -1.052095890045166 0.0025180133525282145 -0.002606885274872184 0.0002405926788924262 3.588015928812638e-08 -1.044638752937317 1 True True
3222.792 3.9995713233947754 -1.3829530042460938 1.687939469014303 -1.8758117161192835 -1.5708449522601526 2.4286611080169678 -1.0498921871185303 0.0034803615417331457 -0.0036766664125025272 0.0006724908598698676 3.525521327155237e-16 -1.0427470207214355 1 True True
3222.8419999999996 3.9472405910491943 -1.382901818757393 1.6878436247455042 -1.875711580316061 -1.570784870778219 2.376364231109619 -1.0445092916488647 0.0010350150987505913 -0.000946345622651279 0.0018247117986902595 -6.595568979861355e-09 -1.0539469718933105 1 True True
3222.892 3.8948919773101807 -1.3827776920846482 1.687737290059225 -1.8757029972472132 -1.5707529226886194 2.3241682052612305 -1.0477006435394287 0.00251501495949924 -0.0019538349006325006 1.8125183576245263e-09 2.8176144084568477e-08 -1.0501717329025269 1 True True
3222.942 3.8424808979034424 -1.3826277267983933 1.687582794819967 -1.875723501245016 -1.570772949849264 2.271627187728882 -1.0530425310134888 0.003072279505431652 -0.004310351796448231 3.533951166900806e-05 3.2394052972153182e-15 -1.0433523654937744 1 True True
3222.9919999999997 3.790045976638794 -1.3825813096812745 1.6874883810626429 -1.8757006130614222 -1.5708048979388636 2.219264507293701 -1.042716145515442 0.0011075580259785056 -0.0014590026112273335 0.0010545176919549704 0.0002826540148817003 -1.0503044128417969 1 True True
3223.042 3.7377002239227295 -1.3824673754027863 1.6873777548419397 -1.8755957088866175 -1.5707529226886194 2.1670737266540527 -1.0462312698364258 0.0021353252232074738 -0.0020604131277650595 0.00043393735541030765 -0.00044879099004901946 -1.0463991165161133 1 True True
3223.0919999999996 3.6854898929595947 -1.3824088138392945 1.687244717274801 -1.875620027581686 -1.5708406607257288 2.1145434379577637 -1.0508042573928833 0.0030171338003128767 -0.0031837455462664366 0.0007144285482354462 3.731831950977885e-18 -1.0414844751358032 1 True True
3223.142 3.6331307888031006 -1.3823129397681733 1.6871207396136683 -1.8755799732603968 -1.5707891623126429 2.0621819496154785 -1.0436588525772095 0.0012672338634729385 -0.0019522426882758737 0.001067659817636013 0.0004458446928765625 -1.0484726428985596 1 True True
3223.192 3.580747604370117 -1.382204846744873 1.6870082060443323 -1.87559237102651 -1.5707405249225062 2.0100741386413574 -1.048835277557373 0.0020749769173562527 -0.001584704965353012 0.00042928807670250535 6.131114366203505e-11 -1.0504629611968994 1 True True
3223.2419999999997 3.5283758640289307 -1.382104293709137 1.6868646780597132 -1.8755728207030238 -1.5708168188678187 1.9575330018997192 -1.0489352941513062 0.0024660045746713877 -0.0024850748013705015 0.0004390155372675508 3.24677301932752e-07 -1.0441159009933472 1 True True
3223.292 3.4759140014648438 -1.3820460599711915 1.6867616812335413 -1.8755647144713343 -1.5707529226886194 1.905123233795166 -1.0435363054275513 0.0015561861218884587 -0.00203757849521935 0.0003755073412321508 0.0008148705819621682 -1.050260305404663 1 True True
3223.3419999999996 3.4235994815826416 -1.381900818353035 1.6866491476642054 -1.875557085076803 -1.5707767645465296 1.8528822660446167 -1.0473910570144653 0.0016800519078969955 -0.0022364051546901464 0.0003566085360944271 -0.00013247229799162596 -1.0495091676712036 1 True True
3223.392 3.371262550354004 -1.3818448346904297 1.6865084807025355 -1.875533243218893 -1.5707724730121058 1.8004499673843384 -1.0510871410369873 0.002929198555648327 -0.0038157689850777388 0.00043184898095205426 -0.0012608005199581385 -1.0452102422714233 1 True True
3223.642 3.1114070415496826 -1.3813368541053315 1.6860325972186487 -1.8754497967162074 -1.5708168188678187 1.5405023097991943 -0.9766963720321655 0.0008691996335983276 -0.0021727601997554302 0.0011307579698041081 0.00010749125794973224 -0.9790720343589783 1 True True
3223.692 3.0642294883728027 -1.3813498479178925 1.685887638722555 -1.875413557092184 -1.5708087126361292 1.4934419393539429 -0.9018702507019043 0.0016520365606993437 -0.001696440507657826 0.00022581750818062574 7.219849934863927e-18 -0.9089228510856628 1 True True
3223.7419999999997 3.020725727081299 -1.3811568182757874 1.6858051458941858 -1.8753534756102503 -1.570853058491842 1.4499391317367554 -0.8412692546844482 0.0030111924279481173 -0.002656887285411358 2.744364974205382e-05 0.00010578810179140419 -0.8371943235397339 1 True True
3223.792 2.9806511402130127 -1.3811330658248444 1.6857202688800257 -1.8753062687315882 -1.570772949849264 1.4098451137542725 -0.763372004032135 0.0009422269649803638 -0.0010427754605188966 0.00014471188478637487 -1.9391599437312834e-09 -0.7703143358230591 1 True True
3223.8419999999996 2.944126605987549 -1.3810565036586304 1.6856120268451136 -1.8753382168211878 -1.570801083241598 1.373259425163269 -0.6930976510047913 0.0008838148205541074 -0.0008053638157434762 1.1869004667985905e-09 2.4131174573886966e-19 -0.6988385915756226 1 True True
3223.892 2.910979747772217 -1.3810249728015442 1.685540501271383 -1.8752781353392542 -1.570801083241598 1.3401862382888794 -0.6282647252082825 0.0017778117908164859 -0.002620197366923094 0.00020523385319393128 -6.304367707343772e-05 -0.6264060139656067 1 True True
3224.142 2.798041343688965 -1.3808269065669556 1.6852973143206995 -1.875286718408102 -1.570829216633932 1.2272366285324097 -0.27790865302085876 0.0006047649658285081 -0.0005554070812650025 -8.594233743176805e-32 5.522096790792387e-14 -0.2774420976638794 1 True True
3224.192 2.785916328430176 -1.3807941240123291 1.6853135267840784 -1.8752299747862757 -1.5708211104022425 1.2150342464447021 -0.206535205245018 0.0006952675175853074 -0.0005221748142503202 0.00011870833986904472 0.0001435061130905524 -0.20839324593544006 1 True True
3224.2419999999997 2.7772960662841797 -1.3807912331870575 1.6852081457721155 -1.8753100834288539 -1.5707686583148401 1.206371545791626 -0.137182354927063 0.0005439950618892908 -0.0004928834387101233 4.649072070606053e-05 3.1260454294579354e-13 -0.141708642244339 1 True True
3224.292 2.7720677852630615 -1.3807234180024643 1.6852691809283655 -1.875254293481344 -1.5707767645465296 1.2012766599655151 -0.06883606314659119 0.00020672037499025464 -0.000262631569057703 4.056900070281699e-05 4.748471437473636e-32 -0.07347210496664047 1 True True
3224.3419999999996 2.770465135574341 -1.3807159823230286 1.6852052847491663 -1.8752900562682093 -1.5708254019366663 1.1996362209320068 0.00845596008002758 9.825462620938197e-05 -0.00019797139975707978 2.5947330868802965e-05 0.0 0.004196423105895519 1 True True
3224.392 2.7704224586486816 -1.3798734110644837 1.6862013975726526 -1.8769756756224574 -1.5707805792437952 1.199631929397583 -0.0009461467852815986 0.026157615706324577 0.04371219128370285 -0.07152220606803894 -8.798963366826646e-18 -0.00031264647259376943 1 True True
3224.442 2.770493507385254 -1.378125162129738 1.6894195715533655 -1.8824883900084437 -1.5707891623126429 1.1995872259140015 -0.0009544224594719708 0.05052445828914642 0.08874494582414627 -0.14947350323200226 -1.336564035625317e-36 -0.0004532101156655699 1 True True
3224.4919999999997 2.7704966068267822 -1.3747624915889283 1.6953509489642542 -1.89127840618276 -1.5707967917071741 1.1996978521347046 -0.0007939495262689888 0.07790251076221466 0.13228100538253784 -0.206325963139534 -0.0 -0.0003601601056288928 1 True True
3224.542 2.7704484462738037 -1.370325968866684 1.7031787077533167 -1.9035092792906703 -1.5707886854754847 1.1995915174484253 -0.0002522767463233322 0.10031420737504959 0.17713794112205505 -0.28843969106674194 -0.0 -0.0002582624729257077 1 True True
3224.5919999999996 2.770432233810425 -1.3646494907191773 1.7131298224078577 -1.919380327264303 -1.5708168188678187 1.1996372938156128 -0.00018586550140753388 0.12708278000354767 0.2243463099002838 -0.3525184690952301 -0.0 -0.00010604638373479247 1 True True
3224.642 2.770399570465088 -1.3575505924275895 1.7253220717059534 -1.9387160740294398 -1.5708006064044397 1.1995948553085327 -5.468233212013729e-05 0.154668390750885 0.26592835783958435 -0.4192046821117401 -0.0 -8.00752459326759e-05 1 True True
3224.692 2.7704365253448486 -1.3490777772716065 1.7399151960956019 -1.9613963566222132 -1.5708368460284632 1.1995679140090942 -2.1707774067181163e-05 0.1780547946691513 0.3061619699001312 -0.4922085404396057 -2.2131989678345775e-24 -1.5537825674982741e-06 1 True True
3224.7419999999997 2.7703962326049805 -1.3394735914519806 1.756367031727926 -1.987589498559469 -1.5707648436175745 1.1996034383773804 -1.354203686787514e-05 0.20322078466415405 0.3597507178783417 -0.5680115222930908 -3.363116314379561e-43 -2.3601991053065673e-25 1 True True
3224.792 2.7703917026519775 -1.3296397042325516 1.7734811941729944 -2.014871736566061 -1.5708168188678187 1.1996448040008545 -2.5211573424777092e-39 0.18509753048419952 0.3179139494895935 -0.5222951769828796 -0.0 -3.6433760072445244e-44 1 True True
3224.8419999999996 2.7704696655273438 -1.320847676401474 1.788746182118551 -2.0385648212828578 -1.5708087126361292 1.1996772289276123 0.0 0.1665099561214447 0.2811417877674103 -0.4411390721797943 -0.0 -2.756965839775392e-20 1 True True
3224.892 2.770388603210449 -1.3133547765067597 1.801361385975973 -2.0588680706419886 -1.5707486311541956 1.1996524333953857 0.0 0.13349895179271698 0.2364564836025238 -0.37192830443382263 -0.0 -4.187837913871753e-39 1 True True
3224.942 2.7704412937164307 -1.3071585458568116 1.8120129744159144 -2.0756384334959925 -1.5708087126361292 1.1996121406555176 0.0 0.10919562727212906 0.1930590271949768 -0.3037205934524536 -0.0 -0.0 1 True True
3224.9919999999997 2.7704248428344727 -1.302407906656601 1.8205035368548792 -2.088963647881979 -1.570813004170553 1.199648141860962 0.0 0.08639190346002579 0.14784038066864014 -0.2282314896583557 -0.0 -0.0 1 True True
3225.042 2.770460844039917 -1.2987705630115052 1.8267667929278772 -2.0988241634764613 -1.5707767645465296 1.1996114253997803 0.0 0.05959652364253998 0.0957733690738678 -0.15790432691574097 -0.0 -0.0 1 True True
3225.0919999999996 2.77046537399292 -1.2963895362666626 1.8306706587420862 -2.1051765880980433 -1.5707648436175745 1.199649453163147 4.0347113099414855e-05 0.03495814651250839 0.057875070720911026 -0.08865305781364441 -0.0 -0.0 1 True True
3225.142 2.7704455852508545 -1.2957301598838349 1.8318904081927698 -2.108051916162008 -1.5708406607257288 1.1996657848358154 0.0 0.00819066446274519 0.013130895793437958 -0.02089756354689598 -0.0008093213546089828 -0.0 1 True True
3225.192 2.770415782928467 -1.2956826251796265 1.8319709936725062 -2.1081348858275355 -1.5707843939410608 1.199661374092102 0.0 0.003974090330302715 0.002261043293401599 0.0004835272266063839 -6.682464299956337e-05 -0.0 1 True True
3225.2419999999997 2.7703917026519775 -1.294962005024292 1.8329795042621058 -2.1076041660704554 -1.5707967917071741 1.1996568441390991 0.0 0.011344428174197674 0.023628443479537964 0.022239014506340027 0.0003906406636815518 -0.0 1 True True
3225.292 2.7704532146453857 -1.2950985592654725 1.832935635243551 -2.1079875431456507 -1.5707805792437952 1.199649453163147 6.393505464075133e-05 -0.0013081959914416075 -0.0016347565688192844 -0.003029080806300044 -3.535586438374594e-05 -0.0001157703300123103 1 True False
3225.3419999999996 2.770423173904419 -1.2951705318740387 1.832923714314596 -2.1080433330931605 -1.5707648436175745 1.1995595693588257 7.642740678963054e-39 -0.0037616172339767218 -0.002744556637480855 -0.003098852001130581 -6.821293500309297e-23 7.54191432861262e-06 1 True False
3225.392 2.7704367637634277 -1.2952844959548493 1.8328588644610804 -2.1080790958800257 -1.5707529226886194 1.1996538639068604 0.0 -0.00372766493819654 -0.004694671835750341 -0.0028572685550898314 -1.0361200845217697e-41 4.086064464559058e-08 1 True False
3225.442 2.7704248428344727 -1.2953569752028962 1.8327916304217737 -2.108062883416647 -1.5707767645465296 1.1996285915374756 0.0 -0.001970279961824417 -0.0025197737850248814 -0.000307605107082054 -0.0 6.206741039281399e-27 1 True False
3225.4919999999997 2.7703871726989746 -1.295333133344986 1.8326986471759241 -2.1080709896483363 -1.5707405249225062 1.1996090412139893 0.0 -0.011933514848351479 -0.01771743968129158 0.0026507016737014055 -0.0 1.401298464324817e-45 1 True False
3225.542 2.7703990936279297 -1.2963174742511292 1.8311250845538538 -2.1060244045653285 -1.5708006064044397 1.1996582746505737 0.0 -0.025655020028352737 -0.048714444041252136 0.07850129902362823 -0.0 0.0 1 True False
3225.5919999999996 2.770448684692383 -1.2981704634479065 1.8276546637164515 -2.1000806293883265 -1.5707610289203089 1.1996045112609863 0.0 -0.05625192075967789 -0.0994732528924942 0.1477045863866806 -0.0 0.0 1 True False
3225.642 2.770448684692383 -1.3015380066684266 1.8218210379229944 -2.0908457241454066 -1.5708330313311976 1.199615240097046 0.0 -0.0793992206454277 -0.13752149045467377 0.2108142226934433 -0.0 0.0 1 True False
3225.692 2.7704248428344727 -1.3062765759280701 1.8135245482074183 -2.0783096752562464 -1.5708649794207972 1.199649453163147 0.0 -0.10432050377130508 -0.18527567386627197 0.2893056869506836 -0.0 0.0 1 True False
3225.7419999999997 2.770373821258545 -1.312237100010254 1.8033531347857874 -2.0621077022948207 -1.570813004170553 1.1996538639068604 0.0 -0.12990295886993408 -0.22365911304950714 0.351074755191803 -0.0 0.0 1 True False
3225.792 2.77044415473938 -1.3194681865027924 1.7911651770221155 -2.042274614373678 -1.5708087126361292 1.199649453163147 0.0 -0.1575150489807129 -0.26820725202560425 0.429497629404068 -0.0 0.0 1 True False
3225.8419999999996 2.770448684692383 -1.3279913079789658 1.7762358824359339 -2.019284864465231 -1.5707491079913538 1.1996331214904785 0.0 -0.18546077609062195 -0.3094938397407532 0.490892618894577 -0.0 0.0 1 True False
3226.0919999999996 2.7704381942749023 -1.3694395583919068 1.7048748175250452 -1.906161447564596 -1.570772949849264 1.1996524333953857 0.0 -0.10892147570848465 -0.1938161998987198 0.3075348734855652 -0.0 1.677914781182536e-41 1 True False
3226.142 2.7704412937164307 -1.374098317032196 1.6967833677874964 -1.8930779896178187 -1.5707452932940882 1.1996822357177734 -4.523049526015214e-39 -0.08162836730480194 -0.1457487791776657 0.23337596654891968 -0.0 0.0 1 True False
3226.192 2.7704367637634277 -1.3776092690280457 1.6905930677997034 -1.883698125878805 -1.5708087126361292 1.1995702981948853 0.0 -0.0566292330622673 -0.09767115116119385 0.1537638157606125 -0.0 0.0 1 True False
3226.2419999999997 2.770394802093506 -1.3798059833100815 1.6868284384356897 -1.8778687916197718 -1.5707929770099085 1.1996119022369385 0.0 -0.029468264430761337 -0.04961958900094032 0.08518528938293457 -0.0 0.0 1 True False
3226.292 2.7704203128814697 -1.3806620401195069 1.6853082815753382 -1.875425478021139 -1.5708168188678187 1.1996361017227173 0.0 -0.003883450524881482 -0.012225370854139328 0.015941953286528587 -0.0 0.0 1 True False
3226.3419999999996 2.7704529762268066 -1.3806304347566147 1.6852811018573206 -1.8754297695555628 -1.5708006064044397 1.1996524333953857 0.0 5.3733347659583666e-14 8.939590043155476e-05 0.0005452105542644858 -0.0 0.0 1 False False
3226.392 2.770448684692383 -1.3806381833604355 1.6852811018573206 -1.8753615818419398 -1.5707805792437952 1.1996420621871948 0.0 -7.859057950554416e-05 1.3667243228270342e-33 0.0007270919741131365 -0.0 0.0 1 False False
3226.442 2.7704410552978516 -1.380691648726799 1.6853182951556605 -1.8753224811949671 -1.5708406607257288 1.199649453163147 0.0 -0.00033294648164883256 -0.00028602808015421033 0.001086643896996975 -0.0 0.0 1 False False
3226.4919999999997 2.7703874111175537 -1.3806980413249512 1.6852973143206995 -1.8752905331053675 -1.5707767645465296 1.1996777057647705 0.0 -0.00023099285317584872 -0.00031558770569972694 0.0013500682543963194 -0.0 0.0 1 False False
3226.542 2.7704575061798096 -1.3807548743537446 1.6852453390704554 -1.875253816644186 -1.5707891623126429 1.1996568441390991 0.0 -0.00024360437237191945 -0.00035365353687666357 0.0002803726529236883 -0.0 0.0 1 False False
3226.5919999999996 2.770439624786377 -1.3807055366090317 1.6852009932147425 -1.8752581081786097 -1.5708335081683558 1.1996464729309082 -1.4792285101765396e-20 -0.00021474937966559082 -0.00026334263384342194 0.00011196549166925251 -0.0 0.0 1 False False
3226.642 2.770456314086914 -1.3807130616954346 1.6852253119098108 -1.8752581081786097 -1.5708168188678187 1.199637532234192 0.0 -0.0001598569651832804 -0.00014134259254205972 7.373919652309269e-05 -0.0 0.0 1 False False
3226.692 2.7704081535339355 -1.3807459485581894 1.6852248350726526 -1.8752623997130335 -1.570829216633932 1.1995702981948853 0.0 -9.691333252703771e-05 -0.00011084003926953301 5.690275681202728e-11 -0.0 0.0 1 False False
3226.7419999999997 2.7704246044158936 -1.380808801656105 1.6851814428912562 -1.875298639337057 -1.570801083241598 1.1996285915374756 0.0 -7.559549703728408e-05 -8.797793270787224e-05 8.643545002387303e-30 -0.0 0.0 1 False False
3226.792 2.770423412322998 -1.380738527779915 1.6852052847491663 -1.8752948246397914 -1.5707967917071741 1.1996450424194336 0.0 -2.179090194996214e-16 -5.517274985322729e-05 0.0 -0.0 0.0 1 False False
3226.8419999999996 2.770416021347046 -1.3807296317866822 1.6852167288409632 -1.875286718408102 -1.5707686583148401 1.1996285915374756 0.0 -5.678162051481195e-05 -5.421472209110823e-24 0.0 -0.0 0.0 1 False False
3226.892 2.7704310417175293 -1.3807208252004166 1.6851485411273401 -1.875310560266012 -1.5708168188678187 1.1996285915374756 1.6992745474282705e-20 -3.555462808571272e-32 -0.0 0.0 -0.0 0.0 1 False False
3226.942 2.770390748977661 -1.3808369052461167 1.6851685682879847 -1.8753186664977015 -1.5708168188678187 1.1996420621871948 0.0 0.0 -0.0 0.0 -0.0 0.0 1 False False
3226.9919999999997 2.770395040512085 -1.3807011407664795 1.6851843039142054 -1.8752981624998988 -1.5708254019366663 1.1996285915374756 0.0 0.0 -0.0 0.0 -0.0 0.0 1 False False
3227.042 2.7704572677612305 -1.3807635468295594 1.685221020375387 -1.875314851800436 -1.570784870778219 1.199661374092102 0.0 0.0 -0.0 0.0 -0.0 0.0 1 False False
3227.0919999999996 2.770395040512085 -1.3807384979775925 1.6852181593524378 -1.8751856289305628 -1.570829216633932 1.199611783027649 0.0 0.0 -0.0 0.0 -0.0 0.0 1 False False
3227.142 2.7704408168792725 -1.3807876420072098 1.6852014700519007 -1.8753024540343226 -1.570845905934469 1.1996405124664307 0.0 0.0 -0.0 0.0 -0.0 0.0 1 False False
3227.192 2.7704484462738037 -1.3807459336570282 1.6852095762835901 -1.8752905331053675 -1.5707967917071741 1.1996196508407593 0.0 0.0 -0.0 0.0 -0.0 0.0 1 False False
3227.2419999999997 2.7704484462738037 -1.3807832163623353 1.6851685682879847 -1.8753067455687464 -1.570829216633932 1.199665904045105 0.0 0.0 -0.0 0.0 -0.0 0.0 1 True False
3227.292 2.770432233810425 -1.380696715121605 1.6851885954486292 -1.8752418957152308 -1.570801083241598 1.1996612548828125 0.0 0.0 -0.0 0.0 -0.0 0.0 1 True False
3227.3419999999996 2.7704288959503174 -1.3807056707194825 1.6851428190814417 -1.8752786121764125 -1.5707529226886194 1.1996524333953857 0.0 0.0 -0.0 0.0 -0.0 0.0 1 True False
3227.392 2.770423650741577 -1.3807503593019028 1.6852296034442347 -1.875286718408102 -1.570829216633932 1.1996164321899414 0.0 0.0 -0.0 0.0 -0.0 0.0 1 True False
3227.442 2.7704365253448486 -1.3807701033404847 1.6852377096759241 -1.8752457104124964 -1.570772949849264 1.1996361017227173 0.0 0.0 -0.0 0.0 -0.0 0.0 1 True False
3227.4919999999997 2.77044415473938 -1.3807547998479386 1.6852296034442347 -1.8753138981261195 -1.570813004170553 1.1996119022369385 0.0 0.0 -0.0 0.0 -0.0 0.0 1 True False
3227.542 2.770432233810425 -1.3807252508452912 1.6852167288409632 -1.8752786121764125 -1.5708168188678187 1.199644923210144 0.0 0.0 -0.0 0.0 -0.0 0.0 1 True False
3227.5919999999996 2.770432233810425 -1.3806968194297333 1.6851838270770472 -1.8753138981261195 -1.570772949849264 1.19959557056427 0.0 0.0 -0.0 3.277305096571581e-20 -0.0 0.0 1 True False
3227.642 2.7704570293426514 -1.3808027815869828 1.6852453390704554 -1.875282426873678 -1.5707925001727503 1.1995748281478882 0.0 0.0 -0.0 4.9782333061818446e-39 -1.7102045191317553e-15 1.8340742826694623e-05 1 True False
3227.692 2.770449638366699 -1.3807580781034012 1.6852167288409632 -1.875230451623434 -1.5707686583148401 1.199637532234192 3.2559845372693765e-33 0.0 -6.391563417772766e-35 0.0 5.347609999262204e-07 2.7859644442752293e-24 1 True False
3227.7419999999997 2.770390748977661 -1.3807875675014039 1.6851766745196741 -1.8753706417479457 -1.5708211104022425 1.199607491493225 0.0 0.0 -0.0 0.0 8.12303262874335e-26 4.2319213622609476e-43 1 True False
3227.792 2.7704038619995117 -1.3807459485581894 1.6851971785174769 -1.8752380810179652 -1.5708406607257288 1.1996524333953857 0.0 0.0 -0.0 0.0 1.2611686178923354e-44 0.0 1 True False
3227.8419999999996 2.7723777294158936 -1.3805594009212037 1.685068432484762 -1.8752786121764125 -1.5708006064044397 1.2015964984893799 0.07165223360061646 0.004871885292232037 -0.01025262102484703 0.0 0.0 0.07003775984048843 1 True False
3227.892 2.7778778076171875 -1.3802499932101746 1.6844027678119105 -1.875155588189596 -1.5707767645465296 1.2070742845535278 0.14435885846614838 0.013084677048027515 -0.012923240661621094 0.005198544356971979 0.0 0.13996678590774536 1 True False
3227.942 2.7869009971618652 -1.3796319675496598 1.683591667805807 -1.8749338589110316 -1.5708087126361292 1.2161387205123901 0.21258793771266937 0.01372637040913105 -0.02116846852004528 0.0043153781443834305 0.0 0.21121354401111603 1 True False
3227.9919999999997 2.7993831634521484 -1.3787145775607605 1.6823771635638636 -1.874554296533102 -1.5708335081683558 1.228558897972107 0.28190672397613525 0.021191587671637535 -0.02793118730187416 0.005104551091790199 3.3943169910344295e-06 0.2820814251899719 1 True False
3228.042 2.815218925476074 -1.3774407815984269 1.6809032599078577 -1.8741728268065394 -1.570801083241598 1.2445114850997925 0.35458123683929443 0.028710559010505676 -0.030807239934802055 0.007014640606939793 5.155974168925771e-25 0.34861859679222107 1 True False
3228.0919999999996 2.8348474502563477 -1.376068190937378 1.6791046301471155 -1.8737393818297328 -1.570801083241598 1.263865351676941 0.4213862717151642 0.030542900785803795 -0.042093489319086075 0.00943151768296957 7.847271400218976e-44 0.42496076226234436 1 True False
3228.142 2.857666254043579 -1.374303014283516 1.67676288286318 -1.873213907281393 -1.570813004170553 1.2869073152542114 0.4949106276035309 0.03757469728589058 -0.04701761528849602 0.01081649400293827 3.6791127058677375e-05 0.4891427755355835 1 True False
3228.192 2.8839991092681885 -1.3723399949124833 1.674237076436178 -1.8726850948729457 -1.5707967917071741 1.31337571144104 0.5599467754364014 0.04215216264128685 -0.05478641763329506 0.012374785728752613 9.639015843276866e-06 0.559180736541748 1 True False
3228.2419999999997 2.9140286445617676 -1.37014855564151 1.6714895407306116 -1.8719502888121546 -1.570829216633932 1.3432704210281372 0.6298617124557495 0.046987734735012054 -0.06420453637838364 0.012276288121938705 -1.1809132603810956e-14 0.630657434463501 1 True False
3228.292 2.9473485946655273 -1.3678108167699357 1.6682012716876429 -1.8712064228453578 -1.5707972685443323 1.3766225576400757 0.7046877145767212 0.053621817380189896 -0.0676698237657547 0.015880148857831955 -1.0525665625552016e-12 0.7004545331001282 1 True False
3228.3419999999996 2.984377861022949 -1.3650445652059098 1.6647031942950647 -1.8703490696349085 -1.5707529226886194 1.413562297821045 0.7697474360466003 0.05665811151266098 -0.07394638657569885 0.017684752121567726 -1.408720471003655e-12 0.7636599540710449 1 True False
3228.392 3.0247867107391357 -1.3620350819877167 1.6605570952044886 -1.8695336780943812 -1.5707686583148401 1.4538770914077759 0.8379477858543396 0.06233751028776169 -0.08338058739900589 0.015607881359755993 -0.0004551353631541133 0.8406709432601929 1 True False
3228.442 3.0685296058654785 -1.3587584507516404 1.6564238707171839 -1.8684479198851527 -1.5707686583148401 1.4978137016296387 0.9143250584602356 0.06764502078294754 -0.0931825339794159 0.022456178441643715 0.0006397619727067649 0.9063739776611328 1 True False
3228.4919999999997 3.115931510925293 -1.3553716105273743 1.6518552939044397 -1.867291112939352 -1.5708048979388636 1.5451105833053589 0.9771429300308228 0.07340361922979355 -0.08969856798648834 0.026140008121728897 -9.055530426849145e-06 0.9792477488517761 1 True False
3228.542 3.1668283939361572 -1.3515772384456177 1.6469853560077112 -1.866190572778219 -1.5708335081683558 1.5960643291473389 1.0537184476852417 0.07434944808483124 -0.10471074283123016 0.020039012655615807 -4.098224324118858e-17 1.0509613752365112 1 True False
3228.5919999999996 3.2192063331604004 -1.3476798099330445 1.6420262495623987 -1.8649856052794398 -1.5707529226886194 1.6483138799667358 1.0433775186538696 0.07736997306346893 -0.10086668282747269 0.02331826277077198 -0.00013006293738726526 1.0497769117355347 1 True False
3228.642 3.271486520767212 -1.343884290461876 1.6369012037860315 -1.8638159237303675 -1.5708406607257288 1.7007333040237427 1.046633243560791 0.07663609832525253 -0.09737943857908249 0.03178080543875694 9.565715656305817e-16 1.0399426221847534 1 True False
3228.692 3.323824882507324 -1.3400070381215592 1.631721321736471 -1.862727781335348 -1.5707686583148401 1.7531707286834717 1.0463573932647705 0.07400285452604294 -0.09814667701721191 0.02052798867225647 1.453034077181199e-34 1.0440950393676758 1 True False
3228.7419999999997 3.3762035369873047 -1.3361195933869858 1.6267040411578577 -1.8613954983153285 -1.570801083241598 1.8054757118225098 1.0435181856155396 0.07500174641609192 -0.10181500762701035 0.025868872180581093 0.0 1.0498998165130615 1 True False
3228.792 3.42861270904541 -1.3323431325009842 1.6217854658709925 -1.860166688958639 -1.570813004170553 1.8577989339828491 1.0429450273513794 0.07819792628288269 -0.10163964331150055 0.0255401823669672 0.0 1.0419870615005493 1 True False
3228.8419999999996 3.480872869491577 -1.3285332036069413 1.616737190877096 -1.8590742550291957 -1.5708168188678187 1.910245418548584 1.0516070127487183 0.07705444097518921 -0.10019943863153458 0.0238064955919981 -1.6229276297963224e-05 1.0510989427566528 1 True False
3228.892 3.5332977771759033 -1.324747697716095 1.6116674582110804 -1.8578769169249476 -1.5707767645465296 1.9624003171920776 1.0491284132003784 0.07707083970308304 -0.10150955617427826 0.02110133320093155 -8.296385962868412e-17 1.0552260875701904 1 True False
3228.942 3.585731029510498 -1.3207641404918213 1.6067355314837855 -1.8566929302611292 -1.5707405249225062 2.0148470401763916 1.0421934127807617 0.07737740874290466 -0.1020091250538826 0.02111263945698738 -1.2602229275213522e-35 1.0404243469238281 1 True False
3228.9919999999997 3.6379754543304443 -1.316856936817505 1.6016033331500452 -1.8554793796935023 -1.570784870778219 2.0673370361328125 1.0497387647628784 0.0777628943324089 -0.10128914564847946 0.02545738033950329 -0.0 1.0506470203399658 1 True False
3229.042 3.690361976623535 -1.3131418985179444 1.5964558760272425 -1.8543793163695277 -1.5707486311541956 2.1195781230926514 1.0473442077636719 0.07268156856298447 -0.0974259153008461 0.025743350386619568 8.672986587043852e-05 1.0505520105361938 1 True False
3229.0919999999996 3.7428040504455566 -1.3091628414443512 1.591442886983053 -1.8530436954894007 -1.5708168188678187 2.1719322204589844 1.0452516078948975 0.07403238862752914 -0.1014580950140953 0.02165297232568264 1.78493155555058e-19 1.043383002281189 1 True False
3229.142 3.795077323913574 -1.3053817611983796 1.5865119139300745 -1.851814409295553 -1.5708087126361292 2.2244179248809814 1.0485635995864868 0.07934845983982086 -0.10111147910356522 0.022133465856313705 4.4993084884481505e-05 1.0476866960525513 1 True False
3229.192 3.8474903106689453 -1.301499144440033 1.581409756337301 -1.850741525689596 -1.570784870778219 2.276662588119507 1.0485098361968994 0.07741070538759232 -0.09687021374702454 0.027050945907831192 3.325249260356979e-20 1.0549360513687134 1 True False
3229.2419999999997 3.8997836112976074 -1.2977181536010285 1.5763710180865687 -1.8495398960509242 -1.5707967917071741 2.3290085792541504 1.0437272787094116 0.07727823406457901 -0.10027176141738892 0.022990217432379723 5.0510601886712696e-39 1.0399478673934937 1 True False
3229.292 3.9521241188049316 -1.2938856941512604 1.5712903181659144 -1.8483158550658167 -1.5708254019366663 2.381504774093628 1.0489145517349243 0.07679209858179092 -0.10102444142103195 0.024849552661180496 2.335884357983339e-15 1.0451149940490723 1 True False
3229.3419999999996 4.004552841186523 -1.2899549466422577 1.5662825743304651 -1.8470236263670863 -1.5707529226886194 2.4337778091430664 1.0467160940170288 0.08028186112642288 -0.09960269182920456 0.028394317254424095 3.548213626745247e-34 1.0500291585922241 1 True False
3229.392 4.056929588317871 -1.2861669522574921 1.5610879103290003 -1.845853944818014 -1.5707686583148401 2.486039400100708 1.043224573135376 0.07962940633296967 -0.1000647321343422 0.02465911954641342 2.0770308140072302e-08 1.038017749786377 1 True False
3229.442 4.109246253967285 -1.2822202009013672 1.5560935179339808 -1.8446856937804164 -1.5707605520831507 2.53859806060791 1.050759196281433 0.07559193670749664 -0.09905821830034256 0.023917386308312416 3.1550143310994433e-27 1.04916250705719 1 True False
3229.4919999999997 4.161581039428711 -1.2783506375602265 1.5510996023761194 -1.8435093365111292 -1.5707605520831507 2.5907320976257324 1.0482901334762573 0.07806173712015152 -0.10440919548273087 0.025486962869763374 0.0 1.0557565689086914 1 True False
3229.542 4.21403169631958 -1.2745962601951142 1.5461471716510218 -1.8422934017577113 -1.570829216633932 2.643050193786621 1.040908694267273 0.07896233350038528 -0.1037219762802124 0.023213829845190048 0.0 1.0407946109771729 1 True False
3229.5919999999996 4.266366481781006 -1.2707799536040802 1.5411060492144983 -1.8411280117430628 -1.5707724730121058 2.695662021636963 1.0483729839324951 0.07722489535808563 -0.10042906552553177 0.025975985452532768 0.0 1.044484257698059 1 True False
3229.642 4.318695545196533 -1.2668960255435486 1.535924259816305 -1.8398915729918421 -1.5707929770099085 2.7478561401367188 1.0462708473205566 0.07500695437192917 -0.09976071864366531 0.025663841515779495 0.0 1.0521703958511353 1 True False
3229.692 4.371049880981445 -1.2629885536483307 1.5308993498431605 -1.838635583917135 -1.5708087126361292 2.8001368045806885 1.0433237552642822 0.078705333173275 -0.10405457019805908 0.01907247304916382 0.0 1.0404410362243652 1 True False
3229.7419999999997 4.423074722290039 -1.2591911119273682 1.5259612242328089 -1.837466379205221 -1.5707891623126429 2.852386951446533 1.0193997621536255 0.07910770177841187 -0.09628251194953918 0.02434331178665161 0.0002470829349476844 1.019548773765564 1 True False
3229.792 4.472101211547852 -1.255562112932541 1.5211742560016077 -1.836404939691061 -1.570813004170553 2.9010684490203857 0.9467689394950867 0.06984157115221024 -0.08601071685552597 0.025058699771761894 5.03595515510824e-07 0.9607877135276794 1 True False
3229.8419999999996 4.517600059509277 -1.2521266502192994 1.5168026129352015 -1.8353754482665003 -1.5707972685443323 2.946972370147705 0.8788226246833801 0.06229645013809204 -0.08986871689558029 0.014162834733724594 7.649626106163741e-26 0.8712409734725952 1 True False
3229.892 4.559844493865967 -1.2491012972644349 1.51282245317568 -1.8344456158080042 -1.5708125273333948 2.988832712173462 0.8009456396102905 0.0605073906481266 -0.07632718235254288 0.023604324087500572 -6.875690988783489e-12 0.8074228763580322 1 True False
3229.942 4.598320484161377 -1.246308134203293 1.5090001265155237 -1.833555360833639 -1.5707967917071741 3.027411937713623 0.7379493117332458 0.05167723819613457 -0.07328984141349792 0.018908614292740822 -5.118007265991764e-06 0.7543764114379883 1 True False
3229.9919999999997 4.63338565826416 -1.243706004028656 1.5057271162616175 -1.8326078854002894 -1.5708048979388636 3.0626866817474365 0.6713950037956238 0.048377200961112976 -0.06255557388067245 0.015962759032845497 0.00029861225630156696 0.6691793203353882 1 True False
3230.042 4.665092468261719 -1.2414708000472565 1.5024431387530726 -1.831940313378805 -1.570784870778219 3.09425687789917 0.6014803647994995 0.04340853542089462 -0.057222187519073486 0.017042692750692368 9.624766939388477e-14 0.6021929383277893 1 True False
3230.0919999999996 4.6932597160339355 -1.2393227082541962 1.4999263922320765 -1.831372400323385 -1.570784870778219 3.122375965118408 0.5309827327728271 0.037297572940588 -0.04747097194194794 0.010776382870972157 1.4620037602935455e-32 0.5342132449150085 1 True False
3230.142 4.71779203414917 -1.237535611992218 1.4974997679339808 -1.8308116398253382 -1.5707925001727503 3.146758794784546 0.46193498373031616 0.03455103561282158 -0.04514041915535927 0.012922702357172966 0.0 0.47504302859306335 1 True False
3230.192 4.738791465759277 -1.235959843998291 1.495422665272848 -1.8303662739195765 -1.570857350026266 3.1680901050567627 0.39079469442367554 0.02865520864725113 -0.037152525037527084 0.009593822993338108 -0.0001711803488433361 0.3796939253807068 1 True False
3230.2419999999997 4.756472587585449 -1.2346726816943665 1.4938228766070765 -1.8299323521056117 -1.5708606878863733 3.1857378482818604 0.3172973692417145 0.02491237223148346 -0.029280250892043114 0.007729344069957733 -1.458792037845776e-16 0.3174975514411926 1 True False
3230.292 4.770659446716309 -1.2336042386344452 1.4924796263324183 -1.8295790157713832 -1.5708168188678187 3.1998445987701416 0.24985934793949127 0.01770264096558094 -0.024708671495318413 0.006714697927236557 -2.2159081573317112e-35 0.25083285570144653 1 True False
3230.3419999999996 4.781289100646973 -1.2328708928874512 1.4913619200335901 -1.8293963871397914 -1.5708006064044397 3.2105400562286377 0.17895284295082092 0.012912499718368053 -0.018525317311286926 0.004494867753237486 -3.265572479094203e-09 0.18536686897277832 1 True False
3230.392 4.788369178771973 -1.2323926848224183 1.4906366507159632 -1.8291775188841761 -1.570824925099508 3.2176830768585205 0.11144901812076569 0.0068066855892539024 -0.010499031282961369 0.00269213761202991 -4.96040975732421e-28 0.11037258058786392 1 True False
3230.442 4.7922163009643555 -1.232152299290039 1.490373436604635 -1.8290859661498011 -1.570784870778219 3.221404790878296 0.040272459387779236 0.0016281363787129521 -0.0018713537137955427 0.0009509908268228173 -0.0 0.03915228694677353 1 True False
3230.4919999999997 4.79265832901001 -1.2319889229587098 1.490474049245016 -1.8294202289977015 -1.5708048979388636 3.2219038009643555 -0.003327488200739026 0.017731383442878723 0.013003873638808727 -0.020058296620845795 0.00011754281149478629 -0.0003915186389349401 1 True False
3230.542 4.792628288269043 -1.2306669515422364 1.4925125280963343 -1.8326312504210414 -1.5707967917071741 3.221858501434326 0.00014560528506990522 0.03256485238671303 0.06457691639661789 -0.1071140244603157 2.7617094019660726e-05 0.00030661592609249055 1 True False
3230.5919999999996 4.792632102966309 -1.2284007233432312 1.4968422094928187 -1.83941712001943 -1.5707929770099085 3.2219078540802 0.0003616586036514491 0.056987833231687546 0.11881429702043533 -0.1679231971502304 3.11840049107559e-05 0.0007693789666518569 1 True False
3230.642 4.792708873748779 -1.2249932450107117 1.5038521925555628 -1.8498150310912074 -1.5708087126361292 3.2219152450561523 0.0009403742151334882 0.08116958290338516 0.16299475729465485 -0.24058735370635986 2.175937879655976e-05 0.00024682373623363674 1 True False
3230.692 4.792688369750977 -1.220254347925522 1.513240162526266 -1.8636251888670863 -1.5707691351519983 3.221928358078003 0.00038502580719068646 0.10333547741174698 0.20560327172279358 -0.31575605273246765 1.3398180423645239e-18 0.00012742636317852885 1 True False
3230.7419999999997 4.792725086212158 -1.2144512397101899 1.5245536009417933 -1.8808781109251917 -1.5708048979388636 3.2218987941741943 0.00020047479483764619 0.12831956148147583 0.2526606321334839 -0.36248844861984253 2.0351862503227226e-37 7.46044097468257e-05 1 True False
3230.792 4.792737007141113 -1.207580493097641 1.5384553114520472 -1.9017778835692347 -1.5708006064044397 3.2219033241271973 0.00015174825966823846 0.1488366574048996 0.29394230246543884 -0.43812352418899536 0.0 5.274306022329256e-05 1 True False
3230.8419999999996 4.792725086212158 -1.1993146401694794 1.5544307867633265 -1.9257670841612757 -1.5708006064044397 3.2219064235687256 0.00011794834426837042 0.17572009563446045 0.34295418858528137 -0.5280808806419373 0.0 4.3921616778295057e-20 1 True False
3230.892 4.792769908905029 -1.1903096300414582 1.5722339789019983 -1.95249666790151 -1.570772949849264 3.2218899726867676 0.0001085142939700745 0.17549364268779755 0.34297898411750793 -0.5178564190864563 0.0 6.67170390161685e-39 1 True False
3230.942 4.792737007141113 -1.182210163479187 1.5878728071795862 -1.9766766033568324 -1.5707810560809534 3.221928834915161 9.2313603090588e-05 0.14596642553806305 0.2910950779914856 -0.44376516342163086 6.954605944581854e-23 0.0 1 True False
3230.9919999999997 4.792675495147705 -1.1753230851939698 1.6016033331500452 -1.997172018090719 -1.5707967917071741 3.2219598293304443 2.4588827757418414e-19 0.12719209492206573 0.24770691990852356 -0.37232181429862976 1.0564389122544796e-41 9.021751309337342e-14 1 True False
3231.042 4.792683124542236 -1.1696071487716218 1.6128185431109827 -2.014245172540182 -1.5707967917071741 3.2219033241271973 0.0 0.10287270694971085 0.19779987633228302 -0.31816238164901733 0.0 1.370406007868008e-32 1 True False
3231.0919999999996 4.792695999145508 -1.1649540227702637 1.6216796080218714 -2.027617116967672 -1.570784870778219 3.221935987472534 0.0 0.0847402960062027 0.15928098559379578 -0.2452664077281952 0.0 0.0 1 True False
3231.142 4.792703628540039 -1.1614706081203003 1.6283209959613245 -2.03787960628652 -1.5707967917071741 3.2219064235687256 0.0 0.055882778018713 0.10978857427835464 -0.16561909019947052 0.0 0.0 1 True False
3231.192 4.792724132537842 -1.1592537623694916 1.6328747908221644 -2.044250627557272 -1.5707805792437952 3.221952438354492 0.0 0.03258223086595535 0.060833629220724106 -0.09692772477865219 0.0 0.0 1 True False
3231.2419999999997 4.792724132537842 -1.1582882565310975 1.6348579565631312 -2.047481199304098 -1.5707767645465296 3.2219197750091553 0.0 0.009878008626401424 0.018708784133195877 -0.03156173229217529 0.0 0.0 1 True False
3231.292 4.792725086212158 -1.1582728785327454 1.634960953389303 -2.0476085148253382 -1.5707886854754847 3.221924304962158 0.0 -0.00013716769171878695 3.963602532310425e-16 2.0351685634523164e-06 0.0 0.0 1 True False
3231.3419999999996 4.7926788330078125 -1.1582698983005066 1.634960953389303 -2.047624250451559 -1.5708492437945765 3.221956968307495 0.0 0.0 5.7618413848103955e-05 3.091425832792132e-25 0.0 1.2489218914699812e-13 1 True False
3231.392 4.7927656173706055 -1.1582609576037903 1.6350057760821741 -2.0476485691466273 -1.5707805792437952 3.2219479084014893 0.0 0.00010751767695182934 0.00013116397894918919 4.764414778704378e-44 0.0 1.8971149044287353e-32 1 True False
3231.442 4.7927327156066895 -1.1583286088756104 1.6350372473346155 -2.0477453670897425 -1.5708406607257288 3.221924304962158 0.0 0.00029795413138344884 0.0004192829073872417 -2.5623285182518885e-05 0.0 0.0 1 True False
3231.4919999999997 4.792748928070068 -1.1581843358329316 1.635002915059225 -2.0476719341673792 -1.5707648436175745 3.2218730449676514 -5.743265865021385e-05 0.0005862421821802855 0.0003803789149969816 -5.155519566812927e-09 0.0 0.0 1 True False
3231.542 4.792712211608887 -1.158196286564209 1.6350982824908655 -2.0476719341673792 -1.57074481645693 3.221940755844116 -1.3765674555473911e-30 0.00013918441254645586 0.00021479775023180991 -7.831246191781516e-28 0.0 0.0 1 True False
3231.5919999999996 4.792741298675537 -1.1582142573646088 1.635019604359762 -2.047636648217672 -1.5707686583148401 3.2218987941741943 -2.8893937269458547e-05 5.719517866964452e-05 0.00014401045336853713 -5.6659435358596966e-05 0.0 0.0 1 True False
3231.642 4.7926926612854 -1.1581442815116425 1.6350567976581019 -2.047676225701803 -1.5707929770099085 3.221877336502075 2.888113522203639e-05 4.781194365932606e-05 7.795893907314166e-05 -1.7289851453965144e-15 0.0 0.0 1 True False
3231.692 4.7927045822143555 -1.1581934255412598 1.6350939909564417 -2.0477005443968714 -1.5707805792437952 3.221890926361084 0.0 3.314063360448927e-05 6.527833465952426e-05 -6.548746750922874e-05 0.0 0.0 1 True False
3231.7419999999997 4.792658805847168 -1.1582566064647217 1.635068718587057 -2.0477129421629847 -1.5708168188678187 3.2219107151031494 0.0 6.384022988136761e-37 2.5075805091148116e-25 -1.3884388749829668e-07 0.0 0.0 1 True False
3231.792 4.792647361755371 -1.158205346470215 1.6350773016559046 -2.0476442776122035 -1.5708654562579554 3.2219183444976807 0.0 0.0 0.0 -2.1090418168213344e-26 0.0 0.0 1 True False
3231.8419999999996 4.792766571044922 -1.1583167475513 1.6349666754352015 -2.04785217861318 -1.5708406607257288 3.2218945026397705 0.0 -1.81334826265811e-07 -0.0008755822782404721 -0.004871867131441832 -0.0060293469578027725 0.0 1 True False
3231.892 4.7927374839782715 -1.1582728785327454 1.634960953389303 -2.047879835168356 -1.5707653204547327 3.2219078540802 0.0 -7.091243856652274e-26 -5.175017688011909e-18 0.00018473381351213902 -6.298786320257932e-05 2.7533189495443366e-05 1 True False
3231.942 4.792728424072266 -1.15821327388797 1.6349738279925745 -2.047812124291891 -1.5707929770099085 3.221924304962158 0.0 0.00018929201178252697 -0.0 0.0006594602600671351 -1.0913491654438931e-13 1.560011696710717e-05 1 True True
3231.9919999999997 4.792724132537842 -1.1583286684802552 1.6347654501544397 -2.0470859012999476 -1.570801083241598 3.2218945026397705 0.0 -0.010242466814815998 -0.01862378604710102 0.036961428821086884 -1.6577620671454458e-32 8.958279742467788e-16 1 True True
3232.042 4.7927165031433105 -1.1591881674579163 1.6327474753009241 -2.043535371819967 -1.570813004170553 3.2219643592834473 0.0 -0.0376770980656147 -0.072740338742733 0.09519261866807938 -2.491258601367008e-05 1.3607651174813421e-34 1 True True
3232.0919999999996 4.792733192443848 -1.1617533725551148 1.62779409090151 -2.036314626733297 -1.5707805792437952 3.2219107151031494 0.0 -0.06020357459783554 -0.1167399138212204 0.17236486077308655 -2.9445658583426848e-05 0.0 1 True True
3232.142 4.792694568634033 -1.1654977363399048 1.6205995718585413 -2.0258404217162074 -1.5707767645465296 3.2219107151031494 0.0 -0.08494634926319122 -0.16623544692993164 0.24923086166381836 -2.0898532966384664e-05 0.0 1 True True
3232.192 4.792741775512695 -1.1703606706908722 1.6112750212298792 -2.0117560825743617 -1.570829216633932 3.221877336502075 0.0 -0.10752634704113007 -0.21048688888549805 0.30601900815963745 -2.4248147363686697e-21 0.0 1 True True
3232.2419999999997 4.792679309844971 -1.1762891572764893 1.5996654669391077 -1.9940434894957484 -1.5707925001727503 3.2219479084014893 0.0 -0.13018913567066193 -0.256551057100296 0.3901870548725128 -3.6832990004931384e-40 -3.5469419401579216e-08 1 True True
3232.292 4.792710781097412 -1.183378056888916 1.5855863730060022 -1.973112245599264 -1.5707648436175745 3.2219197750091553 0.0 -0.15379564464092255 -0.30375927686691284 0.45943209528923035 -0.0 -5.3878136713265805e-27 1 True True
3232.3419999999996 4.7927165031433105 -1.1917227071574708 1.5693071524249476 -1.9484626255431117 -1.5707967917071741 3.221952438354492 1.5167987037819491e-13 -0.17294439673423767 -0.3431271016597748 0.52667635679245 -0.0 -1.401298464324817e-45 1 True True
3232.392 4.792691230773926 -1.2007139188102265 1.5515411535846155 -1.9217940769591273 -1.570813004170553 3.221886396408081 0.0 -0.1713644564151764 -0.34137341380119324 0.5098900198936462 -0.0 -0.0 1 True True
3232.442 4.7927165031433105 -1.2085813742927094 1.5360143820392054 -1.8980294666686 -1.5707967917071741 3.221952438354492 0.0 -0.1518944799900055 -0.2939490079879761 0.44390052556991577 -0.0 -0.0 1 True True
3232.4919999999997 4.792721271514893 -1.215529517536499 1.5227115789996546 -1.8779574833311976 -1.5707724730121058 3.2219078540802 0.0 -0.1233200803399086 -0.24205268919467926 0.3842657506465912 -0.0 -0.0 1 True True
3232.542 4.792637825012207 -1.2211168569377442 1.5116899649249476 -1.8612176380553187 -1.5707805792437952 3.2219107151031494 0.0 -0.10348949581384659 -0.19951686263084412 0.2955343723297119 -0.0 -0.0 1 True True
3232.5919999999996 4.792662620544434 -1.2255847615054627 1.5028002897845667 -1.8479958973326625 -1.5708168188678187 3.221957206726074 0.0 -0.0770719051361084 -0.15387164056301117 0.2301282435655594 -0.0 -0.0 1 True True
3232.642 4.792705059051514 -1.2287768584540864 1.4963739554034632 -1.838184495965475 -1.570801083241598 3.2218945026397705 0.0 -0.05333110690116882 -0.10778021812438965 0.17102116346359253 -0.0 -0.0 1 True True
3232.692 4.792695999145508 -1.231041596536972 1.4923527876483362 -1.831979890862936 -1.570784870778219 3.2219479084014893 0.0 -0.03159908205270767 -0.0599161759018898 0.10510150343179703 -0.0 -0.0 1 True True
3232.7419999999997 4.792679309844971 -1.2318915587714692 1.4904664198504847 -1.8293210468687953 -1.570784870778219 3.2219152450561523 0.0 -0.006973677780479193 -0.01741519570350647 0.021815432235598564 -0.0 -0.0 1 True True
3232.792 4.791826248168945 -1.2318625909141083 1.4904792944537562 -1.8291694126524867 -1.5707929770099085 3.221163511276245 -0.04866756871342659 -0.004641060251742601 0.0033961853478103876 0.0006535327411256731 -0.0 -0.04670701175928116 1 True True
3232.8419999999996 4.787717819213867 -1.2323188048652192 1.4907382170306605 -1.8291613064207972 -1.570756737385885 3.2168242931365967 -0.12235741317272186 -0.0102249039337039 0.01242887694388628 5.431736644823104e-05 -0.0 -0.1172242984175682 1 True True
3232.892 4.779942512512207 -1.2329990726760407 1.49135667482485 -1.8293611011900843 -1.570784870778219 3.209129810333252 -0.19139721989631653 -0.013716508634388447 0.019141588360071182 -0.005664634983986616 -0.0 -0.19234128296375275 1 True True
3232.942 4.768545150756836 -1.2337460082820435 1.4925454298602503 -1.8296271763243617 -1.570784870778219 3.197889566421509 -0.2571607232093811 -0.01881544478237629 0.024037163704633713 -0.008184853009879589 -5.359822898753919e-05 -0.25953197479248047 1 True True
3232.9919999999997 4.753939628601074 -1.2348282498172303 1.4938691298114222 -1.8299366436400355 -1.5708168188678187 3.183103084564209 -0.32558104395866394 -0.02410372719168663 0.03134726360440254 -0.007791284471750259 -1.1154506572039814e-17 -0.3245930075645447 1 True True
3233.042 4.735684871673584 -1.2361696523479004 1.4955371061908167 -1.8303781948485316 -1.5707843939410608 3.1648952960968018 -0.39992499351501465 -0.027887549251317978 0.03834544122219086 -0.010323723778128624 -4.5626289647771046e-05 -0.4031805694103241 1 True True
3233.0919999999996 4.7141618728637695 -1.2377094489387055 1.49770433107485 -1.8308116398253382 -1.5707529226886194 3.143420457839966 -0.46751731634140015 -0.037049174308776855 0.04694646969437599 -0.009382854215800762 -7.020263001322746e-05 -0.47349321842193604 1 True True
3233.142 4.688896656036377 -1.2395942372134705 1.5001161734210413 -1.831463476220602 -1.5708211104022425 3.11802077293396 -0.5365461707115173 -0.03877970576286316 0.05406441166996956 -0.010789011605083942 -7.22944678273052e-05 -0.534346878528595 1 True True
3233.192 4.660133361816406 -1.2417088013938447 1.5029123465167444 -1.832186838189596 -1.5708368460284632 3.089353561401367 -0.6114903092384338 -0.04484860599040985 0.05625497177243233 -0.017480114474892616 -6.482768345252581e-21 -0.6018604636192322 1 True True
3233.2419999999997 4.627995491027832 -1.2439478796771546 1.5061338583575647 -1.8329311809935511 -1.5708087126361292 3.0572218894958496 -0.682411253452301 -0.04657287523150444 0.0668037012219429 -0.019571498036384583 -0.002007091185078025 -0.6731224656105042 1 True True
3233.292 4.592371463775635 -1.246546135549881 1.5095518271075647 -1.8337575397887171 -1.5707967917071741 3.021768808364868 -0.7527347803115845 -0.05370371788740158 0.06779620051383972 -0.020577291026711464 -0.0013635846553370357 -0.7389416694641113 1 True True
3233.3419999999996 4.553336143493652 -1.24946482599292 1.5133121649371546 -1.8345605335631312 -1.5707925001727503 2.982647180557251 -0.8194028735160828 -0.057164762169122696 0.07681584358215332 -0.01895151659846306 3.296267459518276e-05 -0.8174234628677368 1 True True
3233.392 4.510674476623535 -1.252566174869873 1.5172327200519007 -1.835543771783346 -1.5708048979388636 2.9398505687713623 -0.8830786943435669 -0.06609700620174408 0.08768317848443985 -0.019283156841993332 -2.6513578887943368e-08 -0.8897934556007385 1 True True
3233.442 4.464560508728027 -1.2558726233294983 1.52175218263735 -1.8366276226439417 -1.5707648436175745 2.8938450813293457 -0.9630534648895264 -0.06801249831914902 0.09247570484876633 -0.022283904254436493 4.965964421899116e-07 -0.9502365589141846 1 True True
3233.4919999999997 4.414841651916504 -1.2595783931067963 1.5264366308795374 -1.8377577267088832 -1.5707805792437952 2.844034433364868 -1.0243641138076782 -0.07609400898218155 0.0993627980351448 -0.025719720870256424 -1.9270539802372906e-19 -1.026443600654602 1 True True
3233.542 4.36275053024292 -1.2633277934840699 1.5314410368548792 -1.839018007318014 -1.570801083241598 2.7920756340026855 -1.0471681356430054 -0.08105659484863281 0.10265447944402695 -0.02308722771704197 -0.00028714718064293265 -1.0503458976745605 1 True True
3233.5919999999996 4.3104448318481445 -1.2669804853251954 1.5365799109088343 -1.840222021142477 -1.5707843939410608 2.7395436763763428 -1.0521892309188843 -0.07403342425823212 0.09863253682851791 -0.024330245330929756 -6.236459739739075e-05 -1.0427823066711426 1 True True
3233.642 4.258093357086182 -1.2709705394557496 1.5416644255267542 -1.8412820301451625 -1.5707967917071741 2.6871790885925293 -1.0453476905822754 -0.07489731162786484 0.10125677287578583 -0.021306542679667473 0.0001987488503800705 -1.0520156621932983 1 True True
3233.692 4.205685138702393 -1.2747791868499299 1.5465319792376917 -1.8425880871214808 -1.5707686583148401 2.6349596977233887 -1.0475122928619385 -0.0813598707318306 0.10002496838569641 -0.020184973254799843 5.646389145014666e-20 -1.049419641494751 1 True True
3233.7419999999997 4.153305530548096 -1.2785895329764863 1.5514472166644495 -1.8437911472716273 -1.5708335081683558 2.5824973583221436 -1.0521334409713745 -0.07141347229480743 0.09938600659370422 -0.028431126847863197 -6.27064502753405e-12 -1.0407010316848755 1 True True
3233.792 4.100924968719482 -1.2823526126197358 1.5565789381610315 -1.844921728173727 -1.570801083241598 2.5300633907318115 -1.0454078912734985 -0.0723230242729187 0.10272867977619171 -0.02321627549827099 -9.52512382386558e-31 -1.0514684915542603 1 True True
3233.8419999999996 4.048614978790283 -1.2862317723086854 1.5614813009845179 -1.8461767635741175 -1.570784870778219 2.477884531021118 -1.0478142499923706 -0.07615435123443604 0.10410501807928085 -0.02401547133922577 -1.5848076440378605e-16 -1.0493078231811523 1 True True
3233.892 3.996209144592285 -1.2899441880038758 1.566634480153219 -1.8475095234312953 -1.5708211104022425 2.4253480434417725 -1.0521131753921509 -0.07545401901006699 0.09888709336519241 -0.030442964285612106 -5.401473539279333e-12 -1.0415650606155396 1 True True
3233.942 3.943882465362549 -1.293761507873871 1.5717805067645472 -1.8486072025694789 -1.570829216633932 2.372979164123535 -1.0454397201538086 -0.07908934354782104 0.09989156574010849 -0.02519277110695839 -7.670213797439374e-09 -1.0486021041870117 1 True True
3233.9919999999997 3.8915231227874756 -1.2976035636714478 1.5767305533038538 -1.8497263393797816 -1.5707209745990198 2.3207969665527344 -1.0448169708251953 -0.07845402508974075 0.09989221394062042 -0.02038710005581379 -1.1651073050755967e-27 -1.0498969554901123 1 True True
3234.042 3.8391449451446533 -1.3013833922198792 1.5815594832049769 -1.851039548913473 -1.570784870778219 2.268338441848755 -1.0505540370941162 -0.07654338330030441 0.10448034107685089 -0.026868704706430435 -6.537028405563527e-13 -1.0438340902328491 1 True True
3234.0919999999996 3.78664231300354 -1.3053278189948578 1.5867345968829554 -1.8521844349303187 -1.570801083241598 2.215888738632202 -1.0467205047607422 -0.07819055765867233 0.10064464062452316 -0.02638075314462185 -9.929758131678513e-32 -1.0447994470596313 1 True True
3234.142 3.7343180179595947 -1.309072570209839 1.5917003790484827 -1.853480955163473 -1.5707967917071741 2.163651466369629 -1.0443036556243896 -0.07492820173501968 0.10101822763681412 -0.022414254024624825 -1.0634378215280553e-16 -1.0511237382888794 1 True True
3234.192 3.682047128677368 -1.3129052978805085 1.5967558065997522 -1.8547131023802699 -1.5708087126361292 2.111258029937744 -1.0511947870254517 -0.0730728879570961 0.10136215388774872 -0.023995380848646164 5.120966761751333e-08 -1.0423787832260132 1 True True
3234.2419999999997 3.6296627521514893 -1.3166625064662476 1.6017792860614222 -1.85585417369985 -1.5707772413836878 2.0588626861572266 -1.0454661846160889 -0.07778827100992203 0.098523810505867 -0.024805905297398567 6.043698522262275e-05 -1.051550269126892 1 True True
3234.292 3.5773372650146484 -1.3204637926867981 1.6068466345416468 -1.8569909534850062 -1.570784870778219 2.0066351890563965 -1.046663761138916 -0.07648950815200806 0.0970848947763443 -0.024107802659273148 1.0076027685823608e-11 -1.0497413873672485 1 True True
3234.3419999999996 3.5250041484832764 -1.3242505949786683 1.6117523352252405 -1.8582078419127406 -1.5707767645465296 1.9541966915130615 -1.0490995645523071 -0.07927799224853516 0.09940717369318008 -0.02137966826558113 -1.3841758414370048e-13 -1.0459158420562744 1 True True
3234.392 3.4726078510284424 -1.3281140488437195 1.6167338530169886 -1.8594757519164027 -1.5708406607257288 1.9017268419265747 -1.046817421913147 -0.07741720229387283 0.10501839965581894 -0.025534596294164658 1.6401072487905416e-16 -1.043096899986267 1 True True
3234.442 3.420220136642456 -1.3319329184344788 1.6216967741595667 -1.8608080349364222 -1.570829216633932 1.8494130373001099 -1.0443190336227417 -0.0777478888630867 0.09826482832431793 -0.027461018413305283 2.4913259671547073e-35 -1.048051118850708 1 True True
3234.4919999999997 3.3678128719329834 -1.3357370060733338 1.6268141905414026 -1.8618961773314417 -1.570756737385885 1.7970829010009766 -1.0507745742797852 -0.07659658044576645 0.10363586246967316 -0.02275482937693596 0.0 -1.046075463294983 1 True True
3234.542 3.315493106842041 -1.3395960342935105 1.6318872610675257 -1.8630739651122035 -1.5708296934710901 1.7447187900543213 -1.0487409830093384 -0.07395997643470764 0.09990159422159195 -0.022720295935869217 -6.480887532234192e-05 -1.0492340326309204 1 True True
3234.5919999999996 3.2632904052734375 -1.3433762353709717 1.6369622389422815 -1.864281793633932 -1.570853058491842 1.6925181150436401 -1.0244094133377075 -0.07530204951763153 0.0976124182343483 -0.02455058880150318 2.0454425371345397e-13 -1.0295922756195068 1 True True
3234.642 3.2136473655700684 -1.3469639432481308 1.6416586081134241 -1.8653794727721156 -1.5708492437945765 1.6427685022354126 -0.9654496312141418 -0.07242973893880844 0.09331672638654709 -0.02256137691438198 9.341854223521295e-08 -0.9621606469154358 1 True True
3234.692 3.1673171520233154 -1.3503639859012146 1.646031681691305 -1.8664127788939417 -1.5707281271563929 1.5965756177902222 -0.886038601398468 -0.06388537585735321 0.0863836333155632 -0.020265493541955948 1.4190302674795686e-26 -0.8931365013122559 1 True True
3234.7419999999997 3.1245293617248535 -1.3534886550954361 1.6501291433917444 -1.867526193658346 -1.5707686583148401 1.5537313222885132 -0.822994589805603 -0.06054244190454483 0.07764974236488342 -0.018321312963962555 -4.939592571778784e-13 -0.8202989101409912 1 True True
3234.792 3.0853164196014404 -1.3563030672124405 1.6538451353656214 -1.8683845005431117 -1.5707843939410608 1.5146182775497437 -0.7530003190040588 -0.05338795483112335 0.07161813974380493 -0.02027101255953312 1.855604558897994e-11 -0.7546111941337585 1 True True
3234.8419999999996 3.0496156215667725 -1.3589296799949189 1.6572707335101526 -1.869216104547018 -1.5708444754229944 1.4786760807037354 -0.679597020149231 -0.04848891869187355 0.06880557537078857 -0.014968265779316425 0.00017173275409732014 -0.6806405186653137 1 True True
3234.892 3.017298460006714 -1.3613256377032776 1.6604951063739222 -1.8699432812132777 -1.5707686583148401 1.4464720487594604 -0.6077612042427063 -0.04608885198831558 0.05674726516008377 -0.01343077328056097 4.992887588358493e-16 -0.6136296987533569 1 True True
3234.942 2.9885385036468506 -1.3633706134608765 1.663293186818258 -1.8705793819823207 -1.5708168188678187 1.4177089929580688 -0.5399328470230103 -0.0399472750723362 0.052466779947280884 -0.009355491027235985 8.962326574722194e-17 -0.5451011061668396 1 True True
3234.9919999999997 2.9631667137145996 -1.365267128949501 1.6657674948321741 -1.8712111912169398 -1.5707610289203089 1.3923507928848267 -0.4702366292476654 -0.0332019217312336 0.04641399905085564 -0.008541619405150414 1.361380013525305e-35 -0.4720916748046875 1 True True
3235.042 2.9413132667541504 -1.3668438506177445 1.6677373091327112 -1.8716684780516566 -1.5707648436175745 1.3705495595932007 -0.40289685130119324 -0.029419904574751854 0.035997141152620316 -0.008854355663061142 0.0 -0.4042155146598816 1 True True
3235.0919999999996 2.9230051040649414 -1.368239552979805 1.669497315083639 -1.8721500835814417 -1.5707529226886194 1.3522257804870605 -0.3355151116847992 -0.02337176725268364 0.03151090070605278 -0.006996218580752611 0.0 -0.32874131202697754 1 True True
3235.142 2.9082369804382324 -1.3691660177758713 1.6709216276751917 -1.8724123440184535 -1.57074481645693 1.3373773097991943 -0.2602027654647827 -0.019656745716929436 0.025847576558589935 -0.007390881422907114 0.0 -0.2624991536140442 1 True True
3235.192 2.8969149589538574 -1.370075748567917 1.6719754377948206 -1.8726264439024867 -1.570784870778219 1.3260750770568848 -0.19133134186267853 -0.014670243486762047 0.01976046711206436 -0.005166250746697187 1.520682061853908e-15 -0.19504879415035248 1 True True
3235.2419999999997 2.889059066772461 -1.3706361812404175 1.6726773420916956 -1.8728534183897914 -1.570829216633932 1.3182995319366455 -0.1223817765712738 -0.009322430938482285 0.013139283284544945 -0.0027720369398593903 2.309918031052798e-34 -0.1230730265378952 1 True True
3235.292 2.8847098350524902 -1.3708421152881165 1.6730640570269983 -1.872948785821432 -1.5708087126361292 1.3139222860336304 -0.054274871945381165 -0.0026936004869639874 0.0022048959508538246 -0.002107900334522128 0.0 -0.05394444614648819 1 True True
3235.3419999999996 2.8837859630584717 -1.370894418363907 1.6732280890094202 -1.8732439480223597 -1.5707691351519983 1.3129552602767944 -0.001706733601167798 0.004269168712198734 0.0212824959307909 -0.03801451995968819 0.0 0.00034954873262904584 1 True True
3235.392 2.883809804916382 -1.3701354724219819 1.6749532858477991 -1.8759633503355921 -1.5707610289203089 1.3129260540008545 -0.0004197852686047554 0.02910890057682991 0.05458347499370575 -0.08360577374696732 9.88953896108511e-22 2.088733442391806e-14 1 True True
3235.442 2.8837249279022217 -1.3680069607547303 1.6788743177997034 -1.8818298778929652 -1.5707648436175745 1.3129433393478394 -0.0011119262780994177 0.05964868888258934 0.10387216508388519 -0.16968882083892822 1.5022199797254904e-40 -0.000284290814306587 1 True True
3235.4919999999997 2.8837502002716064 -1.364337534909584 1.685075585042135 -1.8915988407530726 -1.570784870778219 1.3129552602767944 -0.0005651290412060916 0.0855894386768341 0.1468190997838974 -0.22276759147644043 0.0 -0.0002852150646504015 1 True True
3235.542 2.8837051391601562 -1.359508292084076 1.6934893766986292 -1.9046627483763636 -1.5708006064044397 1.3128935098648071 -0.00021837542590219527 0.11098495125770569 0.19006618857383728 -0.299846887588501 0.0 -0.00024908289196901023 1 True True
3235.5919999999996 2.883693218231201 -1.3534343105605622 1.7039902845965784 -1.9211117229857386 -1.5707767645465296 1.312927007675171 -9.679312643129379e-05 0.13725629448890686 0.23050791025161743 -0.362688273191452 0.0 -0.000146089747431688 1 True True
3235.642 2.883702278137207 -1.346065492635109 1.7165892759906214 -1.9413911304869593 -1.570784870778219 1.3129065036773682 -8.912118937587366e-05 0.160420224070549 0.277474969625473 -0.42924952507019043 0.0 -9.692065941635519e-05 1 True True
3235.692 2.883702278137207 -1.3374335032752533 1.7317412535296839 -1.9647866688170375 -1.5707367102252405 1.3128979206085205 -1.7269721014765719e-35 0.18219582736492157 0.31793832778930664 -0.5015067458152771 0.0 -1.3398722235880012e-11 1 True True
3235.7419999999997 2.883714199066162 -1.3276256930879136 1.7486189047442835 -1.9918800793089808 -1.5708330313311976 1.3129065036773682 -1.5043811529835693e-08 0.2013639509677887 0.3536751866340637 -0.5618231892585754 0.0 -2.0352689746069372e-30 1 True True
3235.792 2.883693218231201 -1.3180024784854432 1.7654035727130335 -2.0182343922057093 -1.5707767645465296 1.312881588935852 -2.6980297058071288e-20 0.18266862630844116 0.3066815733909607 -0.48889416456222534 0.0 -0.0 1 True True
3235.8419999999996 2.88370680809021 -1.3096452814391633 1.7796991507159632 -2.0409795246519984 -1.5707371870623987 1.3129141330718994 0.0 0.15229083597660065 0.26743659377098083 -0.4136815667152405 -2.6701213684532377e-08 -0.0 1 True True
3235.892 2.8837218284606934 -1.3026477259448548 1.792182747517721 -2.0603677235045375 -1.5707891623126429 1.3129465579986572 0.0 0.12776009738445282 0.220086008310318 -0.3510264754295349 -4.055920255288066e-27 -0.0 1 True True
3235.942 2.883681297302246 -1.2967980068973084 1.8020179907428187 -2.076174875298971 -1.5707805792437952 1.312898874282837 0.0 0.1072726845741272 0.1804380565881729 -0.2964005470275879 -0.0 -0.0 1 True True
3235.9919999999997 2.883702278137207 -1.2922591131976624 1.8099516073810022 -2.088578840295309 -1.5707648436175745 1.3128739595413208 0.0 0.07909735292196274 0.13821667432785034 -0.20950531959533691 -0.0 -0.0 1 True True
3236.042 2.8837263584136963 -1.2890727382949372 1.8156340757953089 -2.0975333652892054 -1.5708211104022425 1.312927007675171 0.0 0.05431495979428291 0.09610851854085922 -0.14661994576454163 -0.0 -0.0 1 True True
3236.0919999999996 2.883747100830078 -1.2870362263968964 1.8191412130938929 -2.102896352807516 -1.5708697477923792 1.312894582748413 0.0 0.02795286290347576 0.04526717960834503 -0.0879468321800232 -0.0 -0.0 1 True True
3236.142 2.8836441040039062 -1.2867373389056702 1.819789234791891 -2.1049634418883265 -1.570813004170553 1.3128859996795654 0.0 -0.00013188383309170604 0.0002188641083193943 -0.002805824624374509 -0.00025196108617819846 -0.0 1 True True
3236.192 2.883661985397339 -1.286656693821289 1.819838825856344 -2.104868074456686 -1.5708449522601526 1.312938928604126 0.0 0.003837630385532975 0.0027798207011073828 0.0004397919401526451 -5.106417320103118e-15 -0.0 1 True True
