Andreas691667/Digital_Twin_UR/src/robot_connection_manager/robot_output/sq_1_5_miss_old_robot_output.csv
timestamp actual_q_0 actual_q_1 actual_q_2 actual_q_3 actual_q_4 actual_q_5 actual_qd_0 actual_qd_1 actual_qd_2 actual_qd_3 actual_qd_4 actual_qd_5 safety_status output_bit_register_65 output_bit_register_66
476.77 3.7120907306671143 -0.8255202931216736 0.842959229146139 -1.5883456669249476 -1.5707491079913538 2.141324996948242 0.0 0.0 0.0 0.0 -0.0 0.0 1 False False
476.82 3.7121026515960693 -0.8255320352366944 0.8429439703570765 -1.5882655582823695 -1.5707967917071741 2.1412951946258545 0.0 0.0 0.0 0.0 -0.0 0.0 1 False False
476.87 3.7120323181152344 -0.825481728916504 0.8429892698871058 -1.588313718835348 -1.570784870778219 2.141279697418213 0.0 0.0 0.0 0.0 -0.0 0.0 1 False False
476.91999999999996 3.712062358856201 -0.8254779738238831 0.8429892698871058 -1.588245531121725 -1.5708006064044397 2.1413004398345947 0.0 0.0 0.0 0.0 -0.0 0.0 1 False False
476.96999999999997 3.7120535373687744 -0.8254706424525757 0.8429587523089808 -1.588285585443014 -1.570829216633932 2.141291618347168 0.0 0.0 0.0 0.0 -0.0 1.0813190698399922e-07 1 False False
477.02 3.712087631225586 -0.8255068820765992 0.8429678122149866 -1.588269372979635 -1.570784870778219 2.14132022857666 0.0 0.0 0.0 0.0 -0.0 -1.1342933061690034e-20 1 False False
477.07 3.7120578289031982 -0.8255202931216736 0.8429191748248499 -1.5882417164244593 -1.5707810560809534 2.141295909881592 0.0 0.0 0.0 0.0 -0.0 -5.76260204469844e-17 1 False False
477.12 3.7120368480682373 -0.8254993718913575 0.8429515997516077 -1.5882774792113246 -1.5708087126361292 2.141287088394165 0.0 0.0 0.0 0.0 -0.0 -8.75340363123211e-36 1 False False
477.16999999999996 3.7120907306671143 -0.825466052894928 0.8429935614215296 -1.588273664514059 -1.5707805792437952 2.1413004398345947 0.0 0.0 0.0 0.0 -0.0 -0.0 1 False False
477.21999999999997 3.7120413780212402 -0.8254736226848145 0.8430097738849085 -1.588280817071432 -1.570813004170553 2.1413040161132812 0.0 0.0 0.0 0.0 -0.0 -0.0 1 False False
477.27 3.7120535373687744 -0.825502411728241 0.8429587523089808 -1.5883246860899867 -1.570784870778219 2.1413216590881348 0.0 0.0 0.0 0.0 -0.0 -0.0 1 False False
477.32 3.7120819091796875 -0.8254950207522889 0.8429673353778284 -1.5883127651610316 -1.5707686583148401 2.141254425048828 0.0 0.0 0.0 0.0 -0.0 -0.0 1 False False
477.37 3.712029457092285 -0.8254751128009339 0.8429067770587366 -1.588269372979635 -1.570784870778219 2.141258955001831 0.0 0.0 0.0 0.0 -0.0 -0.0 1 False False
477.41999999999996 3.7120742797851562 -0.8255275648883362 0.8429678122149866 -1.5883733234801234 -1.57074481645693 2.141329288482666 0.0 0.0 0.0 0.0 -0.0 -0.0 1 False False
477.46999999999997 3.712127685546875 -0.8254906100085755 0.8429892698871058 -1.5883084736266078 -1.5708006064044397 2.1412997245788574 0.0 0.0 0.0 0.0 -0.0 -0.0 1 False False
477.52 3.7120773792266846 -0.8255202335170289 0.8429892698871058 -1.588280817071432 -1.5707362333880823 2.141270875930786 0.0 0.0 0.0 0.0 -0.0 -0.0 1 False False
477.57 3.7121188640594482 -0.8255409163287659 0.8430007139789026 -1.588320871392721 -1.5707767645465296 2.141308546066284 0.0 0.0 0.0 0.0 -0.0 -0.0 1 False False
477.62 3.7120893001556396 -0.8255188030055542 0.8429515997516077 -1.5883251629271449 -1.5707605520831507 2.141317129135132 0.0 0.0 0.0 0.0 -0.0 -0.0 1 False False
477.66999999999996 3.7120282649993896 -0.8254617613605042 0.8429978529559534 -1.5882817707457484 -1.5707967917071741 2.1412839889526367 0.0 0.0 0.0 0.0 -0.0 -0.0 1 False False
477.71999999999997 3.7121145725250244 -0.8255001467517395 0.8429892698871058 -1.5882846317686976 -1.570756737385885 2.141336441040039 0.0 0.0 0.0 0.0 -0.0 -0.0 1 False False
477.77 3.7120893001556396 -0.8255438369563599 0.8429811636554163 -1.588292738000387 -1.5707929770099085 2.14125919342041 0.0 0.0 0.0 0.0 -0.0 -0.0 1 False False
477.82 3.71207857131958 -0.8254824441722413 0.8429587523089808 -1.5883251629271449 -1.5707805792437952 2.141263484954834 0.0 0.0 0.0 0.0 -0.0 -0.0 1 False False
477.87 3.7120981216430664 -0.8254913252643128 0.8429630438434046 -1.5883094273009242 -1.570772949849264 2.141317129135132 0.0 0.0 0.0 0.0 -0.0 -0.0 1 False False
477.91999999999996 3.7121024131774902 -0.8254906100085755 0.8430145422564905 -1.5883170566954554 -1.570801083241598 2.141279697418213 0.0 0.0 0.0 0.0 -0.0 -0.0 1 False False
477.96999999999997 3.7121024131774902 -0.8254706424525757 0.8429563681231897 -1.5883013210692347 -1.5708254019366663 2.141247272491455 0.0 0.0 0.0 0.0 -0.0 -0.0 1 False False
478.02 3.7121024131774902 -0.8255438965610047 0.8429811636554163 -1.5883056126036585 -1.570784870778219 2.141270875930786 0.0 0.0 0.0 0.0 -0.0 -0.0 1 False False
478.07 3.7120699882507324 -0.8255232137492676 0.8429892698871058 -1.588320871392721 -1.5707767645465296 2.1413040161132812 0.0 0.0 0.0 0.0 -0.0 -0.0 1 False False
478.12 3.7121264934539795 -0.825508252983429 0.8429721037494105 -1.588297029534811 -1.570772949849264 2.141270875930786 0.0 0.0 0.0 0.0 -0.0 -0.0 1 False False
478.16999999999996 3.7120373249053955 -0.8255201739123841 0.8429515997516077 -1.5883127651610316 -1.5707772413836878 2.141295909881592 0.0 0.0 0.0 0.0 -0.0 -0.0 1 False False
478.21999999999997 3.7121024131774902 -0.825487033729889 0.8429482618915003 -1.588269372979635 -1.5707648436175745 2.1413044929504395 0.0 0.0 0.0 0.0 -0.0 -0.0 1 False False
478.27 3.712090492248535 -0.8255333465388794 0.8430264631854456 -1.5882889233031214 -1.5708254019366663 2.141312837600708 0.0 0.0 0.0 0.0 -0.0 -0.0 1 False False
478.32 3.7120656967163086 -0.8254661721042176 0.8429935614215296 -1.5882774792113246 -1.5707767645465296 2.141295909881592 0.0 0.0 0.0 0.0 -0.0 -0.0 1 False False
478.37 3.7120165824890137 -0.8255245250514527 0.8429721037494105 -1.588320871392721 -1.5707767645465296 2.141279697418213 0.0 0.0 0.0 0.0 -0.0 -0.0 1 False False
478.41999999999996 3.7121317386627197 -0.8254707020572205 0.8429678122149866 -1.5882731876769007 -1.5707648436175745 2.141282796859741 0.0 0.0 0.0 0.0 -0.0 -0.0 1 False False
478.46999999999997 3.7120537757873535 -0.8254949611476441 0.8429964224444788 -1.5883094273009242 -1.5707967917071741 2.141275405883789 0.0 0.0 0.0 0.0 -0.0 -0.0 1 False False
478.52 3.7120862007141113 -0.8255364459804078 0.8429740110980433 -1.5882650814452113 -1.570784870778219 2.1412882804870605 0.0 0.0 0.0 0.0 -0.0 -0.0 1 False False
478.57 3.7120776176452637 -0.8255319160274048 0.8429515997516077 -1.5882731876769007 -1.5707648436175745 2.141317129135132 0.0 0.0 0.0 0.0 -0.0 -0.0 1 False False
478.62 3.7121024131774902 -0.825508252983429 0.8429392019854944 -1.5882774792113246 -1.5708373228656214 2.1413002014160156 0.0 0.0 0.0 0.0 -0.0 -0.0 1 False False
478.66999999999996 3.712094783782959 -0.8255438369563599 0.8429144064532679 -1.5883046589293421 -1.5707324186908167 2.141312837600708 0.0 0.0 0.0 0.0 -0.0 -0.0 1 False False
478.71999999999997 3.7121024131774902 -0.8254661721042176 0.8429887930499476 -1.5883456669249476 -1.5707767645465296 2.1413044929504395 0.0 0.0 0.0 0.0 -0.0 -0.0 1 False False
478.77 3.712066650390625 -0.8255112928203125 0.8429563681231897 -1.5883056126036585 -1.570801083241598 2.1413419246673584 1.026001983026048e-12 0.0 0.0 0.0 -0.0 -0.0 1 False False
478.82 3.712094783782959 -0.8254707020572205 0.8429935614215296 -1.588280817071432 -1.5707967917071741 2.1413040161132812 0.0 0.0 0.0 0.0 -0.0 -0.0 1 False False
478.87 3.712066650390625 -0.8255437773517151 0.8429678122149866 -1.5882417164244593 -1.5707524458514612 2.141247272491455 0.0 0.0 0.0 0.0 -0.0 -0.0 1 False False
478.91999999999996 3.712082862854004 -0.8254824441722413 0.8430259863482874 -1.588292738000387 -1.5707767645465296 2.1412839889526367 0.0 0.0 0.0 0.0 -0.0 -0.0 1 False False
478.96999999999997 3.712054491043091 -0.8255363267711182 0.8429930845843714 -1.5882851086058558 -1.5707929770099085 2.1413376331329346 0.0 0.0 0.0 0.0 -0.0 -0.0 1 False False
479.02 3.7120416164398193 -0.8254956167987366 0.8429935614215296 -1.5882851086058558 -1.5707724730121058 2.141270637512207 0.0 0.0 0.0 0.0 -0.0 -0.0 1 False False
479.07 3.712094783782959 -0.825482503776886 0.8429763952838343 -1.5883013210692347 -1.5707686583148401 2.14131760597229 0.0 0.0 0.0 0.0 -0.0 -0.0 1 False False
479.12 3.712095022201538 -0.8254575890353699 0.8429635206805628 -1.5882612667479457 -1.5708087126361292 2.141254186630249 0.0 0.0 0.0 0.0 -0.0 -0.0 1 False False
479.16999999999996 3.7120981216430664 -0.8255156439593812 0.8429759184466761 -1.5882774792113246 -1.570813004170553 2.14127516746521 0.0 0.0 0.0 0.0 -0.0 -0.0 1 False False
479.21999999999997 3.712050199508667 -0.8255124849132081 0.8429887930499476 -1.5883246860899867 -1.5708211104022425 2.141247034072876 0.0 0.0 0.0 0.0 -0.0 -0.0 1 False False
479.27 3.7120981216430664 -0.8254782122424622 0.8429887930499476 -1.588297506371969 -1.5707972685443323 2.141258955001831 0.0 0.0 0.0 0.0 -0.0 -0.0 1 False False
479.32 3.712083101272583 -0.8254739207080384 0.8429964224444788 -1.5882889233031214 -1.5707967917071741 2.141270637512207 0.0 0.0 0.0 0.0 -0.0 -0.0 1 False False
479.37 3.7120742797851562 -0.8254619997790833 0.8430212179767054 -1.5882812939085902 -1.570756737385885 2.1412513256073 0.0 0.0 0.0 0.0 -0.0 -0.0 1 False False
479.41999999999996 3.7120490074157715 -0.8254738611033936 0.8430169264422815 -1.588269372979635 -1.5708335081683558 2.141291618347168 0.0 0.0 0.0 0.0 -0.0 -0.0 1 False False
479.46999999999997 3.712062358856201 -0.8255286377719422 0.8429845015155237 -1.5882932148375453 -1.5707843939410608 2.14127516746521 0.0 0.0 0.0 0.0 -0.0 -0.0 1 False False
479.52 3.7120773792266846 -0.8254662913135071 0.8430212179767054 -1.5882889233031214 -1.5707648436175745 2.141267776489258 0.0 0.0 0.0 0.0 -0.0 -0.0 1 False False
479.57 3.7120535373687744 -0.825482503776886 0.8430050055133265 -1.5882932148375453 -1.5707648436175745 2.141247034072876 0.0 0.0 0.0 0.0 -0.0 -0.0 1 False False
479.62 3.712111473083496 -0.8254907888225098 0.8430288473712366 -1.5882846317686976 -1.5708492437945765 2.14131760597229 0.0 0.0 0.0 0.0 -0.0 -0.0 1 False False
479.66999999999996 3.7120399475097656 -0.8254577678493042 0.8429887930499476 -1.5882607899107875 -1.570801083241598 2.141270637512207 0.0 0.0 0.0 0.0 -0.0 -0.0 1 False False
479.71999999999997 3.712106943130493 -0.825491265659668 0.8429678122149866 -1.5882731876769007 -1.5707605520831507 2.1413204669952393 0.0 0.0 0.0 0.0 -0.0 -0.0 1 False False
479.77 3.7120862007141113 -0.825491265659668 0.843020264302389 -1.5883175335326136 -1.570813004170553 2.141287088394165 0.0 0.0 0.0 0.0 -0.0 -0.0 1 False False
479.82 3.7120935916900635 -0.8255038422397156 0.842931095753805 -1.588297029534811 -1.5707805792437952 2.14131760597229 0.0 0.0 0.0 0.0 -0.0 -0.0 1 False False
479.87 3.7121191024780273 -0.8254577678493042 0.8429353872882288 -1.5882731876769007 -1.5707648436175745 2.141221523284912 0.0 0.0 0.0 0.0 -0.0 -0.0 1 False False
479.91999999999996 3.7120771408081055 -0.8254620593837281 0.8430050055133265 -1.5883013210692347 -1.5707648436175745 2.141258716583252 0.0 0.0 0.0 0.0 -0.0 -0.0 1 False False
479.96999999999997 3.7120862007141113 -0.8255199950984498 0.8429845015155237 -1.588320871392721 -1.570756737385885 2.1413049697875977 0.0 0.0 0.0 0.0 -0.0 -0.0 1 False False
480.02 3.7121026515960693 -0.8254620593837281 0.8430007139789026 -1.588341852227682 -1.5707767645465296 2.141254186630249 2.7410474064126777e-12 0.0 0.0 0.0 -0.0 -0.0 1 False False
480.07 3.7120771408081055 -0.8254620593837281 0.8430007139789026 -1.5883127651610316 -1.570756737385885 2.14131760597229 0.0 0.0 0.0 0.0 -0.0 -0.0 1 False False
480.12 3.7120490074157715 -0.8254955571940918 0.8429721037494105 -1.5883094273009242 -1.5708335081683558 2.141247034072876 0.0 0.0 0.0 0.0 -0.0 -0.0 1 False False
480.16999999999996 3.7120819091796875 -0.8254993122867127 0.8429563681231897 -1.5882932148375453 -1.570829216633932 2.141291618347168 0.0 0.0 0.0 0.0 -0.0 -0.0 1 False False
480.21999999999997 3.7120935916900635 -0.8255070012858887 0.8430126349078577 -1.5883170566954554 -1.5707967917071741 2.141308546066284 0.0 0.0 0.0 0.0 -0.0 -0.0 1 False False
480.27 3.7121026515960693 -0.8254588407329102 0.8430169264422815 -1.5883251629271449 -1.570813004170553 2.141247034072876 0.0 0.0 0.0 0.0 -0.0 -0.0 1 False False
480.32 3.7120697498321533 -0.8254912060550232 0.8430050055133265 -1.5882817707457484 -1.5707925001727503 2.141263246536255 0.0 0.0 0.0 0.0 -0.0 -0.0 1 False False
480.37 3.7120487689971924 -0.8254950803569336 0.842959229146139 -1.588320871392721 -1.5708377997027796 2.141308546066284 0.0 0.0 0.0 0.0 -0.0 -0.0 1 False False
480.41999999999996 3.7120816707611084 -0.825487033729889 0.842959229146139 -1.5882250271239222 -1.570784870778219 2.141270637512207 0.0 0.0 0.0 0.0 -0.0 -0.0 1 False False
480.46999999999997 3.712127923965454 -0.8255080741694947 0.8429964224444788 -1.5883127651610316 -1.570784870778219 2.1413004398345947 0.0 0.0 0.0 0.0 -0.0 -0.0 1 False False
480.52 3.7120535373687744 -0.8254588407329102 0.8429630438434046 -1.588280817071432 -1.5707648436175745 2.141237735748291 0.0 0.0 0.0 0.0 -0.0 -0.0 1 False False
480.57 3.7120578289031982 -0.8254825633815308 0.8430379072772425 -1.5882932148375453 -1.5708444754229944 2.141267776489258 0.0 0.0 0.0 0.0 -0.0 -0.0 1 False False
480.62 3.712062358856201 -0.8254865568927308 0.8429978529559534 -1.5883413753905238 -1.5707691351519983 2.1413369178771973 0.0 0.0 0.0 0.0 -0.0 -0.0 1 False False
480.66999999999996 3.7121026515960693 -0.8255652350238343 0.8429978529559534 -1.5883494816222132 -1.5708406607257288 2.141296148300171 0.0 0.0 0.0 0.0 -0.0 -0.0 1 False False
480.71999999999997 3.712095022201538 -0.825478271847107 0.8429630438434046 -1.5883375606932582 -1.5707767645465296 2.141267776489258 0.0 0.0 0.0 0.0 -0.0 -0.0 1 False False
480.77 3.712062358856201 -0.825478271847107 0.8429763952838343 -1.5883013210692347 -1.5708087126361292 2.141270637512207 0.0 0.0 0.0 0.0 -0.0 -0.0 1 False False
480.82 3.7120578289031982 -0.8255155843547364 0.8429892698871058 -1.5882889233031214 -1.5707691351519983 2.141279697418213 2.4384764401474968e-05 0.0 0.0 0.0 -0.0 -0.0 1 False False
480.87 3.7120444774627686 -0.8254750531962891 0.8429563681231897 -1.588269372979635 -1.5707610289203089 2.141329526901245 1.4537688002747018e-05 0.0 0.0 0.0 -0.0 -0.0 1 False False
480.91999999999996 3.7120981216430664 -0.8255242866328736 0.8430007139789026 -1.5883251629271449 -1.5707686583148401 2.14127516746521 1.0355836820963304e-05 0.0 0.0 0.0 -0.0 -0.0 1 False False
480.96999999999997 3.7120277881622314 -0.8255070012858887 0.8429721037494105 -1.588273664514059 -1.5708168188678187 2.141279697418213 0.0 0.0 0.0 0.0 -0.0 -0.0 1 False False
481.02 3.7120490074157715 -0.8255404394916077 0.8430174032794397 -1.5883332691588343 -1.5707810560809534 2.141258955001831 0.0 0.0 0.0 0.0 -0.0 -0.0 1 False False
481.07 3.7121026515960693 -0.8255275648883362 0.8429606596576136 -1.5882607899107875 -1.570841137562887 2.141279697418213 0.0 0.0 0.0 0.0 -0.0 -0.0 1 False False
481.12 3.7121026515960693 -0.825491265659668 0.8429673353778284 -1.5882569752135218 -1.5707767645465296 2.141287088394165 0.0 0.0 0.0 0.0 -0.0 -0.0 1 False False
481.16999999999996 3.7120862007141113 -0.8255037826350708 0.8429892698871058 -1.5882774792113246 -1.5707967917071741 2.141270637512207 0.0 0.0 0.0 0.0 -0.0 -0.0 1 False False
481.21999999999997 3.7120490074157715 -0.8255199950984498 0.8430026213275355 -1.5882607899107875 -1.5707529226886194 2.141279697418213 0.0 0.0 0.0 0.0 -0.0 -0.0 1 False False
481.27 3.712062358856201 -0.8255080741694947 0.8429721037494105 -1.588292738000387 -1.5707772413836878 2.141313076019287 0.0 0.0 0.0 0.0 -0.0 -0.0 1 False False
481.32 3.7120368480682373 -0.8254340452006836 0.8429935614215296 -1.588308950463766 -1.5708168188678187 2.1412997245788574 0.0 0.0 0.0 0.0 -0.0 -0.0 1 False False
481.37 3.7120697498321533 -0.8255037826350708 0.8430007139789026 -1.588332315484518 -1.5707486311541956 2.1413047313690186 0.0 0.0 0.0 0.0 -0.0 -0.0 1 False False
481.41999999999996 3.7120251655578613 -0.8254416149905701 0.8430307547198694 -1.5882889233031214 -1.5707891623126429 2.1413114070892334 0.0 0.0 0.0 0.0 -0.0 -0.0 1 False False
481.46999999999997 3.7120742797851562 -0.8254869741252442 0.8429473082171839 -1.5883375606932582 -1.570756737385885 2.1413047313690186 0.0 0.0 0.0 0.0 -0.0 -0.0 1 False False
481.52 3.7120819091796875 -0.8254620593837281 0.8429587523089808 -1.5882932148375453 -1.5707805792437952 2.141258955001831 0.0 0.0 0.0 0.0 -0.0 -0.0 1 False False
481.57 3.7120697498321533 -0.8255317372134705 0.8429802099810999 -1.5883170566954554 -1.570756737385885 2.1412839889526367 0.0 0.0 0.0 0.0 -0.0 -0.0 1 False False
481.62 3.7120862007141113 -0.825457827453949 0.8429802099810999 -1.5882612667479457 -1.5707929770099085 2.141312837600708 0.0 0.0 0.0 0.0 -0.0 -0.0 1 False False
481.66999999999996 3.712066650390625 -0.8255523604205628 0.8429258505450647 -1.5883013210692347 -1.570801083241598 2.141313076019287 0.0 0.0 0.0 0.0 -0.0 -0.0 1 False False
481.71999999999997 3.7121639251708984 -0.8254954975894471 0.8429473082171839 -1.5882932148375453 -1.5707805792437952 2.1412501335144043 0.0 0.0 0.0 0.0 -0.0 -0.0 1 False False
481.77 3.712095022201538 -0.8255447310260315 0.8429473082171839 -1.5882889233031214 -1.5707891623126429 2.141254425048828 0.0 0.0 0.0 0.0 -0.0 -0.0 1 False False
481.82 3.7120981216430664 -0.825478271847107 0.8429964224444788 -1.5882774792113246 -1.5707767645465296 2.141312837600708 0.0 0.0 0.0 0.0 -0.0 -0.0 1 False False
481.87 3.7120862007141113 -0.8255470556071778 0.8430054823504847 -1.588297029534811 -1.5707891623126429 2.1413660049438477 0.0 0.0 0.0 0.0 -0.0 -0.0 1 False False
481.91999999999996 3.7121264934539795 -0.8255199950984498 0.8429721037494105 -1.588269372979635 -1.5707967917071741 2.141312837600708 0.0 0.0 0.0 0.0 -0.0 -0.0 1 False False
481.96999999999997 3.7120938301086426 -0.8254993718913575 0.8429845015155237 -1.5882889233031214 -1.5707724730121058 2.1412220001220703 6.585333469469726e-39 0.0 0.0 0.0 -0.0 -0.0 1 False False
482.02 3.7120656967163086 -0.8255284589580079 0.8430007139789026 -1.5882650814452113 -1.5707724730121058 2.141275405883789 0.0 0.0 0.0 0.0 -0.0 -0.0 1 False False
482.07 3.7121143341064453 -0.825465516453125 0.8430293242083948 -1.5882607899107875 -1.5708368460284632 2.1412882804870605 0.0 0.0 0.0 0.0 -0.0 -0.0 1 True False
482.12 3.7120327949523926 -0.8255039614490052 0.8429887930499476 -1.5882731876769007 -1.5707724730121058 2.141282796859741 0.0 0.0 0.0 0.0 -0.0 -0.0 1 True False
482.16999999999996 3.71207857131958 -0.8255403798869629 0.8429439703570765 -1.5883251629271449 -1.570784870778219 2.141275405883789 0.0 0.0 0.0 0.0 -0.0 -0.0 1 True False
482.21999999999997 3.7120327949523926 -0.8254502576640625 0.8429964224444788 -1.5882650814452113 -1.570801083241598 2.1412546634674072 0.0 0.0 0.0 0.0 -0.0 -0.0 1 True False
482.27 3.7121024131774902 -0.8255027097514649 0.8430040518390101 -1.5883733234801234 -1.5707605520831507 2.141275405883789 0.0 0.0 0.0 0.0 -0.0 -0.0 1 True False
482.32 3.712062358856201 -0.8255037826350708 0.8430169264422815 -1.5882650814452113 -1.5708168188678187 2.141287088394165 0.0 0.0 0.0 0.0 -0.0 -0.0 1 True False
482.37 3.712110996246338 -0.8254417341998597 0.8429673353778284 -1.5882607899107875 -1.5707929770099085 2.141317129135132 0.0 0.0 0.0 0.0 -0.0 -0.0 1 True False
482.41999999999996 3.712040662765503 -0.8254417341998597 0.8429515997516077 -1.5882889233031214 -1.570829216633932 2.141324758529663 0.0 0.0 0.0 0.0 -0.0 -0.0 1 True False
482.46999999999997 3.7120449542999268 -0.8255251210979004 0.8429935614215296 -1.5882817707457484 -1.5708211104022425 2.141247272491455 0.0 0.0 0.0 0.0 -0.0 -0.0 1 True False
482.52 3.7121100425720215 -0.8255316776088257 0.8429678122149866 -1.5883046589293421 -1.5708211104022425 2.1412439346313477 0.0 0.0 0.0 0.0 -0.0 -0.0002877979422919452 1 True False
482.57 3.712110996246338 -0.8255112928203125 0.8429845015155237 -1.5882250271239222 -1.5708335081683558 2.1412882804870605 0.0 0.0 0.0 0.0 -0.0 0.002295268001034856 1 True False
482.62 3.7120862007141113 -0.8255155247500916 0.8429349104510706 -1.588273664514059 -1.5707648436175745 2.1412148475646973 0.0 0.0 0.0 0.0 -0.0 0.00012085252092219889 1 True False
482.66999999999996 3.712082862854004 -0.8255769175342103 0.8429759184466761 -1.5882774792113246 -1.5707724730121058 2.141312837600708 0.0 0.0 0.0 0.0 -0.0 -5.932766827898767e-20 1 True False
482.71999999999997 3.7128756046295166 -0.8258760732463379 0.8435123602496546 -1.5885645351805628 -1.5707886854754847 2.1420724391937256 0.04782484844326973 -0.021215971559286118 0.033739157021045685 -0.016492964699864388 -0.0 0.04262738674879074 1 True False
482.77 3.716785430908203 -0.827777699833252 0.8464892546283167 -1.5895897350706996 -1.5708492437945765 2.1461434364318848 0.11188869923353195 -0.0556117407977581 0.09089021384716034 -0.02960045449435711 -0.0 0.11218339949846268 1 True False
482.82 3.724543333053589 -0.8316336435130616 0.8526352087603968 -1.5916763744749964 -1.5707772413836878 2.1537795066833496 0.18975137174129486 -0.1007876843214035 0.14317944645881653 -0.056510698050260544 -0.0 0.1838197559118271 1 True False
482.87 3.735583543777466 -0.8375895184329529 0.8612049261676233 -1.5944262943663539 -1.5707805792437952 2.1648342609405518 0.25564906001091003 -0.13078206777572632 0.20354779064655304 -0.06270923465490341 -0.0 0.25017115473747253 1 True False
482.91999999999996 3.750229835510254 -0.8449589175036927 0.8725922743426722 -1.5982738933958949 -1.5708048979388636 2.179344892501831 0.32366347312927246 -0.16409516334533691 0.25482499599456787 -0.09259626269340515 0.00010091287549585104 0.3228268027305603 1 True False
482.96999999999997 3.768153667449951 -0.8542883557132264 0.886596981679098 -1.6030308208861292 -1.5708492437945765 2.1973869800567627 0.3995341658592224 -0.2031909078359604 0.3064216375350952 -0.09985864907503128 7.20566968084313e-05 0.39370793104171753 1 True False
483.02 3.789808988571167 -0.8653118175319214 0.903391186391012 -1.6087376079955042 -1.5707767645465296 2.219003200531006 0.4613388478755951 -0.24147216975688934 0.3611394166946411 -0.11391165852546692 9.060605225386098e-05 0.46288198232650757 1 True False
483.07 3.8149051666259766 -0.8780920070460816 0.9228323141681116 -1.6154042683043421 -1.5707405249225062 2.243941307067871 0.5379541516304016 -0.27314653992652893 0.4133227467536926 -0.1413571834564209 7.084960088832304e-05 0.5352494716644287 1 True False
483.12 3.8433172702789307 -0.8927830022624512 0.9449766317950647 -1.6229759655394496 -1.5708087126361292 2.272340774536133 0.6065691113471985 -0.3112555146217346 0.46737566590309143 -0.15359531342983246 4.091832775388049e-11 0.609481155872345 1 True False
483.16999999999996 3.875296115875244 -0.9092257183841248 0.9697688261615198 -1.6314298115172328 -1.5707686583148401 2.3044846057891846 0.6704050302505493 -0.34437301754951477 0.5202666521072388 -0.1706874966621399 6.2155040566395475e-30 0.6798949837684631 1 True False
483.21999999999997 3.910797595977783 -0.9272748392871399 0.9974191824542444 -1.6406737766661585 -1.5707967917071741 2.339906930923462 0.7477514147758484 -0.3823363482952118 0.5847278237342834 -0.20226484537124634 0.0 0.7517196536064148 1 True False
483.27 3.9497742652893066 -0.9474665087512513 1.0276144186602991 -1.65110506633901 -1.5707247892962855 2.3790719509124756 0.817939817905426 -0.4181956350803375 0.6285799741744995 -0.21327261626720428 0.0 0.8099857568740845 1 True False
483.32 3.992295980453491 -0.9691633743098755 1.0606959501849573 -1.6621633968748988 -1.570829216633932 2.4214723110198975 0.8799556493759155 -0.4499611556529999 0.6881471872329712 -0.23630063235759735 -5.604557182931069e-12 0.8780865669250488 1 True False
483.37 4.03822135925293 -0.992680625324585 1.096269432698385 -1.6742826900877894 -1.5707967917071741 2.467393159866333 0.9558291435241699 -0.48904329538345337 0.7412207722663879 -0.2449263334274292 -8.513334458711689e-31 0.961396336555481 1 True False
483.41999999999996 4.087662220001221 -1.018018440609314 1.134714428578512 -1.6875378094115199 -1.5708368460284632 2.5168590545654297 1.0198309421539307 -0.5288237929344177 0.789712131023407 -0.26906827092170715 -0.0 1.015821099281311 1 True False
483.46999999999997 4.139819622039795 -1.044767753486969 1.1752379576312464 -1.7011438808836878 -1.5707529226886194 2.569202184677124 1.0483795404434204 -0.5384538769721985 0.8094022870063782 -0.2668515741825104 -4.097002238268033e-05 1.0465525388717651 1 True False
483.52 4.19222354888916 -1.0716525477221985 1.215860668812887 -1.7149464092650355 -1.5707529226886194 2.6213152408599854 1.049880862236023 -0.537415087223053 0.8107973337173462 -0.2844758927822113 7.255829617691667e-12 1.050608515739441 1 True False
483.57 4.2445902824401855 -1.0984551471522828 1.2566188017474573 -1.7287994823851527 -1.5707486311541956 2.673755645751953 1.044308066368103 -0.5345658659934998 0.8107283115386963 -0.26896488666534424 -7.532017480116338e-05 1.042182445526123 1 True False
483.62 4.296900272369385 -1.1253241163543244 1.297281567250387 -1.7425700626769007 -1.5707805792437952 2.726294755935669 1.049806833267212 -0.5345845818519592 0.8145372867584229 -0.2631774842739105 -0.00013709426275454462 1.0524271726608276 1 True False
483.66999999999996 4.349251747131348 -1.152113602762558 1.337858025227682 -1.7564012012877406 -1.5707281271563929 2.778421640396118 1.047196388244629 -0.5337927341461182 0.814242959022522 -0.2678886950016022 -2.6648810603010923e-16 1.0548955202102661 1 True False
483.71999999999997 4.401668071746826 -1.1789447230151673 1.378382984791891 -1.7703753910460414 -1.5708044211017054 2.830775737762451 1.044792652130127 -0.5343551635742188 0.8129574656486511 -0.2644120156764984 -5.4015370551496744e-05 1.0383983850479126 1 True False
483.77 4.452703475952148 -1.2051834923079987 1.418119255696432 -1.783947607079977 -1.5708497206317347 2.8820698261260986 0.9865743517875671 -0.5110121369361877 0.764391303062439 -0.2585024833679199 -5.746129318140447e-05 0.9846547245979309 1 True False
483.82 4.500417232513428 -1.229568527345993 1.4552539030658167 -1.796253343621725 -1.5708296934710901 2.9295804500579834 0.9155060648918152 -0.47342658042907715 0.7086323499679565 -0.23195897042751312 -1.0732065409968516e-11 0.9191524386405945 1 True False
483.87 4.544619083404541 -1.252167896633484 1.4895790258990687 -1.8079396686949671 -1.5707772413836878 2.9738495349884033 0.8544257283210754 -0.43123316764831543 0.6624160408973694 -0.22356003522872925 -1.8158373416030983e-21 0.8543635606765747 1 True False
483.91999999999996 4.585211753845215 -1.2730360192111512 1.52098256746401 -1.8186642132201136 -1.5708211104022425 3.0144670009613037 0.7786397933959961 -0.39556944370269775 0.6148548722267151 -0.1934526115655899 -9.60063116508536e-05 0.7729471921920776 1 True False
483.96999999999997 4.622427940368652 -1.2922105354121705 1.5498436133014124 -1.828646799127096 -1.570857350026266 3.051521062850952 0.7078335285186768 -0.3627180755138397 0.5527840852737427 -0.18325503170490265 -1.9406387415878549e-19 0.7102425694465637 1 True False
484.02 4.656155109405518 -1.3093908590129395 1.5761097113238733 -1.8374716244139613 -1.5708492437945765 3.08510684967041 0.6397424936294556 -0.3293665051460266 0.49616947770118713 -0.16559238731861115 8.465032442472875e-05 0.6496358513832092 1 True False
484.07 4.686350345611572 -1.3248927158168335 1.5993359724627894 -1.8455592594542445 -1.5708006064044397 3.1154444217681885 0.5698643922805786 -0.29337480664253235 0.4440721571445465 -0.1445944756269455 1.6921106443107403e-12 0.5781989097595215 1 True False
484.12 4.713022708892822 -1.338587300186493 1.620155159627096 -1.8524676762022914 -1.570784870778219 3.142165184020996 0.49975457787513733 -0.2630669176578522 0.38125553727149963 -0.13474279642105103 2.570320666081453e-31 0.5010321736335754 1 True False
484.16999999999996 4.736172676086426 -1.350533590917923 1.6384027639972132 -1.8585545025267542 -1.570829216633932 3.165550947189331 0.42781656980514526 -0.2150736153125763 0.33893299102783203 -0.10524064302444458 0.0 0.4254894554615021 1 True False
484.21999999999997 4.755913734436035 -1.3606750530055542 1.6534937063800257 -1.8639489612975062 -1.5708172957049769 3.185264825820923 0.35824623703956604 -0.1870000660419464 0.27543142437934875 -0.09542126953601837 -5.838189412026842e-16 0.36023178696632385 1 True False
484.27 4.7722859382629395 -1.3689134877971192 1.6663191954242151 -1.8681508503355921 -1.5708006064044397 3.201415538787842 0.2879699170589447 -0.15176554024219513 0.22726120054721832 -0.09216471761465073 -4.678049939609019e-13 0.2927565574645996 1 True False
484.32 4.784980773925781 -1.3754852426103135 1.6760090033160608 -1.8714539013304652 -1.5708048979388636 3.214125156402588 0.2219943404197693 -0.10999336838722229 0.17123594880104065 -0.05732335150241852 -7.105969145212302e-32 0.22424860298633575 1 True False
484.37 4.794223785400391 -1.3801431220820923 1.6832621733294886 -1.8738676510252894 -1.5707929770099085 3.2234973907470703 0.15420429408550262 -0.0749632865190506 0.11659093201160431 -0.04174567759037018 -0.0 0.15192922949790955 1 True False
484.41999999999996 4.800075531005859 -1.3831824374249955 1.6877344290362757 -1.8755165539183558 -1.5707810560809534 3.2292897701263428 0.08292090892791748 -0.040681932121515274 0.06271102279424667 -0.01748371124267578 -0.0 0.08143474906682968 1 True False
484.46999999999997 4.802368640899658 -1.3843000543168564 1.6894720236407679 -1.8760014973082484 -1.5707767645465296 3.2315165996551514 0.013459166511893272 -0.004688183777034283 0.00950276292860508 -0.0005104044103063643 -0.0 0.014061848632991314 1 True False
484.52 4.802250862121582 -1.3838304740241547 1.69049579301943 -1.877310415307516 -1.5707724730121058 3.2315046787261963 0.0019291396019980311 0.01917724497616291 0.038508012890815735 -0.05134572461247444 8.301951311295852e-05 0.0001693548256298527 1 True False
484.57 4.802304267883301 -1.3823367667249222 1.69348651567568 -1.8820940456786097 -1.5707805792437952 3.2315194606781006 0.002486278535798192 0.04440636187791824 0.08175288885831833 -0.1340515911579132 8.25438546598889e-05 0.0004152615729253739 1 True False
484.62 4.802340030670166 -1.3792389792254944 1.6987579504596155 -1.8902479610838832 -1.5708335081683558 3.2315313816070557 0.0017476341454312205 0.07371865957975388 0.1264345943927765 -0.20229554176330566 3.917109643225558e-05 0.000314270582748577 1 True False
484.66999999999996 4.802323341369629 -1.374897227888443 1.706010643635885 -1.9019199810423792 -1.570784870778219 3.231510639190674 0.0006020351429469883 0.09784377366304398 0.16688720881938934 -0.2596745193004608 3.905766789102927e-05 0.00025127845583483577 1 True False
484.71999999999997 4.802301406860352 -1.3693019312671204 1.715635124837057 -1.9170247517027796 -1.570829216633932 3.2315731048583984 0.00018055600230582058 0.12324880808591843 0.21250976622104645 -0.33882012963294983 2.5324612579424866e-05 0.00018776913930196315 1 True False
484.77 4.802334308624268 -1.3625128281167527 1.7274869124041956 -1.9358183346190394 -1.5707610289203089 3.2315642833709717 0.00011473843187559396 0.15094080567359924 0.26135683059692383 -0.40620720386505127 9.358575026041649e-10 0.00011834458564408123 1 True False
484.82 4.802320957183838 -1.354307235484459 1.7415021101581019 -1.9579302273192347 -1.5708087126361292 3.2315478324890137 7.845302752684802e-05 0.1718512624502182 0.29973286390304565 -0.47254204750061035 1.421569577222294e-28 7.645443110959604e-05 1 True False
484.87 4.802338600158691 -1.3448840987733384 1.7577512899981897 -1.9835077724852503 -1.5707805792437952 3.2315731048583984 5.46390401723329e-05 0.19968019425868988 0.3467196524143219 -0.5403091311454773 0.0 5.562396321323604e-09 1 True False
484.91999999999996 4.8023176193237305 -1.334837482576706 1.7750447432147425 -2.011059900323385 -1.5708373228656214 3.2315313816070557 6.825341552030295e-05 0.1879451870918274 0.3319050371646881 -0.5284923315048218 1.5173845022072235e-24 8.449292518374936e-28 1 True False
484.96999999999997 4.8023552894592285 -1.325887770657875 1.7906325499164026 -2.0355364284911097 -1.570829216633932 3.2315313816070557 1.5596308003296144e-05 0.16985371708869934 0.2916778028011322 -0.45820513367652893 -1.7865893823909573e-05 0.0 1 True False
485.02 4.8023552894592285 -1.3181403142264863 1.8036420981036585 -2.056571146050924 -1.570784870778219 3.231527090072632 0.0 0.141821950674057 0.2444746345281601 -0.39095309376716614 -9.936759386010735e-24 0.0 1 True False
485.07 4.802366733551025 -1.311604694729187 1.8147700468646448 -2.0738731823363246 -1.5708373228656214 3.231576681137085 0.0 0.11464088410139084 0.19789400696754456 -0.3112327754497528 -1.509198446077828e-42 0.0 1 True False
485.12 4.802346706390381 -1.3064961594394227 1.8237364927874964 -2.087884565392965 -1.570784870778219 3.231593132019043 0.0 0.0907478928565979 0.1564321666955948 -0.23662053048610687 -0.0 2.712252074775955e-19 1 True False
485.16999999999996 4.802362442016602 -1.3028391164592286 1.8301857153521937 -2.098497530023092 -1.5707805792437952 3.231527090072632 0.0 0.06356016546487808 0.11226241290569305 -0.17064376175403595 -0.0 4.1199166970462364e-38 1 True False
485.21999999999997 4.802363872528076 -1.300122694378235 1.8346222082721155 -2.1053582630553187 -1.5707767645465296 3.2315404415130615 0.0 0.03910509869456291 0.06511302292346954 -0.10382907092571259 -0.0 0.0 1 True False
485.27 4.802359580993652 -1.2988577050021668 1.836872402821676 -2.1087399921812953 -1.5708211104022425 3.231555223464966 0.0 0.01461370661854744 0.02670513279736042 -0.039507899433374405 -0.0 0.0 1 True False
485.32 4.802359580993652 -1.29878123224292 1.8370822111712855 -2.1092802486815394 -1.5708211104022425 3.2315120697021484 0.0 -0.0005536059034056962 -4.817572732342297e-15 0.00035767478402704 -0.0 0.0 1 True False
485.37 4.802313804626465 -1.298856483106949 1.8370941321002405 -2.1092525921263636 -1.5708568731891077 3.2315566539764404 0.0 8.487967716064304e-05 -1.1210387714598537e-44 2.2671355903725043e-09 -0.0 0.0 1 True False
485.41999999999996 4.802318096160889 -1.2987528604320069 1.8371394316302698 -2.109236856500143 -1.570813004170553 3.2315447330474854 0.0 0.00011919831740669906 4.6006276534171775e-05 3.4437854262141975e-28 -0.0 0.0 1 True False
485.46999999999997 4.802358150482178 -1.2987409693053742 1.8371108214007776 -2.1092244587340296 -1.570801083241598 3.2315640449523926 0.0 0.0003070371749345213 0.00010684638982638717 -0.00013498394400812685 -0.0 0.0 1 True False
485.52 4.802338600158691 -1.2986837488463898 1.837184254323141 -2.109305044213766 -1.5707891623126429 3.2315402030944824 0.0 0.00044785920181311667 0.00013810709060635418 -0.00024416783708147705 -0.0 0.0 1 True False
485.57 4.802395343780518 -1.2987075310996552 1.8371604124652308 -2.1092645130553187 -1.5708048979388636 3.23154354095459 0.0 0.0001870628329925239 0.00016367911302950233 -0.00022103176161181182 -0.0 0.0 1 True False
485.62 4.802350997924805 -1.2986956101707001 1.8371871153460901 -2.109293123284811 -1.5707891623126429 3.2315609455108643 0.0 0.00013366187340579927 0.0002061171835521236 -0.00012496366980485618 -0.0 0.0 1 True False
485.66999999999996 4.802342891693115 -1.2987426680377503 1.8372047583209437 -2.1093083820738734 -1.570784870778219 3.2315521240234375 0.0 7.626899605384097e-05 0.00013236589438747615 -0.00010553457832429558 -0.0 0.0 1 True False
485.71999999999997 4.8023552894592285 -1.2986973089030762 1.8371709028827112 -2.1092845402159632 -1.5707805792437952 3.231572151184082 0.0 1.933117015190367e-15 0.00010942815424641594 -6.403078441508114e-05 -0.0 0.0 1 True False
485.77 4.802321434020996 -1.29868836820636 1.8371661345111292 -2.109300275842184 -1.5707805792437952 3.2315239906311035 0.0 0.0 4.0195427573053166e-05 -8.588792788088995e-09 -0.0 0.0 1 True False
485.82 4.8022780418396 -1.298721120958664 1.8372333685504358 -2.109328886071676 -1.5707925001727503 3.2315151691436768 0.0 0.0 2.3071837496058123e-10 -1.3046395813954909e-27 -0.0 0.0 1 True False
485.87 4.802375316619873 -1.2987381976893921 1.83722430864443 -2.109244009057516 -1.570801083241598 3.23154354095459 0.0 0.0 5.429050640333639e-40 -0.0 -0.0 0.0 1 True False
485.91999999999996 4.802374839782715 -1.2987767916968842 1.8370760122882288 -2.1095077000060023 -1.5707643667804163 3.2315597534179688 0.0 0.00017626893531996757 5.964312810996519e-12 -0.000973372021690011 1.1439335168006437e-07 0.00028806988848373294 1 True False
485.96999999999997 4.8023223876953125 -1.2987856727889557 1.8370826880084437 -2.1094476185240687 -1.5708254019366663 3.231580972671509 0.0 0.00019688071915879846 1.4034004120213043e-41 0.000818630971480161 1.7376373204027356e-26 -8.331145363627002e-05 1 True False
486.02 4.802346706390381 -1.2988340717605134 1.8369339148150843 -2.1089145145811976 -1.5707886854754847 3.2315597534179688 0.0 -0.00942512508481741 -0.012769106775522232 0.039189208298921585 2.802596928649634e-45 -4.70280647277832e-05 1 True True
486.07 4.80239200592041 -1.2996978920749207 1.835336987172262 -2.105778833428854 -1.570813004170553 3.2315521240234375 0.0 -0.03808728978037834 -0.06461743265390396 0.08859435468912125 0.0 -3.2761588954599574e-05 1 True True
486.12 4.802342891693115 -1.3023335498622437 1.830987278615133 -2.0990425548949183 -1.5708335081683558 3.231515407562256 0.0 -0.0629127249121666 -0.10477869212627411 0.16224169731140137 0.0 -6.339563913394689e-18 1 True True
486.16999999999996 4.802387714385986 -1.3061665457538147 1.824308220540182 -2.088961263696188 -1.5707486311541956 3.2315640449523926 0.0 -0.0882013812661171 -0.14741776883602142 0.23137791454792023 0.0 -9.629810039448808e-37 1 True True
486.21999999999997 4.802366733551025 -1.31122379124675 1.81545335451235 -2.0752984486021937 -1.5707891623126429 3.2315726280212402 0.0 -0.11412055045366287 -0.1974431276321411 0.29649782180786133 0.0 -1.16995014220242e-21 1 True True
486.27 4.802371501922607 -1.3175248962691803 1.8046234289752405 -2.057855268517965 -1.570836369191305 3.23154354095459 1.401298464324817e-45 -0.13610424101352692 -0.23170247673988342 0.38268759846687317 0.0 -1.7771547384260195e-40 1 True True
486.32 4.802347660064697 -1.325129748587944 1.791701618825094 -2.0373369656004847 -1.5707929770099085 3.231555223464966 0.0 -0.16588661074638367 -0.27880334854125977 0.4599471986293793 0.0 -0.0 1 True True
486.37 4.802350997924805 -1.33405193806205 1.776214901600973 -2.013188978234762 -1.570784870778219 3.23154354095459 0.0 -0.19117771089076996 -0.3251417875289917 0.5145375728607178 0.0 -0.0 1 True True
486.41999999999996 4.802350997924805 -1.344130278830864 1.759040657673971 -1.9857517681517542 -1.5707724730121058 3.2315683364868164 0.0 -0.1954912692308426 -0.3486117422580719 0.5406575798988342 0.0 -0.0 1 True True
486.46999999999997 4.802358150482178 -1.353651062851288 1.7426789442645472 -1.9597565136351527 -1.5708335081683558 3.23154354095459 0.0 -0.17685918509960175 -0.3002343773841858 0.48460981249809265 0.0 -0.0 1 True True
486.52 4.8023176193237305 -1.3618665349534531 1.7285078207599085 -1.937385698358053 -1.5707810560809534 3.2315359115600586 0.0 -0.15438233315944672 -0.25956639647483826 0.40637174248695374 0.0 -0.0 1 True True
486.57 4.802342891693115 -1.3688529890826722 1.7164362112628382 -1.918455263177389 -1.5707967917071741 3.2315797805786133 0.0 -0.12895257771015167 -0.22109673917293549 0.34856826066970825 0.0 -0.0 1 True True
486.62 4.802316188812256 -1.3744650942138215 1.7069013754474085 -1.9030524692931117 -1.5707925001727503 3.2315521240234375 0.0 -0.10219278186559677 -0.1719663292169571 0.26635512709617615 0.0 -0.0 1 True True
486.66999999999996 4.802346706390381 -1.3788239073804398 1.6993549505816858 -1.8910070858397425 -1.570784870778219 3.2315196990966797 0.0 -0.07499445229768753 -0.12657807767391205 0.20185032486915588 0.0 -0.0 1 True True
486.71999999999997 4.802301406860352 -1.3820424389890213 1.6937783400165003 -1.8826738796629847 -1.5707886854754847 3.2315478324890137 0.0 -0.05126431584358215 -0.08100913465023041 0.12966494262218475 0.0 -0.0 1 True True
486.77 4.8023881912231445 -1.3837744158557435 1.6906917730914515 -1.8776170216002406 -1.570801083241598 3.2315597534179688 0.0 -0.02343955636024475 -0.04459119588136673 0.06020231917500496 0.0 -0.0 1 True True
486.82 4.802350997924805 -1.3843625646880646 1.6896546522723597 -1.876200338403219 -1.570801083241598 3.2315564155578613 -3.160544565616874e-06 0.0018587936647236347 0.002385637955740094 -0.0038402751088142395 0.0 -3.6645647014665883e-06 1 True True
486.87 4.8004279136657715 -1.3843238961747666 1.6896222273456019 -1.876193185845846 -1.5707891623126429 3.229562282562256 -0.06948435306549072 0.0 6.32990049265203e-11 7.553840987384319e-05 -7.51936313463375e-05 -0.07113657891750336 1 True True
486.91999999999996 4.794798851013184 -1.3843251776746293 1.6897004286395472 -1.8761326275267542 -1.570829216633932 3.22404146194458 -0.1444261223077774 0.0 1.489496189669421e-40 0.0004471041902434081 -0.00012110660463804379 -0.14029988646507263 1 True True
486.96999999999997 4.78590202331543 -1.384312005048134 1.689667050038473 -1.8760568104186 -1.5707805792437952 3.2150726318359375 -0.2151760756969452 0.0 0.0 0.0005038927774876356 -7.334947440540418e-05 -0.20909768342971802 1 True True
487.02 4.773366928100586 -1.3843951535275956 1.6896756331073206 -1.8760572872557582 -1.5707529226886194 3.202680826187134 -0.28523942828178406 0.0 -0.0008680578321218491 0.0001514901960035786 -5.211268944549374e-05 -0.2860310673713684 1 True True
487.07 4.757415771484375 -1.3843251776746293 1.689664665852682 -1.8760487041869105 -1.5708048979388636 3.1865148544311523 -0.3481760323047638 0.0 -0.001199566526338458 0.0001110641605919227 -6.931178359081969e-05 -0.3515147864818573 1 True True
487.12 4.737891674041748 -1.3843448919108887 1.689587418233053 -1.8760258160033167 -1.5707767645465296 3.167340040206909 -0.42468512058258057 0.0 -0.0015281527303159237 0.00010989061411237344 -2.611831920445312e-13 -0.42664849758148193 1 True True
487.16999999999996 4.715147018432617 -1.384258360867836 1.6895483175860804 -1.8760572872557582 -1.570801083241598 3.1444215774536133 -0.49188002943992615 0.0003453826648183167 -0.0012667705304920673 0.00012120982864871621 -1.4416498743230477e-05 -0.4910046458244324 1 True True
487.21999999999997 4.6886491775512695 -1.3842782241157074 1.6894438902484339 -1.8760572872557582 -1.5707767645465296 3.1177659034729004 -0.5615622401237488 0.0013432602863758802 -0.0016158733051270247 0.00019204618001822382 -4.077807898283936e-05 -0.5539747476577759 1 True True
487.27 4.65871000289917 -1.384124518637993 1.6893895308123987 -1.8760138950743617 -1.570857350026266 3.087817907333374 -0.6323510408401489 0.0022535701282322407 -0.0020844030659645796 0.000263078574789688 6.466126245552317e-12 -0.6268596053123474 1 True True
487.32 4.625195503234863 -1.3840434712222596 1.6893428007708948 -1.8760258160033167 -1.570813004170553 3.054452896118164 -0.7044790387153625 0.0023724837228655815 -0.0020671295933425426 0.00030910788336768746 -0.0015966359060257673 -0.698208749294281 1 True True
487.37 4.5883002281188965 -1.3840206128409882 1.6891968886004847 -1.8760463200011195 -1.5708196798907679 3.0176923274993896 -0.7744753956794739 0.0017239708686247468 -0.0021634080912917852 0.00038865613169036806 -0.001251368084922433 -0.7704813480377197 1 True True
487.41999999999996 4.547936916351318 -1.383960784678795 1.6891487280475062 -1.8760062656798304 -1.5707605520831507 2.97727108001709 -0.839330792427063 0.0018529553199186921 -0.001989467767998576 0.00035964741255156696 2.486127189532672e-12 -0.8472609519958496 1 True True
487.46999999999997 4.5041351318359375 -1.3838080924800416 1.6890409628497522 -1.8759619198241175 -1.570801083241598 2.9332382678985596 -0.9131376147270203 0.002011805772781372 -0.0019068667897954583 0.0004405772779136896 -7.947032615307492e-11 -0.9121573567390442 1 True True
487.52 4.456729888916016 -1.3838013869575043 1.6889451185809534 -1.8759380779662074 -1.570784870778219 2.886138677597046 -0.9807847142219543 0.0014687611255794764 -0.0018690370488911867 0.0005667886580340564 -7.991376332938671e-05 -0.9885084629058838 1 True True
487.57 4.405888080596924 -1.3837085527232666 1.6887972990619105 -1.875962873498434 -1.5708006064044397 2.8348803520202637 -1.0483089685440063 0.002495296997949481 -0.002694729482755065 0.0004710715147666633 3.365489101270214e-05 -1.0429092645645142 1 True True
487.62 4.353609085083008 -1.3835757833770295 1.6887386480914515 -1.8759223423399867 -1.5708053747760218 2.782663583755493 -1.0477200746536255 0.0011173445964232087 -0.002896886086091399 0.0012329219607636333 0.00018102307512890548 -1.052935004234314 1 True True
487.66999999999996 4.301165580749512 -1.3834762138179322 1.6885770002948206 -1.8758942089476527 -1.5707805792437952 2.730457067489624 -1.0479307174682617 0.001611681655049324 -0.0012858340051025152 0.0002917270758189261 4.283085894096113e-19 -1.0407215356826782 1 True True
487.71999999999997 4.248813152313232 -1.3833434891751786 1.6884706656085413 -1.8758264980711878 -1.5708211104022425 2.6779444217681885 -1.0497987270355225 0.002277105813845992 -0.002713168505579233 0.0005408671568147838 6.506016333012934e-38 -1.044678807258606 1 True True
487.77 4.196414470672607 -1.3832964313081284 1.6883543173419397 -1.8758593998351039 -1.5707891623126429 2.625645160675049 -1.0457875728607178 0.0012987905647605658 -0.003508348250761628 0.0011297890450805426 9.35192292672582e-05 -1.050777792930603 1 True True
487.82 4.1440300941467285 -1.3832082462361832 1.6882417837726038 -1.8758188686766566 -1.5707772413836878 2.573404312133789 -1.0438594818115234 0.0018907850608229637 -0.0012639937922358513 0.00041233011870644987 0.00010274071973981336 -1.0477807521820068 1 True True
487.87 4.091725826263428 -1.383174331193306 1.688138786946432 -1.8757711849608363 -1.570824925099508 2.5207982063293457 -1.0535452365875244 0.0026741952169686556 -0.0032697939313948154 0.0005314137088134885 -9.572294129220338e-13 -1.038702368736267 1 True True
487.91999999999996 4.039400100708008 -1.3829714220813294 1.6879900137530726 -1.8757387600340785 -1.5707686583148401 2.4684841632843018 -1.0445506572723389 0.002196340821683407 -0.003124035196378827 0.0002922161656897515 -1.4540331445236423e-31 -1.0496606826782227 1 True True
487.96999999999997 3.986934185028076 -1.382892058496811 1.6878989378558558 -1.8757878742613734 -1.5707529226886194 2.41634464263916 -1.0449883937835693 0.00158483546692878 -0.0011722093913704157 0.0004220000409986824 -0.0 -1.043993353843689 1 True True
488.02 3.93471622467041 -1.3828777980855484 1.687861744557516 -1.8757349453368128 -1.570824925099508 2.3637242317199707 -1.050221562385559 0.0026905820704996586 -0.0026459728833287954 0.00048672783304937184 -0.0 -1.039135217666626 1 True True
488.07 3.8822999000549316 -1.3827372354320069 1.6876710096942347 -1.8757597408690394 -1.5707886854754847 2.311443567276001 -1.0447582006454468 0.002667904132977128 -0.0037512779235839844 0.0009433144587092102 -0.0 -1.0552875995635986 1 True True
488.12 3.82997727394104 -1.3826736968806763 1.687558952962057 -1.8756715259947718 -1.570756737385885 2.259246826171875 -1.0465549230575562 0.00164718646556139 -0.0016846999060362577 0.00048405700363218784 -4.817466106032953e-05 -1.0458588600158691 1 True True
488.16999999999996 3.7776074409484863 -1.3824950915626069 1.6874273459063929 -1.8756638966002406 -1.5707648436175745 2.2066783905029297 -1.0515143871307373 0.0024034371599555016 -0.0025139532517641783 0.0003831472131423652 -1.0737016175868569e-23 -1.0417742729187012 1 True True
488.21999999999997 3.7251641750335693 -1.382518084054329 1.687291447316305 -1.875660081902975 -1.570772949849264 2.1542811393737793 -1.045696496963501 0.0027666231617331505 -0.0032950188033282757 0.0003685960837174207 -1.631111412474087e-42 -1.0483204126358032 1 True True
488.27 3.672856092453003 -1.3824219864657898 1.6872614065753382 -1.875660081902975 -1.570801083241598 2.102130651473999 -1.050795555114746 0.0017472781473770738 -0.0016029061516746879 0.0004426431842148304 -0.0 -1.0470653772354126 1 True True
488.32 3.6205508708953857 -1.3821955633214493 1.6871584097491663 -1.8756162128844203 -1.570801083241598 2.0496487617492676 -1.0529767274856567 0.0022569438442587852 -0.0027283765375614166 0.0005209310911595821 2.489345206413418e-05 -1.0436158180236816 1 True True
488.52 3.4111015796661377 -1.3819216054729004 1.6866791884051722 -1.8755084476866664 -1.5707686583148401 1.840067982673645 -1.0468814373016357 0.0016404340276494622 -0.0026344237849116325 0.0004238958063069731 0.0 -1.0469967126846313 1 True True
488.57 3.358566999435425 -1.3818385165980835 1.6865490118609827 -1.8754807911314906 -1.5707891623126429 1.787860631942749 -1.045399785041809 0.0017925919964909554 -0.0025636078789830208 0.0003112080448772758 0.0 -1.0480605363845825 1 True True
488.62 3.306284189224243 -1.3817175340703507 1.6863692442523401 -1.8754731617369593 -1.5708168188678187 1.7355077266693115 -1.050971269607544 0.0026670375373214483 -0.003675035433843732 0.000497444998472929 0.0 -1.0427112579345703 1 True True
488.66999999999996 3.2539255619049072 -1.3816295278123398 1.6862285772906702 -1.8754807911314906 -1.570801083241598 1.6831263303756714 -1.0440477132797241 0.002460865303874016 -0.0023086201399564743 0.0003191318246535957 0.0 -1.0501432418823242 1 True True
488.71999999999997 3.201547384262085 -1.3815093648484726 1.6861627737628382 -1.8754855595030726 -1.570801083241598 1.630816102027893 -1.0467439889907837 0.002243025228381157 -0.002690476831048727 0.00046192065929062665 0.0 -1.04690682888031 1 True True
488.77 3.149407148361206 -1.3814582240632554 1.686059300099508 -1.875397344628805 -1.5708006064044397 1.5785609483718872 -1.0298014879226685 0.0011798891937360168 -0.0014432872412726283 0.0013488165568560362 0.0 -1.0238841772079468 1 True True
488.82 3.0997118949890137 -1.3812921804240723 1.6860039869891565 -1.8754097423949183 -1.5708449522601526 1.5288138389587402 -0.9599462151527405 0.001649026176892221 -0.0024832605849951506 0.00035493215546011925 0.0 -0.9634671211242676 1 True True
488.87 3.053556203842163 -1.3813107025674363 1.6858561674701136 -1.8753653965392054 -1.5707686583148401 1.482608675956726 -0.8911999464035034 0.0016885836375877261 -0.002784672426059842 0.0003428514755796641 0.00011858245125040412 -0.8879995942115784 1 True True
488.91999999999996 3.010640859603882 -1.3811777395061036 1.685767952595846 -1.8753658733763636 -1.5707967917071741 1.4399744272232056 -0.8145632743835449 0.0013714503729715943 -0.0010874251602217555 0.00031799066346138716 0.00010758184362202883 -0.8241513967514038 1 True True
488.96999999999997 2.9715535640716553 -1.381109209065773 1.685629669819967 -1.8753820858397425 -1.5707886854754847 1.4006959199905396 -0.7556222081184387 0.0022879571188241243 -0.0026082315016537905 0.00024504162138327956 0.00017833206220529974 -0.7481054663658142 1 True True
489.02 2.9358623027801514 -1.3810862016728898 1.68567401567568 -1.8753181896605433 -1.570853058491842 1.3650864362716675 -0.6852640509605408 0.0014283364871516824 -0.0021174971479922533 0.0002370360743952915 -3.337855014251545e-05 -0.6798499822616577 1 True True
489.07 2.903477668762207 -1.3809727740338822 1.6855204741107386 -1.8753825626769007 -1.570813004170553 1.3328028917312622 -0.6102682948112488 0.0016526260878890753 -0.0022561645600944757 0.00016434924327768385 -4.892657000977518e-19 -0.6068360209465027 1 True True
489.12 2.874785900115967 -1.3808932316354294 1.685448948537008 -1.8753096065916957 -1.5708406607257288 1.3041025400161743 -0.5421647429466248 0.0015779166715219617 -0.002023211680352688 0.0002710850676521659 -7.431960727075629e-38 -0.5359925627708435 1 True True
489.16999999999996 2.849461317062378 -1.3809184294990082 1.6854217688189905 -1.8752933941283167 -1.5707886854754847 1.278769850730896 -0.47657060623168945 0.001990603283047676 -0.00237953569740057 0.00026894439361058176 -0.0 -0.4708847999572754 1 True True
489.21999999999997 2.827853202819824 -1.3808366668275376 1.6853860060321253 -1.875326772729391 -1.570801083241598 1.2571344375610352 -0.40564069151878357 0.00037197809433564544 -0.0014506721636280417 0.0002404732076684013 -0.0 -0.40538489818573 1 True True
489.27 2.809708833694458 -1.380898581152298 1.685357395802633 -1.875270505944723 -1.5708172957049769 1.2387809753417969 -0.32969680428504944 0.0004264531598892063 -0.0005831383750773966 0.00012713336036540568 -0.0 -0.3330906331539154 1 True True
489.32 2.794813632965088 -1.380810336475708 1.6852768103228968 -1.875249525109762 -1.5707925001727503 1.2239845991134644 -0.2624166011810303 0.0005054068169556558 -0.0005767174297943711 0.00011919877579202875 -0.0 -0.2678217887878418 1 True True
489.37 2.7835214138031006 -1.380810336475708 1.6852853933917444 -1.875298639337057 -1.5707967917071741 1.2126864194869995 -0.19412469863891602 0.0004987769643776119 -0.0004943637759424746 0.000133584690047428 -0.0 -0.18976669013500214 1 True True
489.41999999999996 2.775707721710205 -1.380770058637001 1.6852496306048792 -1.875253816644186 -1.5707562605487269 1.2049051523208618 -0.12250258028507233 0.00036374881165102124 -0.00039469936746172607 0.00012160365440649912 -0.0 -0.12079962342977524 1 True True
489.46999999999997 2.771376132965088 -1.3807700884393235 1.6852377096759241 -1.875270505944723 -1.5707724730121058 1.2005541324615479 -0.05454995483160019 0.00020409583521541208 -0.0003122693160548806 7.780014857416973e-05 -0.0 -0.05531670153141022 1 True True
489.52 2.7704761028289795 -1.3806905311397095 1.685258690510885 -1.875373979608053 -1.570772949849264 1.1997078657150269 -0.00040685839485377073 0.015276049263775349 0.008331597782671452 -0.011392636224627495 -0.0 0.0007338880677707493 1 True True
489.57 2.7705578804016113 -1.3795543324998398 1.6866477171527308 -1.8779460392394007 -1.570784870778219 1.1997045278549194 -0.0005625096382573247 0.026965441182255745 0.058395374566316605 -0.08959163725376129 -0.0 -0.0010854600695893168 1 True True
489.62 2.770529270172119 -1.3774097871831437 1.690545384083883 -1.8843289814391078 -1.5707967917071741 1.1996524333953857 -0.0005723044741898775 0.05969179421663284 0.10279181599617004 -0.1532624065876007 -0.0 -0.0006004412425681949 1 True True
489.66999999999996 2.7704648971557617 -1.3737807136825104 1.6970999876605433 -1.893837114373678 -1.570801083241598 1.1996361017227173 -0.0008983070147223771 0.07843339443206787 0.14238341152668 -0.21924032270908356 -0.0 -0.00036733917659148574 1 True True
489.71999999999997 2.7704527378082275 -1.3690602642348786 1.70534593263735 -1.9070612392821253 -1.570784870778219 1.1995749473571777 -0.0003360636765137315 0.10824079811573029 0.1855238378047943 -0.2956096827983856 -0.0 -0.0001583103003213182 1 True True
489.77 2.77044415473938 -1.3629826468280335 1.7158692518817347 -1.9235874615111292 -1.5707925001727503 1.1996568441390991 -5.173693716642447e-05 0.13554270565509796 0.22867578268051147 -0.3621543049812317 -0.0 -0.00010104957618750632 1 True True
489.82 2.7704408168792725 -1.3556571167758484 1.7286089102374476 -1.9438959560790003 -1.5707362333880823 1.1996405124664307 -4.245610034558922e-05 0.1590895652770996 0.27818480134010315 -0.42529821395874023 -0.0 -6.884204049129039e-05 1 True True
489.87 2.7704036235809326 -1.3469328892282029 1.7436235586749476 -1.967431207696432 -1.5708168188678187 1.1996198892593384 -2.670757021405734e-05 0.18134893476963043 0.3176719844341278 -0.5205201506614685 2.9762496720625586e-12 -6.359996012369855e-15 1 True True
489.91999999999996 2.7703661918640137 -1.3369322431138535 1.760888401662008 -1.994368692437643 -1.5708048979388636 1.1996418237686157 -2.3051567040965892e-05 0.2018260359764099 0.354999303817749 -0.5708044171333313 4.520929644166463e-31 -9.660848995045934e-34 1 True True
489.96999999999997 2.7704501152038574 -1.3274275970510026 1.7772601286517542 -2.0210148296751917 -1.570784870778219 1.1995956897735596 -1.4603204876479985e-30 0.17782938480377197 0.3117571771144867 -0.4980417490005493 0.0 -0.0 1 True True
490.02 2.7704412937164307 -1.3189538282207032 1.7920568625079554 -2.043795724908346 -1.570784870778219 1.1996285915374756 0.0 0.15448084473609924 0.26804670691490173 -0.4299554228782654 0.0 -0.0 1 True True
490.07 2.7703962326049805 -1.3117424708655854 1.8040655295001429 -2.063362260858053 -1.570801083241598 1.1995956897735596 0.0 0.12651851773262024 0.22664842009544373 -0.3654651343822479 0.0 -0.0 1 True True
490.12 2.7704455852508545 -1.3059220176986237 1.8142216841327112 -2.079226633111471 -1.5707686583148401 1.1996251344680786 0.0 0.1016596332192421 0.17958182096481323 -0.2812305986881256 0.0 -0.0 1 True True
490.16999999999996 2.770432233810425 -1.3013999623111268 1.822277847920553 -2.091674943963522 -1.570756737385885 1.199633002281189 0.0 0.08153649419546127 0.14050379395484924 -0.22053872048854828 0.0 -0.0 1 True True
490.21999999999997 2.7704248428344727 -1.2981039744666596 1.8278163115130823 -2.1006328068175257 -1.5708048979388636 1.1996372938156128 0.0 0.053057894110679626 0.08805274218320847 -0.14435604214668274 0.0 -0.0 1 True True
490.27 2.7704455852508545 -1.2961480778506775 1.8313491980182093 -2.1061068973936976 -1.5708211104022425 1.1996207237243652 0.0 0.026137014850974083 0.04875527694821358 -0.06878232210874557 0.0 -2.5344087711720985e-23 1 True True
490.32 2.77044415473938 -1.2957491737655182 1.8320310751544397 -2.108238836328024 -1.5708087126361292 1.1995913982391357 3.560557888704352e-05 0.000995165086351335 0.001376278349198401 -0.006111582275480032 -0.00022201296815183014 -3.8493668815002725e-42 1 True True
490.37 2.770432233810425 -1.2956185203841706 1.8319819609271448 -2.1081911526122035 -1.570796314870016 1.199620008468628 7.321891994196925e-26 0.003940995316952467 0.003955768421292305 0.0003124350041616708 -8.737380994716659e-05 -0.0 1 True True
490.41999999999996 2.770411491394043 -1.2949165564826508 1.8331940809832972 -2.107434412042135 -1.570784870778219 1.1996243000030518 -3.5245321647448295e-38 0.0010412930278107524 0.0039045261219143867 0.0025373324751853943 0.00017647203640080988 -0.0 1 True True
490.46999999999997 2.770460844039917 -1.2950729590705414 1.8329737822162073 -2.1078244648375453 -1.570784870778219 1.1996372938156128 0.0 -0.00028794139507226646 -0.0002216299471911043 -1.0773283975140657e-05 6.708692125786774e-23 7.82382016950578e-07 1 True False
490.52 2.7704203128814697 -1.2951796811870118 1.832918945943014 -2.1079913578429164 -1.570801083241598 1.199596881866455 0.0 -0.0009259523940272629 -0.0006048677023500204 -0.0008669722592458129 1.019024243257007e-41 6.223957882411923e-08 1 True False
490.57 2.7703707218170166 -1.295292393570282 1.8328350226031702 -2.108074804345602 -1.570801083241598 1.1996362209320068 0.0 -0.0015431721694767475 -0.0015669043641537428 -0.0008335265447385609 0.0 0.0015927954809740186 1 True False
490.62 2.7704081535339355 -1.2953241628459473 1.8326857725726526 -2.108091493646139 -1.5707967917071741 1.199633002281189 0.0 -0.00034571613650768995 -0.0025756098330020905 -0.00019073611474595964 0.0 -4.186350821555607e-09 1 True False
490.66999999999996 2.7704458236694336 -1.2953079503825684 1.8326495329486292 -2.108062883416647 -1.5708211104022425 1.1996415853500366 0.0 0.0 -0.001265255850739777 -0.00012421541032381356 0.0 -6.359075453424121e-28 1 True False
490.71999999999997 2.7704203128814697 -1.2954847377589722 1.8323567549334925 -2.107696672479147 -1.5707686583148401 1.1996002197265625 0.0 -0.016452845185995102 -0.01913703978061676 0.02215990610420704 0.0 -0.0 1 True False
490.77 2.770415782928467 -1.2966484886458893 1.830421272908346 -2.1047169170775355 -1.570756737385885 1.1996002197265625 0.0 -0.030292529612779617 -0.05520733445882797 0.10144811868667603 0.0 -0.0 1 True False
490.82 2.7704455852508545 -1.2990151208690186 1.8260934988604944 -2.0980078182616175 -1.5707925001727503 1.199641466140747 0.0 -0.06348066031932831 -0.10415547341108322 0.16450171172618866 0.0 -0.0 1 True False
490.87 2.7704575061798096 -1.3027378481677552 1.8196423689471644 -2.08775057415151 -1.570829216633932 1.1996448040008545 0.0 -0.08801604807376862 -0.14985579252243042 0.23715753853321075 0.0 -0.0 1 True False
490.91999999999996 2.7703945636749268 -1.3077842754176636 1.810904328023092 -2.074155469933981 -1.570784870778219 1.1995753049850464 0.0 -0.11119706928730011 -0.18586386740207672 0.30368199944496155 0.0 -0.0 1 True False
490.96999999999997 2.7704575061798096 -1.314103977089264 1.8001135031329554 -2.056945940057272 -1.5707886854754847 1.1996285915374756 0.0 -0.13527852296829224 -0.2408759742975235 0.378531277179718 -1.8037316430792013e-24 -0.0 1 True False
491.02 2.7703661918640137 -1.3216941368630906 1.787170712147848 -2.036323209802145 -1.57074481645693 1.1996045112609863 0.0 -0.16121290624141693 -0.2888072431087494 0.44447365403175354 -2.7465449900766415e-43 -0.0 1 True False
491.07 2.7704367637634277 -1.3304762703231354 1.7718499342547815 -2.0121594868102015 -1.5708211104022425 1.1996372938156128 0.0 -0.189161017537117 -0.3322022557258606 0.5070733428001404 -0.0 -0.0 1 True False
491.12 2.770432233810425 -1.3406054836562653 1.7544239203082483 -1.984765192071432 -1.570857350026266 1.1996285915374756 0.0 -0.19741269946098328 -0.3422447443008423 0.5443989038467407 -0.0 -0.0 1 True False
491.16999999999996 2.770432233810425 -1.3500226897052308 1.7382844130145472 -1.9588519535460414 -1.570784870778219 1.1996207237243652 0.0 -0.17413148283958435 -0.31040045619010925 0.47932833433151245 6.168804975459352e-05 -0.0 1 True False
491.21999999999997 2.770432233810425 -1.3582570266774674 1.7239301840411585 -1.9364525280394496 -1.5708168188678187 1.1996002197265625 0.0 -0.1539713740348816 -0.2619028687477112 0.407571405172348 7.578389816776317e-23 -0.0 1 True False
491.27 2.77046537399292 -1.3652301144650956 1.7121742407428187 -1.9175383053221644 -1.5707405249225062 1.199615716934204 0.0 -0.12812308967113495 -0.21570485830307007 0.3372448980808258 1.1511666884428372e-41 -0.0 1 True False
491.32 2.7704577445983887 -1.37090157092128 1.7024567762957972 -1.9020887813963832 -1.5708373228656214 1.1996415853500366 0.0 -0.10092431306838989 -0.17388448119163513 0.2679596245288849 0.0 -0.0 1 True False
491.37 2.7704367637634277 -1.3752422344735642 1.6947477499591272 -1.8902036152281703 -1.570829216633932 1.1996686458587646 0.0 -0.074375219643116 -0.12966495752334595 0.20108844339847565 0.0 -0.0 1 True False
491.41999999999996 2.770432233810425 -1.3782841724208375 1.6892755667315882 -1.8818069897093714 -1.5707891623126429 1.1996243000030518 0.0 -0.04835541546344757 -0.08582542091608047 0.13285303115844727 0.0 -0.0 1 True False
491.46999999999997 2.7703871726989746 -1.3801925045302887 1.6862829367267054 -1.8767463169493617 -1.570813004170553 1.1997010707855225 0.0 -0.021457701921463013 -0.04131220653653145 0.06819061189889908 0.0 -0.0 1 True False
491.52 2.7704575061798096 -1.3806860905936738 1.6853020826922815 -1.875497957269186 -1.5707810560809534 1.199633002281189 0.0 -5.120821811033238e-07 0.0005112853832542896 -0.01221094373613596 0.0 -0.0 1 False False
491.57 2.7703917026519775 -1.3807024222663422 1.6853020826922815 -1.8754574261107386 -1.5708172957049769 1.1995797157287598 0.0 2.0466321918649337e-18 7.091918025059485e-11 0.0003747831506188959 0.0 -0.0 1 False False
491.62 2.770448684692383 -1.3807010066560288 1.6852691809283655 -1.8753735027708949 -1.5707967917071741 1.1996608972549438 0.0 -0.000871807977091521 -0.0009312255424447358 0.0003258062060922384 0.0 -0.0 1 False False
491.66999999999996 2.7704367637634277 -1.3807262641242524 1.6853140036212366 -1.8753181896605433 -1.5708006064044397 1.1996372938156128 0.0 -0.0011082288110628724 -0.0010077215265482664 0.0009606016101315618 0.0 -0.0 1 False False
491.71999999999997 2.7704410552978516 -1.3807592999986191 1.6852734724627894 -1.8752623997130335 -1.5707686583148401 1.1996405124664307 0.0 -0.001092490740120411 -0.0009182880166918039 0.000536989129614085 0.0 -0.0 1 False False
491.77 2.7704248428344727 -1.3807637852481385 1.6852167288409632 -1.8752623997130335 -1.5708087126361292 1.1996030807495117 0.0 -0.00021058056154288352 -0.0006585650844499469 0.00020522417617030442 0.0 -0.0 1 False False
491.82 2.7704126834869385 -1.380684645181038 1.6852496306048792 -1.8753067455687464 -1.570824925099508 1.1996331214904785 0.0 -0.00016292383952531964 -0.0003852884692605585 0.00011982519936282188 0.0 -0.0 1 False False
491.87 2.7704620361328125 -1.3807789993337174 1.6852424780475062 -1.875310560266012 -1.5707767645465296 1.1995792388916016 0.0 -0.00012382990098558366 -0.00017538040992803872 8.461497782263905e-05 0.0 -0.0 1 False False
491.91999999999996 2.770416021347046 -1.3807789248279114 1.6852095762835901 -1.8752581081786097 -1.5707691351519983 1.1996419429779053 0.0 -8.659683226142079e-05 -0.00012435669486876577 1.0836016264360939e-19 0.0 -0.0 1 False False
491.96999999999997 2.770427942276001 -1.3807369482568284 1.6852424780475062 -1.875242372552389 -1.5707610289203089 1.199600100517273 0.0 -5.160870140231155e-40 -9.516117279417813e-05 1.6459929219055238e-38 0.0 -0.0 1 False False
492.02 2.7704453468322754 -1.3807834398797532 1.685216252003805 -1.875286718408102 -1.570784870778219 1.19959557056427 0.0 -5.237324984444717e-40 -5.668553594284631e-17 0.0 0.0 -0.0 1 False False
492.07 2.770439863204956 -1.380782203083374 1.685263458882467 -1.8752500019469203 -1.5707925001727503 1.1996450424194336 0.0 0.0 -0.0 0.0 0.0 -0.0 1 False False
492.12 2.770416021347046 -1.3807307493737717 1.6852014700519007 -1.8753024540343226 -1.5707691351519983 1.1996197700500488 0.0 0.0 -0.0 0.0 0.0 -0.0 1 False False
492.16999999999996 2.77044415473938 -1.380753682260849 1.6852825323687952 -1.8752581081786097 -1.5708087126361292 1.1996119022369385 0.0 0.0 -0.0 0.0 0.0 -0.0 1 False False
492.21999999999997 2.7704615592956543 -1.380765513782837 1.6852381865130823 -1.8752581081786097 -1.5707967917071741 1.199649453163147 0.0 0.0 -0.0 0.0 0.0 -0.0 1 False False
492.27 2.770416021347046 -1.380696566109993 1.6851523558246058 -1.8753024540343226 -1.5707891623126429 1.1996361017227173 0.0 0.0 -0.0 0.0 0.0 -0.0 1 False False
492.32 2.7704529762268066 -1.3807833951762696 1.6852381865130823 -1.8752581081786097 -1.5707805792437952 1.1996747255325317 0.0 0.0 -0.0 0.0 0.0 -0.0 1 False False
492.37 2.7704527378082275 -1.3806741696647187 1.6851971785174769 -1.8752623997130335 -1.5707929770099085 1.199600100517273 0.0 0.0 -0.0 0.0 0.0 -0.0 1 False False
492.41999999999996 2.770366668701172 -1.3807670784047623 1.6852839628802698 -1.8752457104124964 -1.5707686583148401 1.1996361017227173 0.0 0.0 -0.0 0.0 0.0 -0.0 1 False False
492.46999999999997 2.7704694271087646 -1.3807370078614731 1.685213867818014 -1.8752623997130335 -1.5708044211017054 1.1996197700500488 0.0 0.0 -0.0 0.0 0.0 -0.0 1 False False
492.52 2.7704694271087646 -1.3807296019843598 1.685221020375387 -1.8753024540343226 -1.5708087126361292 1.1996643543243408 0.0 0.0 -0.0 6.60645259702651e-23 0.0 -0.0 1 True False
492.57 2.770423650741577 -1.3807402116111298 1.6852014700519007 -1.8752623997130335 -1.5707886854754847 1.1996285915374756 0.0 0.0 -0.0 1.0034698303030015e-41 0.0 -0.0 1 True False
492.62 2.7704975605010986 -1.380725086932518 1.6852558294879358 -1.875270505944723 -1.570813004170553 1.199665904045105 0.0 0.0 -0.0 0.0 0.0 -0.0 1 True False
492.66999999999996 2.770427942276001 -1.380696491604187 1.6852334181415003 -1.8752786121764125 -1.570801083241598 1.1996196508407593 0.0 0.0 -0.0 0.0 0.0 -0.0 1 True False
492.71999999999997 2.770432233810425 -1.3807957631400605 1.6852119604693812 -1.875270505944723 -1.570801083241598 1.1995627880096436 0.0 0.0 -0.0 0.0 0.0 -0.0 1 True False
492.77 2.7704365253448486 -1.3807340574315567 1.685213867818014 -1.8752662144102992 -1.5708087126361292 1.1996285915374756 0.0 0.0 -0.0 0.0 0.0 -0.0 1 True False
492.82 2.770543336868286 -1.3807128828815003 1.6852095762835901 -1.8752747974791468 -1.5708006064044397 1.199611783027649 -4.3497857404872775e-05 0.0 -0.0 0.0 0.0 -0.0 1 True False
492.87 2.770416021347046 -1.380812094812729 1.6852052847491663 -1.8752781353392542 -1.5707362333880823 1.1995792388916016 -1.969734330486972e-05 0.0 -0.0 0.0 0.0 -0.0 1 True False
492.91999999999996 2.7704694271087646 -1.3807777774384995 1.68524676958193 -1.875322004357809 -1.5708406607257288 1.1996253728866577 -1.0993326582474622e-40 0.0 -0.0 0.0 3.818287306884931e-15 -6.334605586744146e-06 1 True False
492.96999999999997 2.770416021347046 -1.3807581079057236 1.685265843068258 -1.875298639337057 -1.5707967917071741 1.199591040611267 -7.477770850528032e-05 0.0 -0.0 0.0 5.799987390938056e-34 6.680242950096726e-05 1 True False
493.02 2.770411729812622 -1.3807790291360398 1.68524676958193 -1.8752066097655238 -1.5707929770099085 1.1995701789855957 -4.418474782141857e-05 0.0 -0.0 7.187791486139294e-13 -9.61118348641321e-06 -1.2768099945381639e-11 1 True False
493.07 2.770427942276001 -1.3807251018336792 1.6852338949786585 -1.8752862415709437 -1.570801083241598 1.1996119022369385 3.768579144493994e-13 0.0 -0.0 1.0918266596115499e-31 -1.4599410315956136e-24 -1.939476529365208e-30 1 True False
493.12 2.7710342407226562 -1.3807370078614731 1.6851514021502894 -1.8752380810179652 -1.5708487669574183 1.2001698017120361 0.04044795408844948 0.001569194719195366 -0.002916800556704402 0.0 -2.214051573633211e-43 0.03634987398982048 1 True False
493.16999999999996 2.774794101715088 -1.3805227440646668 1.6847460905658167 -1.8752061329283656 -1.5707686583148401 1.2040793895721436 0.11110261082649231 0.009082052856683731 -0.014164910651743412 0.0033741022925823927 -0.0 0.11257495731115341 1 True False
493.21999999999997 2.7821455001831055 -1.3799110513976593 1.6840303579913538 -1.8749481640257777 -1.5708168188678187 1.2114149332046509 0.18101263046264648 0.012537991628050804 -0.01605154201388359 0.005068159196525812 -0.0 0.17719325423240662 1 True False
493.27 2.792891263961792 -1.3792227071574708 1.682976547871725 -1.8747054539122523 -1.5708087126361292 1.222124695777893 0.24791716039180756 0.01752813719213009 -0.023736407980322838 0.006704349536448717 -0.0 0.24413466453552246 1 True False
493.32 2.807206869125366 -1.378150851731636 1.6816404501544397 -1.874399801293844 -1.5707686583148401 1.236437201499939 0.31911781430244446 0.02402077056467533 -0.029361451044678688 0.006308998912572861 -0.0 0.3188691735267639 1 True False
493.37 2.8249313831329346 -1.3767398458770295 1.68004018465151 -1.8739539585509242 -1.5708087126361292 1.2541892528533936 0.3946056663990021 0.0285944826900959 -0.0350981280207634 0.010032656602561474 5.839622099301778e-05 0.38596653938293457 1 True False
493.41999999999996 2.8462252616882324 -1.3751235169223328 1.6778882185565394 -1.8734690151610316 -1.5707686583148401 1.275418996810913 0.4573022723197937 0.033787213265895844 -0.04881230741739273 0.009766418486833572 3.4561071515781805e-05 0.4594527781009674 1 True False
493.46999999999997 2.8710389137268066 -1.3734087210944672 1.6754782835589808 -1.8729526005186976 -1.5707443396197718 1.3001275062561035 0.5281509757041931 0.03908602520823479 -0.051468007266521454 0.010265249758958817 1.021305586702604e-22 0.5286321640014648 1 True False
493.52 2.8992908000946045 -1.3712721329978486 1.672835652028219 -1.8723484478392542 -1.570784870778219 1.3283299207687378 0.6005846858024597 0.04114347696304321 -0.05382281914353371 0.01376308873295784 1.551377529854005e-41 0.6001956462860107 1 True False
493.57 2.930997133255005 -1.3689018350890656 1.6697142759906214 -1.8716641865172328 -1.5707891623126429 1.3601845502853394 0.6672143936157227 0.047122884541749954 -0.06458169966936111 0.01546249259263277 0.0 0.667254626750946 1 True False
493.62 2.9661591053009033 -1.366322861318924 1.6663697401629847 -1.8708497486510218 -1.5707724730121058 1.3953415155410767 0.7398421764373779 0.055469196289777756 -0.06580033153295517 0.01881500519812107 1.0178275583472285e-10 0.7423909306526184 1 True False
493.66999999999996 3.0048348903656006 -1.3634502303651352 1.6625450293170374 -1.8698674641051234 -1.570829216633932 1.4340001344680786 0.8096395134925842 0.05742940306663513 -0.07779169827699661 0.018483517691493034 1.4803360360443607e-12 0.8097774386405945 1 True False
493.71999999999997 3.0470988750457764 -1.360442803507187 1.658518139516012 -1.868909021417135 -1.5708048979388636 1.4762928485870361 0.8763126134872437 0.06466981768608093 -0.08087988942861557 0.022250019013881683 5.76581951463595e-05 0.8706750869750977 1 True False
493.77 3.0928733348846436 -1.357136533861496 1.6540358702289026 -1.8679272137083949 -1.5707967917071741 1.521931529045105 0.9451025724411011 0.07003912329673767 -0.09124317765235901 0.019890857860445976 2.38490195914844e-22 0.9485358595848083 1 True False
493.82 3.1419105529785156 -1.3533614587834855 1.6495416800128382 -1.8666030369200648 -1.5707686583148401 1.5712218284606934 1.0216599702835083 0.07517094910144806 -0.09952886402606964 0.022938743233680725 3.622636789972517e-41 1.0142619609832764 1 True False
493.87 3.1939754486083984 -1.3496284049800416 1.6444061438189905 -1.8656331501402796 -1.5707319418536585 1.6232579946517944 1.0459249019622803 0.07881250232458115 -0.09876241534948349 0.026681283488869667 0.0 1.0456730127334595 1 True False
493.91999999999996 3.246368408203125 -1.3457359236529847 1.6393335501300257 -1.8644477329649867 -1.5707925001727503 1.6755712032318115 1.043956995010376 0.07364272326231003 -0.10360342264175415 0.020316582173109055 0.0 1.04571533203125 1 True False
493.96999999999997 3.2987773418426514 -1.3418095421842118 1.634301487599508 -1.863124509850973 -1.5708168188678187 1.727981448173523 1.04728102684021 0.07497908174991608 -0.10140705853700638 0.021370084956288338 0.0 1.0464622974395752 1 True False
494.02 3.351078748703003 -1.3380178970149537 1.6291678587542933 -1.8619748554625453 -1.570801083241598 1.7802248001098633 1.0514869689941406 0.07852885127067566 -0.09973848611116409 0.02655458264052868 -7.603722042404115e-05 1.0546389818191528 1 True False
494.07 3.4034667015075684 -1.3342198890498658 1.6241143385516565 -1.8608504734435023 -1.570801083241598 1.8324706554412842 1.046284794807434 0.07576978951692581 -0.09632428735494614 0.02544662542641163 2.855549325886386e-07 1.0486685037612915 1 True False
494.12 3.455836296081543 -1.3303218346885224 1.6191886107074183 -1.8595591984190882 -1.5707891623126429 1.885042667388916 1.0487412214279175 0.07564342767000198 -0.10529214888811111 0.021577736362814903 4.3375877407662923e-26 1.044203758239746 1 True False
494.16999999999996 3.5081584453582764 -1.3264846217683335 1.614192310963766 -1.858377595941061 -1.5707805792437952 1.937359094619751 1.0502437353134155 0.08008978515863419 -0.10447423160076141 0.02220960706472397 7.006492321624085e-45 1.0469613075256348 1 True False
494.21999999999997 3.56059193611145 -1.3226097089103241 1.609133545552389 -1.857277055779928 -1.570772949849264 1.9897222518920898 1.0430892705917358 0.07892187684774399 -0.09920033067464828 0.030982404947280884 0.0 1.0470515489578247 1 True False
494.27 3.612842082977295 -1.3188562256148835 1.603931728993551 -1.85607971767568 -1.5707805792437952 2.042137384414673 1.0475637912750244 0.07513606548309326 -0.09920788556337357 0.022340137511491776 0.0 1.0443272590637207 1 True False
494.32 3.665222406387329 -1.3148600918105622 1.598945442830221 -1.8548475704588832 -1.5707767645465296 2.094428062438965 1.0510671138763428 0.07597159594297409 -0.1011386513710022 0.025117628276348114 -7.424685463774949e-05 1.0499460697174072 1 True False
494.37 3.7176053524017334 -1.310994343166687 1.5938990751849573 -1.8535992107787074 -1.5708373228656214 2.1466481685638428 1.0449025630950928 0.07707599550485611 -0.10110075026750565 0.026698051020503044 6.808845682826359e-07 1.0485172271728516 1 True False
494.41999999999996 3.770002841949463 -1.3072487276843567 1.5889089743243616 -1.8524142704405726 -1.5708044211017054 2.199176788330078 1.0446799993515015 0.07529227435588837 -0.09792199730873108 0.024740442633628845 1.0342655488144369e-25 1.0411458015441895 1 True False
494.46999999999997 3.8223161697387695 -1.3033791047385712 1.5838072935687464 -1.8512898884215296 -1.5707691351519983 2.251572847366333 1.0529265403747559 0.07439985871315002 -0.10020569711923599 0.02371137961745262 1.5414283107572988e-44 1.0537254810333252 1 True False
494.52 3.8747005462646484 -1.2995014649680634 1.578806225453512 -1.8500448666014613 -1.5708211104022425 2.3037588596343994 1.0425715446472168 0.07817085087299347 -0.10451851040124893 0.023490391671657562 0.0 1.0487240552902222 1 True False
494.57 3.9270784854888916 -1.2956646543792267 1.5737832228290003 -1.84889616588735 -1.5707686583148401 2.3562633991241455 1.0454201698303223 0.07933833450078964 -0.10225695371627808 0.02260269597172737 0.0 1.0451054573059082 1 True False
494.62 3.979360342025757 -1.2918863159469147 1.56858998933901 -1.847631116906637 -1.5708087126361292 2.4086594581604004 1.0528055429458618 0.07707571983337402 -0.09882133454084396 0.027359409257769585 0.0 1.050491452217102 1 True False
494.66999999999996 4.031747817993164 -1.287936584358551 1.56350022951235 -1.8464271030821742 -1.5707967917071741 2.460810661315918 1.0436614751815796 0.07606136798858643 -0.1030256375670433 0.01987241581082344 0.0 1.0499329566955566 1 True False
494.71999999999997 4.0841064453125 -1.2839870017817994 1.558533016835348 -1.845198770562643 -1.5708211104022425 2.5133213996887207 1.0454243421554565 0.07815990597009659 -0.10015737265348434 0.019252711907029152 0.0001071717997547239 1.0389713048934937 1 True False
494.77 4.136446475982666 -1.280233995323517 1.5535553137408655 -1.8440658054747523 -1.5707891623126429 2.565805435180664 1.0504671335220337 0.074344202876091 -0.09921978414058685 0.025706324726343155 2.644770166759791e-11 1.0525206327438354 1 True False
494.82 4.1889166831970215 -1.276404694919922 1.5484560171710413 -1.8429490528502406 -1.570801083241598 2.6179349422454834 1.0427987575531006 0.07269030064344406 -0.09567943215370178 0.024259785190224648 4.017413127720552e-30 1.0481065511703491 1 True False
494.87 4.24118709564209 -1.2726257604411622 1.5434601942645472 -1.8416768513121546 -1.5707605520831507 2.670525312423706 1.0479668378829956 0.07697610557079315 -0.10186368972063065 0.019290564581751823 0.0 1.040148377418518 1 True False
494.91999999999996 4.293539524078369 -1.268697903757431 1.538368050252096 -1.8404609165587367 -1.5708048979388636 2.7227842807769775 1.051332950592041 0.0797671303153038 -0.1006719172000885 0.0268443264067173 0.0 1.0533673763275146 1 True False
494.96999999999997 4.345868110656738 -1.2649125915816803 1.5332968870746058 -1.839203496972555 -1.570813004170553 2.7749993801116943 1.0467885732650757 0.07674261182546616 -0.09685689955949783 0.02772323600947857 0.0 1.0515364408493042 1 True False
495.02 4.398250102996826 -1.2610521477511902 1.5282405058490198 -1.8380667171873988 -1.5708048979388636 2.8275306224823 1.0485118627548218 0.0787312462925911 -0.09998262673616409 0.020688924938440323 0.0 1.0351574420928955 1 True False
495.07 4.448890209197998 -1.2572081250003357 1.5234397093402308 -1.8369695148863734 -1.570801083241598 2.878291130065918 0.9797781109809875 0.07096085697412491 -0.09842179715633392 0.019572505727410316 -0.00011999160051345825 0.9815287590026855 1 True False
495.12 4.496247291564941 -1.2537367802909394 1.5189455191241663 -1.8358203373351039 -1.5707891623126429 2.9253275394439697 0.9049806594848633 0.07119236141443253 -0.08885948359966278 0.02300501987338066 1.2434010443485022e-07 0.9066891670227051 1 True False
495.16999999999996 4.539997577667236 -1.2506174010089417 1.5145934263812464 -1.8348900280394496 -1.570784870778219 2.96920108795166 0.8474629521369934 0.05916370078921318 -0.0792502611875534 0.01913360133767128 1.8887294519534298e-26 0.8457838892936707 1 True False
495.21999999999997 4.580194473266602 -1.247610406284668 1.5108063856707972 -1.8339282474913539 -1.5708335081683558 3.0095460414886475 0.7728517055511475 0.05620599910616875 -0.07936649769544601 0.015097646042704582 -8.159707067534328e-05 0.7693492770195007 1 True False
495.27 4.61696720123291 -1.2449178856662293 1.507169548665182 -1.8330689869322718 -1.5708330313311976 3.04626727104187 0.6988804936408997 0.05293554812669754 -0.06047443673014641 0.01752597838640213 6.848684819260598e-08 0.6942734718322754 1 True False
495.32 4.650238990783691 -1.2425180238536377 1.5039690176593226 -1.8322583637633265 -1.5707882086383265 3.0794289112091064 0.6310210824012756 0.04558650031685829 -0.06497150659561157 0.012799144722521305 1.040316250624438e-26 0.6313337087631226 1 True False
495.37 4.679994583129883 -1.240260199909546 1.5011327902423304 -1.8315779171385707 -1.5708006064044397 3.1092915534973145 0.5575563907623291 0.04288129508495331 -0.05210890993475914 0.011864486150443554 1.401298464324817e-45 0.5598798394203186 1 True False
495.41999999999996 4.706245422363281 -1.238320307140686 1.4986489454852503 -1.83107390026235 -1.570772949849264 3.1356046199798584 0.4895271062850952 0.0367916114628315 -0.04926852881908417 0.00866524875164032 0.0 0.4847291111946106 1 True False
495.46999999999997 4.729170322418213 -1.2366607350162049 1.4964197317706507 -1.8305336437621058 -1.5708048979388636 3.1584579944610596 0.41771432757377625 0.030196893960237503 -0.043195053935050964 0.009896930307149887 0.0 0.4231412410736084 1 True False
495.52 4.748566627502441 -1.2352340382388611 1.4945886770831507 -1.8300796947874964 -1.5707572142230433 3.177631378173828 0.352779358625412 0.02446230873465538 -0.03404457867145538 0.009017031639814377 0.0 0.3630519211292267 1 True False
495.57 4.764292240142822 -1.2340307098678132 1.4930995146380823 -1.8297416172423304 -1.5707686583148401 3.193563222885132 0.2830147445201874 0.021033266559243202 -0.02760876715183258 0.00860683061182499 0.0 0.2814379334449768 1 True False
495.62 4.776684284210205 -1.2331670087626954 1.4918511549579065 -1.829531808892721 -1.5708211104022425 3.205789089202881 0.21158789098262787 0.015432577580213547 -0.022770334035158157 0.0069595822133123875 0.0 0.21954862773418427 1 True False
495.66999999999996 4.785426616668701 -1.2325590413859864 1.4909442106830042 -1.8293091259398402 -1.5707886854754847 3.2147417068481445 0.14240175485610962 0.009984523989260197 -0.01577203907072544 0.002481593284755945 0.0 0.14523319900035858 1 True False
495.71999999999997 4.7908453941345215 -1.2321867507747193 1.4904707113849085 -1.8291260204710902 -1.5708048979388636 3.2200379371643066 0.07631399482488632 0.0037197016645222902 -0.004449970554560423 0.0020998730324208736 0.0 0.07452953606843948 1 True False
495.77 4.7927165031433105 -1.232165740137436 1.4903987089740198 -1.829130312005514 -1.5708087126361292 3.2219197750091553 0.0019354926189407706 0.00039371155435219407 -0.0003111011756118387 0.0006302859983406961 0.0 0.004278895910829306 1 True False
495.82 4.79264497756958 -1.2313378614238282 1.491248909627096 -1.8305813274779261 -1.5708211104022425 3.2218716144561768 0.001374236075207591 0.02651020884513855 0.04507041350007057 -0.0627410039305687 0.0001267496991204098 0.00010868655954254791 1 True False
495.87 4.792623996734619 -1.2297014457038422 1.494385067616598 -1.835881849328512 -1.5707925001727503 3.221890926361084 0.00028407087665982544 0.044756870716810226 0.0891847312450409 -0.128396138548851 5.831281669088639e-05 0.0005812545423395932 1 True False
495.91999999999996 4.792675971984863 -1.2266881328872223 1.5002687613116663 -1.8445378742613734 -1.5708168188678187 3.2219107151031494 0.000993971130810678 0.07230057567358017 0.14204144477844238 -0.20404697954654694 3.786597153521143e-05 0.0003270429733674973 1 True False
495.96999999999997 4.792701244354248 -1.2227054101279755 1.508590046559469 -1.8564969501891078 -1.5708373228656214 3.2219316959381104 0.0011648780200630426 0.09243276715278625 0.1842033416032791 -0.277447909116745 1.2138512417436687e-09 0.00020063124247826636 1 True False
496.02 4.7927446365356445 -1.217408464556076 1.5188596884356897 -1.8722292385497035 -1.570813004170553 3.2219152450561523 0.00025305579765699804 0.1134812980890274 0.2263593077659607 -0.35020047426223755 1.4061862785297308e-10 0.00012241803051438183 1 True False
496.07 4.7927327156066895 -1.2109684211066742 1.531398121510641 -1.8912130794920863 -1.5707967917071741 3.221886396408081 0.00012621647329069674 0.14154435694217682 0.27498942613601685 -0.4204522967338562 2.1359998502916122e-29 8.789943967713043e-05 1 True False
496.12 4.792724132537842 -1.2033690971187134 1.5465295950519007 -1.913765092889303 -1.5707886854754847 3.2219197750091553 9.294291521655396e-05 0.16650694608688354 0.3212270140647888 -0.48372456431388855 0.0 1.5717321888431002e-09 1 True False
496.16999999999996 4.792695999145508 -1.1946165722659607 1.5635860602008265 -1.9399367771544398 -1.5707891623126429 3.221909284591675 7.549604497114615e-09 0.18693168461322784 0.36601725220680237 -0.5653165578842163 0.0 2.387464129602568e-28 1 True False
496.21999999999997 4.792675495147705 -1.185803936128952 1.580738369618551 -1.965433260003561 -1.570716683064596 3.2219033241271973 8.274321589851752e-05 0.16033808887004852 0.3136504888534546 -0.48364099860191345 0.0 0.0 1 True False
496.27 4.792707920074463 -1.178502396946289 1.5952299276935022 -1.987664361993307 -1.570813004170553 3.2219226360321045 3.849892527796328e-05 0.13900724053382874 0.2744138836860657 -0.41906413435935974 0.0 0.0 1 True False
496.32 4.792707920074463 -1.1721403759768982 1.6077707449542444 -2.006345888177389 -1.5707972685443323 3.2219390869140625 1.2542776858026627e-05 0.11436964571475983 0.22396712005138397 -0.3427172303199768 0.0 0.0 1 True False
496.37 4.792737007141113 -1.1670159560493012 1.617720905934469 -2.021762033502096 -1.570829216633932 3.221952438354492 8.553834182560844e-18 0.09290137141942978 0.18494181334972382 -0.2758674919605255 0.0 0.0 1 True False
496.41999999999996 4.792675495147705 -1.163033888941147 1.6253841559039515 -2.033447404901022 -1.5707648436175745 3.2219390869140625 0.0 0.06563914567232132 0.1303752213716507 -0.20130042731761932 0.0 4.8835165104522e-17 1 True False
496.46999999999997 4.792764186859131 -1.1601824921420594 1.6310723463641565 -2.0416556797423304 -1.5707686583148401 3.2219390869140625 0.0 0.04491998627781868 0.09070619940757751 -0.13854363560676575 0.0 7.418071034276466e-36 1 True False
496.52 4.792675495147705 -1.1586797398379822 1.634129826222555 -2.04628910640859 -1.5707724730121058 3.2219316959381104 0.0 0.019219907000660896 0.03836968168616295 -0.06291208416223526 0.0 0.0 1 True False
496.57 4.792728424072266 -1.1582904321006318 1.6350262800799769 -2.047640462914938 -1.5707925001727503 3.2219345569610596 0.0 -0.0012818834511563182 -0.00020396681793499738 0.007593223359435797 0.0 0.0 1 True False
496.62 4.792679786682129 -1.1582654279521485 1.6349881331073206 -2.047648092309469 -1.5707805792437952 3.221869945526123 0.0 0.0003373695944901556 -4.799553995489458e-34 0.00010853722778847441 0.0 0.0 1 True False
496.66999999999996 4.792724132537842 -1.1582578879645844 1.6350329558001917 -2.0476566753783167 -1.5707967917071741 3.2219078540802 0.0 0.0007049063569866121 0.00013028363173361868 -8.622792665846646e-05 0.0 0.0 1 True False
496.71999999999997 4.792700290679932 -1.1582459074309845 1.6350372473346155 -2.047652383843893 -1.5708044211017054 3.2219197750091553 0.0 0.001005819533020258 0.00014079608081374317 -5.884595520910807e-05 0.0 0.0 1 True False
496.77 4.792724132537842 -1.1582296651652833 1.6350253264056605 -2.0476519070067347 -1.5707486311541956 3.221928834915161 0.0 0.0011547943577170372 0.0002041941916104406 -5.078655158285983e-05 1.8124095907707967e-19 0.0 1 True False
496.82 4.7927656173706055 -1.1582020980170746 1.6350696722613733 -2.0476566753783167 -1.5707648436175745 3.2219197750091553 0.0 0.0006596663151867688 0.0002932729257736355 -2.252247759315651e-05 2.753054862222509e-38 0.0 1 True False
496.87 4.792708873748779 -1.1582385164550324 1.635094944630758 -2.0476042232909144 -1.5707925001727503 3.2219271659851074 0.0 0.00014139508130028844 0.00029170981724746525 -3.6341286857455714e-16 0.0 0.0 1 True False
496.91999999999996 4.792688369750977 -1.1582339865020295 1.6350362936602991 -2.0477005443968714 -1.5707767645465296 3.221935987472534 0.0 9.502753528067842e-05 0.00018029450438916683 -7.030525739537552e-05 0.0 0.0 1 True False
496.96999999999997 4.792695999145508 -1.1582183700850983 1.6351011435138147 -2.0476838550963343 -1.5708168188678187 3.2219033241271973 0.0 7.699346315348521e-05 0.00011464566341601312 -7.079025817802176e-05 0.0 0.0 1 True False
497.02 4.792663097381592 -1.1581771236709137 1.6350567976581019 -2.0476442776122035 -1.5708335081683558 3.2218942642211914 0.0 1.4737913333122857e-37 9.005391621030867e-05 -1.4246275114569094e-22 0.0 0.0 1 True False
497.07 4.792666912078857 -1.1581858557513733 1.6350362936602991 -2.0476118526854457 -1.570784870778219 3.2219433784484863 0.0 0.0 5.2601550123654306e-05 -6.878174463054165e-05 0.0 0.0 1 True False
497.12 4.792695999145508 -1.1582547289184113 1.6350763479815882 -2.0476962528624476 -1.5707843939410608 3.221935987472534 0.0 0.0 9.854680793316352e-29 -6.356591363438366e-15 0.0 0.0 1 True False
497.16999999999996 4.792724132537842 -1.1582020682147522 1.6350730101214808 -2.047636171380514 -1.5707886854754847 3.221935987472534 0.0 0.0 0.0 -9.655676819902316e-34 0.0 0.0 1 True False
497.21999999999997 4.792700290679932 -1.1582177442363282 1.6350653807269495 -2.0476285419859828 -1.5707967917071741 3.2219061851501465 0.0 0.0 0.0 -1.2915783893785449e-11 0.0 0.0 1 True False
497.27 4.792721271514893 -1.1582053762725373 1.6350763479815882 -2.047692438165182 -1.5708335081683558 3.2219033241271973 0.0 0.0 0.0 -1.9619100397144928e-30 0.0 0.0 1 True False
497.32 4.792759895324707 -1.1581695538810273 1.635092560444967 -2.047720571557516 -1.5707891623126429 3.221886396408081 0.0 0.0 0.0 -0.0 0.0 0.0 1 True False
497.37 4.792740345001221 -1.1582384568503876 1.6351411978351038 -2.0477005443968714 -1.5708406607257288 3.2219078540802 0.0 0.0 0.0 -0.0 0.0 0.0 1 True False
497.41999999999996 4.792712211608887 -1.1582438212684174 1.635068718587057 -2.047652383843893 -1.5708254019366663 3.221940755844116 0.0 0.0 0.0 -0.0 0.0 0.0 1 True False
497.46999999999997 4.792712211608887 -1.1582308870605011 1.635096851979391 -2.047708650628561 -1.5708492437945765 3.2219033241271973 5.463797060656361e-05 -1.6544342193916916e-25 1.6769876491339665e-22 -0.00010462325008120388 -0.0017059213714674115 1.143554527516244e-06 1 True False
497.52 4.792725563049316 -1.1581976574710389 1.6350730101214808 -2.0477243862547816 -1.570801083241598 3.2219033241271973 2.1700792785850354e-05 0.0 0.0 -4.267536132829264e-05 -3.339776033311169e-14 1.7370616060163199e-25 1 True False
497.57 4.792740345001221 -1.158147857790329 1.635080639516012 -2.047708650628561 -1.5707843939410608 3.2219316959381104 1.353932293568505e-05 0.0 0.0 -2.6793200959218666e-05 -5.0731265202498406e-33 2.6624670822171524e-44 1 True False
497.62 4.7926926612854 -1.15824709952388 1.6351011435138147 -2.0476681194701136 -1.5708168188678187 3.221890926361084 3.07951637523729e-07 0.0 0.0 -9.586484566170839e-07 -0.0 0.0 1 True False
497.66999999999996 4.7927374839782715 -1.158209667806961 1.6350882689105433 -2.0477243862547816 -1.5708168188678187 3.221940755844116 0.0 0.0 0.0 -1.456188913307543e-25 -0.0 0.0 1 False False
497.71999999999997 4.792758464813232 -1.1582139891437073 1.6351130644427698 -2.047692438165182 -1.5708211104022425 3.221935987472534 0.0 0.0 0.0 -2.2420775429197073e-44 -3.116784864687361e-05 -5.646964200423099e-05 1 False False
497.77 4.792691230773926 -1.1582139891437073 1.6351140181170862 -2.0476962528624476 -1.5707686583148401 3.221935987472534 0.0 0.0 0.0 -0.0 1.240964479092879e-18 -4.3954849388683215e-05 1 False False
497.82 4.792675018310547 -1.1582265359214325 1.635068718587057 -2.0476442776122035 -1.570801083241598 3.2219109535217285 0.0 0.0 0.0 -0.0 1.885027366833007e-37 -4.0937877201940864e-05 1 False False
497.87 4.792707920074463 -1.1581609410098572 1.6351497809039515 -2.0477286777892054 -1.5707925001727503 3.221989631652832 0.0 0.0 0.0 -0.0 0.0 -8.157981937984005e-06 1 False False
497.91999999999996 4.792675018310547 -1.1582177740386506 1.6350892225848597 -2.047688146630758 -1.5707486311541956 3.221968650817871 0.0 0.0 0.0 -0.0 0.0 -1.2391997051215676e-24 1 False False
497.96999999999997 4.792719841003418 -1.1581771832755585 1.6350567976581019 -2.047676225701803 -1.570801083241598 3.221919536590576 0.0 0.0 0.0 -0.0 0.0 -1.877739942195255e-43 1 False False
498.02 4.792724132537842 -1.1581316155246277 1.6351311842547815 -2.047676225701803 -1.570801083241598 3.2218568325042725 0.0 0.0 0.0 -0.0 0.0 -0.0 1 False False
498.07 4.792724132537842 -1.1581695836833497 1.6351102034198206 -2.047704359094137 -1.5707772413836878 3.2219271659851074 0.0 0.0 0.0 -0.0 0.0 -0.0 1 False False
498.12 4.792705059051514 -1.1581728619388123 1.6350773016559046 -2.0476561985411585 -1.570813004170553 3.2218945026397705 0.0 0.0 0.0 -0.0 0.0 -0.0 1 False False
498.16999999999996 4.79268217086792 -1.158108041887619 1.6351178328143519 -2.0476962528624476 -1.5707805792437952 3.2219271659851074 0.0 0.0 0.0 -0.0 0.0 -0.0 1 False False
498.21999999999997 4.792670249938965 -1.1581891042045136 1.6350849310504358 -2.047648092309469 -1.570784870778219 3.2218902111053467 0.0 0.0 0.0 -0.0 0.0 -0.0 1 False False
498.27 4.7926836013793945 -1.1581814748099823 1.635059658681051 -2.047676225701803 -1.5707767645465296 3.22194766998291 1.6749720544074538e-41 0.0 0.0 -0.0 0.0 -0.0 1 False False
498.32 4.7927165031433105 -1.158213422899582 1.6350820700274866 -2.047720571557516 -1.570756737385885 3.221850872039795 0.0 0.0 0.0 -0.0 0.0 -0.0020951973274350166 1 False False
498.37 4.792740345001221 -1.158209667806961 1.635035816823141 -2.047636171380514 -1.5707805792437952 3.2219033241271973 4.1442675865255296e-05 0.0 0.0 -0.0 0.0 -2.5556380933267064e-05 1 False False
498.41999999999996 4.792724132537842 -1.1582177442363282 1.6351011435138147 -2.0477005443968714 -1.5708168188678187 3.2219033241271973 1.9264803995611146e-05 0.0 0.0 -0.0 0.0 -5.464499395202438e-07 1 False False
498.46999999999997 4.792707920074463 -1.1581965249827881 1.6350892225848597 -2.0476719341673792 -1.5707648436175745 3.221928358078003 1.2549287021101918e-05 0.0 0.0 -0.0 0.0 -1.0993661710145819e-11 1 False False
498.52 4.792745113372803 -1.1582266253283997 1.635096851979391 -2.047676225701803 -1.5708087126361292 3.2219033241271973 8.557491148048941e-18 0.0 0.0 -0.0 0.0 -1.6699396243826763e-30 1 False False
498.57 4.7927374839782715 -1.1582415860942383 1.6350653807269495 -2.0476280651488246 -1.5708087126361292 3.221935987472534 0.0 -0.011497820727527142 -0.012679698877036572 0.008718462660908699 0.0 -0.0 1 False False
498.62 4.792670726776123 -1.1588996213725586 1.633613411580221 -2.0453621349730433 -1.5707925001727503 3.221886396408081 0.0 -0.024563536047935486 -0.05080797150731087 0.07401387393474579 0.0 -0.0 1 False False
498.66999999999996 4.792754173278809 -1.1607312125018616 1.6298444906817835 -2.0397054157652796 -1.5708406607257288 3.221956491470337 0.0 -0.0494934543967247 -0.0990104079246521 0.15373669564723969 0.0 -0.0 1 False False
498.71999999999997 4.7927422523498535 -1.1640442174724122 1.6235531012164515 -2.030431409875387 -1.5707648436175745 3.2218947410583496 0.0 -0.07816466689109802 -0.1436259001493454 0.2212778478860855 0.0 -0.0 1 False False
498.77 4.792691230773926 -1.168255553846695 1.615289036427633 -2.017775674859518 -1.5707886854754847 3.221956491470337 0.0 -0.10224653035402298 -0.19425684213638306 0.29328322410583496 0.0 -0.0 1 False False
498.82 4.792703151702881 -1.1737362009337922 1.6045320669757288 -2.001596590081686 -1.5707805792437952 3.2219066619873047 0.0 -0.11968772858381271 -0.23498420417308807 0.3642808198928833 0.0 -0.0 1 False False
498.87 4.792691230773926 -1.1804207426360627 1.5913122336017054 -1.9819284878172816 -1.5708449522601526 3.2219314575195312 0.0 -0.14420022070407867 -0.2865784168243408 0.43894070386886597 0.0 -0.0 1 False False
498.91999999999996 4.7927045822143555 -1.1882300835898896 1.5761507193194788 -1.9586402378477992 -1.5707967917071741 3.221919536590576 0.0 -0.16554781794548035 -0.33028972148895264 0.4943840503692627 0.0 -0.0 1 False False
498.96999999999997 4.792707920074463 -1.1972328287414093 1.5583842436419886 -1.932195325891012 -1.5708335081683558 3.2218821048736572 7.658771130522653e-30 -0.17490434646606445 -0.35310453176498413 0.5313720107078552 0.0 -0.0 1 False False
499.02 4.792695999145508 -1.2054609817317505 1.5421231428729456 -1.9071666202940882 -1.5707767645465296 3.2219152450561523 0.0 -0.15761615335941315 -0.3061935007572174 0.4753831923007965 0.0 -0.0 1 False False
499.07 4.792719841003418 -1.2130379241755982 1.5276086966144007 -1.8855883083739222 -1.570784870778219 3.2219228744506836 0.0 -0.13634884357452393 -0.26094114780426025 0.4027937948703766 0.0 -0.0 1 False False
499.12 4.792691707611084 -1.219043419962265 1.5158093611346644 -1.8673674068846644 -1.5707767645465296 3.2218947410583496 0.0 -0.10978734493255615 -0.21823671460151672 0.32264089584350586 0.0 -0.0 1 False False
499.16999999999996 4.792682647705078 -1.224009321337082 1.5060728232013147 -1.8529006443419398 -1.570784870778219 3.2219271659851074 0.0 -0.08627401292324066 -0.17043568193912506 0.2627964913845062 0.0 -0.0 1 False False
499.21999999999997 4.7927093505859375 -1.2276872855475922 1.4987462202655237 -1.8416420421996058 -1.5708087126361292 3.2219109535217285 0.0 -0.0652969554066658 -0.12143044173717499 0.18993134796619415 0.0 -0.0 1 False False
499.27 4.792700290679932 -1.2302657228759308 1.493707005177633 -1.834160944024557 -1.570784870778219 3.2219066619873047 0.0 -0.04288981854915619 -0.0785360038280487 0.11423305422067642 0.0 -0.0 1 False False
499.32 4.7927327156066895 -1.2316611272147675 1.4910038153277796 -1.8299037418761195 -1.5707648436175745 3.2219152450561523 0.0 -0.015980850905179977 -0.035802826285362244 0.04562680050730705 0.0 -0.0 1 False False
499.37 4.792698860168457 -1.2319125098041077 1.490366284047262 -1.829172750512594 -1.5707767645465296 3.2218990325927734 0.0 -2.4168000933855183e-10 -8.070476553712069e-08 -0.0006301315152086318 0.0 -0.0 1 False False
499.41999999999996 4.792712211608887 -1.2318973404220124 1.490349594746725 -1.829217096368307 -1.5707529226886194 3.2218778133392334 0.0 1.3248553939462432e-27 -0.00048505954327993095 0.00015136270667426288 0.0 -0.0 1 False False
499.46999999999997 4.792719841003418 -1.231858806019165 1.4903314749347132 -1.8291737041869105 -1.570784870778219 3.2219152450561523 0.0 -0.00011706551595125347 -0.0010443488135933876 0.00025496422313153744 0.0 -0.0 1 False False
499.52 4.792698860168457 -1.231915460234024 1.4902985731707972 -1.8291651211180628 -1.5707886854754847 3.221935749053955 0.0 -0.0010321810841560364 -0.0009906006744131446 0.0003747619630303234 0.0 -0.0 1 False False
499.57 4.792708873748779 -1.2319636207870026 1.4902613798724573 -1.8290702305235804 -1.5707843939410608 3.221956491470337 0.0 -0.0009718225919641554 -0.001148878363892436 0.00057326874230057 0.0 -0.0 1 False False
499.62 4.792688369750977 -1.2319407624057312 1.4902671019183558 -1.829062124291891 -1.5708125273333948 3.2219314575195312 0.0 -0.0003248141729272902 -0.0002963674196507782 0.0001773353578755632 0.0 -0.0 1 False False
