Andreas691667/Digital_Twin_UR/src/robot_connection_manager/robot_output/sq_1_5_miss_robot_output.csv
timestamp actual_q_0 actual_q_1 actual_q_2 actual_q_3 actual_q_4 actual_q_5 actual_qd_0 actual_qd_1 actual_qd_2 actual_qd_3 actual_qd_4 actual_qd_5 safety_status output_bit_register_65 output_bit_register_66
237.084 3.712617874145508 -0.8227129143527527 0.8400448004352015 -1.5825072727599085 -1.5724828878985804 2.142472743988037 0.0 0.0 0.0 0.0 0.0 -0.0 1 False False
237.134 3.712617874145508 -0.8227783602527161 0.8400281111346644 -1.5825158558287562 -1.5724385420428675 2.14249324798584 0.0 0.0 0.0 0.0 0.0 -0.0 1 False False
237.184 3.71260142326355 -0.822699562912323 0.8400324026690882 -1.5825282535948695 -1.572446648274557 2.1425342559814453 0.0 0.0 0.0 0.0 0.0 -0.0 1 False False
237.23399999999998 3.7126102447509766 -0.8227203649333497 0.8400538603412073 -1.5825354061522425 -1.5724790732013147 2.1424436569213867 0.0 0.0 0.0 0.0 0.0 -0.0 1 False False
237.284 3.712568521499634 -0.8227411669543763 0.8400042692767542 -1.5825115642943324 -1.5724948088275355 2.14251708984375 0.0 0.0 0.0 0.0 0.0 -0.0 1 False False
237.334 3.712613344192505 -0.822687641983368 0.840062443410055 -1.5825311146178187 -1.5724580923663538 2.142488956451416 0.0 0.0 0.0 0.0 0.0 -0.0 1 False False
237.384 3.7126059532165527 -0.8226749461940308 0.840067211781637 -1.5824672184386195 -1.5724666754352015 2.142521381378174 0.0 0.0 0.0 0.0 0.0 -0.0 1 False False
237.434 3.7126474380493164 -0.822718934421875 0.8400462309466761 -1.582503458062643 -1.5724991003619593 2.1424760818481445 0.0 0.0 0.0 0.0 0.0 -0.0 1 False False
237.48399999999998 3.712555170059204 -0.8227248352817078 0.8400161902057093 -1.5825115642943324 -1.572430435811178 2.142514228820801 0.0 0.0 0.0 0.0 0.0 -0.0 1 False False
237.534 3.7126102447509766 -0.8226920527270813 0.8400371710406702 -1.582499166528219 -1.5724790732013147 2.142484426498413 0.0 0.0 0.0 0.0 0.0 -0.0 1 False False
237.584 3.7125847339630127 -0.8226995033076783 0.840029541646139 -1.5824834309019984 -1.5724666754352015 2.142444372177124 0.0 0.0 0.0 0.0 0.0 -0.0 1 False False
237.634 3.7125935554504395 -0.8227234047702332 0.8400581518756312 -1.5825396976866664 -1.5724142233477991 2.1424801349639893 0.0 0.0 0.0 0.0 0.0 -0.0 1 False False
237.684 3.712555408477783 -0.8227694195559998 0.8400324026690882 -1.5824839077391566 -1.572486702595846 2.142484426498413 0.0 0.0 0.0 0.0 0.0 -0.0 1 False False
237.73399999999998 3.71260142326355 -0.8227203649333497 0.8400281111346644 -1.5825478039183558 -1.572474781666891 2.142500877380371 0.0 0.0 0.0 0.0 0.0 -0.0 1 False False
237.784 3.712568521499634 -0.8227083843997498 0.840034310017721 -1.5825559101500453 -1.5724909941302698 2.142500877380371 0.0 0.0 0.0 0.0 0.0 -0.0 1 False False
237.834 3.712613344192505 -0.8226906818202515 0.8400252501117151 -1.5825478039183558 -1.5724623839007776 2.142529249191284 0.0 0.0 0.0 0.0 0.0 -0.0 1 False False
237.884 3.712646007537842 -0.8227367562106629 0.839975659047262 -1.5825072727599085 -1.572470490132467 2.142477035522461 0.0 0.0 0.0 0.0 0.0 -0.0 1 False False
237.934 3.712613344192505 -0.8227322858623047 0.8400538603412073 -1.582543512383932 -1.5724666754352015 2.142472505569458 0.0 0.0 0.0 0.0 0.0 -0.0 1 False False
237.98399999999998 3.71262526512146 -0.8227039736560364 0.8400281111346644 -1.5824796162047328 -1.572470490132467 2.142472505569458 0.0 0.0 0.0 0.0 0.0 -0.0 1 False False
238.034 3.712629556655884 -0.8227114838412781 0.8400538603412073 -1.582543512383932 -1.5724828878985804 2.142488956451416 0.0 0.0 0.0 0.0 0.0 -0.0 1 False False
238.084 3.712592840194702 -0.8227203649333497 0.8400209585772913 -1.5825354061522425 -1.5724661985980433 2.142509698867798 0.0 0.0 0.0 0.0 0.0 -0.0 1 False False
238.134 3.7126307487487793 -0.8227530878833313 0.8400538603412073 -1.582492013970846 -1.5725105444537562 2.142451763153076 0.0 0.0 0.0 0.0 0.0 -0.0 1 False False
238.184 3.7126338481903076 -0.8227159541896363 0.8400490919696253 -1.582503458062643 -1.5725105444537562 2.142465114593506 0.0 0.0 0.0 0.0 0.0 -0.0 1 False False
238.23399999999998 3.71260142326355 -0.8226630848697205 0.8400042692767542 -1.582499166528219 -1.572458569203512 2.142488956451416 0.0 0.0 0.0 0.0 0.0 -0.0 1 False False
238.284 3.712597131729126 -0.8227338355830689 0.8400538603412073 -1.582543512383932 -1.5724666754352015 2.142456293106079 0.0 0.0 0.0 0.0 0.0 -0.0 1 False False
238.334 3.712568759918213 -0.8227115434459229 0.8400490919696253 -1.5824996433653773 -1.5724709669696253 2.142505407333374 0.0 0.0 0.0 0.0 0.0 -0.0 1 False False
238.384 3.7126176357269287 -0.8227619689754029 0.8400118986712855 -1.582559724847311 -1.5724824110614222 2.142468214035034 0.0 0.0 0.0 0.0 0.0 -0.0 1 False False
238.434 3.7126667499542236 -0.8226965230754395 0.8400090376483362 -1.5824758015074671 -1.572474781666891 2.1425187587738037 0.0 0.0 0.0 0.0 0.0 -0.0 1 False False
238.48399999999998 3.712658643722534 -0.8227190536311646 0.840041462575094 -1.5825392208495082 -1.5724309126483362 2.142439842224121 0.0 0.0 0.0 0.0 0.0 -0.0 1 False False
238.534 3.7126381397247314 -0.8227366370013733 0.8400328795062464 -1.582559724847311 -1.5724623839007776 2.1424756050109863 0.0 0.0 0.0 0.0 0.0 -0.0 1 False False
238.584 3.7125892639160156 -0.8227115434459229 0.8400042692767542 -1.582543512383932 -1.5724623839007776 2.142456293106079 0.0 0.0 0.0 0.0 0.0 -0.0 1 False False
238.634 3.712629556655884 -0.8226877611926575 0.8400581518756312 -1.582543512383932 -1.5724666754352015 2.1424801349639893 0.0 0.0 0.0 0.0 0.0 -0.0 1 False False
238.684 3.7126221656799316 -0.8227322858623047 0.8400490919696253 -1.5824963055052699 -1.5724309126483362 2.1424756050109863 0.0 0.0 0.0 0.0 0.0 -0.0 1 False False
238.73399999999998 3.71262526512146 -0.8227573794177552 0.8400705496417444 -1.58252014736318 -1.572474781666891 2.142488956451416 0.0 0.0 0.0 0.0 0.0 -0.0 1 False False
238.784 3.7126176357269287 -0.8227203649333497 0.8400405089007776 -1.58252014736318 -1.5724790732013147 2.1425023078918457 0.0 0.0 0.0 0.0 0.0 -0.0 1 False False
238.834 3.7125892639160156 -0.8227366966060181 0.8400281111346644 -1.5825115642943324 -1.5724828878985804 2.142500877380371 0.0 0.0 0.0 0.0 0.0 -0.0 1 False False
238.884 3.7125892639160156 -0.822769359951355 0.8400166670428675 -1.5825396976866664 -1.5724948088275355 2.142488956451416 0.0 0.0 0.0 0.0 0.0 -0.0 1 False False
238.934 3.7125730514526367 -0.8226833504489441 0.8400371710406702 -1.5825115642943324 -1.5724509398089808 2.142514228820801 0.0 0.0 0.0 0.0 0.0 -0.0 1 False False
238.98399999999998 3.7125439643859863 -0.8227529686740418 0.8400490919696253 -1.5825354061522425 -1.5724542776690882 2.142509698867798 0.0 0.0 0.0 0.0 0.0 -0.0 1 False False
239.034 3.712617874145508 -0.8227410477450867 0.8400371710406702 -1.5825196705260218 -1.5724580923663538 2.1425020694732666 0.0 0.0 0.0 0.0 0.0 -0.0 1 False False
239.084 3.71260142326355 -0.8227736514857789 0.8400371710406702 -1.5825282535948695 -1.572498623524801 2.1424965858459473 0.0 0.0 0.0 0.0 0.0 -0.0 1 False False
239.134 3.7126221656799316 -0.822704092865326 0.8400285879718226 -1.5825683079161585 -1.5724542776690882 2.1425304412841797 0.0 0.0 0.0 0.0 0.0 -0.0 1 False False
239.184 3.7125802040100098 -0.8227116030505677 0.8400328795062464 -1.582475324670309 -1.5725067297564905 2.1424801349639893 0.0 0.0 0.0 0.0 0.0 -0.0 1 False False
239.23399999999998 3.7126505374908447 -0.822716013794281 0.8400371710406702 -1.5825196705260218 -1.572446648274557 2.1425259113311768 0.0 0.0 0.0 0.0 0.0 -0.0 1 False False
239.284 3.712592601776123 -0.8227397960475464 0.8400252501117151 -1.5825196705260218 -1.5724828878985804 2.14249324798584 0.0 0.0 0.0 0.0 0.0 -0.0 1 False False
239.334 3.7126550674438477 -0.8227453988841553 0.8400200049029749 -1.5825478039183558 -1.5724790732013147 2.142488956451416 0.0 0.0 0.0 0.0 0.0 -0.0 1 False False
239.384 3.7126312255859375 -0.8227235835841675 0.8400533835040491 -1.582543512383932 -1.5724509398089808 2.142456293106079 0.0 0.0 0.0 0.0 0.0 -0.0 1 False False
239.434 3.7126431465148926 -0.8227485579303284 0.8400900999652308 -1.5825115642943324 -1.5724385420428675 2.1425256729125977 0.0 0.0 0.0 0.0 0.0 -0.0 1 False False
239.48399999999998 3.7126386165618896 -0.8227453392795105 0.8400242964373987 -1.5825239620604457 -1.5724623839007776 2.142472743988037 0.0 0.0 0.0 0.0 0.0 -0.0 1 False False
239.534 3.712596893310547 -0.8227452796748658 0.8400371710406702 -1.582532068292135 -1.5724580923663538 2.1425182819366455 0.0 0.0 0.0 0.0 0.0 -0.0 1 False False
239.584 3.71260142326355 -0.8227117222598572 0.8400328795062464 -1.5825196705260218 -1.5724385420428675 2.1424715518951416 0.0 0.0 0.0 0.0 0.0 -0.0 1 False False
239.634 3.71260142326355 -0.8226795953563233 0.8400490919696253 -1.582543512383932 -1.5724871794330042 2.142488956451416 0.0 0.0 0.0 0.0 0.0 -0.0 1 False False
239.684 3.712637186050415 -0.8226792377284546 0.8400700728045862 -1.5825678310790003 -1.5724666754352015 2.142505168914795 0.0 0.0 0.0 0.0 0.0 -0.0 1 False False
239.73399999999998 3.71260142326355 -0.8227290076068421 0.8400371710406702 -1.5825396976866664 -1.5724790732013147 2.1424272060394287 0.0 0.0 0.0 0.0 0.0 -0.0 1 False False
239.784 3.712617874145508 -0.8227572006038208 0.8400533835040491 -1.5825158558287562 -1.5724666754352015 2.142472743988037 0.0 0.0 0.0 0.0 0.0 -0.0 1 False False
239.834 3.712596893310547 -0.8226753038218995 0.8400533835040491 -1.5825001202025355 -1.5724666754352015 2.1425137519836426 0.0 0.0 0.0 0.0 0.0 -0.0 1 False False
239.884 3.71260142326355 -0.822745220070221 0.8400490919696253 -1.5825072727599085 -1.5724790732013147 2.142521381378174 0.0 0.0 0.0 0.0 0.0 -0.0 1 False False
239.934 3.712596893310547 -0.8226666015437623 0.840057675038473 -1.5825072727599085 -1.572526756917135 2.142500877380371 0.0 0.0 0.0 0.0 0.0 -0.0 1 False False
239.98399999999998 3.7126386165618896 -0.8227290076068421 0.8400490919696253 -1.5825921497740687 -1.5724948088275355 2.142484664916992 0.0 0.0 0.0 0.0 0.0 -0.0 1 False False
240.034 3.7125802040100098 -0.8227484983256836 0.8400657812701624 -1.582492013970846 -1.5724623839007776 2.1424641609191895 0.0 0.0 0.0 0.0 0.0 -0.0 1 False False
240.084 3.7126340866088867 -0.8227160733989258 0.8399928251849573 -1.5825077495970667 -1.5725386778460901 2.14249324798584 0.0 0.0 0.0 0.0 0.0 -0.0 1 False False
240.134 3.7126224040985107 -0.8227365773967286 0.8400490919696253 -1.5825282535948695 -1.5724991003619593 2.1425299644470215 0.0 0.0 0.0 0.0 0.0 -0.0 1 False False
240.184 3.7126431465148926 -0.8227570813945313 0.8400371710406702 -1.582532068292135 -1.572470490132467 2.142521381378174 0.0 0.0 0.0 0.0 0.0 -0.0 1 False False
240.23399999999998 3.7126340866088867 -0.8227732938579102 0.8400705496417444 -1.582503458062643 -1.5725110212909144 2.1424694061279297 0.0 0.0 0.0 0.0 0.0 0.00012206069368403405 1 False False
240.284 3.7126150131225586 -0.8226998609355469 0.8400252501117151 -1.5824758015074671 -1.5725186506854456 2.142436981201172 0.0 0.0 0.0 0.0 0.0 0.00019375444389879704 1 False False
240.334 3.712571382522583 -0.8226922315410157 0.840041462575094 -1.5825516186156214 -1.572470490132467 2.142444610595703 0.0 0.0 0.0 0.0 0.0 2.9431346455626575e-23 1 False False
240.384 3.7126059532165527 -0.8227127355388184 0.8400862852679651 -1.582515378991598 -1.5724666754352015 2.1425137519836426 0.0 0.0 0.0 0.0 0.0 0.00022449050447903574 1 False False
240.434 3.712563991546631 -0.8227084440043946 0.8400533835040491 -1.5825077495970667 -1.5724871794330042 2.142550468444824 0.0 0.0 0.0 0.0 0.0 7.340766751440242e-05 1 False False
240.48399999999998 3.71260142326355 -0.8227732342532654 0.8400118986712855 -1.582543512383932 -1.572502915059225 2.1424975395202637 0.0 0.0 0.0 0.0 0.0 4.375280695967376e-05 1 False False
240.534 3.7125802040100098 -0.822704092865326 0.8399952093707483 -1.5825234852232875 -1.5725110212909144 2.142420768737793 0.0 0.0 0.0 0.0 0.0 4.150080349063501e-05 1 False False
240.584 3.7126476764678955 -0.822711781864502 0.8400238196002405 -1.5825277767577113 -1.5724991003619593 2.142425060272217 0.0 0.0 0.0 0.0 0.0 2.613253184594855e-21 1 False False
240.634 3.71262526512146 -0.8226667803576966 0.8400524298297327 -1.5824963055052699 -1.5724542776690882 2.142472743988037 0.0 0.0 0.0 0.0 0.0 8.888719494323856e-19 1 False False
240.684 3.7126059532165527 -0.8227289480021973 0.8400324026690882 -1.582503458062643 -1.5724347273456019 2.1424479484558105 0.0 0.0 0.0 0.0 0.0 0.00010675718658603728 1 False False
240.73399999999998 3.7125279903411865 -0.8227528494647522 0.8400772253619593 -1.5825115642943324 -1.5725067297564905 2.1425094604492188 0.0 0.0 0.0 0.0 0.0 8.041173714445904e-05 1 False False
240.784 3.71260142326355 -0.8226879400065918 0.8400538603412073 -1.5825473270811976 -1.5724790732013147 2.1424977779388428 0.0 0.0 0.0 0.0 0.0 2.876753342206939e-06 1 False False
240.834 3.712571382522583 -0.8227160733989258 0.8400281111346644 -1.582531591454977 -1.5724623839007776 2.142500877380371 0.0 0.0 0.0 0.0 0.0 4.369795390782511e-25 1 False False
240.884 3.7126059532165527 -0.8227160733989258 0.8399832884417933 -1.5825354061522425 -1.572474781666891 2.1424977779388428 0.0 0.0 0.0 0.0 0.0 6.58610278232664e-44 1 False False
240.934 3.7126386165618896 -0.8227009934237977 0.8400161902057093 -1.5825354061522425 -1.5724948088275355 2.142484426498413 0.0 0.0 0.0 0.0 0.0 0.0 1 False False
240.98399999999998 3.7125892639160156 -0.8227204245379944 0.8400538603412073 -1.582560201684469 -1.5724828878985804 2.142472743988037 0.0 0.0 0.0 0.0 0.0 0.0 1 False False
241.034 3.7126102447509766 -0.8227172058871766 0.8400538603412073 -1.5824796162047328 -1.5724261442767542 2.142512798309326 0.0 0.0 0.0 0.0 0.0 0.0 1 False False
241.084 3.7125728130340576 -0.8227334183505555 0.8399999777423304 -1.5824796162047328 -1.5724828878985804 2.142493486404419 0.0 0.0 0.0 0.0 0.0 0.0 1 False False
241.134 3.71260142326355 -0.8227160733989258 0.8399866263019007 -1.5825072727599085 -1.5724499861346644 2.142509698867798 0.0 0.0 0.0 0.0 0.0 0.0 1 False False
241.184 3.7126176357269287 -0.8227127355388184 0.8400209585772913 -1.582543512383932 -1.5724542776690882 2.142488956451416 0.0 0.0 0.0 0.0 0.0 0.0 1 False False
241.23399999999998 3.71256422996521 -0.8227203053287049 0.8400490919696253 -1.5824762783446253 -1.572470490132467 2.142542600631714 6.525297794723883e-05 0.0 0.0 0.0014877304201945662 -0.0013707502512261271 8.386836780616136e-10 1 False False
241.284 3.7126221656799316 -0.8227690619281312 0.8400581518756312 -1.5825072727599085 -1.5724385420428675 2.1424713134765625 -2.540075365686789e-05 0.0 0.0 4.7565386921633035e-05 1.6240057877379478e-15 1.2739622136833244e-28 1 False False
241.334 3.712597131729126 -0.8227767509273072 0.8400657812701624 -1.5825158558287562 -1.5724991003619593 2.142512798309326 -1.4892835679347627e-05 0.0 0.0 4.0759970918403996e-22 1.1421381126150459e-21 0.0 1 False False
241.584 3.712584972381592 -0.8227365773967286 0.8400190512286585 -1.5824796162047328 -1.5724790732013147 2.142493486404419 0.0 0.0 0.0 0.0 0.0 -8.392195013584569e-05 1 False False
241.634 3.7126047611236572 -0.8227322858623047 0.8400581518756312 -1.5825759373106898 -1.5724542776690882 2.1425349712371826 0.0 0.0 0.0 0.0 0.0 -5.507365131052211e-05 1 False False
241.684 3.7126047611236572 -0.8227127355388184 0.8400657812701624 -1.582560201684469 -1.5724666754352015 2.1424977779388428 0.0 0.0 0.0 0.0 0.0 -1.8957947318310928e-17 1 False False
241.73399999999998 3.7126100063323975 -0.8227689427188416 0.8400839010821741 -1.5825044117369593 -1.572470490132467 2.142509698867798 0.0 0.0 0.0 0.0 0.0 -2.8797172214779347e-36 1 False False
241.784 3.71260142326355 -0.8227451008609314 0.8400571982013147 -1.582463880578512 -1.572446648274557 2.142488956451416 0.0 0.0 0.0 0.0 0.0 -0.0 1 False False
241.834 3.712629556655884 -0.8227074903300782 0.8400705496417444 -1.582492013970846 -1.5725105444537562 2.1424801349639893 0.0 0.0 0.0 0.0 0.0 -0.0 1 False False
241.884 3.7126176357269287 -0.822711781864502 0.8400538603412073 -1.582503458062643 -1.572474781666891 2.142465114593506 0.0 0.0 0.0 0.0 0.0 -0.0 1 False False
241.934 3.7126543521881104 -0.8227527898601075 0.8400209585772913 -1.582475324670309 -1.572474781666891 2.142448663711548 0.0 0.0 0.0 0.0 0.0 -0.0 1 False False
241.98399999999998 3.7126176357269287 -0.8227570217898865 0.8400490919696253 -1.582492013970846 -1.5724223295794886 2.142435312271118 -1.7650259969467684e-18 0.0 0.0 -5.745857923866897e-17 0.0 -0.0 1 False False
242.034 3.712641477584839 -0.8227151197246094 0.8400176207171839 -1.582559724847311 -1.5724666754352015 2.142465114593506 -3.071898655604709e-17 0.0 0.0 -8.727968068655601e-36 0.0 0.0013810369418933988 1 False False
242.084 3.712568759918213 -0.8227411669543763 0.8400161902057093 -1.5824958286681117 -1.572430435811178 2.142383098602295 0.0 0.0 0.0 3.840502176899463e-05 0.0 8.561530981838376e-21 1 False False
242.134 3.712580680847168 -0.8227158945849915 0.8400533835040491 -1.582475324670309 -1.5724471251117151 2.142505407333374 0.0 0.0 0.0 1.7740627565417306e-15 0.0 5.10720951751864e-07 1 False False
242.184 3.712609052658081 -0.8227071327022095 0.8400118986712855 -1.5825396976866664 -1.572486702595846 2.142484426498413 0.0 0.0 0.0 2.6948051872257473e-34 0.0 7.757865834228633e-26 1 False False
242.23399999999998 3.7125730514526367 -0.8227813404849549 0.8400748411761683 -1.5825196705260218 -1.572458569203512 2.142505407333374 0.0 0.0 0.0 0.0 0.0 1.1210387714598537e-44 1 False False
242.284 3.7125978469848633 -0.8227338355830689 0.8400657812701624 -1.5825072727599085 -1.5724948088275355 2.142456293106079 0.0 0.0 0.0 0.0 0.0 0.0 1 False False
242.334 3.712597131729126 -0.8227322858623047 0.8400371710406702 -1.5825473270811976 -1.5724828878985804 2.142488956451416 0.0 0.0 0.0 0.0 0.0 0.0 1 False False
242.384 3.712580680847168 -0.8226832312396546 0.8400705496417444 -1.5824996433653773 -1.5724828878985804 2.1424713134765625 0.0 0.0 0.0 0.0 0.0 0.0 1 False False
242.434 3.7126338481903076 -0.8227291864207764 0.8399913946734827 -1.582559724847311 -1.5724709669696253 2.142500877380371 0.0 0.0 0.0 0.0 0.0 0.0 1 False False
242.48399999999998 3.7125730514526367 -0.822748677139618 0.8400118986712855 -1.582503458062643 -1.5724428335772913 2.1424977779388428 0.0 0.0 0.0 0.0 0.0 0.0 1 False False
242.534 3.7125773429870605 -0.8227397960475464 0.8400705496417444 -1.5825115642943324 -1.5724828878985804 2.142472743988037 0.0 0.0 0.0 0.0 0.0 0.0 1 False False
242.584 3.7126100063323975 -0.8227084440043946 0.840041462575094 -1.582503458062643 -1.5724909941302698 2.142488956451416 0.0 0.0 0.0 0.0 0.0 0.0 1 False False
242.634 3.7126057147979736 -0.822699562912323 0.8400533835040491 -1.582543512383932 -1.5724666754352015 2.142484664916992 0.0 0.0 0.0 0.0 0.0 0.0 1 False False
242.684 3.712580680847168 -0.8227039736560364 0.8400490919696253 -1.5824562511839808 -1.5724542776690882 2.14249324798584 0.0 0.0 0.0 0.0 0.0 0.0 1 False False
242.73399999999998 3.7126431465148926 -0.8227501672557374 0.8400791327105921 -1.5825473270811976 -1.5724909941302698 2.1424758434295654 0.0 0.0 0.0 0.0 0.0 0.0 1 False False
242.784 3.7126221656799316 -0.822687641983368 0.8400033156024378 -1.5824996433653773 -1.5724666754352015 2.1425583362579346 0.0 0.0 0.0 0.0 0.0 0.0 1 False False
242.834 3.7126340866088867 -0.8227115434459229 0.8400166670428675 -1.582527299920553 -1.572474781666891 2.14249324798584 0.0 0.0 0.0 0.0 0.0 0.0 1 False False
242.884 3.7125728130340576 -0.8227455776980896 0.8400338331805628 -1.582560201684469 -1.5724456946002405 2.1424922943115234 0.0 0.0 0.0 0.0 0.0 0.0 1 False False
242.934 3.71260142326355 -0.8227486175349732 0.840041462575094 -1.5825311146178187 -1.572474781666891 2.1424522399902344 0.0 0.0 0.0 0.0 0.0 0.0 1 False False
242.98399999999998 3.71258807182312 -0.8226995033076783 0.840057675038473 -1.5825115642943324 -1.572446648274557 2.142477035522461 0.0 0.0 0.0 0.0 0.0 0.0 1 False False
243.034 3.712596893310547 -0.8227291864207764 0.8400700728045862 -1.5825239620604457 -1.572446648274557 2.1424899101257324 0.0 0.0 0.0 0.0 0.0 0.0 1 False False
243.084 3.712608814239502 -0.8227174443057557 0.8399842421161097 -1.5825196705260218 -1.5724948088275355 2.142484664916992 0.0 0.0 0.0 0.0 0.0 0.0 1 False False
243.134 3.712629795074463 -0.822712854748108 0.8400166670428675 -1.5825239620604457 -1.572470490132467 2.142521381378174 0.0 0.0 0.0 0.0 0.0 0.0 1 False False
243.184 3.71260142326355 -0.8227501672557374 0.8399670759784144 -1.5825282535948695 -1.5724991003619593 2.1424684524536133 0.0 0.0 0.0 0.0 0.0 0.0 1 False False
243.23399999999998 3.7126340866088867 -0.822712854748108 0.8400490919696253 -1.5825158558287562 -1.5724542776690882 2.1424965858459473 0.0 0.0 0.0 0.0 0.0 0.0 1 False False
243.284 3.712599992752075 -0.8227383655360718 0.8400328795062464 -1.5824839077391566 -1.572486702595846 2.1424694061279297 0.0 0.0 0.0 0.0 0.0 0.0 1 False False
243.334 3.712575912475586 -0.8227576178363343 0.840057675038473 -1.5825239620604457 -1.5724623839007776 2.142505168914795 0.0 0.0 0.0 0.0 0.0 0.0 1 False False
243.384 3.712662696838379 -0.8227292460254212 0.8400743643390101 -1.5825559101500453 -1.5724909941302698 2.142472743988037 0.0 0.0 0.0 0.0 0.0 0.0 1 False False
243.434 3.712608814239502 -0.8227367562106629 0.8400371710406702 -1.5824715099730433 -1.5724790732013147 2.1424479484558105 0.0 0.0 0.0 0.0 0.0 0.0 1 False False
243.48399999999998 3.712617874145508 -0.8226875823787232 0.8400209585772913 -1.5825239620604457 -1.5724909941302698 2.142472743988037 0.0 0.0 0.0 0.0 0.0 0.0 1 False False
243.534 3.712646007537842 -0.822741226559021 0.840057675038473 -1.582532068292135 -1.5724828878985804 2.142512798309326 0.0 0.0 0.0 0.0 0.0 0.0 1 False False
243.584 3.7125802040100098 -0.8227039736560364 0.8400490919696253 -1.5825683079161585 -1.5724991003619593 2.1424522399902344 0.0 0.0 0.0 0.0 0.0 0.0 1 False False
243.634 3.712596893310547 -0.8227084440043946 0.8400448004352015 -1.5824958286681117 -1.572446648274557 2.1425094604492188 0.0 0.0 0.0 0.0 0.0 0.0 1 False False
243.684 3.7126340866088867 -0.8226831716350098 0.840029541646139 -1.5825115642943324 -1.572474781666891 2.1425018310546875 0.0 0.0 0.0 0.0 0.0 0.0 1 False False
243.73399999999998 3.7125937938690186 -0.8227456373027344 0.8400209585772913 -1.582451959649557 -1.572418514882223 2.1424965858459473 0.0 0.0 0.0 0.0 0.0 0.0 1 False False
243.784 3.712617874145508 -0.8227530878833313 0.8400123755084437 -1.582499166528219 -1.572470490132467 2.142472743988037 0.0 0.0 0.0 0.0 0.0 0.0 1 False False
243.83399999999997 3.712592363357544 -0.8227769297412415 0.8400533835040491 -1.5825354061522425 -1.5724580923663538 2.1425018310546875 0.0 0.0 0.0 0.0 0.0 0.0 1 False False
243.884 3.712617874145508 -0.8226794761470337 0.8400448004352015 -1.5825239620604457 -1.5724580923663538 2.1425256729125977 0.0 0.0 0.0 0.0 0.0 0.0 1 False False
243.934 3.7125728130340576 -0.8227530878833313 0.8400252501117151 -1.5825721226134242 -1.5724261442767542 2.1424975395202637 0.0 0.0 0.0 0.0 0.0 0.0 1 False False
243.98399999999998 3.7125773429870605 -0.822748677139618 0.8400462309466761 -1.582536359826559 -1.572470490132467 2.1425042152404785 0.0 0.0 0.0 0.0 0.0 0.0 1 False False
244.034 3.71262526512146 -0.8227278155139466 0.8400328795062464 -1.582499166528219 -1.5724580923663538 2.1424803733825684 0.0 0.0 0.0 0.0 0.0 0.0 1 False False
244.08399999999997 3.7126312255859375 -0.8226906818202515 0.8400772253619593 -1.58252014736318 -1.5724790732013147 2.142509698867798 0.0 0.0 0.0 0.0 0.0 0.0 1 False False
244.134 3.7126386165618896 -0.8226965230754395 0.8400281111346644 -1.5825115642943324 -1.572474781666891 2.142472505569458 0.0 0.0 0.0 0.0 0.0 0.0 1 False False
244.184 3.712563991546631 -0.8227323454669495 0.8399837652789515 -1.5825115642943324 -1.5724623839007776 2.142517328262329 0.0 0.0 0.0 0.0 0.0 0.0 1 False False
244.23399999999998 3.7126224040985107 -0.822748677139618 0.840041462575094 -1.5825759373106898 -1.5724580923663538 2.142456293106079 0.0 0.0 0.0 0.0 0.0 0.0 1 False False
244.284 3.712629795074463 -0.8226862710765381 0.8400209585772913 -1.5824996433653773 -1.572486702595846 2.1424801349639893 0.0 0.0 0.0 0.0 0.0 0.0 1 False False
244.33399999999997 3.712629795074463 -0.8227411669543763 0.840041462575094 -1.5825115642943324 -1.5724785963641565 2.142488956451416 0.0 0.0 0.0 0.0 0.0 0.0 1 False False
244.384 3.71260142326355 -0.8227039736560364 0.8400161902057093 -1.5825277767577113 -1.572470490132467 2.142484426498413 0.0 0.0 0.0 0.0 0.0 0.0 1 False False
244.434 3.7126386165618896 -0.8227442067912598 0.8400581518756312 -1.5825516186156214 -1.5724623839007776 2.142484426498413 0.0 0.0 0.0 0.0 0.0 0.0 1 False False
244.48399999999998 3.712608814239502 -0.8227248352817078 0.8400118986712855 -1.5824600658812464 -1.5724824110614222 2.142472505569458 0.0 0.0 0.0 0.0 0.0 0.0 1 False False
244.534 3.712613344192505 -0.8227411669543763 0.8400252501117151 -1.582503458062643 -1.5724223295794886 2.142468214035034 0.0 0.0 0.0 0.0 0.0 0.0 1 False False
244.58399999999997 3.7125935554504395 -0.822773889904358 0.8400748411761683 -1.58252014736318 -1.572474781666891 2.142468214035034 0.0 0.0 0.0 0.0 0.0 0.0 1 False False
244.634 3.7126502990722656 -0.8227367562106629 0.8400448004352015 -1.5824758015074671 -1.572446648274557 2.142484426498413 0.0 0.0 0.0 0.0 0.0 0.0 1 False False
244.684 3.712609052658081 -0.8227367562106629 0.8400657812701624 -1.5825115642943324 -1.5724790732013147 2.142456293106079 0.0 0.0 0.0 0.0 0.0 0.0 1 False False
244.73399999999998 3.712575912475586 -0.8227203649333497 0.8400071302997034 -1.5825115642943324 -1.5724824110614222 2.142496347427368 0.0 0.0 0.0 0.0 0.0 0.0 1 False False
244.784 3.71260142326355 -0.8227322858623047 0.8400490919696253 -1.5825392208495082 -1.5724871794330042 2.142472505569458 0.0 0.0 0.0 0.0 0.0 0.0 1 False False
244.83399999999997 3.712568521499634 -0.8227694195559998 0.8400538603412073 -1.5825311146178187 -1.5725072065936487 2.142472505569458 0.0 0.0 0.0 0.0 0.0 0.0 1 False False
244.884 3.7125673294067383 -0.8227710884860535 0.8400371710406702 -1.5825516186156214 -1.5724385420428675 2.142509698867798 0.0 0.0 0.0 0.0 0.0 0.0 1 False False
244.934 3.71260142326355 -0.8227278751185914 0.8400614897357386 -1.5825239620604457 -1.5724580923663538 2.1425349712371826 0.0 0.0 0.0 0.0 0.0 0.0 1 False False
244.98399999999998 3.712597131729126 -0.8227619093707581 0.8400657812701624 -1.5824839077391566 -1.572470490132467 2.142468214035034 0.0 0.0 0.0 0.0 0.0 0.0 1 False False
245.034 3.7126057147979736 -0.8226920527270813 0.8400448004352015 -1.5825196705260218 -1.5724785963641565 2.142439842224121 0.0 0.0 0.0 0.0 0.0 0.0 1 False False
245.08399999999997 3.712649345397949 -0.8227070730975647 0.8400448004352015 -1.582543512383932 -1.57251483598818 2.142530679702759 0.0 0.0 0.0 0.0 0.0 0.0 1 False False
245.134 3.71262526512146 -0.8226907414248963 0.8400209585772913 -1.582543512383932 -1.5724542776690882 2.142512798309326 0.0 0.0 0.0 0.0 0.0 0.0 1 False False
245.184 3.7126047611236572 -0.8227159541896363 0.8400581518756312 -1.5825077495970667 -1.5724790732013147 2.142512798309326 0.0 0.0 0.0 0.0 0.0 0.0 1 False False
245.23399999999998 3.712580680847168 -0.8227442663959046 0.8399880568133753 -1.5825115642943324 -1.5724342505084437 2.142477035522461 0.0 0.0 0.0 0.0 0.0 0.0 1 False False
245.284 3.7126166820526123 -0.8226921123317261 0.8400371710406702 -1.5825115642943324 -1.5724428335772913 2.142472505569458 0.0 0.0 0.0 0.0 0.0 0.0 1 False False
245.33399999999997 3.7126383781433105 -0.822724775677063 0.8400462309466761 -1.5825158558287562 -1.5724709669696253 2.142509937286377 0.0 0.0 0.0 0.0 0.0 0.0 1 False False
245.384 3.7126047611236572 -0.8227411073497315 0.8400090376483362 -1.5825520954527796 -1.5724709669696253 2.1424636840820312 0.0 0.0 0.0 0.0 0.0 0.0 1 False False
245.434 3.7126145362854004 -0.8227366966060181 0.8400490919696253 -1.5824796162047328 -1.5725024382220667 2.1425349712371826 0.0 0.0 0.0 0.0 0.0 0.0 1 False False
245.48399999999998 3.7126176357269287 -0.8227649492076416 0.8400371710406702 -1.5824877224364222 -1.5724828878985804 2.142456293106079 0.0 0.0 0.0 0.0 0.0 0.0 1 False False
245.534 3.712597131729126 -0.822716013794281 0.8400538603412073 -1.5825282535948695 -1.5724390188800257 2.142500877380371 0.0 0.0 0.0 0.0 0.0 0.0 1 False False
245.58399999999997 3.712646961212158 -0.8227663797191163 0.8400324026690882 -1.582508226434225 -1.572486702595846 2.142453193664551 0.0 0.0 0.0 0.0 0.0 0.0 1 False False
245.634 3.71260142326355 -0.8226877015880127 0.8400324026690882 -1.5825478039183558 -1.5724347273456019 2.14249324798584 0.0 0.0 0.0 0.0 0.0 0.0 1 False False
245.684 3.712580680847168 -0.8226864498904725 0.8400281111346644 -1.5825115642943324 -1.572458569203512 2.1424400806427 0.0 0.0 0.0 0.0 0.0 0.0 1 False False
245.73399999999998 3.7126262187957764 -0.8227354449084778 0.8400371710406702 -1.5824958286681117 -1.572458569203512 2.1424801349639893 0.0 0.0 0.0 0.0 0.0 0.0 1 False False
245.784 3.7125978469848633 -0.8227203649333497 0.8400748411761683 -1.5825559101500453 -1.5724828878985804 2.142477035522461 0.0 0.0 0.0 0.0 0.0 0.0 1 False False
245.83399999999997 3.712609052658081 -0.8226660054973145 0.8400400320636194 -1.5825311146178187 -1.5724709669696253 2.1424813270568848 0.0 0.0 0.0 0.0 0.0 0.0 1 False False
245.884 3.712559938430786 -0.8227366370013733 0.8400490919696253 -1.5825354061522425 -1.5724661985980433 2.14249324798584 0.0 0.0 0.0 0.0 0.0 0.0 1 False False
245.934 3.7126338481903076 -0.8226965230754395 0.8400448004352015 -1.5825354061522425 -1.5724991003619593 2.142460823059082 0.0 0.0 0.0 0.0 0.0 0.0 1 False False
245.98399999999998 3.7125773429870605 -0.8227691811374207 0.8400252501117151 -1.582543512383932 -1.5724542776690882 2.142505168914795 0.0 0.0 0.0 0.0 0.0 0.0 1 False False
246.034 3.712584972381592 -0.822658972149231 0.8400328795062464 -1.5825115642943324 -1.572470490132467 2.1424803733825684 0.0 0.0 0.0 0.0 0.0 0.0 1 False False
246.08399999999997 3.7126142978668213 -0.8227116626552125 0.8400457541095179 -1.5825158558287562 -1.572486702595846 2.1424813270568848 0.0 0.0 0.0 0.0 0.0 0.0 1 False False
246.134 3.7125892639160156 -0.8227485579303284 0.8400490919696253 -1.5824958286681117 -1.572474781666891 2.1425375938415527 0.0 0.0 0.0 0.0 0.0 0.0 1 False False
246.184 3.712617874145508 -0.8227398556521912 0.8400705496417444 -1.5825115642943324 -1.572502915059225 2.1424684524536133 0.0 0.0 0.0 0.0 0.0 0.0 1 False False
246.23399999999998 3.712620735168457 -0.8226753038218995 0.8400118986712855 -1.5825072727599085 -1.5724991003619593 2.14249324798584 0.0 0.0 0.0 0.0 0.0 0.0 1 False False
246.284 3.7126266956329346 -0.822733537559845 0.8400490919696253 -1.5825158558287562 -1.5724542776690882 2.142472743988037 0.0 0.0 0.0 0.0 0.0 0.0 1 False False
246.33399999999997 3.712617874145508 -0.8227809828570862 0.8400328795062464 -1.5824881992735804 -1.5724385420428675 2.142500877380371 0.0 0.0 0.0 0.0 0.0 0.0 1 False False
246.384 3.7125847339630127 -0.8226878804019471 0.8400700728045862 -1.582492013970846 -1.5724828878985804 2.142505168914795 0.0 0.0 0.0 0.0 0.0 0.0 1 False False
246.434 3.712613344192505 -0.8227236431888123 0.8400047461139124 -1.5825077495970667 -1.5724948088275355 2.1424479484558105 0.0 0.0 0.0 0.0 0.0 0.0 1 False False
246.48399999999998 3.7125847339630127 -0.8227127355388184 0.8400371710406702 -1.5825840435423792 -1.5724991003619593 2.142505168914795 0.0 0.0 0.0 0.0 0.0 0.0 1 False False
246.534 3.7126059532165527 -0.8226998013309021 0.8400285879718226 -1.5824758015074671 -1.5724542776690882 2.142505168914795 0.0 0.0 0.0 0.0 0.0 0.0 1 False False
246.58399999999997 3.712604522705078 -0.8227659028819581 0.8400076071368616 -1.582503458062643 -1.5724828878985804 2.142500877380371 0.0 0.0 0.0 0.0 0.0 0.0 1 False False
246.634 3.7126340866088867 -0.8227246564677735 0.8400533835040491 -1.58252014736318 -1.572446648274557 2.142488956451416 0.0 0.0 0.0 0.0 0.0 0.0 1 False False
246.684 3.71260142326355 -0.8227613729289551 0.8400571982013147 -1.582527299920553 -1.572486702595846 2.1424803733825684 0.0 0.0 0.0 0.0 0.0 0.0 1 False False
246.934 3.7125802040100098 -0.8226922315410157 0.8400490919696253 -1.5824634037413539 -1.5724261442767542 2.142465114593506 0.0 0.0 0.0 0.0 0.0 0.0 1 True False
246.98399999999998 3.7126104831695557 -0.8227365773967286 0.8400166670428675 -1.5825115642943324 -1.572470490132467 2.142484664916992 0.0 0.0 0.0 0.0 0.0 0.0 1 True False
247.034 3.7127227783203125 -0.8227842611125489 0.8400438467608851 -1.5825282535948695 -1.5724909941302698 2.142561435699463 0.014707171358168125 -0.0073983981274068356 0.011525595560669899 -7.794948828632187e-07 0.0 0.014367022551596165 1 True False
247.08399999999997 3.7140960693359375 -0.8236193221858521 0.841128174458639 -1.5830618343748988 -1.5724347273456019 2.1440982818603516 0.05054257810115814 -0.02599433809518814 0.03690331056714058 -0.012430757284164429 0.0 0.0516476072371006 1 True False
247.134 3.718188524246216 -0.8255199950984498 0.8444646040545862 -1.584026952783102 -1.572502915059225 2.1481778621673584 0.11551958322525024 -0.05705169960856438 0.0894601121544838 -0.03165866807103157 0.0 0.11673961579799652 1 True False
247.184 3.7260725498199463 -0.8296283644488831 0.8506363073932093 -1.5862046680846156 -1.572526756917135 2.1559407711029053 0.19280573725700378 -0.1035020500421524 0.15274003148078918 -0.048884060233831406 0.00028503662906587124 0.18829670548439026 1 True False
247.23399999999998 3.7375380992889404 -0.8355639737895508 0.859530274068014 -1.5891663036742152 -1.5724871794330042 2.167393684387207 0.2621089518070221 -0.13578611612319946 0.2047615498304367 -0.06633958965539932 0.00045728590339422226 0.26382696628570557 1 True False
247.284 3.752488613128662 -0.8432983321002503 0.8712089697467249 -1.5933581791319789 -1.5723627249347132 2.182253837585449 0.3287273049354553 -0.1704210340976715 0.26090264320373535 -0.08908843994140625 0.0007506431429646909 0.33280789852142334 1 True False
247.33399999999997 3.770763874053955 -0.8528359693339844 0.8855198065387171 -1.5981303654112757 -1.5724390188800257 2.200669765472412 0.40445199608802795 -0.20831766724586487 0.31408655643463135 -0.11550996452569962 0.0012055172119289637 0.4038332998752594 1 True False
247.384 3.792710781097412 -0.8639477056315918 0.9026096502887171 -1.6039992771544398 -1.5723183790790003 2.2225728034973145 0.4695766270160675 -0.23983290791511536 0.369930237531662 -0.12239478528499603 0.0005385428667068481 0.46971601247787476 1 True False
247.434 3.818225622177124 -0.8771292728236695 0.922403637562887 -1.610786577264303 -1.5722749868976038 2.2479050159454346 0.5470501184463501 -0.2796999216079712 0.4189996123313904 -0.14514383673667908 0.0035155722871422768 0.5484613180160522 1 True False
247.48399999999998 3.847024440765381 -0.8920416396907349 0.9449251333819788 -1.6185933552184046 -1.5723074118243616 2.2767531871795654 0.6150512099266052 -0.31370723247528076 0.47876429557800293 -0.16255058348178864 0.0030802199617028236 0.6142757534980774 1 True False
247.534 3.8793325424194336 -0.9087846440127869 0.9700825850116175 -1.6275083027281703 -1.5722029844867151 2.3091206550598145 0.6831456422805786 -0.34980079531669617 0.5280604362487793 -0.1940324753522873 0.0009504219051450491 0.6813710331916809 1 True False
247.58399999999997 3.9152309894561768 -0.9270491164973755 0.9980681578265589 -1.6370989284911097 -1.57216722169985 2.3449831008911133 0.7582525610923767 -0.3873189687728882 0.5861168503761292 -0.19612929224967957 0.001970055280253291 0.7520992159843445 1 True False
247.634 3.9545300006866455 -0.9475084108165284 1.028743092213766 -1.647747655908102 -1.5720627943622034 2.384359359741211 0.8232771754264832 -0.4255267083644867 0.6414108276367188 -0.2272920161485672 0.0009910652879625559 0.8112251162528992 1 True False
247.684 3.9974632263183594 -0.9693884414485474 1.0621960798846644 -1.6592771015562953 -1.5720270315753382 2.4270787239074707 0.8840845823287964 -0.4542695879936218 0.6913483142852783 -0.23536892235279083 0.000663511105813086 0.89017254114151 1 True False
247.73399999999998 4.043735980987549 -0.9934404057315369 1.0982402006732386 -1.671666761437887 -1.57192308107485 2.4734466075897217 0.9613226056098938 -0.49654659628868103 0.7495946884155273 -0.25251510739326477 0.002171747852116823 0.9640096426010132 1 True False
247.784 4.093535423278809 -1.0190920990756531 1.1371706167804163 -1.6852332554259242 -1.5719154516803187 2.523038387298584 1.026119589805603 -0.5335246324539185 0.8012213110923767 -0.27417516708374023 0.0005765883252024651 1.0290800333023071 1 True False
247.83399999999997 4.145695209503174 -1.0459413689425965 1.1778424421893519 -1.699261327783102 -1.5717957655536097 2.575526237487793 1.0463764667510986 -0.5420407056808472 0.8159314393997192 -0.2815464437007904 0.0010109301656484604 1.0388858318328857 1 True False
247.884 4.19813346862793 -1.0729806286147614 1.2185948530780237 -1.713283201257223 -1.5717194716082972 2.6277782917022705 1.0538439750671387 -0.539860188961029 0.812337338924408 -0.29193684458732605 0.004766548052430153 1.047974944114685 1 True False
247.934 4.250492095947266 -1.0999480944922944 1.2596033255206507 -1.72743620494985 -1.5716231505023401 2.6800904273986816 1.0436712503433228 -0.5408856868743896 0.8141976594924927 -0.28141260147094727 0.0007065715035423636 1.0415161848068237 1 True False
247.98399999999998 4.302871227264404 -1.1270131033710022 1.300309960042135 -1.7414208851256312 -1.5715597311602991 2.7325093746185303 1.0495914220809937 -0.5355859398841858 0.8198984265327454 -0.2698279917240143 0.0009956629946827888 1.0434571504592896 1 True False
248.034 4.355198383331299 -1.1539256137660523 1.341092888508932 -1.7555600605406703 -1.5714314619647425 2.784778118133545 1.0511507987976074 -0.533182680606842 0.816157341003418 -0.27707186341285706 0.004875464364886284 1.0515645742416382 1 True False
248.08399999999997 4.407563209533691 -1.1808561247638245 1.3818500677691858 -1.7698046169676722 -1.5714038054095667 2.8369102478027344 1.0461069345474243 -0.5401903390884399 0.8170579671859741 -0.26913878321647644 0.0007026236853562295 1.047744870185852 1 True False
248.134 4.458245277404785 -1.2070946258357544 1.4214261213885706 -1.7835031948485316 -1.5712998549090784 2.887828826904297 0.9791132211685181 -0.5090873837471008 0.7597718238830566 -0.25190719962120056 0.0006388652254827321 0.9755650758743286 1 True False
248.184 4.50559663772583 -1.2314783495715638 1.45825702348818 -1.796098371545309 -1.5712645689593714 2.9349477291107178 0.9122877717018127 -0.4696909189224243 0.7077416181564331 -0.23575225472450256 0.00199799332767725 0.9158125519752502 1 True False
248.23399999999998 4.549386024475098 -1.2539708477309723 1.4924395720111292 -1.8078872166075648 -1.5712206999408167 2.978835344314575 0.842903196811676 -0.42923736572265625 0.6585027575492859 -0.23246639966964722 0.0011555086821317673 0.8424197435379028 1 True False
248.284 4.58967399597168 -1.2746756237796326 1.5237663427936 -1.818698068658346 -1.5711401144610804 3.0189270973205566 0.7695466876029968 -0.39247798919677734 0.6067671179771423 -0.20223760604858398 0.0004086112603545189 0.7687182426452637 1 True False
248.33399999999997 4.6264262199401855 -1.2937593025020142 1.5523455778705042 -1.8287512264647425 -1.5710356871234339 3.0557053089141846 0.7010630369186401 -0.35878291726112366 0.5470850467681885 -0.18598486483097076 0.0002136956318281591 0.7069741487503052 1 True False
248.384 4.659802436828613 -1.3108866971782227 1.5784919897662562 -1.8377133808531703 -1.5709832350360315 3.0889458656311035 0.6348232626914978 -0.32671481370925903 0.4891001582145691 -0.161423921585083 0.0002598069841042161 0.643675684928894 1 True False
248.434 4.689587593078613 -1.3262334775975724 1.601588551198141 -1.8457814655699671 -1.5709527174579065 3.1187450885772705 0.5677005052566528 -0.2926684021949768 0.44132745265960693 -0.1407228261232376 0.004669001325964928 0.568797767162323 1 True False
248.48399999999998 4.715878009796143 -1.3397988987020035 1.6220534483539026 -1.8527471027769984 -1.5709365049945276 3.1448974609375 0.49372366070747375 -0.25902682542800903 0.3800102770328522 -0.13080503046512604 0.00031166578992269933 0.49442774057388306 1 True False
248.534 4.738585472106934 -1.3516261291554947 1.640071217213766 -1.8587852917113246 -1.570953671132223 3.1680490970611572 0.42425835132598877 -0.21146421134471893 0.3299359381198883 -0.10689061135053635 0.00011070039181504399 0.4136902391910553 1 True False
248.58399999999997 4.757894039154053 -1.3615337026170273 1.654797379170553 -1.8642837009825648 -1.5709012190448206 3.1872785091400146 0.350435733795166 -0.18210841715335846 0.27267584204673767 -0.08764444291591644 0.00042910227784886956 0.35103046894073486 1 True False
248.634 4.773982524871826 -1.369673715238907 1.6674888769732874 -1.8685251675047816 -1.5708449522601526 3.2029521465301514 0.2791607975959778 -0.144555926322937 0.21809731423854828 -0.08711285144090652 0.001095664338208735 0.2836543619632721 1 True False
248.684 4.786149501800537 -1.3760846567204972 1.6769078413592737 -1.8717285595335902 -1.5708492437945765 3.2154622077941895 0.21276426315307617 -0.11131739616394043 0.16991662979125977 -0.059782613068819046 0.0002302932261954993 0.21177449822425842 1 True False
248.73399999999998 4.795133113861084 -1.3805677008679886 1.6839059034930628 -1.874089857141012 -1.5707882086383265 3.224364995956421 0.14576978981494904 -0.07182195037603378 0.10986452549695969 -0.04564603045582771 0.000919874815735966 0.14585566520690918 1 True False
248.784 4.8004560470581055 -1.3834265631488343 1.6880562941180628 -1.875596662560934 -1.5707967917071741 3.2297170162200928 0.07712183147668839 -0.03663165122270584 0.05807638540863991 -0.014557980000972748 0.00022936308232601732 0.07044079899787903 1 True False
248.83399999999997 4.80232572555542 -1.3843360108188172 1.6895468870746058 -1.8760062656798304 -1.5708172957049769 3.2315855026245117 0.002973174676299095 -5.548228000407107e-05 -0.0006821829592809081 -0.00023441964003723115 0.00015704713587183505 0.00536191463470459 1 True False
248.884 4.80228328704834 -1.3837073606303711 1.690735165272848 -1.877634187737936 -1.5707815329181116 3.2315046787261963 -8.02994552361741e-13 0.022068211808800697 0.04332148656249046 -0.06115008890628815 0.0006546223303303123 0.0005501419655047357 1 True False
248.934 4.802262783050537 -1.3820267927697678 1.6940296331988733 -1.8828798733153285 -1.5707805792437952 3.2315151691436768 0.0009912356035783887 0.04933122172951698 0.08773080259561539 -0.14371837675571442 0.00017278461018577218 0.0005093883955851197 1 True False
248.98399999999998 4.8022541999816895 -1.3788032096675416 1.699503246937887 -1.8914500675597132 -1.5708091894732874 3.2315196990966797 0.0009507925133220851 0.07366576790809631 0.13078881800174713 -0.20062121748924255 7.999064837349579e-05 0.00025540636852383614 1 True False
249.034 4.802363872528076 -1.3743665379336854 1.7070000807391565 -1.903513570825094 -1.5707691351519983 3.231550693511963 0.0008856210042722523 0.09721306711435318 0.17629030346870422 -0.28107625246047974 5.537934339372441e-05 0.00016368282376788557 1 True False
249.08399999999997 4.802366733551025 -1.3685736817172547 1.716867748891012 -1.9189769230284632 -1.5707929770099085 3.2315316200256348 0.00024858268443495035 0.1257333904504776 0.21891747415065765 -0.34979358315467834 3.606015794575099e-17 0.00010833199485205114 1 True False
249.134 4.802346706390381 -1.361653522854187 1.7289546171771448 -1.9381481609740199 -1.5707452932940882 3.2315597534179688 0.00010283669689670205 0.15482427179813385 0.26505759358406067 -0.41664716601371765 5.477543593836881e-36 7.216587982838973e-05 1 True False
249.184 4.8023223876953125 -1.3533429962447663 1.7432168165790003 -1.9607721767821253 -1.5707491079913538 3.2315478324890137 7.853522402001545e-05 0.17582358419895172 0.30518025159835815 -0.49002793431282043 0.0 4.222444442703033e-12 1 True False
249.23399999999998 4.802350997924805 -1.343699888592102 1.759819809590475 -1.986584802667135 -1.5708168188678187 3.231550931930542 7.367860488383116e-11 0.20254658162593842 0.34977760910987854 -0.5557224750518799 0.0 6.413903428934045e-31 1 True False
249.284 4.802346706390381 -1.3337523949197312 1.7769258658038538 -2.0140892467894496 -1.5708206335650843 3.231555223464966 6.988669338170439e-05 0.18226943910121918 0.3241463005542755 -0.5290848612785339 0.0 0.0 1 True False
249.33399999999997 4.802351474761963 -1.3248818081668396 1.792288605366842 -2.038084646264547 -1.5707805792437952 3.2315897941589355 6.363933789543808e-05 0.16784308850765228 0.2832259237766266 -0.45512285828590393 1.0756894484604007e-24 0.0 1 True False
249.384 4.802338600158691 -1.3173020345023652 1.804971996937887 -2.0587293110289515 -1.5707891623126429 3.2315897941589355 4.004356378572993e-05 0.13956770300865173 0.24177108705043793 -0.38114118576049805 1.639519203260036e-43 0.0 1 True False
249.434 4.802362442016602 -1.3110262614539643 1.8158276716815394 -2.0756622753539027 -1.5708044211017054 3.2315640449523926 9.018321200926493e-09 0.10899952799081802 0.19397157430648804 -0.3098386526107788 0.0 0.0 1 True False
249.48399999999998 4.802342891693115 -1.3060152691653748 1.8246076742755335 -2.0892158947386683 -1.570801083241598 3.2315640449523926 0.0 0.08483586460351944 0.15057234466075897 -0.2434380054473877 0.0 9.848177660557536e-19 1 True False
249.534 4.802371501922607 -1.3024278444102784 1.8308303991900843 -2.0993758640685023 -1.5707805792437952 3.231515407562256 0.0 0.06273918598890305 0.10668037086725235 -0.16127191483974457 0.0 -2.6452251500330703e-09 1 True False
249.58399999999997 4.802297115325928 -1.2999620598605652 1.8349621931659144 -2.105950971642965 -1.5708044211017054 3.231515407562256 0.0 0.03551499545574188 0.060429222881793976 -0.09482865035533905 0.0 -4.01810158749036e-28 1 True False
249.634 4.802346706390381 -1.298743949537613 1.8370087782489222 -2.1089750729002894 -1.570784870778219 3.2315683364868164 8.083557881134671e-24 0.010624880902469158 0.02114914357662201 -0.03456852212548256 0.0 -0.0 1 True False
249.684 4.8023295402526855 -1.2987767916968842 1.8371270338641565 -2.109180589715475 -1.570801083241598 3.23154354095459 0.0 -8.490101047966557e-28 -0.0002431246975902468 0.0003502769104670733 0.0 -0.0 1 True False
249.73399999999998 4.8023881912231445 -1.298743949537613 1.8371031920062464 -2.1092969379820765 -1.5708048979388636 3.2315402030944824 0.0 4.786858698935248e-05 4.682745202444494e-05 0.00011883987463079393 0.0 -0.0 1 True False
249.784 4.8023295402526855 -1.298773781662323 1.8371270338641565 -2.109232564965719 -1.570801083241598 3.2315564155578613 0.0 0.00017423350072931498 7.093355088727549e-05 5.226444045547396e-05 0.0 -0.0 1 True False
249.83399999999997 4.802334308624268 -1.2987365287593384 1.837135140095846 -2.1092564068236292 -1.5707967917071741 3.2315239906311035 0.0 0.00027209342806600034 0.0001939040084835142 -4.13126363127958e-05 0.0 -0.0 1 True False
249.884 4.802338600158691 -1.2987211507609864 1.837151352559225 -2.109288831750387 -1.5708044211017054 3.2315402030944824 0.0 0.00034373378730379045 0.0003104106872342527 -0.00016105604299809784 0.0 -0.0 1 True False
249.934 4.8024139404296875 -1.2987710696509858 1.8371709028827112 -2.109288831750387 -1.570857350026266 3.2315640449523926 0.0 0.00026505731511861086 0.000326351699186489 -0.0001229998451890424 0.0 -0.0 1 True False
249.98399999999998 4.802308559417725 -1.2987256211093445 1.8372004667865198 -2.1092645130553187 -1.5707805792437952 3.2315564155578613 0.0 0.00011555460514500737 0.00011426199489505962 -0.00012112170952605084 0.0 -0.0 1 True False
250.034 4.802338600158691 -1.2986390751651307 1.8372328917132776 -2.109260221520895 -1.5708487669574183 3.231511116027832 0.0 7.528138667112216e-05 8.387205161852762e-05 -0.00011837849160656333 0.0 -0.0 1 True False
250.08399999999997 4.802383899688721 -1.2987047594836731 1.8371575514422815 -2.109316488305563 -1.570813004170553 3.231576681137085 0.0 5.989345485489026e-17 7.0482688897755e-05 -0.00010195653885602951 0.0 -0.0 1 True False
250.134 4.802347660064697 -1.2986853879741211 1.8372109572040003 -2.109244485894674 -1.570853058491842 3.231515407562256 0.0 0.0 4.955746797164512e-33 -7.005324732745066e-05 0.0 -0.0 1 True False
250.184 4.802341938018799 -1.2986973089030762 1.8372038046466272 -2.1093322239317835 -1.570801083241598 3.2316219806671143 0.0 0.0 0.0 -6.051257878425531e-05 -6.4793626875743355e-21 -0.0 1 True False
250.23399999999998 4.802326679229736 -1.298725650911667 1.8371995131122034 -2.109336038629049 -1.570853058491842 3.23154354095459 -4.5149698875775006e-21 0.0 0.0 -6.641574145760387e-05 8.433061360335614e-09 -0.0 1 True False
250.284 4.802362442016602 -1.2987483900836487 1.8371031920062464 -2.109443803826803 -1.5707529226886194 3.2315597534179688 0.0 -2.380650359852049e-19 1.8458345805086472e-29 -0.0004750470397993922 1.280983576481577e-27 6.222540832823142e-05 1 True False
250.33399999999997 4.802338600158691 -1.298769311313965 1.8371194044696253 -2.109415670434469 -1.5707686583148401 3.2315316200256348 0.0 0.0 0.0 0.000554112542886287 4.0808659832691774e-05 2.1806710719829425e-05 1 True False
250.384 4.802326679229736 -1.2988757354072114 1.8369100729571741 -2.1086160145201625 -1.570813004170553 3.23154354095459 0.0 -0.011916305869817734 -0.01731610670685768 0.04091557487845421 2.6045163394883275e-05 5.97196914142728e-09 1 True True
250.434 4.8022847175598145 -1.299980179672577 1.8348968664752405 -2.1052690945067347 -1.5707886854754847 3.231576681137085 0.0 -0.04196171835064888 -0.0716717392206192 0.09790858626365662 1.4979125495528933e-08 9.071439149819955e-28 1 True True
250.48399999999998 4.802375793457031 -1.3026331824115296 1.8303878943072718 -2.0980755291380824 -1.5707805792437952 3.2315640449523926 0.0 -0.06658817827701569 -0.10960929840803146 0.17594791948795319 2.2753317697119793e-27 -0.00012595145381055772 1 True True
250.534 4.802362442016602 -1.3067374986461182 1.8234246412860315 -2.0875517330565394 -1.5708449522601526 3.231510639190674 0.0 -0.08985745161771774 -0.15566350519657135 0.2523765563964844 0.0 -0.00010393417323939502 1 True True
250.58399999999997 4.802338600158691 -1.3119026285460968 1.8143509070025843 -2.073531290093893 -1.5707724730121058 3.231494188308716 0.0 -0.11595162004232407 -0.2043001502752304 0.32179373502731323 0.0 -8.409593283431605e-05 1 True True
250.634 4.802342891693115 -1.3183160585216065 1.803283993397848 -2.055772920648092 -1.5707805792437952 3.2315433025360107 0.0 -0.13754788041114807 -0.23895852267742157 0.3793071210384369 0.0 -5.781112122349441e-05 1 True True
250.684 4.802398681640625 -1.3260240715793152 1.7900288740741175 -2.0347281895079554 -1.570801083241598 3.2315523624420166 0.0 -0.16968606412410736 -0.2787424921989441 0.45524004101753235 0.0 -1.941382066228143e-14 1 True True
250.73399999999998 4.802334308624268 -1.3351031851819535 1.7744453589068812 -2.010242601434225 -1.570813004170553 3.231585741043091 0.0 -0.19410578906536102 -0.3301873505115509 0.5186382532119751 0.0 -2.9489637799338266e-33 1 True True
250.784 4.802392959594727 -1.3453121048263093 1.7570346037494105 -1.982706209222311 -1.5707767645465296 3.2315239906311035 0.0 -0.20095138251781464 -0.348639577627182 0.5469775199890137 0.0 -0.0 1 True True
250.83399999999997 4.8023295402526855 -1.3546106976321717 1.7410171667682093 -1.9570614300169886 -1.570756737385885 3.2315685749053955 0.0 -0.17295590043067932 -0.29339924454689026 0.46691325306892395 0.0 -0.0 1 True True
250.884 4.8024001121521 -1.3626359713128586 1.7270172278033655 -1.9350940189757289 -1.5708168188678187 3.231585741043091 0.0 -0.15220528841018677 -0.2525825798511505 0.4046518802642822 0.0 -0.0 1 True True
250.934 4.8024210929870605 -1.3695374441197892 1.7153165976153772 -1.9165669880309046 -1.5707724730121058 3.2315433025360107 0.0 -0.12287399917840958 -0.21400520205497742 0.3287792503833771 0.0 -0.0 1 True True
250.98399999999998 4.802375793457031 -1.3749827158502121 1.7058966795550745 -1.901515623132223 -1.570772949849264 3.2315433025360107 0.0 -0.0976666733622551 -0.17097817361354828 0.26912692189216614 0.0 -0.0 1 True True
251.034 4.802301406860352 -1.379335106616356 1.6986306349383753 -1.8898974857726039 -1.5707767645465296 3.231581926345825 0.0 -0.07254635542631149 -0.1238941177725792 0.1949702352285385 0.0 -0.0 1 True True
251.08399999999997 4.802358150482178 -1.3822661650231858 1.6933615843402308 -1.8820110760130824 -1.5707929770099085 3.2314987182617188 0.0 -0.04693785682320595 -0.07983293384313583 0.12624448537826538 0.0 -0.0 1 True True
251.134 4.802383899688721 -1.3838796478560944 1.690392796193258 -1.8772293529906214 -1.5707891623126429 3.2315568923950195 2.148330675656377e-41 -0.02189452387392521 -0.0395817756652832 0.05803104490041733 0.0 -0.0 1 True True
251.184 4.802286624908447 -1.3843011272004624 1.6896966139422815 -1.8761688671507777 -1.570801083241598 3.2314956188201904 -0.03221511468291283 5.1743681979132816e-05 7.692377948842477e-06 -0.0017491065664216876 0.0 -0.01779150404036045 1 True True
251.23399999999998 4.799983024597168 -1.3843700599721451 1.6896846930133265 -1.876200338403219 -1.5707805792437952 3.229088306427002 -0.08018311113119125 3.9749309507897124e-05 3.0181446212829708e-15 0.0002525548043195158 -7.781623243205979e-25 -0.08007541298866272 1 True True
251.284 4.793950080871582 -1.3843252223781128 1.6896675268756312 -1.8761493168272914 -1.5707805792437952 3.2231595516204834 -0.15067024528980255 5.895772730004949e-22 7.006492321624085e-45 0.0004086576809640974 -1.1770907100328463e-43 -0.14903952181339264 1 True True
251.33399999999997 4.784627914428711 -1.3843001139215012 1.6896966139422815 -1.8760291538634242 -1.5707891623126429 3.2137510776519775 -0.22484064102172852 0.0 -0.00020752273849211633 0.00034765241434797645 -0.0 -0.21910026669502258 1 True True
251.384 4.771653652191162 -1.3842715483954926 1.6896517912494105 -1.8760653934874476 -1.5707724730121058 3.2010483741760254 -0.2893450856208801 0.0 -0.0007491064025089145 0.00014983373694121838 -0.0 -0.2924964129924774 1 True True
251.434 4.755479335784912 -1.3843537432006379 1.6896064917193812 -1.8760653934874476 -1.5708091894732874 3.184561014175415 -0.3599832355976105 0.0 -0.0009607920655980706 0.0001512029266450554 -5.627559949061833e-05 -0.35634297132492065 1 True True
251.48399999999998 4.735448360443115 -1.3843251478723069 1.6895931402789515 -1.8761097393431605 -1.570853058491842 3.1647422313690186 -0.43068668246269226 5.6719680287642404e-05 -0.0017476980574429035 0.00016816183051560074 -1.985244058039107e-16 -0.4372962415218353 1 True True
251.534 4.712228298187256 -1.384289265876152 1.689495865498678 -1.8760858974852503 -1.570772949849264 3.1415791511535645 -0.49930766224861145 0.0004888316616415977 -0.0014869968872517347 0.00010565033153397962 -2.6979527319781482e-05 -0.5067490339279175 1 True True
251.58399999999997 4.685510158538818 -1.3842115563205262 1.6894734541522425 -1.8760539493956507 -1.5707600752459925 3.114560604095459 -0.5686768889427185 0.0008025492425076663 -0.0014410255244001746 0.00017299743194598705 8.101604180410504e-06 -0.5625830292701721 1 True True
251.634 4.655089378356934 -1.3841451716474076 1.689343277608053 -1.876073499719137 -1.5707891623126429 3.0842199325561523 -0.6383751630783081 0.0011666506761685014 -0.0015155586879700422 0.00023403966042678803 5.802656379889524e-15 -0.6312376260757446 1 True True
251.684 4.621289253234863 -1.3840729159167786 1.6892355124102991 -1.8760339222350062 -1.570841137562887 3.0504720211029053 -0.7084511518478394 0.001206554239615798 -0.0015712655149400234 0.000264285656157881 -0.0004099491343367845 -0.7035520672798157 1 True True
251.73399999999998 4.583897590637207 -1.384013057952263 1.6892216841327112 -1.8760024509825648 -1.5707925001727503 3.013282060623169 -0.7770366668701172 0.0011529013281688094 -0.0012087374925613403 0.00034420265001244843 -6.229974678717554e-05 -0.785965621471405 1 True True
251.784 4.543093681335449 -1.3839980524829407 1.6891287008868616 -1.8760301075377406 -1.5708168188678187 2.972346305847168 -0.8456429243087769 0.0019254485378041863 -0.0019134067697450519 0.00031234213383868337 4.093199473212839e-15 -0.8523272275924683 1 True True
251.83399999999997 4.498940944671631 -1.3838243645480652 1.689050022755758 -1.875998159448141 -1.5708168188678187 2.9280009269714355 -0.9236090779304504 0.0023195648100227118 -0.002431416418403387 0.00045665205107070506 -2.823428340084644e-13 -0.9154044985771179 1 True True
251.884 4.45109224319458 -1.3837400686791916 1.688946549092428 -1.8759056530394496 -1.5708454290973108 2.8803694248199463 -0.9856816530227661 0.0012504877522587776 -0.0026687297504395247 0.0006503630429506302 -7.585973308869698e-18 -0.9973348379135132 1 True True
251.934 4.399960994720459 -1.3836530309966584 1.6888178030597132 -1.8759099445738734 -1.570829216633932 2.8291797637939453 -1.0390411615371704 0.0014139156555756927 -0.0014812740264460444 0.0005272133275866508 -1.0958938834529364e-12 -1.0390552282333374 1 True True
251.98399999999998 4.3476057052612305 -1.383572594528534 1.6886685530291956 -1.8758703670897425 -1.5708091894732874 2.776592254638672 -1.0496900081634521 0.0029220005962997675 -0.002920739818364382 0.0008180605946108699 -1.6646651577206496e-31 -1.0474604368209839 1 True True
252.034 4.2952399253845215 -1.3834972095540543 1.6885889212237757 -1.8758427105345667 -1.5708087126361292 2.7244153022766113 -1.045806884765625 0.001124307163991034 -0.0016242876881733537 0.001113253179937601 4.634377124849938e-21 -1.05181884765625 1 True True
252.08399999999997 4.2428765296936035 -1.3834457111409684 1.6884329954730433 -1.8758584461607875 -1.570784870778219 2.6720924377441406 -1.049740195274353 0.0019820588640868664 -0.002196050249040127 0.00020551714987959713 7.039633030305367e-40 -1.0444048643112183 1 True True
252.134 4.190469264984131 -1.3833455306342621 1.6883719603167933 -1.8758312664427699 -1.570829216633932 2.619614839553833 -1.0496315956115723 0.0029423413798213005 -0.002787628909572959 0.000326672219671309 2.068276580276078e-14 -1.0499601364135742 1 True True
252.184 4.138134956359863 -1.3832526964000245 1.6882556120501917 -1.875883241693014 -1.5707491079913538 2.56738543510437 -1.0428136587142944 0.0012781806290149689 -0.0013100418727844954 0.0013486990937963128 3.141716568135865e-33 -1.0505982637405396 1 True True
252.23399999999998 4.085754871368408 -1.3830970090678711 1.688105885182516 -1.8757711849608363 -1.570768181477682 2.5150156021118164 -1.0508074760437012 0.0022816131822764874 -0.0021963592153042555 0.00047161488328129053 3.1920695619191974e-05 -1.0438365936279297 1 True True
252.284 4.033401012420654 -1.383000911479332 1.6879738012896937 -1.875803133050436 -1.5708206335650843 2.462501049041748 -1.0479211807250977 0.0024214719887822866 -0.0030140227172523737 0.0003236805205233395 -3.993516281552978e-11 -1.0442936420440674 1 True True
252.33399999999997 3.980985164642334 -1.3829530042460938 1.6878822485553187 -1.875679155389303 -1.5707810560809534 2.41023325920105 -1.0421013832092285 0.0011854534968733788 -0.0026703053154051304 0.0014566245954483747 -6.066160978830854e-30 -1.0505887269973755 1 True True
252.384 3.9287562370300293 -1.3828701984933396 1.6877997557269495 -1.8757034740843714 -1.5707762877093714 2.3578977584838867 -1.052043080329895 0.002594107063487172 -0.0019089028937742114 0.0004780379531439394 -0.0 -1.037426471710205 1 True True
252.434 3.8763880729675293 -1.3827128869346161 1.6876924673663538 -1.8757077656187953 -1.5707967917071741 2.305450201034546 -1.0463342666625977 0.0026552341878414154 -0.0030829599127173424 0.0004407629603520036 -0.0 -1.0483603477478027 1 True True
252.48399999999998 3.8239877223968506 -1.3826073569110413 1.6875141302691858 -1.8756758175291957 -1.5707443396197718 2.253166913986206 -1.043214201927185 0.0013413093984127045 -0.002743824850767851 0.0004894056473858654 -0.0 -1.0488839149475098 1 True True
252.534 3.7717037200927734 -1.3825417470983048 1.6874406973468226 -1.8756514988341273 -1.5707810560809534 2.200854539871216 -1.0502681732177734 0.002003477653488517 -0.0019379914738237858 0.00039040131377987564 -0.0 -1.0412343740463257 1 True True
252.58399999999997 3.7192559242248535 -1.382449434404709 1.6873377005206507 -1.8756677112975062 -1.570784870778219 2.1483137607574463 -1.0456831455230713 0.0024246354587376118 -0.0026719754096120596 0.0004988089785911143 -0.0 -1.041954755783081 1 True True
252.634 3.6667983531951904 -1.3824187529138108 1.687187973652975 -1.8756123981871546 -1.5707886854754847 2.0960662364959717 -1.0433803796768188 0.0014472630573436618 -0.0021092775277793407 0.0008309552795253694 -9.735936146171298e-07 -1.0514620542526245 1 True True
252.684 3.6144754886627197 -1.3823063683560868 1.6871088186847132 -1.875591894189352 -1.570829216633932 2.0437843799591064 -1.0484323501586914 0.002182478317990899 -0.002194864209741354 0.0003653662861324847 -9.42513215704821e-05 -1.0441012382507324 1 True True
252.73399999999998 3.562122106552124 -1.3820827466300507 1.687026325856344 -1.8756042919554652 -1.5708211104022425 1.9913146495819092 -1.0480703115463257 0.0026168283075094223 -0.002563389018177986 0.00034198997309431434 -5.723441079658498e-22 -1.0473610162734985 1 True True
252.784 3.509836435317993 -1.382101373081543 1.6868575255023401 -1.875528474847311 -1.5707929770099085 1.9390575885772705 -1.0426851511001587 0.0025841493625193834 -0.0021363897249102592 0.0010698732221499085 -2.3810905986465514e-05 -1.0516349077224731 1 True True
252.83399999999997 3.457489490509033 -1.381964088683464 1.686700169240133 -1.8755089245238246 -1.5707805792437952 1.8867721557617188 -1.0497604608535767 0.0021484321914613247 -0.0020051398314535618 0.00031090431730262935 -3.616883074227647e-24 -1.045248031616211 1 True True
252.884 3.4051287174224854 -1.3818888378194352 1.6866462866412562 -1.8755012951292933 -1.5707843939410608 1.8341959714889526 -1.0475876331329346 0.002181990072131157 -0.001904222765006125 0.0006359249236993492 4.67857280455064e-05 -1.0433269739151 1 True True
252.934 3.352783441543579 -1.3818385165980835 1.686465088521139 -1.875476976434225 -1.5707405249225062 1.7818738222122192 -1.0429859161376953 0.0016347374767065048 -0.0022969546262174845 0.00043160442146472633 1.5441686124217924e-11 -1.0484638214111328 1 True True
252.98399999999998 3.3003814220428467 -1.3816968661597748 1.6863840262042444 -1.8754493198790492 -1.5708048979388636 1.7295774221420288 -1.0493097305297852 0.002223782707005739 -0.0023295118007808924 0.00044347820221446455 2.3455957216420985e-30 -1.0437800884246826 1 True True
253.034 3.247962474822998 -1.381560431127884 1.6862838904010218 -1.8755132160582484 -1.5707724730121058 1.677154302597046 -1.047229290008545 0.002218258799985051 -0.0019837990403175354 0.00038041785592213273 0.0 -1.045582890510559 1 True True
253.08399999999997 3.195601463317871 -1.3815017503551026 1.686127010975973 -1.875441690484518 -1.5707610289203089 1.6249327659606934 -1.0458004474639893 0.0020390336867421865 -0.0029335806611925364 0.00034527963725849986 0.0 -1.0547596216201782 1 True True
253.134 3.1435437202453613 -1.3814755243114014 1.686085049306051 -1.87540926555776 -1.570796314870016 1.5727970600128174 -1.029177188873291 0.003517627017572522 -0.002524973126128316 0.00048187896027229726 0.0 -1.0176007747650146 1 True True
253.184 3.0943517684936523 -1.3813415330699463 1.6859548727618616 -1.8753935299315394 -1.5707724730121058 1.5233862400054932 -0.9548797607421875 0.0027345754206180573 -0.002536243060603738 0.00038154778303578496 0.0 -0.9508472084999084 1 True True
253.23399999999998 3.0485470294952393 -1.3811672192863007 1.6858437697040003 -1.8753897152342738 -1.5708044211017054 1.4776763916015625 -0.8828216195106506 0.0020790963899344206 -0.00228317454457283 0.00041503278771415353 0.00012236520706210285 -0.8823203444480896 1 True True
253.284 3.0060651302337646 -1.3811615121415635 1.6857274214373987 -1.8753420315184535 -1.5708254019366663 1.435240387916565 -0.8074354529380798 0.0015308336587622762 -0.0012060835724696517 0.0004357670259196311 3.6551900286889427e-13 -0.8143299221992493 1 True True
253.33399999999997 2.967284917831421 -1.3810494405082245 1.6856687704669397 -1.8753420315184535 -1.570801083241598 1.3964886665344238 -0.7474249005317688 0.0020255115814507008 -0.0024997119326144457 0.0002935794764198363 8.142226579366252e-05 -0.7405217885971069 1 True True
253.384 2.932058095932007 -1.3810711067966004 1.685596768056051 -1.8753019771971644 -1.5707967917071741 1.3612430095672607 -0.6754342317581177 0.0013967632548883557 -0.0019745491445064545 0.0002769525453913957 -2.8473450152196135e-20 -0.6716557741165161 1 True True
253.434 2.900158166885376 -1.3810315889171143 1.6854670683490198 -1.8753344021239222 -1.570829216633932 1.3293399810791016 -0.6015873551368713 0.0019926587119698524 -0.001521786442026496 0.00016010102990549058 -4.3251231244216555e-39 -0.6015145182609558 1 True True
253.48399999999998 2.8717551231384277 -1.3809663367322464 1.6854856649981897 -1.8753262958922328 -1.5708087126361292 1.3010475635528564 -0.5322071313858032 0.0012111845426261425 -0.0013613105984404683 0.0002494534128345549 -0.0 -0.5307973623275757 1 True True
253.534 2.846797466278076 -1.3808618199876328 1.6853860060321253 -1.8752662144102992 -1.5707524458514612 1.2761178016662598 -0.46474626660346985 0.001512065646238625 -0.0015699175419285893 0.00027229031547904015 4.280063023998082e-07 -0.46347665786743164 1 True True
253.58399999999997 2.8255701065063477 -1.3808985513499756 1.6853073279010218 -1.8752786121764125 -1.5708168188678187 1.2548245191574097 -0.39671552181243896 0.001348218065686524 -0.0011530080810189247 0.00025438040029257536 6.50142550006775e-26 -0.3992345929145813 1 True True
253.634 2.8077855110168457 -1.3808712673238297 1.6853378454791468 -1.875282426873678 -1.5707972685443323 1.2369563579559326 -0.3238416314125061 0.00037610926665365696 -0.0008054049103520811 0.00014753449067939073 0.00016414980927947909 -0.3236936330795288 1 True True
253.684 2.7932918071746826 -1.380822317009308 1.6853049437152308 -1.875282426873678 -1.5707805792437952 1.2224968671798706 -0.25420987606048584 0.0002908931637648493 -0.0008660565945319831 0.00010634442151058465 8.23341384299498e-23 -0.25497516989707947 1 True True
253.73399999999998 2.7824742794036865 -1.3807778668454667 1.685256306325094 -1.875310560266012 -1.570772949849264 1.211543321609497 -0.18147635459899902 0.00027833672356791794 -0.00038716872222721577 0.00011797546176239848 1.2506588794098992e-41 -0.18272387981414795 1 True True
253.784 2.775094509124756 -1.3807865691236039 1.6852615515338343 -1.8752862415709437 -1.570801083241598 1.204236626625061 -0.1133427768945694 0.00039265581290237606 -0.0003191887808497995 6.703763210680336e-05 0.0 -0.11587255448102951 1 True True
253.83399999999997 2.771070718765259 -1.3807451289943238 1.6852529684649866 -1.8752747974791468 -1.5708087126361292 1.2002960443496704 -0.04431719705462456 0.00018074199033435434 -0.0003584152727853507 7.309350621653721e-05 0.0 -0.046248167753219604 1 True True
253.884 2.770502805709839 -1.3806469154408951 1.6853178183185022 -1.8755179844298304 -1.5707605520831507 1.1996794939041138 0.006679490674287081 0.014734962023794651 0.010725975967943668 -0.01760113798081875 0.0 0.00027895293897017837 1 True True
253.934 2.770556926727295 -1.3793864411166687 1.6870062986956995 -1.8784896335997523 -1.5707529226886194 1.199660062789917 -0.00028251641197130084 0.029559090733528137 0.06184384971857071 -0.09523988515138626 0.0 -0.0007034042500890791 1 True True
253.98399999999998 2.770505905151367 -1.3770617705634614 1.6912410894977015 -1.885144372979635 -1.5707605520831507 1.1997193098068237 -0.0005023204139433801 0.06167483702301979 0.10971518605947495 -0.1619756668806076 0.0 -0.00041922848322428763 1 True True
254.034 2.770448684692383 -1.3733828526786347 1.6979063192950647 -1.8951312504210414 -1.5707967917071741 1.199665904045105 -0.0006306337891146541 0.08327256888151169 0.15041208267211914 -0.23087283968925476 0.0 -0.00031091785058379173 1 True True
254.08399999999997 2.770460844039917 -1.3684975516847153 1.7064278761493128 -1.908821245233053 -1.5708449522601526 1.1996822357177734 -0.00026960312970913947 0.11001570522785187 0.19440221786499023 -0.295990526676178 0.0 -0.0002173555112676695 1 True True
254.134 2.770448684692383 -1.3622682851604004 1.7172015349017542 -1.9256493053831996 -1.5708254019366663 1.1996045112609863 -0.00013068277621641755 0.13801559805870056 0.23820409178733826 -0.3821485638618469 0.0 -0.00010193880007136613 1 True True
254.184 2.7703826427459717 -1.354725034242012 1.7302678267108362 -1.9463349781432093 -1.570813004170553 1.1995911598205566 -9.49918685364537e-05 0.1629745066165924 0.27920982241630554 -0.4446837604045868 -8.412030001636595e-05 -7.791769894538447e-05 1 True True
254.23399999999998 2.7704081535339355 -1.345787213449814 1.7454703489886683 -1.9704481563963832 -1.5707929770099085 1.199637532234192 -4.4460965000325814e-05 0.18682372570037842 0.31769704818725586 -0.5182806849479675 -3.878771894960664e-05 -7.487214048751412e-08 1 True True
254.284 2.7704367637634277 -1.3358019453338166 1.7629168669330042 -1.997592111627096 -1.5708087126361292 1.199613332748413 1.7768805264495313e-05 0.19638925790786743 0.3465714752674103 -0.552595853805542 -2.520703310437966e-05 -1.1373096263348769e-26 1 True True
254.33399999999997 2.770432233810425 -1.3264527034810563 1.7790020147906702 -2.0237914524474085 -1.5708006064044397 1.1995911598205566 1.275604081691151e-35 0.17840151488780975 0.3064715266227722 -0.474587619304657 -6.062242929871786e-10 -1.401298464324817e-45 1 True True
254.384 2.7704248428344727 -1.318032906656601 1.7935569922076624 -2.0462175808348597 -1.570784870778219 1.1996405124664307 0.0 0.15276847779750824 0.2633422017097473 -0.40956926345825195 -9.208563797042246e-29 -0.0 1 True True
254.434 2.7703871726989746 -1.3110586565783997 1.805328671132223 -2.065322538415426 -1.570801083241598 1.1996252536773682 0.0 0.12247511744499207 0.2222864180803299 -0.3480241298675537 -0.0 -0.0 1 True True
254.48399999999998 2.7704248428344727 -1.3053493958762665 1.8152497450457972 -2.0807019672789515 -1.5707967917071741 1.199637532234192 3.245668995077722e-05 0.09984239935874939 0.1773352324962616 -0.2724343538284302 -0.0 -0.0 1 True True
254.534 2.770432233810425 -1.3009390991977234 1.8229973951922815 -2.0928994617857875 -1.5708091894732874 1.199615240097046 1.9343944391079072e-40 0.07864288240671158 0.13028445839881897 -0.20369018614292145 -0.0 -0.0 1 True True
254.58399999999997 2.7704293727874756 -1.2978928846171875 1.8283327261554163 -2.101344724694723 -1.570813004170553 1.1996164321899414 1.4408275092137046e-05 0.04936174675822258 0.08899528533220291 -0.13384616374969482 -0.0 -0.0 1 True True
254.634 2.7704367637634277 -1.295909659271576 1.8315628210650843 -2.106396337548727 -1.5707925001727503 1.19959557056427 2.7872085411217995e-05 0.02442256733775139 0.043705787509679794 -0.06966092437505722 -1.8053779093292424e-19 -0.0 1 True True
254.684 2.770399332046509 -1.2956348818591614 1.832238499318258 -2.1081186733641566 -1.570853058491842 1.1996164321899414 3.141900015179999e-05 -0.000516106141731143 -0.0009930009255185723 0.008905711583793163 5.3619275484713615e-20 -0.0 1 True True
254.73399999999998 2.7704203128814697 -1.2955277723125 1.832238499318258 -2.1080790958800257 -1.5708211104022425 1.199583649635315 2.1873938749195077e-05 0.002135660732164979 0.0007660798146389425 0.0002707387611735612 8.144779675881313e-39 -0.0 1 True True
254.784 2.7703874111175537 -1.2954200071147461 1.8323457876788538 -2.1081115208067835 -1.5707886854754847 1.1996196508407593 4.160900753492037e-39 0.005572231486439705 0.006529657170176506 7.862509505685011e-07 0.0 -0.0 1 True True
254.83399999999997 2.770432233810425 -1.2952203911593934 1.8327544371234339 -2.1079398594298304 -1.5707648436175745 1.1996285915374756 5.141068366020303e-22 -0.0009511878597550094 6.707109889703133e-08 -0.0028376257978379726 0.0 -6.341432099484651e-14 1 True False
254.884 2.7704410552978516 -1.2951960426620026 1.8327797094928187 -2.107983728448385 -1.570756737385885 1.199547529220581 0.0 -0.001568199135363102 -0.00014967561583034694 -0.0027237015310674906 0.0 1.8775145349536615e-07 1 True False
254.934 2.7704739570617676 -1.2952278417399903 1.832745377217428 -2.1079632244505824 -1.570756737385885 1.1996208429336548 4.135707058594562e-05 -0.002172704553231597 -0.0005665404023602605 -0.001687489333562553 2.65364160441095e-05 -1.5484849730587613e-12 1 True False
254.98399999999998 2.7704696655273438 -1.2952499252608796 1.8327825705157679 -2.1080428562560023 -1.5707805792437952 1.199644923210144 3.8300902815535665e-05 -0.0023782621137797832 -0.0007663820870220661 -0.0005691300029866397 -2.2974980311118998e-05 7.38724775146693e-05 1 True False
255.034 2.7704572677612305 -1.2952743035605927 1.8327649275409144 -2.108091493646139 -1.5707967917071741 1.1996331214904785 1.2541518117359374e-05 -0.0011255396530032158 -0.0009679885697551072 -0.00038524274714291096 -1.4023919902683701e-05 3.645785909611732e-05 1 True False
255.08399999999997 2.7704365253448486 -1.2956154209426423 1.8322752157794397 -2.1076213322081507 -1.5707648436175745 1.1995881795883179 8.553318849039224e-18 -0.01877502165734768 -0.024469846859574318 0.022155852988362312 -1.0091881449625362e-05 2.4201983251259662e-05 1 True False
255.134 2.770411491394043 -1.2968110603145142 1.8301799933062952 -2.1040760479369105 -1.5707724730121058 1.1996524333953857 0.0 -0.03552784398198128 -0.06474405527114868 0.10621282458305359 -1.3194880353457444e-23 4.984967733739909e-12 1 True False
255.184 2.770465135574341 -1.2993037861636658 1.8255217711078089 -2.0970775089659632 -1.5707925001727503 1.1996703147888184 0.0 -0.06569666415452957 -0.10983160883188248 0.1752079725265503 -2.0038568039844884e-42 7.5721763173190455e-31 1 True False
255.23399999999998 2.770416021347046 -1.303221659069397 1.8187544981585901 -2.0863105259337367 -1.5708048979388636 1.1996045112609863 0.0 -0.09414894133806229 -0.15771719813346863 0.25128522515296936 -0.0 1.5123494904317747e-12 1 True False
255.284 2.770411729812622 -1.3084583145431061 1.8097670714007776 -2.0724178753294886 -1.5707357565509241 1.1996361017227173 0.0 -0.11591508984565735 -0.2013901174068451 0.3235534727573395 -0.0 2.297263672735723e-31 1 True False
255.33399999999997 2.7704408168792725 -1.314930574303009 1.7987387816058558 -2.0547849140562953 -1.5707805792437952 1.199607491493225 0.0 -0.1386449784040451 -0.2460654228925705 0.37528982758522034 -0.0 0.0 1 True False
255.384 2.770387649536133 -1.3225666892579575 1.7854927221881312 -2.033827920953268 -1.5708254019366663 1.1995866298675537 0.0 -0.17103536427021027 -0.2923378646373749 0.4557759463787079 -0.0 0.0 1 True False
255.434 2.7704694271087646 -1.3315887612155457 1.7700122038470667 -2.009144445458883 -1.5707767645465296 1.199615240097046 0.0 -0.19083456695079803 -0.3307760953903198 0.5223749876022339 -0.0 0.0 1 True False
255.48399999999998 2.770427942276001 -1.3418308210423966 1.7524321714984339 -1.9817406139769496 -1.570756737385885 1.199644923210144 0.0 -0.20051102340221405 -0.352512389421463 0.5458956956863403 -6.54571408469258e-14 0.0 1 True False
255.534 2.7704203128814697 -1.351005719309189 1.7365215460406702 -1.9561244450011195 -1.5707891623126429 1.199649453163147 0.0 -0.17351852357387543 -0.30552542209625244 0.4740631580352783 1.5298952860121062e-07 0.0 1 True False
255.58399999999997 2.7704148292541504 -1.359078363781311 1.7224467436419886 -1.9341408214964808 -1.5707805792437952 1.1995823383331299 0.0 -0.1506621241569519 -0.25516214966773987 0.4118506610393524 2.323914122931125e-26 0.0 1 True False
255.634 2.770456314086914 -1.3659673494151612 1.7109645048724573 -1.9156567058958949 -1.5707805792437952 1.1996252536773682 0.0 -0.12332232296466827 -0.2125215232372284 0.33031684160232544 4.203895392974451e-45 0.0 1 True False
255.684 2.770465135574341 -1.3714536738446732 1.7014783064471644 -1.9005614719786585 -1.5707610289203089 1.199649453163147 0.0 -0.09694954007863998 -0.1705014854669571 0.27800580859184265 0.0 1.4782139032831765e-06 1 True False
255.73399999999998 2.7704527378082275 -1.3757701379111786 1.6940305868731897 -1.8890911541380824 -1.5708168188678187 1.1996612548828125 0.0 -0.07268568128347397 -0.12313418090343475 0.1891160011291504 0.0 2.245409736316562e-25 1 True False
255.784 2.7704365253448486 -1.3785617363503953 1.6888087431537073 -1.881083150903219 -1.5708330313311976 1.1996119022369385 0.0 -0.04771823808550835 -0.08073072135448456 0.13360103964805603 0.0 3.363116314379561e-44 1 True False
255.83399999999997 2.7704081535339355 -1.3803022664836426 1.686026398335592 -1.876418252984518 -1.5707686583148401 1.1996285915374756 0.0 -0.020525889471173286 -0.0346984788775444 0.0590805858373642 0.0 0.0 1 True False
255.884 2.7704203128814697 -1.3807233583978196 1.6852811018573206 -1.8753448925414027 -1.5708168188678187 1.1996208429336548 0.0 2.7248381684330525e-06 -0.001116453087888658 -0.0027669714763760567 0.0 0.0 1 False False
255.934 2.770432233810425 -1.380702481870987 1.6853140036212366 -1.8753816090025843 -1.5707886854754847 1.199600100517273 0.0 5.582580482923205e-24 4.620063919042144e-16 -8.118589115028305e-17 0.0 0.0 1 False False
255.98399999999998 2.7704451084136963 -1.3807307344726105 1.6852930227862757 -1.8753491840758265 -1.5708087126361292 1.1996045112609863 0.0 -0.0005371347651816905 -0.00023254822008311749 0.00024114668485708535 0.0 0.0 1 False False
256.034 2.770432233810425 -1.3807188284448166 1.6853049437152308 -1.875390192071432 -1.5707810560809534 1.1996285915374756 0.0 -0.0008867371361702681 -0.0009188270196318626 0.0003533134004101157 0.0 0.0 1 False False
256.084 2.7704572677612305 -1.3807581228068848 1.6852391401873987 -1.8752972088255824 -1.5708373228656214 1.1996537446975708 0.0 -0.0007956771296449006 -0.0009199831401929259 0.0005748952971771359 0.0 0.0 1 False False
256.134 2.7704038619995117 -1.380742998128273 1.6852782408343714 -1.8752623997130335 -1.5707886854754847 1.199583888053894 0.0 -0.00020227151981089264 -0.0007417254964821041 0.00033550846274010837 0.0 0.0 1 False False
256.18399999999997 2.7704081535339355 -1.3807385873845597 1.6852300802813929 -1.8752623997130335 -1.570784870778219 1.1996817588806152 0.0 -0.00017332677089143544 -0.0006678259233012795 0.000154840323375538 0.0 0.0 1 False False
256.234 2.7704694271087646 -1.3807340425303956 1.6852119604693812 -1.8752457104124964 -1.5707767645465296 1.199612021446228 0.0 -0.00011400534276617691 -0.0002339236525585875 9.125334327109158e-05 0.0 0.0 1 False False
256.284 2.7704288959503174 -1.3807218831828614 1.685192886983053 -1.875282426873678 -1.5707967917071741 1.1996580362319946 0.0 -8.375776087632403e-05 -0.00012627695105038583 6.050961383152753e-05 0.0 0.0 1 False False
256.334 2.770395278930664 -1.3806891304305573 1.6852424780475062 -1.8752862415709437 -1.5707767645465296 1.1996448040008545 0.0 -8.04727606009692e-05 -9.4271992566064e-05 1.0040068602890084e-11 0.0 0.0 1 False False
256.384 2.770399570465088 -1.3807173383286973 1.6851642767535608 -1.8752666912474574 -1.5707967917071741 1.1996285915374756 1.4141811365605411e-14 -7.965326515522184e-31 -2.2955978238314856e-06 1.5250890038641817e-30 0.0 0.0 1 False False
256.43399999999997 2.770416021347046 -1.3807504338077088 1.6852253119098108 -1.8752829037108363 -1.5708211104022425 1.1996492147445679 0.0 0.0 -5.4017825380982e-36 0.0 0.0 0.0 1 False False
256.484 2.7704365253448486 -1.3807504189065476 1.6851971785174769 -1.8752504787840785 -1.570756737385885 1.1996524333953857 0.0 0.0 -0.0 0.0 0.0 0.0 1 False False
256.534 2.7704484462738037 -1.380712853079178 1.6851838270770472 -1.8752981624998988 -1.570813004170553 1.1996729373931885 0.0 0.0 -0.0 0.0 0.0 0.0 1 False False
256.584 2.7704246044158936 -1.3807324332049866 1.6852253119098108 -1.8752905331053675 -1.5707925001727503 1.199620008468628 0.0 0.0 -0.0 0.0 0.0 0.0 1 False False
256.634 2.7704126834869385 -1.380753682260849 1.685221020375387 -1.8752385578551234 -1.5707891623126429 1.199612021446228 0.0 0.0 -0.0 0.0 0.0 0.0 1 False False
256.68399999999997 2.7704036235809326 -1.3807626825622101 1.685221020375387 -1.875253816644186 -1.5707724730121058 1.1996663808822632 0.0 0.0 -0.0 0.0 0.0 0.0 1 False False
256.734 2.770460844039917 -1.3806949716857453 1.685221020375387 -1.875230451623434 -1.570801083241598 1.1996207237243652 0.0 0.0 -0.0 0.0 0.0 0.0 1 False False
256.784 2.770448684692383 -1.3807459634593506 1.6852334181415003 -1.8752623997130335 -1.5707891623126429 1.199620008468628 0.0 0.0 -0.0 0.0 0.0 0.0 1 False False
256.834 2.770390272140503 -1.3807083678296586 1.6852167288409632 -1.875286718408102 -1.5707281271563929 1.1996448040008545 0.0 0.0 -0.0 0.0 0.0 0.0 1 False False
256.884 2.770460844039917 -1.3807626378587265 1.685192886983053 -1.8752981624998988 -1.570784870778219 1.1996405124664307 0.0 0.0 -0.0 0.0 0.0 0.0 1 False False
256.93399999999997 2.7704248428344727 -1.3807744991830369 1.6851814428912562 -1.875286718408102 -1.5708048979388636 1.1996492147445679 7.956991084090165e-15 0.0 -0.0 0.0 0.0 0.0 1 False False
256.984 2.7704036235809326 -1.3807295721820374 1.6852005163775843 -1.8752662144102992 -1.5707805792437952 1.1996492147445679 9.69818074736395e-07 0.0 -0.0 0.0 0.0 0.0 1 True False
257.034 2.7704081535339355 -1.3807295870831986 1.685221020375387 -1.8752662144102992 -1.5707967917071741 1.1996448040008545 0.0 0.0 -0.0 0.0 0.0 5.546860900148198e-15 1 True False
257.084 2.7704367637634277 -1.38076105833564 1.6852377096759241 -1.8752623997130335 -1.5708335081683558 1.1996567249298096 0.0 0.0 -0.0 0.0 0.0 8.425693714144607e-34 1 True False
257.134 2.7704036235809326 -1.3807295870831986 1.685192886983053 -1.8752581081786097 -1.5707891623126429 1.1996077299118042 0.0 0.0 -0.0 0.0 0.0 0.0 1 True False
257.18399999999997 2.770415782928467 -1.3807835143855591 1.6852052847491663 -1.8752948246397914 -1.5708048979388636 1.199620008468628 0.0 0.0 -0.0 0.0 0.0 0.0 1 True False
257.234 2.7704501152038574 -1.3807263237288971 1.6852253119098108 -1.8752457104124964 -1.5708168188678187 1.1996077299118042 0.0 0.0 -0.0 0.0 0.0 0.0 1 True False
257.284 2.770432233810425 -1.38072061658416 1.6852181593524378 -1.8752747974791468 -1.570801083241598 1.1996654272079468 0.0 0.0 -1.9274446473008418e-15 0.0 0.0 0.0 1 True False
257.334 2.7704203128814697 -1.3807430279305954 1.6852124373065394 -1.8752500019469203 -1.5707605520831507 1.199620008468628 0.0 0.0 5.529375824011154e-17 0.0 0.0 0.0 1 True False
257.384 2.770406723022461 -1.3807626378587265 1.685221020375387 -1.875270505944723 -1.570784870778219 1.1995437145233154 0.0 0.0 0.0 0.0 0.0 -2.148159694570495e-07 1 True False
257.43399999999997 2.77046537399292 -1.380783499484398 1.6852052847491663 -1.8752747974791468 -1.5708134810077112 1.1996243000030518 0.0 0.0 0.0 0.0 0.0 -1.243076860149323e-15 1 True False
257.484 2.770411252975464 -1.3806830209544678 1.6851838270770472 -1.8752023182311 -1.5707686583148401 1.1995763778686523 0.0 0.0 0.0 0.0 0.0 -0.000655114185065031 1 True False
257.534 2.7704575061798096 -1.3807549488595505 1.6851723829852503 -1.8752266369261683 -1.5707805792437952 1.199612021446228 0.0 0.0 0.0 0.0 -4.707301559392363e-05 2.6973385158069298e-15 1 True False
257.584 2.770423173904419 -1.3807370227626343 1.6852181593524378 -1.8752185306944789 -1.5708368460284632 1.1996361017227173 0.0 0.0 0.0 0.0 -7.244902371894568e-05 4.097263160785337e-34 1 True False
257.634 2.771240234375 -1.3806861203959961 1.6852224508868616 -1.8752948246397914 -1.570801083241598 1.200410008430481 0.048442136496305466 0.002960451412945986 -0.0031919842585921288 0.0 -3.5073467188340146e-06 0.045278120785951614 1 True False
257.68399999999997 2.7752480506896973 -1.38040545702491 1.684664551411764 -1.8752266369261683 -1.5707925001727503 1.204512596130371 0.11643412709236145 0.009526615031063557 -0.012810268439352512 0.0032375259324908257 -5.327667772794861e-25 0.11375147849321365 1 True False
257.734 2.7828197479248047 -1.379900411968567 1.6839707533465784 -1.8749400577940882 -1.5707843939410608 1.212029218673706 0.1853754073381424 0.012827814556658268 -0.017382388934493065 0.004199708811938763 -8.127531093083939e-44 0.18230515718460083 1 True False
257.784 2.793968915939331 -1.3791223776391526 1.6829059759723108 -1.8747135601439417 -1.5708211104022425 1.2231320142745972 0.25348836183547974 0.018594831228256226 -0.025199448689818382 0.006637514103204012 -0.0 0.2523580491542816 1 True False
257.834 2.808476686477661 -1.3779887121966858 1.6815088430987757 -1.8743030033507289 -1.570784870778219 1.2377493381500244 0.3235149085521698 0.025548705831170082 -0.031071364879608154 0.009903570637106895 -0.0 0.3212399482727051 1 True False
257.884 2.826573610305786 -1.3766230207732697 1.6799009482013147 -1.873922964135641 -1.5707805792437952 1.2557940483093262 0.3987009525299072 0.028241366147994995 -0.0350702665746212 0.009208329021930695 6.150385161163285e-05 0.39028340578079224 1 True False
257.93399999999997 2.8480546474456787 -1.3750756692937394 1.6776889006244105 -1.8734966717162074 -1.5707686583148401 1.2772480249404907 0.4637041687965393 0.03523064777255058 -0.04964527115225792 0.00905752182006836 3.172347351210192e-05 0.46214425563812256 1 True False
257.984 2.8731911182403564 -1.373231665497162 1.6752494017230433 -1.872892519036764 -1.5707529226886194 1.3022899627685547 0.5321270823478699 0.03969978168606758 -0.051348187029361725 0.008592702448368073 6.161135567319455e-23 0.5313869714736938 1 True False
258.034 2.90170955657959 -1.371058927183487 1.6727045218097132 -1.8722855053343714 -1.5707891623126429 1.3308156728744507 0.6055439114570618 0.04241639003157616 -0.055641595274209976 0.01616303063929081 9.359272443225453e-42 0.6056442260742188 1 True False
258.084 2.9336342811584473 -1.3687336307815094 1.669518772755758 -1.87156405071401 -1.570813004170553 1.3628971576690674 0.6754326224327087 0.04710903391242027 -0.06415726244449615 0.01845119521021843 1.4921185120808644e-10 0.6736704111099243 1 True False
258.134 2.969198226928711 -1.3661548656276246 1.666102711354391 -1.8707577190794886 -1.5707772413836878 1.3983794450759888 0.7482181191444397 0.053669486194849014 -0.06391166895627975 0.02113577350974083 -9.116185538005084e-06 0.7464311122894287 1 True False
258.18399999999997 3.0081396102905273 -1.363177479510643 1.662234131489889 -1.8698107204832972 -1.570801083241598 1.4373358488082886 0.8168760538101196 0.0593612864613533 -0.07848014682531357 0.01852402091026306 3.739956810022704e-05 0.8117592930793762 1 True False
258.234 3.050579309463501 -1.3601367634585877 1.6581791082965296 -1.868868967095846 -1.570829216633932 1.4797697067260742 0.8787116408348083 0.06655251979827881 -0.08243906497955322 0.02031240426003933 6.38281964331753e-20 0.8829087615013123 1 True False
258.284 3.096620798110962 -1.356793538933136 1.6536200682269495 -1.8678599796690882 -1.5707686583148401 1.5257532596588135 0.954584538936615 0.0721677616238594 -0.09301947802305222 0.019919967278838158 9.695518213635586e-39 0.954993724822998 1 True False
258.334 3.146073579788208 -1.3530991834453125 1.6490863005267542 -1.8665558300414027 -1.5708211104022425 1.5751886367797852 1.0231118202209473 0.07765141874551773 -0.10196845233440399 0.02018631249666214 0.0 1.0213651657104492 1 True False
258.384 3.1981470584869385 -1.3493420344642182 1.6439583937274378 -1.8655101261534632 -1.5707653204547327 1.6274205446243286 1.0470314025878906 0.07848142087459564 -0.10059179365634918 0.027342215180397034 0.0 1.0445433855056763 1 True False
258.43399999999997 3.2505075931549072 -1.3454111528447648 1.6389477888690394 -1.864424844781393 -1.5707805792437952 1.6797431707382202 1.0455256700515747 0.07353585213422775 -0.10218553990125656 0.021474570035934448 -2.438776209601201e-05 1.0490176677703857 1 True False
258.484 3.302899122238159 -1.34150084972892 1.6338709036456507 -1.8630644283690394 -1.5708492437945765 1.7321337461471558 1.0442172288894653 0.07584550231695175 -0.10292191058397293 0.023022953420877457 1.4510374181264385e-17 1.0434489250183105 1 True False
258.534 3.3552403450012207 -1.3377226305058976 1.6287954489337366 -1.8618961773314417 -1.5708416144000452 1.7844563722610474 1.0511711835861206 0.07787586748600006 -0.0994006022810936 0.024979591369628906 2.2041293939916724e-36 1.0513074398040771 1 True False
258.584 3.407656669616699 -1.3338921529105683 1.6237066427813929 -1.8607198200621546 -1.5707562605487269 1.8367427587509155 1.047351360321045 0.0792023316025734 -0.1003730520606041 0.027703190222382545 0.0 1.0540783405303955 1 True False
258.634 3.4600415229797363 -1.3300044399550934 1.6187704245196741 -1.859495302239889 -1.5707767645465296 1.8892271518707275 1.0452412366867065 0.07376186549663544 -0.10224168002605438 0.020952695980668068 0.0 1.0440820455551147 1 True False
258.68399999999997 3.512352705001831 -1.3261647534421463 1.6137574354754847 -1.858314653436178 -1.5707972685443323 1.9416179656982422 1.049412488937378 0.07760859280824661 -0.10381415486335754 0.020026160404086113 -1.2928407159051858e-05 1.0468991994857788 1 True False
258.734 3.5646727085113525 -1.3223241430572052 1.6087020079242151 -1.8571340046324671 -1.5707686583148401 1.9940133094787598 1.0466798543930054 0.07851526141166687 -0.10032565146684647 0.03095831349492073 3.192987918509971e-08 1.0489286184310913 1 True False
258.784 3.6170690059661865 -1.3185023230365296 1.6035574118243616 -1.8559767208495082 -1.5707805792437952 2.0462753772735596 1.0439074039459229 0.07633020728826523 -0.09861462563276291 0.023470189422369003 4.85015373468194e-27 1.0435255765914917 1 True False
258.834 3.6694211959838867 -1.3145932716182251 1.5984967390643519 -1.854800363580221 -1.5708087126361292 2.0987744331359863 1.0527886152267456 0.07661812752485275 -0.10453316569328308 0.022262101992964745 1.401298464324817e-45 1.0449650287628174 1 True False
258.884 3.7217788696289062 -1.3107533913901825 1.5935357252704065 -1.8534604511656703 -1.570772949849264 2.150848150253296 1.0471982955932617 0.07647283375263214 -0.10068734735250473 0.02657207101583481 0.0 1.052817940711975 1 True False
258.93399999999997 3.774240493774414 -1.3069582742503663 1.5885370413409632 -1.8523036442198695 -1.5708168188678187 2.2033371925354004 1.041862964630127 0.07673786580562592 -0.10042101889848709 0.02532029151916504 0.0 1.0428739786148071 1 True False
258.984 3.8265559673309326 -1.3031531137279053 1.583371941243307 -1.8512422047057093 -1.5707805792437952 2.2558658123016357 1.0493615865707397 0.07628901302814484 -0.09777380526065826 0.02265077270567417 0.0 1.049705982208252 1 True False
259.034 3.8788418769836426 -1.2992020112327118 1.578419033681051 -1.8499499760069789 -1.5707767645465296 2.3079991340637207 1.0462607145309448 0.07435914129018784 -0.10273446142673492 0.02502887137234211 0.0 1.051041841506958 1 True False
259.084 3.9313459396362305 -1.2953829330256958 1.5734203497516077 -1.84873690227651 -1.5708168188678187 2.360410451889038 1.0437743663787842 0.07886931300163269 -0.10240940004587173 0.022120272740721703 0.0 1.0434051752090454 1 True False
259.134 3.983616352081299 -1.2915459436229249 1.5681923071490687 -1.8475758037962855 -1.5708168188678187 2.4128987789154053 1.0533063411712646 0.07860000431537628 -0.09827899187803268 0.028094762936234474 0.0 1.0488452911376953 1 True False
259.18399999999997 4.035894393920898 -1.2876365643790741 1.5630629698382776 -1.8463918171324671 -1.5708168188678187 2.465057373046875 1.0454914569854736 0.07485537230968475 -0.10256259143352509 0.024313023313879967 0.0 1.0546972751617432 1 True False
259.234 4.088257789611816 -1.2836749714664002 1.55815297762026 -1.8451315365233363 -1.5707925001727503 2.517454147338867 1.0417439937591553 0.0775998905301094 -0.10320369154214859 0.02077002078294754 0.0 1.0437226295471191 1 True False
259.284 4.140658378601074 -1.2799478036216279 1.553164307271139 -1.8439942799010218 -1.5707648436175745 2.570047616958618 1.0474625825881958 0.07677001506090164 -0.10386297851800919 0.022243088111281395 0.0 1.044047474861145 1 True False
259.334 4.193024635314941 -1.2761036616614838 1.5480917135821741 -1.8428098164000453 -1.5707810560809534 2.622272491455078 1.0459402799606323 0.0732799768447876 -0.09981267154216766 0.02608746849000454 0.0 1.0499521493911743 1 True False
259.384 4.245455265045166 -1.272322492008545 1.5430353323565882 -1.841661115685934 -1.570869270955221 2.6745426654815674 1.0438474416732788 0.07585527747869492 -0.10354695469141006 0.020502911880612373 0.0 1.0411313772201538 1 True False
259.43399999999997 4.297778129577637 -1.2684002977660676 1.5379679838763636 -1.8403693638243617 -1.5707767645465296 2.727123975753784 1.0495460033416748 0.07927441596984863 -0.1003955826163292 0.021800890564918518 0.0 1.0503132343292236 1 True False
259.484 4.350048065185547 -1.2646792393973847 1.5329468886004847 -1.839064737359518 -1.5708258787738245 2.779222011566162 1.0500887632369995 0.07583547383546829 -0.09821861237287521 0.029584813863039017 0.0 1.0540993213653564 1 True False
259.534 4.402437686920166 -1.260736421947815 1.5278480688678187 -1.837999006310934 -1.5708168188678187 2.8315443992614746 1.0437787771224976 0.07893922924995422 -0.0976623147726059 0.02194490097463131 0.0 1.0436370372772217 1 True False
259.584 4.452816963195801 -1.2569935482791443 1.5230725447284144 -1.8368774853148402 -1.5707967917071741 2.8822813034057617 0.9757795929908752 0.07000897824764252 -0.09510954469442368 0.019847754389047623 0.0 0.9692510962486267 1 True False
259.634 4.499882698059082 -1.2534860235503693 1.518529240285055 -1.835752626458639 -1.5707686583148401 2.9289755821228027 0.9007018208503723 0.06765623390674591 -0.09068921208381653 0.02170131728053093 0.0 0.9021707773208618 1 True False
259.68399999999997 4.543303489685059 -1.250325785284378 1.5142253080951136 -1.8348309002318324 -1.5707524458514612 2.9725918769836426 0.8392427563667297 0.05951462686061859 -0.07790298014879227 0.01931452937424183 -7.598893716931343e-05 0.8389886617660522 1 True False
259.734 4.583273410797119 -1.2473088067821045 1.5104826132403772 -1.8339158497252406 -1.5708087126361292 3.012540578842163 0.764991819858551 0.05703071877360344 -0.0756382867693901 0.015050132758915424 -7.474285666830838e-05 0.7593942880630493 1 True False
259.784 4.619760036468506 -1.2446952027133484 1.506930176411764 -1.8330213032164515 -1.5708001295672815 3.0489258766174316 0.6896159648895264 0.05166603624820709 -0.060402411967515945 0.01808912120759487 -4.776546120410785e-05 0.692095160484314 1 True False
259.834 4.652856826782227 -1.2422764760306855 1.5036352316485804 -1.832250257531637 -1.5708330313311976 3.0818941593170166 0.6237860321998596 0.04458854719996452 -0.0635175108909607 0.01140848733484745 -2.192239140731418e-18 0.62724369764328 1 True False
259.884 4.682236194610596 -1.2400975090316315 1.5009363333331507 -1.8315540752806605 -1.5708006064044397 3.1114907264709473 0.5534588098526001 0.0430358424782753 -0.050617754459381104 0.0102804871276021 -3.3300167478211916e-37 0.5544766187667847 1 True False
259.93399999999997 4.708233833312988 -1.238200919037201 1.4984691778766077 -1.8310581646361292 -1.5708406607257288 3.137509822845459 0.4858892858028412 0.035963159054517746 -0.048882078379392624 0.01071846578270197 -2.4386088891208964e-18 0.47815361618995667 1 True False
259.984 4.730857849121094 -1.236553744678833 1.496253792439596 -1.8305007419981898 -1.5708087126361292 3.1601271629333496 0.41414105892181396 0.03097357787191868 -0.040209658443927765 0.007398333866149187 -3.7042524482743717e-37 0.414072722196579 1 True False
260.034 4.749885559082031 -1.2351754766753693 1.4944661299334925 -1.8300720653929652 -1.570784870778219 3.179051637649536 0.34636422991752625 0.024605359882116318 -0.031360842287540436 0.008440959267318249 -0.0 0.3563481271266937 1 True False
260.084 4.765406608581543 -1.2339508396438141 1.4930017630206507 -1.8297344646849574 -1.5707810560809534 3.194715738296509 0.281167209148407 0.02104935608804226 -0.027544159442186356 0.00816628709435463 -1.8652401195140556e-05 0.2762652337551117 1 True False
260.134 4.777427673339844 -1.2331159871867676 1.4917791525470179 -1.8295237026610316 -1.5708006064044397 3.206541061401367 0.20520979166030884 0.01593017391860485 -0.021683791652321815 0.005629885476082563 -2.4104831405829468e-23 0.21264247596263885 1 True False
260.18399999999997 4.7859368324279785 -1.2325033110431214 1.4908736387835901 -1.8292929134764613 -1.5708087126361292 3.215236186981201 0.13802552223205566 0.011130654253065586 -0.014462950639426708 0.0022127614356577396 -3.661592887280747e-42 0.1372847855091095 1 True False
260.234 4.791074752807617 -1.2322281760028382 1.4904139677630823 -1.8291179142394007 -1.5707810560809534 3.2203285694122314 0.06899264454841614 0.0026435544714331627 -0.004315702244639397 0.002036816207692027 -0.0 0.0685684010386467 1 True False
260.284 4.792647361755371 -1.2321073871902009 1.490349594746725 -1.829090257684225 -1.5707648436175745 3.2219152450561523 -0.012605242431163788 0.0001662295835558325 -0.0001525385450804606 0.0006134961731731892 -0.0 -0.009902451187372208 1 True False
260.334 4.792693138122559 -1.2312078040889283 1.4914525190936487 -1.8308278522887171 -1.5707610289203089 3.221850872039795 -2.23560336502825e-14 0.027522925287485123 0.0498141348361969 -0.06384841352701187 -0.0 0.0007570862653665245 1 True False
260.384 4.792652606964111 -1.2294678551009675 1.4947922865497034 -1.8364268742003382 -1.5707810560809534 3.22186279296875 0.0007773125544190407 0.046192217618227005 0.09208433330059052 -0.13285653293132782 -0.0 0.0005169801297597587 1 True False
260.43399999999997 4.792616844177246 -1.2265186172774811 1.5008390585528772 -1.8453041515746058 -1.570772949849264 3.221919536590576 0.0005624287878163159 0.07100881636142731 0.14311160147190094 -0.2023562788963318 -0.0 0.0002906537556555122 1 True False
260.484 4.792642116546631 -1.2222649616054078 1.5092838446246546 -1.8575860462584437 -1.5708211104022425 3.221886157989502 0.0009071359527297318 0.09351036697626114 0.18771317601203918 -0.27526214718818665 -0.0 0.0002397850767010823 1 True False
260.534 4.7927093505859375 -1.2169284385493775 1.5197466055499476 -1.8736001453795375 -1.570813004170553 3.221951961517334 0.00023108863388188183 0.11576033383607864 0.23345409333705902 -0.3456156551837921 -0.0 0.00014442094834521413 1 True False
260.584 4.792705059051514 -1.2103795272162934 1.5325678030597132 -1.8929726086058558 -1.570801083241598 3.2219271659851074 0.00015982042532414198 0.14188595116138458 0.28099724650382996 -0.4237721562385559 -0.0 0.00010491810098756105 1 True False
260.634 4.792745113372803 -1.2027361553958436 1.547845188771383 -1.9157010517516078 -1.5707967917071741 3.2219066619873047 0.00012247401173226535 0.16804617643356323 0.32769346237182617 -0.4802795946598053 -0.0 2.8502091709015076e-07 1 True False
260.68399999999997 4.7927093505859375 -1.1939031940749665 1.5651372114764612 -1.9422146282591761 -1.570784870778219 3.2218947410583496 8.874320337781683e-05 0.17434580624103546 0.34691983461380005 -0.5469908714294434 -0.0 4.32947479939416e-26 1 True False
