Andreas691667/Digital_Twin_UR/src/robot_connection_manager/robot_output/test_robot_output.csv
timestamp actual_q_0 actual_q_1 actual_q_2 actual_q_3 actual_q_4 actual_q_5 actual_qd_0 actual_qd_1 actual_qd_2 actual_qd_3 actual_qd_4 actual_qd_5 safety_status output_bit_register_65 output_bit_register_66
10223.190999999999 3.7120742797851562 -0.8254954379848023 0.8429678122149866 -1.5882889233031214 -1.570772949849264 2.1412994861602783 0.0 0.0 0.0 0.0 -0.0 0.0 1 False False
10223.241 3.712099552154541 -0.8254750531962891 0.8430212179767054 -1.5882169208922328 -1.57074481645693 2.141313076019287 0.0 0.0 0.0 0.0 -0.0 0.0 1 False False
10223.291 3.712083101272583 -0.825451211338379 0.842992130910055 -1.5883013210692347 -1.5707805792437952 2.1412274837493896 0.0 0.0 0.0 0.0 -0.0 0.0 1 False False
10223.341 3.7120413780212402 -0.8254750531962891 0.8429964224444788 -1.5883289776244105 -1.5707925001727503 2.141270637512207 0.0 0.0 0.0 0.0 -0.0 0.0015577177982777357 1 False False
10223.391 3.7120742797851562 -0.8254673641971131 0.8429802099810999 -1.588285585443014 -1.5707805792437952 2.1413414478302 0.0 0.0 0.0 0.0 -0.0 2.0144588219750403e-09 1 False False
10223.440999999999 3.7119786739349365 -0.825458900337555 0.8429759184466761 -1.5883170566954554 -1.5707805792437952 2.141313076019287 0.0 0.0 0.0 0.0 -0.0 3.0599668475972652e-28 1 False False
10223.491 3.712045669555664 -0.8255080741694947 0.8430660406695765 -1.5883413753905238 -1.5707925001727503 2.1413204669952393 0.0 0.0 0.0 0.0 -0.0 0.0 1 False False
10223.541 3.7120697498321533 -0.8254996699145813 0.8430050055133265 -1.5883375606932582 -1.5707886854754847 2.141308546066284 0.0 0.0 0.0 0.0 -0.0 0.0 1 False False
10223.591 3.7120652198791504 -0.825524167423584 0.8429887930499476 -1.5883413753905238 -1.5707891623126429 2.141267776489258 0.0 0.0 0.0 0.0 -0.0 0.0 1 False False
10223.641 3.7121729850769043 -0.825463132267334 0.8429964224444788 -1.5882650814452113 -1.5707925001727503 2.141237735748291 0.0 0.0 0.0 0.0 -0.0 0.0 1 False False
10223.690999999999 3.7120413780212402 -0.8254392904094239 0.8429845015155237 -1.5882846317686976 -1.5708168188678187 2.141278028488159 0.0 0.0 0.0 0.0 -0.0 0.0 1 False False
10223.741 3.712104082107544 -0.8255165380290528 0.842992130910055 -1.5882889233031214 -1.5708168188678187 2.1413071155548096 0.0 0.0 0.0 0.0 -0.0 0.0 1 False False
10223.791 3.7120652198791504 -0.825438455944397 0.8429802099810999 -1.5882846317686976 -1.5708087126361292 2.1412885189056396 0.0 0.0 0.0 0.0 -0.0 0.0 1 False False
10223.841 3.7121026515960693 -0.8255531948855896 0.8429845015155237 -1.5882774792113246 -1.5707648436175745 2.141322135925293 0.0 0.0 0.0 0.0 -0.0 0.0 1 False False
10223.891 3.7120981216430664 -0.825519935493805 0.8430092970477503 -1.5882374248900355 -1.5708416144000452 2.141329526901245 0.0 0.0 0.0 0.0 -0.0 0.0 1 False False
10224.141 3.7121026515960693 -0.8254546088031312 0.8429802099810999 -1.5882607899107875 -1.5707967917071741 2.141254186630249 0.0 0.0 0.0 0.0 -0.0 0.0 1 False False
10224.190999999999 3.7121026515960693 -0.8254825633815308 0.8429587523089808 -1.5882607899107875 -1.5707891623126429 2.141296148300171 0.0 0.0 0.0 0.0 -0.0 0.0 1 False False
10224.241 3.7121071815490723 -0.8254513305476685 0.8429587523089808 -1.5882650814452113 -1.5707805792437952 2.1413414478302 0.0 0.0 0.0 0.0 -0.0 0.0 1 False False
10224.291 3.7121026515960693 -0.8254631918719788 0.8429763952838343 -1.5882731876769007 -1.5707767645465296 2.1413204669952393 0.0 0.0 0.0 0.0 -0.0 0.0 1 False False
10224.341 3.7120652198791504 -0.8254707616618653 0.8430007139789026 -1.5882650814452113 -1.5707686583148401 2.141308546066284 0.0 0.0 0.0 0.0 -0.0 0.0 1 False False
10224.391 3.7120490074157715 -0.825438455944397 0.8429673353778284 -1.588297029534811 -1.5708048979388636 2.141270637512207 0.0 0.0 0.0 0.0 -0.0 -8.155104508402209e-25 1 False False
10224.440999999999 3.7120771408081055 -0.8255403798869629 0.8429845015155237 -1.588285585443014 -1.570756737385885 2.141258955001831 0.0 0.0 0.0 0.0 -0.0 -1.233142648605839e-43 1 False False
10224.491 3.7120578289031982 -0.825552300815918 0.8429473082171839 -1.5882607899107875 -1.5707967917071741 2.141282558441162 0.0 0.0 0.0 0.0 -0.0 -0.0 1 False False
10224.541 3.7120816707611084 -0.8254750531962891 0.8429845015155237 -1.588297029534811 -1.5707967917071741 2.1412994861602783 0.0 0.0 0.0 0.0 -0.0 -0.0 1 False False
10224.591 3.7121191024780273 -0.8254951399615784 0.8429630438434046 -1.588273664514059 -1.5708048979388636 2.141263246536255 0.0 0.0 0.0 0.0 -0.0 -0.0 1 False False
10224.641 3.712095022201538 -0.8254340452006836 0.8429425398456019 -1.5882536373534144 -1.5707481543170374 2.1413040161132812 0.0 0.0 0.0 0.0 -0.0 -0.0 1 False False
10224.690999999999 3.7120277881622314 -0.825478271847107 0.8429754416095179 -1.5882774792113246 -1.5707891623126429 2.141329526901245 0.0 0.0 0.0 0.0 -0.0 -0.0 1 False False
10224.741 3.7120862007141113 -0.8254954975894471 0.8430007139789026 -1.5882846317686976 -1.5707767645465296 2.141258716583252 0.0 0.0 0.0 0.0 -0.0 -0.0 1 False False
10224.791 3.712078809738159 -0.8254223030856629 0.8430007139789026 -1.5882607899107875 -1.5708044211017054 2.141284227371216 0.0 0.0 0.0 0.0 -0.0 -0.0 1 False False
10224.841 3.7120816707611084 -0.8254993718913575 0.8430336157428187 -1.5883332691588343 -1.570813004170553 2.14127516746521 0.0 0.0 0.0 0.0 -0.0 -0.0 1 False False
10224.891 3.7121145725250244 -0.8254993718913575 0.8430174032794397 -1.5883332691588343 -1.5707925001727503 2.141258716583252 0.0 0.0 0.0 0.0 -0.0 -0.0 1 False False
10224.940999999999 3.7121024131774902 -0.8254993718913575 0.8430054823504847 -1.588269372979635 -1.5708168188678187 2.14127516746521 0.0 0.0 0.0 0.0 -0.0 -0.0 1 False False
10224.991 3.712045669555664 -0.8254825633815308 0.8429964224444788 -1.5882731876769007 -1.5707805792437952 2.141322135925293 0.0 0.0 0.0 0.0 -0.0 -0.0 1 False False
10225.041 3.7120606899261475 -0.8254954379848023 0.8430216948138636 -1.5882655582823695 -1.5707925001727503 2.1413049697875977 0.0 0.0 0.0 0.0 -0.0 -0.0 1 False False
10225.091 3.7120697498321533 -0.825463132267334 0.8430174032794397 -1.5882374248900355 -1.570768181477682 2.1413040161132812 0.0 0.0 0.0 0.0 -0.0 -0.0 1 False False
10225.141 3.7120532989501953 -0.8255284589580079 0.8429845015155237 -1.5882932148375453 -1.5708487669574183 2.141279697418213 0.0 0.0 0.0 0.0 -0.0 -0.0 1 False False
10225.190999999999 3.7120490074157715 -0.8255155247500916 0.8429892698871058 -1.5882336101927699 -1.570784870778219 2.1412885189056396 0.0 0.0 0.0 0.0 -0.0 -0.0 1 False False
10225.241 3.7120742797851562 -0.8255242270282288 0.8430007139789026 -1.5882932148375453 -1.5707805792437952 2.141242504119873 0.0 0.0 0.0 0.0 -0.0 -0.0 1 False False
10225.291 3.7120862007141113 -0.825536922817566 0.8430097738849085 -1.5882569752135218 -1.5708325544940394 2.141313076019287 0.0 0.0 0.0 0.0 -0.0 -0.0 1 False False
10225.341 3.712106943130493 -0.8254912060550232 0.8430412451373499 -1.588320871392721 -1.570829216633932 2.141263246536255 0.0 0.0 0.0 0.0 -0.0 -0.0 1 False False
10225.391 3.7120862007141113 -0.8254715961268921 0.8429845015155237 -1.588280817071432 -1.5707967917071741 2.141291618347168 0.0 0.0 0.0 0.0 -0.0 -0.0 1 False False
10225.440999999999 3.7120907306671143 -0.8254217070392151 0.8430007139789026 -1.588292738000387 -1.5707686583148401 2.141249895095825 0.0 0.0 0.0 0.0 -0.0 -0.0 1 False False
10225.491 3.7120490074157715 -0.8254949611476441 0.8429754416095179 -1.5882531605162562 -1.5708168188678187 2.141270637512207 0.0 0.0 0.0 0.0 -0.0 -0.0 1 False False
10225.541 3.712095260620117 -0.8255157035640259 0.8429425398456019 -1.588269372979635 -1.5708487669574183 2.141296148300171 0.0 0.0 0.0 0.0 -0.0 -0.0 1 False False
10225.591 3.7120654582977295 -0.8254958552173157 0.8430126349078577 -1.588280817071432 -1.570784870778219 2.14131760597229 0.0 0.0 0.0 0.0 -0.0 -0.0 1 False False
10225.641 3.712087631225586 -0.8254823845675965 0.8429802099810999 -1.5882851086058558 -1.5707724730121058 2.1413590908050537 0.0 0.0 0.0 0.0 -0.0 -0.0 1 False False
10225.690999999999 3.712095022201538 -0.825466052894928 0.8429802099810999 -1.5882488689818324 -1.570784870778219 2.141233444213867 0.0 0.0 0.0 0.0 -0.0 -0.0 1 False False
10225.741 3.712095260620117 -0.8254913848689576 0.8430383841144007 -1.588292738000387 -1.5707724730121058 2.141230583190918 0.0 0.0 0.0 0.0 -0.0 -0.0 1 False False
10225.791 3.7120490074157715 -0.8254869741252442 0.8429539839373987 -1.5883170566954554 -1.5707843939410608 2.14131760597229 0.0 0.0 0.0 0.0 -0.0 -0.0 1 False False
10225.841 3.712111473083496 -0.8254512709430237 0.8429978529559534 -1.5883132419981898 -1.5708048979388636 2.14127516746521 0.0 0.0 0.0 0.0 -0.0 -0.0 1 False False
10225.891 3.712111473083496 -0.8254305285266419 0.8429215590106409 -1.588273664514059 -1.5707600752459925 2.141296148300171 0.0 0.0 0.0 0.0 -0.0 -0.0 1 False False
10225.940999999999 3.7120535373687744 -0.8255542081645508 0.8429892698871058 -1.5882774792113246 -1.5707967917071741 2.141324996948242 0.0 0.0 0.0 0.0 -0.0 -0.0 1 False False
10225.991 3.7120862007141113 -0.8254334491542359 0.8429673353778284 -1.5882851086058558 -1.5707686583148401 2.141308546066284 0.0 0.0 0.0 0.0 -0.0 -0.0 1 False False
10226.041 3.712103843688965 -0.8255127233317872 0.8429964224444788 -1.5882774792113246 -1.5707805792437952 2.141284227371216 0.0 0.0 0.0 0.0 -0.0 -0.0 1 False False
10226.091 3.7120862007141113 -0.8254543107799073 0.8429802099810999 -1.588320871392721 -1.5708168188678187 2.1412513256073 0.0 0.0 0.0 0.0 -0.0 -0.0 1 False False
10226.141 3.7121355533599854 -0.8254869741252442 0.8430336157428187 -1.5882493458189906 -1.5708211104022425 2.141263246536255 0.0 0.0 0.0 0.0 -0.0 -0.0 1 False False
10226.190999999999 3.7121188640594482 -0.8254587215236207 0.8429845015155237 -1.5882774792113246 -1.570801083241598 2.141263246536255 0.0 0.0 0.0 0.0 -0.0 -0.0 1 False False
10226.241 3.712106943130493 -0.8254587215236207 0.8429587523089808 -1.588217397729391 -1.570801083241598 2.141263246536255 0.0 0.0 0.0 0.0 -0.0 -0.0 1 False False
10226.291 3.7120862007141113 -0.8254246872714539 0.8429625670062464 -1.5882812939085902 -1.570801083241598 2.141284227371216 0.0 0.0 0.0 0.0 -0.0 -0.0 1 False False
10226.341 3.7120935916900635 -0.8254380387118836 0.8429759184466761 -1.5883051357665003 -1.5707767645465296 2.1412994861602783 0.0 0.0 0.0 0.0 -0.0 -0.0 1 False False
10226.391 3.7121143341064453 -0.8254617017558594 0.8429964224444788 -1.5882607899107875 -1.570784870778219 2.141313076019287 0.0 0.0 0.0 0.0 -0.0 -0.0 1 False False
10226.440999999999 3.7120981216430664 -0.8254913848689576 0.8429845015155237 -1.5882412395873011 -1.5708087126361292 2.141242504119873 0.0 0.0 0.0 0.0 -0.0 -0.0 1 False False
10226.491 3.7121188640594482 -0.8254869741252442 0.8430040518390101 -1.5883251629271449 -1.5707162062274378 2.141329526901245 0.0 0.0 0.0 0.0 -0.0 -0.0 1 False False
10226.541 3.7120654582977295 -0.825527624492981 0.8430169264422815 -1.5882569752135218 -1.5708087126361292 2.141284227371216 0.0 0.0 0.0 0.0 -0.0 -0.0 1 False False
10226.591 3.7121200561523438 -0.8254794639400025 0.8430054823504847 -1.588245531121725 -1.5707486311541956 2.1413159370422363 0.0 0.0 0.0 0.0 -0.0 -0.0 1 False False
10226.641 3.7121188640594482 -0.8254409593394776 0.8429878393756312 -1.5882774792113246 -1.5707772413836878 2.1413040161132812 0.0 0.0 0.0 0.0 -0.0 -0.0 1 False False
10226.690999999999 3.7121188640594482 -0.825457291012146 0.8430083433734339 -1.588297029534811 -1.5707767645465296 2.14127516746521 0.0 0.0 0.0 0.0 -0.0 -0.0 1 False False
10226.741 3.7120981216430664 -0.8254913252643128 0.8430007139789026 -1.5883175335326136 -1.5708406607257288 2.1413004398345947 0.0 0.0 0.0 0.0 -0.0 -0.0 1 False False
10226.791 3.712056875228882 -0.825457291012146 0.8429473082171839 -1.5883332691588343 -1.570784870778219 2.1413004398345947 0.0 0.0 0.0 0.0 -0.0 -0.0 1 False False
10226.841 3.7120494842529297 -0.8254334491542359 0.842992130910055 -1.5882889233031214 -1.5708406607257288 2.141258955001831 0.0 0.0 0.0 0.0 -0.0 -0.0 1 False False
10226.891 3.7121353149414062 -0.8254706424525757 0.8430288473712366 -1.5883013210692347 -1.570829216633932 2.1412513256073 0.0 0.0 0.0 0.0 -0.0 -0.0 1 False False
10226.940999999999 3.7120580673217773 -0.825463132267334 0.8430007139789026 -1.5883251629271449 -1.5707810560809534 2.1412994861602783 0.0 0.0 0.0 0.0 -0.0 -0.0 1 False False
10226.991 3.7120494842529297 -0.8254675430110474 0.8429845015155237 -1.5883094273009242 -1.5707686583148401 2.141254186630249 0.0 0.0 0.0 0.0 -0.0 -0.0 1 False False
10227.041 3.7120776176452637 -0.8254497212222596 0.8430050055133265 -1.5882498226561488 -1.5707886854754847 2.141279697418213 0.0 0.0 0.0 0.0 -0.0 -0.0 1 False False
10227.091 3.7120580673217773 -0.825445370083191 0.842931095753805 -1.5882569752135218 -1.570824925099508 2.1413755416870117 0.0 0.0 0.0 0.0 -0.0 -0.0 1 False False
10227.141 3.7120327949523926 -0.8254543107799073 0.8430212179767054 -1.5882932148375453 -1.5708206335650843 2.141333818435669 0.0 0.0 0.0 0.0 -0.0 -0.0 1 False False
10227.190999999999 3.712090492248535 -0.8254423898509522 0.8430007139789026 -1.588285585443014 -1.5707686583148401 2.141329288482666 0.0 0.0 0.0 0.0 -0.0 -0.0 1 False False
10227.241 3.712118625640869 -0.8254676026156922 0.8430212179767054 -1.5882607899107875 -1.5708048979388636 2.141296148300171 0.0 0.0 0.0 0.0 -0.0 -0.0 1 False False
10227.291 3.7120370864868164 -0.8254869741252442 0.8429678122149866 -1.5883056126036585 -1.5708168188678187 2.141308546066284 0.0 0.0 0.0 0.0 -0.0 -0.0 1 False False
10227.341 3.7120449542999268 -0.8255453866771241 0.8430007139789026 -1.5882731876769007 -1.5708487669574183 2.141267776489258 0.0 0.0 0.0 0.0 -0.0 -0.0 1 False False
10227.391 3.7121198177337646 -0.825463132267334 0.8429549376117151 -1.5883170566954554 -1.570801083241598 2.1413323879241943 0.0 0.0 0.0 0.0 -0.0 -0.0 1 False False
10227.440999999999 3.712123155593872 -0.8254993718913575 0.842931095753805 -1.5882731876769007 -1.570784870778219 2.1412558555603027 0.0 0.0 0.0 0.0 -0.0 -0.0 1 False False
10227.491 3.7120654582977295 -0.8255246442607422 0.8429678122149866 -1.5883084736266078 -1.5708087126361292 2.1413040161132812 0.0 0.0 0.0 0.0 -0.0 -0.0 1 False False
10227.541 3.7120449542999268 -0.8254600328258057 0.8430331389056605 -1.5882607899107875 -1.570784870778219 2.14127516746521 0.0 0.0 0.0 0.0 -0.0 -0.0 1 False False
10227.591 3.7120656967163086 -0.825442449455597 0.8429678122149866 -1.5882569752135218 -1.5707529226886194 2.1412765979766846 0.0 0.0 0.0 0.0 -0.0 -0.0 1 False False
10227.641 3.7120699882507324 -0.8255127233317872 0.8429802099810999 -1.588280817071432 -1.5707929770099085 2.141279697418213 0.0 0.0 0.0 0.0 -0.0 -0.0 1 False False
10227.690999999999 3.7120656967163086 -0.8255039614490052 0.8430092970477503 -1.5883013210692347 -1.5708368460284632 2.1413049697875977 0.0 0.0 0.0 0.0 -0.0 -0.0 1 False False
10227.741 3.712110996246338 -0.8254543107799073 0.8429806868182581 -1.5882889233031214 -1.5707572142230433 2.141329526901245 0.0 0.0 0.0 0.0 -0.0 -0.0 1 False False
10227.791 3.7120862007141113 -0.8254706424525757 0.8430126349078577 -1.5883094273009242 -1.5707929770099085 2.14123797416687 0.0 0.0 0.0 0.0 -0.0 -0.0 1 False False
10227.841 3.7120819091796875 -0.8254823845675965 0.8429721037494105 -1.5883094273009242 -1.5708087126361292 2.14127516746521 0.0 0.0 0.0 0.0 -0.0 -0.0 1 False False
10227.891 3.7120742797851562 -0.8254392904094239 0.8430255095111292 -1.5883056126036585 -1.5707767645465296 2.141291618347168 0.0 0.0 0.0 0.0 -0.0 -0.0 1 False False
10227.940999999999 3.712082862854004 -0.8255409759334107 0.8429563681231897 -1.5882607899107875 -1.5708168188678187 2.1413204669952393 0.0 0.0 0.0 0.0 -0.0 -0.0 1 False False
10227.991 3.712082862854004 -0.8255335253528138 0.842992130910055 -1.5883051357665003 -1.57074481645693 2.1412246227264404 0.0 0.0 0.0 0.0 -0.0 -0.0 1 False False
10228.041 3.712062358856201 -0.825463132267334 0.8429878393756312 -1.5883170566954554 -1.570784870778219 2.1413278579711914 0.0 0.0 0.0 0.0 -0.0 -0.0 1 False False
10228.091 3.7120699882507324 -0.8254333895495911 0.8429845015155237 -1.5882731876769007 -1.5708006064044397 2.141263246536255 0.0 0.0 0.0 0.0 -0.0 -0.0 1 False False
10228.141 3.7120697498321533 -0.8254794639400025 0.8429520765887659 -1.588297029534811 -1.5707805792437952 2.1412723064422607 0.0 0.0 0.0 0.0 -0.0 -0.0 1 False False
10228.190999999999 3.7120413780212402 -0.8254380387118836 0.8429759184466761 -1.5882488689818324 -1.5707925001727503 2.141313076019287 0.0 0.0 0.0 0.0 -0.0 -0.0 1 False False
10228.241 3.712062358856201 -0.8254719537547608 0.8429754416095179 -1.5882207355894984 -1.5707929770099085 2.14131760597229 0.0 0.0 0.0 0.0 -0.0 -0.0 1 False False
10228.291 3.7120532989501953 -0.8254949015429993 0.8429515997516077 -1.5882889233031214 -1.570829216633932 2.141284227371216 0.0 0.0 0.0 0.0 -0.0 -0.0 1 False False
10228.341 3.7120654582977295 -0.8254706424525757 0.8429721037494105 -1.588280817071432 -1.5708048979388636 2.141270637512207 0.0 0.0 0.0 0.0 -0.0 -0.0 1 False False
10228.391 3.7120697498321533 -0.8254794639400025 0.8429802099810999 -1.5883294544615687 -1.5707767645465296 2.14123797416687 0.0 0.0 0.0 0.0 -0.0 -0.0 1 False False
10228.440999999999 3.7121026515960693 -0.8255127829364319 0.8429935614215296 -1.5882169208922328 -1.570772949849264 2.141296148300171 0.0 0.0 0.0 0.0 -0.0 -0.0 1 False False
10228.491 3.712062358856201 -0.8254675430110474 0.8429630438434046 -1.5882650814452113 -1.5707648436175745 2.141321897506714 0.0 0.0 0.0 0.0 -0.0 -0.0 1 False False
10228.541 3.7120697498321533 -0.8254543107799073 0.8430216948138636 -1.5882569752135218 -1.570772949849264 2.14137864112854 0.0 0.0 0.0 0.0 -0.0 -0.0 1 False False
10228.591 3.712106943130493 -0.8254587215236207 0.8429678122149866 -1.5883013210692347 -1.5707891623126429 2.141279697418213 0.0 0.0 0.0 0.0 -0.0 -0.0 1 False False
10228.641 3.7120578289031982 -0.8254750531962891 0.8430007139789026 -1.5882569752135218 -1.5707805792437952 2.1412665843963623 0.0 -4.973207179403971e-09 0.0 0.0 -0.0 -0.0 1 False False
10228.690999999999 3.7121026515960693 -0.8254423898509522 0.8430007139789026 -1.5882412395873011 -1.5707929770099085 2.14132022857666 0.0 3.5569044931627047e-10 0.0 0.0 -0.0 -0.0 1 False False
10228.940999999999 3.7121188640594482 -0.8254706424525757 0.8430007139789026 -1.5882932148375453 -1.5707967917071741 2.141308546066284 0.0 0.0 0.0 0.0 -0.0 -0.0 1 False False
10228.991 3.7120742797851562 -0.8254794639400025 0.8429935614215296 -1.5882731876769007 -1.5707805792437952 2.141267776489258 0.0 0.0 0.0 0.0 -0.0 -0.0 1 False False
10229.041 3.7120907306671143 -0.825495795612671 0.8429935614215296 -1.588313718835348 -1.5707686583148401 2.14125919342041 0.0 0.0 0.0 0.0 -0.0 -0.0 1 False False
10229.091 3.712095260620117 -0.8255171936801453 0.8430054823504847 -1.588269372979635 -1.5708211104022425 2.141275405883789 0.0 0.0 0.0 0.0 -0.0 -0.0 1 False False
10229.141 3.7120652198791504 -0.8255542677691956 0.8429845015155237 -1.5882889233031214 -1.5707529226886194 2.141267776489258 0.0 0.0 0.0 0.0 -0.0 -0.0 1 False False
10229.190999999999 3.712127923965454 -0.8255083721927186 0.8430593649493616 -1.5883127651610316 -1.5708487669574183 2.1412546634674072 0.0 0.0 0.0 0.0 -0.0 -0.0 1 False False
10229.241 3.712071418762207 -0.8254779738238831 0.8430383841144007 -1.5883251629271449 -1.5707929770099085 2.141312837600708 0.0 0.0 0.0 0.0 -0.0 -0.0 1 False False
10229.291 3.7120742797851562 -0.825495795612671 0.842971150075094 -1.5883094273009242 -1.5707605520831507 2.141312837600708 0.0 0.0 0.0 0.0 -0.0 -0.0 1 True False
10229.341 3.7120728492736816 -0.8254217070392151 0.8430011908160608 -1.5883251629271449 -1.5707605520831507 2.1413168907165527 0.0 0.0 0.0 0.0 -0.0 -0.0 1 True False
10229.391 3.7121191024780273 -0.825463132267334 0.8429539839373987 -1.5883289776244105 -1.5707362333880823 2.141282796859741 0.0 0.0 0.0 0.0 -0.0 -0.0 1 True False
10229.440999999999 3.7120771408081055 -0.825495795612671 0.8430412451373499 -1.5883289776244105 -1.5707925001727503 2.14125919342041 0.0 0.0 0.0 0.0 -0.0 -0.0 1 True False
10229.491 3.7121145725250244 -0.8254615825465699 0.8430083433734339 -1.588297029534811 -1.5707767645465296 2.1413002014160156 0.0 0.0 0.0 0.0 -0.0 -0.0 1 True False
10229.541 3.712104082107544 -0.8255202931216736 0.8429563681231897 -1.5883094273009242 -1.5707767645465296 2.1413040161132812 0.0 0.0 0.0 0.0 -0.0 -0.0 1 True False
10229.591 3.7120981216430664 -0.825463132267334 0.8429587523089808 -1.588269372979635 -1.5708006064044397 2.141267776489258 0.0 0.0 0.0 0.0 -0.0 -0.0 1 True False
10229.641 3.7120862007141113 -0.8254839342883606 0.8429515997516077 -1.588252683679098 -1.570829216633932 2.141317129135132 0.0 0.0 0.0 0.0 -0.0 -0.0 1 True False
10229.690999999999 3.7121520042419434 -0.825495795612671 0.8429630438434046 -1.5883251629271449 -1.5708416144000452 2.1412839889526367 0.0 0.0 0.0 0.0 -0.0 -2.2255162548390217e-06 1 True False
10229.741 3.7120742797851562 -0.8254719537547608 0.8430007139789026 -1.5883051357665003 -1.5707767645465296 2.1412882804870605 0.0 0.0 0.0 0.0 -0.0 -3.3805645551924606e-25 1 True False
10229.791 3.712078809738159 -0.8254779738238831 0.842987362538473 -1.5882889233031214 -1.570801083241598 2.141312837600708 0.0 0.0 0.0 0.0 -0.0 -5.184804318001823e-44 1 True False
10229.841 3.7120742797851562 -0.8254795235446473 0.842987362538473 -1.588245531121725 -1.570829216633932 2.1412558555603027 0.0 0.0 0.0 0.0 -0.0 -0.0 1 True False
10229.891 3.7122855186462402 -0.8255647581866761 0.8431013266192835 -1.5883170566954554 -1.5707843939410608 2.1412363052368164 0.028102397918701172 -0.01282382570207119 0.018458610400557518 -0.0037913937121629715 -0.0 -0.009033928625285625 1 True False
10229.940999999999 3.714932680130005 -0.826847569351532 0.8450821081744593 -1.589020391503805 -1.5708254019366663 2.1398890018463135 0.08981302380561829 -0.04202830418944359 0.0697605311870575 -0.024825602769851685 -0.0 -0.03925127536058426 1 True False
10229.991 3.72139048576355 -0.8299989861300965 0.8501976172076624 -1.5907017193236292 -1.5707967917071741 2.137171983718872 0.16588275134563446 -0.08387762308120728 0.12866675853729248 -0.04364432767033577 -0.0 -0.07516804337501526 1 True False
10230.041 3.7312581539154053 -0.8353060644916077 0.8578346411334437 -1.593377252618307 -1.5707724730121058 2.132800817489624 0.22768528759479523 -0.12297672033309937 0.179691880941391 -0.05759934335947037 -0.0 -0.10276809334754944 1 True False
10230.091 3.7446744441986084 -0.8420877021602173 0.8682411352740687 -1.5967756710448207 -1.5708406607257288 2.126955986022949 0.29808899760246277 -0.15210135281085968 0.23193608224391937 -0.07901344448328018 8.278989844257012e-05 -0.12873242795467377 1 True False
10230.141 3.7612574100494385 -0.850844756965973 0.8812735716449183 -1.6012689075865687 -1.5708087126361292 2.1196117401123047 0.36939191818237305 -0.18839770555496216 0.28537169098854065 -0.08548235893249512 8.281298505607992e-05 -0.16456356644630432 1 True False
10230.190999999999 3.7817070484161377 -0.8610865634730835 0.8970211187945765 -1.6065827808775843 -1.5707772413836878 2.1106162071228027 0.4396457076072693 -0.22883868217468262 0.3408322036266327 -0.12217746675014496 0.00014070756151340902 -0.1939246654510498 1 True False
10230.241 3.805368661880493 -0.8732637924006958 0.915602986012594 -1.6128317318358363 -1.5708087126361292 2.100177049636841 0.5082921981811523 -0.26004549860954285 0.3917009234428406 -0.1442551165819168 -0.00012106759822927415 -0.2264590859413147 1 True False
10230.291 3.8324975967407227 -0.8873152893832703 0.9365728537188929 -1.6201735935606898 -1.5708044211017054 2.088169574737549 0.5737783908843994 -0.29956337809562683 0.4476972818374634 -0.1660415381193161 2.923506159380196e-10 -0.2529554069042206 1 True False
10230.341 3.8634557723999023 -0.9030070465854187 0.9605944792376917 -1.6283027134337367 -1.570784870778219 2.0746374130249023 0.645114541053772 -0.3315560221672058 0.5033213496208191 -0.17098145186901093 -1.4816721796966775e-13 -0.2873506546020508 1 True False
10230.391 3.897630453109741 -0.9205010098269959 0.9869783560382288 -1.6372634373106898 -1.570784870778219 2.059490203857422 0.7187528014183044 -0.3670411705970764 0.5577345490455627 -0.19107769429683685 -0.00011935127258766443 -0.3109549283981323 1 True False
10230.440999999999 3.9353203773498535 -0.939921574001648 1.016489330922262 -1.6471063099303187 -1.5708406607257288 2.042912721633911 0.7823814153671265 -0.40345171093940735 0.6121965050697327 -0.2111842781305313 5.844495110096659e-09 -0.34516215324401855 1 True False
10230.491 3.976475715637207 -0.9610369962504883 1.048495117818014 -1.6580974064269007 -1.5707843939410608 2.024719715118408 0.8650991320610046 -0.4364892840385437 0.6648186445236206 -0.22065909206867218 -0.00014891887258272618 -0.37465429306030273 1 True False
10230.541 4.021337985992432 -0.9840384882739563 1.0830896536456507 -1.669912954370016 -1.570784870778219 2.0050904750823975 0.9266716837882996 -0.4784928262233734 0.7181771397590637 -0.2506435215473175 -1.0215821522052693e-09 -0.4122675657272339 1 True False
10230.591 4.069468021392822 -1.0087390106967469 1.1205509344684046 -1.6825667820372523 -1.5707648436175745 1.9837396144866943 1.0011900663375854 -0.5116706490516663 0.7766416072845459 -0.27723944187164307 -1.5517854322515822e-28 -0.4405379295349121 1 True False
10230.641 4.12111234664917 -1.0351191324046631 1.1606767813311976 -1.6962276897826136 -1.570772949849264 1.961003065109253 1.0415531396865845 -0.5330823659896851 0.8128721117973328 -0.2815365195274353 -0.0 -0.4607960879802704 1 True False
10230.690999999999 4.173309326171875 -1.061947540645935 1.2014053503619593 -1.7099610767760218 -1.570801083241598 1.9378645420074463 1.0488290786743164 -0.5362842082977295 0.8113303780555725 -0.2862023413181305 -0.0001666766474954784 -0.4625515639781952 1 True False
10230.741 4.225691795349121 -1.0888247650912781 1.2419140974627894 -1.7238146267332972 -1.5707891623126429 1.9149998426437378 1.0479506254196167 -0.5340529084205627 0.8161867260932922 -0.27791187167167664 -0.00044446898391470313 -0.4670116603374481 1 True False
10230.791 4.278073310852051 -1.1155731540969391 1.2823713461505335 -1.7377082310118617 -1.5708211104022425 1.8918730020523071 1.0432850122451782 -0.5374251008033752 0.8159394860267639 -0.282329261302948 2.6813950171344914e-06 -0.46218690276145935 1 True False
10230.841 4.330366134643555 -1.1424755913070221 1.3232386747943323 -1.751674314538473 -1.5707529226886194 1.8687515258789062 1.0495555400848389 -0.5422378182411194 0.8068163394927979 -0.2924968898296356 -5.1450795581331477e-05 -0.45577096939086914 1 True False
10230.891 4.382668495178223 -1.1693457526019593 1.3637602964984339 -1.7653051815428675 -1.5708168188678187 1.845577359199524 1.0533199310302734 -0.5399876236915588 0.8141281604766846 -0.27591490745544434 -5.580398646998219e-05 -0.4621955156326294 1 True False
10230.940999999999 4.434891223907471 -1.1958806973746796 1.4041641394244593 -1.778999467889303 -1.5707853476153772 1.8228368759155273 1.0082085132598877 -0.5169664025306702 0.7809111475944519 -0.29643237590789795 -5.137471248417569e-08 -0.4462205767631531 1 True False
10230.991 4.483697891235352 -1.2209564012340088 1.4422314802752894 -1.7918416462340296 -1.5707925001727503 1.801201343536377 0.9485216736793518 -0.4780603051185608 0.7312520742416382 -0.2516564428806305 -0.00021104038751218468 -0.4149065911769867 1 True False
10231.041 4.529061794281006 -1.244293288593628 1.4774134794818323 -1.8039967022337855 -1.5707967917071741 1.7811099290847778 0.8715772032737732 -0.45249491930007935 0.6766215562820435 -0.22286958992481232 -0.00043036675197072327 -0.3852457106113434 1 True False
10231.091 4.570896148681641 -1.2658465665629883 1.50991136232485 -1.815174242059225 -1.5707967917071741 1.762760877609253 0.8064954876899719 -0.41646960377693176 0.6211479902267456 -0.2168349027633667 -2.7096692178929516e-07 -0.361200213432312 1 True False
10231.141 4.609484672546387 -1.2854996186545868 1.5397937933551233 -1.825252195397848 -1.570772949849264 1.7457756996154785 0.7361999154090881 -0.37942588329315186 0.5626850128173828 -0.19827304780483246 -1.6999275598283958e-10 -0.31748947501182556 1 True False
10231.190999999999 4.644351482391357 -1.3033185464194794 1.5670660177813929 -1.8343678913512171 -1.5708492437945765 1.7303926944732666 0.6669204235076904 -0.34318843483924866 0.5213596224784851 -0.18997713923454285 2.688963718355808e-07 -0.2921893298625946 1 True False
10231.241 4.67579460144043 -1.3196059626391907 1.5912917296039026 -1.8428546390929164 -1.570857350026266 1.7164795398712158 0.5938439965248108 -0.3030281960964203 0.45998796820640564 -0.15721957385540009 -0.00018012200598604977 -0.2561635375022888 1 True False
10231.291 4.703724384307861 -1.3336746555617829 1.6131780783282679 -1.8500267467894496 -1.5707805792437952 1.7042150497436523 0.5235105752944946 -0.26648572087287903 0.4028426706790924 -0.14114247262477875 9.225697431247681e-05 -0.23449578881263733 1 True False
10231.341 4.72836446762085 -1.3464784634164353 1.6319177786456507 -1.8566018543639125 -1.5708048979388636 1.6933549642562866 0.4552599787712097 -0.2273387759923935 0.35638582706451416 -0.11130623519420624 0.0009181050700135529 -0.20214912295341492 1 True False
10231.391 4.74941873550415 -1.3571414959481736 1.6483967939959925 -1.862136026422018 -1.5707443396197718 1.6841384172439575 0.38707098364830017 -0.20322340726852417 0.29547759890556335 -0.11311399936676025 0.000555542588699609 -0.17002755403518677 1 True False
10231.440999999999 4.766824722290039 -1.3660501104644318 1.662074391041891 -1.8665362797179164 -1.5707319418536585 1.6764501333236694 0.3203883469104767 -0.16124635934829712 0.24923846125602722 -0.07897268235683441 -6.605395901715383e-05 -0.14130322635173798 1 True False
10231.690999999999 4.80219841003418 -1.3841887277415772 1.6898868719684046 -1.8765918217101039 -1.5708325544940394 1.6608290672302246 -0.0019263781141489744 0.011571730487048626 0.024781422689557076 -0.033291593194007874 -0.0008133744704537094 0.00048016879009082913 1 True False
10231.741 4.802215099334717 -1.3831330102733155 1.692148510609762 -1.8799220524229945 -1.5707686583148401 1.6608177423477173 0.0002879216626752168 0.03743975609540939 0.06547120213508606 -0.1034175455570221 0.00019525273819454014 -0.0005556148244068027 1 True False
10231.791 4.802246570587158 -1.380573646431305 1.6965625921832483 -1.886850973168844 -1.5708335081683558 1.660780906677246 0.0004817159497179091 0.06668412685394287 0.10599233955144882 -0.16522575914859772 2.3645299734198488e-05 -0.0005654816050082445 1 True False
10231.841 4.802343845367432 -1.376593143945076 1.7031686941729944 -1.8973742924132289 -1.5708006064044397 1.6607613563537598 0.00048408558359369636 0.09031222015619278 0.15232476592063904 -0.24768856167793274 2.854168451449368e-05 -0.000239478365983814 1 True False
10231.891 4.80230188369751 -1.3714879018119355 1.7118642965899866 -1.9112330875792445 -1.5708087126361292 1.6607364416122437 0.0002912362106144428 0.1180192232131958 0.19957876205444336 -0.3242289125919342 6.850439967820421e-05 -0.00013605352432932705 1 True False
10231.940999999999 4.8023223876953125 -1.3651773941567917 1.7228687445269983 -1.9286724529662074 -1.5707805792437952 1.6607539653778076 0.00012401666026562452 0.13949625194072723 0.24275045096874237 -0.3770482540130615 6.184045196278021e-05 -9.240055806003511e-05 1 True False
10231.991 4.802338600158691 -1.3573040527156373 1.7363560835467737 -1.9494906864561976 -1.5708211104022425 1.6607451438903809 9.19010562938638e-05 0.16507869958877563 0.28519371151924133 -0.4512366056442261 1.6458352669295246e-21 -3.103403696676742e-14 1 True False
10232.041 4.802363872528076 -1.3483925622752686 1.751467529927389 -1.9738875828185023 -1.5708335081683558 1.6607377529144287 2.996879629790783e-05 0.19593515992164612 0.3334886133670807 -0.520762026309967 2.5000285642326196e-40 5.118637272971682e-05 1 True False
10232.091 4.802310466766357 -1.3382180494121094 1.7690284887896937 -2.001413961450094 -1.5707967917071741 1.6607365608215332 5.643946133204736e-05 0.1980116069316864 0.34508460760116577 -0.5520361661911011 0.0 4.225936208968051e-05 1 True False
10232.291 4.802387714385986 -1.3082391780665894 1.8207524458514612 -2.0832725963988246 -1.5707967917071741 1.660757064819336 -1.6996349073795706e-41 0.09721023589372635 0.17168375849723816 -0.28160926699638367 5.55334581411925e-42 4.9575557460422676e-40 1 True False
10232.341 4.802403926849365 -1.3039884132197876 1.828139607106344 -2.0950800381102503 -1.5707925001727503 1.660757064819336 0.0 0.0728214755654335 0.1189131960272789 -0.2003241628408432 0.0 0.0 1 True False
10232.391 4.802321434020996 -1.3009049755385895 1.8333857695208948 -2.1031910381712855 -1.5707967917071741 1.660728931427002 0.0 0.05121324583888054 0.08349213004112244 -0.14199265837669373 0.0 4.241811437689924e-13 1 True False
10232.440999999999 4.802318096160889 -1.299174742107727 1.8362897078143519 -2.107872625390524 -1.5707724730121058 1.6607202291488647 0.0 0.022865790873765945 0.04276907816529274 -0.05763915926218033 0.0 6.443324171744165e-32 1 True False
10232.491 4.802334308624268 -1.2987409693053742 1.837175194417135 -2.1092525921263636 -1.5708087126361292 1.6607420444488525 0.0 -0.0007539137732237577 -0.00039718725020065904 0.002179606817662716 0.0 0.0 1 True False
10232.541 4.802362442016602 -1.2986985307982941 1.8371737639056605 -2.1092645130553187 -1.5708373228656214 1.660740852355957 0.0 0.0001680626010056585 0.0001285602047573775 3.640434800542946e-22 0.0 0.0 1 True False
10232.591 4.802304744720459 -1.2987754803946991 1.83722430864443 -2.1092363796629847 -1.570756737385885 1.6607732772827148 0.0 0.00011162377631990239 6.980988109717146e-05 5.529803999918593e-41 0.0 0.0 1 True False
10232.641 4.802350997924805 -1.298759089117386 1.8372200171100062 -2.1092568836607875 -1.5707886854754847 1.6607075929641724 0.0 0.00043300597462803125 5.653497646562755e-05 -0.00011557608377188444 0.0 0.0 1 True False
10232.690999999999 4.8023552894592285 -1.2987889808467408 1.8371828238116663 -2.1093083820738734 -1.5708168188678187 1.6607613563537598 0.0 0.00024649949045851827 4.059653656440787e-05 -0.00023104999854695052 0.0 0.0 1 True False
10232.741 4.802297592163086 -1.2987137001803895 1.8372533957110804 -2.1093207798399867 -1.5707686583148401 1.6607732772827148 -5.3585653275781005e-42 0.0001922370574902743 1.110752015804033e-32 -0.0001775700511643663 0.0 0.0 1 True False
10232.791 4.802318096160889 -1.2986956399730225 1.8371952215777796 -2.1092564068236292 -1.5708487669574183 1.6607613563537598 0.0 0.00017422877135686576 0.0 -9.030500223161653e-05 0.0 0.0 1 True False
10232.841 4.802350997924805 -1.2986481350711365 1.8372486273394983 -2.1092683277525843 -1.5708254019366663 1.660768985748291 0.0 6.892079545650631e-05 4.37462229507609e-26 -6.70709487167187e-05 0.0 0.0 1 True False
10232.891 4.802435874938965 -1.298636184339859 1.8372200171100062 -2.1093250713744105 -1.5708087126361292 1.6607657670974731 -4.777551272617479e-15 4.7293779061874375e-05 0.0 -4.222185968905112e-12 0.0 0.0 1 True False
10232.940999999999 4.802289009094238 -1.298739032154419 1.8371780554400843 -2.109276433984274 -1.5707925001727503 1.660715937614441 0.0 2.854436752386391e-05 0.0 -6.413512224414091e-31 0.0 0.0 1 True False
10232.991 4.802334308624268 -1.2987300914577027 1.8372185865985315 -2.1093045673766078 -1.5707686583148401 1.660798192024231 0.0 2.0440773369045928e-05 0.0 -0.0 0.0 0.0 1 True False
10233.041 4.802347183227539 -1.2986525756171723 1.8372152487384241 -2.1092845402159632 -1.570784870778219 1.6607766151428223 0.0 0.0 0.0 -0.0 0.0 0.0 1 True False
10233.091 4.8023295402526855 -1.2987062495997925 1.8371976057635706 -2.1092645130553187 -1.5707886854754847 1.660757064819336 0.0 0.0 0.0 -0.0 0.0 0.0 1 True False
10233.141 4.802326679229736 -1.298639253979065 1.8372200171100062 -2.109260221520895 -1.5707891623126429 1.660752773284912 0.0 0.0 0.0 -0.0 0.0 0.0 1 True False
10233.190999999999 4.802334308624268 -1.2986600560000916 1.8372605482684534 -2.1092683277525843 -1.5707967917071741 1.6607202291488647 0.0 0.0 0.0 -0.0 0.0 4.109127080753009e-15 1 True False
10233.241 4.802310466766357 -1.2987435025027771 1.8372276465045374 -2.1092640362181605 -1.5708449522601526 1.6608027219772339 0.0 0.0 0.0 -0.0 0.0 6.241773524643092e-34 1 True False
10233.291 4.802395820617676 -1.2986853879741211 1.8372443358050745 -2.1092683277525843 -1.5707762877093714 1.660757064819336 0.0 0.0 0.0 -0.0 0.0 0.0 1 True False
10233.341 4.8023600578308105 -1.2987346214107056 1.8372109572040003 -2.1093045673766078 -1.5707605520831507 1.660740852355957 0.0 0.0 0.0 -0.0 0.0 0.0 1 True False
10233.391 4.802310466766357 -1.2986451548388978 1.8371904532061976 -2.1093365154662074 -1.5708449522601526 1.6607646942138672 -1.0947815570760966e-11 0.0 -7.198114815309964e-08 -0.0064795957878232 0.0 0.00032199930865317583 1 True False
10233.440999999999 4.8023600578308105 -1.2986690563014527 1.8372471968280237 -2.1092845402159632 -1.5708168188678187 1.660768985748291 0.0 0.0 -1.6937931743414933e-37 1.0418203707498672e-14 0.0 4.8911783727185466e-23 1 True False
10233.491 4.802310466766357 -1.2986599665931244 1.8372562567340296 -2.1092282734312953 -1.5707925001727503 1.6607322692871094 0.0 0.0 -0.0 1.5825283715777054e-33 0.0 7.42968445785018e-42 1 True False
10233.541 4.802334308624268 -1.2986808580211182 1.8372443358050745 -2.1092921696104945 -1.5708611647235315 1.66078519821167 0.0 0.0 -0.0 0.0 0.0 0.0 1 True False
10233.591 4.8023881912231445 -1.2987062495997925 1.8372276465045374 -2.109276433984274 -1.5708006064044397 1.660740852355957 0.0 0.0 -0.0 0.0 0.0 -1.2243935032518749e-11 1 False False
10233.641 4.802350997924805 -1.298652635221817 1.8372352758990687 -2.1093083820738734 -1.5708087126361292 1.660810112953186 0.0 0.0 -0.0 0.0 0.0 -1.8598564413625438e-30 1 False False
10233.690999999999 4.802350997924805 -1.298701749449112 1.8371647039996546 -2.1093207798399867 -1.5707810560809534 1.660757064819336 0.0 0.0 -0.0 3.269494897040204e-08 0.0 -0.0 1 False False
10233.741 4.802395820617676 -1.2987515789321442 1.8371689955340784 -2.1092521152892054 -1.5707648436175745 1.6608015298843384 0.0 0.0 -0.0 1.500005083503021e-18 0.0 -5.265470463200472e-05 1 False False
10233.791 4.8023552894592285 -1.2986317437938233 1.8371813933001917 -2.1092969379820765 -1.570756737385885 1.6607732772827148 0.0 0.0 -0.0 2.278510854576644e-37 0.0 -8.638910367153585e-05 1 False False
10234.041 4.802341938018799 -1.298695669775345 1.8372233549701136 -2.109288831750387 -1.570784870778219 1.6607775688171387 0.0 0.0 -0.0 0.0 0.0 -0.0 1 False False
10234.091 4.802321910858154 -1.298692838554718 1.8372066656695765 -2.109288831750387 -1.5707886854754847 1.6607775688171387 0.0 0.0 -0.0 0.0 0.0 -0.0 1 False False
10234.141 4.802350997924805 -1.298673467045166 1.8371904532061976 -2.109300275842184 -1.570784870778219 1.660740852355957 0.0 0.0 -0.0 0.0 0.0 -0.0 1 False False
10234.190999999999 4.802366733551025 -1.2986808878234406 1.8372562567340296 -2.109344621697897 -1.5708211104022425 1.6607494354248047 -9.850352853391087e-07 0.0 -0.0 0.0 0.0 -0.0 1 False False
10234.241 4.802334308624268 -1.2986898881248017 1.8372276465045374 -2.1093012295165003 -1.5708330313311976 1.660728931427002 0.0 0.0 -4.063034216290231e-32 0.0 0.0 -0.0 1 False False
10234.291 4.802401542663574 -1.2986629468253632 1.8372367064105433 -2.109328409234518 -1.5708492437945765 1.6607377529144287 0.0 0.0 -0.0 7.294203235572364e-19 0.0 -0.0 1 False False
10234.341 4.802350997924805 -1.2986318332007905 1.8371995131122034 -2.109328886071676 -1.570801083241598 1.6607494354248047 0.0 0.0 -0.0 1.1079911133027096e-37 -0.00012091569078620523 0.00022958559566177428 1 False False
10234.391 4.802350997924805 -1.298680917625763 1.8372190634356897 -2.1092964611449183 -1.5707810560809534 1.6607208251953125 0.0 0.0 -0.0 0.0 -2.0766276129448071e-22 7.687299512326717e-05 1 False False
10234.440999999999 4.802346706390381 -1.2987389427474518 1.8371861616717737 -2.109316488305563 -1.5708125273333948 1.660740852355957 0.0 0.0 -0.0 0.0 -3.1544629730415957e-41 8.375261018045421e-07 1 False False
10234.491 4.802371501922607 -1.2986898583224793 1.8371871153460901 -2.10924830059194 -1.5707691351519983 1.6607033014297485 0.0 0.0 -0.0 0.0 -0.0 1.2722042402375273e-25 1 False False
10234.541 4.802366733551025 -1.2986645859530945 1.8372319380389612 -2.1092564068236292 -1.5708006064044397 1.6607202291488647 0.0 0.0 -0.0 0.0 -0.0 1.961817850054744e-44 1 False False
10234.591 4.802349090576172 -1.29910101116214 1.8364298979388636 -2.1079584560790003 -1.5708206335650843 1.6607701778411865 0.0 -0.02027473784983158 -0.03827039152383804 0.05554069206118584 -0.0 0.0 1 False False
10234.641 4.802389144897461 -1.3007426422885437 1.833503548298971 -2.103358884850973 -1.570801083241598 1.660768985748291 0.0 -0.05032853037118912 -0.08234621584415436 0.1284305900335312 -0.0 0.0 1 False False
10234.690999999999 4.802380561828613 -1.3038138312152405 1.8282092253314417 -2.095006605187887 -1.5707810560809534 1.6607604026794434 0.0 -0.07443501055240631 -0.12865768373012543 0.2015586495399475 -0.0 0.0 1 False False
10234.741 4.8023600578308105 -1.3082364362529297 1.820704762135641 -2.0832420788206996 -1.5708087126361292 1.66078519821167 0.0 -0.09691085666418076 -0.16882804036140442 0.2568671405315399 -0.0 0.0 1 False False
10234.791 4.802364349365234 -1.3137861055186768 1.8109129110919397 -2.0682183704771937 -1.570824925099508 1.6607939004898071 0.0 -0.12084587663412094 -0.20773783326148987 0.33372944593429565 -0.0 0.0 1 False False
10234.841 4.802375793457031 -1.3207236689380188 1.799258057271139 -2.0493179760374964 -1.5707767645465296 1.6607120037078857 0.0 -0.15013177692890167 -0.26353633403778076 0.4048137366771698 -0.0 0.0 1 False False
10234.891 4.802334308624268 -1.3288628321937104 1.78520375887026 -2.027125497857565 -1.570732895527975 1.6608014106750488 0.0 -0.17776136100292206 -0.3050439655780792 0.47403520345687866 -0.0 0.0 1 False False
10234.940999999999 4.802326679229736 -1.3383386594108124 1.768996540700094 -2.0015326939024867 -1.5708006064044397 1.660752773284912 0.0 -0.19989818334579468 -0.3399782180786133 0.5556731224060059 -0.0 3.993565042037517e-05 1 False False
10234.991 4.802369117736816 -1.3484779608300705 1.7513564268695276 -1.974058290521139 -1.5707686583148401 1.660727858543396 0.0 -0.18982413411140442 -0.3353011906147003 0.5343572497367859 -0.0 1.8929904399556108e-05 1 False False
10235.041 4.802349090576172 -1.3572426450303574 1.7363117376910608 -1.9495192966856898 -1.5707805792437952 1.6607656478881836 0.0 -0.1673465222120285 -0.29272201657295227 0.45218703150749207 -0.0 1.2406005225784611e-05 1 False False
10235.091 4.802310466766357 -1.365079791550972 1.72292405763735 -1.9286400280394496 -1.5708087126361292 1.6607494354248047 0.0 -0.1419016420841217 -0.23867587745189667 0.3845456838607788 -0.0 3.47716508364293e-11 1 False False
10235.141 4.802276134490967 -1.3714849066785355 1.7120478788958948 -1.9112407169737757 -1.5707925001727503 1.6607364416122437 0.0 -0.11626921594142914 -0.202115997672081 0.3143669664859772 -0.0 5.281820742764461e-30 1 False False
10235.190999999999 4.8023295402526855 -1.3765840840390702 1.703207794819967 -1.8972531757750453 -1.5707767645465296 1.660728931427002 0.0 -0.08862116187810898 -0.1592765599489212 0.24064365029335022 -0.0 0.0 1 False False
10235.241 4.802366733551025 -1.3803768914989014 1.6965964476214808 -1.8869759045042933 -1.5707529226886194 1.6607646942138672 0.0 -0.06267770379781723 -0.1159045621752739 0.17817576229572296 -0.0 0.0 1 False False
10235.291 4.802346706390381 -1.3828929227641602 1.6921756903277796 -1.879923482934469 -1.5708048979388636 1.6607539653778076 0.0 -0.03544118255376816 -0.06471071392297745 0.11939424276351929 -0.0 0.0 1 False False
10235.341 4.802342414855957 -1.384257362490036 1.689890209828512 -1.8765307865538539 -1.5708449522601526 1.6607033014297485 0.0 -0.015072420239448547 -0.022487523034214973 0.03476422652602196 -0.0 0.0 1 False False
10235.391 4.802351951599121 -1.384280414586403 1.689695183430807 -1.8761402569212855 -1.5707648436175745 1.6607451438903809 0.0 0.00024296442279592156 0.00028611751622520387 -0.00027894345112144947 -0.0 0.0 1 False False
10235.440999999999 4.802371025085449 -1.3842922461083909 1.6896713415728968 -1.8761688671507777 -1.5707967917071741 1.6607245206832886 0.0 0.0 -4.308405303528329e-14 0.00011957457172684371 -0.0 0.0 1 False False
10235.491 4.802362442016602 -1.3843075197986145 1.6896994749652308 -1.8761092625060023 -1.570772949849264 1.6607776880264282 0.0 0.0 -1.0089348943138683e-43 0.0020168256014585495 -0.0 0.0 1 False False
10235.541 4.802292823791504 -1.3843044948628922 1.6896675268756312 -1.876061578790182 -1.5708335081683558 1.6607894897460938 0.0 -0.0003389533085282892 -0.0 0.0015537715516984463 -0.0 0.0 1 False False
10235.591 4.802350997924805 -1.3843744409135361 1.6897242704974573 -1.8760653934874476 -1.5707648436175745 1.6607939004898071 0.0 -0.0002989505883306265 -0.0 0.00021450247731991112 -0.0 0.0 1 False False
10235.641 4.8023176193237305 -1.3843448919108887 1.6896351019488733 -1.8760410747923792 -1.5708335081683558 1.6607451438903809 0.0 -0.00015005636669229716 -0.0 0.00012554574641399086 -0.0 0.0 1 False False
10235.690999999999 4.802309036254883 -1.384406105881073 1.6897037664996546 -1.8761254749693812 -1.570813004170553 1.6607451438903809 0.0 -0.00011429226287873462 -0.0 8.379582868656144e-05 -0.0 0.0 1 False False
10235.741 4.802371025085449 -1.3843806695989151 1.6896799246417444 -1.876113077203268 -1.570784870778219 1.660768985748291 0.0 -9.786745795281604e-05 -0.0 3.645957234038599e-12 -0.0 0.0 1 False False
10235.791 4.802301406860352 -1.3844016653350373 1.6896308104144495 -1.8760529957213343 -1.5707605520831507 1.660757064819336 0.0 -8.056216756813228e-05 -0.0 5.53821703149802e-31 -0.0 0.0 1 False False
10235.841 4.802334308624268 -1.3843819809011002 1.6896632353412073 -1.8760653934874476 -1.570801083241598 1.6607451438903809 0.0 -4.718908530776389e-05 -0.0 0.0 -0.0 0.0 1 False False
10235.891 4.802374839782715 -1.3843598675778885 1.68972093263735 -1.8760653934874476 -1.5707724730121058 1.660768985748291 0.0 -2.042078813246917e-05 -0.0 0.0 -0.0 0.0 1 False False
10235.940999999999 4.802351951599121 -1.3843405109694977 1.6895931402789515 -1.8760177097716273 -1.5707724730121058 1.6607894897460938 0.0 -2.6059618903673254e-05 -0.0 0.0 -0.0 0.0 1 False False
10236.241 4.8023223876953125 -1.3843435955098649 1.6896589438067835 -1.8760572872557582 -1.5707648436175745 1.6607494354248047 0.0 0.0 -0.0 0.0 -0.0 0.0 1 False False
10236.291 4.802335262298584 -1.3843405109694977 1.6896889845477503 -1.8760816059508265 -1.570801083241598 1.6607377529144287 0.0 0.0 -0.0 0.0 -0.0 0.0 1 False False
10236.341 4.8023552894592285 -1.384336144929268 1.6896474997149866 -1.8760572872557582 -1.5708087126361292 1.6608015298843384 0.0 0.0 -0.0 6.166263246537573e-13 -0.0 0.0 1 False False
10236.391 4.802359580993652 -1.3843731147101899 1.6896541754352015 -1.8760653934874476 -1.5707925001727503 1.6607494354248047 0.0 0.0 -0.0 9.366567033256046e-32 -0.0 0.0 1 False False
10236.440999999999 4.8022942543029785 -1.3843972992948075 1.6896589438067835 -1.8760653934874476 -1.5708697477923792 1.6607451438903809 0.0 0.0 -0.0 0.0 -0.0 0.0 1 False False
10236.491 4.802363872528076 -1.3844047349742432 1.6896804014789026 -1.8761335812010707 -1.5707967917071741 1.6606990098953247 0.0 0.0 -0.0 0.0 -0.0 0.0 1 False False
10236.541 4.802334308624268 -1.3843643528274079 1.6896517912494105 -1.876061578790182 -1.5707605520831507 1.6607332229614258 0.0 0.0 -0.0 0.0 -0.0 0.0 1 False False
10236.591 4.802335262298584 -1.384352446799614 1.6896517912494105 -1.8760491810240687 -1.570784870778219 1.660715937614441 0.0 0.0 -0.0 0.0 -0.0 0.0 1 False False
10236.641 4.802363872528076 -1.3843850207379838 1.6896675268756312 -1.8760177097716273 -1.5708487669574183 1.660786509513855 0.0 0.0 -0.0 0.0 -0.0 0.0 1 False False
10236.690999999999 4.802346706390381 -1.384385035639145 1.6897247473346155 -1.8760458431639613 -1.5707648436175745 1.660740852355957 0.0 0.0 -0.0 0.0 -0.0 0.0 1 False False
10236.741 4.802319049835205 -1.3843774807504197 1.6896427313434046 -1.8760491810240687 -1.5707805792437952 1.6607162952423096 0.0 0.0 -0.0 0.0 -0.0 0.0 1 False False
10236.791 4.802334308624268 -1.3843884033015748 1.6896055380450647 -1.8760858974852503 -1.5707967917071741 1.6607494354248047 0.0 0.0 -0.0 0.0 -0.0 0.0 1 False False
10236.841 4.80233097076416 -1.3843611937812348 1.6896846930133265 -1.876101633111471 -1.5708254019366663 1.6607494354248047 0.0 0.0 -0.0 0.0 -0.0 0.0 1 False False
10236.891 4.802338600158691 -1.384393648510315 1.6896565596209925 -1.8760448894896449 -1.5707686583148401 1.660768985748291 0.0 0.0 -0.0 0.0 -0.0 0.0 1 False False
10236.940999999999 4.802350997924805 -1.3844060164741059 1.6896336714373987 -1.8760696850218714 -1.570784870778219 1.660757064819336 0.0 0.0 -0.0 0.0 -0.0 0.0 1 False False
10236.991 4.80230188369751 -1.384397254591324 1.6896560827838343 -1.8761292896666468 -1.5707805792437952 1.6607245206832886 0.0 0.0 -0.0 0.0 -0.0 0.0 1 False False
10237.041 4.802326679229736 -1.384380654697754 1.6896541754352015 -1.8760816059508265 -1.5708044211017054 1.6607613563537598 0.0 0.0 -0.0 0.0 -0.0 0.0 1 False False
10237.091 4.8023223876953125 -1.3843687337687989 1.6896713415728968 -1.8761173687376917 -1.5708254019366663 1.6607364416122437 0.0 0.0 -0.0 0.0 -0.0 0.0 1 False False
10237.141 4.802313804626465 -1.3843107533505936 1.6896713415728968 -1.876089712182516 -1.5707605520831507 1.6607656478881836 0.0 0.0 -0.0 0.0 -0.0 0.0 1 False False
10237.190999999999 4.802338600158691 -1.3843718481114884 1.6896875540362757 -1.8761049709715785 -1.5708373228656214 1.660740852355957 0.0 0.0 -0.0 0.0 -0.0 0.0 1 False False
10237.241 4.802350997924805 -1.3843196046403428 1.6896126906024378 -1.876077791253561 -1.5707529226886194 1.6607075929641724 0.0 0.0 -0.0 0.0 -0.0 0.0 1 False False
10237.291 4.802318096160889 -1.3843448919108887 1.6896756331073206 -1.8760940037169398 -1.570801083241598 1.660768985748291 0.0 0.0 -0.0 0.0 -0.0 0.0 1 False False
10237.341 4.802334308624268 -1.3844297987273713 1.6896756331073206 -1.876077791253561 -1.5707724730121058 1.6607613563537598 0.0 0.0 -0.0 0.0 -0.0 0.0 1 False False
10237.391 4.802366733551025 -1.38436874866996 1.6896498839007776 -1.8760940037169398 -1.5707925001727503 1.6607321500778198 0.0 0.0 -0.0 0.0 -3.034652706901397e-08 0.0 1 False False
10237.440999999999 4.802395343780518 -1.3843644273332139 1.6896212736712855 -1.8761059246458949 -1.5707886854754847 1.660770297050476 0.0 0.0 -0.0 0.0 -4.60964437359884e-27 0.0 1 False False
10237.491 4.802301406860352 -1.384352446799614 1.6896589438067835 -1.876089712182516 -1.570801083241598 1.6607732772827148 0.0 0.0 -0.0 0.0 -1.401298464324817e-45 0.0 1 True False
10237.541 4.802342891693115 -1.3843580049327393 1.6896804014789026 -1.8761092625060023 -1.5707605520831507 1.6607732772827148 0.0 0.0 -0.0 0.0 -0.0 0.0 1 True False
10237.591 4.802159309387207 -1.3844679457000275 1.689747158681051 -1.876129766503805 -1.5707529226886194 1.6605279445648193 -0.015222381800413132 -0.007429610006511211 0.008546944707632065 0.0 -0.0 -0.014700126834213734 1 True False
10237.641 4.801105499267578 -1.3851630550673981 1.6904462019549769 -1.8761526546873988 -1.5708048979388636 1.659432291984558 -0.03151674568653107 -0.018720228224992752 0.021251097321510315 -0.0061342171393334866 -0.0 -0.03212190791964531 1 True False
10237.690999999999 4.79861307144165 -1.386571691637375 1.6921404043780726 -1.8764883480467738 -1.5707324186908167 1.6569466590881348 -0.07235131412744522 -0.04075844585895538 0.04794317111372948 -0.009303577244281769 -0.0 -0.0670238509774208 1 True False
10237.741 4.793597221374512 -1.389194281106331 1.6953657309161585 -1.8769427738585414 -1.570772949849264 1.6519560813903809 -0.12592656910419464 -0.07167240977287292 0.08270663768053055 -0.009833808988332748 -0.0 -0.1253296434879303 1 True False
10237.791 4.785436630249023 -1.3938169789365311 1.7009246985064905 -1.8778091869749964 -1.5707972685443323 1.6438103914260864 -0.2068278193473816 -0.11526857316493988 0.13444334268569946 -0.020087916404008865 -0.0 -0.20181335508823395 1 True False
10237.841 4.772871971130371 -1.4007877719453354 1.7089079062091272 -1.879066606561178 -1.5707767645465296 1.6313865184783936 -0.2847399115562439 -0.15955282747745514 0.186288982629776 -0.02834261581301689 -0.0004727661143988371 -0.2882792055606842 1 True False
10237.891 4.756906986236572 -1.4096937638572236 1.7194669882403772 -1.880655427972311 -1.5708211104022425 1.6153432130813599 -0.3526849150657654 -0.19675621390342712 0.23456157743930817 -0.042681287974119186 -3.633520817558633e-09 -0.35248449444770813 1 True False
10237.940999999999 4.737342357635498 -1.4203953307918091 1.7325571219073694 -1.882606645623678 -1.5708168188678187 1.5958997011184692 -0.3891228139400482 -0.22007539868354797 0.2625149190425873 -0.03402508422732353 -5.519326182765052e-28 -0.405644029378891 1 True False
10237.991 4.71919059753418 -1.4307329517653962 1.744366470967428 -1.884486814538473 -1.5707925001727503 1.5775606632232666 -0.3349989354610443 -0.1891697347164154 0.2166624516248703 -0.03412170335650444 0.00035436649341136217 -0.33611947298049927 1 True False
10238.041 4.704184055328369 -1.4390701365521927 1.7541492621051233 -1.8859998188414515 -1.5707686583148401 1.5625629425048828 -0.2638704776763916 -0.1462624967098236 0.17190057039260864 -0.02889367938041687 8.069824252743274e-05 -0.2615804374217987 1 True False
10238.091 4.69279670715332 -1.4452764850905915 1.7617643515216272 -1.8871413669981898 -1.5708087126361292 1.551141381263733 -0.19661247730255127 -0.10673826187849045 0.12817221879959106 -0.024693559855222702 0.00024134603154379874 -0.19599168002605438 1 True False
10238.141 4.68481969833374 -1.4496702638319512 1.766853157673971 -1.8880273304381312 -1.5708168188678187 1.5432008504867554 -0.12572696805000305 -0.06984651833772659 0.08350885659456253 -0.011819733306765556 0.0001329609367530793 -0.12680141627788544 1 True False
10238.190999999999 4.680334091186523 -1.4522282642177125 1.7698195616351526 -1.8883301220335902 -1.5708254019366663 1.538793683052063 -0.054840683937072754 -0.030855558812618256 0.03598731756210327 -0.004410357214510441 8.703547791810706e-05 -0.05942957475781441 1 True False
10238.241 4.679351329803467 -1.4527428907207032 1.7705252806292933 -1.888634820977682 -1.5707362333880823 1.5377442836761475 -0.002950443420559168 0.006686740089207888 0.012491258792579174 -0.03657418116927147 3.7504355177020443e-10 9.391983621753752e-05 1 True False
10238.291 4.679356098175049 -1.4518939492157479 1.7721684614764612 -1.891142030755514 -1.570756737385885 1.5377618074417114 -0.0005359806236810982 0.03136088326573372 0.052393555641174316 -0.0790250301361084 -0.00010229257168248296 -0.000416872906498611 1 True False
10238.341 4.679383277893066 -1.4496706959656258 1.7760570685016077 -1.8972860775389613 -1.570784870778219 1.537745475769043 -0.0005826845881529152 0.06040521338582039 0.09693336486816406 -0.15276966989040375 -2.7312404199619778e-05 -0.00123197166249156 1 True False
10238.391 4.679301738739014 -1.4460862588933487 1.781858269368307 -1.9067751369872035 -1.5707281271563929 1.5377291440963745 -0.0004018325998913497 0.08976268023252487 0.14444562792778015 -0.22184880077838898 -4.658696707338095e-05 -0.0002457637165207416 1 True False
10238.440999999999 4.679344177246094 -1.441053570514061 1.79018479982485 -1.9197784862914027 -1.570772949849264 1.5377006530761719 -0.00034243479603901505 0.10509371757507324 0.1858234405517578 -0.2925134301185608 -3.254687908338383e-05 -0.00016151864838320762 1 True False
10238.491 4.679286003112793 -1.4348030251315613 1.8003094832049769 -1.936216493646139 -1.5708048979388636 1.5377304553985596 -0.00015452328079845756 0.13539420068264008 0.226394385099411 -0.3491455018520355 -1.7373516355780412e-18 -1.5031627498274247e-08 1 True False
10238.541 4.6793060302734375 -1.4273579728654404 1.8128369490252894 -1.9562531910338343 -1.5707805792437952 1.5376724004745483 -0.00010947165719699115 0.16252802312374115 0.2698713541030884 -0.434522807598114 -1.5328520332417766e-23 -2.2833068530186924e-27 1 True False
10238.591 4.6793107986450195 -1.4186082047275086 1.8277376333819788 -1.9795495472350062 -1.570829216633932 1.537746787071228 -5.282121492200531e-05 0.1950480192899704 0.30905312299728394 -0.5008841156959534 -2.328958047707846e-42 -0.0 1 True False
10238.641 4.679339408874512 -1.4084810328534623 1.844191853200094 -2.006693502465719 -1.570772949849264 1.5377379655838013 -3.0828566215145976e-44 0.21653717756271362 0.36138829588890076 -0.5678966045379639 -0.0 -0.0 1 True False
10238.690999999999 4.679363250732422 -1.398067594771721 1.8615925947772425 -2.0341302357115687 -1.570829216633932 1.5376962423324585 5.3794672567164525e-05 0.1916799247264862 0.3159548044204712 -0.5233959555625916 -0.0 -0.0 1 True False
10238.741 4.679335117340088 -1.3890527796796341 1.8764203230487269 -2.0581876240172328 -1.5708048979388636 1.5377094745635986 0.0 0.17112386226654053 0.28273341059684753 -0.44565311074256897 -0.0 -0.0 1 True False
10238.791 4.679323196411133 -1.3813498479178925 1.8893960157977503 -2.07879700283193 -1.5708048979388636 1.5376931428909302 0.0 0.14339038729667664 0.23362861573696136 -0.3827495872974396 -0.0 -0.0 1 True False
10238.841 4.679266452789307 -1.3748744738153 1.8997505346881312 -2.0959540806212367 -1.5708373228656214 1.5377172231674194 0.0 0.11461673676967621 0.19535581767559052 -0.30258458852767944 -0.0 -0.0 1 True False
10238.891 4.679301738739014 -1.3697796922973176 1.9083541075335901 -2.1094442806639613 -1.5707891623126429 1.537733554840088 0.0 0.0877874568104744 0.14802905917167664 -0.2375926822423935 -0.0 -0.0 1 True False
10238.940999999999 4.6793084144592285 -1.3659904462150116 1.914910141621725 -2.11956848720693 -1.5708087126361292 1.5377304553985596 0.0 0.06539449840784073 0.10579564422369003 -0.1617240160703659 -0.0 4.5272008719621226e-05 1 True False
10238.991 4.679215431213379 -1.36355812967334 1.9188459555255335 -2.12623991588735 -1.5707805792437952 1.537746787071228 0.0 0.03616565093398094 0.056200504302978516 -0.09470308572053909 -0.0 5.2275924476404695e-21 1 True False
10239.041 4.679360389709473 -1.3623456370881577 1.920868221913473 -2.129209657708639 -1.5708168188678187 1.5377172231674194 0.0 0.0102205416187644 0.017754778265953064 -0.02796654962003231 -0.0 7.940723994804798e-40 1 True False
10239.091 4.679323196411133 -1.3622988027385254 1.9208949247943323 -2.129472871819967 -1.5707724730121058 1.537713885307312 0.0 0.0002912321069743484 -6.17503231288391e-18 -0.0001341701135970652 -0.0 0.0 1 True False
10239.141 4.679318904876709 -1.3623314511827012 1.9209635893451136 -2.1294404468932093 -1.5707686583148401 1.537681221961975 0.0 0.0002155699476134032 -0.0 -0.0006624834495596588 -0.0 0.0 1 True False
10239.190999999999 4.67927360534668 -1.3622703415206452 1.9209759871112269 -2.129448553124899 -1.5708325544940394 1.5376516580581665 0.0 0.00017630965157877654 -0.0 -0.0008695839205756783 -0.0 0.0 1 True False
10239.241 4.679315090179443 -1.3622747224620362 1.9209678808795374 -2.129483839074606 -1.5708048979388636 1.5377392768859863 0.0 0.0003294477064628154 0.0001476551260566339 -0.00115275289863348 -0.0 0.0 1 True False
10239.291 4.679348468780518 -1.3622821432403107 1.9210246245013636 -2.1295443973936976 -1.570768181477682 1.5377172231674194 0.0 0.0001461866922909394 0.00013120569929014891 -0.0005133592640049756 -0.0 0.0 1 True False
10239.341 4.679268836975098 -1.3622866582921525 1.921016041432516 -2.1295281849303187 -1.570829216633932 1.5377049446105957 0.0 0.00014052601181901991 0.00010173643386224285 -0.0001637629175093025 -0.0 0.0 1 True False
10239.391 4.679306507110596 -1.3622879099896927 1.9209912459002894 -2.1295649013915003 -1.5708168188678187 1.5376962423324585 0.0 0.00012460991274565458 9.099677845370024e-05 -9.929141378961504e-05 -0.0 0.0 1 True False
10239.440999999999 4.679301738739014 -1.3622966569713135 1.9210074583636683 -2.1295768223204554 -1.5707405249225062 1.5377379655838013 1.897472284098744e-31 9.219306957675144e-05 7.386135257547721e-05 -6.802153075113893e-05 -0.0 0.0 1 True False
10239.491 4.679264545440674 -1.362259716992714 1.9210355917560022 -2.129500528375143 -1.570829216633932 1.5377261638641357 0.0 2.0552157198316934e-10 6.289179873419926e-05 -1.7296623482378442e-15 -0.0 0.0 1 True False
10239.541 4.679264545440674 -1.36225979149852 1.9209793249713343 -2.1295000515379847 -1.5707767645465296 1.5377006530761719 0.0 0.0 5.973643065884414e-29 -2.6273616580247993e-34 -0.0 0.0 1 True False
10239.591 4.679253101348877 -1.362267167573311 1.9209955374347132 -2.1295768223204554 -1.570824925099508 1.537667989730835 0.0 0.0 3.506630673655309e-05 -0.0 -0.0 0.0 1 True False
10239.641 4.679335117340088 -1.3623011422208329 1.9210074583636683 -2.1295649013915003 -1.5707929770099085 1.5376856327056885 0.0 0.0 7.009475261022423e-19 -0.0 -0.0 0.0 1 True False
10239.690999999999 4.679290294647217 -1.3622430723956604 1.9210084120379847 -2.1295319996275843 -1.5707925001727503 1.5377917289733887 0.0 -0.00011663863551802933 0.0 -1.238490542833601e-22 -0.0 0.0 1 True False
10239.741 4.679385662078857 -1.3622834545424958 1.921027962361471 -2.1295319996275843 -1.5707686583148401 1.5377172231674194 0.0 0.0 0.0 -1.881243188356067e-41 -0.0 0.0 1 True False
10239.791 4.679295063018799 -1.3621896219304581 1.9210203329669397 -2.1295486889281214 -1.5707805792437952 1.5377706289291382 0.0 0.0 0.0 -0.0 -0.0 0.0 1 True False
10239.841 4.679299354553223 -1.3622224789908906 1.920983616505758 -2.129508157769674 -1.5707405249225062 1.5376962423324585 0.0 0.0 0.0 -0.0 -0.0 0.0 1 True False
10239.891 4.679318904876709 -1.3622834545424958 1.9210074583636683 -2.1295324764647425 -1.570756737385885 1.537733554840088 0.0 0.0 0.0 -0.0 -0.0 0.0 1 True False
10239.940999999999 4.679315090179443 -1.3622342509082337 1.9210031668292444 -2.1295281849303187 -1.5708325544940394 1.5377498865127563 0.0 -4.7932567637243295e-11 -1.5151291776760445e-08 -0.004812223371118307 -1.7490217487647897e-06 6.862862210255116e-05 1 True False
10239.991 4.679348468780518 -1.362206132417061 1.9210518042193812 -2.129508157769674 -1.570853058491842 1.5376931428909302 0.0 0.0 -3.565257541494116e-38 -2.8241182008059695e-05 -1.4515006324840022e-21 -3.714360354933888e-05 1 True False
10240.041 4.679355621337891 -1.3622430574944993 1.9210193792926233 -2.1295319996275843 -1.570784870778219 1.5377379655838013 0.0 0.0 -0.0 -4.289841774240419e-24 -2.2048310297379537e-40 -1.8278933566762134e-05 1 True False
10240.091 4.679309844970703 -1.3622759890607377 1.9210236708270472 -2.1295772991576136 -1.5707929770099085 1.5377039909362793 0.0 0.0 -0.0 -6.516037859110399e-43 -0.0 -2.424613558105193e-05 1 True False
10240.141 4.679286956787109 -1.3621973109296341 1.9210880438434046 -2.1295281849303187 -1.5707767645465296 1.5377365350723267 0.0 -8.722548002875559e-31 -0.0 -0.0 -0.0 -3.3515011512580406e-12 1 False False
10240.190999999999 4.6792449951171875 -1.3622596722892304 1.9209912459002894 -2.1295649013915003 -1.5708454290973108 1.5377248525619507 0.0 0.0 -0.0 -0.0 -0.0 -3.378641830192716e-21 1 False False
10240.241 4.6793437004089355 -1.362250880604126 1.9209750334369105 -2.129536291162008 -1.5708211104022425 1.5377542972564697 0.0 0.0 -5.791449134498472e-13 -0.0 -0.0 -5.753291770815849e-05 1 False False
10240.291 4.6793036460876465 -1.3622716081193467 1.9210322538958948 -2.129508157769674 -1.5708168188678187 1.5377172231674194 0.0 0.0 -1.363463405788047e-42 -0.0 -0.0 -4.427288149599917e-05 1 False False
10240.341 4.679335117340088 -1.3622553211501618 1.9209955374347132 -2.129523893395895 -1.5708487669574183 1.537745475769043 0.0 0.0 -0.0 -0.0 -0.0 -4.112124952371232e-05 1 False False
10240.391 4.679319381713867 -1.3622703713229676 1.9210193792926233 -2.129556795159811 -1.5708006064044397 1.5377049446105957 0.0 0.0 -0.0 -0.0 -0.0 -1.936248918354977e-05 1 False False
10240.440999999999 4.679319381713867 -1.3622878950885315 1.9210313002215784 -2.1295772991576136 -1.5707724730121058 1.5377261638641357 0.0 0.0 -0.0 -0.0 -0.0 -2.9411657276293164e-24 1 False False
10240.491 4.679278373718262 -1.3622921419194718 1.920999828969137 -2.1295200786986292 -1.570784870778219 1.5377216339111328 0.0 -1.186303961773579e-31 -2.7011324986273993e-31 -0.0 -0.0 -4.4701421011961665e-43 1 False False
10240.541 4.679299354553223 -1.3622671228698273 1.9209912459002894 -2.1295606098570765 -1.5708048979388636 1.5377379655838013 0.0 0.0 -0.0 -0.0 -0.0 -0.0 1 False False
10240.591 4.679290771484375 -1.3622508657029648 1.9209702650653284 -2.12957300762319 -1.570784870778219 1.5377588272094727 0.0 0.0 -0.0 -0.0 -0.0 -0.0 1 False False
10240.641 4.679323196411133 -1.3622833651355286 1.9209864775287073 -2.1295281849303187 -1.5707810560809534 1.5377248525619507 0.0 -1.3449246580421459e-05 -0.0 -0.0 -0.0 -0.0 1 False False
10240.690999999999 4.6792826652526855 -1.3622909051230927 1.921039883290426 -2.1295486889281214 -1.5707886854754847 1.5377202033996582 0.0 0.0 -0.0 -0.0 -0.0 -0.0 1 False False
10240.741 4.6793107986450195 -1.3622670781663437 1.921027962361471 -2.129568716088766 -1.5708406607257288 1.5377084016799927 0.0 0.0 -0.0 -0.0 -0.0 -0.0 1 False False
10240.791 4.679278373718262 -1.3622224640897294 1.9210031668292444 -2.1295529804625453 -1.5707648436175745 1.5377172231674194 0.0 0.0 -2.348979344368729e-10 -0.0 -0.0 -0.0 1 False False
10240.841 4.679306507110596 -1.3622584503940125 1.9210074583636683 -2.1295200786986292 -1.5707772413836878 1.5377227067947388 0.0 -2.086230779241305e-05 -5.5273937665599544e-40 -0.0 4.9744030548026785e-05 1.9093114242418885e-11 1 False False
10240.891 4.6793437004089355 -1.3622180086425324 1.920983616505758 -2.1295930347838343 -1.5707882086383265 1.5376768112182617 0.0 2.3102273189579137e-05 -0.0 -0.0 4.173865090706386e-05 6.482268508989364e-05 1 False False
10240.940999999999 4.679339408874512 -1.3622703713229676 1.9210031668292444 -2.1295200786986292 -1.5707805792437952 1.537713885307312 0.0 1.4073425518290605e-05 -0.0 -0.0 2.6421437723911367e-05 1.971483698071097e-06 1 False False
10240.991 4.679306507110596 -1.3622596722892304 1.921016041432516 -2.129568716088766 -1.5708373228656214 1.5377469062805176 0.0 1.0118072168552317e-05 -0.0 -0.0 1.694958484677045e-07 2.9946875734658464e-25 1 False False
10241.041 4.679315090179443 -1.362226815228798 1.9210041205035608 -2.12957300762319 -1.5708211104022425 1.5377216339111328 0.0 0.0 -1.1998457921436056e-05 -0.0 2.5746457038614506e-26 4.484155085839415e-44 1 False False
10241.091 4.679312229156494 -1.3629956555417557 1.9198101202594202 -2.127627512017721 -1.5708006064044397 1.5376886129379272 0.0 -0.025471379980444908 -0.0474715530872345 0.07661794126033783 4.203895392974451e-45 0.0 1 False False
10241.141 4.679293632507324 -1.3649792236140748 1.9163191954242151 -2.121894498864645 -1.5707572142230433 1.537713885307312 0.0 -0.055506594479084015 -0.09315885603427887 0.15255039930343628 0.0 0.0 1 False False
10241.190999999999 4.679336071014404 -1.3684476029923935 1.9104698340045374 -2.112851758996481 -1.5707886854754847 1.5376842021942139 0.0 -0.08293918520212173 -0.13626337051391602 0.20230580866336823 0.0 2.61227649754614e-12 1 False False
10241.241 4.6793718338012695 -1.3731887352517624 1.9026849905597132 -2.100370069543356 -1.5708006064044397 1.5376871824264526 0.0 -0.10477310419082642 -0.17852500081062317 0.29553332924842834 0.0 3.968055154364553e-31 1 False False
10241.291 4.679295539855957 -1.3791990143111725 1.892785374318258 -2.08433260540151 -1.5708168188678187 1.5376590490341187 0.0 -0.1342363804578781 -0.22171929478645325 0.3485347628593445 0.0 7.696081593167037e-05 1 False False
10241.341 4.679299354553223 -1.3865251404098053 1.880580250416891 -2.0648566685118617 -1.5707929770099085 1.5377005338668823 8.990280127622039e-24 -0.1581672877073288 -0.2635130286216736 0.43525779247283936 0.0 2.2050597181078047e-05 1 False False
10241.391 4.679327487945557 -1.3951898974231263 1.8662198225604456 -2.0417853794493617 -1.5707810560809534 1.537712812423706 2.6603911464917473e-05 -0.18540924787521362 -0.3012934625148773 0.4893701374530792 0.0 1.8639536847331328e-07 1 False False
10241.440999999999 4.679339408874512 -1.4052248758128663 1.8496182600604456 -2.015331884423727 -1.5707767645465296 1.5377261638641357 1.5298393918783404e-05 -0.2100697159767151 -0.35317933559417725 0.5615347027778625 0.0 2.831350286884101e-26 1 False False
10241.491 4.679330825805664 -1.4156484317830582 1.8324158827411097 -1.9874378643431605 -1.5707648436175745 1.5377588272094727 1.0736083822848741e-05 -0.19231675565242767 -0.32717448472976685 0.5315371155738831 0.0 4.203895392974451e-45 1 False False
10241.641 4.679364204406738 -1.4394293439439316 1.7930262724505823 -1.9243227444090785 -1.5707967917071741 1.5377216339111328 0.0 -0.11624173074960709 -0.19943757355213165 0.3171721398830414 0.0 0.0 1 False False
10241.690999999999 4.679335117340088 -1.444644035106041 1.784149471913473 -1.9103576145567835 -1.5707967917071741 1.5377216339111328 0.0 -0.09388083219528198 -0.15479594469070435 0.24550209939479828 0.0 0.0 1 False False
10241.741 4.679299354553223 -1.4485201326063653 1.7775667349444788 -1.8996249637999476 -1.5707929770099085 1.5377588272094727 0.0 -0.06679550558328629 -0.11141374707221985 0.18155944347381592 0.0 0.0 1 False False
10241.791 4.679335117340088 -1.451268957262375 1.7731831709491175 -1.8925086460509242 -1.5707481543170374 1.5377037525177002 0.0 -0.040572233498096466 -0.0672265887260437 0.1070844978094101 0.0 0.0 1 False False
10241.841 4.6793107986450195 -1.4525997054627915 1.7708762327777308 -1.889104505578512 -1.5707929770099085 1.5377379655838013 0.0 -0.014275926165282726 -0.024006443098187447 0.03429259732365608 0.0 0.0 1 False False
10241.891 4.679315090179443 -1.4527428907207032 1.7706440130816858 -1.8886224232115687 -1.5708006064044397 1.5377633571624756 0.0 1.6211820131114982e-21 1.6952759551713825e-06 -0.0005727385869249701 0.0 0.0 1 False False
10241.940999999999 4.67927360534668 -1.4527111586979409 1.7707226912127894 -1.8886181316771449 -1.5707967917071741 1.5377202033996582 0.0 0.0 3.989163555209876e-36 -5.059835530119017e-05 0.0 0.0 1 False False
10241.991 4.6793060302734375 -1.45273012042556 1.7706568876849573 -1.8885942898192347 -1.5708168188678187 1.5377633571624756 0.0 -0.00035548926098272204 -0.0004473799199331552 8.538192923879251e-05 0.0 -3.984850618490095e-16 1 False False
10242.041 4.6793107986450195 -1.4528069657138367 1.7706096808062952 -1.8885299168028773 -1.5707362333880823 1.5377216339111328 0.0 -0.0004916897742077708 -0.000488167570438236 0.001225302810780704 0.0 7.49610199647219e-19 1 False False
10242.091 4.679323196411133 -1.4527661514333268 1.7705562750445765 -1.888517519036764 -1.570829216633932 1.5377094745635986 0.0 -0.0002630255476105958 -0.00018956007261294872 0.00028722203569486737 0.0 1.138659595181291e-37 1 False False
10242.141 4.679323196411133 -1.4528027337840577 1.770564381276266 -1.8885218105711878 -1.5708091894732874 1.5377379655838013 0.0 -0.00010692526120692492 -0.000129540785565041 0.00017730788385961205 0.0 0.0 1 False False
10242.190999999999 4.679315090179443 -1.452848145072796 1.770576302205221 -1.8884936771788539 -1.5708168188678187 1.5377514362335205 0.0 -8.049466123338789e-05 -0.00010796839342219755 0.00012467037595342845 0.0 0.0 1 False False
10242.241 4.679360389709473 -1.4528188866427918 1.7705562750445765 -1.8885218105711878 -1.570784870778219 1.5377126932144165 0.0 -7.656965550495443e-08 -6.863153976155445e-05 9.551335097057745e-05 0.0 0.0 1 False False
10242.291 4.679315090179443 -1.4528027188828965 1.7705343405352991 -1.8885299168028773 -1.570801083241598 1.5377349853515625 0.0 0.0 -4.96867869514972e-05 2.365221516906213e-12 0.0 0.0 1 False False
10242.341 4.679327964782715 -1.452769623403885 1.770564381276266 -1.888517519036764 -1.5708335081683558 1.5377424955368042 0.0 -1.4419963756242027e-39 -1.1691829563488296e-34 3.5927776424690572e-31 0.0 0.0 1 False False
10242.391 4.6793036460876465 -1.4527619120529671 1.7705519835101526 -1.8884936771788539 -1.5707805792437952 1.5377395153045654 0.0 0.0 -0.0 0.0 0.0 0.0 1 False False
10242.440999999999 4.679290294647217 -1.4528634038618584 1.7705476919757288 -1.8885060749449671 -1.5708091894732874 1.5376886129379272 0.0 0.0 -0.0 0.0 0.0 0.0 1 False False
10242.491 4.679344177246094 -1.4528230813196679 1.770564381276266 -1.8885542354979457 -1.5707605520831507 1.5377094745635986 0.0 0.0 -0.0 0.0 0.0 0.0 1 False False
10242.541 4.679290294647217 -1.452838734989502 1.7705805937396448 -1.888538499871725 -1.5707805792437952 1.5377216339111328 0.0 0.0 -0.0 0.0 0.0 0.0 1 False False
10242.591 4.679318904876709 -1.452823096220829 1.770564381276266 -1.8884936771788539 -1.570857350026266 1.5377216339111328 0.0 0.0 -4.4227050305736555e-15 0.0 0.0 0.0 1 False False
10242.641 4.679248809814453 -1.4528103408268471 1.770531956349508 -1.8885299168028773 -1.5708254019366663 1.5376931428909302 0.0 0.0 7.549834215577152e-25 0.0 0.0 0.0 1 False False
10242.690999999999 4.679292678833008 -1.4527985018542786 1.770515267048971 -1.8884898624815882 -1.570801083241598 1.5377216339111328 0.0 0.0 0.0 0.0 0.0 0.0 1 False False
10242.741 4.679281234741211 -1.452806108897068 1.7705772558795374 -1.8884898624815882 -1.570784870778219 1.537784218788147 0.0 0.0 0.0 0.0 0.0 0.0 1 False False
10242.791 4.679286956787109 -1.4528061163476487 1.7705519835101526 -1.8885513744749964 -1.570784870778219 1.5376721620559692 0.0 0.0 0.0 0.0 0.0 0.0 1 False False
10242.841 4.679281234741211 -1.4528231409243126 1.770560089741842 -1.888510366479391 -1.5707886854754847 1.5377049446105957 0.0 0.0 0.0 0.0 0.0 0.0 1 False False
10242.891 4.679323196411133 -1.4528472584537049 1.7706134955035608 -1.888566633264059 -1.5707529226886194 1.537691593170166 0.0 0.0 0.0 0.0 0.0 0.0 1 False False
10242.940999999999 4.679295063018799 -1.4528273057988663 1.7705405394183558 -1.888494154016012 -1.5707805792437952 1.5377410650253296 0.0 0.0 0.0 0.0 0.0 0.0 1 False False
10242.991 4.679295063018799 -1.452806980614998 1.7705519835101526 -1.888517519036764 -1.5708087126361292 1.5377172231674194 0.0 0.0 0.0 0.0 0.0 0.0 1 False False
10243.041 4.679286003112793 -1.4527985167554398 1.7705233732806605 -1.8885146580138148 -1.5708087126361292 1.5377246141433716 0.0 0.0 0.0 0.0 0.0 0.0 1 False False
10243.091 4.679299354553223 -1.4528633442572136 1.7705891768084925 -1.8885017834105433 -1.5707967917071741 1.5377261638641357 0.0 0.0 0.0 0.0 0.0 0.0 1 False False
10243.141 4.679295063018799 -1.452831120496132 1.7705848852740687 -1.8885418377318324 -1.5707886854754847 1.5377200841903687 0.0 0.0 0.0 0.0 0.0 0.0 1 False False
10243.190999999999 4.67929744720459 -1.4528027337840577 1.770536247883932 -1.8885427914061488 -1.5707724730121058 1.5376960039138794 0.0 0.0 0.0 0.0 0.0 0.0 1 False False
10243.241 4.679327964782715 -1.4528188866427918 1.7705476919757288 -1.88848938564443 -1.570813004170553 1.5377126932144165 0.0 0.0 0.0 0.0 0.0 0.0 1 False False
10243.291 4.6793413162231445 -1.4528590974262734 1.7705476919757288 -1.8885499439635218 -1.5707925001727503 1.5377261638641357 0.0 0.0 0.0 0.0 0.0 0.0 1 False False
10243.341 4.6793060302734375 -1.4527985018542786 1.770576302205221 -1.8885137043394984 -1.5707529226886194 1.537679672241211 0.0 0.0 0.0 0.0 0.0 0.0 1 False False
10243.391 4.679292678833008 -1.4527908128551026 1.770560089741842 -1.8884860477843226 -1.5707443396197718 1.537733554840088 0.0 0.0 0.0 0.0 0.0 0.0 1 False False
10243.440999999999 4.679301738739014 -1.452806980614998 1.7705147902118128 -1.888590475121969 -1.5707843939410608 1.5377470254898071 4.82582091088081e-18 0.0 0.0 0.0 0.0 0.0 1 False False
10243.491 4.679290294647217 -1.4527780798128624 1.770564381276266 -1.8884860477843226 -1.5707724730121058 1.5377753973007202 0.0 0.0 0.0 0.0 0.0 0.0 1 False False
10243.541 4.679323196411133 -1.4528598946383973 1.7705476919757288 -1.8885461292662562 -1.5708087126361292 1.5377172231674194 0.0 0.0 0.0 0.0 0.0 0.0 1 True False
10243.591 4.6793060302734375 -1.4528069657138367 1.7705476919757288 -1.8885342083373011 -1.5708487669574183 1.5377379655838013 0.0 0.0 0.0 0.0 0.0 0.0 1 True False
10243.641 4.679075717926025 -1.4528582331589242 1.7706096808062952 -1.888538499871725 -1.5707767645465296 1.5374655723571777 -0.016479825600981712 -0.004662238527089357 0.002419844036921859 0.0 0.0 -0.01756182126700878 1 True False
10243.690999999999 4.677999019622803 -1.4533739399961014 1.771003548298971 -1.8885547123351039 -1.570784870778219 1.5363506078720093 -0.03128225356340408 -0.014802522026002407 0.01511900033801794 1.207460920007786e-22 0.0 -0.031753696501255035 1 True False
10243.741 4.675307273864746 -1.4544418838671227 1.7722223440753382 -1.8886658153929652 -1.570801083241598 1.5337060689926147 -0.07088368386030197 -0.029122479259967804 0.033263761550188065 -0.004307759925723076 0.0 -0.07122565805912018 1 True False
10243.791 4.670240879058838 -1.456469402914383 1.7744296232806605 -1.8889371357359828 -1.5707605520831507 1.528687596321106 -0.13013722002506256 -0.051224447786808014 0.06012736260890961 -0.008213776163756847 0.0 -0.1283666342496872 1 True False
10243.841 4.6619110107421875 -1.4598071438125153 1.7782719771014612 -1.8893410168089808 -1.5707891623126429 1.5203857421875 -0.20870797336101532 -0.08416498452425003 0.093291275203228 -0.010665003210306168 0.0 -0.20720691978931427 1 True False
10243.891 4.649380207061768 -1.464932182138302 1.784060303364889 -1.8898149929442347 -1.570801083241598 1.5078448057174683 -0.2880767285823822 -0.11557123810052872 0.13240228593349457 -0.008703477680683136 -0.00010196548100793734 -0.28978145122528076 1 True False
10243.940999999999 4.633151531219482 -1.4715240237167855 1.7913788000689905 -1.8905660114684046 -1.5708492437945765 1.4915069341659546 -0.3560904562473297 -0.14140474796295166 0.15748724341392517 -0.014155860990285873 -9.422865332453512e-07 -0.35057440400123596 1 True False
10243.991 4.613419532775879 -1.4793981474689026 1.8000052610980433 -1.8914362392821253 -1.5707648436175745 1.4718962907791138 -0.42188596725463867 -0.17060025036334991 0.18842081725597382 -0.01937081292271614 -1.4313351109314564e-25 -0.4294070899486542 1 True False
10244.041 4.594487190246582 -1.4870872509530564 1.8087018171893519 -1.892222066918844 -1.5708335081683558 1.452809453010559 -0.35122352838516235 -0.1426663100719452 0.15633708238601685 -0.01391307357698679 0.0009007373591884971 -0.35133785009384155 1 True False
10244.091 4.578645706176758 -1.4934266072562714 1.8155773321734827 -1.893052717248434 -1.5708406607257288 1.4370572566986084 -0.2764875888824463 -0.11222907155752182 0.1298840194940567 -0.012812014669179916 0.0003229179128538817 -0.27791279554367065 1 True False
10244.141 4.566607475280762 -1.4983718183687706 1.8211892286883753 -1.8935390911498011 -1.5708377997027796 1.4249008893966675 -0.21380755305290222 -0.0856887549161911 0.0893806517124176 -0.010911377146840096 1.061345889646903e-12 -0.21292360126972198 1 True False
10244.190999999999 4.5577569007873535 -1.5018663492849846 1.8251574675189417 -1.8938991032042445 -1.5708168188678187 1.4161503314971924 -0.1415989249944687 -0.0552833154797554 0.06298677623271942 -0.004890309181064367 1.6121862703731044e-31 -0.14149419963359833 1 True False
10244.241 4.552526473999023 -1.5039429527572175 1.8273099104510706 -1.8941904507079066 -1.5707886854754847 1.4108836650848389 -0.06916973739862442 -0.027977272868156433 0.030621439218521118 -0.003969603218138218 7.709163764957339e-05 -0.07079049199819565 1 True False
10244.291 4.550876140594482 -1.5046557200006028 1.828073803578512 -1.8941899738707484 -1.5708254019366663 1.4092738628387451 0.0016151631716638803 -5.832878014189191e-05 -0.0004565328417811543 -0.00045657571172341704 7.556418131571263e-05 -0.0010650805197656155 1 True False
10244.341 4.550876140594482 -1.5040813770941277 1.8292482534991663 -1.8962141476073207 -1.5708091894732874 1.409311056137085 -0.0009686114499345422 0.023372532799839973 0.04383055865764618 -0.061325885355472565 5.272570706438273e-05 -0.00035697928979061544 1 True False
10244.391 4.550856590270996 -1.5020587307265778 1.8325379530536097 -1.901252885858053 -1.5707843939410608 1.409245252609253 -0.000888813694473356 0.0534697100520134 0.08393995463848114 -0.1369156837463379 3.5118620900220776e-08 -0.0005798282800242305 1 True False
10244.440999999999 4.550892353057861 -1.4987155136517067 1.8379252592669886 -1.910058160821432 -1.570784870778219 1.4092261791229248 -0.0011700437171384692 0.08041654527187347 0.13303843140602112 -0.21402020752429962 5.334527811997252e-27 -0.0003487364447209984 1 True False
10244.491 4.550881862640381 -1.4940559950521966 1.8454321066485804 -1.922293325463766 -1.5707486311541956 1.4092497825622559 -0.0003909100778400898 0.10361484438180923 0.17135804891586304 -0.2707219123840332 1.401298464324817e-45 -0.00014179102436173707 1 True False
10244.541 4.550856590270996 -1.4880050358227273 1.8555129210101526 -1.9379445515074671 -1.5708487669574183 1.4092676639556885 -0.00019718742987606674 0.13062253594398499 0.21514631807804108 -0.34957703948020935 0.0 -0.00013766405754722655 1 True False
10244.591 4.550812244415283 -1.4808147636106987 1.8671281973468226 -1.9573255978026332 -1.570784870778219 1.4092708826065063 -7.006384095120666e-08 0.1612691432237625 0.26144012808799744 -0.4143206775188446 -7.705693133175373e-05 -9.36254218686372e-05 1 True False
10244.641 4.550869941711426 -1.4720641014030953 1.8813379446612757 -1.9799639187254847 -1.570813004170553 1.4092307090759277 0.0 0.18288791179656982 0.298904687166214 -0.4933170974254608 -6.474972178693861e-05 -5.7421610108576715e-05 1 True False
10244.690999999999 4.550844669342041 -1.4620930713466187 1.8975451628314417 -2.006160875360006 -1.5708044211017054 1.409217357635498 0.0 0.20712654292583466 0.3441822826862335 -0.5528600811958313 -2.2467176694644668e-18 -5.154406828688925e-18 1 True False
10244.741 4.550828456878662 -1.451319896881916 1.9153664747821253 -2.034593721429342 -1.5708168188678187 1.4092541933059692 0.0 0.20890682935714722 0.3489982783794403 -0.5483386516571045 -5.568628330365755e-05 -7.829553606643807e-37 1 True False
10244.791 4.550824165344238 -1.4416387391141434 1.9309361616717737 -2.0604058704771937 -1.5708449522601526 1.4092541933059692 0.0 0.1785281002521515 0.29219433665275574 -0.47676774859428406 -9.394942655472887e-19 -0.0 1 True False
10244.841 4.550840377807617 -1.4331836116364975 1.944636646901266 -2.0822159252562464 -1.5707967917071741 1.4091886281967163 0.0 0.14883187413215637 0.2481580674648285 -0.4089535176753998 -1.427093342248354e-37 -0.0 1 True False
10244.891 4.550841331481934 -1.4261359584382554 1.9561999479876917 -2.100853582421774 -1.5708416144000452 1.4092381000518799 0.0 0.1287086457014084 0.20946264266967773 -0.33759233355522156 -0.0 -0.0 1 True False
10244.940999999999 4.550844669342041 -1.4204803121140976 1.9655445257769983 -2.115908285180563 -1.5708044211017054 1.4092962741851807 0.0 0.10345339775085449 0.1698220819234848 -0.25604233145713806 -0.0 -7.117353581498342e-13 1 True False
10244.991 4.550865173339844 -1.4159507614425202 1.9727256933795374 -2.127594133416647 -1.5707562605487269 1.4092541933059692 0.0 0.07693751156330109 0.121864452958107 -0.18745048344135284 -0.0 -1.0811277802281057e-31 1 True False
10245.041 4.550836086273193 -1.4129057091525574 1.9779208342181605 -2.1357227764525355 -1.5708044211017054 1.4092082977294922 0.0 0.049037281423807144 0.07571803778409958 -0.12223906815052032 -0.0 -0.0 1 True False
10245.091 4.550828456878662 -1.4111423951438447 1.9807136694537562 -2.140365263024801 -1.5707805792437952 1.4092352390289307 0.0 0.02202221006155014 0.03603365272283554 -0.05662206932902336 -0.0 -0.0 1 True False
10245.141 4.550844669342041 -1.4106974017671128 1.9813969771014612 -2.14141907314443 -1.5707967917071741 1.4092752933502197 0.0 -0.0003903523611370474 -0.00031446767388843 0.0027065484318882227 -0.0 -0.0 1 True False
10245.190999999999 4.550812244415283 -1.4107508075288315 1.9814417997943323 -2.1414391003050746 -1.5708373228656214 1.4092381000518799 0.0 0.00018051915685646236 -7.152132348115224e-21 5.293977730765685e-21 -0.0 -0.0 1 True False
10245.241 4.5508575439453125 -1.410684348349907 1.981401268635885 -2.1414548359312953 -1.5707724730121058 1.4092381000518799 0.0 0.00017076254880521446 -0.0 -0.00041594586218707263 -0.0 -0.0 1 True False
10245.291 4.550865173339844 -1.410726622944214 1.981417481099264 -2.14152254680776 -1.5708373228656214 1.4092307090759277 0.0 0.00028695748187601566 7.362604810623452e-05 -0.0017437320202589035 -0.0 -0.0 1 True False
10245.341 4.550775527954102 -1.410776899462082 1.9814208189593714 -2.1415311298766078 -1.5707805792437952 1.40920090675354 0.0 0.0001848775864345953 7.315407128771767e-05 -0.0002829250879585743 -0.0 -0.0 1 True False
10245.391 4.55083703994751 -1.4107353252223511 1.9814742247210901 -2.1415187321104945 -1.5708373228656214 1.409256100654602 0.0 0.0001592964690644294 7.175856444519013e-05 -0.00016923285147640854 -0.0 -0.0 1 True False
10245.440999999999 4.550791263580322 -1.4106776130250473 1.9814165274249476 -2.1415826282896937 -1.5708048979388636 1.4091886281967163 8.174905556364385e-17 0.00010228573955828324 6.156829476822168e-05 -8.976103708846495e-05 -0.0 1.6882680142771278e-07 1 True False
10245.491 4.550865173339844 -1.4106657218984147 1.9814165274249476 -2.141566892663473 -1.5707724730121058 1.4092216491699219 0.0 -3.2183471443403278e-09 2.550990131679921e-31 -5.989214332657866e-05 -0.0 2.5644831108053036e-26 1 True False
10245.541 4.550812721252441 -1.4107028555921097 1.9814417997943323 -2.1414858303465785 -1.5707486311541956 1.4092541933059692 0.0 0.0 5.735269223805517e-05 -2.2798976248572522e-12 -0.0 4.203895392974451e-45 1 True False
10245.591 4.550804138183594 -1.4107146871140976 1.981457535420553 -2.1415306530394496 -1.570772949849264 1.4092051982879639 0.0 0.0 2.0500482409996246e-20 -3.4631697512372233e-31 -0.0 0.0 1 True False
10245.641 4.550853252410889 -1.4107114535621186 1.981506649647848 -2.14152254680776 -1.5708048979388636 1.4092038869857788 0.0 0.0 0.0 -0.0 -0.0 0.0 1 True False
10245.690999999999 4.550807952880859 -1.410681964164116 1.981490437184469 -2.1415144405760707 -1.5707767645465296 1.4092798233032227 0.0 0.0 0.0 -0.0 -0.0 0.0 1 True False
10245.741 4.550828456878662 -1.410694183116295 1.9814417997943323 -2.141494413415426 -1.570829216633932 1.4092352390289307 0.0 0.0 0.0 -0.0 -0.0 0.0 1 True False
10245.791 4.550840377807617 -1.4106417161277314 1.9814532438861292 -2.1415020428099574 -1.5708044211017054 1.4092200994491577 1.204793406153152e-15 0.0 0.0 -0.0 -0.0 0.0 1 True False
10245.841 4.550775527954102 -1.410686345105507 1.9814775625811976 -2.1415144405760707 -1.5707925001727503 1.4092470407485962 0.0 0.0 0.0 -0.0 -0.0 0.0 1 True False
10245.891 4.550807952880859 -1.4107158345035096 1.9814532438861292 -2.1415187321104945 -1.5707967917071741 1.4092799425125122 0.0 0.0 0.0 -0.0 -0.0 0.0 1 True False
10245.940999999999 4.550786972045898 -1.4107395273498078 1.9814613501178187 -2.141482015649313 -1.5707767645465296 1.4092752933502197 0.0 0.0 5.278136261388511e-11 -0.0 -0.0 0.0 1 True False
10245.991 4.550795555114746 -1.4106244307807465 1.9814375082599085 -2.141554971734518 -1.5707767645465296 1.4092541933059692 0.0 0.0 -1.2644345570578253e-09 -0.0 -0.0 0.0 1 True False
10246.041 4.550841331481934 -1.4106624585441132 1.9815109411822718 -2.1415263615050257 -1.5708168188678187 1.4092530012130737 0.0 0.0 -3.920004942870037e-08 -0.005372774321585894 -0.0 4.8330213758163154e-05 1 True False
10246.091 4.550807952880859 -1.410649524336197 1.9815261999713343 -2.141534467736715 -1.5707605520831507 1.4092082977294922 0.0 1.7447567179308297e-41 -1.670934182129713e-07 1.0876640525960096e-19 -0.0 7.341371509092871e-24 1 True False
10246.141 4.550852298736572 -1.4106776428273697 1.9814656416522425 -2.141538759271139 -1.5708497206317347 1.4092082977294922 0.0 0.0 -8.145761967170984e-05 1.6521642403424103e-38 -0.0 1.1154335776025544e-42 1 True False
10246.190999999999 4.550849437713623 -1.4106830966523667 1.9814818541156214 -2.1415826282896937 -1.5708254019366663 1.4092798233032227 0.0 0.0 2.3905928173917346e-05 2.322456311583292e-17 -0.0 0.0 1 True False
10246.241 4.550812244415283 -1.4106863302043458 1.9814079443561 -2.1415826282896937 -1.5707247892962855 1.4092336893081665 0.0 -8.382968167912063e-33 9.520139492719224e-32 3.5278168195555946e-36 -0.0 0.0 1 False False
10246.291 4.550844669342041 -1.4106905472329636 1.9814613501178187 -2.1415826282896937 -1.5707967917071741 1.4092497825622559 0.0 0.0 0.0 3.0355398848769255e-05 -0.0 -1.8238300146615703e-20 1 False False
10246.341 4.550852298736572 -1.4106787902167817 1.9814775625811976 -2.141566892663473 -1.5707925001727503 1.4092754125595093 0.0 0.0 0.0 1.1122698582355006e-18 -0.0 -0.00010098761413246393 1 False False
10246.391 4.5508270263671875 -1.410681964164116 1.9814656416522425 -2.1415707073607386 -1.5708168188678187 1.4092336893081665 0.0 0.0 0.0 1.689540289554206e-37 -0.0 -1.1796160929498467e-15 1 False False
10246.440999999999 4.550840377807617 -1.4107035410455246 1.9815023581134241 -2.1415544948973597 -1.5708087126361292 1.4092754125595093 0.0 0.0 0.0 1.6322796000167727e-05 -0.0 -1.7918402476807317e-34 1 False False
10246.491 4.550836086273193 -1.4106657964042206 1.981490437184469 -2.1414739094176234 -1.5707767645465296 1.4092187881469727 0.0 -1.7006839270194973e-09 -0.0001381507609039545 1.0730749636422843e-05 -0.0 -0.0 1 False False
10246.741 4.55084753036499 -1.4106985044530411 1.9814208189593714 -2.141578813592428 -1.5708211104022425 1.4092363119125366 0.0 0.0 -1.857438221243221e-14 0.0 -0.0 -0.0 1 False False
10246.791 4.550853729248047 -1.4107233446887513 1.9814417997943323 -2.141538759271139 -1.5708168188678187 1.4092291593551636 0.0 0.0 -4.344025239406933e-44 0.0 -0.0 -6.785243037173972e-18 1 False False
10246.841 4.550824165344238 -1.4106830668500443 1.9814332167254847 -2.1415463886656703 -1.5707891623126429 1.4092631340026855 0.0 0.0 -0.0 0.0 -0.0 -1.0306802663040362e-36 1 False False
10246.891 4.550824165344238 -1.4107028555921097 1.9814289251910608 -2.1415311298766078 -1.570813004170553 1.4092261791229248 0.0 0.0 -3.275165363447741e-05 0.0 -0.0 -0.0 1 False False
10246.940999999999 4.550849437713623 -1.41069848955188 1.9814165274249476 -2.1415020428099574 -1.570829216633932 1.4092216491699219 0.0 0.0 -2.1268054852927143e-25 0.0 -0.0 0.0004007226962130517 1 False False
10246.991 4.550816535949707 -1.4106614601663132 1.9814980665790003 -2.1414901218810023 -1.5707686583148401 1.4092261791229248 0.0 0.0 -0.0 5.760237620222597e-09 -0.0 0.002063654363155365 1 False False
10247.041 4.550828456878662 -1.410702870493271 1.9814417997943323 -2.14152254680776 -1.5708044211017054 1.4092541933059692 0.0 0.0 -0.0 1.1793391512925772e-13 -0.0 -0.0005515720113180578 1 False False
10247.091 4.550819396972656 -1.410726622944214 1.9814460913287562 -2.1415587864317835 -1.5708335081683558 1.4092053174972534 0.0 0.0 -0.0 1.7914191543801985e-32 -0.0 -2.4203108267562e-11 1 False False
10247.141 4.550832748413086 -1.410813958649971 1.981201473866598 -2.141055246392721 -1.570813004170553 1.4092261791229248 0.0 -0.01381224486976862 -0.01883423887193203 0.02565693110227585 -0.0 -3.67645845219675e-30 1 False False
10247.190999999999 4.550873279571533 -1.4120199245265503 1.979119125996725 -2.13771977047109 -1.570813004170553 1.4092708826065063 0.0 -0.03833019733428955 -0.062347400933504105 0.09995914995670319 -0.0 -0.0 1 False False
10247.241 4.550815105438232 -1.4146646720222016 1.974814240132467 -2.1307794056334437 -1.5707281271563929 1.409245252609253 0.0 -0.06581706553697586 -0.11234933882951736 0.16637174785137177 -0.0 -0.0 1 False False
10247.291 4.550844669342041 -1.4188361477902909 1.9681437651263636 -2.12017883876943 -1.5708211104022425 1.4092470407485962 0.0 -0.09149745851755142 -0.15068084001541138 0.24983513355255127 -0.0 -0.0 1 False False
10247.341 4.550819396972656 -1.4241153013757248 1.9595306555377405 -2.1062542400755824 -1.5707886854754847 1.4092381000518799 0.0 -0.12220878154039383 -0.1966516226530075 0.3210572302341461 -0.0 -0.0 1 False False
10247.391 4.550824165344238 -1.4306494307569046 1.9488433043109339 -2.088879724542135 -1.5708168188678187 1.4092217683792114 0.0 -0.14531727135181427 -0.22835038602352142 0.3718348443508148 -0.0 -0.0 1 False False
10247.440999999999 4.550840377807617 -1.4387724858573456 1.9357894102679651 -2.0680514774718226 -1.5708172957049769 1.4092708826065063 0.0 -0.17045806348323822 -0.2776367962360382 0.45279020071029663 -0.0 -0.0 1 False False
10247.491 4.550790786743164 -1.4479636710933228 1.9207423369037073 -2.043591161767477 -1.5708406607257288 1.4092142581939697 0.0 -0.19781428575515747 -0.3208220899105072 0.5210128426551819 -0.0 -0.0 1 False False
10247.541 4.550825595855713 -1.4584779527834435 1.9032037893878382 -2.0155841312804164 -1.570784870778219 1.4092515707015991 0.0 -0.22306381165981293 -0.3628166615962982 0.5909557342529297 -0.0 -0.0 1 False False
10247.591 4.550846576690674 -1.4689499375275155 1.8866446653949183 -1.9881793461241664 -1.5708211104022425 1.4092754125595093 0.0 -0.19430570304393768 -0.3084167540073395 0.5203976035118103 -0.0 -0.0 1 False False
10247.641 4.550832748413086 -1.478158490066864 1.871612850819723 -1.964424272576803 -1.570801083241598 1.4092128276824951 0.0 -0.16791562736034393 -0.2730146646499634 0.44103777408599854 -0.0 -0.0 1 False False
10247.690999999999 4.550807476043701 -1.4857508701137085 1.8591211477862757 -1.9441601238646449 -1.5707925001727503 1.4092381000518799 0.0 -0.14277534186840057 -0.23263873159885406 0.3646738529205322 -0.0 -0.0 1 False False
10247.741 4.5508270263671875 -1.492141270344593 1.8486231009112757 -1.927110334435934 -1.5708087126361292 1.4092587232589722 0.0 -0.11357460170984268 -0.1913696825504303 0.3142837584018707 -0.0 -0.0 1 False False
10247.791 4.550812244415283 -1.4972687524608155 1.840297047291891 -1.9137526951231898 -1.5707691351519983 1.4093008041381836 0.0 -0.0844963863492012 -0.14581650495529175 0.24322766065597534 -0.0 -0.0 1 False False
10247.841 4.550861358642578 -1.5010861542871972 1.834186855946676 -1.9037867985167445 -1.5707810560809534 1.4092187881469727 0.0 -0.062298670411109924 -0.10614079982042313 0.16185173392295837 -0.0 -0.0 1 False False
10247.891 4.550795078277588 -1.5034660634449502 1.8303211371051233 -1.8973733387389125 -1.5708048979388636 1.4092128276824951 0.0 -0.034688618034124374 -0.060698896646499634 0.08906968683004379 -0.0 -0.0 1 False False
10247.940999999999 4.550774574279785 -1.50466941416774 1.8283031622516077 -1.8944298229613246 -1.5708206335650843 1.4092541933059692 0.0 -0.00984647125005722 -0.014485685154795647 0.03206006810069084 -0.0 -0.0 1 False False
10247.991 4.550828456878662 -1.5046099436334153 1.8282759825335901 -1.8941580257811488 -1.570784870778219 1.4092010259628296 0.0 2.619173506005017e-30 7.025120219086128e-20 -0.00041341769974678755 -0.0 -0.0 1 False False
10248.041 4.550853729248047 -1.5046065536192437 1.828214470540182 -1.8942142925658167 -1.5707967917071741 1.4092142581939697 0.0 -0.00013852478878106922 -9.795856749406084e-05 -0.0007993176113814116 -0.0 -0.0 1 False False
10248.091 4.550836086273193 -1.5046232652715226 1.8281696478473108 -1.894233842889303 -1.5708254019366663 1.4091930389404297 0.0 -0.00023182200675364584 -0.000255091639701277 -0.0005869771703146398 -0.0 -0.0 1 False False
10248.141 4.550889492034912 -1.5046590504101296 1.828240219746725 -1.8942457638182582 -1.570824925099508 1.4092053174972534 0.0 -0.0007857296150177717 -0.0004917701589874923 -0.0003044725162908435 -0.0 -0.0 1 False False
10248.190999999999 4.550819396972656 -1.5046395745924492 1.8281648794757288 -1.8942414722838343 -1.5708006064044397 1.4092097282409668 0.0 -0.00017301070329267532 -0.0003752658667508513 -0.0001363285118713975 -0.0 -0.0 1 False False
10248.241 4.550795078277588 -1.5046262604049225 1.8281996885882776 -1.8943096599974574 -1.5708168188678187 1.4092381000518799 0.0 -0.00016628907178528607 -0.00026928208535537124 -9.750505705596879e-05 -0.0 -0.0 1 False False
10248.291 4.550858497619629 -1.5046262231520195 1.8281710783587855 -1.894261976281637 -1.5707967917071741 1.4092217683792114 0.0 -0.00012227252591401339 -0.00014173252566251904 -8.034546772250906e-05 -0.0 -0.0 1 False False
10248.341 4.550820827484131 -1.504678600733616 1.8281548658954065 -1.894261976281637 -1.5707925001727503 1.409196376800537 0.0 -8.737476309761405e-05 -0.00010200009273830801 -4.440720494264348e-23 -0.0 -0.0 1 False False
10248.391 4.550824165344238 -1.504678637986519 1.8281381765948694 -1.8942376575865687 -1.5707886854754847 1.4092381000518799 0.0 -5.0962356908712536e-05 -1.4469485609680532e-09 -6.74585080725967e-42 -0.0 -0.0 1 False False
10248.440999999999 4.550844669342041 -1.504707009797432 1.8281620184527796 -1.8942543468871058 -1.5707572142230433 1.4092497825622559 0.0 -4.616461956175044e-05 -3.404821759274796e-39 -0.0 -0.0 -0.0 1 False False
10248.491 4.550836086273193 -1.5046802026084443 1.8281906286822718 -1.8942543468871058 -1.5708211104022425 1.4092291593551636 0.0 -9.277868085164467e-30 -0.0 -0.0 -0.0 -0.0 1 False False
10248.541 4.550848960876465 -1.5046500128558655 1.8281458059894007 -1.894313474694723 -1.570784870778219 1.409217357635498 0.0 -3.118560471193632e-06 -0.0 -0.0 -0.0 -0.0 1 False False
10248.591 4.550825595855713 -1.504692093735077 1.8281620184527796 -1.8942543468871058 -1.5708044211017054 1.409217357635498 0.0 0.0 -0.0 -0.0 -0.0 -0.0 1 False False
10248.641 4.550865650177002 -1.5046830934337159 1.8281081358539026 -1.8942419491209925 -1.5707686583148401 1.4092216491699219 0.0 0.0 -0.0 -0.0 -0.0 -0.0 1 False False
10248.690999999999 4.550844669342041 -1.5046544534019013 1.8281710783587855 -1.894261976281637 -1.5707405249225062 1.4092216491699219 0.0 0.0 -0.0 -0.0 -0.0 -0.0 1 False False
10248.741 4.55085563659668 -1.5046336886337777 1.8281219641314905 -1.8942581615843714 -1.570824925099508 1.4092307090759277 0.0 0.0 -1.340074405908186e-24 -0.0 -0.0 -0.0 1 False False
10248.791 4.550812244415283 -1.5046742421439667 1.8281248251544397 -1.894261976281637 -1.5707810560809534 1.4092291593551636 0.0 0.0 -0.0 -0.0 -0.0 -0.0 1 False False
10248.841 4.550844669342041 -1.5046009209803124 1.8281367460833948 -1.8942705593504847 -1.5708006064044397 1.4092381000518799 0.0 0.0 -0.0 -0.0 -0.0 -0.0 1 False False
10248.891 4.550831317901611 -1.5047324907830735 1.8281548658954065 -1.8942538700499476 -1.5708444754229944 1.4092425107955933 0.0 0.0 -0.0 -0.0 -0.0 -0.0 1 False False
10248.940999999999 4.550852298736572 -1.5046816033175965 1.8281739393817347 -1.8942581615843714 -1.570784870778219 1.4092291593551636 0.0 0.0 -0.0 -0.0 -0.0 -0.0 1 False False
10248.991 4.550840377807617 -1.5046544534019013 1.8281620184527796 -1.8942738972105921 -1.5707491079913538 1.4092216491699219 0.0 0.0 -0.0 -0.0 -0.0 -0.0 1 False False
