Andreas691667/Digital_Twin_UR/src/robot_connection_manager/robot_output/vis_robot_output.csv
timestamp actual_q_0 actual_q_1 actual_q_2 actual_q_3 actual_q_4 actual_q_5 actual_qd_0 actual_qd_1 actual_qd_2 actual_qd_3 actual_qd_4 actual_qd_5 safety_status output_bit_register_65 output_bit_register_66
12591.637999999999 3.7121236324310303 -0.8254340452006836 0.8429630438434046 -1.5882498226561488 -1.5707967917071741 2.1413040161132812 0.0 0.0 0.0 -0.0 -0.0 0.0 1 False False
12591.688 3.712045669555664 -0.8254385751536866 0.8430007139789026 -1.5883094273009242 -1.5708211104022425 2.1412513256073 0.0 0.0 0.0 -0.0 -0.0 0.0 1 False False
12591.738 3.7120490074157715 -0.825482503776886 0.8429678122149866 -1.588252683679098 -1.5708254019366663 2.1413049697875977 0.0 0.0 0.0 -0.0 -0.0 0.0 1 False False
12591.787999999999 3.712087631225586 -0.8254459065249939 0.8429845015155237 -1.588292738000387 -1.570784870778219 2.1412723064422607 0.0 0.0 0.0 -0.0 -0.0 0.0 1 False False
12591.838 3.7120862007141113 -0.8254664105227967 0.8429930845843714 -1.588280817071432 -1.570784870778219 2.1412289142608643 0.0 0.0 0.0 -0.0 -0.0 0.0 1 False False
12591.887999999999 3.7120442390441895 -0.8255080145648499 0.8429763952838343 -1.5882774792113246 -1.5707805792437952 2.1412439346313477 0.0 0.0 0.0 -0.0 -0.0 0.0 1 False False
12591.938 3.7120862007141113 -0.8254217070392151 0.8429930845843714 -1.588297029534811 -1.570768181477682 2.1412930488586426 0.0 0.0 0.0 -0.0 -0.0 0.0 1 False False
12591.988 3.7120578289031982 -0.8255290550044556 0.842959229146139 -1.5882374248900355 -1.5708044211017054 2.141258716583252 0.0 0.0 0.0 -0.0 -0.0 0.0 1 False False
12592.037999999999 3.712033748626709 -0.8254261773875733 0.8429802099810999 -1.5882135830321253 -1.5708134810077112 2.1413087844848633 0.0 0.0 0.0 -0.0 -0.0 0.0 1 False False
12592.088 3.712066888809204 -0.8254587215236207 0.8429635206805628 -1.5883051357665003 -1.570813004170553 2.14127516746521 0.0 0.0 0.0 -0.0 -0.0 0.0 1 False False
12592.137999999999 3.712045669555664 -0.8255202335170289 0.8429520765887659 -1.588269372979635 -1.5707891623126429 2.141258955001831 0.0 0.0 0.0 -0.0 -0.0 0.0 1 False False
12592.188 3.7120862007141113 -0.8254751128009339 0.8430007139789026 -1.5882607899107875 -1.570784870778219 2.1412513256073 0.0 0.0 0.0 -0.0 -0.0 0.0 1 False False
12592.238 3.7120578289031982 -0.8254949015429993 0.8429887930499476 -1.5882846317686976 -1.5707643667804163 2.14127516746521 0.0 0.0 0.0 -0.0 -0.0 0.0 1 False False
12592.287999999999 3.7120609283447266 -0.8255039018443604 0.8429721037494105 -1.5883251629271449 -1.5708168188678187 2.1413040161132812 0.0 0.0 0.0 -0.0 -0.0 0.0 1 False False
12592.338 3.712062358856201 -0.8254993122867127 0.8430417219745081 -1.5882374248900355 -1.570813004170553 2.141313076019287 0.0 0.0 0.0 -0.0 -0.0 0.0 1 False False
12592.387999999999 3.7120981216430664 -0.825466052894928 0.8430255095111292 -1.5882774792113246 -1.570801083241598 2.141263246536255 0.0 0.0 0.0 -0.0 -0.0 0.0 1 False False
12592.438 3.7120862007141113 -0.8255202931216736 0.8429964224444788 -1.5882579288878382 -1.5707486311541956 2.141254186630249 0.0 0.0 0.0 -0.0 -0.0 0.0 1 False False
12592.488 3.7120742797851562 -0.8255202931216736 0.8429721037494105 -1.5883251629271449 -1.5708048979388636 2.141205072402954 0.0 0.0 0.0 -0.0 -0.0 0.0 1 False False
12592.537999999999 3.7120652198791504 -0.8255246442607422 0.8429678122149866 -1.5883332691588343 -1.5708211104022425 2.141279697418213 0.0 0.0 0.0 -0.0 -0.0 0.0 1 False False
12592.588 3.712116003036499 -0.8254675430110474 0.8429635206805628 -1.588285585443014 -1.5707805792437952 2.1413354873657227 0.0 0.0 0.0 -0.0 -0.0 0.0 1 False False
12592.637999999999 3.712127923965454 -0.8254913848689576 0.842959229146139 -1.588320871392721 -1.5707805792437952 2.141266107559204 0.0 0.0 0.0 -0.0 -0.0 0.0 1 False False
12592.688 3.7120232582092285 -0.825463132267334 0.8429721037494105 -1.588269372979635 -1.5707925001727503 2.141324996948242 0.0 0.0 0.0 -0.0 -0.0 0.0 1 False False
12592.738 3.7121191024780273 -0.8254380387118836 0.8430288473712366 -1.5882650814452113 -1.5707967917071741 2.141267776489258 0.0 0.0 0.0 -0.0 -0.0 0.0 1 False False
12592.787999999999 3.712078809738159 -0.8254304689219971 0.8430288473712366 -1.5882607899107875 -1.5707886854754847 2.1413040161132812 0.0 0.0 0.0 -0.0 -0.0 0.0 1 False False
12592.838 3.7120862007141113 -0.825495795612671 0.842992130910055 -1.5882889233031214 -1.5708044211017054 2.14131760597229 0.0 0.0 0.0 -0.0 -0.0 0.0 1 False False
12592.887999999999 3.7120535373687744 -0.8255409163287659 0.843020264302389 -1.588269372979635 -1.570784870778219 2.141242504119873 0.0 0.0 0.0 -0.0 -0.0 0.0 1 False False
12592.938 3.7120578289031982 -0.8255365651896973 0.8429845015155237 -1.5882569752135218 -1.5708335081683558 2.141284227371216 0.0 0.0 0.0 -0.0 -0.0 0.0 1 False False
12592.988 3.7121145725250244 -0.8255127233317872 0.8430331389056605 -1.5882569752135218 -1.5707891623126429 2.14127516746521 0.0 0.0 0.0 -0.0 -0.0 0.0 1 False False
12593.037999999999 3.7120907306671143 -0.8254675430110474 0.8430092970477503 -1.588285585443014 -1.5708087126361292 2.141313076019287 0.0 0.0 0.0 -0.0 -0.0 0.0 1 False False
12593.088 3.71211576461792 -0.8254675430110474 0.8430083433734339 -1.5882650814452113 -1.5708168188678187 2.14127516746521 0.0 0.0 0.0 -0.0 -0.0 0.0 1 False False
12593.137999999999 3.712103843688965 -0.8255410355380555 0.8430092970477503 -1.5882817707457484 -1.5707886854754847 2.141279697418213 0.0 0.0 0.0 -0.0 -0.0 0.0 1 False False
12593.188 3.7120907306671143 -0.8254497212222596 0.842992130910055 -1.5883127651610316 -1.5708087126361292 2.141284227371216 0.0 0.0 0.0 -0.0 -0.0 0.0 1 False False
12593.238 3.7120578289031982 -0.8255039614490052 0.8430007139789026 -1.5882650814452113 -1.5708211104022425 2.141237735748291 0.0 0.0 0.0 -0.0 -0.0 0.0 1 False False
12593.287999999999 3.7120161056518555 -0.8254993718913575 0.8429392019854944 -1.588297029534811 -1.5708168188678187 2.141249656677246 0.0 0.0 0.0 -0.0 -0.0 0.0 1 False False
12593.338 3.7120163440704346 -0.8255409759334107 0.8429515997516077 -1.5882889233031214 -1.570801083241598 2.1413004398345947 0.0 0.0 0.0 -0.0 -0.0 0.0 1 False False
12593.387999999999 3.712062358856201 -0.8254217070392151 0.8430007139789026 -1.588280817071432 -1.5707486311541956 2.1413094997406006 0.0 0.0 0.0 -0.0 -0.0 0.0 1 False False
12593.438 3.7120163440704346 -0.8254993718913575 0.8429673353778284 -1.5882817707457484 -1.570801083241598 2.1413004398345947 0.0 0.0 0.0 -0.0 -0.0 0.0 1 False False
12593.488 3.7121024131774902 -0.825463132267334 0.8430140654193323 -1.588297029534811 -1.5707805792437952 2.141279697418213 0.0 0.0 0.0 -0.0 -0.0 0.0 1 False False
12593.537999999999 3.7120535373687744 -0.825443760757782 0.8429754416095179 -1.5882817707457484 -1.5707648436175745 2.1412394046783447 0.0 0.0 0.0 -0.0 -0.0 0.0 1 False False
12593.588 3.712083101272583 -0.8254823845675965 0.8429630438434046 -1.5882851086058558 -1.5708087126361292 2.141258955001831 0.0 0.0 0.0 -0.0 -0.0 0.0 1 False False
12593.637999999999 3.712083101272583 -0.8255001467517395 0.8429473082171839 -1.5883051357665003 -1.5707686583148401 2.141270637512207 0.0 0.0 0.0 -0.0 -0.0 0.0 1 False False
12593.688 3.712050199508667 -0.8254750531962891 0.8429978529559534 -1.5882774792113246 -1.5708211104022425 2.141270637512207 0.0 0.0 0.0 -0.0 -0.0 0.0 1 False False
12593.738 3.7121024131774902 -0.8255157035640259 0.8430350462542933 -1.5882851086058558 -1.5708254019366663 2.1412765979766846 0.0 0.0 0.0 -0.0 -0.0 0.0 1 False False
12593.787999999999 3.712062358856201 -0.8254217070392151 0.8429587523089808 -1.5882488689818324 -1.5707767645465296 2.141249656677246 0.0 0.0 0.0 -0.0 -0.0 0.0 1 False False
12593.838 3.712062358856201 -0.8255039614490052 0.8429845015155237 -1.5883289776244105 -1.5707805792437952 2.141267776489258 0.0 0.0 0.0 -0.0 -0.0 0.0 1 False False
12593.887999999999 3.7120862007141113 -0.825463132267334 0.8429802099810999 -1.588229318658346 -1.5708335081683558 2.141284227371216 0.0 0.0 0.0 -0.0 -0.0 0.0 1 False False
12593.938 3.712054491043091 -0.8254675430110474 0.8429721037494105 -1.5882531605162562 -1.5708168188678187 2.141296148300171 0.0 0.0 0.0 -0.0 -0.0 0.0 1 False False
12593.988 3.712118625640869 -0.825451211338379 0.8430126349078577 -1.5882607899107875 -1.5707925001727503 2.14127516746521 0.0 0.0 0.0 -0.0 -0.0 0.0 1 False False
12594.037999999999 3.712099313735962 -0.8254869741252442 0.8429811636554163 -1.588273664514059 -1.5707886854754847 2.141296148300171 0.0 0.0 0.0 -0.0 -0.0 0.0 1 False False
12594.088 3.711995840072632 -0.8254913252643128 0.8429721037494105 -1.5883094273009242 -1.570813004170553 2.141226053237915 0.0 0.0 0.0 -0.0 -0.0 0.0 1 False False
12594.137999999999 3.7120416164398193 -0.8254468601993104 0.8429673353778284 -1.588273664514059 -1.570853058491842 2.14131760597229 0.0 0.0 0.0 -0.0 -0.0 0.0 1 False False
12594.188 3.712115526199341 -0.825466052894928 0.842971150075094 -1.5882655582823695 -1.5707767645465296 2.1412765979766846 0.0 0.0 0.0 -0.0 -0.0 0.0 1 False False
12594.238 3.712099313735962 -0.825495795612671 0.8430054823504847 -1.588285585443014 -1.5707805792437952 2.1413049697875977 0.0 0.0 0.0 -0.0 -0.0 0.0 1 False False
12594.287999999999 3.7121024131774902 -0.8254528206637879 0.8429606596576136 -1.5883246860899867 -1.5707967917071741 2.141334056854248 0.0 0.0 0.0 -0.0 -0.0 0.0 1 False False
12594.338 3.7120044231414795 -0.8254707020572205 0.8430174032794397 -1.5883289776244105 -1.5707605520831507 2.1413040161132812 0.0 0.0 0.0 -0.0 -0.0 0.0 1 False False
12594.387999999999 3.712090492248535 -0.8254380387118836 0.8429349104510706 -1.588297029534811 -1.570772949849264 2.141279697418213 0.0 0.0 0.0 -0.0 -0.0 0.0 1 False False
12594.438 3.71207857131958 -0.8254543107799073 0.8429630438434046 -1.5882889233031214 -1.570784870778219 2.141296148300171 0.0 0.0 0.0 -0.0 -0.0 0.0 1 False False
12594.488 3.7120370864868164 -0.8255290550044556 0.842987362538473 -1.5882846317686976 -1.5708044211017054 2.141237735748291 0.0 0.0 0.0 -0.0 -0.0 0.0 1 False False
12594.537999999999 3.712066650390625 -0.8254110378078003 0.8429606596576136 -1.5882889233031214 -1.5708044211017054 2.141270637512207 0.0 0.0 0.0 -0.0 -0.0 0.0 1 False False
12594.588 3.712106943130493 -0.8254543107799073 0.8429515997516077 -1.5882774792113246 -1.5707605520831507 2.1412887573242188 0.0 0.0 0.0 -0.0 -0.0 0.0 1 False False
12594.637999999999 3.712094783782959 -0.8254305285266419 0.8429754416095179 -1.588280817071432 -1.5708487669574183 2.141279697418213 0.0 0.0 0.0 -0.0 -0.0 0.0 1 False False
12594.688 3.712106704711914 -0.825466052894928 0.8429802099810999 -1.588245531121725 -1.5707925001727503 2.141279697418213 0.0 0.0 0.0 -0.0 -0.0 0.0 1 False False
12594.738 3.7121143341064453 -0.8254631918719788 0.8430145422564905 -1.588320871392721 -1.5707967917071741 2.141258716583252 0.0 0.0 0.0 -0.0 -0.0 0.0 1 False False
12594.787999999999 3.7120871543884277 -0.8254304689219971 0.8429606596576136 -1.5882288418211878 -1.5707486311541956 2.141296148300171 0.0 0.0 0.0 -0.0 -0.0 0.0 1 False False
12594.838 3.7120871543884277 -0.8254379791072388 0.8430145422564905 -1.5882727108397425 -1.5708335081683558 2.14131760597229 0.0 0.0 0.0 -0.0 -0.0 0.0 1 False False
12594.887999999999 3.7120776176452637 -0.8255453866771241 0.842971150075094 -1.5883013210692347 -1.57074481645693 2.14127516746521 0.0 0.0 0.0 -0.0 -0.0 0.0 1 False False
12594.938 3.7120981216430664 -0.8254794639400025 0.8429802099810999 -1.5882498226561488 -1.5708449522601526 2.141286849975586 0.0 0.0 0.0 -0.0 -0.0 0.0 1 False False
12594.988 3.7121195793151855 -0.8254692119411011 0.8430216948138636 -1.5882889233031214 -1.5707724730121058 2.141267776489258 0.0 0.0 0.0 -0.0 -0.0 0.0 1 False False
12595.037999999999 3.7121100425720215 -0.8254587811282654 0.8429802099810999 -1.588269372979635 -1.5708087126361292 2.1413004398345947 0.0 0.0 0.0 -0.0 -0.0 0.0 1 False False
12595.088 3.7121024131774902 -0.8254823845675965 0.842987362538473 -1.5882731876769007 -1.570784870778219 2.1412885189056396 0.0 0.0 0.0 -0.0 -0.0 0.0 1 False False
12595.137999999999 3.7121026515960693 -0.825466052894928 0.8429258505450647 -1.588292738000387 -1.5708211104022425 2.1412274837493896 0.0 0.0 0.0 -0.0 -0.0 0.0 1 False False
12595.188 3.712095260620117 -0.8254794639400025 0.8429563681231897 -1.5883175335326136 -1.5708006064044397 2.141279697418213 0.0 0.0 0.0 -0.0 -0.0 0.0 1 False False
12595.238 3.712062358856201 -0.8255246442607422 0.8429802099810999 -1.5882412395873011 -1.5707810560809534 2.14131760597229 0.0 0.0 0.0 -0.0 -0.0 0.0 1 False False
12595.287999999999 3.7120654582977295 -0.8254617017558594 0.8429678122149866 -1.5882932148375453 -1.5708211104022425 2.141342878341675 0.0 0.0 0.0 -0.0 -0.0 0.0 1 False False
12595.338 3.712041139602661 -0.8254869741252442 0.8430245558368128 -1.5882650814452113 -1.570772949849264 2.1413004398345947 0.0 0.0 0.0 -0.0 -0.0 0.0 1 False False
12595.387999999999 3.7120532989501953 -0.825463132267334 0.8429678122149866 -1.588297029534811 -1.5707967917071741 2.141291618347168 0.0 0.0 0.0 -0.0 -0.0 0.0 1 False False
12595.438 3.712066888809204 -0.8254335087588807 0.8429845015155237 -1.5882569752135218 -1.5708048979388636 2.141263246536255 0.0 0.0 0.0 -0.0 -0.0 0.0 1 False False
12595.488 3.712099552154541 -0.8254869145205994 0.8429520765887659 -1.588285585443014 -1.5708406607257288 2.14127516746521 0.0 0.0 0.0 -0.0 -0.0 0.0 1 False False
12595.537999999999 3.7120907306671143 -0.8254913848689576 0.8429845015155237 -1.5882412395873011 -1.5707891623126429 2.1412394046783447 0.0 0.0 0.0 -0.0 -0.0 0.0 1 False False
12595.588 3.712106943130493 -0.8254751128009339 0.8429630438434046 -1.5882932148375453 -1.5707929770099085 2.141266107559204 0.0 0.0 0.0 -0.0 -0.0 0.0 1 False False
12595.637999999999 3.7121026515960693 -0.8254794639400025 0.8430216948138636 -1.5882650814452113 -1.570772949849264 2.141270637512207 0.0 0.0 0.0 -0.0 -0.0 0.0 1 False False
12595.688 3.7120773792266846 -0.8255045574954529 0.8429845015155237 -1.5883251629271449 -1.5708048979388636 2.141235113143921 0.0 0.0 0.0 -0.0 -0.0 0.0 1 False False
12595.738 3.712066888809204 -0.8255127233317872 0.8429544607745569 -1.5882569752135218 -1.570829216633932 2.141308546066284 0.0 0.0 0.0 -0.0 -0.0 0.0 1 False False
12595.787999999999 3.7120490074157715 -0.8254993122867127 0.8429964224444788 -1.5882774792113246 -1.5708330313311976 2.1412768363952637 0.0 0.0 0.0 -0.0 -0.0 0.0 1 False False
12595.838 3.712071180343628 -0.8254423898509522 0.8430050055133265 -1.5882374248900355 -1.5707886854754847 2.141296148300171 0.0 0.0 0.0 -0.0 -0.0 0.0 1 False False
12595.887999999999 3.7121191024780273 -0.8254468005946656 0.8429759184466761 -1.5882774792113246 -1.5707929770099085 2.141313076019287 0.0 0.0 0.0 -0.0 -0.0 0.0 1 False False
12595.938 3.7120532989501953 -0.8254869741252442 0.842992130910055 -1.5883332691588343 -1.570772949849264 2.141263246536255 0.0 0.0 0.0 -0.0 -0.0 0.0 1 False False
12595.988 3.7120742797851562 -0.8255039614490052 0.8430169264422815 -1.588285585443014 -1.570784870778219 2.141270637512207 0.0 0.0 0.0 -0.0 -0.0 0.0 1 False False
12596.037999999999 3.7120742797851562 -0.8255001467517395 0.8430007139789026 -1.5882932148375453 -1.5708168188678187 2.141279697418213 0.0 0.0 0.0 -0.0 -0.0 0.0 1 False False
12596.088 3.7121071815490723 -0.8254261177829285 0.842992130910055 -1.5882731876769007 -1.5708048979388636 2.141284227371216 0.0 0.0 0.0 -0.0 -0.0 0.0 1 True False
12596.137999999999 3.71209979057312 -0.8255259555629273 0.8430364767657679 -1.5883332691588343 -1.570784870778219 2.14127516746521 0.0 0.0 0.0 -0.0 -0.0 0.0 1 True False
12596.188 3.712078809738159 -0.825412706737854 0.8429964224444788 -1.588268896142477 -1.5707967917071741 2.141296148300171 0.0 0.0 0.0 -0.0 -0.0 0.0 1 True False
12596.238 3.712029218673706 -0.8254675430110474 0.8430288473712366 -1.5882498226561488 -1.5708330313311976 2.14127516746521 0.0 0.0 0.0 -0.0 -0.0 0.0 1 True False
12596.287999999999 3.7120532989501953 -0.8254186672023316 0.842992130910055 -1.5882889233031214 -1.5707929770099085 2.1413049697875977 0.0 0.0 0.0 -0.0 -0.0 0.0 1 True False
12596.338 3.7120697498321533 -0.8254750531962891 0.8429878393756312 -1.588297029534811 -1.5708087126361292 2.141334056854248 0.0 0.0 0.0 -0.0 -0.0 0.0 1 True False
12596.387999999999 3.7120816707611084 -0.8254261177829285 0.8429759184466761 -1.5882817707457484 -1.5707886854754847 2.141326665878296 0.0 0.0 0.0 -0.0 -0.0 0.0 1 True False
12596.438 3.7120323181152344 -0.8254587215236207 0.8429845015155237 -1.5882488689818324 -1.5707691351519983 2.141324996948242 0.0 0.0 0.0 -0.0 -0.0 0.0 1 True False
12596.488 3.7120742797851562 -0.8254202169230958 0.8429802099810999 -1.5882569752135218 -1.5708006064044397 2.141145706176758 0.0 0.0 0.0 -0.0 -0.0 0.0 1 True False
12596.537999999999 3.7120742797851562 -0.8254869145205994 0.8430169264422815 -1.5882817707457484 -1.5708087126361292 2.1413004398345947 0.0 0.0 0.0 -0.0 -0.0 1.8989360593951038e-14 1 True False
12596.588 3.7120158672332764 -0.8254838746837159 0.842959229146139 -1.5882889233031214 -1.5707691351519983 2.141322135925293 0.0 0.0 0.0 -0.0 -0.0 3.2306888897437602e-06 1 True False
12596.637999999999 3.7120907306671143 -0.8254425090602417 0.8429563681231897 -1.5883013210692347 -1.5707686583148401 2.141279697418213 0.0 0.0 0.0 -0.0 -1.595208800608816e-07 4.90742628440359e-25 1 True False
12596.688 3.712036609649658 -0.8254719537547608 0.8429964224444788 -1.5882731876769007 -1.5708087126361292 2.1413004398345947 0.0 0.0 0.0 -0.0 -2.364383904804982e-18 7.42688186092153e-44 1 True False
12596.738 3.713373899459839 -0.8263626855662842 0.8441880385028284 -1.5886599026122035 -1.570784870778219 2.14254093170166 0.05731150507926941 -0.04114961624145508 0.058644503355026245 -0.01320374384522438 -3.231818482163362e-05 0.05496562272310257 1 True False
12596.787999999999 3.71765398979187 -0.829767183666565 0.8492510954486292 -1.5900360546507777 -1.5707767645465296 2.146855592727661 0.11657939851284027 -0.09734435379505157 0.140374094247818 -0.036201708018779755 -1.697533116384875e-05 0.11129701137542725 1 True False
12596.838 3.7251393795013428 -0.8359744709781189 0.8578222433673304 -1.5925075016417445 -1.5707886854754847 2.1542279720306396 0.1773214042186737 -0.14893101155757904 0.20500364899635315 -0.05696523189544678 -4.070117719521041e-16 0.17411470413208008 1 True False
12596.887999999999 3.735532760620117 -0.8447343868068238 0.8697417418109339 -1.5957018337645472 -1.5708091894732874 2.1646201610565186 0.2399226278066635 -0.19144240021705627 0.2762570381164551 -0.0765160396695137 -6.182515981980927e-35 0.2338688224554062 1 True False
12596.938 3.7490234375 -0.8558566731265564 0.8851621786700647 -1.6000915966429652 -1.5707605520831507 2.1781272888183594 0.2953754961490631 -0.2496587038040161 0.34035545587539673 -0.09397532790899277 -0.0 0.29897254705429077 1 True False
12596.988 3.765413522720337 -0.8694345516017457 0.9041064421283167 -1.6052795849242152 -1.5708048979388636 2.194672107696533 0.36271968483924866 -0.2927463948726654 0.4145887792110443 -0.11986330151557922 -0.0 0.3544365465641022 1 True False
12597.037999999999 3.7850537300109863 -0.8856014770320435 0.926340405141012 -1.6114713154234828 -1.5707805792437952 2.2142326831817627 0.42078277468681335 -0.3474159240722656 0.4822947382926941 -0.13958606123924255 6.585289520444348e-05 0.42191678285598755 1 True False
12597.088 3.807739496231079 -0.904258982544281 0.9522760550128382 -1.6186419926085414 -1.5707886854754847 2.236811637878418 0.4844679832458496 -0.38952386379241943 0.5518447756767273 -0.15487618744373322 2.4108265279210173e-05 0.48764491081237793 1 True False
12597.137999999999 3.833231210708618 -0.9252643150142212 0.9815920034991663 -1.6270719967284144 -1.5707925001727503 2.2625386714935303 0.5408506393432617 -0.4464493989944458 0.6259534955024719 -0.17641086876392365 1.1603214916666715e-10 0.5405125617980957 1 True False
12597.188 3.86212158203125 -0.949100987320282 1.014414135609762 -1.6363774738707484 -1.5707767645465296 2.29132342338562 0.6011939644813538 -0.5011556148529053 0.6828401684761047 -0.1905164122581482 8.522763528162614e-05 0.5944332480430603 1 True False
12597.238 3.893922805786133 -0.9751991790584107 1.0508940855609339 -1.6462141476073207 -1.5707772413836878 2.323141574859619 0.6663047671318054 -0.5432784557342529 0.7606000304222107 -0.2033570110797882 -3.8544614653801546e-05 0.656494140625 1 True False
12597.287999999999 3.928774118423462 -1.0039593142322083 1.090590778981344 -1.6575328312315882 -1.5708168188678187 2.357971668243408 0.723488450050354 -0.5889944434165955 0.8294955492019653 -0.23801448941230774 -8.329935349722379e-16 0.7245684862136841 1 True False
12597.338 3.9666097164154053 -1.0350856941989441 1.1341126600848597 -1.6695920429625453 -1.570813004170553 2.3956308364868164 0.78487229347229 -0.6451709866523743 0.9033376574516296 -0.25952404737472534 -0.00013515749014914036 0.7946412563323975 1 True False
12597.387999999999 4.007652759552002 -1.068933979873993 1.1808221975909632 -1.6825486622252406 -1.5707486311541956 2.4369161128997803 0.8496705889701843 -0.6989924907684326 0.9689119458198547 -0.27741026878356934 3.920160585035859e-10 0.8483378887176514 1 True False
12597.438 4.051698684692383 -1.1050679248622437 1.2310684362994593 -1.696775575677389 -1.5707529226886194 2.480896472930908 0.9089357256889343 -0.7539377212524414 1.037737250328064 -0.3083772659301758 2.82632186099363e-07 0.9004796147346497 1 True False
12597.488 4.097441673278809 -1.1427863997272034 1.2832892576800745 -1.7113076649107875 -1.5708172957049769 2.526621103286743 0.9170314073562622 -0.7543845772743225 1.0475924015045166 -0.3109405040740967 -5.056519512436353e-05 0.9274848699569702 1 True False
12597.537999999999 4.143258094787598 -1.1804629427245636 1.335611645375387 -1.7260381184019984 -1.5707281271563929 2.5726420879364014 0.9195333123207092 -0.7575746178627014 1.0523428916931152 -0.27913498878479004 4.309355517762015e-06 0.9084125757217407 1 True False
12597.588 4.189205646514893 -1.2182119649699708 1.3881695906268519 -1.7406851253905238 -1.5707810560809534 2.618278741836548 0.9111926555633545 -0.7531277537345886 1.0464142560958862 -0.2999146580696106 4.869390613748692e-05 0.9206122756004333 1 True False
12597.637999999999 4.234956741333008 -1.256037102346756 1.4404915014850062 -1.7551242313780726 -1.5708168188678187 2.6643247604370117 0.920566976070404 -0.7495404481887817 1.0534498691558838 -0.28579702973365784 0.0002601540181785822 0.9122504591941833 1 True False
12597.688 4.28074836730957 -1.293693260555603 1.4929335753070276 -1.769743104974264 -1.5708525816546839 2.7097928524017334 0.9135285019874573 -0.7556633353233337 1.048041582107544 -0.2619175910949707 -0.004193632397800684 0.9225842952728271 1 True False
12597.738 4.326541423797607 -1.3314289313605805 1.545065704976217 -1.784598012963766 -1.57074481645693 2.7559216022491455 0.9155202507972717 -0.7560386061668396 1.0379087924957275 -0.3127509355545044 0.0011061843251809478 0.9144909381866455 1 True False
12597.787999999999 4.371148586273193 -1.368066595201828 1.5958674589740198 -1.7986723385252894 -1.570813004170553 2.800259828567505 0.855085015296936 -0.7057784199714661 0.9832974672317505 -0.2807759642601013 -0.00035112706245854497 0.863441526889801 1 True False
12597.838 4.412758827209473 -1.4022633892348786 1.643430534993307 -1.8119398556151332 -1.5707929770099085 2.8418054580688477 0.8036789298057556 -0.6611348986625671 0.9138370752334595 -0.23507285118103027 -1.6090677945612697e-07 0.8099411129951477 1 True False
12597.887999999999 4.451207637786865 -1.4339107137969513 1.687423054371969 -1.8242470226683558 -1.5707891623126429 2.880505323410034 0.7418891191482544 -0.6079830527305603 0.8467119932174683 -0.2344844937324524 0.0006416838150471449 0.7309406995773315 1 True False
12597.938 4.486634731292725 -1.463122734134533 1.72768479982485 -1.8357206783690394 -1.5707686583148401 2.9158806800842285 0.6746314167976379 -0.5595293641090393 0.7793293595314026 -0.2237808257341385 -8.519316907040775e-05 0.6770436763763428 1 True False
12597.988 4.518829345703125 -1.4897727084210892 1.7646949926959437 -1.8460527859129847 -1.5708006064044397 2.948211431503296 0.6194789409637451 -0.5126510262489319 0.7032363414764404 -0.18580332398414612 -0.0022773887030780315 0.611803412437439 1 True False
12598.037999999999 4.5482048988342285 -1.5139620837620278 1.7982257048236292 -1.8552595577635707 -1.5708368460284632 2.9775493144989014 0.5533148646354675 -0.45842084288597107 0.6356813311576843 -0.1879526674747467 -0.001242997357621789 0.5523109436035156 1 True False
12598.088 4.574311256408691 -1.5355960440686722 1.8283808867083948 -1.8636871776976527 -1.570813004170553 3.003709316253662 0.4966977536678314 -0.40174436569213867 0.5558480620384216 -0.15801328420639038 -0.0033999450970441103 0.49158522486686707 1 True False
12598.137999999999 4.597644805908203 -1.5545196340284129 1.8548224608050745 -1.8710538349547328 -1.570784870778219 3.026796579360962 0.4288753867149353 -0.3558462858200073 0.49493932723999023 -0.13616901636123657 0.0003388931218069047 0.4412568211555481 1 True False
12598.188 4.61794376373291 -1.5712138615050257 1.8776586691485804 -1.877554555932516 -1.5708048979388636 3.046994924545288 0.36859622597694397 -0.3092774748802185 0.42636802792549133 -0.11116564273834229 0.00041888889973051846 0.3779195547103882 1 True False
12598.238 4.6348371505737305 -1.5850879154601039 1.8973000685321253 -1.8829475841917933 -1.5708211104022425 3.064129590988159 0.31337982416152954 -0.2622421085834503 0.35034602880477905 -0.11715511232614517 6.149132241262123e-05 0.31106048822402954 1 True False
12598.287999999999 4.6489949226379395 -1.596851488152975 1.9133785406695765 -1.8872815571227015 -1.570857350026266 3.0781006813049316 0.24757912755012512 -0.1987406462430954 0.29709261655807495 -0.07107379287481308 0.0003010118380188942 0.2548690736293793 1 True False
12598.338 4.659847259521484 -1.6058584652342738 1.9257944265948694 -1.890933176080221 -1.5707529226886194 3.089120864868164 0.18823400139808655 -0.15592865645885468 0.21400853991508484 -0.05579705908894539 -2.0461203159582737e-15 0.19056950509548187 1 True False
12598.387999999999 4.6677727699279785 -1.6122366390623988 1.9349311033831995 -1.8933679066100062 -1.5708087126361292 3.0970230102539062 0.13146859407424927 -0.10908638685941696 0.14717715978622437 -0.04564846307039261 -3.108061705694342e-34 0.1281619518995285 1 True False
12598.438 4.6727190017700195 -1.616286417047018 1.9404409567462366 -1.895008226434225 -1.570801083241598 3.1019229888916016 0.06682346016168594 -0.05737094208598137 0.08083541691303253 -0.02289842814207077 -0.0 0.06942341476678848 1 True False
12598.488 4.6744914054870605 -1.6178752384581507 1.942563835774557 -1.8955432377257289 -1.5707767645465296 3.103731155395508 0.00772601505741477 -0.004305577836930752 0.008187310770154 -0.0002238424203824252 -0.0 0.007559464778751135 1 True False
12598.537999999999 4.674422740936279 -1.6173016033568324 1.9435089270221155 -1.8970204792418421 -1.570813004170553 3.1036579608917236 0.001531587797217071 0.021486813202500343 0.03907724469900131 -0.05784417316317558 -0.0 0.0005918487440794706 1 True False
12598.588 4.674468517303467 -1.6156116924681605 1.9465206305133265 -1.901902814904684 -1.570784870778219 3.1037027835845947 0.0007990526501089334 0.05199158191680908 0.08347614854574203 -0.13295255601406097 -0.0 0.000646482571028173 1 True False
12598.637999999999 4.674495697021484 -1.6122709713377894 1.951799217854635 -1.9103175602354945 -1.5707767645465296 3.103722095489502 0.001287886523641646 0.07877858728170395 0.12222766131162643 -0.20903094112873077 -0.0 0.0004198437964078039 1 True False
12598.688 4.674511909484863 -1.6076237163939417 1.9590309301959437 -1.922133585015768 -1.5707805792437952 3.1037299633026123 0.000373811402823776 0.10815563052892685 0.16834180057048798 -0.259705126285553 -0.0 0.00022480968618765473 1 True False
12598.738 4.674520492553711 -1.6017824612059535 1.9684999624835413 -1.9376265011229457 -1.5708449522601526 3.1037628650665283 0.0009556947625242174 0.13197460770606995 0.21197278797626495 -0.3484731912612915 -0.0 0.00012624678493011743 1 True False
12598.787999999999 4.674524784088135 -1.594433446923727 1.9804347197162073 -1.9564153156676234 -1.5707486311541956 3.1037583351135254 0.00021288318384904414 0.15767741203308105 0.25073331594467163 -0.4052108824253082 4.98296348627747e-10 7.680834823986515e-05 1 True False
12598.838 4.674519062042236 -1.5858446560301722 1.9938328901873987 -1.9789110622801722 -1.5707767645465296 3.103760004043579 0.00011539763363543898 0.18234026432037354 0.2961703836917877 -0.474651038646698 8.908600284485146e-05 1.719388870909054e-17 1 True False
12598.887999999999 4.6745147705078125 -1.5759836635985316 2.0099671522723597 -2.004693170587057 -1.5707925001727503 3.103710174560547 7.915210153441876e-05 0.21160145103931427 0.3408701419830322 -0.5445723533630371 4.8813650209922343e-05 2.6117557723513945e-36 1 True False
12598.938 4.674540042877197 -1.564681371939816 2.027818028126852 -2.033853670159811 -1.5707967917071741 3.103743553161621 3.623347947118114e-23 0.22136148810386658 0.35602349042892456 -0.579841136932373 3.361817653058097e-05 -5.7406385167269036e-05 1 True False
12598.988 4.6745147705078125 -1.5541537676802655 2.0448458830462855 -2.0613585911192835 -1.570813004170553 3.103743553161621 -8.765777707831631e-18 0.19925479590892792 0.3197133243083954 -0.5118696093559265 1.5294805107143937e-16 -2.2117701519164257e-05 1 True False
12599.037999999999 4.67453145980835 -1.5450604830733319 2.05939752260317 -2.085529943505758 -1.5707891623126429 3.103701114654541 0.0 0.17640213668346405 0.2761358618736267 -0.4536384046077728 1.5325168591325043e-16 -2.7399817554396577e-05 1 True False
12599.088 4.674564838409424 -1.536941574220993 2.072299305592672 -2.1061302624144496 -1.570784870778219 3.1037309169769287 0.0 0.1453305035829544 0.23433835804462433 -0.3895409107208252 2.3278963791497226e-35 -8.389247341256123e-06 1 True False
12599.137999999999 4.674563884735107 -1.5303762827864666 2.0827725569354456 -2.1231848202147425 -1.5707724730121058 3.103713035583496 0.0 0.1145096942782402 0.18439535796642303 -0.3039005398750305 0.0 -1.2743287659148039e-24 1 True False
12599.188 4.674499034881592 -1.525148370569088 2.0911734739886683 -2.1367699108519496 -1.5707886854754847 3.103708505630493 0.0 0.08946894854307175 0.14813299477100372 -0.23558707535266876 0.0 -1.9337918807682476e-43 1 True False
12599.238 4.674535751342773 -1.521230076705553 2.097443405781881 -2.147038599053854 -1.5708087126361292 3.103776216506958 0.0 0.0674034133553505 0.10621748864650726 -0.1637975424528122 0.0 -0.0 1 True False
12599.287999999999 4.674495697021484 -1.5187151704779644 2.101568047200338 -2.1536532841124476 -1.5708006064044397 3.103689432144165 0.0 0.03831540793180466 0.06255507469177246 -0.0941275954246521 0.0 -0.0 1 True False
12599.338 4.674475193023682 -1.5175515946796914 2.1034706274615687 -2.1566950283446253 -1.570829216633932 3.103743553161621 0.0 0.012407983653247356 0.017793525010347366 -0.031303320080041885 0.0 -1.1780992157599918e-16 1 True False
12599.387999999999 4.6745147705078125 -1.5174874824336548 2.1035688559161585 -2.1569987736144007 -1.5708416144000452 3.1037256717681885 0.0 -8.039024951238739e-27 -0.000509043806232512 4.7897848881595095e-11 0.0 -1.7895354637130916e-35 1 True False
12599.438 4.674551963806152 -1.5174099963954468 2.1036222616778772 -2.156954427758688 -1.5707648436175745 3.103739023208618 0.0 4.434924994711764e-05 4.560583329293877e-05 7.275696893736571e-30 0.0 -7.032688881736249e-05 1 True False
12599.488 4.674588680267334 -1.5174219024232407 2.1036623159991663 -2.156933923760885 -1.5708048979388636 3.103768825531006 0.0 7.932667358545586e-05 9.448907803744078e-05 -0.0006698172073811293 0.0 -5.056884765508585e-05 1 True False
12599.537999999999 4.6745076179504395 -1.5174234968474885 2.1036341826068323 -2.1570188007750453 -1.5707891623126429 3.103764295578003 0.0 0.00010519872012082487 6.724874401697889e-05 -0.0013616089709103107 0.0 -6.611475432182233e-23 1 True False
12599.588 4.674556255340576 -1.5174517419985314 2.103694740925924 -2.1570784054198207 -1.5708254019366663 3.103717565536499 0.0 9.432597289560363e-05 4.8020163376349956e-05 -0.0005958813708275557 0.0 -1.0043106093815964e-41 1 True False
12599.637999999999 4.674531936645508 -1.5174562980285664 2.1036580244647425 -2.1570903263487757 -1.5707805792437952 3.103717565536499 0.0 0.0002394758485024795 4.4320560846244916e-05 -0.00020686411880888045 0.0 -0.0 1 True False
12599.688 4.674458026885986 -1.517393284743168 2.103621308003561 -2.157074113885397 -1.570772949849264 3.10371470451355 0.0 0.00013249334006104618 6.111917900852859e-05 -0.00012326454452704638 0.0 -0.0 1 True False
12599.738 4.674544811248779 -1.5173903454891224 2.1036537329303187 -2.157057901422018 -1.5707805792437952 3.103722095489502 0.0 7.520137296523899e-05 1.9693670183658883e-14 -8.27734693302773e-05 0.0 -0.0 1 True False
12599.787999999999 4.674527645111084 -1.5173857484808941 2.10366660753359 -2.1570340595641078 -1.5707605520831507 3.103722095489502 5.307346222838302e-25 7.425845979014412e-05 4.624284932271896e-44 -5.64183248730199e-13 0.0 -0.0 1 True False
12599.838 4.674499988555908 -1.517411222015955 2.1036985556231897 -2.157086034814352 -1.5707805792437952 3.103768825531006 0.0 1.5694542800437951e-43 4.606603543066967e-09 -2.0273450900276657e-06 0.0 -0.0 1 True False
12599.887999999999 4.674466609954834 -1.5174112443676968 2.103673283253805 -2.157057901422018 -1.5707805792437952 3.103668451309204 0.0 0.0 1.0839825546095553e-38 -3.0795411502169116e-25 0.0 -0.0 1 True False
12599.938 4.674527645111084 -1.5174279671958466 2.103605095540182 -2.1570664844908656 -1.5707686583148401 3.103717565536499 0.0 0.0 0.0 -4.624284932271896e-44 -2.257499727420509e-05 -6.159623922030733e-08 1 True False
12599.988 4.6745476722717285 -1.517503873710968 2.103521172200338 -2.1572257481017054 -1.5707934538470667 3.103689432144165 0.0 0.00016560390940867364 0.00020634611428249627 -0.000177879017428495 -3.4291487727117925e-24 6.179526335081675e-10 1 True False
12600.037999999999 4.674516201019287 -1.5174085062793274 2.103562657033102 -2.1572538814940394 -1.5707443396197718 3.103701114654541 0.0 0.0007440282497555017 0.00044582245755009353 -1.9241538917746936e-11 -5.2128302872883195e-43 9.386712316898066e-29 1 True False
12600.088 4.674531936645508 -1.5174562533250828 2.103521172200338 -2.157261987725729 -1.5707972685443323 3.1037464141845703 0.0 0.0007238622638396919 0.0014519592514261603 0.0008845488773658872 1.7992159151436482e-10 0.0 1 True True
12600.137999999999 4.674477577209473 -1.5176504713347931 2.1032546202289026 -2.156004091302389 -1.5707805792437952 3.103705644607544 0.0 -0.015417227521538734 -0.02336713671684265 0.05104497820138931 -0.0012317377841100097 -2.2638390873908065e-05 1 True True
12600.188 4.674482345581055 -1.5191093248179932 2.1009214560138147 -2.151942869225973 -1.570829216633932 3.1037299633026123 0.0 -0.05240514874458313 -0.0836835652589798 0.10782599449157715 -0.00022909078688826412 -8.660925120565022e-16 1 True True
12600.238 4.67452335357666 -1.522196178590395 2.09575063387026 -2.14418425182485 -1.5708211104022425 3.103726625442505 0.0 -0.0751897394657135 -0.11914857476949692 0.1851464807987213 -3.596643000491895e-05 -1.3155960582847746e-34 1 True True
12600.287999999999 4.674483299255371 -1.5266832087985058 2.088832203541891 -2.132895608941549 -1.5707843939410608 3.1037309169769287 0.0 -0.09852148592472076 -0.16154861450195312 0.25300702452659607 -1.197941764985444e-05 -0.0 1 True True
12600.338 4.674551963806152 -1.5323012632182618 2.079764191304342 -2.118248601953024 -1.5708087126361292 3.103760004043579 0.0 -0.1224576011300087 -0.20033304393291473 0.32395556569099426 -1.3084313202560528e-19 -0.0 1 True True
12600.387999999999 4.674490928649902 -1.5393306885710736 2.068436924611227 -2.0999514065184535 -1.5707967917071741 3.1037256717681885 0.0 -0.153475821018219 -0.24281847476959229 0.40554240345954895 -1.9875106573981394e-38 -0.0 1 True True
12600.438 4.67452335357666 -1.5476977986148377 2.0551818052874964 -2.0781918964781703 -1.5707529226886194 3.10371470451355 0.0 -0.18205933272838593 -0.2900241017341614 0.470524400472641 -0.0 -0.0 1 True True
12600.488 4.674530982971191 -1.5573373113623639 2.0396254698382776 -2.0529924831786097 -1.5707524458514612 3.103701114654541 0.0 -0.20631825923919678 -0.3273085653781891 0.5391616821289062 -0.0 -0.0 1 True True
12600.537999999999 4.674549102783203 -1.5683838043226679 2.0219529310809534 -2.024440904656881 -1.5707686583148401 3.103743553161621 0.0 -0.23182499408721924 -0.37852904200553894 0.6074607372283936 -0.0 -0.0 1 True True
12600.588 4.674527645111084 -1.5790888271727503 2.004582230244772 -1.9961801968016566 -1.5708487669574183 3.1037344932556152 0.0 -0.20694006979465485 -0.3271053731441498 0.5439097285270691 1.4266125845097122e-06 -0.0 1 True True
12600.637999999999 4.674516201019287 -1.5886770687498988 1.9895389715777796 -1.971485277215475 -1.570756737385885 3.103696584701538 0.0 -0.17670482397079468 -0.2827205955982208 0.4625837802886963 2.1670282702547693e-25 -0.0 1 True True
12600.688 4.674511909484863 -1.5969225368895472 1.9762337843524378 -1.95021452526235 -1.5707686583148401 3.1037628650665283 0.0 -0.14685484766960144 -0.23428276181221008 0.3834588825702667 3.2229864679470793e-44 -0.0 1 True True
12600.738 4.674570083618164 -1.603704114953512 1.9653437773333948 -1.9323412380614222 -1.5708335081683558 3.1037344932556152 0.0 -0.12151127308607101 -0.19921796023845673 0.3235815167427063 0.0 -0.0 1 True True
12600.787999999999 4.674549102783203 -1.6091152630248011 1.9566543737994593 -1.9181410274901332 -1.5707686583148401 3.1037344932556152 0.0 -0.09996622800827026 -0.15023678541183472 0.24364683032035828 0.0 -0.0 1 True True
12600.838 4.674556732177734 -1.6132761440672816 1.9499829451190394 -1.907304426232809 -1.570829216633932 3.103739023208618 0.0 -0.0738830640912056 -0.11239172518253326 0.19206872582435608 0.0 -0.0 1 True True
12600.887999999999 4.67456579208374 -1.6160608730711878 1.9453919569598597 -1.8998409710326136 -1.570756737385885 3.1037256717681885 0.0 -0.04513848200440407 -0.0720113068819046 0.11276284605264664 0.0 -3.4506435486747478e-09 1 True True
12600.938 4.674514293670654 -1.6176821194090785 1.9430583159076136 -1.8961693249144496 -1.570801083241598 3.1037464141845703 -5.1702631935768295e-06 -0.016910187900066376 -0.024570327252149582 0.043028075248003006 0.0 -5.241535343893984e-28 1 True True
12600.988 4.674251079559326 -1.6177884540953578 1.9426830450641077 -1.895607133904928 -1.5707891623126429 3.1034018993377686 -0.02841954678297043 0.00745018757879734 -0.008625894784927368 0.0005654309643432498 7.141572382352024e-07 -0.02332041971385479 1 True True
12601.037999999999 4.6712141036987305 -1.6170550785460414 1.9415176550494593 -1.895379205743307 -1.5707967917071741 3.100290298461914 -0.09733965247869492 0.024322740733623505 -0.029765145853161812 0.009205689653754234 1.0848063878977498e-25 -0.09650019556283951 1 True True
12601.088 4.664378643035889 -1.6152826748290003 1.9393323103534144 -1.8949762783446253 -1.5707805792437952 3.0936176776885986 -0.16656573116779327 0.04501621425151825 -0.05520062893629074 0.007810465060174465 1.6815581571897805e-44 -0.16676269471645355 1 True True
12601.137999999999 4.654262542724609 -1.6125108204283656 1.9362075964557093 -1.8943811855711878 -1.570723835621969 3.083534002304077 -0.23780778050422668 0.06301937252283096 -0.07267855107784271 0.009583103470504284 0.0 -0.23887917399406433 1 True True
12601.188 4.640513896942139 -1.6088983021178187 1.9318187872516077 -1.893721719781393 -1.5708006064044397 3.069823741912842 -0.30304884910583496 0.08141219615936279 -0.09985463321208954 0.013109009712934494 -7.452111458405852e-05 -0.3064572513103485 1 True True
12601.238 4.623534679412842 -1.6042944393553675 1.92643911043276 -1.8927561245360316 -1.5707762877093714 3.0527055263519287 -0.37925079464912415 0.10021362453699112 -0.12409606575965881 0.021487342193722725 -0.00015223796071950346 -0.37365350127220154 1 True True
12601.287999999999 4.6027750968933105 -1.5988437137999476 1.9197958151446741 -1.8917466602721156 -1.5707686583148401 3.0320017337799072 -0.44169625639915466 0.11693216860294342 -0.14139717817306519 0.029485488310456276 -0.0004875004815403372 -0.4406948685646057 1 True True
12601.338 4.578576564788818 -1.5924507580199183 1.9120033423053187 -1.8904568157591761 -1.5707724730121058 3.0080037117004395 -0.5167091488838196 0.13557802140712738 -0.16825126111507416 0.029189355671405792 5.6918073823908344e-05 -0.5237097144126892 1 True True
12601.387999999999 4.551149368286133 -1.585191389123434 1.9033024946795862 -1.888960977593893 -1.5707767645465296 2.9804065227508545 -0.5879771709442139 0.1549980491399765 -0.1875135749578476 0.02988152951002121 -8.140799845053542e-19 -0.5902448892593384 1 True True
12601.438 4.520145416259766 -1.577071329156393 1.8934977690326136 -1.8871470890440882 -1.5707371870623987 2.949338436126709 -0.656315803527832 0.17581801116466522 -0.20565328001976013 0.031571902334690094 0.0014539994299411774 -0.659610390663147 1 True True
12601.488 4.485586643218994 -1.5678163487794627 1.8824451605426233 -1.8853360615172328 -1.5707486311541956 2.9146831035614014 -0.7201597094535828 0.1895936280488968 -0.2304345816373825 0.03769488260149956 0.0009086547652259469 -0.7309114336967468 1 True True
12601.537999999999 4.447523593902588 -1.5577268901145835 1.8702924887286585 -1.8833281002440394 -1.5707405249225062 2.876591444015503 -0.7915984988212585 0.20871983468532562 -0.25229039788246155 0.04306022822856903 0.0006400031270459294 -0.8005699515342712 1 True True
12601.588 4.405914306640625 -1.5467996944538136 1.857027832661764 -1.8811332188048304 -1.5708254019366663 2.83491587638855 -0.8650925755500793 0.23054207861423492 -0.2789381444454193 0.04948584735393524 -0.0003213268064428121 -0.8549928665161133 1 True True
12601.637999999999 4.360780239105225 -1.5346965839019795 1.8426006476031702 -1.8787867031493128 -1.5707891623126429 2.7901313304901123 -0.9323722720146179 0.24505232274532318 -0.30370569229125977 0.05088111013174057 0.001208075089380145 -0.9421652555465698 1 True True
12601.688 4.312270164489746 -1.5218373474529763 1.8272894064532679 -1.8761803112425746 -1.5708006064044397 2.741318941116333 -1.004780650138855 0.2598867118358612 -0.32518240809440613 0.05297643691301346 -3.5534181153096256e-10 -1.0001347064971924 1 True True
12601.738 4.260478973388672 -1.5082875725677987 1.8104851881610315 -1.8732263050475062 -1.5708406607257288 2.6897313594818115 -1.0461559295654297 0.2810746431350708 -0.32933762669563293 0.06286664307117462 -1.4636684350608502e-19 -1.0561128854751587 1 True True
12601.787999999999 4.208165168762207 -1.4942306515625496 1.7941153685199183 -1.8705502949156703 -1.5707967917071741 2.6374082565307617 -1.0516554117202759 0.27223125100135803 -0.33685302734375 0.05601460859179497 -0.00045978467096574605 -1.0452507734298706 1 True True
12601.838 4.155732154846191 -1.4805125010064621 1.7772353331195276 -1.8676516018309535 -1.5708449522601526 2.5848734378814697 -1.052221655845642 0.281206339597702 -0.3363591432571411 0.06130801886320114 5.857323230884504e-07 -1.0379889011383057 1 True True
12601.887999999999 4.103402137756348 -1.466489204471447 1.7608159224139612 -1.8647810421385707 -1.5707529226886194 2.5326132774353027 -1.0458717346191406 0.27559828758239746 -0.33144494891166687 0.05015208572149277 -5.8271968583767375e-08 -1.0533217191696167 1 True True
12601.938 4.051059246063232 -1.452770673935749 1.743948761616842 -1.8620778522887171 -1.570813004170553 2.4803829193115234 -1.0504603385925293 0.27775171399116516 -0.3327924609184265 0.057791925966739655 3.4715762353698665e-07 -1.0449409484863281 1 True True
12601.988 3.9987471103668213 -1.438712404375412 1.7272184530841272 -1.8591085873045863 -1.5708048979388636 2.427785634994507 -1.0499942302703857 0.2790219783782959 -0.32588255405426025 0.05715705826878548 0.00023369428527075797 -1.042812466621399 1 True True
12602.037999999999 3.946380615234375 -1.4250304859927674 1.710630242024557 -1.8564211330809535 -1.5708497206317347 2.375483274459839 -1.0449070930480957 0.27633917331695557 -0.338237464427948 0.056751798838377 0.0010520038194954395 -1.0564720630645752 1 True True
12602.088 3.8939754962921143 -1.411164478664734 1.6940096060382288 -1.8535825214781703 -1.5707686583148401 2.323274850845337 -1.048106074333191 0.2808937728404999 -0.3297538459300995 0.06309454888105392 2.6109904169291376e-12 -1.04926598072052 1 True True
12602.137999999999 3.8415865898132324 -1.397203506236412 1.6771753470050257 -1.8508197269835414 -1.5708211104022425 2.270775318145752 -1.0491222143173218 0.27644163370132446 -0.3352271020412445 0.052788544446229935 -9.857185900852272e-11 -1.0400090217590332 1 True True
12602.188 3.7892401218414307 -1.3833588373712082 1.6604536215411585 -1.8480173550047816 -1.570784870778219 2.2183971405029297 -1.0443568229675293 0.27927783131599426 -0.33651793003082275 0.05656324699521065 -0.00010045248200185597 -1.05384361743927 1 True True
12602.238 3.7368381023406982 -1.3693862420371552 1.643961254750387 -1.8450356922545375 -1.570784870778219 2.166104316711426 -1.0469107627868652 0.27564024925231934 -0.32571274042129517 0.05031188949942589 -0.00010571043094387278 -1.045982837677002 1 True True
12602.287999999999 3.6845786571502686 -1.355712116961815 1.6269891897784632 -1.8423792324461878 -1.5708335081683558 2.113705635070801 -1.05153226852417 0.279390424489975 -0.3374989926815033 0.057927973568439484 0.0001319645089097321 -1.0362697839736938 1 True True
12602.338 3.6321773529052734 -1.3416189563325425 1.610626522694723 -1.839438100854391 -1.570801083241598 2.061354160308838 -1.0439624786376953 0.2731345593929291 -0.33095815777778625 0.0625295341014862 -1.3049727520808574e-08 -1.0538607835769653 1 True True
12602.387999999999 3.5798442363739014 -1.3279147160104294 1.5937050024615687 -1.8368298015990199 -1.5707805792437952 2.009178876876831 -1.0454981327056885 0.2764841318130493 -0.34098362922668457 0.05142741650342941 -2.6685586655998336e-14 -1.0512865781784058 1 True True
12602.438 3.527531623840332 -1.3138877314380188 1.577203098927633 -1.8339759312071742 -1.5708091894732874 1.9566785097122192 -1.0493186712265015 0.2786109745502472 -0.33485525846481323 0.05870857834815979 -3.1750152507115104e-10 -1.045738697052002 1 True True
12602.488 3.475076913833618 -1.3002007764628907 1.5603697935687464 -1.831029554406637 -1.5707648436175745 1.9042233228683472 -1.0420457124710083 0.2748105525970459 -0.3362373113632202 0.048219308257102966 -7.372258892246464e-08 -1.0494061708450317 1 True True
12602.537999999999 3.422722578048706 -1.2863112849048157 1.5437939802752894 -1.82826628307485 -1.5707805792437952 1.8519870042800903 -1.0447731018066406 0.2810512185096741 -0.34035956859588623 0.05514639988541603 -1.1198482210126889e-26 -1.0499155521392822 1 True True
12602.588 3.371166229248047 -1.2725899082473298 1.5273049513446253 -1.8255325756468714 -1.5708325544940394 1.8003699779510498 -1.002798080444336 0.2618356943130493 -0.3138699233531952 0.060039132833480835 -1.401298464324817e-45 -0.996151328086853 1 True True
12602.637999999999 3.32295560836792 -1.25992967308078 1.5120528380023401 -1.822878976861471 -1.5707925001727503 1.7521920204162598 -0.9301288723945618 0.24650953710079193 -0.29719582200050354 0.044538408517837524 9.707533899927512e-05 -0.9400814771652222 1 True True
12602.688 3.278306722640991 -1.2479500037482758 1.4977191130267542 -1.8205543957152308 -1.5707724730121058 1.7074443101882935 -0.8656727075576782 0.22657839953899384 -0.27795761823654175 0.045524902641773224 5.511687049875036e-05 -0.8557759523391724 1 True True
12602.738 3.2370312213897705 -1.2371014815619965 1.484643284474508 -1.8182207546629847 -1.570801083241598 1.666278600692749 -0.7901846766471863 0.20984147489070892 -0.2547917068004608 0.041273873299360275 8.069454634096473e-05 -0.7947633862495422 1 True True
12602.787999999999 3.1991631984710693 -1.2271604996970673 1.4725168387042444 -1.8163086376585902 -1.5708335081683558 1.6285674571990967 -0.7165947556495667 0.1933346390724182 -0.2258395254611969 0.03499583527445793 0.00016051687998697162 -0.7281143665313721 1 True True
12602.838 3.165020227432251 -1.2179665726474305 1.461712662373678 -1.8143679104247035 -1.570756737385885 1.5942132472991943 -0.6519577503204346 0.17111296951770782 -0.20785537362098694 0.037642642855644226 0.00013514705642592162 -0.6535950303077698 1 True True
12602.887999999999 3.134307622909546 -1.2098874908736725 1.4518993536578577 -1.8128377399840296 -1.5707648436175745 1.5634368658065796 -0.5774674415588379 0.15114574134349823 -0.18368221819400787 0.030958950519561768 0.0008307239622808993 -0.5877395272254944 1 True True
12602.938 3.1069960594177246 -1.2025758189013978 1.4432347456561487 -1.8111187420287074 -1.5707491079913538 1.536208987236023 -0.5109586715698242 0.13399626314640045 -0.16140803694725037 0.027011901140213013 -6.720147771588358e-10 -0.5126243829727173 1 True True
12602.988 3.083272695541382 -1.1963857275298615 1.4354775587665003 -1.809974809686178 -1.5707367102252405 1.5124168395996094 -0.44174057245254517 0.11890365928411484 -0.14229343831539154 0.02523149363696575 -1.0207919817388169e-28 -0.4436795711517334 1 True True
12603.037999999999 3.0628936290740967 -1.1909232598594208 1.4290741125689905 -1.8089500866331996 -1.5707967917071741 1.4921174049377441 -0.36853843927383423 0.09992913901805878 -0.11793574690818787 0.022694308310747147 -1.55023975878521e-08 -0.3683253824710846 1 True True
12603.088 3.045958995819092 -1.1864687365344544 1.4237378279315394 -1.8081213436522425 -1.5707967917071741 1.4753122329711914 -0.3035305142402649 0.07846210151910782 -0.09604563564062119 0.015147279016673565 -0.00019567397248465568 -0.30422186851501465 1 True True
12603.137999999999 3.032822847366333 -1.1829632681659241 1.4195621649371546 -1.8073111973204554 -1.5707967917071741 1.4619449377059937 -0.23439724743366241 0.06274198740720749 -0.07615908235311508 0.011032775044441223 -1.230656809098063e-11 -0.23269090056419373 1 True True
12603.188 3.0229527950286865 -1.180436448459961 1.4164350668536585 -1.8067733250060023 -1.5707929770099085 1.4521726369857788 -0.16148395836353302 0.044218510389328 -0.05165966972708702 0.008722771890461445 -1.869370234361263e-30 -0.1627604365348816 1 True True
12603.238 3.016524076461792 -1.1787537795356293 1.4142711798297327 -1.8065186939635218 -1.5708048979388636 1.4458365440368652 -0.09005308896303177 0.024979175999760628 -0.030875055119395256 0.00605641258880496 -0.0 -0.09394003450870514 1 True True
12603.287999999999 3.013760566711426 -1.1778706473163147 1.41343862215151 -1.8063227138915003 -1.5707767645465296 1.4429726600646973 -0.02216946706175804 0.004357993137091398 -0.0052163079380989075 0.0012854943051934242 -0.0 -0.024430569261312485 1 True True
12603.338 3.013695240020752 -1.1775930684855958 1.4138949553119105 -1.806969781915182 -1.5707486311541956 1.442869782447815 0.0008312127902172506 0.019067684188485146 0.02906007133424282 -0.04275291785597801 2.4255562836028588e-11 -7.286128675332293e-05 1 True True
12603.387999999999 3.0136559009552 -1.1762254995158692 1.4165886084186 -1.8111850223936976 -1.570784870778219 1.442808985710144 -0.0001978127984330058 0.034490667283535004 0.07707582414150238 -0.1156245693564415 3.684425482708883e-30 -0.000428403087425977 1 True True
12603.438 3.013615608215332 -1.1738378268531342 1.4217966238604944 -1.8187276325621546 -1.5707572142230433 1.442810297012329 -0.0003637457557488233 0.059210922569036484 0.12930522859096527 -0.1827065646648407 0.0 -0.00032620030106045306 1 True True
12603.488 3.0136165618896484 -1.170233116751053 1.4293673674212855 -1.8300429783263148 -1.5708168188678187 1.4427613019943237 -0.0006286356365308166 0.08196907490491867 0.17903873324394226 -0.25661733746528625 -0.00010629763710312545 -0.00021720030053984374 1 True True
12603.537999999999 3.0135960578918457 -1.165475295191147 1.439385239277975 -1.8447009525694789 -1.5708325544940394 1.4427847862243652 -0.00020021181262563914 0.10639703273773193 0.2223844677209854 -0.32055917382240295 -0.00014105986338108778 -0.0001468961563659832 1 True True
12603.588 3.0135555267333984 -1.1595212680152436 1.4517610708819788 -1.8626648388304652 -1.5708006064044397 1.4427847862243652 -0.00011872495815623552 0.12912993133068085 0.2643924355506897 -0.41007426381111145 -8.540779526811093e-05 -9.322013647761196e-05 1 True True
12603.637999999999 3.0135838985443115 -1.1526741844466706 1.466151539479391 -1.8842202625670375 -1.5707810560809534 1.442752480506897 -0.00010015466250479221 0.15067915618419647 0.317407488822937 -0.4697021543979645 -6.12058283877559e-05 -1.4119813158686156e-06 1 True True
12603.688 3.013596773147583 -1.1445791584304352 1.4833830038653772 -1.9094072781004847 -1.5708048979388636 1.4428014755249023 -7.327467028517276e-05 0.17343145608901978 0.3615648150444031 -0.5294215083122253 -1.9875493308063596e-05 -2.0014871552120894e-05 1 True True
12603.738 3.013580560684204 -1.136244849567749 1.5007804075824183 -1.9354316196837367 -1.5707767645465296 1.442764401435852 -5.2075949497520924e-05 0.15936101973056793 0.33213478326797485 -0.49772700667381287 2.2125897558566976e-08 -7.192382505367399e-24 1 True True
12603.787999999999 3.013596773147583 -1.1287742120078583 1.5162494818316858 -1.9580356083311976 -1.5707648436175745 1.442810297012329 -0.0 0.14226844906806946 0.2810240089893341 -0.416877418756485 1.8260908063449932e-10 -1.0930128021733573e-42 1 True True
12603.838 3.0135881900787354 -1.1227149230292817 1.5289652983294886 -1.9772712192931117 -1.5708048979388636 1.4427820444107056 -9.713452813625307e-15 0.11263440549373627 0.23848740756511688 -0.3391117751598358 2.0650100850616582e-05 -0.0 1 True True
12603.887999999999 3.0135881900787354 -1.1176303190043946 1.539828125630514 -1.99298157314443 -1.5708087126361292 1.442808985710144 0.0 0.0897321030497551 0.18486617505550385 -0.2885529100894928 3.136755111608909e-24 -0.0 1 True True
12603.938 3.0135719776153564 -1.1136513215354462 1.547990624104635 -2.0051123104491175 -1.5707810560809534 1.4427119493484497 0.0 0.06835755705833435 0.14219067990779877 -0.2038060873746872 4.764414778704378e-43 -0.0 1 True True
12603.988 3.013530731201172 -1.110854224567749 1.5538910071002405 -2.0139266453185023 -1.5707886854754847 1.4428266286849976 0.0 0.0441330149769783 0.10149676352739334 -0.15045806765556335 0.0 -2.7326278392858505e-11 1 True True
12604.037999999999 3.013575315475464 -1.109241471891739 1.5574381987201136 -2.019095083276266 -1.570829216633932 1.4427317380905151 0.0 0.022144947201013565 0.047286514192819595 -0.07475059479475021 0.0 -4.150868035804435e-30 1 True True
12604.088 3.0135796070098877 -1.1088683766177674 1.5583608786212366 -2.021001001397604 -1.5707967917071741 1.4427436590194702 0.0 -0.00021085559274069965 -0.0003930119564756751 0.005396527703851461 -4.5155714020403415e-13 -0.0 1 True True
12604.137999999999 3.013522148132324 -1.1089172524264832 1.5584457556353968 -2.020973344842428 -1.5708168188678187 1.4427820444107056 0.0 0.001020218012854457 0.0033078843262046576 0.00021603357163257897 -6.859165877796707e-32 -0.0 1 True True
12604.188 3.013596773147583 -1.1087801319411774 1.558514420186178 -2.0209485493102015 -1.5708325544940394 1.442810297012329 0.0 0.0034928307868540287 0.003863927675411105 0.001326613943092525 -0.0 -0.00023439379583578557 1 True True
12604.238 3.013592481613159 -1.1083693665317078 1.5590527693377894 -2.020561834374899 -1.5707886854754847 1.4427523612976074 0.0 0.00019930167763959616 0.0001081114896805957 -0.00028164329705759883 -4.861898560193367e-05 -3.001594632223714e-05 1 True True
12604.287999999999 3.0135927200317383 -1.108318106537201 1.5589621702777308 -2.0206738911070765 -1.570784870778219 1.4427980184555054 0.0001502651284681633 -0.00021695636678487062 -0.00018006557365879416 0.00036116602132096887 -8.047289505770661e-13 -0.0007390445098280907 1 True False
12604.338 3.0135509967803955 -1.1083944600871583 1.5588215033160608 -2.0208097896971644 -1.5707767645465296 1.442765712738037 4.867390816798434e-05 -0.00070886843604967 -0.0007713451632298529 -0.000542256748303771 -1.2223844678282833e-31 -1.1832404389622297e-08 1 True False
12604.387999999999 3.0136213302612305 -1.108618603353836 1.5587709585772913 -2.0208212337889613 -1.5708006064044397 1.4427893161773682 2.904128450609278e-05 -0.001179549377411604 -0.001478714169934392 -0.0014578397385776043 -0.0 -1.797344846464233e-27 1 True False
12604.438 3.013603448867798 -1.1086248320392151 1.5586655775653284 -2.020853181878561 -1.570829216633932 1.4428068399429321 2.0691106328740716e-05 -0.0009047394269146025 -0.0012635559542104602 -0.00012960088497493416 -0.0 -0.0 1 True False
12604.488 3.0135793685913086 -1.1085998576930542 1.5586379210101526 -2.0207845173277796 -1.5707967917071741 1.442753791809082 0.0 -0.01228400506079197 -0.019722729921340942 0.010936207138001919 -0.0 -0.0 1 True False
12604.537999999999 3.0135719776153564 -1.1095424455455323 1.5570362249957483 -2.0184995136656703 -1.5708125273333948 1.4427582025527954 0.0 -0.024676112458109856 -0.05238804966211319 0.08657124638557434 -0.0 -0.0 1 True False
12604.588 3.0136048793792725 -1.1111560624888916 1.5533083120929163 -2.0127793751158656 -1.5707648436175745 1.4427613019943237 0.0 -0.04870129004120827 -0.10766022652387619 0.14869332313537598 -0.0 -0.0 1 True False
12604.637999999999 3.0135838985443115 -1.1141947668841858 1.5469344297992151 -2.003364702264303 -1.5708168188678187 1.442814588546753 0.0 -0.06966042518615723 -0.14793254435062408 0.23365828394889832 -0.0 -0.0 1 True False
12604.688 3.0135509967803955 -1.1184234780124207 1.5381892363177698 -1.9905711613097132 -1.5708611647235315 1.4427241086959839 0.0 -0.09176590293645859 -0.20017114281654358 0.2949879467487335 -1.7459589685131505e-07 4.507795178798624e-11 1 True False
12604.738 3.0135884284973145 -1.1236548286727448 1.5271709601031702 -1.9743811092772425 -1.5708048979388636 1.4427971839904785 0.0 -0.1117275133728981 -0.2394244521856308 0.36201292276382446 -3.374396692379378e-05 6.847349761562467e-30 1 True False
12604.787999999999 3.0135719776153564 -1.1300240916064759 1.513787094746725 -1.9544850788512171 -1.5707967917071741 1.4428024291992188 0.0 -0.14008593559265137 -0.28636959195137024 0.43498191237449646 -2.0554065486066975e-05 0.0 1 True False
12604.838 3.0135302543640137 -1.1375668209842225 1.497934643422262 -1.9312178097166957 -1.570784870778219 1.4428133964538574 0.0 -0.16945146024227142 -0.34017059206962585 0.48972955346107483 -1.1840883416880388e-05 1.2705325680428814e-10 1 True False
12604.887999999999 3.0136213302612305 -1.1460911494544526 1.4800975958453577 -1.9049297771849574 -1.5708211104022425 1.4428398609161377 0.0 -0.17107248306274414 -0.3546432554721832 0.5276088118553162 -3.415306638844193e-14 1.9299414458128068e-29 1 True False
12604.938 3.0135464668273926 -1.1540021759322663 1.4636324087726038 -1.8805352650084437 -1.5708335081683558 1.442810297012329 0.0 -0.14802956581115723 -0.3070982098579407 0.4549199342727661 -5.187857707625973e-33 0.0 1 True False
12604.988 3.0135631561279297 -1.1606860321811219 1.4495113531695765 -1.8594361744322718 -1.5707891623126429 1.442765712738037 0.0 -0.1227017492055893 -0.26358798146247864 0.3859218955039978 -0.0 0.0 1 True False
12605.037999999999 3.0135927200317383 -1.1663887661746521 1.4373839537249964 -1.8418766460814417 -1.570801083241598 1.4428386688232422 0.0 -0.10302915424108505 -0.20782360434532166 0.3141828179359436 -0.0 0.0 1 True False
12605.088 3.0135884284973145 -1.170866535311081 1.4280975500689905 -1.827864786187643 -1.5708335081683558 1.4427847862243652 0.0 -0.08381102979183197 -0.16647237539291382 0.24828068912029266 -0.0 0.0 1 True False
12605.137999999999 3.0135793685913086 -1.174287961130478 1.4209077993976038 -1.8173061809935511 -1.5707648436175745 1.4427570104599 0.0 -0.05518960580229759 -0.1234535202383995 0.18831698596477509 -0.0 0.0 1 True False
12605.188 3.0136420726776123 -1.1766009789756318 1.416196648274557 -1.8101960621275843 -1.5707686583148401 1.442810297012329 0.0 -0.036326490342617035 -0.07258586585521698 0.11477311700582504 -0.0 0.0 1 True False
12605.238 3.0135552883148193 -1.177732304935791 1.4136651198016565 -1.8067451916136683 -1.5708044211017054 1.442737102508545 0.0 -0.013334128074347973 -0.024820731952786446 0.04094742238521576 -0.0 0.0 1 True False
12605.287999999999 3.0135345458984375 -1.1777505737594147 1.4134014288531702 -1.806326528588766 -1.5708416144000452 1.4427701234817505 0.0 2.7484142139582714e-21 0.00019650932517834008 -5.837126445840113e-05 -0.0 0.0 1 False False
12605.338 3.0135884284973145 -1.1778542262366791 1.4134753386126917 -1.8063308201231898 -1.5708168188678187 1.442793607711792 0.0 0.0 1.3012786410495407e-29 -8.866611192371446e-24 -0.0 0.0 1 False False
12605.387999999999 3.0135719776153564 -1.1777956646731873 1.413426701222555 -1.8063513241209925 -1.570784870778219 1.4427847862243652 0.0 -5.152458106749691e-05 -0.0001478295016568154 0.00023916480131447315 -0.0 0.0 1 False False
12605.438 3.0135092735290527 -1.1778075856021424 1.4133904615985315 -1.8062831364073695 -1.5707405249225062 1.4428266286849976 0.0 -0.0003596442111302167 -0.0003228695713914931 0.0003236581978853792 -0.0 0.0 1 False False
12605.488 3.0135960578918457 -1.1778443616679688 1.4134038130389612 -1.806246896783346 -1.5707967917071741 1.4428014755249023 0.0 -0.0005543988663703203 -0.0001788240042515099 0.0003143019275739789 -0.0 0.0 1 False False
12605.537999999999 3.0135138034820557 -1.1778633755496521 1.4133742491351526 -1.8062793217101039 -1.570829216633932 1.4427539110183716 0.0 -0.00022087557590566576 -0.00014236537390388548 0.00013644779392052442 -0.0 0.0 1 False False
12605.588 3.0135509967803955 -1.177835689192154 1.4133504072772425 -1.806303163568014 -1.5707925001727503 1.4427239894866943 0.0 -0.00013489910634234548 -0.000111287365143653 0.00011308238754281774 -0.0 0.0 1 False False
12605.637999999999 3.0136303901672363 -1.1778357487967988 1.4133098761187952 -1.8062707386412562 -1.5708044211017054 1.4428386688232422 0.0 -0.00010794799163704738 -8.376991900149733e-05 9.722734830575064e-05 -0.0 0.0 1 False False
12605.688 3.0136168003082275 -1.1777900916389008 1.413347069417135 -1.8063084087767542 -1.5707843939410608 1.442765712738037 0.0 -7.557724165963009e-05 -5.646567660733126e-05 8.018055086722597e-05 -0.0 0.0 1 False False
12605.738 3.0136213302612305 -1.1778882306865235 1.4133546988116663 -1.8062268696227015 -1.5708335081683558 1.4427282810211182 0.0 -5.862454418092966e-05 -7.723838854521264e-22 2.8812753288188467e-23 -0.0 0.0 1 False False
12605.787999999999 3.0135464668273926 -1.17787321031604 1.413384262715475 -1.8062511883177699 -1.5708168188678187 1.4428024291992188 0.0 -3.781005311306454e-27 -0.0 4.376255104086404e-42 -0.0 0.0 1 False False
12605.838 3.0135586261749268 -1.1778806310943146 1.4133246580706995 -1.8062917194762171 -1.570772949849264 1.442765712738037 0.0 0.0 -0.0 0.0 -0.0 0.0 1 False False
12605.887999999999 3.0135838985443115 -1.1778225761703034 1.4133504072772425 -1.8062674007811488 -1.5708168188678187 1.4427909851074219 0.0 0.0 -0.0 0.0 -0.0 0.0 1 False False
12605.938 3.0135793685913086 -1.177867667084076 1.4133756796466272 -1.80627503017568 -1.570784870778219 1.4427613019943237 0.0 0.0 -0.0 0.0 -0.0 0.0 1 False False
12605.988 3.013554334640503 -1.1778600674918671 1.4133918921100062 -1.8062507114806117 -1.5707362333880823 1.4427613019943237 0.0 0.0 -0.0 0.0 -0.0 0.0 1 False False
12606.037999999999 3.0135674476623535 -1.1778851014426728 1.4133217970477503 -1.8062392673888148 -1.5707486311541956 1.4428223371505737 0.0 0.0 -0.0 0.0 -0.0 0.0 1 False False
12606.088 3.0135765075683594 -1.177896873360016 1.4133337179767054 -1.8062993488707484 -1.5707572142230433 1.4427106380462646 0.0 0.0 -0.0 0.0 -0.0 0.0 1 False False
12606.137999999999 3.0135631561279297 -1.1778520208648224 1.4134038130389612 -1.8062473736205042 -1.570813004170553 1.442793607711792 0.0 0.0 -0.0 0.0 -0.0 0.0 1 False False
12606.188 3.0136168003082275 -1.177838848238327 1.4133589903460901 -1.8062712154784144 -1.5708168188678187 1.442797064781189 0.0 0.0 -1.7762998483104068e-18 0.0 -0.0 0.0 1 False False
12606.238 3.0136005878448486 -1.1778882306865235 1.4133504072772425 -1.80627503017568 -1.5707805792437952 1.4428178071975708 0.0 0.0 -0.0 0.0 -0.0 0.0 1 True False
12606.287999999999 3.0136168003082275 -1.1778688591769715 1.4133876005755823 -1.8062669239439906 -1.5707891623126429 1.442808985710144 0.0 0.0 -0.0 0.0 -0.0 0.0 1 True False
12606.338 3.013603687286377 -1.1778606337359925 1.4133546988116663 -1.8062831364073695 -1.5707209745990198 1.4428266286849976 0.0 0.0 -0.0 0.0 -0.0 0.0 1 True False
12606.387999999999 3.013601541519165 -1.1778688889792939 1.4133589903460901 -1.8062473736205042 -1.5708048979388636 1.4427881240844727 0.0 0.0 -0.0 0.0 -0.0 0.0 1 True False
12606.438 3.0135796070098877 -1.1778882306865235 1.4133709112750452 -1.806218763391012 -1.570772949849264 1.4427733421325684 0.0 0.0 -0.0 0.0 -0.0 0.0 1 True False
12606.488 3.013561964035034 -1.1778719884208222 1.4133546988116663 -1.8062387905516566 -1.5708211104022425 1.4427893161773682 0.0 0.0 -0.0 0.0 -0.0 0.0 1 True False
12606.537999999999 3.0135676860809326 -1.177855746155121 1.4133456389056605 -1.8063041172423304 -1.5707925001727503 1.442764401435852 0.0 0.0 -0.0 0.0 -0.0 0.0 1 True False
12606.588 3.0135796070098877 -1.1778226655772706 1.4133666197406214 -1.8062144718565882 -1.5707319418536585 1.442786455154419 0.0 0.0 -0.0 0.0 -0.0 0.0 1 True False
12606.637999999999 3.0136168003082275 -1.177896873360016 1.4133546988116663 -1.8062793217101039 -1.5708654562579554 1.442677617073059 0.0 0.0 -0.0 0.0 -0.0 -0.0032229700591415167 1 True False
12606.688 3.0136330127716064 -1.1779056650451203 1.4133918921100062 -1.8062430820860804 -1.5708168188678187 1.4428133964538574 1.3889474321387724e-14 0.0 -0.0 0.0 -0.0 0.0004024886293336749 1 True False
12606.738 3.0136048793792725 -1.1779099267772217 1.4133504072772425 -1.8062793217101039 -1.570829216633932 1.442786455154419 0.0 0.0 -0.0 0.0 -0.0022894898429512978 -0.001002284581772983 1 True False
12606.787999999999 3.0135838985443115 -1.1778643292239686 1.4133246580706995 -1.8063036404051722 -1.5708048979388636 1.4427733421325684 0.0 -0.0 -0.0 0.0 -4.309227369958535e-05 -0.00043764678412117064 1 True False
12606.838 3.013538122177124 -1.1778312784484406 1.4133294264422815 -1.8062473736205042 -1.5708211104022425 1.442793607711792 0.0 0.0 -0.0 0.0 -0.000985936843790114 -7.710917270742357e-05 1 True False
12606.887999999999 3.0135796070098877 -1.1778969031623383 1.4133947531329554 -1.8062955341734828 -1.5707486311541956 1.4428386688232422 0.0 0.0 -0.0 0.0 1.6714202569055201e-15 -2.452787521178834e-05 1 True False
12606.938 3.013885021209717 -1.1778387886336823 1.4133785406695765 -1.8062507114806117 -1.5708335081683558 1.4430599212646484 0.026152441278100014 -0.0005371390143409371 0.0009907009080052376 0.0 3.885419202352157e-20 0.025235185399651527 1 True False
12606.988 3.0170185565948486 -1.1781182450107117 1.4136675039874476 -1.8063394031920375 -1.5708211104022425 1.4463638067245483 0.09723331034183502 -0.008817151188850403 0.010558645240962505 -0.0016395848942920566 5.901962247372442e-39 0.09860797226428986 1 True False
12607.037999999999 3.023956060409546 -1.1786459547332306 1.4142864386187952 -1.8065463505186976 -1.5707767645465296 1.4530688524246216 0.16864332556724548 -0.013077856041491032 0.015202593058347702 -0.005333871114999056 0.0 0.1686459183692932 1 True False
12607.088 3.034104585647583 -1.1793208879283448 1.4153059164630335 -1.806793829003805 -1.570801083241598 1.4633182287216187 0.24102000892162323 -0.015691474080085754 0.02419397607445717 -0.007794753648340702 0.0 0.2345636636018753 1 True False
12607.137999999999 3.0478355884552 -1.1801600617221375 1.416598145161764 -1.8072763882079066 -1.570801083241598 1.477003812789917 0.30593034625053406 -0.020223494619131088 0.02992929145693779 -0.008728389628231525 0.0 0.3075840473175049 1 True False
12607.188 3.064915180206299 -1.181444839840271 1.418215576802389 -1.8076869450011195 -1.570801083241598 1.494332194328308 0.37968558073043823 -0.025820080190896988 0.0350172184407711 -0.011566365137696266 8.656273712404072e-05 0.3761892020702362 1 True False
12607.238 3.0858988761901855 -1.1828439396670838 1.420220677052633 -1.80820955852651 -1.5708048979388636 1.5149176120758057 0.4453457295894623 -0.0298268161714077 0.04676305130124092 -0.01267749723047018 2.4544815460103564e-05 0.451241135597229 1 True False
12607.287999999999 3.1098475456237793 -1.1844972235015412 1.4225576559649866 -1.8089071712889613 -1.5708649794207972 1.5391361713409424 0.5188387036323547 -0.037343379110097885 0.05042632296681404 -0.014096484519541264 4.904478212441887e-11 0.5126312375068665 1 True False
12607.338 3.1374149322509766 -1.1864242416671296 1.4252508322345179 -1.8095642528929652 -1.5708168188678187 1.5668827295303345 0.58670973777771 -0.037943486124277115 0.05692688748240471 -0.016920285299420357 -0.0001778553705662489 0.5814680457115173 1 True False
12607.387999999999 3.168793201446533 -1.1886318188956757 1.4281848112689417 -1.8104096851744593 -1.5707648436175745 1.598070502281189 0.6560550928115845 -0.04510032385587692 0.062448468059301376 -0.020827893167734146 -0.00015048125351313502 0.6538451313972473 1 True False
12607.438 3.203512668609619 -1.191003994350769 1.431615177785055 -1.8113552532591761 -1.570784870778219 1.6326801776885986 0.7252552509307861 -0.04810349643230438 0.0661425068974495 -0.023263676092028618 0.0005484524299390614 0.7205168604850769 1 True False
12607.488 3.241565227508545 -1.1936111015132447 1.4350927511798304 -1.8124834499754847 -1.5707891623126429 1.6708192825317383 0.7934709787368774 -0.055117737501859665 0.07683994621038437 -0.02424302138388157 -0.0001081283189705573 0.7947584986686707 1 True False
12607.537999999999 3.2832417488098145 -1.196422205572464 1.4392393271075647 -1.8135315380492152 -1.5707686583148401 1.7124159336090088 0.867709755897522 -0.05917716771364212 0.08167131245136261 -0.021905476227402687 -0.0002720495394896716 0.8717133402824402 1 True False
12607.588 3.328389883041382 -1.1996169549277802 1.4436090628253382 -1.8146749935545863 -1.5707805792437952 1.757644772529602 0.9386345148086548 -0.06482897698879242 0.09100114554166794 -0.02452974021434784 -2.4752857289185735e-22 0.9307367205619812 1 True False
12607.637999999999 3.3769826889038086 -1.2029290956309815 1.4482453505145472 -1.8159753284850062 -1.5708254019366663 1.8062069416046143 1.0051053762435913 -0.07004287093877792 0.09476105868816376 -0.025193270295858383 -3.759964039476349e-41 1.008377194404602 1 True False
12607.688 3.428900957107544 -1.2064572137645264 1.4531524817096155 -1.8172980747618617 -1.5707648436175745 1.8580081462860107 1.0465394258499146 -0.07093460857868195 0.10115232318639755 -0.029314721003174782 0.0003261327219661325 1.0408015251159668 1 True False
12607.738 3.4811038970947266 -1.210174248819687 1.458092991505758 -1.8188091717162074 -1.5707686583148401 1.9104267358779907 1.0529577732086182 -0.0749121829867363 0.10190971195697784 -0.03017287142574787 -0.00019359197176527232 1.0460333824157715 1 True False
12607.787999999999 3.5334558486938477 -1.2137135726264496 1.4631856123553675 -1.820256849328512 -1.5707686583148401 1.9626564979553223 1.0464454889297485 -0.07248900830745697 0.101169154047966 -0.02468031458556652 -8.33454032544978e-05 1.0533674955368042 1 True False
12607.838 3.585919141769409 -1.217359022503235 1.4681161085711878 -1.821580549279684 -1.5707686583148401 2.0150232315063477 1.0443882942199707 -0.07149820774793625 0.0987720713019371 -0.030263712629675865 9.606939102013712e-07 1.0398385524749756 1 True False
12607.887999999999 3.6382715702056885 -1.2209146183780213 1.4732793013202112 -1.823019643823141 -1.5707362333880823 2.0674657821655273 1.048803448677063 -0.07146699726581573 0.09909355640411377 -0.028264062479138374 1.4592962857170151e-25 1.0474340915679932 1 True False
12607.938 3.690582752227783 -1.224664883022644 1.478274170552389 -1.8243867359557093 -1.570784870778219 2.1197702884674072 1.0452015399932861 -0.07283440977334976 0.10346249490976334 -0.025054125115275383 -3.2236283004749566e-05 1.0498074293136597 1 True False
12607.988 3.742980718612671 -1.2281795901111145 1.4832595030414026 -1.8258348904051722 -1.5708449522601526 2.1721043586730957 1.044276237487793 -0.07306940853595734 0.09938932955265045 -0.031430769711732864 2.1976058633299544e-05 1.0431042909622192 1 True False
12608.037999999999 3.79525089263916 -1.2318075460246583 1.488180939351217 -1.827249666253561 -1.5708211104022425 2.2245943546295166 1.0513124465942383 -0.07261721044778824 0.09877302497625351 -0.027781663462519646 1.8440251592821707e-23 1.0438232421875 1 True False
12608.088 3.8476436138153076 -1.2353760165027161 1.4932673613177698 -1.82861389736318 -1.5707524458514612 2.2768609523773193 1.0476489067077637 -0.07450658082962036 0.10232392698526382 -0.025705894455313683 2.8011956301853093e-42 1.0546627044677734 1 True False
12608.137999999999 3.900023937225342 -1.2390568119338532 1.4982159773456019 -1.8300367794432582 -1.5707805792437952 2.32914400100708 1.0427380800247192 -0.07499575614929199 0.10314735770225525 -0.026681341230869293 0.0 1.0410624742507935 1 True False
12608.188 3.9524054527282715 -1.242617056970932 1.5032885710345667 -1.8313805065550746 -1.5707767645465296 2.3816986083984375 1.0483269691467285 -0.07192778587341309 0.10122321546077728 -0.032537512481212616 -2.364450191194578e-09 1.0436835289001465 1 True False
12608.238 4.004796981811523 -1.246289150123932 1.5083444754229944 -1.832827707330221 -1.5707891623126429 2.4339566230773926 1.046004295349121 -0.07130775600671768 0.09938295185565948 -0.02978040650486946 -3.5916051235295358e-28 1.0493193864822388 1 True False
12608.287999999999 4.057193756103516 -1.2498431366733094 1.5133526960956019 -1.8342863521971644 -1.5707925001727503 2.48625111579895 1.0463309288024902 -0.07205091416835785 0.09867338836193085 -0.02366792783141136 -6.242092058528215e-05 1.0443577766418457 1 True False
12608.338 4.109478950500488 -1.2534899574569245 1.518277947102682 -1.8356067142882289 -1.5707767645465296 2.538811683654785 1.0514888763427734 -0.07226568460464478 0.1009097546339035 -0.027489563450217247 -7.503314236601e-08 1.0450434684753418 1 True False
12608.387999999999 4.161855220794678 -1.257120357160904 1.5233309904681605 -1.837017675439352 -1.570756737385885 2.5909855365753174 1.0481239557266235 -0.07107911258935928 0.10002757608890533 -0.02732979692518711 -0.00019920970953535289 1.0581789016723633 1 True False
12608.438 4.214175224304199 -1.2606888276389618 1.5283129850970667 -1.838445325891012 -1.5707643667804163 2.643317222595215 1.0442301034927368 -0.06962557137012482 0.1001192256808281 -0.02586491033434868 1.871681476472986e-08 1.0454241037368774 1 True False
12608.488 4.266555309295654 -1.2643297177604218 1.5333154837237757 -1.8399321041502894 -1.5707805792437952 2.695835590362549 1.046290636062622 -0.07166788727045059 0.10227615386247635 -0.034384835511446 -4.8588459321763366e-05 1.040999174118042 1 True False
12608.537999999999 4.318422794342041 -1.2679344576648255 1.5384329001056116 -1.8412510357298792 -1.5707405249225062 2.7475359439849854 1.0100412368774414 -0.07359892129898071 0.09478522092103958 -0.02592850662767887 -5.523183993494385e-11 1.014507532119751 1 True False
12608.588 4.3671555519104 -1.2711704236320038 1.543126408253805 -1.8424159489073695 -1.5707686583148401 2.796287775039673 0.9386763572692871 -0.06264311075210571 0.08765758574008942 -0.020879901945590973 -0.00014272773114498705 0.9338661432266235 1 True False
12608.637999999999 4.412271022796631 -1.274477944975235 1.5472472349749964 -1.8437839947142542 -1.5707648436175745 2.841414213180542 0.87408047914505 -0.06178254261612892 0.0860242024064064 -0.019336065277457237 0.0004807070072274655 0.8789183497428894 1 True False
12608.688 4.4540605545043945 -1.2771535080722352 1.5512288252459925 -1.844905515710348 -1.5707886854754847 2.8832972049713135 0.8014054298400879 -0.05473608896136284 0.07539824396371841 -0.025865858420729637 -0.00015002177678979933 0.7929847836494446 1 True False
12608.738 4.492256164550781 -1.2798589032939454 1.5549729506122034 -1.845835348168844 -1.5708044211017054 2.921549081802368 0.726854681968689 -0.04737357422709465 0.07076705992221832 -0.01771444082260132 8.154930401360616e-05 0.7246419787406921 1 True False
12608.787999999999 4.527036190032959 -1.2822759610465546 1.5582039991961878 -1.8468643627562464 -1.5707724730121058 2.956092596054077 0.6588496565818787 -0.0440550222992897 0.060238875448703766 -0.018513157963752747 -7.659194670850411e-05 0.6644064784049988 1 True False
12608.838 4.558286666870117 -1.2844253343394776 1.5613496939288538 -1.8476721249022425 -1.570801083241598 2.9873807430267334 0.5864385366439819 -0.039280880242586136 0.059330157935619354 -0.018107883632183075 -0.00032129205646924675 0.5940258502960205 1 True False
12608.887999999999 4.5859198570251465 -1.286256955271103 1.5639985243426722 -1.8484517536559046 -1.5707843939410608 3.015157699584961 0.5210171937942505 -0.03413480892777443 0.047886595129966736 -0.013703000731766224 -0.00044219393748790026 0.5210245847702026 1 True False
12608.938 4.610165596008301 -1.2880188983729859 1.5663068930255335 -1.8491236172118128 -1.5708087126361292 3.039630174636841 0.44864532351493835 -0.031547848135232925 0.04337851703166962 -0.012939347885549068 -0.0010441801277920604 0.44649195671081543 1 True False
12608.988 4.631041049957275 -1.2894020837596436 1.5684197584735315 -1.8495680294432582 -1.5707972685443323 3.060292959213257 0.37951433658599854 -0.02566133812069893 0.0352923609316349 -0.012427780777215958 3.913998170901323e-06 0.3830041289329529 1 True False
12609.037999999999 4.6485371589660645 -1.2906287473491211 1.5699823538409632 -1.850053449670309 -1.5707529226886194 3.0774943828582764 0.3095497190952301 -0.022263597697019577 0.027880225330591202 -0.0076684788800776005 0.0005820630467496812 0.3181759715080261 1 True False
12609.088 4.662184715270996 -1.291639731531479 1.57127553621401 -1.8504706821837367 -1.5707767645465296 3.0914089679718018 0.24534368515014648 -0.01734987273812294 0.02407238818705082 -0.005198224447667599 -9.139241592492908e-05 0.24241071939468384 1 True False
12609.137999999999 4.672478675842285 -1.2923529011062165 1.5722554365741175 -1.8506742916502894 -1.5708406607257288 3.101719617843628 0.17477813363075256 -0.01194140687584877 0.01648906245827675 -0.004843559116125107 -3.300593380117789e-05 0.16982634365558624 1 True False
12609.188 4.6793036460876465 -1.292697862987854 1.5729487578021448 -1.8508364162840785 -1.570784870778219 3.108513355255127 0.10054462403059006 -0.005594511516392231 0.0095490962266922 -0.003441401058807969 -1.1313754839648027e-05 0.1025325208902359 1 True False
12609.238 4.6826171875 -1.292965130215027 1.573139492665426 -1.8509875736632289 -1.5707843939410608 3.111846446990967 0.03097604773938656 -0.0017778498586267233 0.0016704309964552522 -0.00183279684279114 -1.8708485527432696e-16 0.03342027589678764 1 True False
12609.287999999999 4.682855606079102 -1.2928297978690644 1.5736287275897425 -1.8517915211119593 -1.5708087126361292 3.112164258956909 -0.0009644028614275157 0.009201249107718468 0.025833621621131897 -0.02891969121992588 -2.841823312889818e-35 0.0002064559084828943 1 True False
12609.338 4.682933330535889 -1.2917492550662537 1.5759604612933558 -1.8554102383055628 -1.5708254019366663 3.1121551990509033 0.0002779802889563143 0.038660719990730286 0.06666857749223709 -0.11111567169427872 0.00012054193211952224 0.00128637021407485 1 True False
12609.387999999999 4.682972431182861 -1.2892156106284638 1.580606762562887 -1.8623715839781703 -1.5708449522601526 3.112236261367798 0.0004429547698237002 0.06701692938804626 0.11701337993144989 -0.18907567858695984 6.75581832183525e-05 0.0004509164427872747 1 True False
12609.438 4.683055877685547 -1.2853198510459443 1.5875690619098108 -1.8729764423766078 -1.5707767645465296 3.11221981048584 0.0007510472787544131 0.0900900810956955 0.15775856375694275 -0.23877598345279694 4.1567978769307956e-05 0.0002060339174931869 1 True False
12609.488 4.6829962730407715 -1.280365751390793 1.5966294447528284 -1.8871900043883265 -1.5707967917071741 3.11224365234375 0.0003476276178844273 0.10859910398721695 0.20651257038116455 -0.31085413694381714 4.0020091546466574e-05 0.00012010180216748267 1 True False
12609.537999999999 4.683011054992676 -1.274134175186493 1.6082828680621546 -1.9046651325621546 -1.570824925099508 3.1122288703918457 0.00013321822916623205 0.13497687876224518 0.24774916470050812 -0.3915693461894989 2.6581155679328283e-11 8.475559297949076e-05 1 True False
12609.588 4.683018684387207 -1.2667786341956635 1.6217182318316858 -1.9257008037962855 -1.5707925001727503 3.1122779846191406 -6.117742217762873e-14 0.16345754265785217 0.29896458983421326 -0.45548731088638306 4.037682411910651e-30 1.0852967650804594e-19 1 True False
12609.637999999999 4.683043956756592 -1.2581435602954407 1.6378148237811487 -1.950522085229391 -1.5708211104022425 3.112260103225708 0.0 0.1845306009054184 0.3383703827857971 -0.5181190371513367 0.0 1.6485680880934135e-38 1 True False
12609.688 4.683027744293213 -1.2484758657268067 1.6552990118609827 -1.9774018726744593 -1.5707648436175745 3.1121819019317627 0.0 0.1787438690662384 0.3365151286125183 -0.5198231935501099 2.1882706278120168e-05 0.0 1 True False
12609.738 4.683042049407959 -1.2400087279132386 1.6711538473712366 -2.001701971093649 -1.5707891623126429 3.1122453212738037 0.0 0.16036869585514069 0.29275256395339966 -0.45414280891418457 4.7803747808465345e-18 1.3790089496978908e-06 1 True False
12609.787999999999 4.683022975921631 -1.2327898305705567 1.6844771544085901 -2.022740503350729 -1.5708168188678187 3.112227201461792 0.0 0.13500159978866577 0.2505885362625122 -0.3772267699241638 7.26139949846473e-37 -2.0998391914162085e-09 1 True False
12609.838 4.682999134063721 -1.2266356509974976 1.6958401838885706 -2.0400177441039027 -1.5707805792437952 3.112252712249756 0.0 0.11239301413297653 0.19866614043712616 -0.3043791651725769 0.0 -3.189659933017274e-28 1 True False
12609.887999999999 4.682997703552246 -1.2216425699046631 1.7047231833087366 -2.053873201409811 -1.5707767645465296 3.112231731414795 0.0 0.085433229804039 0.15460042655467987 -0.24414968490600586 0.0 -0.0 1 True False
12609.938 4.683006286621094 -1.2180404228023072 1.7114771048175257 -2.0642858944334925 -1.570801083241598 3.1122074127197266 0.0 0.05999966338276863 0.11499786376953125 -0.16650177538394928 0.0 -0.0 1 True False
12609.988 4.682994842529297 -1.2156578463367005 1.7158921400653284 -2.0711881122984828 -1.5707891623126429 3.112257242202759 0.0 0.03532583639025688 0.06445594877004623 -0.09985221922397614 0.0 -0.0 1 True False
12610.037999999999 4.683034896850586 -1.2144836646369477 1.7182148138629358 -2.0745378933348597 -1.5707810560809534 3.112210988998413 0.0 0.012292231433093548 0.024463875219225883 -0.039278797805309296 0.0 -0.0 1 True False
12610.088 4.682994842529297 -1.2144144636443635 1.7183764616595667 -2.0749265156187953 -1.5708325544940394 3.112231731414795 0.0 -0.0005288136308081448 -9.625709208194166e-05 0.00016379455337300897 0.0 -2.6423015927235384e-22 1 True False
12610.137999999999 4.683006286621094 -1.2144023042968293 1.7184422651873987 -2.074918409387106 -1.5707691351519983 3.1122000217437744 0.0 4.375721255200915e-05 0.0003363328578416258 1.3593798939837143e-06 0.0 -4.013599061519141e-41 1 True False
12610.188 4.6830244064331055 -1.2142960292151947 1.718468968068258 -2.074947019616598 -1.570784870778219 3.1121773719787598 0.0 0.00010000645852414891 0.0006641807267442346 2.0649007350911434e-25 0.0 -0.0 1 True False
12610.238 4.68303918838501 -1.2143303614905854 1.7184718290912073 -2.0749670467772425 -1.5707929770099085 3.1121938228607178 0.0 0.00010668261529644951 0.00047286905464716256 3.0828566215145976e-44 0.0 -0.0 1 True False
12610.287999999999 4.683048248291016 -1.2143422824195405 1.7185047308551233 -2.0749827824034632 -1.5708048979388636 3.1121747493743896 0.0 9.377658716402948e-05 0.00011899808305315673 0.0 0.0 -0.0 1 True False
12610.338 4.682982921600342 -1.214351163511612 1.7184842268573206 -2.0749908886351527 -1.5708125273333948 3.112236261367798 0.0 0.00010381113679613918 7.163704867707565e-05 0.0 0.0 -0.0 1 True False
12610.387999999999 4.682999134063721 -1.2143927973559876 1.7184675375567835 -2.074858327905172 -1.5708006064044397 3.112257242202759 -3.5585963065187798e-09 0.00010748413478722796 5.124301969772205e-05 0.0 0.0 -0.0 1 True False
12610.438 4.682985782623291 -1.2143020790866395 1.7184494177447718 -2.0749508343138636 -1.5707929770099085 3.112240791320801 -3.3783850085455924e-05 8.07580872788094e-05 2.123209869901558e-31 0.0 0.0 -4.3259327868992725e-15 1 True False
12610.488 4.6829752922058105 -1.2143600446036835 1.7185242811786097 -2.074947019616598 -1.570784870778219 3.11221981048584 -1.742834319884423e-05 2.1317789844488289e-07 0.0 0.0 0.0 -6.57110204235038e-34 1 True False
12610.537999999999 4.682994842529297 -1.214310960178711 1.7184627691852015 -2.074947019616598 -1.5708206335650843 3.112231731414795 -1.1743276445486117e-05 0.0 0.0 0.0 0.0 -0.0 1 True False
12610.588 4.682999134063721 -1.2143273216537018 1.7184255758868616 -2.074902673760885 -1.5707810560809534 3.1122119426727295 -7.572039613908813e-28 8.469974178820068e-36 0.0 0.0 0.0 -0.0 1 True False
12610.637999999999 4.6829752922058105 -1.2143272918513794 1.7184584776507776 -2.074974676171774 -1.5708730856524866 3.1122000217437744 0.0 0.0 0.0 0.0 0.0 -0.0 1 True False
12610.688 4.683022975921631 -1.2144247752479096 1.7183640638934534 -2.075038572350973 -1.570756737385885 3.11224365234375 0.0 -2.7882277335439627e-22 8.435161726083606e-05 -0.0003471951640676707 0.0001093555983970873 -0.00018799664394464344 1 True False
12610.738 4.683048248291016 -1.214412884121277 1.718363110219137 -2.0750180683531703 -1.5708006064044397 3.112251043319702 0.0 0.0003028221253771335 0.00024295040930155665 -6.686632696073502e-05 6.510569801321253e-05 -9.142227645497769e-05 1 True True
12610.787999999999 4.683022975921631 -1.2144716543010254 1.7182562986956995 -2.0745207271971644 -1.570841137562887 3.112210750579834 0.0 -0.009128437377512455 -0.01344345137476921 0.03436637297272682 4.0617633203510195e-05 -6.977261364227161e-05 1 True True
12610.838 4.6830315589904785 -1.2153033179095765 1.7165887991534632 -2.0712739429869593 -1.5707810560809534 3.1121864318847656 0.0 -0.03910501301288605 -0.06933801621198654 0.08849868178367615 3.428604031796567e-06 -7.230906339827925e-05 1 True True
12610.887999999999 4.6830315589904785 -1.2178369921496888 1.7119925657855433 -2.064378400842184 -1.5707929770099085 3.112240791320801 0.0 -0.0565122552216053 -0.11155381798744202 0.16454634070396423 5.208055751964594e-25 -0.00010241339623462409 1 True True
12610.938 4.683027267456055 -1.2216720444015046 1.7050555388080042 -2.054222723046774 -1.5708125273333948 3.112240791320801 0.0 -0.08548194915056229 -0.16258911788463593 0.2358669638633728 6.797957150604769e-16 -9.138148743659258e-05 1 True True
12610.988 4.683022975921631 -1.2263623935035248 1.6961639563189905 -2.0404182873167933 -1.5708368460284632 3.112248182296753 0.0 -0.10861167311668396 -0.20284657180309296 0.29800349473953247 1.0326111757699153e-34 -7.514760363847017e-05 1 True True
12611.037999999999 4.683030605316162 -1.2325218480876465 1.6847532431231897 -2.023154398004049 -1.570784870778219 3.1121864318847656 0.0 -0.13442836701869965 -0.24561955034732819 0.38476571440696716 0.0 -6.361689884215593e-05 1 True True
12611.088 4.683002471923828 -1.2398109597018738 1.6713531653033655 -2.0025164089598597 -1.5707691351519983 3.1121909618377686 0.0 -0.1611984223127365 -0.2920009195804596 0.4567015767097473 0.0 -1.4612294154765552e-19 1 True True
12611.137999999999 4.683002471923828 -1.2483348113349457 1.6556676069842737 -1.9782082043089808 -1.5707886854754847 3.1122019290924072 0.0 -0.18126001954078674 -0.34286263585090637 0.5103000998497009 0.0 -2.2196095437322625e-38 1 True True
12611.188 4.683018684387207 -1.257981316452362 1.6381562391864222 -1.951134820977682 -1.5708048979388636 3.1122586727142334 0.0 -0.18502339720726013 -0.34276822209358215 0.5276942253112793 0.0 -0.0 1 True True
12611.238 4.683030605316162 -1.2664918166450043 1.6221616903888147 -1.926443716088766 -1.5708168188678187 3.112248182296753 0.0 -0.1622307449579239 -0.29696354269981384 0.45894595980644226 0.0 -0.0 1 True True
12611.287999999999 4.683035850524902 -1.2740079325488587 1.6085212866412562 -1.905222555200094 -1.5708006064044397 3.1121819019317627 0.0 -0.1389642059803009 -0.25826573371887207 0.39540916681289673 0.0 -0.0 1 True True
12611.338 4.683040142059326 -1.2801410418799897 1.5969613234149378 -1.8875647983946742 -1.5707648436175745 3.112248182296753 0.0 -0.11084605008363724 -0.20326988399028778 0.3106359839439392 0.0 1.8227189495401982e-16 1 True True
12611.387999999999 4.683019638061523 -1.2851544183543702 1.5878756682025355 -1.8732711277403773 -1.5707929770099085 3.1122663021087646 0.0 -0.08781405538320541 -0.16041183471679688 0.2628318965435028 0.0 2.768714509328069e-35 1 True True
12611.438 4.683027267456055 -1.2890007060817261 1.580792252217428 -1.8625346622862757 -1.5708168188678187 3.1122853755950928 0.0 -0.06654559820890427 -0.11895153671503067 0.17829358577728271 0.0 0.0 1 True True
12611.488 4.682999134063721 -1.2915591460517426 1.5762236754046839 -1.855455060998434 -1.5707648436175745 3.1122028827667236 -0.0 -0.038519032299518585 -0.07140520215034485 0.10569100081920624 0.0 0.0 1 True True
12611.537999999999 4.68303918838501 -1.2927822333625336 1.5736983458148401 -1.8516036472716273 -1.570723835621969 3.112231731414795 0.0 -0.014945595525205135 -0.029003918170928955 0.038017645478248596 0.0 0.0 1 True True
12611.588 4.682682514190674 -1.292957530622818 1.5733917395221155 -1.8511225185790003 -1.570756737385885 3.1119489669799805 -0.02787681668996811 -0.00016681008855812252 0.006786533631384373 0.0005755439051426947 0.0 -0.02631893940269947 1 True True
12611.637999999999 4.679594993591309 -1.2935022872737427 1.5737531820880335 -1.8511187038817347 -1.5707362333880823 3.108654499053955 -0.09729240834712982 -0.014154668897390366 0.013981889933347702 0.00012420733401086181 0.0 -0.10174471884965897 1 True True
12611.688 4.672667503356934 -1.294352964763977 1.5747807661639612 -1.851206441918844 -1.5708087126361292 3.1019022464752197 -0.1673324555158615 -0.021907715126872063 0.02759660594165325 -0.004331030882894993 -0.00032722257310524583 -0.1669803410768509 1 True True
12611.738 4.662501335144043 -1.2956704062274476 1.5762160460101526 -1.8515407047667445 -1.5707843939410608 3.091676950454712 -0.23917433619499207 -0.030738551169633865 0.03663226217031479 -0.0063603827729821205 -0.00015172784333117306 -0.23513378202915192 1 True True
12611.787999999999 4.648770809173584 -1.2974005502513428 1.5783355871783655 -1.8518902264037074 -1.570784870778219 3.078099489212036 -0.3077908456325531 -0.041662972420454025 0.04941796138882637 -0.011344900354743004 9.687007446190776e-11 -0.3093956708908081 1 True True
12611.838 4.631655216217041 -1.2995918852141877 1.5810931364642542 -1.8523675403990687 -1.5708087126361292 3.0607359409332275 -0.37714311480522156 -0.046863820403814316 0.06066237390041351 -0.009990934282541275 1.4714587762237348e-29 -0.3749758005142212 1 True True
12611.887999999999 4.61079216003418 -1.3022250992110749 1.5843103567706507 -1.852811952630514 -1.5707967917071741 3.0401253700256348 -0.4467237889766693 -0.05612596124410629 0.06749175488948822 -0.010932665318250656 0.0 -0.4559468924999237 1 True True
12611.938 4.586793899536133 -1.3053027552417298 1.5879796187030237 -1.8534923992552699 -1.5707653204547327 3.0160505771636963 -0.5179017186164856 -0.06733472645282745 0.07894113659858704 -0.016106782481074333 -2.809210491250269e-05 -0.5237439870834351 1 True True
12611.988 4.559149265289307 -1.3088175815394898 1.5921614805804651 -1.8541795216002406 -1.5707610289203089 2.9882633686065674 -0.5874871611595154 -0.07295013964176178 0.09303043782711029 -0.013092550449073315 0.00035961915273219347 -0.5826309323310852 1 True True
12612.037999999999 4.527807712554932 -1.3128103476813813 1.5969961325274866 -1.8550344906248988 -1.5707843939410608 2.957139015197754 -0.652870237827301 -0.08218621462583542 0.10367528349161148 -0.011250711977481842 -0.00015161432384047657 -0.648080050945282 1 True True
12612.088 4.493153095245361 -1.3171280187419434 1.602304760609762 -1.8559614620604457 -1.5708611647235315 2.922410726547241 -0.729789674282074 -0.09201499074697495 0.11180977523326874 -0.01532747969031334 -0.0008679568418301642 -0.7200143933296204 1 True True
12612.137999999999 4.454979419708252 -1.3219525826028367 1.6081450621234339 -1.856868406335348 -1.5707886854754847 2.88433575630188 -0.793853759765625 -0.10235460102558136 0.11956879496574402 -0.02170981466770172 -0.00013977369235362858 -0.8069254755973816 1 True True
12612.188 4.413361072540283 -1.3272331816009064 1.6143701712237757 -1.85792936901235 -1.5707686583148401 2.8426241874694824 -0.8630167841911316 -0.11181376129388809 0.1344003975391388 -0.024279944598674774 0.0001084315445041284 -0.8646016716957092 1 True True
12612.438 4.16316032409668 -1.359147311454155 1.6527403036700647 -1.8643299541869105 -1.570829216633932 2.592273235321045 -1.0464221239089966 -0.13598620891571045 0.15964840352535248 -0.03153528273105621 0.00033259333577007055 -1.0510637760162354 1 True True
12612.488 4.110805988311768 -1.3659198445132752 1.6606882254229944 -1.865678449670309 -1.5708211104022425 2.540186643600464 -1.045257568359375 -0.13273219764232635 0.16116897761821747 -0.02077053114771843 5.477827830752258e-20 -1.0496221780776978 1 True True
12612.537999999999 4.0585174560546875 -1.3724762809327622 1.6688140074359339 -1.8670093021788539 -1.5708168188678187 2.487677574157715 -1.0510097742080688 -0.133123517036438 0.1559467911720276 -0.02926430106163025 8.320830407148297e-39 -1.04127037525177 1 True True
12612.588 4.006133079528809 -1.3791988056949158 1.6766842047320765 -1.8683930836119593 -1.5708091894732874 2.435170888900757 -1.045003056526184 -0.1328398585319519 0.16148120164871216 -0.025954315438866615 -4.9236452468903735e-05 -1.0530712604522705 1 True True
12612.637999999999 3.9538075923919678 -1.385757641201355 1.6847146193133753 -1.8696452579894007 -1.570772949849264 2.3831136226654053 -1.04567289352417 -0.13314570486545563 0.15848197042942047 -0.024334026500582695 -4.639649107492787e-17 -1.0519357919692993 1 True True
12612.688 3.901358127593994 -1.3924345088056107 1.6928218046771448 -1.8710042438902796 -1.5708325544940394 2.3306517601013184 -1.0501583814620972 -0.13760194182395935 0.16447606682777405 -0.02472357638180256 -7.25949769048162e-12 -1.0433341264724731 1 True True
12612.738 3.8490021228790283 -1.3991640967181702 1.7008021513568323 -1.8723846874632777 -1.5707886854754847 2.278111219406128 -1.0450868606567383 -0.13387100398540497 0.1570807546377182 -0.029028858989477158 -2.274345600739025e-09 -1.0488241910934448 1 True True
12612.787999999999 3.7965996265411377 -1.4058324706605454 1.708689037953512 -1.8737365208067835 -1.5708048979388636 2.225973606109619 -1.0453588962554932 -0.13246549665927887 0.16010424494743347 -0.025887291878461838 -0.00014813859888818115 -1.054270625114441 1 True True
12612.838 3.74432635307312 -1.4124731284431 1.7166903654681605 -1.8750716648497523 -1.5708211104022425 2.1734890937805176 -1.0501173734664917 -0.1306067705154419 0.1602793037891388 -0.027249692007899284 -3.4238854138660674e-23 -1.042138934135437 1 True True
12612.887999999999 3.6919708251953125 -1.419168235068657 1.7247098127948206 -1.8764001331725062 -1.5707724730121058 2.1210362911224365 -1.0457013845443726 -0.13123774528503418 0.1638692319393158 -0.02571450173854828 4.649330003303476e-05 -1.0543659925460815 1 True True
12612.938 3.639558792114258 -1.4257206481746216 1.732795540486471 -1.8777171574034632 -1.5707691351519983 2.0689537525177 -1.044775128364563 -0.13377787172794342 0.15552011132240295 -0.02691221982240677 3.960159171222871e-20 -1.0503267049789429 1 True True
12612.988 3.5872976779937744 -1.4323761028102417 1.740694824849264 -1.8790866337218226 -1.5708168188678187 2.016444206237793 -1.0497448444366455 -0.1341363936662674 0.16255414485931396 -0.02666855975985527 6.015491245056646e-39 -1.0418518781661987 1 True True
12613.037999999999 3.534851312637329 -1.439122126703598 1.7486103216754358 -1.8804074726500453 -1.5707967917071741 1.9639557600021362 -1.0437202453613281 -0.13231508433818817 0.15966366231441498 -0.03124651126563549 -4.539980000117794e-05 -1.0452958345413208 1 True True
12613.088 3.482394218444824 -1.4457611304572602 1.7568090597735804 -1.881852766076559 -1.5708087126361292 1.911807656288147 -1.0435537099838257 -0.13343216478824615 0.16124875843524933 -0.024095818400382996 -1.4818507231246513e-17 -1.051668405532837 1 True True
12613.137999999999 3.430171012878418 -1.4523518097451706 1.7647712866412562 -1.883101602593893 -1.5708406607257288 1.8593875169754028 -1.0507426261901855 -0.13524308800697327 0.1549340933561325 -0.026806123554706573 -2.250934107946647e-36 -1.0418425798416138 1 True True
12613.188 3.3777618408203125 -1.4590544787100335 1.7726600805865687 -1.8844310245909632 -1.5707886854754847 1.8069342374801636 -1.0461713075637817 -0.1330004334449768 0.1592944711446762 -0.0305074080824852 -0.0 -1.0495203733444214 1 True True
12613.238 3.3268790245056152 -1.465560221379139 1.7804859320269983 -1.8857447109618128 -1.5707967917071741 1.756169319152832 -0.9838050007820129 -0.12424406409263611 0.15249013900756836 -0.024572797119617462 -0.0 -0.992092490196228 1 True True
12613.287999999999 3.279461622238159 -1.4715236735394974 1.7878668943988245 -1.886885782281393 -1.5707772413836878 1.7085211277008057 -0.9171173572540283 -0.11618572473526001 0.14024081826210022 -0.024509897455573082 0.0002079867263091728 -0.9101595878601074 1 True True
12613.338 3.235447883605957 -1.4771258023432274 1.7945516745196741 -1.8882118664183558 -1.570824925099508 1.664684534072876 -0.8419288992881775 -0.10892907530069351 0.12590385973453522 -0.02005939744412899 -3.0731846436538035e-06 -0.8493907451629639 1 True True
12613.387999999999 3.194854736328125 -1.4823068541339417 1.800575081502096 -1.8891006908812464 -1.5707805792437952 1.6241227388381958 -0.7728512287139893 -0.09986535459756851 0.12007033824920654 -0.014196060597896576 -4.2634257235718565e-10 -0.7839672565460205 1 True True
12613.438 3.1579034328460693 -1.4869814303568383 1.806345287953512 -1.890055318871969 -1.5707724730121058 1.5870448350906372 -0.7078104019165039 -0.08824203908443451 0.10814335197210312 -0.018437933176755905 -0.0014360735658556223 -0.7006332278251648 1 True True
12613.488 3.1244144439697266 -1.4912647169879456 1.8113420645343226 -1.891001363793844 -1.5708006064044397 1.5537018775939941 -0.6410738229751587 -0.07925941795110703 0.10061845928430557 -0.015974683687090874 2.7719291750827324e-08 -0.6322492361068726 1 True True
