Andreas691667/Digital_Twin_UR/src/controller_monitor/robot_output/busterTest3_robot_output.csv
timestamp actual_q_0 actual_q_1 actual_q_2 actual_q_3 actual_q_4 actual_q_5 actual_qd_0 actual_qd_1 actual_qd_2 actual_qd_3 actual_qd_4 actual_qd_5 safety_status output_bit_register_65 output_bit_register_66
7156.798 3.7120327949523926 -0.8255165380290528 0.8430498282061976 -1.5882498226561488 -1.5707767645465296 2.141279697418213 0.0 0.0 0.0 -0.0 -0.0 -0.0 1 False False
7156.848 3.7120819091796875 -0.8254954379848023 0.8430007139789026 -1.5882932148375453 -1.5707686583148401 2.141308546066284 0.0 0.0 0.0 -0.0 -0.0 -0.0 1 False False
7156.897999999999 3.7120580673217773 -0.8254426282695313 0.8429845015155237 -1.588320871392721 -1.5708048979388636 2.141275405883789 0.0 0.0 0.0 -0.0 -0.0 -0.0 1 False False
7156.947999999999 3.712090492248535 -0.8254663509181519 0.8429964224444788 -1.5882488689818324 -1.5708416144000452 2.141221761703491 0.0 0.0 0.0 -0.0 -0.0 -0.0 1 False False
7156.998 3.712090492248535 -0.825406090622284 0.8430007139789026 -1.5883013210692347 -1.5707891623126429 2.141291618347168 0.0 0.0 0.0 -0.0 -0.0 -0.00026140734553337097 1 False False
7157.048 3.712090492248535 -0.825483576660492 0.8430007139789026 -1.5882774792113246 -1.570723835621969 2.141287088394165 0.0 0.0 0.0 -0.0 -0.0 -3.940207750543193e-22 1 False False
7157.098 3.712106704711914 -0.825430766945221 0.8429587523089808 -1.5882846317686976 -1.5708254019366663 2.141247034072876 0.0 0.0 0.0 -0.0 -0.0 -5.985226000824159e-41 1 False False
7157.147999999999 3.712094783782959 -0.8254750531962891 0.8430007139789026 -1.5882412395873011 -1.5707686583148401 2.1412839889526367 0.0 0.0 0.0 -0.0 -0.0 -0.0 1 False False
7157.197999999999 3.712099075317383 -0.8254997295192261 0.8429515997516077 -1.5882650814452113 -1.5707805792437952 2.141258955001831 0.0 0.0 0.0 -0.0 -0.0 -0.0 1 False False
7157.248 3.7121024131774902 -0.8254459661296387 0.8429845015155237 -1.5883094273009242 -1.5707362333880823 2.1412930488586426 0.0 0.0 0.0 -0.0 -0.0 -0.0 1 False False
7157.298 3.712082862854004 -0.8254308265498658 0.8429673353778284 -1.5882607899107875 -1.570853058491842 2.141308546066284 0.0 0.0 0.0 -0.0 -0.0 -0.0 1 False False
7157.348 3.712062358856201 -0.8254621189883729 0.8429802099810999 -1.5882889233031214 -1.5707686583148401 2.141361951828003 0.0 0.0 0.0 -0.0 -0.0 -0.0 1 False False
7157.397999999999 3.7120492458343506 -0.8254877489856263 0.8430126349078577 -1.5882569752135218 -1.5707767645465296 2.1412997245788574 0.0 0.0 0.0 -0.0 -0.0 -0.0 1 False False
7157.447999999999 3.7120656967163086 -0.8254954379848023 0.8429673353778284 -1.5882774792113246 -1.5708335081683558 2.141291618347168 0.0 0.0 0.0 -0.0 -0.0 -0.0 1 False False
7157.498 3.712045907974243 -0.8254546684077759 0.8429964224444788 -1.5882731876769007 -1.570772949849264 2.141242504119873 0.0 0.0 0.0 -0.0 -0.0 -0.0 1 False False
7157.548 3.712090492248535 -0.8254546088031312 0.8429630438434046 -1.5882607899107875 -1.5708211104022425 2.141263484954834 0.0 0.0 0.0 -0.0 -0.0 -0.0 1 False False
7157.598 3.7120819091796875 -0.8255446714213868 0.8430336157428187 -1.5882898769774378 -1.5708048979388636 2.1412558555603027 0.0 0.0 0.0 -0.0 -0.0 -0.0 1 False False
7157.647999999999 3.712062358856201 -0.8254265946200867 0.8429802099810999 -1.5883013210692347 -1.570784870778219 2.141258955001831 0.0 0.0 0.0 -0.0 -0.0 -4.408695630786497e-09 1 False False
7157.697999999999 3.7120938301086426 -0.8254750531962891 0.8430083433734339 -1.588269372979635 -1.5707891623126429 2.141279697418213 0.0 0.0 0.0 -0.0 -0.0 -6.696820009981478e-28 1 False False
7157.748 3.7120862007141113 -0.8254416745952149 0.8430007139789026 -1.5882889233031214 -1.570801083241598 2.141313076019287 0.0 0.0 0.0 -0.0 -0.0 -0.0 1 False False
7157.798 3.7120413780212402 -0.825455443268158 0.8430083433734339 -1.5882846317686976 -1.570784870778219 2.141329288482666 0.0 0.0 0.0 -0.0 -0.0 -0.0 1 False False
7157.848 3.7120580673217773 -0.825438455944397 0.842966381703512 -1.5882650814452113 -1.57074481645693 2.1413204669952393 0.0 0.0 0.0 -0.0 -0.0 -0.0 1 False False
7157.897999999999 3.7121057510375977 -0.8254750531962891 0.8429802099810999 -1.588292738000387 -1.5707686583148401 2.141263484954834 0.0 0.0 0.0 -0.0 -0.0 -0.0 1 False False
7157.947999999999 3.7120776176452637 -0.8254739803126832 0.8429892698871058 -1.5883175335326136 -1.570784870778219 2.141267776489258 0.0 0.0 0.0 -0.0 -0.0 -1.0501353841195107e-24 1 False False
7157.998 3.7120819091796875 -0.8254416745952149 0.8429754416095179 -1.5882569752135218 -1.570801083241598 2.141279697418213 0.0 0.0 0.0 -0.0 -0.0 -1.5974802493302915e-43 1 False False
7158.048 3.7120862007141113 -0.825541154747345 0.8430174032794397 -1.5883008442320765 -1.5707805792437952 2.141279697418213 0.0 0.0 0.0 -0.0 -0.0 -0.0 1 False False
7158.098 3.7120776176452637 -0.8254912060550232 0.8430174032794397 -1.5883013210692347 -1.5708044211017054 2.1412456035614014 0.0 0.0 0.0 -0.0 -0.0 -0.0 1 False False
7158.147999999999 3.712062358856201 -0.8254146140864869 0.8429845015155237 -1.5883056126036585 -1.5707805792437952 2.141333818435669 0.0 0.0 0.0 -0.0 -0.0 -0.0 1 False False
7158.197999999999 3.712062358856201 -0.8254993122867127 0.8429845015155237 -1.5882650814452113 -1.5708492437945765 2.141263484954834 0.0 0.0 0.0 -0.0 -0.0 -0.0 1 False False
7158.248 3.7120490074157715 -0.8255070608905335 0.8429721037494105 -1.588229318658346 -1.5708254019366663 2.141279697418213 0.0 0.0 0.0 -0.0 -0.0 -0.0 1 False False
7158.298 3.712095260620117 -0.8254546088031312 0.8430336157428187 -1.5882607899107875 -1.5707886854754847 2.1412839889526367 0.0 0.0 0.0 -0.0 -0.0 -0.0 1 False False
7158.348 3.7120771408081055 -0.8254825633815308 0.8429754416095179 -1.5883175335326136 -1.5708044211017054 2.141350030899048 0.0 0.0 0.0 -0.0 -0.0 -0.0 1 False False
7158.397999999999 3.7120578289031982 -0.8254708212665101 0.8429964224444788 -1.5883013210692347 -1.5707767645465296 2.1413307189941406 0.0 0.0 0.0 -0.0 -0.0 -0.0 1 False False
7158.447999999999 3.7120654582977295 -0.8255155247500916 0.842992130910055 -1.588268896142477 -1.570801083241598 2.1412839889526367 0.0 0.0 0.0 -0.0 -0.0 -0.0 1 False False
7158.498 3.7120368480682373 -0.82550402105365 0.8429630438434046 -1.5882331333556117 -1.570801083241598 2.141279697418213 0.0 0.0 0.0 -0.0 -0.0 -1.6487884592360845e-22 1 False False
7158.548 3.712062358856201 -0.8254546088031312 0.8430007139789026 -1.588273664514059 -1.5708168188678187 2.141324996948242 0.0 0.0 0.0 -0.0 -0.0 -2.5045407452877456e-41 1 False False
7158.598 3.71209979057312 -0.825495795612671 0.8429892698871058 -1.5883094273009242 -1.570784870778219 2.141317367553711 0.0 0.0 0.0 -0.0 -0.0 -0.0 1 False False
7158.647999999999 3.7120532989501953 -0.8254587215236207 0.8429802099810999 -1.588292738000387 -1.5707925001727503 2.1412928104400635 0.0 0.0 0.0 -0.0 -0.0 -0.0 1 False False
7158.697999999999 3.712095022201538 -0.8254408997348328 0.8429349104510706 -1.5882774792113246 -1.570784870778219 2.1413047313690186 0.0 0.0 0.0 -0.0 -0.0 -0.0 1 False False
7158.748 3.7120490074157715 -0.8254587215236207 0.8429964224444788 -1.5882774792113246 -1.5707925001727503 2.141279697418213 0.0 0.0 0.0 -0.0 -0.0 -0.0 1 False False
7158.798 3.712111473083496 -0.8254380387118836 0.8429935614215296 -1.5883084736266078 -1.570801083241598 2.1412839889526367 0.0 0.0 0.0 -0.0 -0.0 -0.0 1 False False
7158.848 3.7121026515960693 -0.8254750531962891 0.8429630438434046 -1.5882569752135218 -1.5707891623126429 2.1412336826324463 0.0 0.0 0.0 -0.0 -0.0 -0.0 1 False False
7158.897999999999 3.7120490074157715 -0.8254750531962891 0.8429892698871058 -1.5882655582823695 -1.5708335081683558 2.1413381099700928 0.0 0.0 0.0 -0.0 -0.0 -0.0 1 False False
7158.947999999999 3.7120816707611084 -0.8255046171000977 0.8429721037494105 -1.5882932148375453 -1.5707967917071741 2.141221761703491 0.0 0.0 0.0 -0.0 -0.0 -0.0 1 False False
7158.998 3.7120742797851562 -0.8254913848689576 0.8430412451373499 -1.5882488689818324 -1.5707805792437952 2.1412973403930664 0.0 0.0 0.0 -0.0 -0.0 -0.0 1 False False
7159.048 3.712095022201538 -0.8255290550044556 0.842992130910055 -1.5882817707457484 -1.5707891623126429 2.141251564025879 0.0 0.0 0.0 -0.0 -0.0 -0.0 1 False False
7159.098 3.712083339691162 -0.8254587215236207 0.8429754416095179 -1.5882932148375453 -1.5707805792437952 2.141308546066284 0.0 0.0 0.0 -0.0 -0.0 -0.0 1 False False
7159.147999999999 3.712041139602661 -0.8254823845675965 0.8429845015155237 -1.5882250271239222 -1.5708168188678187 2.141254425048828 0.0 0.0 0.0 -0.0 -0.0 -0.0 1 False False
7159.197999999999 3.712132453918457 -0.825466052894928 0.8429678122149866 -1.5882774792113246 -1.570784870778219 2.141279697418213 0.0 0.0 0.0 -0.0 -0.0 -0.0 1 False False
7159.248 3.7120742797851562 -0.8254913848689576 0.8429802099810999 -1.588269372979635 -1.5707724730121058 2.1413047313690186 0.0 0.0 0.0 -0.0 -0.0 -0.0 1 False False
7159.298 3.7120907306671143 -0.8254869741252442 0.8429630438434046 -1.5883094273009242 -1.5707648436175745 2.141279697418213 0.0 0.0 0.0 -0.0 -0.0 -0.0 1 False False
7159.348 3.7120907306671143 -0.8254869145205994 0.8429935614215296 -1.5882889233031214 -1.5707967917071741 2.141287088394165 0.0 0.0 0.0 -0.0 -0.0 -0.0 1 False False
7159.397999999999 3.712041139602661 -0.8254869145205994 0.8429978529559534 -1.5883251629271449 -1.570801083241598 2.141263246536255 0.0 0.0 0.0 -0.0 -0.0 -0.0 1 False False
7159.447999999999 3.712083339691162 -0.8254497808269043 0.8430083433734339 -1.588320871392721 -1.570813004170553 2.1412603855133057 0.0 0.0 0.0 -0.0 -0.0 -0.0 1 False False
7159.498 3.7120532989501953 -0.825445370083191 0.8429935614215296 -1.5882607899107875 -1.5707724730121058 2.1412839889526367 0.0 0.0 0.0 -0.0 -0.0 -0.0 1 False False
7159.548 3.712111473083496 -0.8254993122867127 0.8430545965777796 -1.5882607899107875 -1.5707605520831507 2.141263484954834 0.0 0.0 0.0 -0.0 -0.0 -0.0 1 False False
7159.598 3.7119946479797363 -0.8254616421512146 0.8429802099810999 -1.5882731876769007 -1.5708335081683558 2.141317367553711 0.0 0.0 0.0 -0.0 -0.0 -0.0 1 False False
7159.647999999999 3.712095022201538 -0.8255156439593812 0.8429678122149866 -1.5882607899107875 -1.570801083241598 2.1412737369537354 0.0 0.0 0.0 -0.0 -0.0 -0.0 1 False False
7159.697999999999 3.7121071815490723 -0.8255127233317872 0.8429802099810999 -1.588285585443014 -1.5708168188678187 2.141296148300171 0.0 0.0 0.0 -0.0 -0.0 -0.0 1 False False
7159.748 3.712078809738159 -0.8255039018443604 0.8429630438434046 -1.5882932148375453 -1.5707967917071741 2.1413004398345947 0.0 0.0 0.0 -0.0 -0.0 -0.0 1 False False
7159.798 3.7120862007141113 -0.8254869741252442 0.842971150075094 -1.5883218250670375 -1.570784870778219 2.141295909881592 0.0 0.0 0.0 -0.0 -0.0 -0.0 1 False False
7159.848 3.712106943130493 -0.8254260581782837 0.8429887930499476 -1.5883094273009242 -1.5708048979388636 2.1412765979766846 0.0 0.0 0.0 -0.0 -0.0 -0.0 1 False False
7159.897999999999 3.7120578289031982 -0.8254905504039307 0.8429802099810999 -1.5882932148375453 -1.5708091894732874 2.1412293910980225 0.0 0.0 0.0 -0.0 -0.0 -0.0 1 False False
7159.947999999999 3.7120697498321533 -0.8254779738238831 0.8429721037494105 -1.5882569752135218 -1.5707486311541956 2.141221761703491 0.0 0.0 0.0 -0.0 -0.0 -0.0 1 False False
7159.998 3.712116003036499 -0.8255127829364319 0.8429802099810999 -1.5882817707457484 -1.5707686583148401 2.1412839889526367 0.0 0.0 0.0 -0.0 -0.0 -0.0 1 False False
7160.048 3.712045669555664 -0.825466052894928 0.8429678122149866 -1.5882650814452113 -1.5708211104022425 2.141221761703491 0.0 0.0 0.0 -0.0 -0.0 -0.0 1 False False
7160.098 3.7120697498321533 -0.8254869741252442 0.8429678122149866 -1.5882612667479457 -1.5708091894732874 2.141296148300171 0.0 0.0 0.0 -0.0 -0.0 -0.0 1 False False
7160.147999999999 3.7120816707611084 -0.8255127829364319 0.8429721037494105 -1.5882889233031214 -1.570772949849264 2.141251564025879 0.0 0.0 0.0 -0.0 -0.0 -0.0 1 False False
7160.197999999999 3.7121026515960693 -0.8254993122867127 0.8429520765887659 -1.588269372979635 -1.5707686583148401 2.141254425048828 0.0 0.0 0.0 -0.0 -0.0 -0.0 1 True False
7160.248 3.712062358856201 -0.8254719537547608 0.8429845015155237 -1.5882932148375453 -1.5707891623126429 2.1413486003875732 0.0 0.0 0.0 -0.0 -0.0 0.00012563537165988237 1 True False
7160.298 3.7120771408081055 -0.8254675430110474 0.8429845015155237 -1.5883251629271449 -1.570784870778219 2.141345739364624 0.0 0.0 0.0 -0.0 -0.0 -3.076542998314835e-05 1 True False
7160.348 3.712116003036499 -0.825481728916504 0.8429544607745569 -1.5882774792113246 -1.5707805792437952 2.1413004398345947 0.0 0.0 0.0 -0.0 -0.0 -1.65872788784327e-05 1 True False
7160.397999999999 3.712078809738159 -0.8254913848689576 0.8429845015155237 -1.5882731876769007 -1.5707762877093714 2.1413004398345947 0.0 0.0 0.0 -0.0 -0.0 -1.1355080459907185e-05 1 True False
7160.447999999999 3.7121310234069824 -0.8255002063563843 0.8429802099810999 -1.588297029534811 -1.5708044211017054 2.141266345977783 0.0 0.0 0.0 -0.0 -0.0 -2.88682354481642e-16 1 True False
7160.498 3.7121145725250244 -0.8254869741252442 0.8429802099810999 -1.5882288418211878 -1.5707405249225062 2.141313076019287 0.0 0.0 0.0 -0.0 -0.0 -4.3850892662745346e-35 1 True False
7160.548 3.7120862007141113 -0.825463132267334 0.8429802099810999 -1.5882650814452113 -1.570756737385885 2.141313076019287 0.0 0.0 0.0 -0.0 -0.0 -0.0 1 True False
7160.598 3.7121100425720215 -0.8254869741252442 0.8429802099810999 -1.588297029534811 -1.5707967917071741 2.141258955001831 0.0 0.0 0.0 -0.0 -0.0 -0.0 1 True False
7160.647999999999 3.7120771408081055 -0.8254543107799073 0.842959229146139 -1.5882607899107875 -1.5708044211017054 2.1412839889526367 0.0 0.0 0.0 -0.0 -0.0 -2.4277635457536917e-09 1 True False
7160.697999999999 3.7121071815490723 -0.8254496616176148 0.8429964224444788 -1.588313718835348 -1.5708044211017054 2.141287088394165 0.0 0.0 0.0 -0.0 -0.0 1.514807029812104e-11 1 True False
7160.748 3.712127923965454 -0.825524703865387 0.8429501692401331 -1.5882731876769007 -1.5707686583148401 2.141230821609497 0.0 0.0 0.0 -0.0 -0.0 -4.1573280746060275e-19 1 True False
7160.798 3.7120907306671143 -0.825495795612671 0.8429721037494105 -1.5882932148375453 -1.5707925001727503 2.141279697418213 0.0 0.0 0.0 -0.0 -0.0 -6.314990765836789e-38 1 True False
7160.848 3.7130537033081055 -0.8258827489665528 0.8436368147479456 -1.588588377038473 -1.5707724730121058 2.1409263610839844 0.053595006465911865 -0.023176491260528564 0.036899689584970474 -0.013429426588118076 -0.00011002734390785918 -0.02393212914466858 1 True False
7160.897999999999 3.7175304889678955 -0.8280413907817383 0.8470810095416468 -1.589712759057516 -1.5708406607257288 2.1388816833496094 0.12624400854110718 -0.06348971277475357 0.09834795445203781 -0.03190450370311737 -3.5793486298269124e-15 -0.05404318869113922 1 True False
7160.947999999999 3.7257273197174072 -0.8322867912105103 0.8535626570331019 -1.5918976269164027 -1.570813004170553 2.135287284851074 0.1961161196231842 -0.10201730579137802 0.14932484924793243 -0.05374791845679283 0.00010879440378630534 -0.08542489260435104 1 True False
7160.998 3.7372114658355713 -0.838377909069397 0.8624990622149866 -1.594947954217428 -1.5707925001727503 2.1302566528320312 0.2617652416229248 -0.13423936069011688 0.20531637966632843 -0.06758072227239609 0.00012168871762696654 -0.1151074692606926 1 True False
7161.048 3.7522072792053223 -0.8459329766086121 0.8741167227374476 -1.5989042721190394 -1.570801083241598 2.1235978603363037 0.33127349615097046 -0.17029470205307007 0.25733837485313416 -0.0952586755156517 0.00016969526768662035 -0.14201709628105164 1 True False
7161.098 3.7706611156463623 -0.8554907006076355 0.8884528318988245 -1.6036402187743128 -1.5707195440875452 2.1154401302337646 0.40465816855430603 -0.20677295327186584 0.3113994300365448 -0.10302708297967911 2.775560278678313e-05 -0.1782381236553192 1 True False
7161.147999999999 3.7924439907073975 -0.8668058079532166 0.9055174032794397 -1.6094542942442835 -1.570801083241598 2.1059088706970215 0.47037333250045776 -0.24179454147815704 0.36866915225982666 -0.12484576553106308 0.00013941280485596508 -0.20574824512004852 1 True False
7161.197999999999 3.8181509971618652 -0.8798129719546814 0.9252780119525355 -1.616244455377096 -1.5708020369159144 2.0945334434509277 0.5483649373054504 -0.28206688165664673 0.421600878238678 -0.14068536460399628 0.0009006101754494011 -0.23417671024799347 1 True False
7161.248 3.8469979763031006 -0.8945682209781189 0.947857681904928 -1.62377991298818 -1.5708096663104456 2.081883668899536 0.6185789108276367 -0.31322625279426575 0.4773268401622772 -0.14623817801475525 -0.0001829626562539488 -0.27097007632255554 1 True False
7161.298 3.879356622695923 -0.9113306564143677 0.9729259649859827 -1.6324016056456507 -1.5708172957049769 2.06756854057312 0.6842747330665588 -0.354728102684021 0.5261126756668091 -0.1805654913187027 2.229159782110579e-12 -0.3039468228816986 1 True False
7161.348 3.91532301902771 -0.9295072120479126 1.0009754339801233 -1.641904970208639 -1.570772949849264 2.051729679107666 0.7611095905303955 -0.38551270961761475 0.5837757587432861 -0.20177118480205536 -3.28320106746105e-06 -0.3313326835632324 1 True False
7161.397999999999 3.9546749591827393 -0.9499636453441163 1.0312941710101526 -1.6524092159666957 -1.5707805792437952 2.0343360900878906 0.8234959244728088 -0.42520418763160706 0.640694797039032 -0.20458120107650757 -4.566918399007136e-09 -0.36216145753860474 1 True False
7161.447999999999 3.9976882934570312 -0.9718179863742371 1.0648377577411097 -1.6636392078795375 -1.570833985005514 2.0155041217803955 0.8848495483398438 -0.45289522409439087 0.6934131383895874 -0.24108202755451202 -1.7853977844761726e-12 -0.39628171920776367 1 True False
7161.498 4.043974876403809 -0.9956393402865906 1.1008337179767054 -1.6758371792235316 -1.5707805792437952 1.994945764541626 0.9666905403137207 -0.4940178394317627 0.7517337799072266 -0.2665134072303772 -4.262249422026798e-05 -0.41801324486732483 1 True False
7161.548 4.093862533569336 -1.0212600988200684 1.1395166555987757 -1.689101358453268 -1.5707929770099085 1.9730507135391235 1.0294686555862427 -0.5306193828582764 0.8021016716957092 -0.2700611650943756 -5.947112555087825e-16 -0.45573464035987854 1 True False
7161.598 4.146133899688721 -1.0479180973819275 1.1800039450274866 -1.7028781376280726 -1.570801083241598 1.9500298500061035 1.0474863052368164 -0.5369778275489807 0.8082627654075623 -0.28602129220962524 -9.033678677844087e-35 -0.46571797132492065 1 True False
7161.647999999999 4.1984477043151855 -1.0748527211001893 1.2206600348102015 -1.7166325054564417 -1.5707891623126429 1.9268913269042969 1.0526670217514038 -0.5391943454742432 0.8113284111022949 -0.2855744957923889 -0.00016707321628928185 -0.4604874551296234 1 True False
7161.697999999999 4.250861644744873 -1.1016313594630738 1.261528793965475 -1.7304893932738246 -1.5708053747760218 1.9037976264953613 1.0438213348388672 -0.5376672744750977 0.8085179328918457 -0.2900664806365967 -0.00016467575915157795 -0.4541091024875641 1 True False
7161.748 4.303220748901367 -1.1285359126380463 1.3021095434771937 -1.744164606133932 -1.5708172957049769 1.8807897567749023 1.046965479850769 -0.5303276777267456 0.8141905069351196 -0.28056690096855164 -8.213420369429514e-05 -0.4661637544631958 1 True False
7161.798 4.355504035949707 -1.1553519529155274 1.342712704335348 -1.758099218408102 -1.570784870778219 1.8576768636703491 1.0525301694869995 -0.5286243557929993 0.8162339329719543 -0.29092538356781006 -0.00021641266357619315 -0.46518978476524353 1 True False
7161.848 4.407923221588135 -1.1821177762797852 1.3834460417376917 -1.7721010647215785 -1.5707719961749476 1.8345586061477661 1.0464376211166382 -0.5388345122337341 0.8169409036636353 -0.28085070848464966 1.8791103334397757e-17 -0.46092191338539124 1 True False
7161.897999999999 4.458563804626465 -1.2081874173930665 1.4226864019977015 -1.7853638134398402 -1.570813004170553 1.812145709991455 0.9786688089370728 -0.5057809948921204 0.7622511982917786 -0.2576983571052551 1.5920915075184894e-06 -0.43136724829673767 1 True False
7161.947999999999 4.505876064300537 -1.232419715528824 1.4594205061541956 -1.7976795635619105 -1.5707600752459925 1.791480541229248 0.9114532470703125 -0.4706820249557495 0.7063249349594116 -0.23199746012687683 0.0004093790194019675 -0.40475842356681824 1 True False
7161.998 4.549701690673828 -1.2548038524440308 1.4934957663165491 -1.8093015156187953 -1.5707891623126429 1.7720853090286255 0.8436996340751648 -0.4220485985279083 0.6563318371772766 -0.23090915381908417 -2.476215454905173e-09 -0.3699530363082886 1 True False
7162.048 4.589911937713623 -1.2753276389888306 1.5246594587909144 -1.81994690517568 -1.5707967917071741 1.7544443607330322 0.7709696292877197 -0.3931676149368286 0.6059350967407227 -0.2099837064743042 -3.7613763296097567e-28 -0.3434417247772217 1 True False
7162.098 4.626655578613281 -1.2943383020213624 1.553065601979391 -1.8297692737975062 -1.5707843939410608 1.7381823062896729 0.7020372152328491 -0.35739293694496155 0.5432964563369751 -0.18441177904605865 -0.00013942889927420765 -0.30833959579467773 1 True False
7162.147999999999 4.659989833831787 -1.3114045423320313 1.5790765921222132 -1.8384152851500453 -1.570768181477682 1.7234773635864258 0.6329309940338135 -0.32404625415802 0.48625653982162476 -0.15417785942554474 9.365066944155842e-05 -0.2783849239349365 1 True False
7162.197999999999 4.6897382736206055 -1.326562986975052 1.6021154562579554 -1.8462935886778773 -1.570813004170553 1.7104179859161377 0.5657085180282593 -0.28999459743499756 0.43759652972221375 -0.13834641873836517 -2.530456981730822e-07 -0.24588026106357574 1 True False
7162.248 4.716006278991699 -1.3402380359223862 1.6224101225482386 -1.8532434902586878 -1.5708487669574183 1.6988842487335205 0.4941135346889496 -0.2560271918773651 0.3816608488559723 -0.1273554265499115 2.515265990279958e-12 -0.22251778841018677 1 True False
7162.298 4.738726615905762 -1.3517242533019562 1.6405013243304651 -1.859171529809469 -1.5708001295672815 1.688719630241394 0.4233682155609131 -0.2086358368396759 0.32494351267814636 -0.11294085532426834 -0.0006052682874724269 -0.18434946238994598 1 True False
7162.348 4.758022308349609 -1.361729012136795 1.6550849119769495 -1.864490648309225 -1.5708735624896448 1.6802510023117065 0.3510216474533081 -0.179889976978302 0.27484333515167236 -0.08624327927827835 0.0001377607259200886 -0.15226909518241882 1 True False
7162.397999999999 4.774098873138428 -1.3697608423284073 1.6676839033709925 -1.868692537347311 -1.570801083241598 1.673291802406311 0.27917250990867615 -0.14639665186405182 0.2131996750831604 -0.08356588333845139 -3.450040580099071e-15 -0.12588167190551758 1 True False
7162.447999999999 4.786262035369873 -1.3761039835265656 1.677087132130758 -1.8717643223204554 -1.5707605520831507 1.6678110361099243 0.2128279209136963 -0.1057133600115776 0.1665503978729248 -0.057754628360271454 1.1201162867310255e-17 -0.09595510363578796 1 True False
7162.498 4.795212268829346 -1.3806275588325043 1.6839998404132288 -1.8742262325682582 -1.570801083241598 1.6639461517333984 0.14461290836334229 -0.07192999124526978 0.10921037942171097 -0.046708181500434875 1.7014591961931427e-36 -0.06381959468126297 1 True False
7162.548 4.800490379333496 -1.3833787155202408 1.688181225453512 -1.8755566082396449 -1.5707648436175745 1.6615676879882812 0.0775836929678917 -0.03659309074282646 0.05625240504741669 -0.015499530360102654 0.0 -0.03345279023051262 1 True False
7162.598 4.802330017089844 -1.384319396024086 1.689570728932516 -1.8760096035399378 -1.5707891623126429 1.6608015298843384 0.002932872623205185 -0.0007183886482380331 0.00021925878536421806 -0.0003235996700823307 0.0 0.0007054372108541429 1 True False
7162.647999999999 4.802315711975098 -1.3838229042342682 1.6907714048968714 -1.8777100048460902 -1.570784870778219 1.6608004570007324 0.001509826397523284 0.022137373685836792 0.04220570996403694 -0.06308219581842422 -6.879932925585308e-07 3.839745113509707e-05 1 True False
7162.697999999999 4.802290916442871 -1.382052020435669 1.6940043608294886 -1.8829199276366175 -1.5707805792437952 1.6607645750045776 0.0014358522603288293 0.05057799443602562 0.08791694790124893 -0.14369969069957733 3.629388447734527e-05 -0.0007918974151834846 1 True False
7162.748 4.802290916442871 -1.3787763279727479 1.6994789282428187 -1.891477724114889 -1.570723835621969 1.6607940196990967 0.0011439187219366431 0.07581769675016403 0.13330422341823578 -0.19975733757019043 3.614158777054399e-05 -0.00041116320062428713 1 True False
7162.798 4.802273750305176 -1.374302403335907 1.7069609800921839 -1.9035245380797328 -1.570784870778219 1.6607407331466675 0.00024080822186078876 0.09821802377700806 0.17765915393829346 -0.2832755148410797 4.810560494661331e-05 -0.00020079741079825908 1 True False
7162.848 4.802350997924805 -1.3685015749982377 1.7169817129718226 -1.919084211389059 -1.5707925001727503 1.6607295274734497 0.00021044992899987847 0.1257462054491043 0.22100214660167694 -0.3508265018463135 5.578435957431793e-05 -0.00011830372386611998 1 True False
7162.897999999999 4.802334308624268 -1.3615044963410874 1.7291324774371546 -1.9382196865477503 -1.5708168188678187 1.6607495546340942 0.00011870237358380109 0.15396066009998322 0.26548048853874207 -0.4162448048591614 1.6508485530040122e-16 -8.385628461837769e-05 1 True False
7162.947999999999 4.802362442016602 -1.35332307339225 1.743176285420553 -1.960914751092428 -1.5707691351519983 1.6607732772827148 0.00011444943811511621 0.17728330194950104 0.30721744894981384 -0.49046576023101807 2.507643125920504e-35 -2.9527607832364006e-20 1 True False
7162.998 4.802346706390381 -1.343545750980713 1.759937588368551 -1.9867521725096644 -1.570869270955221 1.6607939004898071 7.008803368080407e-05 0.2001897543668747 0.34963151812553406 -0.5561921000480652 0.0 -4.485249499940052e-39 1 True False
7163.048 4.802306175231934 -1.3337059927037735 1.777013127003805 -2.0142609081664027 -1.5707805792437952 1.660752773284912 6.525365461129695e-05 0.1852847933769226 0.3262580633163452 -0.526833176612854 0.0 -0.0 1 True False
7163.098 4.802359580993652 -1.324874461894371 1.7923830191241663 -2.038272043267721 -1.5708206335650843 1.6607613563537598 5.6555585615569726e-05 0.16726051270961761 0.28154125809669495 -0.45676538348197937 0.0 -0.0 1 True False
7163.147999999999 4.802366733551025 -1.3172494930079957 1.8050230185138147 -2.0587760410704554 -1.570784870778219 1.6607745885849 4.949000140186399e-05 0.13900288939476013 0.2401077300310135 -0.3814574182033539 0.0 -6.806957117078127e-06 1 True False
7163.197999999999 4.802350997924805 -1.3109499377063294 1.8159330526935022 -2.075766702691549 -1.570784870778219 1.660711407661438 3.3388437152303464e-19 0.10824373364448547 0.19326205551624298 -0.30901116132736206 0.0 3.623601878643967e-05 1 True False
7163.248 4.802338600158691 -1.3060231667808075 1.8247044722186487 -2.089299818078512 -1.5708211104022425 1.660798192024231 0.0 0.0844666138291359 0.14727959036827087 -0.24777331948280334 0.0 1.8056469343719073e-05 1 True False
7163.298 4.80230188369751 -1.3023961943439026 1.830871884022848 -2.0994512043394984 -1.5708335081683558 1.660728931427002 0.0 0.06150553375482559 0.10862822830677032 -0.15830548107624054 0.0 1.2024817806377541e-05 1 True False
7163.348 4.802346706390381 -1.2999606293490906 1.834961239491598 -2.105983396569723 -1.5707805792437952 1.6607075929641724 0.0 0.03434263542294502 0.06009792163968086 -0.09436377137899399 0.0 7.03603841856193e-13 1 True False
7163.397999999999 4.8023681640625 -1.2987692815116425 1.837104622517721 -2.1089312038817347 -1.5708125273333948 1.660728931427002 0.0 0.010394786484539509 0.01924087107181549 -0.03254230320453644 0.0 1.06877556804023e-31 1 True False
7163.447999999999 4.802358150482178 -1.2987246674350281 1.8371270338641565 -2.1092645130553187 -1.570801083241598 1.6607120037078857 2.1621324022617414e-25 2.089787398454313e-24 5.778424355455355e-17 0.00013189329183660448 0.0 0.0 1 True False
7163.498 4.8023552894592285 -1.2988036137870331 1.837142292653219 -2.1092683277525843 -1.5707686583148401 1.660740852355957 0.0 0.0 0.0 6.983066123211756e-05 0.0 0.0 1 True False
7163.548 4.802321910858154 -1.2987410885146637 1.837191406880514 -2.109272619287008 -1.5707805792437952 1.660757064819336 0.0 0.00012844892626162618 0.0 4.2407486034790054e-05 0.0 0.0 1 True False
7163.598 4.8023600578308105 -1.2987381380847474 1.83722430864443 -2.10924830059194 -1.5708091894732874 1.6607332229614258 0.0 0.00024869319167919457 4.387268563732505e-05 -1.0438659955980256e-05 0.0 0.0 1 True False
7163.647999999999 4.802334308624268 -1.298688457613327 1.8372085730182093 -2.10924830059194 -1.5707891623126429 1.660798192024231 -6.001361246062847e-14 0.00022532034199684858 3.954557905672118e-05 -1.5540238734911071e-21 0.0 0.0 1 True False
7163.697999999999 4.802368640899658 -1.2986838680556794 1.8372085730182093 -2.109276433984274 -1.5707767645465296 1.6607495546340942 0.0 0.00014704045315738767 3.828833723673597e-05 -2.360571341063014e-40 0.0 0.0 1 True False
7163.748 4.802297115325928 -1.2987211507609864 1.8371995131122034 -2.1092564068236292 -1.5707967917071741 1.660757064819336 0.0 8.967938629211858e-05 4.719520260709764e-11 -4.914535747957416e-05 0.0 0.0 1 True False
7163.798 4.802375793457031 -1.2986928981593628 1.8372052351581019 -2.1093083820738734 -1.5707767645465296 1.6607613563537598 0.0 9.089132799999788e-05 4.0161347291465014e-23 -6.583290378671772e-23 0.0 0.0 1 True False
7163.848 4.802334308624268 -1.2987255615046998 1.8371260801898401 -2.1092969379820765 -1.5707605520831507 1.6607863903045654 0.0 7.247425673995167e-05 0.0 -9.999665841421895e-42 0.0 0.0 1 True False
7163.897999999999 4.8023552894592285 -1.2986973089030762 1.8371661345111292 -2.109260221520895 -1.5707686583148401 1.6607033014297485 0.0 4.4240190618438646e-05 0.0 -5.866165884071961e-05 0.0 0.0 1 True False
7163.947999999999 4.802319049835205 -1.2987017196467896 1.8372414747821253 -2.10927214244985 -1.5707805792437952 1.6607732772827148 0.0 3.1384410249302164e-05 0.0 -1.3202220078886023e-13 0.0 0.0 1 True False
7163.998 4.802341938018799 -1.2987312835505982 1.837151352559225 -2.1092807255186976 -1.570756737385885 1.6607164144515991 0.0 0.0 0.0 -2.0054201049993037e-32 0.0 0.0 1 True False
7164.048 4.802350997924805 -1.2986765664866944 1.8372152487384241 -2.1092807255186976 -1.5708254019366663 1.6607732772827148 0.0 0.0 0.0 -0.0 0.0 0.0 1 True False
7164.098 4.802309036254883 -1.298660234814026 1.8371689955340784 -2.109328886071676 -1.5707925001727503 1.6607364416122437 0.0 0.0 0.0 -1.2303090227853064e-19 0.0 0.0 1 True False
7164.147999999999 4.802375793457031 -1.2987002295306702 1.8371952215777796 -2.109300275842184 -1.5707686583148401 1.6607646942138672 0.0 0.0 0.0 -1.8688411364274066e-38 0.0 0.0 1 True False
7164.197999999999 4.802364349365234 -1.2987299722484131 1.8372443358050745 -2.1092363796629847 -1.5707767645465296 1.6607451438903809 0.0 0.0 0.0 -0.0 0.0 0.0 1 True False
7164.248 4.802374839782715 -1.2986853581717988 1.8371780554400843 -2.1092645130553187 -1.5707967917071741 1.6607451438903809 0.0 0.0 0.0 -0.0 0.0 0.0 1 True False
7164.298 4.802362442016602 -1.2986765962890168 1.8371737639056605 -2.109392305413717 -1.5707967917071741 1.6607613563537598 0.0 0.0 0.0 -0.0031765068415552378 0.0 2.817220198444992e-13 1 True False
7164.348 4.802350997924805 -1.2986646753600617 1.8371737639056605 -2.1093083820738734 -1.570801083241598 1.660826325416565 0.0 0.0 -4.478857954381965e-05 -2.281924649238931e-11 -7.261246355483308e-05 1.1760237748903446e-11 1 True False
7164.397999999999 4.8023600578308105 -1.2986721855453034 1.8372190634356897 -2.1093045673766078 -1.5708406607257288 1.6607732772827148 0.0 0.0 -2.0258923078154436e-23 -3.466248088823383e-30 -2.405505620117765e-05 1.7863822139841707e-30 1 True False
7164.447999999999 4.802338600158691 -1.2986853879741211 1.8372085730182093 -2.1093880138792933 -1.5707686583148401 1.660757064819336 0.0 0.0 -0.0 -0.0 -1.4419082617678214e-05 0.0 1 True False
7164.498 4.802302837371826 -1.2987343233874817 1.8371861616717737 -2.109300275842184 -1.5708211104022425 1.66078519821167 0.0 0.0 -0.0 6.385954475263134e-05 -1.0295325409970246e-05 1.1798471859947313e-05 1 True False
7164.548 4.802343368530273 -1.2987017196467896 1.8372324148761194 -2.109316965142721 -1.570784870778219 1.6607939004898071 0.0 0.0 -0.0 0.00015850597992539406 -2.740025176791338e-22 2.0325213268830693e-22 1 True False
7164.598 4.802341938018799 -1.2987343233874817 1.8372367064105433 -2.1092683277525843 -1.5708406607257288 1.6608220338821411 0.0 0.0 -0.0 0.0001112110840040259 -4.1621366987375717e-41 3.087340776600437e-41 1 True False
7164.647999999999 4.802338600158691 -1.2987179917148133 1.8372190634356897 -2.1092640362181605 -1.570801083241598 1.6607937812805176 0.0 0.0 -0.0 8.24810704216361e-05 -0.0 0.0 1 True False
7164.697999999999 4.802366733551025 -1.2986513537219544 1.8372486273394983 -2.1092807255186976 -1.570772949849264 1.660768985748291 0.0 0.0 -0.0 4.527506825979799e-05 -0.0 0.0 1 True False
7164.748 4.802334308624268 -1.298700289135315 1.8372605482684534 -2.1093279323973597 -1.5708168188678187 1.660768985748291 0.0 0.0 -0.0 3.738172438261245e-08 -0.0 0.0 1 True False
7164.798 4.8023881912231445 -1.2986766558936615 1.8372190634356897 -2.1092683277525843 -1.5707281271563929 1.6607162952423096 0.0 0.0 -0.0 5.6782916700027964e-27 -0.0 0.0 1 True False
7164.848 4.8023552894592285 -1.29865716517482 1.8372152487384241 -2.1092807255186976 -1.570829216633932 1.6608144044876099 0.0 0.0 -0.0 1.401298464324817e-45 -0.0 0.0 1 True False
7164.897999999999 4.802301406860352 -1.29865716517482 1.8372152487384241 -2.1092521152892054 -1.570784870778219 1.660781979560852 0.0 0.0 -0.0 5.6861095799831674e-05 -0.0 0.0 1 True False
7164.947999999999 4.802320957183838 -1.2987512213042756 1.8372233549701136 -2.109288831750387 -1.570784870778219 1.6607539653778076 0.0 0.0 -1.667613902598796e-14 3.1105482925318896e-15 -0.0 -3.780539918807335e-05 1 True False
7164.998 4.802362442016602 -1.2987060707858582 1.8372038046466272 -2.10927214244985 -1.5707767645465296 1.660781979560852 0.0 0.0 -2.808395765896421e-05 4.724930767198878e-34 -0.0 -1.8437693142914213e-05 1 True False
7165.048 4.80229377746582 -1.2986973089030762 1.8371952215777796 -2.109293123284811 -1.5708006064044397 1.6607202291488647 0.0 0.0 -1.5776209693285637e-05 0.0 -0.0 -1.2192697795398999e-05 1 True False
7165.098 4.802366733551025 -1.298655943279602 1.8372233549701136 -2.1092120609679164 -1.5708087126361292 1.6607732772827148 0.0 0.0 -1.0969195500365458e-05 0.0 -0.0 -3.983017474867845e-12 1 True False
7165.147999999999 4.802371501922607 -1.2986897391131897 1.837219540272848 -2.109288831750387 -1.5707486311541956 1.660768985748291 0.0 0.0 -2.7710723774102736e-25 0.0 -0.0 -2.568939271441195e-05 1 True False
7165.197999999999 4.802341938018799 -1.2986853879741211 1.8372605482684534 -2.1092564068236292 -1.5708449522601526 1.6607321500778198 0.0 8.341754175477191e-27 -0.0 7.00964656599138e-15 -0.0 0.0001768410438671708 1 True False
7165.248 4.802364349365234 -1.2987060111812134 1.8371952215777796 -2.109260221520895 -1.5707929770099085 1.660728931427002 0.0 0.0 -0.0 1.0647666400656667e-33 -0.0 0.00023453807807527483 1 True False
7165.298 4.8023295402526855 -1.2986603838256379 1.8371861616717737 -2.1092807255186976 -1.570784870778219 1.6607451438903809 0.0 0.0 -0.0 0.0 -0.0 3.0300742537292535e-07 1 True False
7165.348 4.802313327789307 -1.2986810368350525 1.8372152487384241 -2.109276433984274 -1.5708087126361292 1.6607246398925781 0.0 0.0 -0.0 0.0 -0.0 4.6026903027928443e-26 1 True False
7165.397999999999 4.802301406860352 -1.2987630826285859 1.8371227423297327 -2.1091014347472132 -1.570772949849264 1.6607928276062012 0.0 -0.0044455574825406075 -0.015006013214588165 0.02739303931593895 -0.0 7.006492321624085e-45 1 True False
7165.447999999999 4.802310466766357 -1.2995943886092682 1.8355572859393519 -2.106546541253561 -1.5707767645465296 1.6607202291488647 0.0 -0.031247859820723534 -0.054767780005931854 0.08502364158630371 -0.0 0.0 1 True False
7165.498 4.802321910858154 -1.3018601399711152 1.8316791693316858 -2.1003390751280726 -1.5707605520831507 1.6607539653778076 0.0 -0.05989236757159233 -0.0999457836151123 0.16062532365322113 -0.0 0.0 1 True False
7165.548 4.802313327789307 -1.3054414850524445 1.8254779020892542 -2.0906626186766566 -1.5707805792437952 1.660757064819336 0.0 -0.08656327426433563 -0.13835234940052032 0.21827279031276703 -0.0 0.0 1 True False
7165.598 4.8023552894592285 -1.310341553097107 1.8169787565814417 -2.077625890771383 -1.5707805792437952 1.660757064819336 0.0 -0.10952575504779816 -0.18787817656993866 0.2899775803089142 -0.0 0.0 1 True False
7165.647999999999 4.802366733551025 -1.3164242070964356 1.8065560499774378 -2.0609828434386195 -1.570813004170553 1.6607245206832886 0.0 -0.13349804282188416 -0.22756153345108032 0.3599301278591156 -0.0 0.0 1 True False
7165.697999999999 4.8022894859313965 -1.3238421392491837 1.7939804236041468 -2.0408994160094203 -1.5707886854754847 1.6607120037078857 0.0 -0.15999354422092438 -0.277477502822876 0.42926207184791565 -0.0 0.0 1 True False
7165.748 4.802305698394775 -1.3325639379075547 1.7789085547076624 -2.017301698724264 -1.5708211104022425 1.6607246398925781 0.0 -0.18799196183681488 -0.32273638248443604 0.5085064172744751 -0.0 0.0 1 True False
7165.798 4.802350997924805 -1.3424420070699234 1.761862579976217 -1.9901677570738734 -1.5707643667804163 1.6607451438903809 0.0 -0.20557041466236115 -0.34859272837638855 0.5772066712379456 -0.0 0.0 1 True False
7165.848 4.802334308624268 -1.3522421282580872 1.7451160589801233 -1.9637891254820765 -1.570801083241598 1.6607732772827148 0.0 -0.1788645088672638 -0.3129703402519226 0.4934018552303314 -0.0 0.0 1 True False
7165.897999999999 4.802305698394775 -1.360569791202881 1.7306440512286585 -1.940808435479635 -1.570813004170553 1.6606794595718384 0.0 -0.15865623950958252 -0.271172434091568 0.43857234716415405 -0.0 0.0 1 True False
7165.947999999999 4.802310466766357 -1.3678370130113144 1.718262020741598 -1.9212576351561488 -1.5708087126361292 1.6607246398925781 0.0 -0.13497227430343628 -0.22671188414096832 0.36136680841445923 -0.0 0.0 1 True False
7165.998 4.802313327789307 -1.3735591632178803 1.708273712788717 -1.9052449665465296 -1.5707843939410608 1.660740852355957 0.0 -0.10377749055624008 -0.18602527678012848 0.28615397214889526 -0.0 0.0 1 True False
7166.048 4.802325248718262 -1.378217191701271 1.7002828756915491 -1.8926531277098597 -1.5707967917071741 1.660728931427002 0.0 -0.08192330598831177 -0.13541758060455322 0.2218051254749298 -0.0 0.0 1 True False
7166.098 4.802305698394775 -1.3815583002618332 1.6944692770587366 -1.8837620220580042 -1.5707925001727503 1.6607613563537598 0.0 -0.05638086050748825 -0.08987704664468765 0.1465885043144226 -0.0 0.0 1 True False
7166.147999999999 4.802364349365234 -1.383520932202675 1.691035572682516 -1.8781315288939417 -1.5707967917071741 1.6607202291488647 0.0 -0.027053097262978554 -0.05227397754788399 0.06916611641645432 -0.0 0.0 1 True False
7166.197999999999 4.802285194396973 -1.384324089889862 1.6896279493915003 -1.8761726818480433 -1.5707967917071741 1.6607701778411865 0.0 -0.0008134868694469333 -0.0023091156035661697 0.00703332107514143 -0.0 0.0 1 True False
7166.248 4.8023552894592285 -1.3842917096665879 1.6896236578570765 -1.8762208424010218 -1.5708044211017054 1.6607364416122437 0.0 -1.541093400424325e-39 2.8478593198487894e-27 -4.250072598861239e-18 -0.0 0.0 1 True False
7166.298 4.802364349365234 -1.3843078923276444 1.6896474997149866 -1.8761688671507777 -1.5707967917071741 1.6607775688171387 0.0 0.0 -3.29040594806429e-05 0.0005154538084752858 -0.0 0.0 1 True False
7166.348 4.802301406860352 -1.3842874032310029 1.6896432081805628 -1.8761450252928675 -1.570801083241598 1.660740852355957 0.0 -8.436910138698295e-05 -4.181710058489785e-28 0.0008299328619614244 -0.0 0.0 1 True False
7166.397999999999 4.802310466766357 -1.3843448472074051 1.6896675268756312 -1.8760653934874476 -1.5707724730121058 1.6607646942138672 0.0 -0.00020249176304787397 -0.0 0.0004903657245449722 -0.0 0.0 1 True False
7166.447999999999 4.802350997924805 -1.3843610447696229 1.6896474997149866 -1.8760572872557582 -1.5707843939410608 1.6607451438903809 0.0 -0.00020103152201045305 -0.0 0.00013121742813382298 -0.0 0.0 1 True False
7166.498 4.802375793457031 -1.3843610894731064 1.6896474997149866 -1.876049657861227 -1.5708087126361292 1.6607613563537598 0.0 -0.00011442249524407089 -0.0 7.58878595661372e-05 -0.0 0.0 1 True False
7166.548 4.802346706390381 -1.384348289375641 1.6896799246417444 -1.8761054478087367 -1.5707967917071741 1.6607246398925781 0.0 -0.0001478836202295497 -0.0 5.338140908861533e-05 -0.0 0.0 1 True False
7166.598 4.802375793457031 -1.3843448621085663 1.6896875540362757 -1.8760973415770472 -1.5708335081683558 1.6607332229614258 0.0 -0.00011366042599547654 -0.0 2.4860709100067523e-19 -0.0 0.0 1 True False
7166.647999999999 4.802346706390381 -1.3844176095775147 1.6896756331073206 -1.8760339222350062 -1.5708335081683558 1.660740852355957 0.0 -8.662555046612397e-05 -0.0 3.7763466198227706e-38 -0.0 0.0 1 True False
7166.697999999999 4.802269458770752 -1.3843611043742676 1.6897252241717737 -1.8760420284666957 -1.5707925001727503 1.660752773284912 0.0 -7.017785537755117e-05 -0.0 0.0 -0.0 0.0 1 True False
7166.748 4.802297592163086 -1.3843885225108643 1.6897004286395472 -1.8760854206480921 -1.5707891623126429 1.6607582569122314 0.0 -1.6647794291251654e-27 -0.0 0.0 -0.0 0.0 1 True False
7166.798 4.802399635314941 -1.3844347310117264 1.689716641102926 -1.876026292840475 -1.570772949849264 1.6607818603515625 0.0 0.0 -0.0 0.0 -0.0 0.0 1 True False
7166.848 4.8023552894592285 -1.3843482744744797 1.6896546522723597 -1.8760296307005824 -1.5707767645465296 1.660768985748291 0.0 0.0 -0.0 0.0 -0.0 0.0 1 True False
7166.897999999999 4.8023552894592285 -1.3844089967063447 1.6896632353412073 -1.8760816059508265 -1.5707686583148401 1.6607246398925781 0.0 0.0 -0.0 1.9861830734704773e-17 -0.0 0.0 1 True False
7166.947999999999 4.802350997924805 -1.384389193063118 1.6896842161761683 -1.8761211834349574 -1.570824925099508 1.660798192024231 0.0 0.0 -0.0 3.017015951755421e-36 -0.0 0.0 1 True False
7166.998 4.80230188369751 -1.3843644571355362 1.6897037664996546 -1.8760935268797816 -1.5707886854754847 1.660707712173462 0.0 0.0 -0.0 0.0 -0.0 0.0 1 True False
7167.048 4.802335262298584 -1.3844456535628815 1.6896632353412073 -1.876050134698385 -1.5707967917071741 1.6607939004898071 0.0 0.0 -0.0 0.0 -0.0 0.0 1 True False
7167.098 4.802359580993652 -1.3843772870353241 1.6896632353412073 -1.8760940037169398 -1.570829216633932 1.6607613563537598 0.0 0.0 -0.0 0.0 -0.0 0.0 1 True False
7167.147999999999 4.802363872528076 -1.3843849313310166 1.6896756331073206 -1.8760572872557582 -1.5708087126361292 1.660768985748291 0.0 0.0 -0.0 0.0 -0.0 0.0 1 True False
7167.197999999999 4.802334308624268 -1.3843611192754288 1.6896799246417444 -1.876077791253561 -1.5708091894732874 1.6607980728149414 0.0 0.0 -0.0 0.0 -0.0 0.0 1 True False
7167.248 4.802318096160889 -1.3843729955009003 1.6896918455706995 -1.876101633111471 -1.5708087126361292 1.660757064819336 0.0 0.0 -0.0 -9.713010625943147e-25 -0.0 0.0 1 True False
7167.298 4.802342891693115 -1.3843406301787873 1.6896517912494105 -1.8761378727354945 -1.5708697477923792 1.6607246398925781 0.0 0.0 -0.0 -1.471363387541058e-43 -0.0 0.0 1 True False
7167.348 4.802313804626465 -1.3844100099853058 1.6896632353412073 -1.8760420284666957 -1.570784870778219 1.660757064819336 0.0 0.0 -0.0 -0.0 -0.0 0.0 1 True False
7167.397999999999 4.802371025085449 -1.3844142866185685 1.6896756331073206 -1.8760415516295375 -1.5707891623126429 1.660757064819336 0.0 0.0 -0.0 -0.0 -0.0 0.0 1 True False
7167.447999999999 4.802346706390381 -1.3843525809100647 1.6896918455706995 -1.8760739765562953 -1.5707925001727503 1.6607613563537598 0.0 0.0 -0.0 -0.0 -0.0 0.0 1 True False
7167.498 4.802330017089844 -1.3843515378287812 1.6896169821368616 -1.8760858974852503 -1.5707805792437952 1.660757064819336 0.0 0.0 -0.0 -0.0 -0.0 0.0 1 True False
7167.548 4.802350997924805 -1.3844014418176194 1.6896966139422815 -1.876089712182516 -1.5707929770099085 1.6607162952423096 0.0 0.0 -0.0 -0.0 -0.0 0.0 1 True False
7167.598 4.80233097076416 -1.384385885005333 1.6896541754352015 -1.8760973415770472 -1.5707925001727503 1.6607494354248047 0.0 0.0 -0.0 -0.0 -0.0 0.0 1 True False
7167.647999999999 4.802359580993652 -1.3843198430589219 1.6896541754352015 -1.876101633111471 -1.5708406607257288 1.660728931427002 0.0 0.0 -0.0 -0.0 -0.0 0.0 1 True False
7167.697999999999 4.802396297454834 -1.384402112369873 1.689676586781637 -1.8761211834349574 -1.5707891623126429 1.660757064819336 0.0 0.0 -0.0 -0.0 -0.0 0.0 1 True False
7167.748 4.802314758300781 -1.3843363237432023 1.6896722952472132 -1.8761092625060023 -1.5707886854754847 1.660711646080017 0.0 0.0 -0.0 -0.0 -0.0 0.0 1 True False
7167.798 4.802310466766357 -1.3843568873456498 1.6897085348712366 -1.876061578790182 -1.5708816687213343 1.660715937614441 0.0 0.0 -0.0 -0.0 -0.0 0.0 1 True False
7167.848 4.802359580993652 -1.384389193063118 1.6896541754352015 -1.8760491810240687 -1.570801083241598 1.6607484817504883 0.0 0.0 -0.0 -0.0 -0.0 0.0 1 True False
7167.897999999999 4.802359580993652 -1.3843849164298554 1.6896875540362757 -1.8761006794371546 -1.5708044211017054 1.660703420639038 0.0 0.0 -0.0 -0.0 -0.0 0.0 1 True False
7167.947999999999 4.802314758300781 -1.38436874866996 1.6897085348712366 -1.8760653934874476 -1.570801083241598 1.660768985748291 0.0 0.0 -0.0 -0.0 -0.0 0.0 1 True False
7167.998 4.802338600158691 -1.3843568128398438 1.6896756331073206 -1.876113077203268 -1.5707967917071741 1.6607646942138672 0.0 0.0 -0.0 -0.0 -0.0 0.0 1 True False
7168.048 4.8023223876953125 -1.3843892377666016 1.6896875540362757 -1.876073499719137 -1.5708368460284632 1.660768985748291 0.0 0.0 -0.0 -0.0 -0.0 0.0 1 True False
7168.098 4.802346706390381 -1.3844423753074189 1.6896994749652308 -1.8760696850218714 -1.570829216633932 1.6607613563537598 0.0 0.0 -0.0 -0.0 -0.0 0.0 1 True False
7168.147999999999 4.802402973175049 -1.3843729955009003 1.6896560827838343 -1.8760973415770472 -1.5708449522601526 1.660757064819336 0.0 7.786497085821208e-40 -0.0 -0.0 -0.0 0.0 1 True False
7168.197999999999 4.80232572555542 -1.3843321216157456 1.6896498839007776 -1.8760448894896449 -1.5708168188678187 1.6607075929641724 0.0 0.0 -0.0 -0.0 -0.0 0.0 1 True False
7168.248 4.802330017089844 -1.384343982940056 1.6896665732013147 -1.876077791253561 -1.5707767645465296 1.6608015298843384 0.0 0.0 -0.0 -0.0 -0.0 0.0 1 True False
7168.298 4.802334308624268 -1.384332076912262 1.6896713415728968 -1.8760892353453578 -1.5707805792437952 1.6607613563537598 0.0 0.0 -0.0 -0.0 -0.0 0.0 1 True False
7168.348 4.802350997924805 -1.38436874866996 1.6896384398089808 -1.8760858974852503 -1.570813004170553 1.6607365608215332 0.0 0.0 -0.0 -0.0 -0.0 0.0 1 True False
7168.397999999999 4.8022236824035645 -1.3843918156674881 1.6897037664996546 -1.8760653934874476 -1.570824925099508 1.6606731414794922 -0.011961848475039005 -0.002904464490711689 0.004462608136236668 -0.0 -0.0 -0.010579578578472137 1 True False
7168.447999999999 4.8013176918029785 -1.3848968309215088 1.690235439931051 -1.8760572872557582 -1.5707529226886194 1.6596378087997437 -0.028626669198274612 -0.014912208542227745 0.015478386543691158 -0.0009054814581759274 -0.0 -0.028091445565223694 1 True False
7168.498 4.798990726470947 -1.3860661548427125 1.6914895216571253 -1.8763281307616175 -1.5707967917071741 1.657320261001587 -0.06934432685375214 -0.03171861171722412 0.03600350767374039 -0.0049240319058299065 -0.0 -0.06430867314338684 1 True False
7168.548 4.7943549156188965 -1.3881738048842927 1.6940577665912073 -1.8766957722105921 -1.5707805792437952 1.652736783027649 -0.11642993241548538 -0.058622490614652634 0.06551413983106613 -0.0083532202988863 -0.0 -0.11597788333892822 1 True False
7168.598 4.7866716384887695 -1.3919695776752015 1.6984017531024378 -1.877174516717428 -1.5707805792437952 1.644940733909607 -0.19432298839092255 -0.09640961140394211 0.10617493838071823 -0.014207050204277039 -0.0 -0.19229350984096527 1 True False
7168.647999999999 4.774692535400391 -1.397661880855896 1.704883877431051 -1.8780480823912562 -1.5708048979388636 1.6331372261047363 -0.278557687997818 -0.1335296481847763 0.15056906640529633 -0.020139524713158607 -0.0 -0.27598172426223755 1 True False
7168.697999999999 4.75902795791626 -1.4050901991179963 1.713550869618551 -1.8790985546507777 -1.5708296934710901 1.617421269416809 -0.34238943457603455 -0.16481566429138184 0.19203567504882812 -0.026119524613022804 -8.669796807225794e-05 -0.3442676365375519 1 True False
7168.748 4.739830017089844 -1.4143408697894593 1.724041763936178 -1.880632062951559 -1.5708454290973108 1.5982946157455444 -0.41756537556648254 -0.19845543801784515 0.2285279929637909 -0.029125425964593887 -5.8886264014290646e-05 -0.4168514907360077 1 True False
7168.798 4.7173686027526855 -1.4250236612609406 1.7366498152362269 -1.88226379970693 -1.570772949849264 1.575720191001892 -0.4876846969127655 -0.2375340610742569 0.2593996524810791 -0.03826037421822548 0.00021470131468959153 -0.48553603887557983 1 True False
7168.848 4.691199779510498 -1.4375994068435212 1.7508423964129847 -1.8840638599791468 -1.5707438627826136 1.5495412349700928 -0.5530468821525574 -0.26225849986076355 0.31013303995132446 -0.037413790822029114 -9.40617173910141e-05 -0.5552961230278015 1 True False
7168.897999999999 4.6623430252075195 -1.4511647310904046 1.7667296568499964 -1.8861476383604945 -1.5709179083453577 1.5208266973495483 -0.5574391484260559 -0.26278117299079895 0.3043094575405121 -0.0360666885972023 0.0003407188050914556 -0.5589193105697632 1 True False
7168.947999999999 4.636027812957764 -1.463808150296547 1.7809656302081507 -1.8881555996336878 -1.5708935896502894 1.4946118593215942 -0.49188610911369324 -0.23360410332679749 0.2693493962287903 -0.03974631428718567 -0.001137198181822896 -0.48637109994888306 1 True False
7168.998 4.613525867462158 -1.4746663656881829 1.7937172094928187 -1.8897320232787074 -1.5707805792437952 1.4720243215560913 -0.42672404646873474 -0.1955624520778656 0.22836874425411224 -0.02925386279821396 -0.00029834252200089395 -0.4235021770000458 1 True False
7169.048 4.5945539474487305 -1.4838040855577965 1.8039992491351526 -1.8911329708495082 -1.5708096663104456 1.4528487920761108 -0.35334718227386475 -0.17006532847881317 0.19533343613147736 -0.029638390988111496 0.0004500349750742316 -0.3501775860786438 1 True False
7169.098 4.578654766082764 -1.4913782116821785 1.8126776854144495 -1.892210145989889 -1.5707891623126429 1.4371412992477417 -0.2777332365512848 -0.13753150403499603 0.15271010994911194 -0.025291036814451218 -3.565975930541754e-05 -0.27762293815612793 1 True False
7169.147999999999 4.566568851470947 -1.4971597504666825 1.8196123282061976 -1.8930279217162074 -1.5708168188678187 1.4249225854873657 -0.21304121613502502 -0.09648649394512177 0.11517490446567535 -0.01403091847896576 -1.0110062363945228e-20 -0.21392518281936646 1 True False
7169.197999999999 4.557804584503174 -1.5013223898461838 1.8243940512286585 -1.893743177453512 -1.5707886854754847 1.4161882400512695 -0.142068013548851 -0.06580017507076263 0.07434581220149994 -0.008087391033768654 -1.535722223410568e-39 -0.14211967587471008 1 True False
7169.248 4.552513599395752 -1.5038489189795037 1.8271477858172815 -1.8941346607603968 -1.5708168188678187 1.4109666347503662 -0.06823886185884476 -0.03587005287408829 0.03675799071788788 -0.007616990711539984 -0.0 -0.07127001881599426 1 True False
7169.298 4.550807476043701 -1.504648135309555 1.828118149434225 -1.8941623173155726 -1.5708087126361292 1.409251093864441 0.0060525573790073395 0.0037005909252911806 5.187243004911579e-06 -0.0005041842232458293 -0.0 -0.0009030751534737647 1 True False
7169.348 4.5508880615234375 -1.5039787155440827 1.8292349020587366 -1.8961988888182582 -1.5707686583148401 1.409301996231079 -0.0012572597479447722 0.024346256628632545 0.04378099367022514 -0.062192901968955994 0.00010151173773920164 -0.0006881857989355922 1 True False
7169.397999999999 4.5508270263671875 -1.502116159801819 1.8325322310077112 -1.901252885858053 -1.570772949849264 1.4092663526535034 -0.0008828796562738717 0.05304696410894394 0.08556266129016876 -0.13630641996860504 6.309253119951563e-09 -0.000829418539069593 1 True False
7169.447999999999 4.550876140594482 -1.4988334637931366 1.8379371801959437 -1.910022874871725 -1.570801083241598 1.4092175960540771 -0.0009009783971123397 0.08047234266996384 0.13269761204719543 -0.21825915575027466 9.583766366941098e-28 -0.0003186668618582189 1 True False
7169.498 4.550790786743164 -1.494126783018448 1.8454187552081507 -1.9222609005370082 -1.5708296934710901 1.4092381000518799 -0.000404414749937132 0.10438410937786102 0.17214395105838776 -0.2695118188858032 0.0 -0.00016205421707127243 1 True False
7169.548 4.550840377807617 -1.48807696372781 1.8554638067828577 -1.9379245243468226 -1.5707805792437952 1.40926194190979 -1.894065069304639e-40 0.1308833211660385 0.21611370146274567 -0.34822574257850647 -8.199021976906806e-05 -9.258319914806634e-05 1 True False
7169.598 4.550832748413086 -1.4808388289860268 1.867138687764303 -1.957261701623434 -1.5707891623126429 1.4092705249786377 0.0 0.16162315011024475 0.26023581624031067 -0.4137071967124939 -6.789264443796128e-05 -7.560524682048708e-05 1 True False
7169.647999999999 4.550836086273193 -1.4721341368607064 1.881294075642721 -1.979839941064352 -1.5707967917071741 1.4091970920562744 0.0 0.18223480880260468 0.3004162907600403 -0.49002936482429504 -1.122679173510123e-15 1.2727912788648162e-16 1 True False
7169.697999999999 4.550816535949707 -1.4621372160366555 1.897489372883932 -2.00603785137319 -1.5708254019366663 1.4092410802841187 0.0 0.20800089836120605 0.3444858193397522 -0.5548406839370728 -2.3240338123287074e-05 1.9333730965564708e-35 1 True False
7169.748 4.550808429718018 -1.4513483506492157 1.9153392950641077 -2.0344721279540003 -1.5707686583148401 1.40926194190979 -1.8948796715502622e-16 0.2091362327337265 0.35020801424980164 -0.5464993715286255 2.0957693358525376e-09 0.0 1 True False
7169.798 4.550867080688477 -1.4415773910335083 1.9309008757220667 -2.0602218113341273 -1.5707967917071741 1.4092381000518799 0.0 0.17875826358795166 0.29358214139938354 -0.4709223508834839 3.183478660860763e-28 0.0 1 True False
7169.848 4.550787925720215 -1.4331950557282944 1.9446499983416956 -2.08219637493276 -1.5708048979388636 1.4092295169830322 0.0 0.14817394316196442 0.2497943788766861 -0.4028240144252777 0.0 0.0 1 True False
7169.897999999999 4.550779342651367 -1.4261256915381928 1.9561751524554651 -2.1008058987059535 -1.5708330313311976 1.4092013835906982 0.0 0.12873150408267975 0.2090938687324524 -0.3373868465423584 0.0 0.0 1 True False
7169.947999999999 4.550824165344238 -1.4205361318639298 1.9655197302447718 -2.115883012811178 -1.570801083241598 1.409246802330017 0.0 0.10436739772558212 0.16982397437095642 -0.25447461009025574 0.0 0.0 1 True False
7169.998 4.550783634185791 -1.4160401982120057 1.972696606312887 -2.1276003322997035 -1.5707967917071741 1.4092583656311035 -5.725875456772336e-35 0.0772680938243866 0.12191043794155121 -0.19158707559108734 0.0 0.0 1 True False
7170.048 4.550807476043701 -1.4129090172103425 1.9779484907733362 -2.135679384271139 -1.570813004170553 1.4092663526535034 0.0 0.04757503420114517 0.07611553370952606 -0.12180723249912262 0.0 0.0 1 True False
7170.098 4.550807476043701 -1.41115456939254 1.9807923475848597 -2.1403261623778285 -1.5707967917071741 1.4092013835906982 0.0 0.02127966284751892 0.036043889820575714 -0.05696713924407959 0.0 0.0 1 True False
7170.147999999999 4.550853729248047 -1.4107626539519806 1.9814141432391565 -2.1413780651488246 -1.570801083241598 1.4092466831207275 5.1136132242390886e-05 -0.00034272950142621994 -4.235388041706756e-05 0.0017548238392919302 0.0 0.0 1 True False
7170.197999999999 4.550819396972656 -1.41069749117408 1.9813640753375452 -2.141435285607809 -1.5707810560809534 1.4091849327087402 0.0 1.3397584153196362e-09 0.0001240583078470081 -0.00015368447930086404 0.0 0.0 1 True False
7170.248 4.550836086273193 -1.4107298713973542 1.98138934770693 -2.141447206536764 -1.570772949849264 1.4091686010360718 0.0 0.00022691566846333444 0.00010813604603754357 -0.00031992720323614776 0.0 0.0 1 True False
7170.298 4.550786018371582 -1.4106899362853547 1.9814098517047327 -2.1415025196471156 -1.570813004170553 1.4092381000518799 0.0 7.395695865852758e-05 9.00530067156069e-05 -0.0003864805621560663 0.0 0.0 1 True False
7170.348 4.550868511199951 -1.4107712519219895 1.981499497090475 -2.141526838342184 -1.5708048979388636 1.409258246421814 0.0 0.00015070124936755747 9.060905722435564e-05 -0.000535961939021945 0.0 0.0 1 True False
7170.397999999999 4.550832748413086 -1.4107428056052704 1.981457535420553 -2.1415425739684046 -1.5707324186908167 1.4092381000518799 0.0 0.00018129074305761606 8.510969928465784e-05 -0.0002953099610749632 0.0 0.0 1 True False
7170.447999999999 4.550840377807617 -1.4107395273498078 1.9814208189593714 -2.1415463886656703 -1.5708006064044397 1.4092497825622559 0.0 0.0001953303290065378 8.863252878654748e-05 -0.00013594630581792444 0.0 0.0 1 True False
7170.498 4.550819396972656 -1.4107515078834076 1.9814251104937952 -2.141550680200094 -1.570824925099508 1.409245491027832 0.0 0.00013423047494143248 8.37933985167183e-05 -8.830487058730796e-05 0.0 0.0 1 True False
7170.548 4.550831317901611 -1.4107113939574738 1.9814699331866663 -2.1415425739684046 -1.5707886854754847 1.409234881401062 0.0 7.904368249000981e-05 9.283316467190161e-05 5.711811172659509e-05 0.0 0.0 1 True False
7170.598 4.550853729248047 -1.410730929379799 1.9814861456500452 -2.141550680200094 -1.5707929770099085 1.4092410802841187 0.0 0.0 1.7131296203842794e-07 2.2074826119933277e-05 0.0 0.0 1 True False
7170.647999999999 4.550856590270996 -1.410695196395256 1.9814375082599085 -2.1415187321104945 -1.5707805792437952 1.4092131853103638 0.0 0.0 6.086229041102342e-05 1.3683436009159777e-05 0.0 0.0 1 True False
7170.697999999999 4.550828456878662 -1.4107118856957932 1.981457535420553 -2.1415425739684046 -1.5707686583148401 1.4092423915863037 0.0 0.0 4.199746053582063e-15 8.381901352549903e-06 0.0 0.0 1 True False
7170.748 4.550822734832764 -1.4106997710517426 1.9814417997943323 -2.1415587864317835 -1.5708211104022425 1.409274935722351 0.0 0.0 9.80908925027372e-45 1.2732127249491425e-24 0.0 0.0 1 True False
7170.798 4.550828456878662 -1.4107074451497574 1.981457535420553 -2.1415587864317835 -1.570801083241598 1.4092705249786377 0.0 0.0 0.0 1.9337918807682476e-43 0.0 3.9611746615264565e-05 1 True False
7170.848 4.550844669342041 -1.4106457990458985 1.9814775625811976 -2.1415425739684046 -1.5708091894732874 1.4092868566513062 0.0 0.0 0.0 0.0 0.0 1.8227246101343297e-10 1 True False
7170.897999999999 4.550832748413086 -1.410658062701561 1.9814122358905237 -2.1415230236449183 -1.570732895527975 1.409234881401062 0.0 0.0 0.0 1.3527753917053076e-10 0.0 2.768722003802505e-29 1 True False
7170.947999999999 4.550852298736572 -1.41069848955188 1.9814613501178187 -2.141494413415426 -1.5708087126361292 1.4092466831207275 0.0 0.0 0.0 2.0548685467515308e-29 0.0 0.0 1 True False
7170.998 4.550844669342041 -1.410711870794632 1.9814460913287562 -2.141569753686422 -1.5707891623126429 1.4092540740966797 0.0 0.0 0.0 2.3602349301654613e-06 0.0 0.0 1 True False
7171.048 4.550889492034912 -1.4107268166593094 1.9814775625811976 -2.1415349445738734 -1.5708048979388636 1.409279227256775 2.522714959444063e-18 0.0 2.0516678633786256e-12 -0.00011158907727804035 -1.747401390250758e-10 -0.00010510638821870089 1 True False
7171.098 4.550819396972656 -1.4107074451497574 1.9814417997943323 -2.1414863071837367 -1.5707767645465296 1.4092867374420166 2.888988638005685e-05 0.0 4.827473209598995e-42 -4.9597959169333985e-15 -2.6543073206313203e-29 -2.680379111552611e-05 1 True False
7171.147999999999 4.550865650177002 -1.4106383484653016 1.9814742247210901 -2.1415230236449183 -1.5708168188678187 1.4092738628387451 0.0 0.0 0.0 -7.533943036624184e-34 -0.0 -1.5363317288574763e-05 1 True False
7171.197999999999 4.550837516784668 -1.4107074451497574 1.9814532438861292 -2.1415230236449183 -1.5707967917071741 1.4093106985092163 0.0 0.0 0.0 -0.0 -0.0 -2.153571040253155e-05 1 True False
7171.248 4.550819396972656 -1.4106610131314774 1.9814818541156214 -2.141538759271139 -1.5708206335650843 1.40926194190979 0.0 0.0 0.0 -0.0 -0.0 -3.6472585236086256e-19 1 True False
7171.298 4.550840377807617 -1.4106536668590088 1.9814446608172815 -2.1415587864317835 -1.5707686583148401 1.4092583656311035 0.0 0.0 0.0 -0.0 -0.0 1.8448751006872044e-06 1 True False
7171.348 4.550812244415283 -1.4106654983809968 1.9814980665790003 -2.141550680200094 -1.5707529226886194 1.4092339277267456 0.0 0.0 0.0 -1.9905039039258554e-07 -0.0 2.8023696942678186e-25 1 True False
7171.397999999999 4.550790786743164 -1.4106580478003998 1.9814656416522425 -2.141562601129049 -1.570768181477682 1.4092626571655273 0.0 -1.1507472752469994e-09 0.0 6.697742631207194e-18 -0.0 4.203895392974451e-44 1 True False
7171.447999999999 4.550844669342041 -1.4107193809798737 1.981490437184469 -2.1415468655028285 -1.570784870778219 1.4092670679092407 0.0 8.407790785948902e-45 0.0 1.0173884234816928e-36 -0.0 0.0 1 True False
7171.498 4.550812721252441 -1.4107059997371216 1.9815023581134241 -2.14152254680776 -1.5707362333880823 1.4092583656311035 0.0 0.0 -2.149471776537691e-34 0.0 -0.0 0.0 1 True False
7171.548 4.550828456878662 -1.4107148510268708 1.9814489523517054 -2.1415511570372523 -1.5707967917071741 1.4092868566513062 0.0 0.0 -0.0 0.0 -0.0 0.0 1 True False
7171.598 4.550824165344238 -1.410710410480835 1.9814375082599085 -2.1415187321104945 -1.5707925001727503 1.409274935722351 0.0 0.0 -0.0 0.0 -0.0 0.0 1 True False
7171.647999999999 4.550841808319092 -1.4106609684279938 1.98145038286318 -2.141506334344381 -1.570845905934469 1.4092583656311035 0.0 0.0 -0.0 0.0 -0.0 0.0 1 True False
7171.697999999999 4.550871849060059 -1.4106251311353226 1.9814165274249476 -2.1415707073607386 -1.570784870778219 1.4092705249786377 0.0 0.0 -0.0 0.0 -0.0 0.0 1 True False
7171.748 4.550831317901611 -1.4107282322696229 1.9814289251910608 -2.1415630779662074 -1.5708254019366663 1.4092423915863037 0.0 0.0 -4.991031528334133e-05 0.0 -0.0 0.0 1 True False
7171.798 4.550869941711426 -1.4106490922025223 1.9814489523517054 -2.1415349445738734 -1.5707925001727503 1.4092705249786377 0.0 0.0 -2.091264286718797e-05 0.0 -0.0 0.0 1 True False
7171.848 4.550808429718018 -1.410716400747635 1.9814613501178187 -2.14152254680776 -1.5707362333880823 1.4092366695404053 0.0 0.0 -1.3228136594989337e-05 0.0 -0.0 0.0 1 True False
7171.897999999999 4.550848960876465 -1.4106490922025223 1.9814947287188929 -2.1415306530394496 -1.5708006064044397 1.4092539548873901 0.0 0.0 -2.1657672988339982e-08 0.0 -0.0 0.0 1 True False
7171.947999999999 4.550848960876465 -1.4106896233609696 1.9814532438861292 -2.1415144405760707 -1.570756737385885 1.4092705249786377 0.0 0.0 -5.096279249335953e-38 0.0 -0.0 -8.037241786951199e-05 1 True False
7171.998 4.550840377807617 -1.410652072434761 1.9814990202533167 -2.1415630779662074 -1.5708168188678187 1.4092012643814087 0.0 6.169745682268307e-35 3.2124466088134795e-05 1.949020826398675e-16 4.848076287089498e-07 -3.8817441014998844e-13 1 True False
7172.048 4.550841808319092 -1.4106951665929337 1.9814375082599085 -2.141506334344381 -1.5708373228656214 1.4092055559158325 0.0 0.0 4.742704080858135e-28 2.960566609422101e-35 7.364237801070156e-26 0.0003252241003792733 1 True False
7172.098 4.550783634185791 -1.4106951665929337 1.9814046064959925 -2.1415311298766078 -1.570756737385885 1.4092626571655273 0.0 0.0 0.0 0.0 1.1210387714598537e-44 -5.785187750007026e-05 1 True False
7172.147999999999 4.55079460144043 -1.4106654536775132 1.9814937750445765 -2.1415263615050257 -1.5707767645465296 1.409205675125122 0.0 0.0 0.0 0.0 0.0 -2.202473842771724e-05 1 True False
7172.197999999999 4.550832748413086 -1.4107297223857422 1.9812877813922327 -2.141310831109518 -1.5707805792437952 1.409221887588501 0.0 -0.010488981381058693 -0.01596234180033207 0.021281518042087555 0.0 -1.3664162906934507e-05 1 True False
7172.248 4.550808429718018 -1.4118280422738572 1.9795196692096155 -2.1382953129210414 -1.5708325544940394 1.409233808517456 0.0 -0.0343693308532238 -0.05624109506607056 0.0919303297996521 0.0 -4.186650585324969e-06 1 True False
7172.298 4.550848960876465 -1.414309100513794 1.975400749837057 -2.1317507229247035 -1.5707724730121058 1.4092295169830322 0.0 -0.06207045540213585 -0.10793215781450272 0.16320158541202545 0.0 -6.35953333556468e-25 1 True False
7172.348 4.550853729248047 -1.418186606173851 1.9690807501422327 -2.121798654595846 -1.5707886854754847 1.4092381000518799 0.0 -0.08944635838270187 -0.1424683779478073 0.24578751623630524 0.0 -9.668959403841238e-44 1 True False
7172.397999999999 4.550804138183594 -1.4233695280602952 1.9607628027545374 -2.1082269153990687 -1.570784870778219 1.409221887588501 0.0 -0.11712167412042618 -0.19280537962913513 0.310793936252594 0.0 -0.0 1 True False
7172.447999999999 4.5508198738098145 -1.4298589092544098 1.9502347151385706 -2.0911551914610804 -1.570829216633932 1.4092423915863037 0.0 -0.14104007184505463 -0.23366667330265045 0.36916595697402954 0.0 -0.0 1 True False
7172.498 4.550795555114746 -1.437650428419449 1.937455956135885 -2.0707537136473597 -1.5707767645465296 1.409246802330017 0.0 -0.16657833755016327 -0.27868956327438354 0.4474172294139862 0.0 -0.0 1 True False
7172.548 4.550840377807617 -1.4456981134465714 1.9243367354022425 -2.04935946087026 -1.5707767645465296 1.4092013835906982 0.0 -0.14222660660743713 -0.2374194711446762 0.3811534345149994 0.0 -0.0 1 True False
7172.598 4.5508036613464355 -1.451585629289486 1.914762322102682 -2.033861299554342 -1.5708087126361292 1.4092047214508057 0.0 -0.09247726202011108 -0.14187799394130707 0.23781505227088928 0.0 -0.0 1 True False
7172.647999999999 4.550844669342041 -1.4545353663018723 1.9099863211261194 -2.0260654888548792 -1.5707967917071741 1.4091848134994507 0.0 -0.02893836423754692 -0.043773721903562546 0.08530651032924652 0.0 -0.0 1 True False
7172.697999999999 4.550878524780273 -1.454728790824749 1.9096110502826136 -2.025281091729635 -1.5708044211017054 1.409258246421814 0.0 8.856375749682465e-15 -0.0005133998347446322 0.0007181232795119286 0.0 -0.0 1 True False
7172.748 4.550869464874268 -1.4547496151975174 1.9095595518695276 -2.0252887211241664 -1.570784870778219 1.4092583656311035 0.0 -0.00022016583534423262 -0.0004083777603227645 -4.7486244103556174e-11 0.0 -0.0 1 True False
7172.798 4.550820827484131 -1.4548036393574257 1.9094679991351526 -2.02532496074819 -1.5708487669574183 1.4092175960540771 0.0 -0.0006321488181129098 -0.0006673073512502015 -7.213173383651362e-30 0.0 -0.0 1 True False
7172.848 4.550828456878662 -1.4548531484654923 1.9094041029559534 -2.0253125629820765 -1.5707686583148401 1.409202218055725 0.0 -0.0002913479693233967 -0.00044088662252761424 -0.0 0.0 -0.0 1 True False
7172.897999999999 4.550782203674316 -1.4549561825445672 1.9093793074237269 -2.0253125629820765 -1.5708416144000452 1.4092868566513062 0.0 -0.00010328352800570428 -0.00011407284182496369 -0.0 0.0 -0.0 1 True False
7172.947999999999 4.550872802734375 -1.4548620593598862 1.9094160238849085 -2.025320669213766 -1.5707810560809534 1.4092142581939697 0.0 -9.187820251099765e-05 -6.982238846831024e-05 -0.0 0.0 -0.0 1 True False
7172.998 4.550832748413086 -1.4548650544932862 1.9094117323504847 -2.025344511071676 -1.5707529226886194 1.4092453718185425 0.0 -6.731626490363851e-05 -5.030785177950747e-05 -0.0 0.0 -0.0 1 True False
7173.048 4.550824165344238 -1.4548858863166352 1.9093716780291956 -2.0253645382323207 -1.5708048979388636 1.4092131853103638 0.0 -5.246211003395729e-05 -1.7930112880099903e-33 -0.0 0.0 -0.0 1 True False
7173.098 4.550844669342041 -1.454803706412651 1.9093549887286585 -2.0253125629820765 -1.5707891623126429 1.409303069114685 0.0 -2.802596928649634e-45 -0.0 -0.0 0.0 -0.0 1 True False
7173.147999999999 4.550812244415283 -1.4548650544932862 1.9093835989581507 -2.025332590142721 -1.5708373228656214 1.4092410802841187 0.0 0.0 -0.0 -0.0 0.0 -0.0 1 True False
7173.197999999999 4.550853252410889 -1.4548858192614098 1.9094026724444788 -2.025292535821432 -1.5708087126361292 1.409205675125122 0.0 0.0 -0.0 -0.0 0.0 -0.0 1 True False
7173.248 4.55083703994751 -1.4548904088190575 1.9093998114215296 -2.0253402195372523 -1.570801083241598 1.4092423915863037 0.0 0.0 -0.0 -0.0 0.0 -0.0 1 True False
7173.298 4.550902366638184 -1.4548904311707993 1.9093907515155237 -2.025280614892477 -1.570784870778219 1.4092497825622559 0.0 0.0 -0.0 -0.0 0.0 -0.0 1 True False
7173.348 4.550779819488525 -1.4548397225192566 1.9094117323504847 -2.0252725086607875 -1.5707925001727503 1.4092013835906982 0.0 0.0 -0.0 -0.0 0.0 -0.0 1 True False
7173.397999999999 4.550816535949707 -1.4549056154540558 1.9093669096576136 -2.025288244287008 -1.5708211104022425 1.409233808517456 0.0 0.0 -2.0291604664229764e-16 -0.0 0.0 -0.0 1 True False
7173.447999999999 4.550848007202148 -1.4548486855677147 1.9094074408160608 -2.0253125629820765 -1.570845905934469 1.4092497825622559 0.0 0.0 -0.0 -0.0 0.0 -0.0 1 True False
7173.498 4.5508294105529785 -1.4548442524722596 1.9094041029559534 -2.0253168545165003 -1.5708377997027796 1.409221887588501 0.0 0.0 -0.0 -0.0 0.0 -0.0 1 True False
7173.548 4.550807952880859 -1.4549145561507721 1.9094160238849085 -2.025320669213766 -1.5707805792437952 1.409274935722351 0.0 0.0 -0.0 -0.0 0.0 -0.0 1 True False
7173.598 4.550824165344238 -1.4549145188978692 1.9094207922564905 -2.0252963505186976 -1.5707805792437952 1.409192681312561 0.0 0.0 -0.0 -0.0 0.0 -0.0 1 True False
7173.647999999999 4.550786972045898 -1.4549056899598618 1.9094074408160608 -2.0253612003722132 -1.570801083241598 1.4092868566513062 0.0 0.0 -0.0 -0.0 0.0 -0.0 1 True False
7173.697999999999 4.550747394561768 -1.4548843514970322 1.9093955198871058 -2.0252276859679164 -1.5708211104022425 1.4096200466156006 -0.003850111272186041 -3.737556824034982e-07 -0.0 0.0004408166278153658 0.0 0.013849778100848198 1 True False
7173.748 4.550354957580566 -1.4549730283072968 1.9093835989581507 -2.025132795373434 -1.5707767645465296 1.4111008644104004 -0.01073459442704916 -0.004249295685440302 5.697978063671136e-26 0.00479208305478096 0.0 0.041901495307683945 1 True False
7173.798 4.549732208251953 -1.45526988179002 1.9093321005450647 -2.0248142681517542 -1.5708449522601526 1.4143248796463013 -0.014150919392704964 -0.007353121880441904 -0.0030552425887435675 0.009472246281802654 0.0 0.08678821474313736 1 True False
7173.848 4.548645496368408 -1.4557959225824852 1.9091232458697718 -2.0242158375182093 -1.5707967917071741 1.4202003479003906 -0.03001188114285469 -0.012454996816813946 -0.0060872347094118595 0.01226747501641512 0.0 0.1491299867630005 1 True False
7173.897999999999 4.546767234802246 -1.4563322377255936 1.9088481108294886 -2.023346086541647 -1.570801083241598 1.4296945333480835 -0.045590005815029144 -0.01579331047832966 -0.006881002802401781 0.023171700537204742 0.0 0.23161113262176514 1 True False
7173.947999999999 4.544135570526123 -1.4573200207999726 1.9084942976581019 -2.0219699345030726 -1.570813004170553 1.443366289138794 -0.06147785112261772 -0.020192135125398636 -0.007843861356377602 0.03045162372291088 0.0 0.30322593450546265 1 True False
7173.998 4.5407867431640625 -1.4585521233132859 1.9080384413348597 -2.020318647424215 -1.570784870778219 1.460598111152649 -0.07290711998939514 -0.027470285072922707 -0.009983600117266178 0.03939732164144516 0.0 0.37838804721832275 1 True False
7174.048 4.536673069000244 -1.4600099933198472 1.907487694417135 -2.018188615838522 -1.5707967917071741 1.4811445474624634 -0.08845167607069016 -0.031438861042261124 -0.012687331065535545 0.04149359092116356 0.0 0.4508638381958008 1 True False
7174.098 4.531940937042236 -1.4616845113090058 1.906837288533346 -2.015891214410299 -1.570829216633932 1.5053874254226685 -0.10328840464353561 -0.03598852828145027 -0.013663116842508316 0.048382215201854706 0.0 0.508374035358429 1 True False
7174.147999999999 4.5265398025512695 -1.4637194883874436 1.9061082045184534 -2.0132180653014125 -1.570801083241598 1.5330322980880737 -0.11583267897367477 -0.04198745638132095 -0.017320500686764717 0.05764509364962578 0.0 0.5879980325698853 1 True False
7174.197999999999 4.520405292510986 -1.4659824681333085 1.9052732626544397 -2.0101191006102503 -1.5707362333880823 1.5641416311264038 -0.12708935141563416 -0.045835498720407486 -0.017495447769761086 0.06149275600910187 0.0 0.6540278196334839 1 True False
7174.248 4.5135931968688965 -1.468439058666565 1.9043667952166956 -2.0067931614317835 -1.570829216633932 1.5988457202911377 -0.14183567464351654 -0.050995275378227234 -0.018959444016218185 0.07123539596796036 0.0 0.7199483513832092 1 True False
7174.298 4.506158828735352 -1.4711159256151696 1.903363052998678 -2.002979894677633 -1.5707967917071741 1.6368446350097656 -0.15757536888122559 -0.05690770968794823 -0.01911696046590805 0.07185646146535873 0.0 0.7909433841705322 1 True False
7174.348 4.4980034828186035 -1.4741671991399308 1.9022319952594202 -1.9990202389159144 -1.5708168188678187 1.678525686264038 -0.17285659909248352 -0.06078949570655823 -0.022862529382109642 0.09055283665657043 0.0 0.8685950040817261 1 True False
7174.397999999999 4.489073753356934 -1.4773327943733712 1.901168171559469 -1.994521280328268 -1.5708335081683558 1.7237330675125122 -0.18242375552654266 -0.06694009900093079 -0.025736870244145393 0.09284690767526627 0.0 0.9307267665863037 1 True False
7174.447999999999 4.479524612426758 -1.4807690319469948 1.8998397032367151 -1.9896522961058558 -1.5708211104022425 1.772064447402954 -0.1952875703573227 -0.07157678157091141 -0.027028072625398636 0.09544369578361511 0.0 1.0111116170883179 1 True False
7174.498 4.469451904296875 -1.4844635662487526 1.8982747236834925 -1.9847437343993128 -1.570801083241598 1.8239737749099731 -0.2074795663356781 -0.07667616754770279 -0.029775254428386688 0.1105099469423294 0.0 1.0394929647445679 1 True False
7174.548 4.459129810333252 -1.4881862935474892 1.8970120588885706 -1.9795547924437464 -1.5707767645465296 1.8763177394866943 -0.20632095634937286 -0.078670933842659 -0.02961753122508526 0.10288778692483902 0.0 1.048673391342163 1 True False
7174.598 4.448857307434082 -1.491932065492012 1.8956745306598108 -1.9743458233275355 -1.57074481645693 1.928643822669983 -0.20488011837005615 -0.0723119005560875 -0.026720697060227394 0.09946007281541824 0.0 1.0510566234588623 1 True False
7174.647999999999 4.438632011413574 -1.4958016586354752 1.8942621389972132 -1.9692069492735804 -1.5707805792437952 1.9810291528701782 -0.20979931950569153 -0.07305582612752914 -0.02487817406654358 0.09947811812162399 0.0 1.042409062385559 1 True False
7174.697999999999 4.42825984954834 -1.499482200746872 1.8928454558001917 -1.9641977749266566 -1.5707767645465296 2.033437490463257 -0.20306546986103058 -0.07565204054117203 -0.03100736252963543 0.10683346539735794 0.0 1.0530719757080078 1 True False
7174.748 4.4180121421813965 -1.5031872254661103 1.8914664427386683 -1.9590097866454066 -1.5707967917071741 2.085705280303955 -0.20518667995929718 -0.07591619342565536 -0.029589511454105377 0.09750672429800034 0.0 1.0532138347625732 1 True False
7174.798 4.407811164855957 -1.5068814766458054 1.8901022116290491 -1.9538866482176722 -1.570784870778219 2.138152837753296 -0.20843684673309326 -0.07367299497127533 -0.027752140536904335 0.09581929445266724 0.0 1.0380913019180298 1 True False
7174.848 4.397439479827881 -1.5106956225684662 1.888620678578512 -1.948681970635885 -1.5708006064044397 2.190546751022339 -0.20369528234004974 -0.07433164864778519 -0.025799836963415146 0.10577723383903503 0.0 1.0475801229476929 1 True False
7174.897999999999 4.387153148651123 -1.514419251387455 1.8873656431781214 -1.943629880944723 -1.570824925099508 2.2428033351898193 -0.20389841496944427 -0.07689512521028519 -0.02795439586043358 0.1066145971417427 0.0 1.0518686771392822 1 True False
7174.947999999999 4.376910209655762 -1.5181044314852734 1.8858678976642054 -1.9384776554503382 -1.570784870778219 2.2952523231506348 -0.20665796101093292 -0.07726859301328659 -0.029540572315454483 0.09603221714496613 0.0 1.0393587350845337 1 True False
7174.998 4.36659574508667 -1.5219510582140465 1.8844197432147425 -1.9333092174925746 -1.5708335081683558 2.3473989963531494 -0.20010727643966675 -0.07427815347909927 -0.025332890450954437 0.08968907594680786 0.0 1.023483395576477 1 True False
7175.048 4.356904983520508 -1.525450063203909 1.8831046263324183 -1.9283911190428675 -1.5708091894732874 2.396655559539795 -0.18371276557445526 -0.0674714744091034 -0.02421041578054428 0.10412586480379105 0.0 0.9599806070327759 1 True False
7175.098 4.347867012023926 -1.528731332426407 1.8819182554828089 -1.9240805111327113 -1.570784870778219 2.442796468734741 -0.17449496686458588 -0.06334274262189865 -0.02336244285106659 0.08500491827726364 0.0 0.8812217116355896 1 True False
7175.147999999999 4.339601039886475 -1.5318062987974663 1.880862061177389 -1.919826170007223 -1.570813004170553 2.4851083755493164 -0.1615525782108307 -0.054739151149988174 -0.020400406792759895 0.07566936314105988 0.0 0.809705913066864 1 True False
7175.197999999999 4.331905364990234 -1.5345820424011727 1.8798416296588343 -1.91605867962026 -1.5707925001727503 2.5239808559417725 -0.14138750731945038 -0.05101751908659935 -0.02198309451341629 0.07642156630754471 0.0 0.7558000087738037 1 True False
7175.248 4.325069904327393 -1.5371194046786805 1.8788135687457483 -1.9126221142210902 -1.5707767645465296 2.5594489574432373 -0.13333813846111298 -0.04680398479104042 -0.017805179581046104 0.062445785850286484 0.0 0.6797686219215393 1 True False
7175.298 4.31874942779541 -1.5393547353199502 1.8779156843768519 -1.9094683132567347 -1.5708211104022425 2.591435194015503 -0.11990796774625778 -0.044220730662345886 -0.01556331291794777 0.06183236837387085 0.0 0.6089301705360413 1 True False
7175.348 4.3131890296936035 -1.541361741056182 1.8772066275226038 -1.90665926555776 -1.5708168188678187 2.619968891143799 -0.10731612145900726 -0.038299623876810074 -0.013842667452991009 0.04763433337211609 0.0 0.5382022857666016 1 True False
7175.397999999999 4.308217525482178 -1.54316106744621 1.8765576521502894 -1.9041315517821253 -1.5708048979388636 2.644772529602051 -0.09117003530263901 -0.03312690928578377 -0.01041866559535265 0.044681016355752945 0.0 0.47498276829719543 1 True False
7175.447999999999 4.303925514221191 -1.544723431845643 1.8759740034686487 -1.9020568333067835 -1.5707724730121058 2.666442632675171 -0.07620174437761307 -0.02935451827943325 -0.010401386767625809 0.044632453471422195 0.0 0.3887912929058075 1 True False
7175.498 4.300358295440674 -1.5459313609502097 1.8755553404437464 -1.900308748284811 -1.5708087126361292 2.6843831539154053 -0.06398317962884903 -0.02435269206762314 -0.008289603516459465 0.028097638860344887 0.0 0.3237520754337311 1 True False
7175.548 4.297602653503418 -1.5470484916916867 1.8751395384417933 -1.8988672695555628 -1.570756737385885 2.6988608837127686 -0.050052136182785034 -0.01870211958885193 -0.007411722093820572 0.026318153366446495 0.0 0.25477680563926697 1 True False
7175.598 4.295447826385498 -1.5477550246617575 1.8748849073993128 -1.8977371654906214 -1.570829216633932 2.7099108695983887 -0.037579894065856934 -0.014211822301149368 -0.005261033307760954 0.017662616446614265 0.0 0.19066140055656433 1 True False
7175.647999999999 4.294007301330566 -1.5483132165721436 1.8747184912311 -1.897088190118307 -1.5707929770099085 2.7174863815307617 -0.022975020110607147 -0.006206689868122339 -0.003987758420407772 0.011543851345777512 0.0 0.11722590029239655 1 True False
7175.697999999999 4.293160438537598 -1.5484953739545126 1.8746278921710413 -1.8967486820616664 -1.5707686583148401 2.721510171890259 -0.009552531875669956 -0.002412658417597413 -0.0015271659940481186 0.0032185150776058435 0.0 0.0463702529668808 1 True False
7175.748 4.293117523193359 -1.5485521119884034 1.8746264616595667 -1.8969203434386195 -1.5708044211017054 2.722200393676758 -0.00017631647642701864 0.002454811939969659 0.012381874956190586 -0.0154996607452631 0.0 0.00014834808825980872 1 True False
7175.798 4.293163776397705 -1.5477594186416646 1.8761733214007776 -1.89971985439443 -1.5707891623126429 2.7221829891204834 -2.0641746232286096e-05 0.034733641892671585 0.05700455233454704 -0.09318830817937851 0.0 0.0008915712824091315 1 True False
7175.848 4.293039321899414 -1.5458448205939312 1.8793399969684046 -1.9047767124571742 -1.5708254019366663 2.722219467163086 -0.0009465193725191057 0.04409890994429588 0.06311860680580139 -0.09362924844026566 0.0 0.0005595713737420738 1 True False
7175.897999999999 4.293012619018555 -1.5440229822746296 1.8820913473712366 -1.9089552364745082 -1.570801083241598 2.722215175628662 -0.0007244113949127495 0.025959303602576256 0.0410585030913353 -0.07170255482196808 0.0 0.00026675124536268413 1 True False
7175.947999999999 4.293046951293945 -1.5432822958431025 1.8833301703082483 -1.910811563531393 -1.5707724730121058 2.722235679626465 -0.00019798499124590307 0.0007624266436323524 0.0025312770158052444 -0.007406062446534634 0.0 0.00015910682850517333 1 True False
7175.998 4.293054103851318 -1.5433359307101746 1.8832510153399866 -1.9107228718199671 -1.5707925001727503 2.7222065925598145 -9.464835602557287e-05 -1.5601994302688112e-18 0.0008448674343526363 -0.00010319861030438915 0.0 7.517546328017488e-05 1 True False
7176.048 4.2930588722229 -1.543286732663848 1.8832305113421839 -1.9107629261412562 -1.5707281271563929 2.72227144241333 -8.684353088028729e-05 0.0008360880892723799 0.0009939647279679775 -0.0001271026412723586 0.0 5.3027906687930226e-05 1 True False
7176.098 4.293004989624023 -1.5432972137681027 1.88332444826235 -1.9107629261412562 -1.5707925001727503 2.7222681045532227 -6.6921336228710485e-19 0.0010207082377746701 0.00023007650452200323 -0.0003468110226094723 0.0 1.0443507431477163e-19 1 True False
7176.147999999999 4.293079853057861 -1.5433211096427222 1.8832629362689417 -1.910806795159811 -1.570829216633932 2.7222561836242676 -5.467230221256614e-05 0.0007163562695495784 0.00021242874208837748 -0.0004149602318648249 0.0 1.586371595884203e-38 1 True False
7176.197999999999 4.293009281158447 -1.543259934788086 1.883292023335592 -1.9107824764647425 -1.570801083241598 2.72224760055542 -1.0399680501048057e-38 0.00016561074880883098 9.581030462868512e-05 -0.00036673175054602325 0.0 0.0 1 True False
7176.248 4.2930169105529785 -1.54322229072962 1.883303467427389 -1.9108263454832972 -1.5708168188678187 2.72224760055542 0.0 0.0001380035246256739 7.503318920498714e-05 -0.00017065322026610374 0.0 0.0 1 True False
7176.298 4.2930378913879395 -1.5432435435107728 1.8833053747760218 -1.9108106098570765 -1.5707686583148401 2.7222442626953125 0.0 8.60527652548626e-05 1.1817491429866323e-12 -7.125900447135791e-05 0.0 0.0 1 True False
7176.348 4.2930006980896 -1.5431690377048035 1.8832619825946253 -1.9108506641783656 -1.5708373228656214 2.7222723960876465 0.0 5.821992817800492e-05 2.780176153220437e-42 -5.1048820751020685e-05 0.0 0.0 1 True False
7176.397999999999 4.293030261993408 -1.5432509940913697 1.8833158651935022 -1.9108149013915003 -1.5707925001727503 2.72224760055542 0.0 1.1765267696431006e-28 0.0 -3.734709863386354e-22 0.0 0.0 1 True False
7176.447999999999 4.293033599853516 -1.5432584092817088 1.88328725496401 -1.9107986889281214 -1.5708044211017054 2.7222681045532227 0.0 0.0 0.0 -5.673016702972589e-41 0.0 2.7995133473771375e-14 1 True False
7176.498 4.293054103851318 -1.543205914353468 1.8832877318011683 -1.9108311138548792 -1.5707891623126429 2.7222561836242676 0.0 0.0 0.0 -0.0 0.0 4.2524650574568456e-33 1 True False
7176.548 4.29302453994751 -1.543217883711197 1.883296314870016 -1.9107943973936976 -1.5707891623126429 2.722219467163086 0.0 0.0 0.0 -0.0 0.0 0.0 1 True False
7176.598 4.292993068695068 -1.5432358265719195 1.8832748571978968 -1.9108468494811 -1.5707767645465296 2.7222108840942383 0.0 9.842572832867855e-28 0.0 -0.0 0.0 0.0 1 True False
7176.647999999999 4.2930498123168945 -1.5432403248599549 1.8833158651935022 -1.910790582696432 -1.570813004170553 2.7222604751586914 0.0 0.0 0.0 -0.0 0.0 0.0 1 True False
7176.697999999999 4.2930498123168945 -1.543248013859131 1.8833335081683558 -1.9108063183226527 -1.5707805792437952 2.722243309020996 0.0 0.0 0.0 -0.0 0.0 0.0 1 True False
7176.748 4.293087005615234 -1.5432689648917695 1.8833120504962366 -1.910778661767477 -1.570784870778219 2.722227096557617 0.0 0.0 0.0 -0.0 0.0 0.0 1 True False
7176.798 4.293028831481934 -1.543228394617774 1.883270565663473 -1.9108230076231898 -1.5707925001727503 2.722231388092041 0.0 0.0 0.0 -0.0 0.0 0.0 1 True False
7176.848 4.293030261993408 -1.5432435435107728 1.883275334035055 -1.9108263454832972 -1.570801083241598 2.72224760055542 0.0 0.0 0.0 -0.0 0.0 0.0 1 True False
7176.897999999999 4.293032169342041 -1.5432689555785437 1.883320156727926 -1.9108468494811 -1.5708091894732874 2.7222442626953125 0.0 0.0 0.0 -0.0 0.0 0.0 1 True False
7176.947999999999 4.293091297149658 -1.5432435435107728 1.88332444826235 -1.9108268223204554 -1.5708087126361292 2.722235679626465 0.0 0.0 6.18978599946019e-26 -0.0 0.0 0.0 1 True False
7176.998 4.2930169105529785 -1.5432403285852452 1.88332444826235 -1.9108711681761683 -1.570801083241598 2.7221903800964355 0.0 0.0 0.0 -0.0 0.0 -1.3530797206195362e-22 1 True False
7177.048 4.293042182922363 -1.5431984488717099 1.883259121571676 -1.910778661767477 -1.5707967917071741 2.722263813018799 0.0 0.0 0.0 -0.0 0.0 -2.0552844576252092e-41 1 True False
7177.098 4.293014049530029 -1.5432628908059378 1.8832796255694788 -1.9108506641783656 -1.5707925001727503 2.722235679626465 0.0 0.0 0.0 -0.0 0.0 -0.0 1 True False
7177.147999999999 4.293012619018555 -1.5432763651809474 1.883303467427389 -1.9108106098570765 -1.570829216633932 2.7222518920898438 0.0 0.0 0.0 -0.0 0.0 -0.0 1 True False
7177.197999999999 4.293054103851318 -1.5432584446719666 1.883303467427389 -1.9108349285521449 -1.570784870778219 2.7222518920898438 0.0 0.0 0.0 -0.0 0.0 -0.0 1 True False
7177.248 4.293067455291748 -1.5432223819992323 1.8833287397967737 -1.9108149013915003 -1.570756737385885 2.722235679626465 0.0 0.0 0.0 -0.0 0.0 -0.0 1 True False
7177.298 4.292984485626221 -1.543222354059555 1.883320156727926 -1.910790582696432 -1.5707805792437952 2.722219467163086 0.0 0.0 0.0 -0.0 0.0 -0.0 1 True False
7177.348 4.293004989624023 -1.5432358004948874 1.883259121571676 -1.9108106098570765 -1.5707686583148401 2.722219467163086 0.0 0.0 0.0 -0.0 0.0 -0.0 1 True False
7177.397999999999 4.293045520782471 -1.5432643716088315 1.8833420912372034 -1.9108630619444789 -1.5707886854754847 2.722231388092041 0.0 0.0 0.0 -0.0 0.0 -0.0 1 True False
7177.447999999999 4.293051242828369 -1.5432689648917695 1.883292023335592 -1.9107548199095667 -1.5707524458514612 2.722235679626465 0.0 6.365878825595125e-14 0.0 -0.0 0.0 -0.0 1 True False
7177.498 4.293091297149658 -1.5433509212783356 1.883320156727926 -1.9108387432494105 -1.570813004170553 2.722227096557617 0.0 0.0 0.0 -0.0 0.0 -0.0 1 True False
7177.548 4.2930216789245605 -1.5432554439506312 1.883320156727926 -1.9108911953368128 -1.5708087126361292 2.7222280502319336 0.0 0.0 0.0 -0.0 0.0 -0.0 1 True False
7177.598 4.293051242828369 -1.5433150690845032 1.8832710425006312 -1.9108630619444789 -1.570784870778219 2.7222118377685547 0.0 0.0 0.0 -0.0 0.0 -0.0 1 True False
7177.647999999999 4.293033599853516 -1.5432464883527537 1.88332444826235 -1.9108711681761683 -1.5707762877093714 2.7222604751586914 0.0 0.0 -7.596308257138037e-28 -0.0 0.0 -0.0 1 True False
7177.697999999999 4.292989253997803 -1.5432435435107728 1.8833158651935022 -1.9108311138548792 -1.5708044211017054 2.7222118377685547 0.0 0.0 -0.0 -0.0 0.0 -0.0 1 True False
7177.748 4.292993545532227 -1.543276335378625 1.8833077589618128 -1.910802503625387 -1.5708454290973108 2.722235679626465 -2.2380464593234224e-25 0.0 -0.0 -0.0 0.0 -0.0 1 True False
7177.798 4.293001174926758 -1.5433374692550679 1.883303467427389 -1.9108592472472132 -1.5707772413836878 2.722198963165283 0.0 0.0 -0.0 -0.0 0.0 -0.0 1 True False
7177.848 4.293046474456787 -1.5432312817177554 1.883296314870016 -1.910830637017721 -1.570784870778219 2.7222442626953125 0.0 0.0 -0.0 -0.0 0.0 -0.0 1 True False
7177.897999999999 4.2930378913879395 -1.5432882209173222 1.8833006064044397 -1.9108468494811 -1.5708377997027796 2.7222161293029785 0.0 0.0 -0.0 -0.0 0.0 -0.0 1 True False
7177.947999999999 4.293091297149658 -1.5432509791902085 1.88332444826235 -1.9107781849303187 -1.5707724730121058 2.722187042236328 0.0 0.0 -0.0 -0.0 0.0 -0.0 1 True False
7177.998 4.293042182922363 -1.5432300933501502 1.883303467427389 -1.910802503625387 -1.570813004170553 2.722235679626465 0.0 0.0 -0.0 -0.0 0.0 -0.0 1 True False
7178.048 4.292972564697266 -1.5431969494423647 1.883292023335592 -1.9108106098570765 -1.5707200209247034 2.7222561836242676 0.0 0.0 -0.0 -0.0 0.0 -0.0 1 True False
7178.098 4.293030261993408 -1.543259934788086 1.8832877318011683 -1.9108144245543421 -1.5707882086383265 2.7222561836242676 0.0 0.0 -0.0 -0.0 0.0 -0.0 1 True False
7178.147999999999 4.293025970458984 -1.5432643604329606 1.8832710425006312 -1.9108144245543421 -1.5708048979388636 2.722227096557617 0.0 0.0 -1.0492550330378023e-14 -0.0 0.0 -0.0 1 True False
7178.197999999999 4.293042182922363 -1.543325499897339 1.8833611647235315 -1.910802503625387 -1.5708048979388636 2.7222399711608887 0.0 0.0 -2.5223372357846707e-44 -0.0 0.0 -0.0 1 True False
7178.248 4.292993545532227 -1.5432555128685017 1.8833158651935022 -1.9107781849303187 -1.5708444754229944 2.72224760055542 0.0 0.0 -0.0 -0.0 0.0 -0.0 1 True False
7178.298 4.293025970458984 -1.5433299106410523 1.883320156727926 -1.9107781849303187 -1.5707767645465296 2.722219467163086 0.0 0.0 -0.0 -0.0 0.0 -0.0 1 True False
7178.348 4.293013095855713 -1.543239002381899 1.8833120504962366 -1.910818716088766 -1.5708125273333948 2.722263813018799 0.0 0.0 -0.0 -0.0 0.0 -0.0 1 True False
7178.397999999999 4.293017387390137 -1.543235746478178 1.8832710425006312 -1.9108144245543421 -1.570756737385885 2.722215175628662 0.0 0.0 -0.0 -0.0 0.0 -0.0 1 True False
7178.447999999999 4.2930097579956055 -1.5432689648917695 1.8833330313311976 -1.9108311138548792 -1.5708568731891077 2.722203254699707 0.0 0.0 -0.0 -0.0 0.0 -0.0 1 True False
7178.498 4.293014049530029 -1.543222389449813 1.883275334035055 -1.9108506641783656 -1.5707929770099085 2.7222442626953125 0.0 0.0 -0.0 -0.0 0.0 -0.0 1 True False
7178.548 4.293059349060059 -1.5432435639998694 1.88332444826235 -1.910806795159811 -1.5708206335650843 2.7222604751586914 0.0 0.0 -0.0 -0.0 0.0 -0.0 1 True False
7178.598 4.293046474456787 -1.5432313077947875 1.8833006064044397 -1.9108592472472132 -1.5708611647235315 2.7222399711608887 0.0 0.0 -0.0 -0.0 0.0 -0.0 1 True False
7178.647999999999 4.293005466461182 -1.543240313684084 1.8833120504962366 -1.9108468494811 -1.5708206335650843 2.722219467163086 0.0 0.0 -0.0 -0.0 0.0 -0.0 1 True False
7178.697999999999 4.2930216789245605 -1.543271855717041 1.8833110968219202 -1.9108430347838343 -1.5708087126361292 2.7222604751586914 0.0 4.1798019083216786e-05 -0.0 -0.0 0.0 -0.0 1 True False
7178.748 4.2930097579956055 -1.5432926931283255 1.883270565663473 -1.9108263454832972 -1.570784870778219 2.7222561836242676 0.0 0.0 -0.0 -4.471698157396673e-16 0.0 -0.0 1 True False
7178.798 4.292993545532227 -1.5432763148895283 1.88334829012026 -1.9108149013915003 -1.5708373228656214 2.7221860885620117 0.0 0.0 -0.0 -6.792520063857811e-35 0.0 -0.0 1 True False
7178.848 4.293030261993408 -1.5432525605759402 1.883329216633932 -1.9108191929259242 -1.5707486311541956 2.722259521484375 0.0 0.0 -0.0 -0.0 0.0 -0.0 1 True False
7178.897999999999 4.2930097579956055 -1.5432718370905896 1.8833120504962366 -1.9108230076231898 -1.570829216633932 2.722215175628662 0.0 0.0 -0.0 -0.0 0.0 -0.0 1 True False
7178.947999999999 4.293025970458984 -1.5432882265052577 1.88332444826235 -1.9108349285521449 -1.5707767645465296 2.722207546234131 0.0 0.0 -0.0 -0.0 0.0 -0.0 1 True False
7178.998 4.293042182922363 -1.543280790825822 1.883329216633932 -1.9108230076231898 -1.5708330313311976 2.722203254699707 0.0 0.0 -0.0 -0.0 0.0 -0.0 1 True False
7179.048 4.293042182922363 -1.5432897315225382 1.8833254019366663 -1.910806795159811 -1.5707886854754847 2.722170114517212 0.0 0.0 -0.0 -0.0 0.0 -0.0 1 True False
7179.098 4.293001174926758 -1.5432689164629956 1.883336369191305 -1.9108425579466761 -1.5707810560809534 2.7222681045532227 0.0 0.0 -0.0 -0.0 0.0 -0.0 1 True False
7179.147999999999 4.293014049530029 -1.5432525233230372 1.8833382765399378 -1.910806795159811 -1.5708125273333948 2.722235679626465 0.0 0.0 -0.0 -0.0 0.0 -0.0 1 True False
7179.197999999999 4.293030261993408 -1.543251023893692 1.883254353200094 -1.9107986889281214 -1.5708168188678187 2.7222237586975098 8.688050478813866e-43 0.0 -0.0 -0.0 0.0 -0.0 1 True False
7179.248 4.293025970458984 -1.5431853172234078 1.8833077589618128 -1.910858770410055 -1.5707691351519983 2.722198963165283 0.0 0.0 -0.0 -0.0 0.0 -0.0 1 True False
7179.298 4.292993545532227 -1.5432466317764302 1.8833168188678187 -1.910790582696432 -1.5708125273333948 2.7222800254821777 0.0 0.0 -0.0 -0.0 0.0 -0.0 1 True False
7179.348 4.292996883392334 -1.543273327206709 1.8832839171039026 -1.910774370233053 -1.5707767645465296 2.7222442626953125 0.0 0.0 -1.5459054060039406e-16 -0.0 0.0 -0.0 1 True False
7179.397999999999 4.2930378913879395 -1.5432435789010306 1.8833077589618128 -1.9108387432494105 -1.5708330313311976 2.7222161293029785 0.0 0.0 -0.0 -0.0 0.0 -0.0 1 True False
7179.447999999999 4.293034553527832 -1.5433016040227194 1.8833168188678187 -1.910802503625387 -1.5708006064044397 2.7222237586975098 0.0 0.0 -0.0 -0.0 0.0 -0.0 1 True False
7179.498 4.293066024780273 -1.5433015686324616 1.883329216633932 -1.9108344517149867 -1.5708087126361292 2.722263813018799 0.0 0.0 -0.0 -0.0 0.0 -0.0 1 True False
7179.548 4.293050765991211 -1.5432599534145375 1.88328725496401 -1.9108225307860316 -1.5708048979388636 2.7222161293029785 0.0 0.0 -0.0 -0.0 0.0 -0.0 1 True False
7179.598 4.293034553527832 -1.54325549051676 1.8833006064044397 -1.9108544788756312 -1.5708168188678187 2.722235679626465 0.0 0.0 -0.0 -0.0 0.0 -0.0 1 True False
7179.647999999999 4.2930216789245605 -1.5432688680342217 1.883292023335592 -1.9108630619444789 -1.570784870778219 2.722235679626465 0.0 0.0 -0.0 -0.0 0.0 -0.0 1 True False
7179.697999999999 4.2930169105529785 -1.5432762776366253 1.883292023335592 -1.910818716088766 -1.570768181477682 2.722187042236328 0.0 0.0 -0.0 -0.0 0.0 -0.0 1 True False
7179.748 4.2930216789245605 -1.5432105765542765 1.8833335081683558 -1.9108506641783656 -1.5708211104022425 2.722235679626465 0.0 0.0 -0.0 -0.0 0.0 -0.0 1 True False
7179.798 4.2930169105529785 -1.5433342692307015 1.8832796255694788 -1.910790582696432 -1.570772949849264 2.722203254699707 0.0 0.0 -0.0 -0.0 0.0 -0.0 1 True False
7179.848 4.293103218078613 -1.5432181500694533 1.883296314870016 -1.9108149013915003 -1.5707891623126429 2.7222237586975098 0.0 0.0 -0.0 -0.0 0.0 -0.0 1 True False
7179.897999999999 4.2930588722229 -1.5432061360082407 1.883341137562887 -1.910778661767477 -1.5707805792437952 2.7222681045532227 0.0 0.0 -0.0 -0.0 0.0 -0.0 1 True False
7179.947999999999 4.2930006980896 -1.5432837934098025 1.883292023335592 -1.9108506641783656 -1.5707967917071741 2.7222442626953125 0.0 0.0 -0.0 -0.0 0.0 -0.0 1 True False
7179.998 4.292972087860107 -1.543271855717041 1.883341137562887 -1.9108029804625453 -1.5707967917071741 2.722243309020996 0.0 0.0 -0.0 -0.0 0.0 -0.0 1 True False
7180.048 4.292976379394531 -1.5432881873897095 1.883298699055807 -1.9107829533019007 -1.570784870778219 2.7222485542297363 0.0 0.0 -0.0 -0.0 0.0 -0.0 1 True False
7180.098 4.2930216789245605 -1.543271855717041 1.8833053747760218 -1.9108387432494105 -1.5707967917071741 2.72224760055542 0.0 0.0 -0.0 -0.0 0.0 -0.0 1 True False
7180.147999999999 4.293009281158447 -1.5432643455317994 1.8833120504962366 -1.9108225307860316 -1.5708611647235315 2.722187042236328 0.0 0.0 -0.0 -0.0 0.0 -0.0 1 True False
7180.197999999999 4.2930827140808105 -1.5432643362185736 1.8832586447345179 -1.9108864269652308 -1.5708048979388636 2.7222399711608887 0.0 0.0 -0.0 -0.0 0.0 -0.0 1 True False
7180.248 4.293066024780273 -1.5432093006423493 1.8832796255694788 -1.910818716088766 -1.5707925001727503 2.722259521484375 0.0 0.0 -0.0 -0.0 0.0 -0.0 1 True False
7180.298 4.293012619018555 -1.5432391569814463 1.883292023335592 -1.910806795159811 -1.570801083241598 2.7222766876220703 0.0 0.0 -0.0 -0.0 0.0 -0.0 1 True False
7180.348 4.2930216789245605 -1.543289515455701 1.88332444826235 -1.9108463726439417 -1.57074481645693 2.722243309020996 0.0 0.0 -0.0 -0.0 0.0 -0.0 1 True False
7180.397999999999 4.293079376220703 -1.5432806529900809 1.8832538763629358 -1.910806795159811 -1.570813004170553 2.7222237586975098 0.0 0.0 -0.0 -0.0 0.0 -0.0 1 True False
7180.447999999999 4.2930588722229 -1.5432599180242796 1.88328725496401 -1.9107910595335902 -1.5707443396197718 2.7222681045532227 0.0 0.0 -0.0 -0.0 0.0 -0.0 1 True False
7180.498 4.293066024780273 -1.5432555352202435 1.883320156727926 -1.9108349285521449 -1.5707486311541956 2.7222399711608887 0.0 0.0 -0.0 -0.0 0.0 -0.0 1 True False
7180.548 4.2930216789245605 -1.5432467379472037 1.883320156727926 -1.9108506641783656 -1.570801083241598 2.72224760055542 0.0 0.0 -0.0 -0.0 0.0 -0.0 1 True False
7180.598 4.293004989624023 -1.5432969734868784 1.8832510153399866 -1.9108463726439417 -1.570784870778219 2.7222647666931152 0.0 0.0 -0.0 -0.0 0.0 -0.0 1 True False
7180.647999999999 4.293087005615234 -1.5432313673994322 1.88328725496401 -1.910802503625387 -1.570801083241598 2.7222237586975098 0.0 0.0 -0.0 -0.0 0.0 -0.0 1 True False
7180.697999999999 4.2930378913879395 -1.543301425208785 1.8833120504962366 -1.910806795159811 -1.5708254019366663 2.722285270690918 0.0 0.0 -0.0 -0.0 0.0 -0.0 1 True False
7180.748 4.293046951293945 -1.5432436273298045 1.88328725496401 -1.9108673534789027 -1.5707967917071741 2.7221784591674805 0.0 0.0 -0.0 -0.0 0.0 -0.0 1 True False
7180.798 4.293025970458984 -1.5433058154634018 1.883329216633932 -1.9108225307860316 -1.570784870778219 2.7222561836242676 0.0 0.0 -0.0 -0.0 0.0 -0.0 1 True False
7180.848 4.293045520782471 -1.5432479970953246 1.88328725496401 -1.9108110866942347 -1.5707843939410608 2.7222483158111572 0.0 0.0 -0.0 -0.0 0.0 -0.0 1 True False
7180.897999999999 4.293012619018555 -1.5432731577060004 1.883292023335592 -1.9108711681761683 -1.5707686583148401 2.722280979156494 0.0 0.0 -0.0 -0.0 0.0 -0.0 1 True False
7180.947999999999 4.2930498123168945 -1.5432555482587595 1.88332444826235 -1.9107824764647425 -1.5707886854754847 2.722263813018799 0.0 0.0 -0.0 -0.0 0.0 -0.0 1 True False
