Andreas691667/Digital_Twin_UR/src/controller_monitor/robot_output/case1_no_blocks_robot_output.csv
timestamp actual_q_0 actual_q_1 actual_q_2 actual_q_3 actual_q_4 actual_q_5 actual_qd_0 actual_qd_1 actual_qd_2 actual_qd_3 actual_qd_4 actual_qd_5 safety_status output_bit_register_65 output_bit_register_66
8646.652 3.7120981216430664 -0.8254794639400025 0.8429887930499476 -1.5882655582823695 -1.5708335081683558 2.141295909881592 0.0 0.0 0.0 -0.0 -0.0 -0.0 1 False False
8646.702 3.7120935916900635 -0.8254675430110474 0.8429887930499476 -1.588245531121725 -1.5707805792437952 2.141247272491455 0.0 0.0 0.0 -0.0 -0.0 -0.0 1 False False
8646.752 3.7121026515960693 -0.825466052894928 0.8429887930499476 -1.5883285007872523 -1.5707524458514612 2.141295909881592 0.0 0.0 0.0 -0.0 -0.0 -0.0 1 False False
8646.802 3.7120742797851562 -0.8255202335170289 0.842992130910055 -1.588292738000387 -1.5707805792437952 2.1413614749908447 0.0 0.0 0.0 -0.0 -0.0 0.00021251187718007714 1 False False
8646.851999999999 3.712127923965454 -0.8254468601993104 0.8430169264422815 -1.588245531121725 -1.5708211104022425 2.141282796859741 0.0 0.0 0.0 -0.0 -0.0 -3.2962880140985362e-06 1 False False
8646.902 3.7120728492736816 -0.8254823845675965 0.8429845015155237 -1.588292738000387 -1.570813004170553 2.141231060028076 0.0 0.0 0.0 -0.0 -0.0 -5.00707026357045e-25 1 False False
8646.952 3.7121026515960693 -0.8254305285266419 0.8429964224444788 -1.5882774792113246 -1.5707529226886194 2.1413002014160156 0.0 0.0 0.0 -0.0 -0.0 -7.567011707354012e-44 1 False False
8647.002 3.7120490074157715 -0.8255044978908082 0.8429887930499476 -1.5882731876769007 -1.5708211104022425 2.1412429809570312 0.0 0.0 0.0 -0.0 -0.0 -0.0 1 False False
8647.052 3.7120935916900635 -0.8255201739123841 0.8430212179767054 -1.588313718835348 -1.5707686583148401 2.141279697418213 0.0 0.0 0.0 -0.0 -0.0 -0.0 1 False False
8647.101999999999 3.7120490074157715 -0.8254913252643128 0.842992130910055 -1.5883127651610316 -1.5708335081683558 2.14125919342041 0.0 0.0 0.0 -0.0 -0.0 -0.0 1 False False
8647.152 3.712083101272583 -0.8254349392703553 0.8430374304400843 -1.588269372979635 -1.570801083241598 2.1413333415985107 0.0 0.0 0.0 -0.0 -0.0 -0.0 1 False False
8647.202 3.7120535373687744 -0.825463132267334 0.8429802099810999 -1.5883456669249476 -1.570813004170553 2.141270875930786 0.0 0.0 0.0 -0.0 -0.0 -0.0 1 False False
8647.252 3.7121145725250244 -0.8255126041224976 0.8430212179767054 -1.5882569752135218 -1.5707805792437952 2.141291618347168 0.0 0.0 0.0 -0.0 -0.0 -0.0 1 False False
8647.302 3.712062358856201 -0.8254956764033814 0.8429635206805628 -1.5882846317686976 -1.570784870778219 2.141312837600708 0.0 0.0 0.0 -0.0 -0.0 -0.0 1 False False
8647.351999999999 3.7120862007141113 -0.8254587811282654 0.8429759184466761 -1.588280817071432 -1.5707362333880823 2.1413044929504395 0.0 0.0 0.0 -0.0 -0.0 -0.0 1 False False
8647.402 3.7121188640594482 -0.8254837554744263 0.8429845015155237 -1.5882889233031214 -1.5708048979388636 2.141329050064087 0.0 0.0 0.0 -0.0 -0.0 -0.0 1 False False
8647.452 3.7121024131774902 -0.8254780930331727 0.842992130910055 -1.5883251629271449 -1.570801083241598 2.141291618347168 0.0 0.0 0.0 -0.0 -0.0 -0.0 1 False False
8647.502 3.7120819091796875 -0.8254425090602417 0.8430097738849085 -1.5882817707457484 -1.570801083241598 2.141312837600708 0.0 0.0 0.0 -0.0 -0.0 -0.0 1 False False
8647.552 3.7120697498321533 -0.8254956167987366 0.8430054823504847 -1.5882731876769007 -1.5708087126361292 2.141340970993042 0.0 0.0 0.0 -0.0 -0.0 -0.0 1 False False
8647.601999999999 3.7121200561523438 -0.825508252983429 0.842971150075094 -1.5883013210692347 -1.570784870778219 2.1412546634674072 0.0 0.0 0.0 -0.0 -0.0 -0.0 1 False False
8647.652 3.7120981216430664 -0.8254382175258179 0.8430126349078577 -1.5883013210692347 -1.5707767645465296 2.141312837600708 0.0 0.0 0.0 -0.0 -0.0 -0.0 1 False False
8647.702 3.712083101272583 -0.8254382175258179 0.842971150075094 -1.5883289776244105 -1.5707605520831507 2.141275405883789 0.0 0.0 0.0 -0.0 -0.0 -0.0 1 False False
8647.752 3.712131977081299 -0.825491265659668 0.8429978529559534 -1.5882817707457484 -1.5707562605487269 2.141279697418213 0.0 0.0 0.0 -0.0 -0.0 -0.0 1 False False
8647.802 3.71207857131958 -0.8254869741252442 0.8430007139789026 -1.5882607899107875 -1.5707362333880823 2.1412997245788574 0.0 0.0 0.0 -0.0 -0.0 -0.0 1 False False
8647.851999999999 3.7120535373687744 -0.8254824441722413 0.8429802099810999 -1.588269372979635 -1.5707772413836878 2.141357183456421 0.0 0.0 0.0 -0.0 -0.0 -0.0 1 False False
8647.902 3.712062358856201 -0.8254588407329102 0.842987362538473 -1.5882488689818324 -1.5708373228656214 2.1413044929504395 0.0 0.0 0.0 -0.0 -0.0 -0.0 1 False False
8647.952 3.7120981216430664 -0.8254293960383912 0.8429754416095179 -1.5882412395873011 -1.5707972685443323 2.141308546066284 0.0 0.0 0.0 -0.0 -0.0 -0.0 1 False False
8648.002 3.712090492248535 -0.8254993718913575 0.8429845015155237 -1.588252683679098 -1.5707767645465296 2.1412720680236816 0.0 0.0 0.0 -0.0 -0.0 -0.0 1 False False
8648.052 3.7120819091796875 -0.8254588407329102 0.8429515997516077 -1.588269372979635 -1.5708087126361292 2.1412179470062256 0.0 0.0 0.0 -0.0 -0.0 -0.0 1 False False
8648.101999999999 3.7120580673217773 -0.8255200547030945 0.8430145422564905 -1.588285585443014 -1.570813004170553 2.1412384510040283 0.0 0.0 0.0 -0.0 -0.0 -0.0 1 False False
8648.152 3.7120449542999268 -0.825491265659668 0.8429754416095179 -1.588313718835348 -1.5708168188678187 2.1412882804870605 0.0 0.0 0.0 -0.0 -0.0 -0.0 1 False False
8648.202 3.71207857131958 -0.825463132267334 0.8429845015155237 -1.5882932148375453 -1.5707805792437952 2.1413419246673584 0.0 0.0 0.0 -0.0 -0.0 -0.0 1 False False
8648.252 3.7120580673217773 -0.8255275052836915 0.8429673353778284 -1.5882817707457484 -1.5708211104022425 2.1413002014160156 0.0 0.0 0.0 -0.0 -0.0 -0.0 1 False False
8648.302 3.7120862007141113 -0.8255041998675843 0.8429845015155237 -1.5882607899107875 -1.5708254019366663 2.1413116455078125 0.0 0.0 0.0 -0.0 -0.0 -0.0 1 False False
8648.351999999999 3.712062358856201 -0.8255317968181153 0.8429721037494105 -1.588297029534811 -1.570784870778219 2.1412503719329834 0.0 0.0 0.0 -0.0 -0.0 -0.0 1 False False
8648.402 3.712110996246338 -0.8254307073405762 0.8430174032794397 -1.5882731876769007 -1.5708048979388636 2.141287088394165 0.0 0.0 0.0 -0.0 -0.0 -0.0 1 False False
8648.452 3.712062358856201 -0.8255243462375184 0.8429630438434046 -1.5882817707457484 -1.5707805792437952 2.141247272491455 0.0 0.0 0.0 -0.0 -0.0 -0.0 1 False False
8648.502 3.71207857131958 -0.8255491417697449 0.8429964224444788 -1.5882889233031214 -1.5708211104022425 2.1413002014160156 0.0 0.0 0.0 -0.0 -0.0 -4.59215490340812e-14 1 False False
8648.552 3.7120580673217773 -0.8255166572383423 0.8430336157428187 -1.588252683679098 -1.5708254019366663 2.1412997245788574 0.0 0.0 0.0 -0.0 -0.0 -6.975489272271028e-33 1 False False
8648.601999999999 3.712090492248535 -0.8255155247500916 0.8430097738849085 -1.5882889233031214 -1.5708006064044397 2.141270875930786 0.0 0.0 0.0 -0.0 -0.0 -0.0 1 False False
8648.652 3.7121024131774902 -0.8255362075618287 0.8429754416095179 -1.588245531121725 -1.5707925001727503 2.141282796859741 0.0 0.0 0.0 -0.0 -0.0 -0.0 1 False False
8648.702 3.7121198177337646 -0.8254955571940918 0.8429439703570765 -1.5882607899107875 -1.5707481543170374 2.1412720680236816 0.0 0.0 0.0 -0.0 -0.0 -0.0 1 False False
8648.752 3.712094783782959 -0.8254631918719788 0.8429515997516077 -1.5882650814452113 -1.570801083241598 2.141263484954834 0.0 0.0 0.0 -0.0 -0.0 -0.0 1 False False
8648.802 3.7120819091796875 -0.8254825633815308 0.8429845015155237 -1.5883332691588343 -1.5707719961749476 2.1412134170532227 0.0 0.0 0.0 -0.0 -0.0 -0.0 1 False False
8648.851999999999 3.7120819091796875 -0.8255327504924317 0.8429892698871058 -1.5883251629271449 -1.570756737385885 2.1412839889526367 0.0 0.0 0.0 -0.0 -0.0 -0.0 1 False False
8648.902 3.7120819091796875 -0.8255080741694947 0.8429587523089808 -1.5883332691588343 -1.5707886854754847 2.1413002014160156 0.0 0.0 0.0 -0.0 -0.0 -0.0 1 False False
8648.952 3.7121024131774902 -0.825483576660492 0.8430126349078577 -1.5883456669249476 -1.570751969014303 2.14125919342041 0.0 0.0 0.0 -0.0 -0.0 -0.0 1 False False
8649.002 3.712062358856201 -0.8254500788501282 0.8429845015155237 -1.5882817707457484 -1.5707686583148401 2.141275405883789 0.0 0.0 0.0 -0.0 -0.0 -0.0 1 False False
8649.052 3.7120776176452637 -0.825458900337555 0.8429673353778284 -1.5883332691588343 -1.5707805792437952 2.1412546634674072 0.0 0.0 0.0 -0.0 -0.0 -0.0 1 False False
8649.101999999999 3.7120494842529297 -0.8255037826350708 0.8429763952838343 -1.5882412395873011 -1.5708211104022425 2.141295909881592 0.0 0.0 0.0 -0.0 -0.0 -0.0 1 False False
8649.152 3.712118625640869 -0.8254912060550232 0.8430026213275355 -1.588297029534811 -1.5707805792437952 2.1412882804870605 0.0 0.0 0.0 -0.0 -0.0 -0.0 1 False False
8649.202 3.7120981216430664 -0.82541777313266 0.8430007139789026 -1.588297029534811 -1.5707925001727503 2.1412341594696045 0.0 0.0 0.0 -0.0 -0.0 -0.0 1 False False
8649.252 3.7120330333709717 -0.8255208891681214 0.8430054823504847 -1.5882889233031214 -1.5708172957049769 2.1412997245788574 0.0 0.0 0.0 -0.0 -0.0 -0.0 1 False False
8649.302 3.7121026515960693 -0.8255608838847657 0.8429964224444788 -1.5882650814452113 -1.5707805792437952 2.141312837600708 0.0 0.0 0.0 -0.0 -0.0 -0.0 1 False False
8649.351999999999 3.712123394012451 -0.8255285185626526 0.8429892698871058 -1.588297029534811 -1.5707643667804163 2.141275405883789 0.0 0.0 0.0 -0.0 -0.0 -0.0 1 False False
8649.402 3.7120862007141113 -0.8254869741252442 0.8429673353778284 -1.5882288418211878 -1.5707805792437952 2.1412546634674072 0.0 0.0 0.0 -0.0 -0.0 -0.0 1 False False
8649.452 3.7120816707611084 -0.8254955571940918 0.8429964224444788 -1.5882817707457484 -1.5707891623126429 2.141251564025879 0.0 0.0 0.0 -0.0 -0.0 -0.0 1 False False
8649.502 3.712045669555664 -0.825457827453949 0.8430007139789026 -1.5882650814452113 -1.570801083241598 2.141312837600708 0.0 0.0 0.0 -0.0 -0.0 -0.0 1 True False
8649.552 3.7120368480682373 -0.8254750531962891 0.8429802099810999 -1.5883051357665003 -1.5708449522601526 2.141324758529663 0.0 0.0 0.0 -0.0 -0.0 -1.2472428423393467e-08 1 True False
8649.601999999999 3.7120981216430664 -0.825483576660492 0.8429802099810999 -1.5883251629271449 -1.5707648436175745 2.1412925720214844 0.0 0.0 0.0 -0.0 -0.0 -1.8945642493129453e-27 1 True False
8649.652 3.7120773792266846 -0.8254620593837281 0.8429721037494105 -1.5883056126036585 -1.5708168188678187 2.1413333415985107 0.0 0.0 0.0 -0.0 -0.0 -0.0 1 True False
8649.702 3.7120490074157715 -0.8254707616618653 0.8429845015155237 -1.5882817707457484 -1.5707529226886194 2.1412763595581055 0.0 0.0 0.0 -0.0 -0.0 -0.0 1 True False
8649.752 3.7121026515960693 -0.8254869741252442 0.8429845015155237 -1.5882774792113246 -1.5707805792437952 2.141279697418213 0.0 0.0 0.0 -0.0 -0.0 -0.0 1 True False
8649.802 3.712062358856201 -0.8254663509181519 0.8429964224444788 -1.588268896142477 -1.5707925001727503 2.141295909881592 0.0 0.0 0.0 -0.0 -0.0 -0.0 1 True False
8649.851999999999 3.7120490074157715 -0.825487033729889 0.8429387251483362 -1.588292738000387 -1.570784870778219 2.1413002014160156 0.0 0.0 0.0 -0.0 -0.0 -0.0 1 True False
8649.902 3.7120862007141113 -0.8254869741252442 0.8429763952838343 -1.5882731876769007 -1.5707686583148401 2.141312837600708 0.0 0.0 0.0 -0.0 -0.0 -0.0 1 True False
8649.952 3.7120742797851562 -0.825463132267334 0.8429802099810999 -1.588269372979635 -1.570829216633932 2.1413044929504395 0.0 0.0 0.0 -0.0 -0.0 -0.00014352865400724113 1 True False
8650.002 3.7120323181152344 -0.8254869741252442 0.8429763952838343 -1.5882889233031214 -1.570829216633932 2.141279697418213 0.0 0.0 0.0 -0.0 -0.0 6.954734999453649e-05 1 True False
8650.052 3.7120535373687744 -0.825458900337555 0.8429520765887659 -1.588273664514059 -1.5707772413836878 2.1412851810455322 0.0 0.0 0.0 -0.0 5.652480794537951e-08 -1.6011724932041282e-11 1 True False
8650.101999999999 3.7120532989501953 -0.8254750531962891 0.8430259863482874 -1.5883175335326136 -1.5707610289203089 2.141287088394165 0.0 0.0 0.0 -0.0 2.4377794921592866e-11 -2.432183575919149e-30 1 True False
8650.152 3.7124874591827393 -0.8256676358035584 0.843297306691305 -1.5883571110167445 -1.5708492437945765 2.1411166191101074 0.03479912877082825 -0.014528711326420307 0.02609388902783394 -0.007707858458161354 1.1373704305846569e-15 -0.017516721040010452 1 True False
8650.202 3.7158432006835938 -0.8272094887546082 0.8458665052997034 -1.589278360406393 -1.5708006064044397 2.139547348022461 0.10419156402349472 -0.05138121917843819 0.08168108016252518 -0.030529331415891647 -2.1031319860555925e-15 -0.04455194249749184 1 True False
8650.252 3.7231390476226807 -0.8309023541263123 0.8515542189227503 -1.5912209949889125 -1.570801083241598 2.1364333629608154 0.1768495738506317 -0.09175436198711395 0.1351165920495987 -0.04974861070513725 -3.1946628081600683e-34 -0.07802261412143707 1 True False
8650.302 3.7335667610168457 -0.8365274232677002 0.8595927397357386 -1.5940114460387171 -1.570829216633932 2.131718397140503 0.24399368464946747 -0.12682673335075378 0.19005563855171204 -0.059525053948163986 -0.0 -0.10646689683198929 1 True False
8650.351999999999 3.7477433681488037 -0.8436771792224427 0.8706110159503382 -1.5975719890990199 -1.5707967917071741 2.125542640686035 0.31192746758461 -0.15753652155399323 0.24734577536582947 -0.08915182948112488 9.138223686022684e-05 -0.13552607595920563 1 True False
8650.402 3.7650110721588135 -0.8526950639537354 0.8842113653766077 -1.6022254429259242 -1.5707686583148401 2.1179001331329346 0.3868136405944824 -0.19563895463943481 0.30073437094688416 -0.0998687818646431 5.379387948778458e-05 -0.1698428988456726 1 True False
8650.452 3.7861409187316895 -0.8634322446635743 0.9005144278155726 -1.6078998051085414 -1.570784870778219 2.108640432357788 0.4526917040348053 -0.23511259257793427 0.35066524147987366 -0.11306388676166534 0.0004680989950429648 -0.2034911960363388 1 True False
8650.502 3.8106229305267334 -0.8759938043406983 0.9195492903338831 -1.6142713032164515 -1.5707686583148401 2.0978658199310303 0.525750994682312 -0.2652791440486908 0.40901118516921997 -0.13900874555110931 -3.3590447856113315e-05 -0.22959066927433014 1 True False
8650.552 3.8384017944335938 -0.8903770011714478 0.9411295096026819 -1.6218191585936488 -1.5707967917071741 2.085556745529175 0.5891762375831604 -0.30425211787223816 0.4610060751438141 -0.1497347354888916 -0.0005543127772398293 -0.26178234815597534 1 True False
8650.601999999999 3.869969606399536 -0.9064320486835022 0.9655316511737269 -1.6299892864623011 -1.5707724730121058 2.07169771194458 0.6564534902572632 -0.33715397119522095 0.5144526958465576 -0.16751550137996674 -0.000146595441037789 -0.29146280884742737 1 True False
8650.652 3.9048874378204346 -0.9242019814303895 0.9927352110492151 -1.6391331158080042 -1.5708006064044397 2.056284189224243 0.7299611568450928 -0.3743652403354645 0.5692328810691833 -0.18688246607780457 -0.00010213322093477473 -0.3194359242916107 1 True False
8650.702 3.9432854652404785 -0.9440723222545166 1.0225580374347132 -1.6494022808470667 -1.5707772413836878 2.0393764972686768 0.8080681562423706 -0.41147205233573914 0.6220335960388184 -0.22113136947155 9.689773160551866e-16 -0.35917139053344727 1 True False
8650.752 3.9852054119110107 -0.9654377859881897 1.0552309195147913 -1.6603485546507777 -1.5707362333880823 2.0209171772003174 0.8771347403526306 -0.4401836693286896 0.6747147440910339 -0.2314578890800476 1.4718790653759295e-34 -0.3830602169036865 1 True False
8650.802 4.030600547790527 -0.9887997669032593 1.090290371571676 -1.672380109826559 -1.5707648436175745 2.0008251667022705 0.9370102286338806 -0.4822767972946167 0.7326925992965698 -0.24634091556072235 -0.00013893883442506194 -0.41536229848861694 1 True False
8650.851999999999 4.079500198364258 -1.0138552349856873 1.1283376852618616 -1.6853248081602992 -1.5707929770099085 1.979324221611023 1.014811396598816 -0.5224038362503052 0.7837428450584412 -0.2682643234729767 -5.371901352191344e-05 -0.4437195062637329 1 True False
8650.902 4.13155460357666 -1.040473298435547 1.1688154379474085 -1.699085374871725 -1.5707486311541956 1.9564857482910156 1.0526076555252075 -0.5410672426223755 0.812186598777771 -0.27280235290527344 -6.996654366986377e-10 -0.4622209370136261 1 True False
8650.952 4.183835983276367 -1.0673082631877442 1.2094381491290491 -1.712684770623678 -1.5707486311541956 1.9333187341690063 1.0446102619171143 -0.5324944853782654 0.8149498105049133 -0.27228212356567383 -1.0627935045603644e-28 -0.4503629803657532 1 True False
8651.002 4.236121654510498 -1.0941054385951539 1.25006610551943 -1.7266136608519496 -1.5707767645465296 1.9102647304534912 1.0503630638122559 -0.5311134457588196 0.816847562789917 -0.2802753448486328 -0.00015424929733853787 -0.46416330337524414 1 True False
8651.052 4.288539886474609 -1.1210852724364777 1.2907503286944788 -1.740552087823385 -1.5707686583148401 1.8872640132904053 1.0484966039657593 -0.5371221899986267 0.8117690682411194 -0.2768101394176483 -0.0002618934086058289 -0.4653950333595276 1 True False
8651.101999999999 4.340871810913086 -1.1478876036456604 1.3313477675067347 -1.7542644939818324 -1.570813004170553 1.8640594482421875 1.0432744026184082 -0.5378699898719788 0.813067615032196 -0.25704941153526306 1.6401987750214175e-06 -0.45674821734428406 1 True False
8651.152 4.393264293670654 -1.1746859413436432 1.3718493620501917 -1.7682110271849574 -1.5707724730121058 1.8409733772277832 1.0508989095687866 -0.5353883504867554 0.8112841844558716 -0.2825411856174469 -3.598680632421747e-05 -0.4531618654727936 1 True False
8651.202 4.444815635681152 -1.2011382740787049 1.4118650595294397 -1.781858583489889 -1.5707247892962855 1.8184329271316528 1.000290036201477 -0.5191148519515991 0.7738370895385742 -0.2669660747051239 -8.655875495533483e-12 -0.44337198138237 1 True False
8651.252 4.493101596832275 -1.2258415681174775 1.4496138731585901 -1.7944408855833949 -1.5707529226886194 1.797072410583496 0.9299468994140625 -0.4786038100719452 0.7188835740089417 -0.24935081601142883 -2.7644678213256668e-11 -0.4125269055366516 1 True False
8651.302 4.537628173828125 -1.248804197912552 1.4842456022845667 -1.8060537777342738 -1.5708282629596155 1.7773691415786743 0.8662939071655273 -0.44221946597099304 0.670758843421936 -0.22642415761947632 -1.0139253708641422e-16 -0.37255382537841797 1 True False
8651.351999999999 4.578842639923096 -1.2698880595019837 1.516097370778219 -1.8171292744078578 -1.5707967917071741 1.7593269348144531 0.7923501133918762 -0.4049068093299866 0.6121127605438232 -0.19187015295028687 0.000187564583029598 -0.3543431758880615 1 True False
8651.402 4.6166605949401855 -1.289365754728653 1.5454767386065882 -1.827076097527975 -1.570768181477682 1.7425700426101685 0.7171187400817871 -0.37440961599349976 0.5544528365135193 -0.1940193921327591 -8.464798156637698e-05 -0.3158775866031647 1 True False
8651.452 4.651005744934082 -1.3066395086101075 1.5721223990069788 -1.8361803493895472 -1.5707724730121058 1.7274980545043945 0.6476658582687378 -0.33691105246543884 0.4981228709220886 -0.17340637743473053 5.0464062951505184e-05 -0.2877501845359802 1 True False
8651.502 4.681723117828369 -1.3225404483130951 1.5957930723773401 -1.8443824253477992 -1.5707925001727503 1.7139506340026855 0.5795996189117432 -0.2962389588356018 0.4533274471759796 -0.150130033493042 4.089915472266226e-12 -0.25619783997535706 1 True False
8651.552 4.7088775634765625 -1.336409793501236 1.6170952955829065 -1.8513623676695765 -1.5708087126361292 1.7018691301345825 0.5094137191772461 -0.26501965522766113 0.3997570872306824 -0.13718391954898834 9.130764055953478e-07 -0.2279311716556549 1 True False
8651.601999999999 4.7327351570129395 -1.3488108080676575 1.6356166044818323 -1.8576518497862757 -1.5708335081683558 1.691424012184143 0.43546491861343384 -0.2187751978635788 0.3472183048725128 -0.1105361208319664 -0.00021946881315670907 -0.19681525230407715 1 True False
8651.652 4.753114700317383 -1.3592134428075333 1.6511872450457972 -1.8632570705809535 -1.5707648436175745 1.682456612586975 0.3692636787891388 -0.1949755996465683 0.2839837670326233 -0.0961679220199585 0.00045475069782696664 -0.16577987372875214 1 True False
8651.702 4.769918441772461 -1.3676330906203766 1.664600674306051 -1.8673674068846644 -1.5707605520831507 1.675036072731018 0.3045453131198883 -0.1561080366373062 0.23765790462493896 -0.08661389350891113 1.578380869018456e-21 -0.1353502720594406 1 True False
8651.752 4.783133506774902 -1.3745973867229004 1.6746681372271937 -1.871021410027975 -1.570813004170553 1.6691985130310059 0.2350231558084488 -0.11637404561042786 0.18064303696155548 -0.06258753687143326 0.00010990365990437567 -0.1039615124464035 1 True False
8651.802 4.792961120605469 -1.3796019119075318 1.6823657194720667 -1.8735248051085414 -1.5708168188678187 1.6648114919662476 0.16629959642887115 -0.08383969962596893 0.12334077060222626 -0.04208514839410782 2.424149715807289e-05 -0.07429344952106476 1 True False
8651.851999999999 4.799283027648926 -1.382857010965683 1.68727952638735 -1.8753425083556117 -1.5707767645465296 1.6621427536010742 0.09261159598827362 -0.048142120242118835 0.07204948365688324 -0.02240370772778988 1.4485852261714172e-05 -0.04138509929180145 1 True False
8651.902 4.802114963531494 -1.3842770469239731 1.6894763151751917 -1.8760096035399378 -1.5708254019366663 1.6608034372329712 0.023278051987290382 -0.013296766206622124 0.01619940996170044 -0.002472559455782175 1.0329319593438413e-05 -0.009973875246942043 1 True False
8651.952 4.802129745483398 -1.3840672385743638 1.6901467482196253 -1.8769470653929652 -1.5708325544940394 1.6608134508132935 -0.0001753664982970804 0.014868728816509247 0.03140988573431969 -0.037075839936733246 4.2278168440381663e-22 9.541969484416768e-05 1 True False
8652.002 4.802238941192627 -1.3826846343329926 1.6928961912738245 -1.881031175652975 -1.5708087126361292 1.6607602834701538 0.00018366969015914947 0.04294954612851143 0.0742950290441513 -0.11800046265125275 9.28100198507309e-05 -0.0005744904628954828 1 True False
8652.052 4.802278995513916 -1.3798436385444184 1.6976812521563929 -1.8886882267394007 -1.570813004170553 1.6607202291488647 0.0003125749062746763 0.07148576527833939 0.11415703594684601 -0.19358305633068085 7.868390093790367e-05 -0.00037273985799402 1 True False
8652.101999999999 4.802356243133545 -1.3756532830050965 1.7046154181109827 -1.8999201260008753 -1.5707843939410608 1.660740852355957 0.00014119359548203647 0.09283754229545593 0.15802410244941711 -0.2509703040122986 4.597311271936633e-05 -0.00018404294678475708 1 True False
8652.152 4.8023223876953125 -1.3702588391355057 1.7139504591571253 -1.9144741497435511 -1.570756737385885 1.6607451438903809 0.0002762841759249568 0.11831875890493393 0.20906955003738403 -0.31859543919563293 5.3743275202577934e-05 -9.9363831395749e-05 1 True False
8652.202 4.802342414855957 -1.3636087787202378 1.7253621260272425 -1.932535787621969 -1.5707925001727503 1.6607494354248047 0.00014146184548735619 0.14804920554161072 0.2519049644470215 -0.3946467936038971 6.648175622103736e-05 -6.805549492128193e-05 1 True False
8652.252 4.802320957183838 -1.3557196122458954 1.7391131559955042 -1.9541684589781703 -1.5708168188678187 1.6607656478881836 0.00011304531653877348 0.17010962963104248 0.28922852873802185 -0.4702272415161133 7.859559332246135e-07 -1.7304204427256368e-15 1 True False
8652.302 4.802334308624268 -1.3464317333749314 1.754935089741842 -1.9791752300658167 -1.5707967917071741 1.6607365608215332 0.0001176259684143588 0.1956302523612976 0.34505048394203186 -0.5323286652565002 1.1938686267158506e-25 -2.6285128159691397e-34 1 True False
8652.351999999999 4.802338600158691 -1.3362653714469452 1.7723773161517542 -2.0068513355650843 -1.5707486311541956 1.660715937614441 0.00023457655333913863 0.19274744391441345 0.3365578353404999 -0.5404199957847595 1.8216880036222622e-44 -0.0 1 True False
8652.402 4.8022942543029785 -1.3271705371192475 1.7882779280291956 -2.0318623981871546 -1.5708087126361292 1.6607494354248047 2.8206492061144672e-05 0.1715073585510254 0.2998485267162323 -0.46144843101501465 0.0 -0.0 1 True False
8652.452 4.80233097076416 -1.3192961674979706 1.801659886037008 -2.0533439121642054 -1.5707805792437952 1.660757064819336 4.4201726268511266e-05 0.1455434113740921 0.2515268623828888 -0.3928283452987671 0.0 -0.0 1 True False
8652.502 4.802334308624268 -1.3124753397754212 1.8132112661944788 -2.071385999719137 -1.570784870778219 1.6607365608215332 2.738806688284967e-05 0.11826293170452118 0.2093019336462021 -0.3335767388343811 0.0 -0.0 1 True False
8652.552 4.802346706390381 -1.3072441977313538 1.822529141102926 -2.0858379803099574 -1.570784870778219 1.660727858543396 1.984091431950219e-05 0.09383519738912582 0.16349735856056213 -0.2509157657623291 0.0 -0.0 1 True False
8652.601999999999 4.802333354949951 -1.3033051651767273 1.8293207327472132 -2.097077032128805 -1.5708335081683558 1.660740852355957 0.0 0.06922627240419388 0.11716075986623764 -0.19085782766342163 0.0 -0.0 1 True False
8652.652 4.8023834228515625 -1.300401822929718 1.8341329733477991 -2.1044637165465296 -1.5707925001727503 1.6607162952423096 0.0 0.043960440903902054 0.07497038692235947 -0.12236516922712326 0.0 -0.0 1 True False
8652.702 4.802368640899658 -1.298977867966034 1.8367417494403284 -2.1084376774229945 -1.5707925001727503 1.6607441902160645 0.0 0.018741115927696228 0.03415421396493912 -0.0471612811088562 0.0 -0.0 1 True False
8652.752 4.802268028259277 -1.2987722915462037 1.8371871153460901 -2.1092807255186976 -1.5707886854754847 1.660752773284912 0.0 -1.0400223434195444e-12 -6.109107175689132e-07 0.0003919306327588856 0.0 -0.0 1 True False
8652.802 4.802374839782715 -1.29878123224292 1.8371089140521448 -2.109260221520895 -1.570813004170553 1.6607251167297363 -2.1951625967631117e-05 0.00010441660560900345 -1.437537881115842e-36 8.454146154690534e-05 0.0 -0.0 1 True False
8652.851999999999 4.8023834228515625 -1.2986956399730225 1.8372200171100062 -2.109288831750387 -1.5707805792437952 1.6607539653778076 -4.20278500407132e-38 0.0003197689657099545 -0.0 -4.819000605493784e-05 0.0 -0.0 1 True False
8652.902 4.802318096160889 -1.2987499100020905 1.8372042814837855 -2.109208723107809 -1.5707925001727503 1.6607046127319336 0.0 0.00010342350287828594 -0.0 -4.442817225935869e-05 0.0 -0.0 1 True False
8652.952 4.802330017089844 -1.2986837190440674 1.8371904532061976 -2.1092406711974085 -1.5708087126361292 1.6607451438903809 0.0 0.0003811607020907104 6.326085713226348e-05 -5.560144626692412e-17 0.0 -2.212495840332536e-22 1 True False
8653.002 4.802391052246094 -1.2987046998790284 1.8371380011187952 -2.109232088128561 -1.570784870778219 1.6607613563537598 -1.3130067656541496e-32 0.00022085339878685772 1.505505269061569e-11 -9.920278140618244e-12 0.0 -3.360734106990209e-41 1 True False
8653.052 4.802371025085449 -1.2986956399730225 1.8371828238116663 -2.109293123284811 -1.570784870778219 1.6607613563537598 -2.338529156986624e-05 0.0001707441988401115 3.54262264765957e-41 -1.5068920691948084e-30 0.0 -0.0 1 True False
8653.101999999999 4.802379608154297 -1.2986928087523957 1.8371995131122034 -2.109300275842184 -1.5708168188678187 1.660703420639038 -1.417644671164453e-05 9.310828318120912e-05 0.0 -7.664183067390695e-05 0.0 -0.0 1 True False
8653.152 4.802289009094238 -1.2986719471267243 1.8372200171100062 -2.1093012295165003 -1.5708335081683558 1.6607451438903809 -2.0342364223324694e-05 8.251196413766593e-05 1.7701561082533297e-27 -7.802153589864247e-09 0.0 -0.0 1 True False
8653.202 4.802338600158691 -1.2987211805633088 1.8371952215777796 -2.109276433984274 -1.5707891623126429 1.6607646942138672 -1.7337885633612752e-16 1.687116942399152e-26 0.0 -6.146736268419772e-05 0.0 -0.0 1 True False
8653.252 4.802338600158691 -1.2987300914577027 1.8372200171100062 -2.10927214244985 -1.5707648436175745 1.6607657670974731 0.0 0.0 0.0 -5.6916370921866744e-11 0.0 -0.0 1 True False
8653.302 4.802334308624268 -1.2986972791007538 1.8372200171100062 -2.1092683277525843 -1.570784870778219 1.6606743335723877 0.0 3.0069385024457385e-14 0.0 -8.645613120128365e-30 0.0 -0.0 1 True False
8653.351999999999 4.802298545837402 -1.2986719769290467 1.8372367064105433 -2.1093012295165003 -1.5707967917071741 1.6607732772827148 1.0025635674537625e-05 0.0 0.0 -0.0 0.0 -0.0 1 True False
8653.402 4.802350997924805 -1.2987017196467896 1.8372038046466272 -2.1093045673766078 -1.5707805792437952 1.660768985748291 0.0 0.0 0.0 -0.0 0.0 -0.0 1 True False
8653.452 4.802350997924805 -1.2987381976893921 1.8372367064105433 -2.1092564068236292 -1.5707929770099085 1.6607484817504883 0.0 0.0 0.0 -2.5699710640561816e-19 0.0 -0.0 1 True False
8653.502 4.802334308624268 -1.298692838554718 1.8372276465045374 -2.109248777429098 -1.570756737385885 1.6607646942138672 0.0 0.0 0.0 -3.9037913520367983e-38 0.0 -0.0 1 True False
8653.552 4.802342891693115 -1.298692838554718 1.8372038046466272 -2.109293123284811 -1.5708373228656214 1.6607894897460938 0.0 0.0 0.0 -0.0 0.0 -0.0 1 True False
8653.601999999999 4.802313804626465 -1.2986853879741211 1.8372233549701136 -2.1093722782530726 -1.570784870778219 1.6608099937438965 0.0 0.0 0.0 -0.0 0.0 -0.0 1 True False
8653.652 4.802347183227539 -1.2987680000117798 1.8372395674334925 -2.109328409234518 -1.570756737385885 1.6607937812805176 0.0 0.0 8.92054766349976e-23 0.00033074640668928623 4.099242153318992e-16 1.2471024213311921e-11 1 True False
8653.702 4.8023552894592285 -1.2987256211093445 1.8371952215777796 -2.1093527279295863 -1.5707925001727503 1.6607441902160645 0.0 0.0 -4.2970441427314654e-05 -4.44899820380585e-14 6.226757158283188e-35 1.8943518403049382e-30 1 True False
8653.752 4.8023223876953125 -1.29868836820636 1.8371737639056605 -2.1093198261656703 -1.5708168188678187 1.660768985748291 0.0 0.0 -5.6577354930862734e-33 -6.758036041680352e-33 0.0 -3.091116377618164e-05 1 True False
8653.802 4.802375316619873 -1.2986898583224793 1.8372109572040003 -2.109300752679342 -1.570784870778219 1.6607894897460938 0.0 0.0 -0.0 -0.0 0.0 -2.1638443286065012e-05 1 False False
8653.851999999999 4.802297592163086 -1.2986615759185334 1.8371527830706995 -2.109316488305563 -1.5707843939410608 1.6607894897460938 0.0 0.0 -0.0 0.0001161139807663858 0.0 -5.634540816715609e-19 1 False False
8653.902 4.802293300628662 -1.2986764472774048 1.8372152487384241 -2.109300752679342 -1.5707805792437952 1.660752773284912 0.0 0.0 -0.0 0.0001427497627446428 0.0 -8.558882710008104e-38 1 False False
8653.952 4.802363872528076 -1.2986973089030762 1.8372324148761194 -2.1092921696104945 -1.570829216633932 1.6607766151428223 0.0 0.0 -0.0 0.00013934122398495674 0.0 -4.211837676848518e-06 1 False False
8654.002 4.802342414855957 -1.2986526054194947 1.8371246496783655 -2.109324117700094 -1.5707929770099085 1.660752773284912 0.0 0.0 -0.0 8.469715248793364e-05 0.0 -6.39779062427757e-25 1 False False
8654.052 4.802306175231934 -1.2987137597850342 1.8371952215777796 -2.109336038629049 -1.5708449522601526 1.6607775688171387 0.0 5.772350045868402e-12 -0.0 7.098002242855728e-05 0.0 -9.668959403841238e-44 1 False False
8654.101999999999 4.802330017089844 -1.2986436647227784 1.8371709028827112 -2.1092807255186976 -1.5707486311541956 1.6608024835586548 0.0 0.0 -0.0 3.6561295928549953e-06 0.0 -0.0 1 False False
8654.152 4.802366733551025 -1.298631803398468 1.8372109572040003 -2.109312196771139 -1.5707767645465296 1.6607494354248047 0.0 0.0 -0.0 5.553669026569695e-25 6.786218586856893e-14 -8.882739921216298e-13 1 False False
8654.202 4.802371025085449 -1.2987034779838105 1.8372152487384241 -2.1093160114684046 -1.570813004170553 1.660752773284912 0.0 0.0 -0.0 8.407790785948902e-44 1.0308283181817025e-32 -1.349290132646447e-31 1 False False
8654.252 4.802350997924805 -1.2986898583224793 1.8371952215777796 -2.109276433984274 -1.5708454290973108 1.6607078313827515 0.0 0.0 -0.0 0.0 0.0 4.548412740289413e-17 1 False False
8654.302 4.8023223876953125 -1.2987062197974701 1.837151352559225 -2.1092964611449183 -1.570801083241598 1.660683035850525 0.0 0.0 -0.0 8.15365180565188e-15 0.0 6.909046968087506e-36 1 False False
8654.351999999999 4.802396297454834 -1.2987017792514344 1.837219540272848 -2.109300275842184 -1.5708416144000452 1.660793662071228 0.0 0.0 -0.0 1.238542082164137e-33 0.0 0.0 1 False False
8654.402 4.802351474761963 -1.2986570757678528 1.8372367064105433 -2.1093083820738734 -1.570813004170553 1.6607779264450073 0.0 0.0 -0.0 0.0 0.0 0.0 1 False False
8654.452 4.802326679229736 -1.2987092298320313 1.8371737639056605 -2.1092969379820765 -1.570833985005514 1.6607613563537598 0.0 0.0 -0.0 0.0 0.0 0.0 1 False False
8654.502 4.802320957183838 -1.2987226408771058 1.8371709028827112 -2.109248777429098 -1.5707805792437952 1.6607294082641602 0.0 0.0 -0.0 0.0 2.8928029678354505e-06 0.0 1 False False
8654.552 4.802366733551025 -1.29868237793956 1.8371995131122034 -2.1093083820738734 -1.5707762877093714 1.660704493522644 0.0 0.0 -0.0 0.0 7.289190398296341e-05 -0.0014678488951176405 1 False False
8654.601999999999 4.8023552894592285 -1.2986973387053986 1.8371995131122034 -2.1092802486815394 -1.5707643667804163 1.6607853174209595 0.0 0.0 -0.0 0.0 -3.243572741667457e-14 0.0006893893587402999 1 False False
8654.652 4.8023295402526855 -1.2987017792514344 1.8371709028827112 -2.109272619287008 -1.5707805792437952 1.6607362031936646 0.0 0.0 -0.0 0.0 -4.9269934706594294e-33 -1.2554939132769505e-07 1 False False
8654.702 4.8024091720581055 -1.298668996696808 1.837219540272848 -2.1092969379820765 -1.5707605520831507 1.6607823371887207 0.0 0.0 -0.0 0.0 -0.0 -1.907098047316622e-26 1 False False
8654.752 4.802338600158691 -1.2987062197974701 1.8372166792498987 -2.109312196771139 -1.5707610289203089 1.6607153415679932 0.0 0.0 -0.0 0.0 -0.0 -2.802596928649634e-45 1 False False
8654.802 4.802334308624268 -1.2993348699859162 1.836153809224264 -2.1075016460814417 -1.570813004170553 1.6607779264450073 0.0 -0.024305615574121475 -0.04680488258600235 0.06432634592056274 -0.0 -0.0 1 False False
8654.851999999999 4.802343368530273 -1.301189736729004 1.832860294972555 -2.102213521996969 -1.5707805792437952 1.6607614755630493 0.0 -0.0546010285615921 -0.08808742463588715 0.14538832008838654 -0.0 -0.0 1 False False
8654.902 4.802326679229736 -1.304486261015274 1.827113453541891 -2.093316694299215 -1.5707762877093714 1.6607526540756226 0.0 -0.07835718989372253 -0.1358439326286316 0.2136279046535492 -0.0 -0.0 1 False False
8654.952 4.802313327789307 -1.3090956670096894 1.8192151228534144 -2.0810872517027796 -1.5707925001727503 1.6607288122177124 0.0 -0.10263743251562119 -0.17664174735546112 0.27467966079711914 -0.0 -0.0 1 False False
8655.002 4.802342891693115 -1.3148562175086518 1.8091962973224085 -2.065367361108297 -1.5707925001727503 1.660752534866333 0.0 -0.12554612755775452 -0.22055146098136902 0.3654240667819977 -0.0 -0.0 1 False False
8655.052 4.802298545837402 -1.3219100397876282 1.7971566359149378 -2.046053548852438 -1.570768181477682 1.6606998443603516 0.0 -0.1562633067369461 -0.2603277564048767 0.41682958602905273 -0.0 -0.0 1 False False
8655.101999999999 4.802305698394775 -1.3302897822907944 1.7826998869525355 -2.0233012638487757 -1.5708330313311976 1.6608033180236816 0.0 -0.18240496516227722 -0.3027985394001007 0.4904851019382477 -0.0 -0.0 1 False False
8655.152 4.802321910858154 -1.339974657898285 1.7662432829486292 -1.9970365963377894 -1.570740048085348 1.660768985748291 0.0 -0.2039099931716919 -0.3626023232936859 0.5619588494300842 -0.0 -0.0 1 False False
8655.202 4.80233097076416 -1.3500158798745652 1.7487743536578577 -1.96984924892568 -1.570784870778219 1.6607526540756226 0.0 -0.18455885350704193 -0.3209432065486908 0.5231250524520874 -0.0 -0.0 1 False False
8655.252 4.802298545837402 -1.3585933905890961 1.7340343634234827 -1.9459639988341273 -1.5708168188678187 1.660757064819336 0.0 -0.16633009910583496 -0.282560795545578 0.43789568543434143 -6.445547670148964e-18 -0.0 1 False False
8655.302 4.802325248718262 -1.3662113857320328 1.7209509054767054 -1.9255906544127406 -1.5707562605487269 1.6607451438903809 0.0 -0.13694313168525696 -0.23065699636936188 0.3746860921382904 -9.790799278509598e-37 -0.0 1 False False
8655.351999999999 4.802375793457031 -1.372394637470581 1.7105477491961878 -1.9088641605772914 -1.5707443396197718 1.660764455795288 0.0 -0.1106887087225914 -0.1903754323720932 0.30705389380455017 -0.0 -0.0 1 False False
8655.402 4.802338600158691 -1.3771762263825913 1.7020514647113245 -1.8954211674132289 -1.5707767645465296 1.6607407331466675 0.0 -0.08372727036476135 -0.15156234800815582 0.22507740557193756 -0.0 -0.0 1 False False
8655.452 4.8023552894592285 -1.3808730107596894 1.6956918875323694 -1.8855792484679164 -1.570801083241598 1.6607242822647095 0.0 -0.059585995972156525 -0.10599769651889801 0.1677614003419876 -0.0 -0.0 1 False False
8655.502 4.802313327789307 -1.3832432937673111 1.691693131123678 -1.8790532551207484 -1.570813004170553 1.6607987880706787 0.0 -0.03581039980053902 -0.059814926236867905 0.09535858780145645 -0.0 -0.0 1 False False
8655.552 4.802364349365234 -1.3843208116343995 1.6897557417498987 -1.8763195476927699 -1.5708368460284632 1.660757064819336 0.0 -0.008747772313654423 -0.015898380428552628 0.021468020975589752 -0.0 -0.0 1 False False
8655.601999999999 4.802276134490967 -1.3843221080354233 1.6896308104144495 -1.8762170277037562 -1.5707886854754847 1.6607117652893066 0.0 1.049050772833432e-31 1.496351892026469e-19 -0.00017390077118761837 -0.0 -0.0 1 False False
8655.652 4.802321910858154 -1.384279192691185 1.6896799246417444 -1.8761645756163539 -1.5707529226886194 1.6607942581176758 0.0 0.0 4.134463961236179e-05 0.0006232222658582032 -0.0 -0.0 1 False False
8655.702 4.802350997924805 -1.3843282771161576 1.6896150747882288 -1.8761173687376917 -1.5707686583148401 1.6607986688613892 0.0 -0.00015110752428881824 1.8209134382327963e-28 0.0017763572977855802 -0.0 -0.0 1 False False
8655.752 4.802334308624268 -1.3843699556640168 1.689671818410055 -1.8760935268797816 -1.570784870778219 1.6607614755630493 0.0 -0.0002786260738503188 0.0 0.0009944597259163857 -0.0 -0.0 1 False False
8655.802 4.802313327789307 -1.384312005048134 1.6896608511554163 -1.8760377369322718 -1.5708006064044397 1.660757064819336 0.0 -0.00014787734835408628 0.0 0.0001814690767787397 -0.0 -0.0 1 False False
8655.851999999999 4.802350997924805 -1.3843362492373963 1.6896303335772913 -1.876089712182516 -1.5707925001727503 1.6607733964920044 0.0 -0.00011099399125669152 0.0 0.00011504319991217926 -0.0 -0.0 1 False False
8655.902 4.802371501922607 -1.3843656194261094 1.6896966139422815 -1.8760296307005824 -1.570784870778219 1.6607073545455933 0.0 -0.0001430748525308445 0.0 7.898346666479483e-05 -0.0 -0.0 1 False False
8655.952 4.80229377746582 -1.3843687337687989 1.6896474997149866 -1.8760816059508265 -1.5707529226886194 1.6608061790466309 0.0 -0.00010357528663007542 0.0 8.494360856047792e-16 -0.0 -0.0 1 False False
8656.002 4.8023176193237305 -1.3843524617007752 1.6896560827838343 -1.8760415516295375 -1.5707767645465296 1.6607451438903809 0.0 -2.6712228645919822e-05 0.0 1.2902956086819884e-34 -0.0 -0.0 1 False False
8656.052 4.802371501922607 -1.3843556654504319 1.6896665732013147 -1.8760534725584925 -1.5707925001727503 1.6607645750045776 0.0 -1.5334209820139222e-05 0.0 4.52467535660972e-10 -0.0 -0.0 1 False False
8656.101999999999 4.8023176193237305 -1.3843065959266205 1.6896799246417444 -1.8761059246458949 -1.5707925001727503 1.660724401473999 0.0 -2.1507479686988518e-05 5.747698487413019e-26 6.872993970161814e-29 -0.0 -0.0 1 False False
8656.152 4.802346706390381 -1.3843849760345002 1.6897085348712366 -1.876089712182516 -1.5707648436175745 1.660736322402954 0.0 -1.2737803040712587e-41 0.0 0.0 -0.0 -0.0 1 False False
8656.202 4.802301406860352 -1.384355680351593 1.6896427313434046 -1.8760572872557582 -1.570784870778219 1.6607378721237183 0.0 0.0 0.0 0.0 -0.0 -0.0 1 False False
8656.252 4.802334308624268 -1.3844426286271592 1.6896966139422815 -1.8760973415770472 -1.570784870778219 1.6607288122177124 0.0 0.0 9.845217618931201e-07 0.0 -0.0 -0.0 1 False False
8656.302 4.802374839782715 -1.3843773615411301 1.6896474997149866 -1.8760258160033167 -1.5708168188678187 1.6607317924499512 0.0 0.0 2.3166833009420726e-36 0.0 -0.0 -0.0 1 False False
8656.351999999999 4.8023552894592285 -1.3843154323152085 1.6896384398089808 -1.876073499719137 -1.5707886854754847 1.6607705354690552 0.0 0.0 0.0 0.0 -0.0 -0.0 1 False False
8656.402 4.8023176193237305 -1.3843928289464493 1.6896589438067835 -1.8760653934874476 -1.5707724730121058 1.6607614755630493 0.0 0.0 0.0 0.0 -0.0 -0.0 1 False False
8656.452 4.802383899688721 -1.3843935591033478 1.6896722952472132 -1.876073499719137 -1.5707648436175745 1.6607526540756226 0.0 0.0 0.0 0.0 -0.0 -0.0 1 False False
8656.502 4.802321910858154 -1.3843644571355362 1.6896632353412073 -1.876089712182516 -1.570801083241598 1.6607705354690552 0.0 0.0 0.0 0.0 -0.0 -0.0 1 False False
8656.552 4.802285194396973 -1.3844057631543656 1.6896799246417444 -1.8760653934874476 -1.5707529226886194 1.6607072353363037 0.0 0.0 0.0 0.0 -0.0 -0.0 1 False False
8656.601999999999 4.802337646484375 -1.384336308842041 1.6896804014789026 -1.8760739765562953 -1.5707486311541956 1.6607495546340942 0.0 0.0 0.0 0.0 -0.0 -0.0 1 False False
8656.652 4.80233097076416 -1.3843363386443635 1.6897009054767054 -1.876113077203268 -1.5707805792437952 1.6607362031936646 0.0 0.0 0.0 0.0 -0.0 -0.0 1 False False
8656.702 4.802346706390381 -1.3843806397965928 1.6896541754352015 -1.8760572872557582 -1.5707767645465296 1.6607660055160522 0.0 0.0 0.0 0.0 -0.0 -0.0 1 False False
8656.752 4.8023295402526855 -1.3843687337687989 1.689629379902975 -1.876077791253561 -1.570813004170553 1.660757064819336 0.0 0.0 0.0 0.0 -0.0 -0.0 1 False False
8656.802 4.8023552894592285 -1.3843525362065812 1.6896632353412073 -1.8760415516295375 -1.570768181477682 1.6607853174209595 0.0 0.0 0.0 0.0 -0.0 -0.0 1 False False
8656.851999999999 4.802350997924805 -1.3843849313310166 1.6896799246417444 -1.8761092625060023 -1.570813004170553 1.6607542037963867 0.0 0.0 0.0 0.0 -0.0 -0.0 1 False False
8656.902 4.802301406860352 -1.3843558442643662 1.6896632353412073 -1.876033445397848 -1.5707648436175745 1.660773515701294 0.0 0.0 0.0 0.0 -0.0 -0.0 1 False False
8656.952 4.802338600158691 -1.3843406450799485 1.6896799246417444 -1.876021524468893 -1.570813004170553 1.6607481241226196 0.0 0.0 0.0 0.0 -0.0 -0.0 1 False False
8657.002 4.802350997924805 -1.3844218862107773 1.6896918455706995 -1.8760491810240687 -1.5708335081683558 1.6607614755630493 0.0 0.0 0.0 0.0 -0.0 -0.0 1 False False
8657.052 4.802301406860352 -1.384392799144127 1.6896541754352015 -1.8760377369322718 -1.570813004170553 1.660780906677246 0.0 0.0 0.0 0.0 -0.0 -0.0 1 False False
8657.101999999999 4.802338600158691 -1.3842993688634415 1.6896517912494105 -1.8760653934874476 -1.5707600752459925 1.6606954336166382 0.0 0.0 0.0 0.0 -0.0 -0.0 1 False False
8657.152 4.80233097076416 -1.384348289375641 1.6896918455706995 -1.876113077203268 -1.5707967917071741 1.6607117652893066 0.0 0.0 0.0 0.0 -0.0 -0.0 1 False False
8657.202 4.802301406860352 -1.384340600376465 1.6896260420428675 -1.8760410747923792 -1.5707805792437952 1.6607986688613892 0.0 0.0 0.0 0.0 -0.0 -0.0 1 False False
8657.252 4.802330017089844 -1.3843396616033097 1.6896713415728968 -1.876033445397848 -1.5707605520831507 1.6607451438903809 0.0 0.0 0.0 0.0 -0.0 -0.0 1 False False
8657.302 4.802350997924805 -1.3843482744744797 1.6896589438067835 -1.876073499719137 -1.5707529226886194 1.6607451438903809 0.0 0.0 0.0 0.0 -0.0 -0.0 1 False False
8657.351999999999 4.802358150482178 -1.3843111556819458 1.6897037664996546 -1.876077791253561 -1.5707643667804163 1.6607779264450073 0.0 0.0 0.0 0.0 -0.0 -0.0 1 False False
8657.402 4.8023176193237305 -1.3843610745719452 1.6896756331073206 -1.8761173687376917 -1.5707967917071741 1.6607869863510132 0.0 0.0 0.0 0.0 -0.0 -0.0 1 False False
8657.452 4.802371025085449 -1.3843971651843567 1.6896799246417444 -1.876061578790182 -1.5707805792437952 1.6607660055160522 0.0 0.0 0.0 0.0 -0.0 -0.0 1 False False
8657.502 4.802350997924805 -1.3843526107123871 1.6896384398089808 -1.8760892353453578 -1.5707805792437952 1.6607378721237183 0.0 0.0 0.0 0.0 -0.0 -0.0 1 False False
8657.552 4.802375793457031 -1.3843729955009003 1.6896832625018519 -1.876089712182516 -1.5708044211017054 1.6607362031936646 0.0 0.0 0.0 0.0 -0.0 -0.0 1 False False
8657.601999999999 4.8023223876953125 -1.3843449813178559 1.6896875540362757 -1.8760816059508265 -1.570801083241598 1.6607898473739624 0.0 0.0 1.9812930463868598e-16 0.0 -0.0 -0.0 1 False False
8657.652 4.802371025085449 -1.3843363535455246 1.6896169821368616 -1.8760696850218714 -1.5708211104022425 1.6608003377914429 0.0 0.0 0.0 0.0 -0.0 -0.0 1 True False
8657.702 4.802273273468018 -1.3843644720366974 1.6896632353412073 -1.8760653934874476 -1.570813004170553 1.6607288122177124 0.0 0.0 0.0 0.0 -0.0 -0.0 1 True False
8657.752 4.802183151245117 -1.3844697785428544 1.6897428671466272 -1.8761373958983363 -1.5707925001727503 1.6605936288833618 -0.013963522389531136 -0.007240218110382557 0.009928513318300247 -2.525411701981284e-08 -0.0 -0.014172147959470749 1 True False
8657.802 4.801180362701416 -1.3850897562554856 1.690401856099264 -1.8761292896666468 -1.5707405249225062 1.6595169305801392 -0.030358420684933662 -0.01818852312862873 0.01973176933825016 -0.004580260720103979 -0.0 -0.029669735580682755 1 True False
8657.851999999999 4.798765182495117 -1.3864620935967942 1.6920869986163538 -1.876460691491598 -1.570784870778219 1.6570039987564087 -0.07025645673274994 -0.03917063772678375 0.047635313123464584 -0.008499560877680779 -0.0 -0.06896977126598358 1 True False
8657.902 4.793819427490234 -1.3890789163163682 1.6952222029315394 -1.8769227466978968 -1.5707929770099085 1.6522810459136963 -0.12050864845514297 -0.06958425790071487 0.08214635401964188 -0.009852537885308266 -6.402863482468657e-12 -0.12279479950666428 1 True False
8657.952 4.785849571228027 -1.3935678017190476 1.7006023565875452 -1.877798696557516 -1.5707767645465296 1.64425528049469 -0.20038560032844543 -0.11307629197835922 0.13001807034015656 -0.018828116357326508 -9.725963146274193e-31 -0.19903407990932465 1 True False
8658.002 4.773509979248047 -1.4005063635161896 1.7085259596454065 -1.8789788685240687 -1.5707643667804163 1.6319687366485596 -0.2832772731781006 -0.15699543058872223 0.18591126799583435 -0.02597297541797161 -0.00011144857126055285 -0.2816183567047119 1 True False
8658.052 4.757631778717041 -1.4092722100070496 1.7190564314471644 -1.8805471859373988 -1.5707925001727503 1.616054654121399 -0.3475266993045807 -0.19462205469608307 0.23182442784309387 -0.040186867117881775 -0.00011616999836405739 -0.3485254645347595 1 True False
8658.101999999999 4.738184452056885 -1.4199171227267762 1.7320340315448206 -1.8825513325133265 -1.570829216633932 1.5966805219650269 -0.39670896530151367 -0.2224787026643753 0.26482775807380676 -0.035986535251140594 1.4789499829546565e-20 -0.4120834171772003 1 True False
8658.152 4.719855308532715 -1.4304307264140625 1.74388295808901 -1.8844310245909632 -1.5708325544940394 1.5781582593917847 -0.33750787377357483 -0.19165341556072235 0.22047390043735504 -0.0322151854634285 0.0004359837039373815 -0.3378947079181671 1 True False
8658.202 4.7047247886657715 -1.4387038213065644 1.7537568251239222 -1.885939737359518 -1.5707724730121058 1.5631117820739746 -0.26425835490226746 -0.14737673103809357 0.17460598051548004 -0.026610974222421646 0.00017172179650515318 -0.2697632610797882 1 True False
8658.252 4.693177223205566 -1.4451131236604233 1.7614930311786097 -1.8870607815184535 -1.570813004170553 1.5515514612197876 -0.19848693907260895 -0.10996109247207642 0.13091176748275757 -0.02392175793647766 -9.892274101730436e-05 -0.19960100948810577 1 True False
8658.302 4.684986114501953 -1.4495909822038193 1.7666481176959437 -1.8879953823485316 -1.570829216633932 1.543455719947815 -0.1297490894794464 -0.07136020809412003 0.0851268395781517 -0.011798729188740253 -2.178178147005383e-05 -0.13053569197654724 1 True False
8658.351999999999 4.680423259735107 -1.4521279719522973 1.7697308699237269 -1.888378759423727 -1.5707724730121058 1.5388965606689453 -0.05715131387114525 -0.033847689628601074 0.04105253145098686 -0.004756831098347902 -6.204022615209632e-20 -0.061985403299331665 1 True False
8658.402 4.67932653427124 -1.452759028678276 1.7704804579364222 -1.8885342083373011 -1.5707724730121058 1.5377275943756104 -0.004539478104561567 0.006121326703578234 0.010814803652465343 -0.02930379845201969 -9.4239283543694e-39 0.0011350855929777026 1 True False
8658.452 4.679396152496338 -1.4520278137973328 1.7720516363727015 -1.8909970722594203 -1.5707529226886194 1.5377528667449951 -0.0003452466626185924 0.026605641469359398 0.05045270547270775 -0.07370100170373917 -0.00011421363160479814 2.8764111318496655e-13 1 True False
8658.502 4.679366588592529 -1.4498073917678376 1.7758262793170374 -1.8970543346800746 -1.5707810560809534 1.5377498865127563 -0.0003803597646765411 0.05947067588567734 0.09682756662368774 -0.15267632901668549 -6.622083310503513e-05 -0.0004980589146725833 1 True False
8658.552 4.679358959197998 -1.4462304425290604 1.7816198507892054 -1.9063831768431605 -1.570784870778219 1.5377379655838013 -0.0004037250473629683 0.08522030711174011 0.13899646699428558 -0.2183588445186615 -6.84147235006094e-05 -0.0003586005768738687 1 True False
8658.601999999999 4.679367542266846 -1.4412330102971573 1.789952580128805 -1.9191647968687953 -1.5707929770099085 1.5377172231674194 -0.00025919260224327445 0.10606138408184052 0.18551774322986603 -0.2926013469696045 -7.77520181145519e-05 -0.00017352141730953008 1 True False
8658.652 4.679297924041748 -1.4351651978543778 1.7998817602740687 -1.9354821644225062 -1.5707686583148401 1.5376752614974976 -0.0002765191893558949 0.13489481806755066 0.22611784934997559 -0.35338976979255676 -9.730561635080202e-17 -0.00010828000085894018 1 True False
8658.702 4.679286956787109 -1.427715854053833 1.8122442404376429 -1.9554063282408656 -1.5707886854754847 1.5377379655838013 -0.00014149086200632155 0.16292673349380493 0.2701628804206848 -0.43531376123428345 -1.478075091507339e-35 -9.140712791122496e-06 1 True False
8658.752 4.6793437004089355 -1.4189536434463044 1.8270552794085901 -1.9786211452879847 -1.570801083241598 1.537733554840088 -8.532317588105798e-05 0.19203953444957733 0.3065272271633148 -0.49503710865974426 -1.5564169189019594e-06 -2.101609164473217e-11 1 True False
8658.802 4.679315090179443 -1.408892424111702 1.843522850667135 -2.0055161915221156 -1.5707648436175745 1.5377005338668823 -4.692824586527422e-05 0.2175760567188263 0.35981208086013794 -0.5550969243049622 -2.364200109210235e-25 -3.192348124968791e-30 1 True False
8658.851999999999 4.679274082183838 -1.3984483641437073 1.8609722296344202 -2.033140321771139 -1.5707562605487269 1.5377049446105957 1.790275796596725e-38 0.19348913431167603 0.3180907368659973 -0.5269338488578796 -3.6433760072445244e-44 -0.0 1 True False
8658.902 4.679297924041748 -1.389320732360222 1.8759081999408167 -2.057273050347799 -1.5707886854754847 1.5377589464187622 0.0 0.1727205067873001 0.28571388125419617 -0.4492858946323395 -0.0 -0.0 1 True False
8658.952 4.679306507110596 -1.3816267263940354 1.8888757864581507 -2.078033586541647 -1.5707925001727503 1.537733554840088 0.0 0.14357425272464752 0.234183207154274 -0.38285985589027405 -0.0 -0.0 1 True False
8659.002 4.6793107986450195 -1.3751855802587052 1.8993843237506312 -2.0953551731505335 -1.570829216633932 1.5377216339111328 0.0 0.11494763195514679 0.19690793752670288 -0.3052213788032532 -0.0 -0.0 1 True False
8659.052 4.679274082183838 -1.3699862670949479 1.9080751577960413 -2.108940740624899 -1.570813004170553 1.5377633571624756 0.0 0.08583316206932068 0.15148358047008514 -0.23745398223400116 -0.0 -0.0 1 True False
8659.101999999999 4.679278373718262 -1.3661549550345917 1.9147022406207483 -2.1192208729186 -1.5707886854754847 1.5377544164657593 0.0 0.06560781598091125 0.11014645546674728 -0.1681060940027237 -0.0 -0.0 1 True False
8659.152 4.679319381713867 -1.363658757214882 1.9187348524676722 -2.1260844669737757 -1.570801083241598 1.5377588272094727 0.0 0.03565613925457001 0.06049326807260513 -0.09983915090560913 -0.0 -0.0 1 True False
8659.202 4.6792826652526855 -1.3623933357051392 1.9208243528949183 -2.1290976009764613 -1.570784870778219 1.5377469062805176 0.0 0.0125047592446208 0.01966182328760624 -0.03235054016113281 -0.0 -0.0 1 True False
8659.252 4.679290771484375 -1.3623345357230683 1.9209440390216272 -2.1294566593565882 -1.5708335081683558 1.5377633571624756 0.0 -4.955560419798638e-26 -1.4422042210627807e-16 1.3963859601062723e-05 -0.0 -0.0 1 True False
8659.302 4.679315090179443 -1.3623557102731247 1.9209516684161585 -2.1294571361937464 -1.570824925099508 1.5376975536346436 0.0 0.0 -0.0 -0.00027248376864008605 -0.0 -0.0 1 True False
8659.351999999999 4.679295063018799 -1.3623479467681427 1.9209430853473108 -2.129432817498678 -1.570784870778219 1.5377752780914307 0.0 0.00029276261921040714 -0.0 -0.0005722602945752442 -0.0 -0.0 1 True False
8659.402 4.6793317794799805 -1.3622207653573533 1.920987908040182 -2.129500528375143 -1.570784870778219 1.5377005338668823 0.0 0.0002791666775010526 0.00012798019452020526 -0.0008945015724748373 -0.0 -0.0 1 True False
8659.452 4.6793036460876465 -1.362292544250824 1.921016041432516 -2.1295319996275843 -1.5707724730121058 1.537701964378357 0.0 0.00021478632697835565 0.00014988688053563237 -0.00035881332587450743 -0.0 -0.0 1 True False
8659.502 4.679327487945557 -1.362255410557129 1.9209750334369105 -2.1295324764647425 -1.570784870778219 1.5377216339111328 0.0 0.00014612279483117163 0.0001466560352127999 -0.00015526704373769462 -0.0 -0.0 1 True False
8659.552 4.679258346557617 -1.3622431618026276 1.921039883290426 -2.1295281849303187 -1.570857350026266 1.5377261638641357 3.816946627921425e-05 0.00012305712152738124 0.0001131359240389429 -0.00010924883099505678 -0.0 -0.0 1 True False
8659.601999999999 4.6792778968811035 -1.3622881782105942 1.9210365454303187 -2.1295162640013636 -1.5707643667804163 1.5377306938171387 2.6307178921977214e-15 7.840342004783452e-05 0.00011522526619955897 -5.1725419325521216e-05 -0.0 -0.0 1 True False
8659.652 4.679245948791504 -1.3622268301299592 1.921027962361471 -2.129496236840719 -1.570813004170553 1.5377094745635986 0.0 1.73920825657925e-11 0.00013517719344235957 -7.857104314238307e-24 -0.0 -0.0 1 True False
8659.702 4.6793107986450195 -1.3622791928103943 1.920983616505758 -2.129568716088766 -1.5707882086383265 1.5377171039581299 0.0 0.0 3.3335662010358647e-05 -1.1939062916047441e-42 -0.0 -0.0 1 True False
8659.752 4.679319381713867 -1.3622806680253525 1.921039883290426 -2.129540582696432 -1.5707805792437952 1.5377094745635986 0.0 0.0 1.730754775053356e-05 -0.0 -0.0 -0.0 1 True False
8659.802 4.679368495941162 -1.362231270675995 1.9210193792926233 -2.1296125851073207 -1.5707600752459925 1.5377172231674194 0.0 0.0 1.1688179256452713e-05 -0.0 -0.0 -0.0 1 True False
8659.851999999999 4.67926549911499 -1.3622431618026276 1.920983616505758 -2.129540582696432 -1.5707805792437952 1.5377049446105957 0.0 0.0 2.336384823347039e-19 -0.0 -0.0 -0.0 1 True False
8659.902 4.6793107986450195 -1.3622178149274369 1.9210322538958948 -2.1295610866942347 -1.5707319418536585 1.5376931428909302 0.0 0.0 0.0 -0.0 -0.0 -0.0 1 True False
8659.952 4.679344177246094 -1.362299920325615 1.920983616505758 -2.1295682392516078 -1.5707762877093714 1.5377633571624756 0.0 0.0 0.0 -0.0 -0.0 -0.0 1 True False
8660.002 4.679344177246094 -1.3622970295003434 1.9209712187396448 -2.1295443973936976 -1.5708091894732874 1.537718415260315 0.0 2.4947195356753917e-20 0.0 -0.0 -0.0 -0.0 1 True False
8660.052 4.679335117340088 -1.362208829527237 1.921016041432516 -2.129523893395895 -1.5707805792437952 1.537691593170166 0.0 0.0 0.0 -1.2127809607270779e-12 -0.0 -0.0 1 True False
8660.101999999999 4.679368019104004 -1.3623089653304596 1.9209869543658655 -2.129540582696432 -1.5707643667804163 1.537691593170166 0.0 0.0 0.0 -1.8422167615451214e-31 -0.0 -0.0 1 True False
8660.152 4.679348468780518 -1.3622252506068726 1.9210322538958948 -2.129523893395895 -1.5707886854754847 1.5377156734466553 0.0 0.0 -1.9861409131086312e-19 5.878458253505414e-08 -9.252436750227801e-24 4.174421659036698e-12 1 True False
8660.202 4.679286003112793 -1.362246425156929 1.9210203329669397 -2.1295606098570765 -1.5707891623126429 1.537733554840088 0.0 0.0 -0.0 2.2519854610436596e-05 -1.4055023597177915e-42 6.340956481301677e-31 1 True False
8660.252 4.679323196411133 -1.3622539055398484 1.9210236708270472 -2.129528661767477 -1.5707925001727503 1.537696123123169 0.0 0.0 -0.0 3.4207710698983454e-24 -0.0 0.0 1 True False
8660.302 4.679315090179443 -1.362213374381401 1.9210236708270472 -2.129568716088766 -1.5708535353290003 1.5377379655838013 0.0 0.0 -0.0 5.198817302645071e-43 -0.0 0.0 1 True False
8660.351999999999 4.679269313812256 -1.36224319160495 1.9210203329669397 -2.1296006641783656 -1.5708254019366663 1.5377156734466553 0.0 0.0 -0.0 0.0 -0.0 0.0 1 False False
8660.402 4.679301738739014 -1.3622762721828003 1.920999828969137 -2.12957300762319 -1.5708087126361292 1.5376677513122559 0.0 -1.2350765965507549e-09 -2.5840079615591094e-05 0.0 -0.0 -5.2359563795789654e-08 1 False False
8660.452 4.67927360534668 -1.3622763019851227 1.9210193792926233 -2.1296049557127894 -1.5708444754229944 1.5377830266952515 0.0 4.4858988968848393e-29 -6.351925348227618e-30 -4.2539541027508676e-05 -0.0 -7.95342969116237e-27 1 False False
8660.502 4.679295063018799 -1.3621682834676285 1.9210236708270472 -2.12957300762319 -1.5707767645465296 1.5377707481384277 0.0 0.0 -0.0 -1.949510260601528e-05 -0.0 -1.401298464324817e-45 1 False False
8660.552 4.67929744720459 -1.3622207802585145 1.9210365454303187 -2.1295319996275843 -1.5708048979388636 1.5377291440963745 0.0 0.0 -0.0 -1.2646208233491052e-05 -0.0 -0.0 1 False False
8660.601999999999 4.679286956787109 -1.3622718316367646 1.921011749898092 -2.129524370233053 -1.5707967917071741 1.5377424955368042 0.0 0.0 -0.0 -4.674532427806355e-10 -0.0 -0.0 1 False False
8660.652 4.679351329803467 -1.3622223299792786 1.9210322538958948 -2.1294924221434535 -1.570813004170553 1.5377005338668823 0.0 0.0 -0.0 -7.100626250673125e-29 -0.0 -0.0 1 False False
8660.702 4.679342746734619 -1.3622464102557679 1.9209626356707972 -2.129528661767477 -1.570784870778219 1.5377305746078491 0.0 0.0 -0.0 -0.0 -0.0 -0.0 1 False False
8660.752 4.679323196411133 -1.362237499361374 1.920999828969137 -2.1294967136778773 -1.570801083241598 1.5377514362335205 0.0 0.0 -5.3264091406804784e-14 -0.0 -0.0 -0.0 1 False False
8660.802 4.679344177246094 -1.362217740421631 1.9210355917560022 -2.1295200786986292 -1.5708330313311976 1.5377707481384277 0.0 0.0 -1.2471556332490872e-43 -0.0 -0.0 -0.0 1 False False
8660.851999999999 4.679301738739014 -1.3622464102557679 1.9210322538958948 -2.129523893395895 -1.5708492437945765 1.5376840829849243 0.0 0.0 -0.0 -0.0 -0.0 -0.0 1 False False
8660.902 4.679266452789307 -1.3622882229140778 1.9210203329669397 -2.1295043430724085 -1.5707691351519983 1.5377082824707031 0.0 0.0 -0.0 -0.0 -0.0 -0.0 1 False False
8660.952 4.679381370544434 -1.3622508955052872 1.9209912459002894 -2.129536291162008 -1.5707886854754847 1.5377678871154785 0.0 0.0 -0.0 -0.0 -0.0 -0.0 1 False False
8661.002 4.679392337799072 -1.362250880604126 1.9209793249713343 -2.1295319996275843 -1.5707891623126429 1.5377216339111328 0.0 0.0 -0.0 -0.0 -0.0 -0.0008131719077937305 1 False False
8661.052 4.679318904876709 -1.362250880604126 1.9210932890521448 -2.129540582696432 -1.5708368460284632 1.5376914739608765 0.0 -3.951661669395984e-43 -0.0 -0.0 -0.0 0.00022832305694464594 1 False False
8661.101999999999 4.67927360534668 -1.3622252208045502 1.9210236708270472 -2.129508157769674 -1.5708254019366663 1.53766930103302 0.0 1.8513479517423548e-05 -0.0 -0.0 -0.0 7.689328776905313e-05 1 False False
8661.152 4.679299354553223 -1.362229661350586 1.9209912459002894 -2.129508157769674 -1.5707805792437952 1.5377049446105957 0.0 3.5365849226852e-23 -0.0 -0.0 -0.0 2.1078467831982467e-15 1 False False
8661.202 4.67927360534668 -1.3622464102557679 1.920983616505758 -2.129556795159811 -1.5707805792437952 1.5377261638641357 0.0 0.0 -0.0 -0.0 -0.0 3.2018236809729876e-34 1 False False
8661.252 4.6793107986450195 -1.36240969718013 1.9206741491900843 -2.129005571404928 -1.5708697477923792 1.5377634763717651 0.0 -0.014506482519209385 -0.022954024374485016 0.031326450407505035 -0.0 0.0 1 False False
8661.302 4.679262161254883 -1.3637603980353852 1.9184144178973597 -2.1253634891905726 -1.5707686583148401 1.5377305746078491 0.0 -0.03977208212018013 -0.06658732146024704 0.10820279270410538 -0.0 0.0 1 False False
8661.351999999999 4.679281234741211 -1.3664412510446091 1.913802448903219 -2.118006845513815 -1.5707529226886194 1.5377216339111328 0.0 -0.0669393464922905 -0.11165686696767807 0.17433200776576996 -0.0 0.0 1 False False
8661.402 4.679264545440674 -1.3705775451711197 1.906943146382467 -2.107360979119772 -1.5708168188678187 1.537681221961975 0.0 -0.09522155672311783 -0.1549837589263916 0.25627005100250244 -0.0 0.0 1 False False
8661.452 4.679324150085449 -1.3759601277164002 1.8982446829425257 -2.0930687389769496 -1.5707562605487269 1.5377126932144165 0.0 -0.12345750629901886 -0.20306627452373505 0.3233785331249237 -0.0 0.0 1 False False
8661.502 4.6792826652526855 -1.382554368381836 1.8873723188983362 -2.0754128895201625 -1.570801083241598 1.5377216339111328 0.0 -0.14319080114364624 -0.23725396394729614 0.37568697333335876 -0.0 0.0 1 False False
8661.552 4.679323196411133 -1.3905415546945115 1.8738210836993616 -2.054196973840231 -1.570784870778219 1.5377049446105957 0.0 -0.17363597452640533 -0.28577709197998047 0.4508737623691559 -0.0 0.0 1 False False
8661.601999999999 4.679365158081055 -1.3998706501773377 1.8585923353778284 -2.0295382938780726 -1.570824925099508 1.5377261638641357 0.0 -0.19931018352508545 -0.3281569480895996 0.527897834777832 -0.0 7.336476171529916e-20 1 False False
8661.652 4.6793107986450195 -1.4103970390609284 1.841058079396383 -2.0017301044859828 -1.5707648436175745 1.5377514362335205 0.0 -0.20956340432167053 -0.3533056378364563 0.5669547915458679 -0.0 1.1144125915414473e-38 1 False False
8661.702 4.6794023513793945 -1.4200788748315354 1.8249214331256312 -1.9752518139281214 -1.5708006064044397 1.5377172231674194 0.0 -0.18383727967739105 -0.29773372411727905 0.5039945840835571 -0.0 0.0 1 False False
8661.752 4.6793036460876465 -1.4288226825049897 1.81030780473818 -1.9524766407408656 -1.570801083241598 1.5377049446105957 0.0 -0.1592836230993271 -0.2586406171321869 0.42654165625572205 -0.0 0.0 1 False False
8661.802 4.679295063018799 -1.4361057442477723 1.7983654181109827 -1.933052202264303 -1.5708211104022425 1.5377291440963745 0.0 -0.13288064301013947 -0.2267158031463623 0.35072797536849976 -0.0 0.0 1 False False
8661.851999999999 4.6793060302734375 -1.4420323085835953 1.7886236349688929 -1.9171258411803187 -1.5708168188678187 1.5376960039138794 0.0 -0.10708004236221313 -0.1737951934337616 0.27677276730537415 -0.0 0.0 1 False False
8661.902 4.679342746734619 -1.4467148420265694 1.7807419935809534 -1.904738565484518 -1.5707767645465296 1.5377172231674194 0.0 -0.07876598089933395 -0.13185107707977295 0.2158975452184677 -0.0 0.0 1 False False
8661.952 4.67929744720459 -1.4500627231648942 1.7752669493304651 -1.89593567470693 -1.570801083241598 1.5377172231674194 0.0 -0.05649688467383385 -0.09097877144813538 0.13749349117279053 -0.0 0.0 1 False False
8662.002 4.679327964782715 -1.4520323959044 1.771813694630758 -1.8904763660826625 -1.5708377997027796 1.5376588106155396 0.0 -0.028870964422822 -0.04750991240143776 0.07466638088226318 -0.0 0.0 1 False False
8662.052 4.6793060302734375 -1.4527877059629937 1.7706244627581995 -1.8885542354979457 -1.5707967917071741 1.5377752780914307 0.0 -0.00047794118290767074 0.0004704368475358933 0.006976960226893425 -0.0 0.0 1 False False
8662.101999999999 4.679339408874512 -1.4527548116496583 1.7705825010882776 -1.8885861835875453 -1.5707843939410608 1.5377426147460938 0.0 9.80908925027372e-45 3.130599846825181e-28 -0.00015700465883128345 -0.0 0.0 1 False False
8662.152 4.6793107986450195 -1.4527876910618325 1.7706287542926233 -1.888606687585348 -1.570801083241598 1.5377426147460938 0.0 -0.0008903209236450493 -0.0002382227685302496 -5.632434113067575e-05 -0.0 0.0 1 False False
8662.202 4.679344177246094 -1.4527579110911866 1.7706049124347132 -1.8885580501952113 -1.5708697477923792 1.5376958847045898 0.0 -0.000876686826813966 -0.0010252755600959063 3.775797813432291e-05 -0.0 0.0 1 False False
8662.252 4.679344177246094 -1.452744686310627 1.770588223134176 -1.8885380230345667 -1.5707925001727503 1.5377172231674194 0.0 -0.00022521516075357795 -0.0006952609401196241 0.0003682439273688942 -0.0 0.0 1 False False
8662.302 4.679347038269043 -1.452793927197792 1.7705429236041468 -1.8885418377318324 -1.5707886854754847 1.5376676321029663 0.0 -0.00020943210984114558 -0.0003789532056543976 0.00035120404209010303 -0.0 0.0 1 False False
8662.351999999999 4.67929744720459 -1.452782118027546 1.770564381276266 -1.8884254894652308 -1.5708087126361292 1.537733554840088 0.0 -0.00014176247350405902 -0.0001952354214154184 0.0001819614553824067 -0.0 0.0 1 False False
8662.402 4.679290294647217 -1.4528563258102913 1.7705190817462366 -1.888517519036764 -1.5707767645465296 1.5376721620559692 0.0 -6.137037416920066e-05 -9.885008330456913e-05 0.0001480290957260877 -0.0 0.0 1 False False
8662.452 4.6793107986450195 -1.452831284408905 1.7705147902118128 -1.888517519036764 -1.5708168188678187 1.5377544164657593 0.0 -4.53785432910081e-05 -6.98763906257227e-05 9.748595039127395e-05 -0.0 0.0 1 False False
8662.502 4.6793107986450195 -1.4527745184353371 1.7705562750445765 -1.8885423145689906 -1.5708211104022425 1.5377634763717651 0.0 -2.783525997074321e-05 -7.08394943349787e-19 7.83642681199126e-05 -0.0 0.0 1 False False
8662.552 4.679327487945557 -1.4527731922319909 1.770564381276266 -1.8885461292662562 -1.5708168188678187 1.537670612335205 0.0 -2.0074536223546602e-05 -0.0 4.074486556644301e-16 -0.0 0.0 1 False False
8662.601999999999 4.679323196411133 -1.452801377778389 1.7705777327166956 -1.8885218105711878 -1.5707891623126429 1.5376914739608765 0.0 0.0 -0.0 6.189152244522044e-35 -1.470515332765987e-13 0.0 1 False False
8662.652 4.679335117340088 -1.452795186345913 1.7705734411822718 -1.8885699711241664 -1.570829216633932 1.537713885307312 0.0 0.0 -0.0 6.937088814864879e-21 -2.233715066924408e-32 0.0 1 False False
8662.702 4.679339408874512 -1.4528101918152352 1.7705028692828577 -1.8885580501952113 -1.5708087126361292 1.5376886129379272 0.0 0.0 -0.0 1.0537456166060473e-39 -0.0 0.0 1 False False
8662.752 4.6793317794799805 -1.4527983677438279 1.7705562750445765 -1.888494154016012 -1.570813004170553 1.5377020835876465 0.0 0.0 -0.0 0.0 -0.0 0.0 1 False False
8662.802 4.6793646812438965 -1.4528444346836586 1.7706015745746058 -1.8885461292662562 -1.5707805792437952 1.5376975536346436 0.0 0.0 -0.0 0.0 -0.0 0.0 1 False False
8662.851999999999 4.6793437004089355 -1.4527403947762032 1.7705686728106897 -1.8885256252684535 -1.5707767645465296 1.5376930236816406 0.0 0.0 -0.0 0.0 -0.0 0.0 1 False False
8662.902 4.679290294647217 -1.4527820882252236 1.770536247883932 -1.8885342083373011 -1.5708254019366663 1.5377634763717651 0.0 0.0 -0.0 0.0 -0.0 0.0 1 False False
8662.952 4.679351329803467 -1.4528651025942345 1.7705147902118128 -1.888494154016012 -1.5707767645465296 1.5377172231674194 0.0 0.0 -0.0 0.0 -0.0 0.0 1 False False
8663.002 4.679274082183838 -1.4527702418020745 1.770564381276266 -1.8884860477843226 -1.5707886854754847 1.5377171039581299 0.0 0.0 -0.0 0.0 -0.0 0.0 1 False False
8663.052 4.679315090179443 -1.4528159213117142 1.7705729643451136 -1.888466020623678 -1.5708449522601526 1.5377410650253296 0.0 0.0 -0.0 0.0 -0.0 0.0 1 False False
8663.101999999999 4.679295063018799 -1.452786461716034 1.770560089741842 -1.8885499439635218 -1.570853058491842 1.5377470254898071 0.0 0.0 -0.0 0.0 -0.0 0.0 1 False False
8663.152 4.6793107986450195 -1.4528277155807992 1.7705476919757288 -1.888566633264059 -1.570784870778219 1.537733554840088 0.0 0.0 -0.0 0.0 -0.0 0.0 1 False False
8663.202 4.6792826652526855 -1.4528233346394082 1.7705772558795374 -1.8885542354979457 -1.5708254019366663 1.5376884937286377 0.0 0.0 -0.0 0.0 -0.0 0.0 1 False False
8663.252 4.6792826652526855 -1.4528146025589486 1.770564381276266 -1.888538499871725 -1.5707886854754847 1.5377094745635986 0.0 0.0 -0.0 0.0 -0.0 0.0 1 False False
8663.302 4.679347038269043 -1.4528102290681382 1.770560089741842 -1.8885022602477015 -1.5707805792437952 1.5377306938171387 0.0 0.0 -6.894296772201342e-15 0.0 -0.0 0.0 1 False False
8663.351999999999 4.679323196411133 -1.4528973189047356 1.7706058661090296 -1.8885342083373011 -1.5708168188678187 1.5377049446105957 0.0 0.0 -1.6815581571897805e-44 0.0 -0.0 0.0 1 False False
8663.402 4.679327487945557 -1.4528114211610337 1.770543400441305 -1.888562341729635 -1.570801083241598 1.5376840829849243 0.0 0.0 -0.0 0.0 -0.0 0.0 1 False False
8663.452 4.679330825805664 -1.4528026965311547 1.770543400441305 -1.8885137043394984 -1.5708168188678187 1.5377589464187622 0.0 0.0 -0.0 0.0 -0.0 0.0 1 False False
8663.502 4.679330825805664 -1.4527623218349 1.7705476919757288 -1.8885141811766566 -1.5707805792437952 1.537713885307312 0.0 0.0 -0.0 0.0 -0.0 0.0 1 False False
8663.552 4.679339408874512 -1.452851803307869 1.7705805937396448 -1.8885022602477015 -1.5707767645465296 1.5377498865127563 0.0 0.0 -0.0 0.0 -0.0 0.0 1 False False
8663.601999999999 4.679355621337891 -1.4528603863767167 1.7705233732806605 -1.8885585270323695 -1.5708168188678187 1.5377172231674194 0.0 0.0 -0.0 0.0 -0.0 0.0 1 False False
8663.652 4.679327487945557 -1.4527777817896386 1.770536247883932 -1.8885342083373011 -1.570813004170553 1.537757396697998 0.0 0.0 -0.0 0.0 -0.0 0.0 1 False False
8663.702 4.6792755126953125 -1.4527940166047593 1.770543400441305 -1.8885661564269007 -1.5707524458514612 1.537733554840088 0.0 0.0 -0.0 0.0 -0.0 0.0 1 True False
8663.752 4.6793437004089355 -1.4527572107366105 1.770564381276266 -1.888510366479391 -1.5707686583148401 1.5377498865127563 0.0 0.0 -0.0 0.0 -0.0 0.0 1 True False
8663.802 4.679083824157715 -1.4528791394880791 1.7706134955035608 -1.8885022602477015 -1.5707805792437952 1.5375540256500244 -0.016077565029263496 -0.004419547505676746 0.0020722909830510616 0.0 -0.0 -0.016306545585393906 1 True False
8663.851999999999 4.678013324737549 -1.4533738654902955 1.7710273901568812 -1.888562341729635 -1.5707653204547327 1.5363985300064087 -0.030981559306383133 -0.015208522789180279 0.0145102608948946 -0.00027456661337055266 -0.0 -0.03166655823588371 1 True False
8663.902 4.675422191619873 -1.4543823239258309 1.7721956411944788 -1.8886262379088343 -1.5707529226886194 1.5338213443756104 -0.06904156506061554 -0.02748020738363266 0.031814951449632645 -0.005547326523810625 -0.0 -0.07014642655849457 1 True False
8663.952 4.670500755310059 -1.4563573536327858 1.7743538061725062 -1.8889819584288539 -1.5707886854754847 1.5289956331253052 -0.12538975477218628 -0.04968841001391411 0.05670933052897453 -0.007522120140492916 -0.0 -0.12738899886608124 1 True False
8664.002 4.6624064445495605 -1.4595992428115387 1.7780731360064905 -1.889324804345602 -1.570801083241598 1.5207785367965698 -0.20521827042102814 -0.08317409455776215 0.08807051926851273 -0.00977018941193819 -0.0 -0.2052171528339386 1 True False
8664.052 4.649901390075684 -1.464673565035202 1.783750359212057 -1.8898593387999476 -1.5707686583148401 1.508423089981079 -0.28541821241378784 -0.11500228941440582 0.13242235779762268 -0.009564029984176159 -8.672257790359739e-13 -0.2857044041156769 1 True False
8664.101999999999 4.633878707885742 -1.4711422187140961 1.791098419819967 -1.8905898533263148 -1.5708168188678187 1.4923204183578491 -0.353027880191803 -0.14404654502868652 0.15845467150211334 -0.013943733647465706 -0.0001373219129163772 -0.34987184405326843 1 True False
8664.152 4.614260196685791 -1.478959859614708 1.7996681372271937 -1.8914076290526332 -1.5707724730121058 1.47272789478302 -0.42559343576431274 -0.17115481197834015 0.1879722625017166 -0.023257307708263397 -7.78900139266625e-05 -0.4285353124141693 1 True False
8664.202 4.595223903656006 -1.4867214572480698 1.8083680311786097 -1.8921743832030238 -1.5707967917071741 1.453476071357727 -0.3537710905075073 -0.14202599227428436 0.15968652069568634 -0.01357380673289299 0.0007721176370978355 -0.35396042466163635 1 True False
8664.252 4.579166412353516 -1.493289702837803 1.8153789679156702 -1.8930088482298792 -1.5708044211017054 1.437576174736023 -0.27949056029319763 -0.11628630012273788 0.12761200964450836 -0.012254598550498486 6.481593300122768e-05 -0.2834228575229645 1 True False
8664.302 4.566960334777832 -1.498154231613018 1.8210180441485804 -1.8935352764525355 -1.5707648436175745 1.4253346920013428 -0.21355579793453217 -0.08750375360250473 0.08968917280435562 -0.010675275698304176 0.00016604759730398655 -0.21457256376743317 1 True False
8664.351999999999 4.558032989501953 -1.5017643731883545 1.8249786535846155 -1.8938747845091761 -1.5708654562579554 1.416502594947815 -0.14456889033317566 -0.05558697506785393 0.06360281258821487 -0.005333588924258947 7.162824476836249e-05 -0.14431491494178772 1 True False
8664.402 4.5526862144470215 -1.5039604541710396 1.8271940390216272 -1.8941742382445277 -1.5708325544940394 1.4110851287841797 -0.07135975360870361 -0.029465215280652046 0.03286299481987953 -0.0041744704358279705 0.00011042245751013979 -0.07354913651943207 1 True False
8664.452 4.550889492034912 -1.5046395373395463 1.8280976454364222 -1.8941861591734828 -1.5707891623126429 1.409245252609253 -0.002328894566744566 -0.0003788429603446275 0.00011818624625448138 -0.0003346617741044611 7.678308611502871e-05 -0.004465776961296797 1 True False
8664.502 4.550892353057861 -1.5040618044188996 1.8291314283954065 -1.8960868320860804 -1.5708368460284632 1.4093096256256104 6.228677375474945e-05 0.022306062281131744 0.04283957555890083 -0.057506315410137177 0.00017434281471651047 -0.0002038939855992794 1 True False
8664.552 4.550871849060059 -1.502186619942524 1.8323448340045374 -1.9009891949095667 -1.570784870778219 1.4092872142791748 -0.0007676327368244529 0.054703034460544586 0.08699733763933182 -0.13250181078910828 6.432823283830658e-05 -0.0009744171984493732 1 True False
8664.601999999999 4.550848007202148 -1.498900295501091 1.8377178351031702 -1.9096390209593714 -1.57074481645693 1.4092541933059692 -0.0007749581709504128 0.08102267980575562 0.1325240582227707 -0.20353548228740692 -5.674458225257695e-05 -0.00028960747295059264 1 True False
8664.652 4.550837516784668 -1.4942441222122689 1.8450916449176233 -1.9217144451537074 -1.5707362333880823 1.4092541933059692 -0.000535189057700336 0.10525074601173401 0.17022331058979034 -0.269451379776001 -0.00013229085016064346 -0.000164924786076881 1 True False
8664.702 4.550824165344238 -1.488247537319996 1.8550995031939905 -1.9372936687865199 -1.5708087126361292 1.409205436706543 -0.00018989383534062654 0.13010181486606598 0.21264442801475525 -0.34271010756492615 -9.145841613644734e-05 -7.070352876326069e-05 1 True False
8664.752 4.550841808319092 -1.4811258179000397 1.8667205015765589 -1.9564758739867152 -1.5707967917071741 1.4092202186584473 -7.6240386988502e-05 0.15991109609603882 0.25929924845695496 -0.4071708619594574 -7.498204649891704e-05 -6.091586692491546e-05 1 True False
8664.802 4.550865650177002 -1.4724199038795014 1.8807600180255335 -1.9789992771544398 -1.5707891623126429 1.409217357635498 -5.355640678317286e-05 0.18079136312007904 0.29872292280197144 -0.4841051399707794 -5.369867836117017e-19 -1.8840049455031337e-22 1 True False
8664.851999999999 4.550870418548584 -1.4624838841012497 1.8968947569476526 -2.005068918267721 -1.5707529226886194 1.409263014793396 -9.99826454295757e-42 0.20661994814872742 0.3423411250114441 -0.5546951293945312 -8.156843454360686e-38 -2.861871853690574e-41 1 True False
8664.902 4.550790786743164 -1.4517262068441887 1.9146669546710413 -2.0334350071349085 -1.5707934538470667 1.4092336893081665 0.0 0.21056970953941345 0.3525288701057434 -0.546139657497406 -0.0 -0.0 1 True False
8664.952 4.550821304321289 -1.441998468046524 1.9303043524371546 -2.05936398128652 -1.5707843939410608 1.4092381000518799 0.0 0.1847461313009262 0.2959233522415161 -0.47952184081077576 -0.0 -0.0 1 True False
8665.002 4.550849437713623 -1.433520333175995 1.9441683928119105 -2.081491609612936 -1.5707648436175745 1.4092426300048828 0.0 0.14995083212852478 0.24858617782592773 -0.4132525622844696 -0.0 -0.0 1 True False
8665.052 4.550831317901611 -1.426383451824524 1.955813233052389 -2.1002408466734828 -1.5707805792437952 1.4092720746994019 0.0 0.13353483378887177 0.2142339050769806 -0.34411028027534485 -0.0 -0.0 1 True False
8665.101999999999 4.550825595855713 -1.420663208966591 1.9652283827411097 -2.115430017510885 -1.5708053747760218 1.4092305898666382 0.0 0.10458635538816452 0.16836848855018616 -0.2549780309200287 -0.0 -0.0 1 True False
8665.152 4.550824165344238 -1.4161804032376786 1.9724615255938929 -2.1271983585753382 -1.5707686583148401 1.4092128276824951 0.0 0.07869507372379303 0.1263197958469391 -0.193136066198349 -0.0 -0.0 1 True False
8665.202 4.550812244415283 -1.4129973363927384 1.9777568022357386 -2.135491033593649 -1.570784870778219 1.40924072265625 -1.401298464324817e-45 0.04751599207520485 0.07607629150152206 -0.12713178992271423 -0.0 -0.0 1 True False
8665.252 4.550795078277588 -1.4111696791699906 1.9806135336505335 -2.140221258203024 -1.5708172957049769 1.4092381000518799 0.0 0.021680573001503944 0.03712046146392822 -0.059036772698163986 -0.0 -0.0 1 True False
8665.302 4.550812244415283 -1.4107385736754914 1.98145038286318 -2.1413985691466273 -1.5708296934710901 1.4092752933502197 0.0 -0.0007752011879347265 -0.0011687732767313719 0.004741610959172249 -0.0 -0.0 1 True False
8665.351999999999 4.550874710083008 -1.4107385289720078 1.9813926855670374 -2.141414781610006 -1.5707610289203089 1.4091886281967163 0.0 -2.4802040059750987e-29 -5.61719089279167e-15 3.0872838172406427e-21 -0.0 -0.0 1 True False
8665.402 4.550828456878662 -1.4107429397157212 1.98145038286318 -2.141447206536764 -1.5707724730121058 1.409217357635498 0.0 0.0004268233315087855 0.00024061955627985299 -0.00036184879718348384 -0.0 -0.0 1 True False
8665.452 4.550828456878662 -1.4107508075288315 1.9813969771014612 -2.141514917413229 -1.5707967917071741 1.4092497825622559 0.0 0.00030307634733617306 0.00015604951477143914 -0.00042468018364161253 -0.0 -0.0 1 True False
8665.502 4.550828456878662 -1.4106898617795487 1.9814336935626429 -2.1415468655028285 -1.570784870778219 1.4092233180999756 0.0 0.00018068285135086626 0.00012079362932126969 -0.00042563219903968275 -0.0 -0.0 1 True False
8665.552 4.550824165344238 -1.4107515674880524 1.981417481099264 -2.1415306530394496 -1.570824925099508 1.409196376800537 0.0 0.00021757981448899955 9.137608140008524e-05 -0.00020570337073877454 -0.0 -0.0 1 True False
8665.601999999999 4.550856590270996 -1.4106941682151337 1.9814618269549769 -2.14152254680776 -1.570784870778219 1.409217357635498 0.0 0.0001897505426313728 0.00012742237595375627 -9.98984178295359e-05 -0.0 -0.0 1 True False
8665.652 4.550777435302734 -1.41070610404525 1.9814332167254847 -2.1415707073607386 -1.5708487669574183 1.4091886281967163 5.019978183140594e-11 0.00013480454799719155 0.00011936989903915673 -6.42416489426978e-05 -0.0 -0.0 1 True False
8665.702 4.550849437713623 -1.4106830966523667 1.9814417997943323 -2.141550680200094 -1.5708125273333948 1.4091930389404297 0.0 7.752066449029371e-05 9.817152749747038e-05 -1.3244028096437432e-08 -0.0 -0.0 1 True False
8665.752 4.550819396972656 -1.4107439380935212 1.9814375082599085 -2.141534467736715 -1.5707891623126429 1.4092708826065063 0.0 5.4185155022423714e-05 7.874405855545774e-05 -2.011770375345525e-27 -0.0 -0.0 1 True False
8665.802 4.550837516784668 -1.410628692512848 1.9814417997943323 -2.1415544948973597 -1.570801083241598 1.4092305898666382 0.0 3.2289419864204597e-40 4.552133844263608e-22 -0.0 -0.0 -0.0 1 True False
8665.851999999999 4.550840377807617 -1.4106819194606324 1.9814088980304163 -2.1415463886656703 -1.5708406607257288 1.4092916250228882 0.0 0.0 0.0 -0.0 -0.0 -0.0 1 True False
8665.902 4.550815105438232 -1.410727710728981 1.9814532438861292 -2.141554971734518 -1.5707810560809534 1.4092992544174194 0.0 0.0 0.0 -0.0 -0.0 -0.0 1 True False
8665.952 4.550795078277588 -1.410719097857811 1.9814818541156214 -2.141534467736715 -1.5708487669574183 1.4092649221420288 0.0 0.0 0.0 -0.0 -0.0 -0.0 1 True False
8666.002 4.550873279571533 -1.4106538754752656 1.9814699331866663 -2.1415187321104945 -1.570756737385885 1.4092586040496826 0.0 0.0 0.0 -0.0 -0.0 -0.0 1 True False
8666.052 4.550852298736572 -1.4106744837811966 1.9814818541156214 -2.1415707073607386 -1.5707767645465296 1.4092586040496826 2.8192779855689568e-39 8.140149091661787e-32 0.0 -0.0 -0.0 -0.0 1 True False
8666.101999999999 4.550840377807617 -1.4106417012265702 1.9814937750445765 -2.141550680200094 -1.570784870778219 1.4092336893081665 -2.0991394943647187e-39 0.0 0.0 -0.0 -0.0 -0.0 1 True False
8666.152 4.550905704498291 -1.410726637845375 1.9814613501178187 -2.141550680200094 -1.5707529226886194 1.40920090675354 0.0 0.0 6.081485287425462e-30 -1.2323300158101347e-09 -0.0 -0.0 1 True False
8666.202 4.550831317901611 -1.41069848955188 1.9814489523517054 -2.1416026554503382 -1.5707967917071741 1.4092426300048828 0.0 0.0 2.0215166541463637e-22 -0.00012362474808469415 -4.897185323926578e-09 -0.00013083983503747731 1 True False
8666.252 4.550828456878662 -1.4106819492629548 1.9814460913287562 -2.141578813592428 -1.5708125273333948 1.4092426300048828 0.0 0.0 -4.50624107224147e-22 -1.2928548477012664e-14 -7.438835558200187e-28 -4.6423188905464485e-05 1 True False
8666.302 4.550840377807617 -1.4107146722129364 1.981457535420553 -2.1415187321104945 -1.570829216633932 1.4092782735824585 0.0 0.0 -0.0 -1.963849739105832e-33 -0.0 -2.8223541448824108e-05 1 True False
8666.351999999999 4.550844669342041 -1.4106949430755158 1.9814656416522425 -2.1415020428099574 -1.5708091894732874 1.40924072265625 0.0 0.0 -0.0 -0.0 -0.0 -2.99150706268847e-05 1 False False
8666.402 4.55078649520874 -1.4107028555921097 1.9814866224872034 -2.1415463886656703 -1.5707929770099085 1.4092541933059692 0.0 0.0 -0.0 -0.0 -0.0 -6.108185961183572e-23 1 False False
8666.452 4.550812244415283 -1.4106941533139725 1.981495205556051 -2.141590734521383 -1.570824925099508 1.4092586040496826 0.0 0.0 -0.0 -0.0 -0.0 -2.9305537383007916e-16 1 False False
8666.502 4.550849437713623 -1.4106819343617936 1.981457535420553 -2.141538759271139 -1.5708335081683558 1.4092216491699219 0.0 0.0 -2.69355690773409e-30 -0.0 4.5725814344712987e-23 -6.92523317411542e-05 1 False False
8666.552 4.550808429718018 -1.41069848955188 1.9814818541156214 -2.1415587864317835 -1.5707805792437952 1.4092307090759277 0.0 0.0 -0.0 -0.0 6.946236487658118e-42 -4.237867324263789e-05 1 False False
8666.601999999999 4.550856590270996 -1.4106701177409668 1.9814775625811976 -2.141506334344381 -1.5707443396197718 1.4092217683792114 0.0 0.0 -2.545400093367789e-05 -0.0 0.0 -4.058069680468179e-05 1 False False
8666.652 4.550828456878662 -1.4106286329082032 1.9814375082599085 -2.141538759271139 -1.5707805792437952 1.4092381000518799 0.0 0.0 -1.790203575657845e-11 -0.0 0.0 -8.160223959297299e-23 1 False False
8666.702 4.550831317901611 -1.4107146573117753 1.9814489523517054 -2.141590734521383 -1.5707891623126429 1.4092426300048828 0.0 0.0 -4.212583443453265e-41 -0.0 0.0 -1.2395886215417332e-41 1 False False
8666.752 4.550819396972656 -1.410707176928856 1.9814789930926722 -2.1415707073607386 -1.5708168188678187 1.409217357635498 0.0 0.0 -2.0439616491785273e-05 -0.0 0.0 -0.0 1 False False
8666.802 4.550790786743164 -1.4106373947909852 1.9814251104937952 -2.1415745220580042 -1.570784870778219 1.4091874361038208 0.0 0.0 -6.368863069838503e-32 -0.0 0.0 -0.0 1 False False
8666.851999999999 4.550844669342041 -1.410686345105507 1.981429402028219 -2.1415544948973597 -1.5708091894732874 1.4092261791229248 0.0 0.0 -0.0 -0.0 0.0 -0.0 1 False False
8666.902 4.55088472366333 -1.4106744092753907 1.981457535420553 -2.141506334344381 -1.5708168188678187 1.4092586040496826 0.0 0.0 -0.0 -0.0 0.0 -0.0 1 False False
8666.952 4.550837516784668 -1.410707176928856 1.9814251104937952 -2.141606470147604 -1.5707648436175745 1.4092708826065063 0.0 0.0 -0.0 -0.0 0.0 -0.0 1 False False
8667.002 4.5508198738098145 -1.4106495690396805 1.9814532438861292 -2.141538759271139 -1.570824925099508 1.4092470407485962 0.0 0.0 -0.0 -0.0 0.0 -0.0 1 False False
8667.052 4.5508270263671875 -1.4106657367995759 1.9814861456500452 -2.1415544948973597 -1.5707891623126429 1.4092261791229248 0.0 -6.415491498046322e-06 -0.0 -0.0 0.0 -0.00039154529804363847 1 False False
8667.101999999999 4.550841808319092 -1.4107028853944321 1.9814742247210901 -2.141506334344381 -1.5708044211017054 1.4092381000518799 0.0 -3.60105732397642e-05 -0.0 -0.0 0.0 3.1695929976261642e-19 1 False False
8667.152 4.550816535949707 -1.4106451731971283 1.9814417997943323 -2.1415468655028285 -1.570801083241598 1.4092233180999756 0.0 0.0 -0.0 -6.299653705355013e-07 0.0 8.837544010020792e-05 1 False False
8667.202 4.550775051116943 -1.4107321065715333 1.9814251104937952 -2.1415468655028285 -1.5708048979388636 1.4092470407485962 0.0 0.0 -0.0 -9.569189080229229e-26 0.0 1.9431272304501897e-22 1 False False
8667.252 4.550824165344238 -1.41069848955188 1.9814417997943323 -2.141506334344381 -1.5707929770099085 1.4091886281967163 0.0 0.0 -0.0 -1.401298464324817e-44 0.0 2.951554955407362e-41 1 False False
8667.302 4.5508317947387695 -1.410893664961197 1.9811456839190882 -2.1408592663206996 -1.5707805792437952 1.4092142581939697 0.0 -0.015003452077507973 -0.024039676412940025 0.031681399792432785 0.0 0.0 1 False False
8667.351999999999 4.550844669342041 -1.4123367083123703 1.9787424246417444 -2.137045999566549 -1.5707967917071741 1.4092397689819336 0.0 -0.04191077500581741 -0.0693841427564621 0.11247225850820541 0.0 0.0 1 False False
8667.402 4.550844669342041 -1.4151086819222947 1.9740203062640589 -2.1296664677061976 -1.5707805792437952 1.4092098474502563 0.0 -0.06916946917772293 -0.11787818372249603 0.18573381006717682 0.0 1.574003601276855e-19 1 False False
8667.452 4.550844669342041 -1.4193377059749146 1.9673154989825647 -2.1186663113036097 -1.5707805792437952 1.4091964960098267 0.0 -0.0953054204583168 -0.1548391729593277 0.2508141100406647 0.0 4.185082798358053e-05 1 False False
8667.502 4.550852298736572 -1.4248272490552445 1.9583872000323694 -2.104340215722555 -1.570756737385885 1.4092305898666382 0.0 -0.12179431319236755 -0.202308788895607 0.3138941526412964 0.0 3.96987670683302e-05 1 False False
8667.552 4.550836086273193 -1.4315594148686905 1.9474824110614222 -2.0865236721434535 -1.5707686583148401 1.409245252609253 0.0 -0.14660699665546417 -0.23902539908885956 0.3958683907985687 0.0 4.242939155574277e-07 1 False False
8667.601999999999 4.550824165344238 -1.4397646647742768 1.9340923468219202 -2.0652982197203578 -1.570829216633932 1.409217357635498 0.0 -0.1736764758825302 -0.28153830766677856 0.4724906086921692 0.0 5.352971129468642e-05 1 False False
8667.652 4.550807952880859 -1.4491798442653199 1.9187310377704065 -2.040312429467672 -1.5708211104022425 1.4092752933502197 0.0 -0.2021302580833435 -0.3338931202888489 0.5222188234329224 0.0 3.833642736638195e-19 1 False False
8667.702 4.550877094268799 -1.4598781627467652 1.9010737578021448 -2.0121165714659632 -1.5708168188678187 1.4091722965240479 0.0 -0.21370412409305573 -0.34517043828964233 0.5648958086967468 0.0 5.823308765868355e-38 1 False False
8667.752 4.5508198738098145 -1.4700992491892357 1.8847792784320276 -1.9851986370482386 -1.570801083241598 1.4092541933059692 0.0 -0.18978989124298096 -0.3137921392917633 0.49192705750465393 0.0 0.0 1 False False
8667.802 4.550880432128906 -1.478998915558197 1.8700106779681605 -1.9617907009520472 -1.5707648436175745 1.4092336893081665 0.0 -0.1627015471458435 -0.2688731253147125 0.44657444953918457 0.0 0.0 1 False False
8667.851999999999 4.550872802734375 -1.4865646225265046 1.8576491514789026 -1.941897531548971 -1.5707767645465296 1.4092142581939697 0.0 -0.14202727377414703 -0.2291487455368042 0.3687281906604767 0.0 0.0 1 False False
8667.902 4.550820827484131 -1.4928193178823967 1.8474558035479944 -1.9253212414183558 -1.5708335081683558 1.4092216491699219 0.0 -0.11469116061925888 -0.18347123265266418 0.2906627058982849 0.0 0.0 1 False False
8667.952 4.550807952880859 -1.4977661234191437 1.8394306341754358 -1.9123932323851527 -1.570829216633932 1.4092917442321777 0.0 -0.08451090008020401 -0.1398429423570633 0.2248043268918991 0.0 0.0 1 False False
8668.002 4.550807952880859 -1.5013917174986382 1.8335235754596155 -1.9029017887511195 -1.5707648436175745 1.4092843532562256 0.0 -0.05811678245663643 -0.10072974115610123 0.14762254059314728 0.0 0.0 1 False False
8668.052 4.550869464874268 -1.5036382538131257 1.8298824469195765 -1.8968755207457484 -1.5708048979388636 1.4091886281967163 0.0 -0.03346557542681694 -0.058568090200424194 0.07999204099178314 0.0 0.0 1 False False
8668.101999999999 4.550848960876465 -1.5046470922282715 1.828242603932516 -1.8941813908019007 -1.5707605520831507 1.409266471862793 0.0 -0.0029907156713306904 -0.00796850211918354 0.02156025357544422 0.0 0.0 1 False False
8668.152 4.5508317947387695 -1.5046143543771286 1.8282507101642054 -1.8941461048521937 -1.5707724730121058 1.4092631340026855 0.0 -0.0003125538059975952 -0.0001235662493854761 -0.0027561751194298267 0.0 0.0 1 False False
8668.202 4.550872802734375 -1.5045605611852189 1.8281567732440394 -1.8942223987975062 -1.5707686583148401 1.4092381000518799 0.0 -0.0006648150156252086 -0.0002039129612967372 -0.0012647482799366117 0.0 0.0 1 False False
8668.252 4.550808429718018 -1.504667879348137 1.828210179005758 -1.894221921960348 -1.5707686583148401 1.4091796875 0.0 -0.000605287728831172 -0.0011679534800350666 -0.00123225140850991 0.0 0.0 1 False False
8668.302 4.550832748413086 -1.5046875414303322 1.8282025496112269 -1.8942176304259242 -1.5707605520831507 1.4092962741851807 0.0 -0.0009925684425979853 -0.0006238279747776687 -0.00026831013383343816 0.0 0.0 1 False False
8668.351999999999 4.550807952880859 -1.5046590131572266 1.8282025496112269 -1.8942858181395472 -1.5708449522601526 1.4092708826065063 0.0 -0.00023883958056103438 -0.00026389837148599327 -0.00011663791519822553 0.0 0.0 1 False False
8668.402 4.550832748413086 -1.5046128568104287 1.8281500975238245 -1.8942376575865687 -1.5708168188678187 1.4092128276824951 0.0 -0.00010461285273777321 -0.00016429035167675465 -8.836048073135316e-05 0.0 0.0 1 False False
8668.452 4.5508198738098145 -1.5047113683870812 1.828125301991598 -1.8942457638182582 -1.5707686583148401 1.4092575311660767 0.0 -9.39716337597929e-05 -0.00010679344995878637 -2.124367348699252e-09 0.0 0.0 1 False False
8668.502 4.550869464874268 -1.5047172766974946 1.8281500975238245 -1.894257207910055 -1.5707925001727503 1.409217357635498 0.0 -6.066464266041294e-05 -8.043061097851023e-05 -3.226917047791445e-28 0.0 0.0 1 False False
8668.552 4.550832748413086 -1.5046590578607102 1.8281500975238245 -1.894266267816061 -1.5707648436175745 1.4092336893081665 0.0 -4.829824494933929e-22 -9.939817573467735e-07 -0.0 0.0 0.0 1 False False
8668.601999999999 4.550840377807617 -1.5046756503036995 1.828186337147848 -1.8942624531187953 -1.5707524458514612 1.4091886281967163 0.0 0.0 -2.3389430055205863e-36 -0.0 0.0 0.0 1 False False
8668.652 4.550848960876465 -1.5046756950071831 1.8281338850604456 -1.8942414722838343 -1.5708048979388636 1.409266471862793 0.0 0.0 -0.0 -0.0 0.0 0.0 1 False False
8668.702 4.550840377807617 -1.5046711650541802 1.8281782309161585 -1.8942738972105921 -1.5708254019366663 1.409184217453003 0.0 0.0 -0.0 -0.0 0.0 0.0 1 False False
8668.752 4.550775051116943 -1.504629173581936 1.8281586805926722 -1.8942414722838343 -1.5707886854754847 1.4092708826065063 0.0 0.0 -0.0 -0.0 0.0 0.0 1 False False
8668.802 4.550844669342041 -1.504687526529171 1.8281825224505823 -1.8942614994444789 -1.5707805792437952 1.409233808517456 0.0 0.0 -0.0 -0.0 0.0 0.0 1 False False
8668.851999999999 4.550783634185791 -1.5046456170133133 1.8281663099872034 -1.8942581615843714 -1.5708368460284632 1.4092497825622559 0.0 0.0 -0.0 -0.0 0.0 0.0 1 False False
8668.902 4.550816535949707 -1.5047578004053612 1.8281295935260218 -1.8942581615843714 -1.5707767645465296 1.4092425107955933 0.0 0.0 -0.0 -0.0 0.0 0.0 1 False False
8668.952 4.550844669342041 -1.5046964895776291 1.8281620184527796 -1.8942581615843714 -1.57074481645693 1.4092708826065063 0.0 1.6635883255774109e-16 -0.0 -0.0 0.0 0.0 1 False False
8669.002 4.550840377807617 -1.5047741544297715 1.8281953970538538 -1.894318243066305 -1.570784870778219 1.4092381000518799 0.0 0.0 -0.0 -0.0 0.0 0.0 1 False False
8669.052 4.550819396972656 -1.504706935291626 1.8281872908221644 -1.8943096599974574 -1.5707767645465296 1.4092261791229248 0.0 0.0 -0.0 -0.0 0.0 0.0 1 False False
8669.101999999999 4.550807476043701 -1.5046994474581261 1.8281696478473108 -1.8942777119078578 -1.5707605520831507 1.4092098474502563 0.0 0.0 -0.0 -0.0 0.0 0.0 1 False False
8669.152 4.550824165344238 -1.5047279980829735 1.8282044569598597 -1.894266267816061 -1.5708044211017054 1.4092541933059692 0.0 0.0 -0.0 -0.0 0.0 0.0 1 False False
8669.202 4.550836086273193 -1.504741446380951 1.82814866701235 -1.894266267816061 -1.570772949849264 1.40926194190979 0.0 0.0 -0.0 -0.0 0.0 0.0 1 False False
8669.252 4.550865650177002 -1.5047084775618096 1.8281458059894007 -1.8942138157286585 -1.570801083241598 1.4092010259628296 0.0 0.0 -0.0 -0.0 0.0 0.0 1 False False
8669.302 4.550837516784668 -1.5046920713833352 1.8281663099872034 -1.894301553765768 -1.570813004170553 1.4092515707015991 0.0 0.0 -0.0 -0.0 0.0 0.0 1 False False
8669.351999999999 4.550849437713623 -1.504690558915474 1.8281334082232874 -1.8942457638182582 -1.5708492437945765 1.4092515707015991 0.0 0.0 -6.929180465690518e-35 -0.0 0.0 0.0 1 False False
8669.402 4.550840377807617 -1.5046711650541802 1.8281663099872034 -1.8942457638182582 -1.5707805792437952 1.4092541933059692 0.0 -9.159466571873054e-05 -0.0 -0.0 0.0 0.0 1 False False
8669.452 4.550816535949707 -1.5046307158521195 1.8281620184527796 -1.8942538700499476 -1.570756737385885 1.4091886281967163 0.0 0.0 -0.0 -0.0 0.0 0.0 1 False False
8669.502 4.550877571105957 -1.5046411168626328 1.8281577269183558 -1.8941971264281214 -1.5708211104022425 1.4092530012130737 0.0 0.0 -0.0 -0.0 0.0 0.0 1 False False
8669.552 4.550856590270996 -1.5047084775618096 1.8281410376178187 -1.8942777119078578 -1.570813004170553 1.4092586040496826 0.0 0.0 -0.0 -0.0 0.0 0.0 1 False False
8669.601999999999 4.550836086273193 -1.5046217081001778 1.8281410376178187 -1.8942414722838343 -1.5707929770099085 1.4092381000518799 0.0 0.0 -0.0 -0.0 0.0 0.0 1 False False
8669.652 4.550824165344238 -1.5047084626606484 1.8281248251544397 -1.8942252598204554 -1.570829216633932 1.409196376800537 0.0 0.0 -0.0 -0.0 0.0 0.0 1 False False
8669.702 4.550836086273193 -1.5047415134361763 1.8281291166888636 -1.894233842889303 -1.5707967917071741 1.4092425107955933 0.0 0.0 -0.0 -0.0 0.0 0.0 1 False False
8669.752 4.550810813903809 -1.5046875414303322 1.8281829992877405 -1.8942696056761683 -1.570784870778219 1.4092754125595093 0.0 0.0 -0.0 -0.0 0.0 0.0 1 False False
8669.802 4.550914764404297 -1.504699469809868 1.8281458059894007 -1.8942414722838343 -1.5707810560809534 1.4092381000518799 0.0 0.0 -0.0 -0.0 0.0 0.0 1 True False
8669.851999999999 4.550803184509277 -1.504699469809868 1.8281953970538538 -1.8942696056761683 -1.570813004170553 1.4092097282409668 -0.00317942863330245 0.0 -0.0 -0.0 0.0 -0.0020227483473718166 1 True False
8669.902 4.550138473510742 -1.5047773581794281 1.8282340208636683 -1.8943220577635707 -1.570813004170553 1.408574104309082 -0.021413296461105347 -0.006337013561278582 0.007841740734875202 -0.0 0.0 -0.019671613350510597 1 True False
8669.952 4.5484137535095215 -1.5053065580180665 1.8287213484393519 -1.8942891559996546 -1.5708373228656214 1.4068925380706787 -0.053084976971149445 -0.012969688512384892 0.012256371788680553 -2.553593247967001e-08 0.0 -0.04891828075051308 1 True False
8670.002 4.544706344604492 -1.5061654162457963 1.8297088781939905 -1.894386430779928 -1.5708087126361292 1.4032398462295532 -0.09738858044147491 -0.02305223047733307 0.02630961686372757 -0.0030921241268515587 0.0 -0.09368086606264114 1 True False
8670.052 4.538262367248535 -1.5078256663731118 1.8314178625689905 -1.8944736919798792 -1.5707967917071741 1.39670991897583 -0.164181187748909 -0.0406092144548893 0.0440395288169384 -0.002062596380710602 0.0 -0.1625748872756958 1 True False
8670.101999999999 4.527890205383301 -1.5104086746326466 1.834142033253805 -1.8946010075011195 -1.5708091894732874 1.3863366842269897 -0.2556878626346588 -0.06185345724225044 0.06966163963079453 -0.005283037666231394 0.0 -0.25219589471817017 1 True False
8670.152 4.51350736618042 -1.5140161787024518 1.838114086781637 -1.8947998485960902 -1.570772949849264 1.3719606399536133 -0.31590375304222107 -0.0809689611196518 0.08768294006586075 -0.005662079900503159 -0.0002044664288405329 -0.31985628604888916 1 True False
8670.202 4.495752811431885 -1.5185878624073048 1.8427322546588343 -1.8951355419554652 -1.5708168188678187 1.3540925979614258 -0.39401382207870483 -0.10110420733690262 0.10441876202821732 -0.006341084372252226 -8.407796121900901e-05 -0.3917183578014374 1 True False
8670.252 4.475131988525391 -1.5236269582859059 1.8482802549945276 -1.8953997097411097 -1.5708568731891077 1.3335654735565186 -0.38405102491378784 -0.09764229506254196 0.10314343124628067 -0.004230340011417866 0.0006229049758985639 -0.39024806022644043 1 True False
8670.302 4.457364559173584 -1.5281710040620347 1.853082005177633 -1.8956505260863246 -1.5708168188678187 1.3158687353134155 -0.3231660723686218 -0.07687553763389587 0.08420316129922867 -0.004792218096554279 0.00011415786866564304 -0.32744017243385315 1 True False
8670.351999999999 4.443211555480957 -1.5317835559001942 1.8567999045001429 -1.8959347210326136 -1.5707967917071741 1.3015748262405396 -0.25325602293014526 -0.06265166401863098 0.06420588493347168 -0.004338182043284178 5.717113822356623e-07 -0.2556185722351074 1 True False
8670.402 4.432383060455322 -1.5343923357180138 1.8597000280963343 -1.8959938488402308 -1.5707925001727503 1.2907716035842896 -0.1865307092666626 -0.045152463018894196 0.04809026047587395 -0.002972039859741926 0.00013959981151856482 -0.1844760775566101 1 True False
8670.452 4.42503547668457 -1.5362936493805428 1.8615291754352015 -1.8961545429625453 -1.5707557837115687 1.2835360765457153 -0.11122667044401169 -0.02794661372900009 0.030580729246139526 -0.0009962549665942788 7.087447011144832e-05 -0.11263279616832733 1 True False
