Andreas691667/Digital_Twin_UR/src/controller_monitor/robot_output/case1_2miss_robot_output.csv
timestamp actual_q_0 actual_q_1 actual_q_2 actual_q_3 actual_q_4 actual_q_5 actual_qd_0 actual_qd_1 actual_qd_2 actual_qd_3 actual_qd_4 actual_qd_5 safety_status output_bit_register_65 output_bit_register_66
3093.1009999999997 3.7120442390441895 -0.8254719537547608 0.8429892698871058 -1.5882331333556117 -1.5707967917071741 2.1413002014160156 1.4135442050651715e-22 0.0 0.0 -0.0 0.0 0.0 1 False False
3093.151 3.7120442390441895 -0.8254543107799073 0.8429349104510706 -1.5882488689818324 -1.5707886854754847 2.141295909881592 0.0 0.0 0.0 -0.0 0.0 0.0 1 False False
3093.201 3.712080240249634 -0.8254333895495911 0.8429887930499476 -1.5882374248900355 -1.570772949849264 2.141279697418213 0.0 0.0 0.0 -0.0 0.0 0.0 1 False False
3093.2509999999997 3.712095260620117 -0.825466052894928 0.8429892698871058 -1.5882569752135218 -1.5707929770099085 2.1413214206695557 0.0 0.0 0.0 -0.0 0.0 0.0 1 False False
3093.301 3.712066888809204 -0.8254993718913575 0.8429473082171839 -1.5882374248900355 -1.5708048979388636 2.1413002014160156 0.0 0.0 0.0 -0.0 0.0 0.0 1 False False
3093.3509999999997 3.7121026515960693 -0.8254869741252442 0.8430054823504847 -1.5882412395873011 -1.5707967917071741 2.1412839889526367 0.0 0.0 0.0 -0.0 0.0 0.0 1 False False
3093.401 3.712041139602661 -0.8254779738238831 0.8429802099810999 -1.588297029534811 -1.5707886854754847 2.141263484954834 0.0 0.0 0.0 -0.0 0.0 0.0 1 False False
3093.451 3.7120654582977295 -0.8254587215236207 0.8429473082171839 -1.5882650814452113 -1.570864502583639 2.1412839889526367 0.0 0.0 0.0 -0.0 0.0 0.0 1 False False
3093.5009999999997 3.7120742797851562 -0.8254869741252442 0.8430293242083948 -1.588268896142477 -1.5707452932940882 2.141263484954834 0.0 0.0 0.0 -0.0 0.0 0.0 1 False False
3093.551 3.7120742797851562 -0.8254706424525757 0.8429802099810999 -1.5882889233031214 -1.5708087126361292 2.141317129135132 0.0 0.0 0.0 -0.0 0.0 0.0 1 False False
3093.6009999999997 3.7120654582977295 -0.8254334491542359 0.8429349104510706 -1.5883056126036585 -1.5708368460284632 2.141287088394165 0.0 0.0 0.0 -0.0 0.0 0.0 1 False False
3093.651 3.712095022201538 -0.8254794639400025 0.8429587523089808 -1.5882817707457484 -1.5708087126361292 2.141312837600708 0.0 0.0 0.0 -0.0 0.0 0.0 1 False False
3093.701 3.712066888809204 -0.8254956764033814 0.8430336157428187 -1.5883094273009242 -1.570801083241598 2.1413300037384033 0.0 0.0 0.0 -0.0 0.0 0.0 1 False False
3093.7509999999997 3.712062358856201 -0.8254706424525757 0.8430264631854456 -1.5882817707457484 -1.5708091894732874 2.141231060028076 0.0 0.0 0.0 -0.0 0.0 0.0 1 False False
3093.801 3.712066888809204 -0.8254913848689576 0.8429802099810999 -1.5883251629271449 -1.5707891623126429 2.1412839889526367 0.0 0.0 0.0 -0.0 0.0 0.0 1 False False
3093.8509999999997 3.71205472946167 -0.8254750531962891 0.8430054823504847 -1.5882288418211878 -1.5707925001727503 2.141324758529663 0.0 0.0 0.0 -0.0 0.0 0.0 1 False False
3093.901 3.7120907306671143 -0.825454370384552 0.8430336157428187 -1.588297029534811 -1.5707443396197718 2.141263484954834 0.0 0.0 0.0 -0.0 0.0 0.0 1 False False
3093.951 3.7120535373687744 -0.8254349392703553 0.8430145422564905 -1.5882774792113246 -1.5708091894732874 2.141334295272827 0.0 0.0 0.0 -0.0 0.0 0.0 1 False False
3094.0009999999997 3.7120862007141113 -0.8255083721927186 0.8430007139789026 -1.588297506371969 -1.570801083241598 2.1412601470947266 0.0 0.0 0.0 -0.0 0.0 0.0 1 False False
3094.051 3.7120742797851562 -0.8254794639400025 0.8429563681231897 -1.5882569752135218 -1.570772949849264 2.1412763595581055 0.0 0.0 0.0 -0.0 0.0 0.0 1 False False
3094.1009999999997 3.712050199508667 -0.8254750531962891 0.8429754416095179 -1.588273664514059 -1.5707724730121058 2.141312837600708 0.0 0.0 0.0 -0.0 0.0 0.0 1 False False
3094.151 3.7120862007141113 -0.8254779738238831 0.8430097738849085 -1.588273664514059 -1.5708091894732874 2.141291618347168 0.0 0.0 0.0 -0.0 0.0 0.0 1 False False
3094.201 3.712066888809204 -0.8254957360080262 0.8429845015155237 -1.5883213482298792 -1.5707562605487269 2.141275405883789 0.0 0.0 0.0 -0.0 0.0 0.0 1 False False
3094.2509999999997 3.712066888809204 -0.8254333895495911 0.8429721037494105 -1.588297506371969 -1.5707891623126429 2.14125919342041 0.0 0.0 0.0 -0.0 0.0 0.0 1 False False
3094.301 3.712062358856201 -0.8255215448192139 0.8430174032794397 -1.5882607899107875 -1.570824925099508 2.1412720680236816 0.0 0.0 0.0 -0.0 0.0 0.0 1 False False
3094.3509999999997 3.7120580673217773 -0.8254823845675965 0.8429845015155237 -1.5882817707457484 -1.5707481543170374 2.1412222385406494 0.0 0.0 0.0 -0.0 0.0 0.0 1 False False
3094.401 3.7120535373687744 -0.8254587811282654 0.8429754416095179 -1.588292738000387 -1.5707486311541956 2.1413002014160156 0.0 0.0 0.0 -0.0 0.0 0.0 1 False False
3094.451 3.7121200561523438 -0.8255202335170289 0.8429673353778284 -1.5882569752135218 -1.570801083241598 2.141295909881592 0.0 0.0 0.0 -0.0 0.0 0.0 1 False False
3094.5009999999997 3.7120580673217773 -0.8254497212222596 0.8430007139789026 -1.5883094273009242 -1.5707486311541956 2.141263484954834 0.0 0.0 0.0 -0.0 0.0 0.0 1 False False
3094.551 3.712099313735962 -0.8254423898509522 0.8429935614215296 -1.5882812939085902 -1.5708168188678187 2.1413538455963135 0.0 0.0 0.0 -0.0 0.0 0.0 1 False False
3094.6009999999997 3.7120699882507324 -0.8254913848689576 0.8429935614215296 -1.5883246860899867 -1.5707405249225062 2.141267776489258 0.0 0.0 0.0 -0.0 0.0 0.0 1 False False
3094.651 3.7120087146759033 -0.8255001467517395 0.8429845015155237 -1.5882379017271937 -1.570853058491842 2.1413044929504395 0.0 0.0 0.0 -0.0 0.0 0.0 1 False False
3094.701 3.712062358856201 -0.8254497808269043 0.8429964224444788 -1.588273664514059 -1.5707724730121058 2.1412546634674072 0.0 0.0 0.0 -0.0 0.0 0.0 1 False False
3094.7509999999997 3.7120819091796875 -0.8255365651896973 0.8429935614215296 -1.588245531121725 -1.5707767645465296 2.141267776489258 0.0 0.0 0.0 -0.0 0.0 0.0 1 False False
3094.801 3.712050199508667 -0.8255409759334107 0.8429673353778284 -1.5883127651610316 -1.5708048979388636 2.1412839889526367 0.0 0.0 0.0 -0.0 0.0 0.0 1 False False
3094.8509999999997 3.712062358856201 -0.8255171936801453 0.8429754416095179 -1.5883056126036585 -1.5708044211017054 2.141267776489258 0.0 0.0 0.0 -0.0 0.0 0.0 1 False False
3094.901 3.712083101272583 -0.825463132267334 0.8430007139789026 -1.588297029534811 -1.5708048979388636 2.14132022857666 0.0 0.0 0.0 -0.0 0.0 0.0 1 False False
3094.951 3.712090492248535 -0.8254587215236207 0.8429678122149866 -1.588280817071432 -1.570829216633932 2.141247034072876 0.0 0.0 0.0 -0.0 0.0 0.0 1 False False
3095.0009999999997 3.712090492248535 -0.8254379791072388 0.8430498282061976 -1.5883175335326136 -1.5708335081683558 2.141249656677246 0.0 0.0 0.0 -0.0 0.0 0.0 1 False False
3095.051 3.7120535373687744 -0.825454370384552 0.8429802099810999 -1.5882774792113246 -1.5707805792437952 2.1413004398345947 0.0 0.0 0.0 -0.0 0.0 0.0 1 False False
3095.1009999999997 3.7120862007141113 -0.8254543107799073 0.8429306189166468 -1.5883094273009242 -1.570784870778219 2.141279697418213 0.0 0.0 0.0 -0.0 0.0 0.0 1 False False
3095.151 3.7120981216430664 -0.8255039614490052 0.8430245558368128 -1.5883456669249476 -1.5708048979388636 2.141263246536255 0.0 0.0 0.0 -0.0 0.0 0.0 1 False False
3095.201 3.7120916843414307 -0.825463132267334 0.8430126349078577 -1.5883413753905238 -1.570784870778219 2.14127516746521 0.0 0.0 0.0 -0.0 0.0 0.0 1 False False
3095.2509999999997 3.7120537757873535 -0.8254706424525757 0.8429845015155237 -1.5882331333556117 -1.5707967917071741 2.141270637512207 0.0 0.0 0.0 -0.0 0.0 0.0 1 False False
3095.301 3.7120296955108643 -0.8254379791072388 0.8430054823504847 -1.588269372979635 -1.5708006064044397 2.1412839889526367 0.0 0.0 0.0 -0.0 0.0 0.0 1 False False
3095.3509999999997 3.7121100425720215 -0.8255083721927186 0.8429845015155237 -1.5882650814452113 -1.5707886854754847 2.1413040161132812 0.0 0.0 0.0 -0.0 0.0 0.0 1 False False
3095.401 3.7120981216430664 -0.8254543107799073 0.8430007139789026 -1.5882932148375453 -1.5707686583148401 2.14131760597229 0.0 0.0 0.0 -0.0 0.0 0.0 1 False False
3095.451 3.712094783782959 -0.8254617017558594 0.8430216948138636 -1.5883094273009242 -1.5707605520831507 2.141284227371216 0.0 0.0 0.0 -0.0 0.0 0.0 1 False False
3095.5009999999997 3.712090492248535 -0.8254823845675965 0.8430007139789026 -1.5882898769774378 -1.5707724730121058 2.141287088394165 0.0 0.0 0.0 -0.0 0.0 0.0 1 False False
3095.551 3.7121024131774902 -0.825466052894928 0.842992130910055 -1.5883094273009242 -1.5707767645465296 2.141313076019287 0.0 0.0 0.0 -0.0 0.0 0.0 1 False False
3095.6009999999997 3.712094783782959 -0.8254675430110474 0.8429964224444788 -1.588292738000387 -1.5707724730121058 2.141263246536255 0.0 0.0 0.0 -0.0 0.0 0.0 1 False False
3095.651 3.712062358856201 -0.8254913848689576 0.8429802099810999 -1.5883056126036585 -1.570784870778219 2.141242504119873 0.0 0.0 0.0 -0.0 0.0 0.0 1 False False
3095.701 3.712110996246338 -0.8254333895495911 0.8429759184466761 -1.588297029534811 -1.570829216633932 2.141258955001831 0.0 0.0 0.0 -0.0 0.0 0.0 1 False False
3095.7509999999997 3.7120699882507324 -0.825463132267334 0.8430212179767054 -1.5882731876769007 -1.570813004170553 2.141263246536255 0.0 0.0 0.0 -0.0 0.0 0.0 1 False False
3095.801 3.7120862007141113 -0.8254838746837159 0.8429887930499476 -1.588285585443014 -1.570813004170553 2.1413087844848633 0.0 0.0 0.0 -0.0 0.0 0.0 1 False False
3095.8509999999997 3.7120981216430664 -0.8254779738238831 0.8430541197406214 -1.5882774792113246 -1.5708087126361292 2.1413137912750244 0.0 0.0 0.0 -0.0 0.0 0.0 1 False False
3095.901 3.712110996246338 -0.825442449455597 0.8429802099810999 -1.588269372979635 -1.5707967917071741 2.141226291656494 0.0 0.0 0.0 -0.0 0.0 0.0 1 False False
3095.951 3.712127447128296 -0.8254674834064026 0.8429635206805628 -1.5882250271239222 -1.5708048979388636 2.141308546066284 0.0 0.0 0.0 -0.0 0.0 0.0 1 False False
3096.0009999999997 3.7120776176452637 -0.8254913848689576 0.8430092970477503 -1.5882774792113246 -1.5707805792437952 2.141235113143921 0.0 0.0 0.0 -0.0 0.0 0.0 1 False False
3096.051 3.712127208709717 -0.8254543107799073 0.8429802099810999 -1.5883094273009242 -1.5707925001727503 2.141287088394165 0.0 0.0 0.0 -0.0 0.0 0.0 1 False False
3096.1009999999997 3.712090492248535 -0.8254993718913575 0.8430374304400843 -1.5882932148375453 -1.5707886854754847 2.141291618347168 0.0 0.0 0.0 -0.0 0.0 0.0 1 False False
3096.151 3.712062358856201 -0.825470582847931 0.8429678122149866 -1.5882731876769007 -1.5707891623126429 2.141284227371216 0.0 0.0 0.0 -0.0 0.0 0.0 1 False False
3096.201 3.7120938301086426 -0.8254497212222596 0.8430007139789026 -1.5882774792113246 -1.5707686583148401 2.1412558555603027 0.0 0.0 0.0 -0.0 0.0 0.0 1 False False
3096.2509999999997 3.7120373249053955 -0.8255127829364319 0.8430331389056605 -1.5882774792113246 -1.570784870778219 2.1412720680236816 0.0 0.0 0.0 -0.0 0.0 0.0 1 True False
3096.301 3.712094783782959 -0.8254528802684327 0.842992130910055 -1.5883251629271449 -1.5708335081683558 2.1412994861602783 0.0 0.0 0.0 -0.0 0.0 0.0 1 True False
3096.3509999999997 3.7120742797851562 -0.8254379791072388 0.8429845015155237 -1.5882774792113246 -1.570813004170553 2.141279697418213 0.0 0.0 0.0 -0.0 0.0 0.0 1 True False
3096.401 3.7121100425720215 -0.8254750531962891 0.843020264302389 -1.5883289776244105 -1.5708048979388636 2.14127516746521 0.0 0.0 0.0 -0.0 0.0 0.0 1 True False
3096.451 3.712124824523926 -0.8254379791072388 0.8429759184466761 -1.5882774792113246 -1.570801083241598 2.141291618347168 0.0 0.0 0.0 -0.0 0.0 0.0 1 True False
3096.5009999999997 3.71209979057312 -0.8255378764918824 0.8429802099810999 -1.5882846317686976 -1.570784870778219 2.1412885189056396 0.0 0.0 0.0 -0.0 0.0 0.0 1 True False
3096.551 3.712132453918457 -0.8255083721927186 0.8430169264422815 -1.5882607899107875 -1.57074481645693 2.141284227371216 0.0 0.0 0.0 -0.0 0.0 0.0 1 True False
3096.6009999999997 3.712066888809204 -0.8254779738238831 0.842992130910055 -1.588285585443014 -1.5707805792437952 2.1413040161132812 0.0 0.0 0.0 -0.0 0.0 0.0 1 True False
3096.651 3.7120697498321533 -0.8254823845675965 0.8430007139789026 -1.588280817071432 -1.5708335081683558 2.141191244125366 -6.201091132355184e-21 0.0 0.0 -0.0 0.0 2.7613808924797922e-05 1 True False
3096.701 3.7120654582977295 -0.8254869741252442 0.8430212179767054 -1.5883289776244105 -1.570801083241598 2.141324996948242 2.7781543394667096e-05 0.0 0.0 -0.0 0.0 4.19454264372429e-24 1 True False
3096.7509999999997 3.7120323181152344 -0.8254304689219971 0.8429635206805628 -1.588297029534811 -1.5708282629596155 2.141324996948242 4.701011029420955e-26 0.0 0.0 -0.0 -0.00025450147222727537 -1.3963705214337097e-06 1 True False
3096.801 3.7119994163513184 -0.8254468005946656 0.8430374304400843 -1.5883013210692347 -1.5708168188678187 2.1412811279296875 0.0 0.0 0.0 -0.0 2.2259888154962937e-08 -2.3503190633365283e-17 1 True False
3096.8509999999997 3.7120907306671143 -0.8254304689219971 0.8430083433734339 -1.5882932148375453 -1.5708048979388636 2.141334056854248 0.0 0.0 0.0 -0.0 5.294011238042842e-19 -3.5701397101853745e-36 1 True False
3096.901 3.712062358856201 -0.8254882258227845 0.8429721037494105 -1.5882731876769007 -1.5707686583148401 2.14127516746521 0.0 0.0 0.0 -0.0 8.041611318522941e-38 -0.0 1 True False
3096.951 3.713134527206421 -0.8259481352618714 0.8436921278582972 -1.588616510430807 -1.5708406607257288 2.1409056186676025 0.05540858209133148 -0.023740651085972786 0.03824349492788315 -0.015242897905409336 0.0 -0.02499076910316944 1 True False
3097.0009999999997 3.717644691467285 -0.8280408543399354 0.8471534887896937 -1.589724679986471 -1.5708211104022425 2.1388561725616455 0.1260293871164322 -0.0642586499452591 0.09900664538145065 -0.03173074498772621 0.0 -0.052958764135837555 1 True False
3097.051 3.725796937942505 -0.8322688502124329 0.853553597127096 -1.5919538937010707 -1.5707967917071741 2.1352896690368652 0.19304022192955017 -0.10173705965280533 0.14975415170192719 -0.05472531542181969 0.00019759700808208436 -0.08724198490381241 1 True False
3097.1009999999997 3.7372725009918213 -0.8383737367442627 0.8624456564532679 -1.5948921642699183 -1.5707805792437952 2.1302073001861572 0.26111531257629395 -0.1317463368177414 0.20808705687522888 -0.06510168313980103 0.00013145081175025553 -0.11573170125484467 1 True False
3097.151 3.7521755695343018 -0.8459507387927552 0.8741028944598597 -1.5989281139769496 -1.5707524458514612 2.1235363483428955 0.33075883984565735 -0.16820241510868073 0.2578410506248474 -0.09711282700300217 0.00010380736057413742 -0.14156422019004822 1 True False
3097.201 3.770625114440918 -0.8554819983294983 0.8884561697589319 -1.6037060223021449 -1.570813004170553 2.1155240535736084 0.4039158523082733 -0.20884689688682556 0.3136135935783386 -0.10128922760486603 7.354858826147392e-05 -0.177509605884552 1 True False
3097.2509999999997 3.7924721240997314 -0.8668152850917359 0.9055703322040003 -1.609443803826803 -1.5707929770099085 2.105839729309082 0.47116008400917053 -0.24297034740447998 0.36990106105804443 -0.12146493047475815 0.0002610808296594769 -0.2059353142976761 1 True False
3097.301 3.818185567855835 -0.8797290486148377 0.9252732435809534 -1.6162339649596156 -1.570772949849264 2.0945510864257812 0.5479369759559631 -0.2804100811481476 0.4196052551269531 -0.14141534268856049 -3.483430210948768e-10 -0.23662042617797852 1 True False
3097.3509999999997 3.8470044136047363 -0.8946709793857117 0.9478328863727015 -1.6238256893553675 -1.5708168188678187 2.0818586349487305 0.617814838886261 -0.31357643008232117 0.4801093339920044 -0.14893779158592224 -1.7215383195434697e-05 -0.26841193437576294 1 True False
3097.401 3.879368305206299 -0.911341981296875 0.9729240576373499 -1.6323706112303675 -1.5708211104022425 2.0675694942474365 0.683956503868103 -0.35287579894065857 0.5255028009414673 -0.18024924397468567 1.830141127621282e-13 -0.3029414117336273 1 True False
3097.451 3.915294647216797 -0.9295835059932251 1.0008886496173304 -1.6419068775572718 -1.5707810560809534 2.0516977310180664 0.7600968480110168 -0.3864542245864868 0.5859255790710449 -0.20342500507831573 -7.819161510269623e-06 -0.3307511806488037 1 True False
3097.5009999999997 3.9547324180603027 -0.9499702018550416 1.0313227812396448 -1.652391096154684 -1.570784870778219 2.0343236923217773 0.8242994546890259 -0.4254014790058136 0.6386515498161316 -0.205222025513649 -1.18773195447462e-24 -0.36344200372695923 1 True False
3097.551 3.9977071285247803 -0.97186233222995 1.0648787657367151 -1.6636043987669886 -1.5707648436175745 2.0155177116394043 0.8843973278999329 -0.45499593019485474 0.6911177635192871 -0.24309837818145752 1.654488102076357e-07 -0.3980027735233307 1 True False
3097.6009999999997 4.043994903564453 -0.9956970375827332 1.1008499304400843 -1.6758719883360804 -1.5707967917071741 1.9949798583984375 0.9658531546592712 -0.492840975522995 0.751448392868042 -0.2668662965297699 2.513171098557379e-26 -0.41701167821884155 1 True False
3097.651 4.093825340270996 -1.0212701124003907 1.1395123640643519 -1.6891032658019007 -1.5707724730121058 1.9730262756347656 1.0292571783065796 -0.5313606858253479 0.8021220564842224 -0.26912036538124084 4.203895392974451e-45 -0.4528921842575073 1 True False
3097.701 4.146148204803467 -1.047891990547516 1.180082146321432 -1.7028528652586878 -1.5707772413836878 1.950041651725769 1.0467841625213623 -0.5368334650993347 0.8075420260429382 -0.2884986102581024 0.0 -0.46637341380119324 1 True False
3097.7509999999997 4.198493480682373 -1.0748779040626069 1.2206690947162073 -1.716623445550436 -1.570772949849264 1.9268970489501953 1.0527416467666626 -0.5390171408653259 0.8117452263832092 -0.28649812936782837 -0.00012833534856326878 -0.45913779735565186 1 True False
3097.801 4.250885963439941 -1.10165290654216 1.2615326086627405 -1.7304607830443324 -1.5707648436175745 1.903733253479004 1.043881893157959 -0.5392619967460632 0.8081014156341553 -0.2888003885746002 -0.0001912595034809783 -0.45490023493766785 1 True False
3097.8509999999997 4.303245544433594 -1.1285453599742432 1.3021047751056116 -1.7442318401732386 -1.5707805792437952 1.8807547092437744 1.0471270084381104 -0.5294514894485474 0.8145279288291931 -0.2784878611564636 7.340889917322607e-16 -0.46624937653541565 1 True False
3097.901 4.355544567108154 -1.1553688508323212 1.3427518049823206 -1.7580458126463832 -1.5708449522601526 1.857706069946289 1.0533034801483154 -0.530464768409729 0.8162071108818054 -0.28868183493614197 -0.0001562283287057653 -0.4648275077342987 1 True False
3097.951 4.407952785491943 -1.1821268957904358 1.3833730856524866 -1.7720428905882777 -1.570784870778219 1.8345725536346436 1.0462390184402466 -0.5383374691009521 0.816435694694519 -0.2825458347797394 -9.859693818725646e-05 -0.4595114588737488 1 True False
3098.0009999999997 4.458603382110596 -1.208204136495926 1.4226997534381312 -1.7853785953917445 -1.570813004170553 1.8121998310089111 0.9789134860038757 -0.506159245967865 0.7616442441940308 -0.2580091655254364 4.2195473781703186e-08 -0.43314626812934875 1 True False
3098.051 4.505873203277588 -1.2323919099620362 1.459437672291891 -1.7976623974242152 -1.5707772413836878 1.7914358377456665 0.9102879762649536 -0.46928277611732483 0.7061642408370972 -0.23104767501354218 -1.4412938753594062e-06 -0.40435895323753357 1 True False
3098.1009999999997 4.5496978759765625 -1.2548400324634095 1.4934638182269495 -1.809335847894186 -1.5707967917071741 1.7720551490783691 0.8434599041938782 -0.42394089698791504 0.6545183062553406 -0.2298586219549179 0.00015208365221042186 -0.3695206642150879 1 True False
3098.151 4.589922904968262 -1.2754143637469788 1.5246370474444788 -1.8199292622008265 -1.570869270955221 1.7544255256652832 0.7708324790000916 -0.39106836915016174 0.6048903465270996 -0.21023023128509521 9.509590146866678e-20 -0.3451702296733856 1 True False
3098.201 4.626611232757568 -1.2943311494639893 1.5530689398394983 -1.8297401867308558 -1.5707677046405237 1.7381750345230103 0.7017454504966736 -0.3573618233203888 0.5434776544570923 -0.18394842743873596 0.0004910952993668616 -0.30838581919670105 1 True False
3098.2509999999997 4.659998416900635 -1.311413363819458 1.5791109243976038 -1.8384343586363734 -1.5707805792437952 1.7235103845596313 0.6328139305114746 -0.32503584027290344 0.4866000711917877 -0.15508770942687988 0.000129292078781873 -0.2781728506088257 1 True False
3098.301 4.689782619476318 -1.3266482216170807 1.6021040121661585 -1.846360822717184 -1.5707762877093714 1.710387945175171 0.5660923719406128 -0.28896626830101013 0.4375830292701721 -0.13914455473423004 -7.241890853038058e-05 -0.24722528457641602 1 True False
3098.3509999999997 4.715992450714111 -1.3401736480048676 1.6224363485919397 -1.8532387218871058 -1.5707719961749476 1.6989184617996216 0.49314555525779724 -0.25593188405036926 0.3815029561519623 -0.12523245811462402 -7.938528142403811e-05 -0.22331653535366058 1 True False
3098.401 4.738750457763672 -1.3517453235438843 1.640437428151266 -1.8591186008849085 -1.5708001295672815 1.6887211799621582 0.42422839999198914 -0.209787517786026 0.32491573691368103 -0.11128301173448563 -1.3807249408353358e-22 -0.18617063760757446 1 True False
3098.451 4.757993698120117 -1.361695946460106 1.6551068464862269 -1.8645178280272425 -1.570862118397848 1.680255651473999 0.35140886902809143 -0.1791616976261139 0.273245245218277 -0.08843344449996948 5.2732470066985115e-05 -0.1520974189043045 1 True False
3098.5009999999997 4.774016857147217 -1.369805709724762 1.6676633993731897 -1.868643423120016 -1.570829216633932 1.6732609272003174 0.278533399105072 -0.14636559784412384 0.2136775106191635 -0.08221714943647385 2.8141609362688155e-23 -0.1267244815826416 1 True False
3098.551 4.786289215087891 -1.3761537683061142 1.6770170370685022 -1.8717805347838343 -1.5707967917071741 1.6678524017333984 0.21236902475357056 -0.1060546487569809 0.1671704649925232 -0.05718263238668442 -2.7617914899469298e-11 -0.0955137237906456 1 True False
3098.6009999999997 4.795111656188965 -1.380657510166504 1.6840136686908167 -1.8741618595519007 -1.5707805792437952 1.6639381647109985 0.14505016803741455 -0.07236023247241974 0.10988183319568634 -0.046554047614336014 -4.195166305316303e-30 -0.0634923204779625 1 True False
3098.651 4.800488471984863 -1.3833728444627305 1.6881759802447718 -1.875624795953268 -1.570813004170553 1.6615958213806152 0.07726457715034485 -0.03628702089190483 0.05688351020216942 -0.015824338421225548 -0.0 -0.033044539391994476 1 True False
3098.701 4.802366733551025 -1.384392799144127 1.6896007696734827 -1.876005312005514 -1.5707967917071741 1.6608120203018188 0.0024706183467060328 -4.965862899553031e-06 0.0004682460566982627 -0.0004987460561096668 -0.0 -4.297663690522313e-05 1 True False
3098.7509999999997 4.80228328704834 -1.383733258848526 1.690768067036764 -1.8776737652220667 -1.5707686583148401 1.6608047485351562 0.0017968062311410904 0.02238883636891842 0.04291519150137901 -0.06259429454803467 -0.0 1.432954821467547e-08 1 True False
3098.801 4.802286624908447 -1.3820563715747376 1.6940339247332972 -1.8829113445677699 -1.570784870778219 1.660764455795288 0.001738965860567987 0.050844550132751465 0.08837825804948807 -0.1436045914888382 -0.0 -0.001122106215916574 1 True False
3098.8509999999997 4.802351951599121 -1.378813461666443 1.699470345173971 -1.8915020428099574 -1.5707491079913538 1.6607871055603027 0.001286349375732243 0.0759400948882103 0.13243715465068817 -0.2004578858613968 -0.0 -0.00035854981979355216 1 True False
3098.901 4.802310466766357 -1.3743079167655488 1.7070162932025355 -1.9035889110960902 -1.5708172957049769 1.6607987880706787 0.0003093672567047179 0.09844589233398438 0.17663101851940155 -0.28392669558525085 9.776344813872129e-05 -0.00011787873518187553 1 True False
3098.951 4.802366733551025 -1.3685554724982758 1.7169840971576136 -1.9190732441344203 -1.570813004170553 1.6607451438903809 0.00021308797295205295 0.12607891857624054 0.22013503313064575 -0.3531804084777832 7.851818372728303e-05 -5.734817750635557e-05 1 True False
3099.0009999999997 4.8023223876953125 -1.3615400356105347 1.7290919462787073 -1.9382769070067347 -1.5707967917071741 1.6607407331466675 0.00011434689804445952 0.15355105698108673 0.26428309082984924 -0.41937369108200073 3.571854029370047e-16 2.90135247751851e-20 1 True False
3099.051 4.802366733551025 -1.3533283335021515 1.7431915442096155 -1.9608632526793421 -1.5707691351519983 1.66071617603302 0.00011071935296058655 0.17752167582511902 0.30720552802085876 -0.49050483107566833 5.42565259245114e-35 4.4071607417170876e-39 1 True False
3099.1009999999997 4.8023552894592285 -1.34362085283313 1.7598889509784144 -1.9867321453490199 -1.5708444754229944 1.6607028245925903 8.911140321288258e-05 0.20122237503528595 0.3501540720462799 -0.5533695220947266 2.899125606248276e-09 0.0 1 True False
3099.151 4.8023552894592285 -1.333734081392624 1.7770002524005335 -2.0141970119872035 -1.5708254019366663 1.6607332229614258 0.00013089034473523498 0.18520186841487885 0.32566937804222107 -0.5257792472839355 3.0255361707531847e-05 0.0 1 True False
3099.201 4.802366733551025 -1.324807034139969 1.7923958937274378 -2.038272043267721 -1.5707925001727503 1.6606937646865845 7.578337681479752e-05 0.16696292161941528 0.28109225630760193 -0.45184144377708435 3.287582876509987e-05 0.0 1 True False
3099.2509999999997 4.802338600158691 -1.317297951584198 1.8050735632525843 -2.058840414086813 -1.5708335081683558 1.6607481241226196 5.333063018042594e-05 0.13912762701511383 0.24031192064285278 -0.38205859065055847 3.385465970495716e-05 0.0 1 True False
3099.301 4.802326679229736 -1.3110577029040833 1.8159244696246546 -2.075729032556051 -1.570784870778219 1.6607197523117065 9.893167158133209e-43 0.10842402279376984 0.19249366223812103 -0.3117097020149231 1.635520885390207e-10 0.0 1 True False
3099.3509999999997 4.802285194396973 -1.305972234611847 1.8246787230121058 -2.0892678699889125 -1.5707967917071741 1.6607706546783447 0.0 0.08496616780757904 0.14854757487773895 -0.24637471139431 2.4843614567792678e-29 0.0 1 True False
3099.401 4.802285194396973 -1.3023913961699982 1.8308127562152308 -2.099431654016012 -1.5707610289203089 1.6607987880706787 1.4016232696065212e-16 0.062028951942920685 0.10760710388422012 -0.15817362070083618 0.0 0.0 1 True False
3099.451 4.802350997924805 -1.2998994153789063 1.8350055853473108 -2.105959554711813 -1.5707805792437952 1.6607706546783447 0.0 0.03553973510861397 0.059809360653162 -0.0954514592885971 0.0 0.0 1 True False
3099.5009999999997 4.802338600158691 -1.2987722617438813 1.8370731512652796 -2.108955045739645 -1.5707886854754847 1.6607407331466675 0.0 0.00946749746799469 0.019636167213320732 -0.033758942037820816 0.0 0.0 1 True False
3099.551 4.8023223876953125 -1.2988230747035523 1.8371437231646937 -2.1092564068236292 -1.5708211104022425 1.6607823371887207 0.0 -0.00012500981392804533 1.6785273397890166e-16 0.00013383173791226 0.0 0.0 1 True False
3099.6009999999997 4.8023176193237305 -1.298790232544281 1.8371260801898401 -2.1092525921263636 -1.5707810560809534 1.6607733964920044 0.0 0.0 0.00011466687283245847 3.032049722406782e-09 0.0 0.0 1 True False
3099.651 4.802364349365234 -1.2987335485270997 1.8371837774859827 -2.109272619287008 -1.5707810560809534 1.6607407331466675 0.0 0.00021694385213777423 5.2629657147917897e-05 4.6056919801669685e-28 0.0 0.0 1 True False
3099.701 4.8023552894592285 -1.2987426680377503 1.8371709028827112 -2.1092564068236292 -1.5707929770099085 1.6607645750045776 0.0 0.00024020852288231254 7.601072866236791e-05 0.0 0.0 0.0 1 True False
3099.7509999999997 4.802330017089844 -1.298692838554718 1.8371666113482874 -2.1092564068236292 -1.570784870778219 1.660757064819336 0.0 0.0001451417338103056 7.534380711149424e-05 -2.4217424652306363e-05 0.0 0.0 1 True False
3099.801 4.802298545837402 -1.2986883384040375 1.837208096181051 -2.109288831750387 -1.5708006064044397 1.6607526540756226 0.0 0.00016574161418247968 2.7288447109613534e-12 -4.968893786011508e-12 0.0 1.1514645140153767e-11 1 True False
3099.8509999999997 4.802346706390381 -1.2986481052688141 1.8371427694903772 -2.109260221520895 -1.5707886854754847 1.6607407331466675 0.0 0.00013723588199354708 7.567513239337131e-05 -7.952591113280505e-05 0.0 1.7490769133455708e-30 1 True False
3099.901 4.802318096160889 -1.2986555260470887 1.8372109572040003 -2.1092525921263636 -1.570813004170553 1.6607332229614258 0.0 9.399421833222732e-05 1.065743500394678e-11 -5.5157117458293214e-05 1.8322413898597123e-12 0.0 1 True False
3099.951 4.802292823791504 -1.29871820033107 1.8372152487384241 -2.109316965142721 -1.570801083241598 1.6607407331466675 0.0 7.40996329113841e-05 6.40617436147295e-05 -3.435971614308083e-17 2.783179183128353e-31 0.0 1 True False
3100.0009999999997 4.802399635314941 -1.2986764472774048 1.8371742407428187 -2.109312673608297 -1.5707529226886194 1.6607407331466675 0.0 1.5760208879957188e-19 1.400817933872034e-10 -5.219248010047173e-36 0.0 0.0 1 True False
3100.051 4.80230188369751 -1.2986508470824738 1.8371995131122034 -2.109276433984274 -1.5707925001727503 1.660757064819336 0.0 0.0 3.8349349779309705e-05 -0.0 0.0 0.0 1 True False
3100.1009999999997 4.802371025085449 -1.298694298868515 1.8372152487384241 -2.1093250713744105 -1.5707648436175745 1.660757064819336 0.0 0.0 3.544044224756959e-11 -1.391268233419396e-05 0.0 0.0 1 True False
3100.151 4.802374839782715 -1.298736498957016 1.837066952382223 -2.1094676456847132 -1.570784870778219 1.6607614755630493 -2.339838112304747e-25 0.0001918791967909783 0.00021764414850622416 -0.0006595394224859774 0.0 -0.0001981002715183422 1 True False
3100.201 4.802371025085449 -1.298670307998993 1.837111775075094 -2.1094919643797816 -1.5707529226886194 1.66071617603302 0.0 0.0003037737915292382 0.00030604496714659035 -1.8783531174904056e-08 0.0 9.64712184840069e-20 1 True True
3100.2509999999997 4.802363872528076 -1.298856185083725 1.836806599293844 -2.10827698330068 -1.570784870778219 1.6607614755630493 0.0 -0.011985921300947666 -0.023710524663329124 0.050488654524087906 0.0 1.4653998816664308e-38 1 True True
3100.301 4.802298545837402 -1.300299958591797 1.8342154661761683 -2.1043297253050746 -1.570772949849264 1.6607897281646729 0.0 -0.05074918270111084 -0.08442466706037521 0.11113272607326508 0.0 0.0 1 True True
3100.3509999999997 4.802400588989258 -1.3031390470317383 1.82935077348818 -2.096584459344381 -1.5707925001727503 1.6607941389083862 0.0 -0.06876745074987411 -0.12473948299884796 0.17996235191822052 0.0 0.0 1 True True
3100.401 4.802399635314941 -1.3074934643558045 1.822017017995016 -2.0852838955321253 -1.5707925001727503 1.6607482433319092 0.0 -0.09234227240085602 -0.1657821238040924 0.2583564519882202 0.0 0.0 1 True True
3100.451 4.802347183227539 -1.3128834527781983 1.8126147429095667 -2.0708018742003382 -1.5708254019366663 1.6607199907302856 0.0 -0.11820162087678909 -0.20955146849155426 0.32508042454719543 0.0 -6.046567432349548e-05 1 True True
3100.5009999999997 4.802335262298584 -1.3195046347430726 1.80133563676943 -2.052474161187643 -1.5708211104022425 1.660724401473999 0.0 -0.1454237997531891 -0.25339728593826294 0.3940311074256897 0.0 -6.954361250783781e-19 1 True True
3100.551 4.802403926849365 -1.3274490398219605 1.7876656691180628 -2.0309673748412074 -1.5708211104022425 1.6608103513717651 0.0 -0.17233453691005707 -0.2967209815979004 0.46827682852745056 0.0 -1.0563689594351405e-37 1 True True
3100.6009999999997 4.802334308624268 -1.3367566180280228 1.7717259565936487 -2.0058633289732875 -1.5708168188678187 1.660768985748291 0.0 -0.1965184360742569 -0.34230220317840576 0.5361337065696716 0.0 -0.0 1 True True
3100.651 4.802350997924805 -1.3469188970378418 1.7541316191302698 -1.9782635174193324 -1.570784870778219 1.6607162952423096 0.0 -0.1932077258825302 -0.33504247665405273 0.5282216668128967 0.0 -0.0 1 True True
3100.701 4.802359580993652 -1.3559147876552125 1.7386449019061487 -1.9532577000060023 -1.570829216633932 1.660768985748291 0.0 -0.16682206094264984 -0.29921767115592957 0.46556031703948975 0.0 -0.0 1 True True
3100.7509999999997 4.802297592163086 -1.3639898014119645 1.7248194853412073 -1.931709428826803 -1.5708368460284632 1.6607332229614258 0.0 -0.14653268456459045 -0.25118958950042725 0.3954169750213623 0.0 -0.0 1 True True
3100.801 4.8023552894592285 -1.3705282521298905 1.713644806538717 -1.9138485393919886 -1.5707605520831507 1.6607733964920044 0.0 -0.11933799088001251 -0.20239552855491638 0.33620551228523254 0.0 -0.0 1 True True
3100.8509999999997 4.802347183227539 -1.3758853536895295 1.7044737974749964 -1.8992701969542445 -1.5707686583148401 1.6607288122177124 0.0 -0.09236201643943787 -0.16708606481552124 0.26404985785484314 0.0 -0.0 1 True True
3100.901 4.802330017089844 -1.3799436402371903 1.6975825468646448 -1.8883429966368617 -1.5707925001727503 1.6607451438903809 0.0 -0.06585372984409332 -0.11916262656450272 0.18254338204860687 0.0 -0.0 1 True True
3100.951 4.802338600158691 -1.3826516431621094 1.6927312056170862 -1.8808194599547328 -1.570784870778219 1.6607614755630493 0.0 -0.041120853275060654 -0.07215852290391922 0.1297154724597931 0.0 -0.0 1 True True
3101.0009999999997 4.8023552894592285 -1.38411037743602 1.6900976339923304 -1.8768822155394496 -1.5708044211017054 1.6607245206832886 0.0 -0.021388713270425797 -0.031803738325834274 0.04765399917960167 0.0 -0.0 1 True True
3101.051 4.802114963531494 -1.3843011421016236 1.689695183430807 -1.8761607609190882 -1.5708091894732874 1.6607120037078857 -0.02400684915482998 -7.736635117272517e-12 -2.508010688018203e-09 -1.651755883358419e-05 0.0 -0.0013405844802036881 1 True True
3101.1009999999997 4.799289226531982 -1.3842473787120362 1.6896632353412073 -1.876113077203268 -1.5707610289203089 1.6602522134780884 -0.091565802693367 0.0013838321901857853 -0.0009746334399096668 0.003869917243719101 0.0 -0.010280916467308998 1 True True
3101.151 4.79263973236084 -1.3841886979392548 1.6894195715533655 -1.8760138950743617 -1.5707843939410608 1.659514307975769 -0.16184194386005402 0.0034286987502127886 -0.004582297056913376 0.00202750600874424 0.0 -0.020645443350076675 1 True True
3101.201 4.782749176025391 -1.3839727205089112 1.6891244093524378 -1.8759943447508753 -1.5708449522601526 1.6582450866699219 -0.23645633459091187 0.006019426975399256 -0.007674376480281353 0.0010574182961136103 0.0 -0.02887272834777832 1 True True
3101.2509999999997 4.769209861755371 -1.3836517196944733 1.6887338797198694 -1.875894685784811 -1.570801083241598 1.656449794769287 -0.301395058631897 0.008273879997432232 -0.010590397752821445 0.0018015580717474222 0.0 -0.038206491619348526 1 True True
3101.301 4.752351760864258 -1.3832945090583344 1.6882055441485804 -1.8758107624449671 -1.570784870778219 1.6543301343917847 -0.37375497817993164 0.008886181749403477 -0.009359976276755333 0.0015195327578112483 -8.306038216687739e-05 -0.04659416154026985 1 True True
3101.3509999999997 4.73179292678833 -1.382774831061699 1.6876428763019007 -1.8756395779051722 -1.5708087126361292 1.6516599655151367 -0.4434387683868408 0.010209565050899982 -0.010977265425026417 0.0018782461993396282 -5.779119237558916e-05 -0.05749129131436348 1 True True
3101.401 4.707981109619141 -1.382220060830452 1.6869829336749476 -1.8755408726134242 -1.5707686583148401 1.6485726833343506 -0.5133461952209473 0.0117575628682971 -0.014322059229016304 0.003370045917108655 1.3239936379250139e-05 -0.0655444785952568 1 True True
3101.451 4.680720329284668 -1.3816442799619217 1.6862643400775355 -1.8753735027708949 -1.5707648436175745 1.644996166229248 -0.5826231837272644 0.013002421706914902 -0.018300995230674744 0.004341964144259691 8.245573029443695e-22 -0.0753653272986412 1 True True
3101.5009999999997 4.649781703948975 -1.3808646512082596 1.6853411833392542 -1.8752147159972132 -1.5707290808307093 1.641035556793213 -0.6474454998970032 0.014355465769767761 -0.016793884336948395 0.007162554655224085 -9.825696452026023e-07 -0.085273377597332 1 True True
3101.551 4.615365982055664 -1.3800951552442093 1.6842592398272913 -1.8749915562071742 -1.5707405249225062 1.6366610527038574 -0.7160395979881287 0.014713230542838573 -0.019228920340538025 0.006343410816043615 -3.4200829190922377e-07 -0.09634478390216827 1 True True
3101.6009999999997 4.577364921569824 -1.3792300832322617 1.6831844488727015 -1.8747855625548304 -1.5707443396197718 1.631693959236145 -0.7828654646873474 0.01652575097978115 -0.02211405336856842 0.007749119773507118 -4.987456847516114e-08 -0.10233861207962036 1 True True
3101.651 4.535987377166748 -1.3782364291003724 1.6820271650897425 -1.874559064904684 -1.5707724730121058 1.6264324188232422 -0.8608328700065613 0.020116273313760757 -0.02385670877993107 0.005204029381275177 9.735913772601634e-05 -0.11007502675056458 1 True True
3101.701 4.491177558898926 -1.37718220174823 1.6807697455035608 -1.8742486439146937 -1.5708048979388636 1.6205750703811646 -0.9372596144676208 0.02179032191634178 -0.025156283751130104 0.005115596577525139 -0.0003049641090910882 -0.1210462749004364 1 True True
3101.7509999999997 4.442869663238525 -1.3761655402234574 1.6794574896441858 -1.8740345440306605 -1.570756737385885 1.6143344640731812 -1.0008230209350586 0.02220524474978447 -0.0314488522708416 0.0039617884904146194 -4.742292690838997e-20 -0.12872233986854553 1 True True
3101.801 4.391210079193115 -1.3749722403338929 1.6778352896319788 -1.8737317524352015 -1.570829216633932 1.607708215713501 -1.0449347496032715 0.024832163006067276 -0.030780155211687088 0.007732855621725321 -7.203551319468227e-39 -0.13412542641162872 1 True True
3101.8509999999997 4.338886737823486 -1.373720647101738 1.676330868397848 -1.8735176525511683 -1.5707886854754847 1.6009612083435059 -1.0516290664672852 0.024570785462856293 -0.030796384438872337 0.0035549525637179613 -0.0 -0.13913002610206604 1 True True
3101.901 4.286489486694336 -1.3725313705256958 1.6749241987811487 -1.8731433353819789 -1.5708168188678187 1.594093680381775 -1.0445924997329712 0.025338096544146538 -0.028309671208262444 0.004418594297021627 -7.139568103387006e-11 -0.13318629562854767 1 True True
3101.951 4.234052658081055 -1.371279702787735 1.6734703222857874 -1.8728534183897914 -1.5707648436175745 1.5874404907226562 -1.043423056602478 0.021458417177200317 -0.028243569657206535 0.00859350711107254 -1.0845019850403897e-29 -0.13204769790172577 1 True True
3102.0009999999997 4.1818156242370605 -1.3700891894153138 1.6719864050494593 -1.8726312122740687 -1.5708325544940394 1.5806025266647339 -1.051241159439087 0.023600153625011444 -0.032213881611824036 0.004608862567692995 3.812350405496545e-05 -0.13384287059307098 1 True True
3102.051 4.129447937011719 -1.368913785820343 1.6703718344317835 -1.8722926578917445 -1.570756737385885 1.573920726776123 -1.0457468032836914 0.023905444890260696 -0.03015058860182762 0.0038242917507886887 -1.0284036122687468e-10 -0.1341296285390854 1 True True
3102.1009999999997 4.076993942260742 -1.3677639228156586 1.6688998381244105 -1.8719340763487757 -1.5708168188678187 1.5671167373657227 -1.0410313606262207 0.02372097223997116 -0.030750740319490433 0.00841198954731226 -1.562147055723007e-29 -0.1317196488380432 1 True True
3102.151 4.024666786193848 -1.3664518755725403 1.6674273649798792 -1.8717519245543421 -1.5707843939410608 1.5604217052459717 -1.0504984855651855 0.024028493091464043 -0.028237998485565186 0.005213767755776644 -0.0 -0.13309915363788605 1 True True
3102.201 3.972234010696411 -1.3652914029410859 1.666023079548971 -1.8714181385436 -1.5707886854754847 1.5536704063415527 -1.0432612895965576 0.02476276271045208 -0.030386371538043022 0.00512370141223073 -0.0 -0.13791555166244507 1 True True
3102.2509999999997 3.919943332672119 -1.3641278606704255 1.6644142309771937 -1.8711606464781703 -1.570829216633932 1.5468976497650146 -1.0444611310958862 0.02336009591817856 -0.02976233884692192 0.007489859592169523 -0.0 -0.13221371173858643 1 True True
3102.301 3.867671251296997 -1.3628967714360734 1.6628697554217737 -1.870817323724264 -1.570813004170553 1.540091633796692 -1.0523171424865723 0.024246862158179283 -0.028769413009285927 0.004910362884402275 -0.0 -0.13499130308628082 1 True True
3102.3509999999997 3.8152694702148438 -1.3616077315858384 1.6613639036761683 -1.8705316982665003 -1.570784870778219 1.533371925354004 -1.0478359460830688 0.024226373061537743 -0.028582332655787468 0.005692359060049057 -0.0 -0.13404347002506256 1 True True
3102.401 3.7629003524780273 -1.3606089365533371 1.659900967274801 -1.8701936207213343 -1.5707443396197718 1.526640772819519 -1.0434038639068604 0.02336672507226467 -0.02817513234913349 0.006993019487708807 -0.0 -0.13427962362766266 1 True True
3102.451 3.710580348968506 -1.3593288224986573 1.658499542866842 -1.8698998890318812 -1.570784870778219 1.519862413406372 -1.0484824180603027 0.024257395416498184 -0.030588220804929733 0.006877603009343147 1.47461669779563e-17 -0.13607151806354523 1 True True
3102.5009999999997 3.6581220626831055 -1.3581292492202302 1.6569379011737269 -1.869624753991598 -1.5708087126361292 1.5131211280822754 -1.046276330947876 0.024664897471666336 -0.03164239972829819 0.005101460497826338 4.9895090342033654e-05 -0.13707350194454193 1 True True
3102.551 3.6058261394500732 -1.3568759274533768 1.6553705374347132 -1.8693472347655238 -1.5708087126361292 1.5062892436981201 -1.0437219142913818 0.0257527194917202 -0.029855433851480484 0.006167976185679436 5.500563929672353e-05 -0.1345272660255432 1 True True
3102.6009999999997 3.553431272506714 -1.3556886923364182 1.6538975874530237 -1.869101186791891 -1.5708406607257288 1.499565839767456 -1.049614429473877 0.02464447356760502 -0.02995072677731514 0.005575817544013262 -5.193352626520209e-05 -0.13182371854782104 1 True True
3102.651 3.5011048316955566 -1.354481728082039 1.65253192583193 -1.868694921533102 -1.5707805792437952 1.4928287267684937 -1.0476206541061401 0.023437369614839554 -0.027415582910180092 0.00607465673238039 -1.5180843547568657e-05 -0.13149411976337433 1 True True
3102.701 3.448688507080078 -1.3532985311797638 1.6509960333453577 -1.8684407673277796 -1.5707529226886194 1.4860395193099976 -1.0452704429626465 0.0245579294860363 -0.0319778174161911 0.006507406011223793 -1.0677881618903484e-05 -0.13494357466697693 1 True True
3102.7509999999997 3.3963797092437744 -1.3520289969495316 1.6494033972369593 -1.8681618175902308 -1.5708168188678187 1.4793002605438232 -1.049047827720642 0.023075304925441742 -0.029715556651353836 0.005235238932073116 -4.972835036140915e-20 -0.134298175573349 1 True True
3102.801 3.345529556274414 -1.3508609694293519 1.6479929129229944 -1.86777987102651 -1.5708087126361292 1.4726815223693848 -0.9840173125267029 0.021908530965447426 -0.0277587678283453 0.005768416915088892 -2.2029434276760185e-08 -0.12931780517101288 1 True True
3102.8509999999997 3.2979841232299805 -1.349808157687523 1.6466272513019007 -1.867533346215719 -1.5707724730121058 1.4665714502334595 -0.9113360643386841 0.02261318266391754 -0.025349266827106476 0.008363552391529083 0.00016035870066843927 -0.11899714171886444 1 True True
3102.901 3.2540175914764404 -1.3487801265767594 1.6454480330096644 -1.8673235378661097 -1.5708368460284632 1.4609439373016357 -0.8425540924072266 0.019617633894085884 -0.023045139387249947 0.004272937774658203 0.0001874075533123687 -0.1073404997587204 1 True True
3102.951 3.2135870456695557 -1.3478846114924927 1.644195858632223 -1.8671285114684046 -1.5707886854754847 1.4556760787963867 -0.7813383340835571 0.01826946809887886 -0.02437140978872776 0.0029952735640108585 7.297896809177473e-05 -0.10171473771333694 1 True True
3103.0009999999997 3.176626443862915 -1.3469969791224976 1.6431592146502894 -1.8668576679625453 -1.5707891623126429 1.4509668350219727 -0.7072640061378479 0.015345744788646698 -0.019817344844341278 0.004022995010018349 1.1085519935438013e-23 -0.0950644239783287 1 True True
3103.051 3.143176555633545 -1.346204326753952 1.6421926657306116 -1.8667026958861292 -1.5707686583148401 1.4465776681900024 -0.6345850825309753 0.014879812486469746 -0.016224227845668793 0.005432724952697754 2.2863090018882025e-15 -0.0827467143535614 1 True True
3103.1009999999997 3.113182783126831 -1.3455832612565537 1.641318146382467 -1.8664876423277796 -1.5707925001727503 1.442796230316162 -0.5644797682762146 0.01120041124522686 -0.016697969287633896 0.0035587893798947334 3.4729078311294732e-34 -0.07241123169660568 1 True True
3103.151 3.0866522789001465 -1.344983310704567 1.640616242085592 -1.8664170704283656 -1.570813004170553 1.4393631219863892 -0.4937911033630371 0.01262684352695942 -0.011836282908916473 0.0037406824994832277 -7.230654591694474e-05 -0.06410014629364014 1 True True
3103.201 3.0635316371917725 -1.3444108378938218 1.639916721974508 -1.866253515283102 -1.5707724730121058 1.4363712072372437 -0.42266055941581726 0.00900436844676733 -0.011406327597796917 0.0028173511382192373 -0.00015782573609612882 -0.05724799260497093 1 True True
3103.2509999999997 3.044048309326172 -1.3439987164786835 1.6394041220294397 -1.8661538563170375 -1.570813004170553 1.4338442087173462 -0.3588751256465912 0.009041441604495049 -0.01079916674643755 0.0013927386607974768 2.3232609237311408e-05 -0.04627814143896103 1 True True
3103.301 3.0280895233154297 -1.3436460506967087 1.639001194630758 -1.8660584888853968 -1.570829216633932 1.431807279586792 -0.28982362151145935 0.007140100002288818 -0.008379322476685047 0.0011945688165724277 3.529038284835403e-24 -0.03610366955399513 1 True True
3103.3509999999997 3.0154833793640137 -1.343395785694458 1.6386216322528284 -1.8660193882384242 -1.570784870778219 1.43015718460083 -0.21528850495815277 0.004739869851619005 -0.007008590269833803 0.0010657802922651172 2.328519258298911e-05 -0.029017221182584763 1 True True
3103.401 3.0065557956695557 -1.3432246309569855 1.6383760611163538 -1.8659030399718226 -1.5707805792437952 1.4289917945861816 -0.14531582593917847 0.004046272486448288 -0.004220610950142145 0.001947529730387032 1.6508560321142325e-22 -0.02002546563744545 1 True True
3103.451 3.0009078979492188 -1.3430850517800828 1.6381476561175745 -1.8658954105772914 -1.5707648436175745 1.4282636642456055 -0.07777736335992813 0.0011908169835805893 -0.0036533339880406857 0.0004896017489954829 2.50762360190926e-41 -0.009566512890160084 1 True True
3103.5009999999997 2.9987359046936035 -1.3430609566024323 1.6380556265460413 -1.8658720455565394 -1.5707967917071741 1.42816162109375 -0.008369670249521732 0.0004998762160539627 -0.0007370322127826512 0.0002865999995265156 0.0 -0.0004156246723141521 1 True True
3103.551 2.9988198280334473 -1.342271314268448 1.638824764882223 -1.8671966991820277 -1.5707967917071741 1.4280455112457275 -0.001947665587067604 0.024178162217140198 0.039418645203113556 -0.06805094331502914 -0.00022087151592131704 -0.002523218048736453 1 True True
3103.6009999999997 2.9988749027252197 -1.3406267327121277 1.641721550618307 -1.8722545109190882 -1.5708168188678187 1.4279968738555908 -0.0020847846753895283 0.047330550849437714 0.0878894180059433 -0.12964725494384766 -3.830840432783589e-05 -0.00044021604117006063 1 True True
3103.651 2.998816728591919 -1.3376282912543793 1.647397820149557 -1.8805886707701625 -1.5708168188678187 1.4279654026031494 -0.0014310571132227778 0.0705888569355011 0.13120317459106445 -0.19825078547000885 -3.56408636434935e-05 -0.00013850886898580939 1 True True
3103.701 2.9988017082214355 -1.3332909655622025 1.6550610701190394 -1.892508169213766 -1.570829216633932 1.427984595298767 -0.0002535328094381839 0.099817655980587 0.17496773600578308 -0.26424652338027954 -4.892473589279689e-05 -2.201186362071894e-05 1 True True
3103.7509999999997 2.998750925064087 -1.3277715307525177 1.6651151815997522 -1.9080006084837855 -1.570829216633932 1.4279773235321045 -0.0001601206895429641 0.12619028985500336 0.22174392640590668 -0.3386428654193878 -8.007024007383734e-05 -6.612164581069034e-23 1 True True
3103.801 2.9988017082214355 -1.3210378152183075 1.6769827047931116 -1.9267727337279261 -1.570853058491842 1.4279968738555908 -0.00013558255159296095 0.15210656821727753 0.26343780755996704 -0.4129660725593567 -5.375846218646976e-15 -1.0044507392280289e-41 1 True True
3103.8509999999997 2.9988183975219727 -1.312862144117691 1.691390339528219 -1.9491750202574671 -1.5707686583148401 1.4280540943145752 -8.118167170323431e-05 0.17004600167274475 0.3097921311855316 -0.4777287542819977 -9.17733195819892e-05 -0.0 1 True True
3103.901 2.9987926483154297 -1.3035266560367127 1.7079198996173304 -1.9750448666014613 -1.5708044211017054 1.4279569387435913 -5.594862886937335e-05 0.1991354078054428 0.3502071499824524 -0.5565787553787231 -2.5871717298286967e-05 -0.0 1 True True
3103.951 2.998741865158081 -1.2938438218883057 1.7250579039203089 -2.0020367107787074 -1.5707648436175745 1.4279601573944092 -1.3092828271013934e-34 0.18673904240131378 0.327196329832077 -0.518439769744873 -4.569471537263503e-12 -0.0 1 True True
3104.0009999999997 2.9987733364105225 -1.2852188807776947 1.7401636282550257 -2.025703569451803 -1.570784870778219 1.428021788597107 0.0 0.159474179148674 0.28028470277786255 -0.43237632513046265 -6.94103976462809e-31 -0.0 1 True True
3104.051 2.9987940788269043 -1.2779021126082917 1.7529667059527796 -2.0459376774229945 -1.5708406607257288 1.4279611110687256 0.0 0.13300389051437378 0.24322688579559326 -0.36045679450035095 -0.0 -0.0 1 True True
3104.1009999999997 2.9988272190093994 -1.2720196706107636 1.7638147513019007 -2.0626522503294886 -1.5707886854754847 1.4279773235321045 0.0 0.10939580947160721 0.18817265331745148 -0.31355586647987366 -0.0 -0.0 1 True True
3104.151 2.9987733364105225 -1.267206148510315 1.772147003804342 -2.0758286915221156 -1.5708368460284632 1.4279729127883911 0.0 0.08193592727184296 0.14883260428905487 -0.23595942556858063 -0.0 -0.0 1 True True
3104.201 2.9987971782684326 -1.2637420457652588 1.7783196608172815 -2.0855218372740687 -1.5707925001727503 1.4279431104660034 0.0 0.05911903455853462 0.09879037737846375 -0.15663015842437744 -0.0 8.706649225372065e-13 1 True True
3104.2509999999997 2.998776435852051 -1.2614300411990662 1.7824013868915003 -2.091875215569967 -1.5707805792437952 1.427955150604248 0.0 0.03203830495476723 0.05991557240486145 -0.08303122967481613 -0.0 1.322542111341791e-31 1 True True
3104.301 2.9988014698028564 -1.2607896488955994 1.7836602369891565 -2.094750543633932 -1.5708282629596155 1.4279862642288208 0.0 0.006647072732448578 0.015072819776833057 -0.021140504628419876 -0.0005657874280586839 0.0 1 True True
3104.3509999999997 2.998751163482666 -1.2607624989799042 1.7837351004229944 -2.0949746570982875 -1.5708449522601526 1.4280264377593994 0.0 0.0047440542839467525 0.00477553578093648 0.00041381895425729454 -6.927372305653989e-05 0.0 1 True True
3104.401 2.9987807273864746 -1.260120914583542 1.7845919767962855 -2.094583650628561 -1.570756737385885 1.4280622005462646 0.0 0.01264132559299469 0.025813139975070953 0.029555127024650574 0.002307178918272257 0.00019262894056737423 1 True True
3104.451 2.9987897872924805 -1.2601578396609803 1.7846463362323206 -2.094485422173971 -1.5708015600787562 1.4279890060424805 0.0 -0.006720473058521748 -0.01695261150598526 -0.02402317337691784 -7.278310363290075e-07 -5.573104911588134e-13 1 True False
3104.5009999999997 2.9988138675689697 -1.2601415377906342 1.784631077443258 -2.094527860681051 -1.570740048085348 1.4279773235321045 0.0 -0.00683846790343523 -0.007427011616528034 -0.0036478028632700443 -1.1055769722727026e-25 -1.338898073299788e-05 1 True False
3104.551 2.9987926483154297 -1.2603300374797364 1.784510914479391 -2.0946480236449183 -1.5707739035235804 1.4280130863189697 0.0 -0.002804812742397189 -0.0036476508248597383 -0.001689016935415566 -0.00011211294622626156 0.00017379266500938684 1 True False
3104.6009999999997 2.998771905899048 -1.2603869599154969 1.784354035054342 -2.094715734521383 -1.5707891623126429 1.428010106086731 0.0 3.108216454668671e-19 -0.00072511937469244 -0.00039431441109627485 -0.0003725415444932878 3.048730104637798e-05 1 True False
3104.651 2.998798370361328 -1.2603167754462739 1.7843754927264612 -2.094755788842672 -1.5707815329181116 1.4280221462249756 0.0 0.0 -0.00018826083396561444 -0.00017565088637638837 -0.00015938012802507728 1.6506077372469008e-05 1 True False
3104.701 2.9988226890563965 -1.2610773605159302 1.7831023375140589 -2.0931431255736292 -1.570833985005514 1.4279844760894775 0.0 -0.024853426963090897 -0.04439988359808922 0.06853168457746506 -0.0001152892509708181 1.1316887139400933e-05 1 True False
3104.7509999999997 2.9987645149230957 -1.2628071767142792 1.779853645955221 -2.0877791843810023 -1.5707686583148401 1.427992343902588 0.0 -0.05081669241189957 -0.09421952813863754 0.14559528231620789 -0.00011243841436225921 1.8713029065101327e-16 1 True False
3104.801 2.9987895488739014 -1.2659009259990235 1.7743876616107386 -2.0789972744383753 -1.5708296934710901 1.4280011653900146 0.0 -0.07578396797180176 -0.13213706016540527 0.21503672003746033 -9.16039280127734e-05 2.8425129400687795e-35 1 True False
3104.8509999999997 2.9987971782684326 -1.2704829436591645 1.7664559523211878 -2.0670329533019007 -1.570768181477682 1.4279978275299072 0.0 -0.09993218630552292 -0.1811656951904297 0.2924298942089081 -6.570667028427124e-05 0.0 1 True False
3104.901 2.998792886734009 -1.2760777336410065 1.7563956419574183 -2.051180978814596 -1.570784870778219 1.4280264377593994 0.0 -0.12519913911819458 -0.22493237257003784 0.34901267290115356 -1.4713210447990963e-17 0.0 1 True False
3104.951 2.9987645149230957 -1.282987968330719 1.7442572752581995 -2.032015462914938 -1.5708211104022425 1.427992343902588 0.0 -0.1504780799150467 -0.26826798915863037 0.42189502716064453 -2.234940023586475e-36 0.0 1 True False
3105.0009999999997 2.9988224506378174 -1.2912245851806183 1.7296884695636194 -2.0093194446959437 -1.570813004170553 1.4280264377593994 0.0 -0.17525158822536469 -0.30993059277534485 0.4905402958393097 -0.0 0.0 1 True False
3105.051 2.9987690448760986 -1.3005390030196686 1.7130869070636194 -1.9832102260985316 -1.5707882086383265 1.4280011653900146 0.0 -0.20437806844711304 -0.3522641062736511 0.5578110814094543 -0.0 0.0 1 True False
3105.1009999999997 2.99880051612854 -1.310298816566803 1.6959331671344202 -1.9563666782774867 -1.5708048979388636 1.4280056953430176 0.0 -0.17926958203315735 -0.32167312502861023 0.5024545788764954 -5.146389706142562e-22 0.0 1 True False
3105.151 2.998788356781006 -1.31882198274646 1.6808751265155237 -1.9329139194884242 -1.5708330313311976 1.4280130863189697 0.0 -0.15596847236156464 -0.2770039141178131 0.43936455249786377 -7.817423742928857e-41 0.0 1 True False
3105.201 2.9988014698028564 -1.325916276579239 1.6683929602252405 -1.9130498371519984 -1.5707810560809534 1.4280427694320679 0.0 -0.13073690235614777 -0.23438498377799988 0.38043469190597534 -0.0 0.0 1 True False
3105.2509999999997 2.998767614364624 -1.3318647307208558 1.6577218214618128 -1.896721979180807 -1.5707529226886194 1.4279932975769043 0.0 -0.10766798257827759 -0.18640249967575073 0.2845180332660675 -0.0 0.0 1 True False
3105.301 2.998805046081543 -1.3365351420691987 1.6496356169330042 -1.8837701282896937 -1.5707810560809534 1.4279487133026123 0.0 -0.08269549161195755 -0.1469084918498993 0.22545859217643738 -0.0 0.0 1 True False
3105.3509999999997 2.99880051612854 -1.339886875157692 1.643566910420553 -1.8743859730162562 -1.5707491079913538 1.4279730319976807 0.0 -0.054309140890836716 -0.09848044812679291 0.15397334098815918 -0.0 0.0 1 True False
3105.401 2.998755931854248 -1.342057929640152 1.6397131125079554 -1.8684236011900843 -1.5708087126361292 1.4279730319976807 0.0 -0.03135388344526291 -0.05659526586532593 0.0836416482925415 -0.0 6.899242835808376e-17 1 True False
3105.451 2.998788356781006 -1.342855082159378 1.6382435003863733 -1.865835805932516 -1.5707491079913538 1.428017497062683 0.0 -0.0018876360263675451 -0.010740942321717739 0.012810268439352512 -0.0 1.047996763872263e-35 1 True False
3105.5009999999997 2.998805046081543 -1.3428976398757477 1.6382163206683558 -1.8658763370909632 -1.570784870778219 1.4279520511627197 0.0 2.207997118475191e-09 -5.6128324889774825e-28 -0.00025031829136423767 -0.0 0.0 1 False False
3105.551 2.9987776279449463 -1.3429006797126313 1.6381853262530726 -1.8658801517882289 -1.5707691351519983 1.4280145168304443 0.0 0.0 -0.0016650115139782429 -0.00012561518815346062 -0.0 0.0 1 False False
3105.6009999999997 2.9987971782684326 -1.3429531019977112 1.63810903230776 -1.8658319912352503 -1.5707810560809534 1.4280056953430176 0.0 -0.0011659924639388919 -0.0006506912177428603 -7.942225784063339e-05 -0.0 0.0 1 False False
3105.651 2.9987733364105225 -1.342953161602356 1.6381099859820765 -1.8658844433226527 -1.570784870778219 1.4279921054840088 0.0 -0.00036930537316948175 -0.0003593732544686645 -5.092799710837426e-07 -0.0 0.0 1 False False
3105.701 2.9988136291503906 -1.3429562163404007 1.6380413214312952 -1.86586393932485 -1.5708125273333948 1.4280056953430176 0.0 -0.00019361732120160013 -0.000179859169293195 -7.735975560406332e-26 -0.0 0.0 1 False False
3105.7509999999997 2.9988136291503906 -1.342947394852974 1.6380403677569788 -1.8658400974669398 -1.5707886854754847 1.4279431104660034 0.0 -8.87696078279987e-05 -8.013394835870713e-05 -1.1210387714598537e-44 -0.0 0.0 1 False False
3105.801 2.998792886734009 -1.3429355782321473 1.6380494276629847 -1.865896841088766 -1.5707929770099085 1.4279967546463013 0.0 -5.9632002376019955e-05 -5.544862142414786e-05 -0.0 -0.0 0.0 1 False False
3105.8509999999997 2.998744249343872 -1.3429921877435227 1.6380236784564417 -1.8658558330931605 -1.5708206335650843 1.4280086755752563 0.0 -5.1225659262854606e-05 -1.0743308919309517e-23 -0.0 -0.0 0.0 1 False False
3105.901 2.998744010925293 -1.3429430586150666 1.6380823294269007 -1.8658558330931605 -1.5707810560809534 1.428038477897644 0.0 -3.549537305248297e-14 -0.0 -0.0 -0.0 0.0 1 False False
3105.951 2.998793840408325 -1.342963994746544 1.6380279699908655 -1.8658682308592738 -1.5708006064044397 1.4279890060424805 0.0 0.0 -0.0 -3.195621581836592e-16 -0.0 0.0 1 False False
3106.0009999999997 2.9987571239471436 -1.3429442656091233 1.638057057057516 -1.865847726861471 -1.5707767645465296 1.4280145168304443 0.0 0.0 -0.0 -4.854155708085153e-35 -0.0 0.0 1 False False
3106.051 2.9987971782684326 -1.3429442805102845 1.6380584875689905 -1.86586393932485 -1.5708168188678187 1.4279844760894775 0.0 0.0 -0.0 -0.0 -0.0 0.0 1 False False
3106.1009999999997 2.9987852573394775 -1.3429684352925797 1.638057057057516 -1.8659569225706996 -1.5708048979388636 1.4279773235321045 0.0 0.0 -0.0 -0.0 -0.0 0.0 1 False False
3106.151 2.9987852573394775 -1.3429104399732132 1.6380894819842737 -1.865920206109518 -1.5708406607257288 1.428022027015686 0.0 0.0 -0.0 -0.0 -0.0 0.0 1 False False
3106.201 2.9987971782684326 -1.3429518353990098 1.6380866209613245 -1.8658677540221156 -1.570824925099508 1.4280056953430176 0.0 0.0 -0.0 -0.0 -0.0 6.96154961186558e-21 1 False False
3106.2509999999997 2.9987571239471436 -1.342951850300171 1.6380451361285608 -1.8658763370909632 -1.5707767645465296 1.4280221462249756 0.0 0.0 -0.0 -6.260152552589604e-12 -0.0 1.0574604588349724e-39 1 False False
3106.301 2.9987852573394775 -1.342882053261139 1.63808519044985 -1.8658801517882289 -1.570772949849264 1.4280130863189697 0.0 0.0 -5.449120442775281e-23 -9.509186941654873e-31 -0.0 0.0 1 False False
3106.3509999999997 2.9987809658050537 -1.3429181438735505 1.6380732695208948 -1.86586393932485 -1.5708168188678187 1.4279711246490479 0.0 0.0 -0.0 -0.0 -0.0 0.0 1 False False
3106.401 2.9987809658050537 -1.3429311674884339 1.638068977986471 -1.8658925495543421 -1.5708048979388636 1.4280056953430176 0.0 0.0 -0.0 -0.0 -0.0 0.0 1 False False
3106.451 2.9988136291503906 -1.3429311674884339 1.6381390730487269 -1.8659445248045863 -1.570801083241598 1.4279398918151855 0.0 0.0 -0.0 -0.0 -0.0 0.0 1 True False
3106.5009999999997 2.9988298416137695 -1.3429518353990098 1.638068977986471 -1.8658763370909632 -1.5707805792437952 1.4279922246932983 0.0 -4.1491472169888474e-17 -0.0 -0.0 -0.0 0.0 1 True False
3106.551 2.9988014698028564 -1.3429715943387528 1.6381076017962855 -1.8659078083434046 -1.570801083241598 1.4280086755752563 0.0 2.9844586801885953e-09 -0.0 -0.0 -0.0 0.0 1 True False
3106.6009999999997 2.9988136291503906 -1.3429639798453827 1.6380985418902796 -1.8659116230406703 -1.570772949849264 1.4279729127883911 0.0 0.0 -0.0 -0.0 -0.0 0.0 1 True False
3106.651 2.9988057613372803 -1.3429106187871476 1.638068977986471 -1.865920206109518 -1.5707686583148401 1.4279890060424805 0.0 0.0 -0.0 -0.0 -0.0 0.0 1 True False
3106.701 2.998748302459717 -1.3429268610528489 1.6380823294269007 -1.8658596477904261 -1.5707605520831507 1.4280176162719727 0.0 0.0 -0.0 -0.0 -0.0 0.0 1 True False
3106.7509999999997 2.9987690448760986 -1.3429431033185502 1.6381314436541956 -1.8659402332701625 -1.5708048979388636 1.428010106086731 0.0 0.0 -0.0 -0.0 -0.0 0.0 1 True False
3106.801 2.998833179473877 -1.3429431033185502 1.6380704084979456 -1.86588778118276 -1.5707724730121058 1.428022027015686 0.0 0.0 7.073876973940503e-32 -0.0 -0.0 0.0 1 True False
3106.8509999999997 2.998788595199585 -1.342922495012619 1.638064209614889 -1.865915914575094 -1.570784870778219 1.4279934167861938 9.756127838045359e-05 0.0 0.0 -0.0 -0.0 0.000319303828291595 1 True False
3106.901 2.998809337615967 -1.3429684054902573 1.6380732695208948 -1.8658796749510707 -1.5708048979388636 1.4280086755752563 0.0 0.0 0.0 -0.0 4.5512631913879886e-05 0.0016443959902971983 1 True False
3106.951 2.99878191947937 -1.3428986829570313 1.6381061712848108 -1.8658801517882289 -1.5708168188678187 1.4279934167861938 0.0 0.0 0.0 -0.0 8.650052938897993e-23 1.5927949789329432e-05 1 True False
3107.0009999999997 2.9987614154815674 -1.3429312121919175 1.6380928198443812 -1.86586393932485 -1.5707805792437952 1.4280041456222534 0.0 0.0 0.0 -0.0 1.313997569997381e-41 6.309102928980792e-08 1 True False
3107.051 2.9987971782684326 -1.3429312121919175 1.6380775610553187 -1.8658925495543421 -1.5707724730121058 1.428017497062683 0.0 0.0 0.0 -0.0 0.0 9.58353910720766e-27 1 True False
3107.1009999999997 2.9998230934143066 -1.3429628920606156 1.6381343046771448 -1.8658958874144496 -1.5708168188678187 1.4280250072479248 0.052014876157045364 -0.002144939498975873 0.0032050213776528835 -0.0 0.0 0.0020070134196430445 1 True False
3107.151 3.004033327102661 -1.3433333498290558 1.6384976545916956 -1.8658796749510707 -1.5708087126361292 1.4283190965652466 0.1243370845913887 -0.010182867757976055 0.010947435162961483 -0.0008134611998684704 0.0 0.00930823665112257 1 True False
3107.201 3.0119524002075195 -1.343885363345482 1.6390145460711878 -1.8660627804198207 -1.5708254019366663 1.4288902282714844 0.1906702071428299 -0.012678608298301697 0.01352012250572443 -0.003875650465488434 0.0 0.011911365203559399 1 True False
3107.2509999999997 3.023437738418579 -1.3446126890233536 1.6399439016925257 -1.8662182293333949 -1.570801083241598 1.4295647144317627 0.2569828927516937 -0.016084227710962296 0.020432589575648308 -0.004241453018039465 0.00012299550871830434 0.017208918929100037 1 True False
3107.301 3.038177251815796 -1.345572055583336 1.6410630385028284 -1.8663813076415003 -1.5708168188678187 1.4305776357650757 0.3334251344203949 -0.020985649898648262 0.026276400312781334 -0.005577649921178818 0.00010812575783347711 0.021631469950079918 1 True False
3107.3509999999997 3.0565710067749023 -1.346698374753334 1.6425779501544397 -1.8666392765440882 -1.5707204977618616 1.4318163394927979 0.4009777903556824 -0.0275510773062706 0.03321709856390953 -0.0034229366574436426 9.65660874499008e-05 0.026069533079862595 1 True False
3107.401 3.078299045562744 -1.3481183064034958 1.6443141142474573 -1.8669845066466273 -1.5708335081683558 1.4331660270690918 0.4708247184753418 -0.02922273613512516 0.038940418511629105 -0.006360451225191355 5.520457125385292e-05 0.02933942712843418 1 True False
3107.451 3.1035470962524414 -1.3497809332660218 1.6462772528277796 -1.867427488366598 -1.570796314870016 1.434890866279602 0.5405715107917786 -0.034488365054130554 0.03979799523949623 -0.012013541534543037 5.370163869145017e-09 0.03592108562588692 1 True False
3107.5009999999997 3.132338285446167 -1.3516883266023179 1.648635212575094 -1.867681165734762 -1.570853058491842 1.4367399215698242 0.6077575087547302 -0.03779100626707077 0.04811893031001091 -0.011043201200664043 8.157288797996776e-28 0.03978876397013664 1 True False
3107.551 3.1647984981536865 -1.353864238863327 1.6511920134173792 -1.8681222401061 -1.5707686583148401 1.4388279914855957 0.6792804002761841 -0.0462690144777298 0.05571579560637474 -0.008752893656492233 0.0006442149169743061 0.04659329727292061 1 True False
3107.6009999999997 3.2004904747009277 -1.3562197548202057 1.653891388569967 -1.8685838184752406 -1.5707486311541956 1.4412046670913696 0.7551659345626831 -0.04844985529780388 0.059549298137426376 -0.010732376947999 0.0008341919165104628 0.048111945390701294 1 True False
3107.651 3.239748001098633 -1.3586808753064652 1.6570399443255823 -1.8691207371153773 -1.5708406607257288 1.4437308311462402 0.8167132139205933 -0.05284613370895386 0.06650185585021973 -0.014205455780029297 6.600079359486699e-05 0.051314957439899445 1 True False
3107.701 3.2825775146484375 -1.3614471715739747 1.6604746023761194 -1.86967196087026 -1.570829216633932 1.4464820623397827 0.8893937468528748 -0.0575564019382 0.06791482120752335 -0.01020646933466196 8.738859469303861e-05 0.05907382443547249 1 True False
3107.7509999999997 3.3287312984466553 -1.3645316523364563 1.6641343275653284 -1.8703214130797328 -1.5707886854754847 1.4495019912719727 0.961077094078064 -0.06316079944372177 0.07782191783189774 -0.011654897592961788 -7.34609161695543e-12 0.061568666249513626 1 True False
3107.801 3.3785641193389893 -1.3677790623954316 1.668062988911764 -1.8709966144957484 -1.57074481645693 1.452737808227539 1.0296756029129028 -0.06898128986358643 0.07865715771913528 -0.01439584605395794 -1.1158726190717446e-30 0.07210859656333923 1 True False
3107.8509999999997 3.430769443511963 -1.3712051224759598 1.6721366087542933 -1.8716727695860804 -1.570853058491842 1.456148386001587 1.0421366691589355 -0.06644248217344284 0.08423758298158646 -0.014045944437384605 4.060728315380402e-05 0.07092354446649551 1 True False
3107.901 3.483013153076172 -1.3746472907117386 1.676145378743307 -1.872388025323385 -1.5707686583148401 1.4596413373947144 1.051321029663086 -0.0678899809718132 0.08416621387004852 -0.013599907979369164 4.263023583916947e-05 0.06813708692789078 1 True False
3107.951 3.5354104042053223 -1.378029928808548 1.6804316679583948 -1.873059412042135 -1.570784870778219 1.4630235433578491 1.0460094213485718 -0.06885454803705215 0.08196473866701126 -0.013701178133487701 -0.00013951837900094688 0.06844855844974518 1 True False
3108.0009999999997 3.587878942489624 -1.3814676713994523 1.6844828764544886 -1.873909135858053 -1.5708044211017054 1.4664229154586792 1.0394483804702759 -0.06865113228559494 0.08313772082328796 -0.014084086753427982 -0.00011871175956912339 0.06924711167812347 1 True False
3108.051 3.640178918838501 -1.3848583859256287 1.688685719166891 -1.8744946918883265 -1.570784870778219 1.4698667526245117 1.0512173175811768 -0.06624889373779297 0.08155150711536407 -0.013782992027699947 -6.750549073331058e-05 0.06570897996425629 1 True False
3108.1009999999997 3.692476511001587 -1.3883468520692368 1.6928470770465296 -1.8752433262267054 -1.5708168188678187 1.4732598066329956 1.047739863395691 -0.06975322216749191 0.08498971909284592 -0.010805548168718815 -8.652091878502688e-07 0.06637673079967499 1 True False
3108.151 3.7449533939361572 -1.3917647761157532 1.696963135396139 -1.8759504757323207 -1.570813004170553 1.4767321348190308 1.044103980064392 -0.06882594525814056 0.07894349098205566 -0.014055868610739708 -1.3142545940498497e-25 0.07005123049020767 1 True False
3108.201 3.797212839126587 -1.3951724481633683 1.7010811010943812 -1.8766113720335902 -1.5707805792437952 1.480126976966858 1.051293969154358 -0.06975597143173218 0.07982690632343292 -0.013988008722662926 -1.961817850054744e-44 0.06509269028902054 1 True False
3108.2509999999997 3.8495473861694336 -1.3986811351827164 1.7050493399249476 -1.877333780328268 -1.5707686583148401 1.483542561531067 1.049094557762146 -0.06890294700860977 0.08409107476472855 -0.010932626202702522 -0.0 0.07072479277849197 1 True False
3108.301 3.9019830226898193 -1.402000979786255 1.7092283407794397 -1.8780843220152796 -1.5707686583148401 1.4869672060012817 1.0428290367126465 -0.06788691133260727 0.0806574895977974 -0.014641924761235714 -0.0 0.06804415583610535 1 True False
3108.3509999999997 3.954280376434326 -1.4054278892329712 1.7134183088885706 -1.8787795505919398 -1.5708087126361292 1.490431785583496 1.0492695569992065 -0.06668595224618912 0.08500592410564423 -0.015079399570822716 -0.0 0.06724828481674194 1 True False
3108.401 4.006780624389648 -1.4088120472482224 1.7174208799945276 -1.8793775043883265 -1.5707925001727503 1.4937387704849243 1.0465024709701538 -0.07064954191446304 0.0850251168012619 -0.011242222040891647 -0.0 0.06764043122529984 1 True False
3108.451 4.059144496917725 -1.4122769993594666 1.7216642538653772 -1.8801919422545375 -1.5708087126361292 1.497248649597168 1.0448849201202393 -0.06595442444086075 0.08252895623445511 -0.01486798096448183 -6.176323222462088e-05 0.0692138820886612 1 True False
3108.5009999999997 4.111482620239258 -1.415712521677353 1.7257760206805628 -1.8808900318541468 -1.5707686583148401 1.5006400346755981 1.0503151416778564 -0.07011593878269196 0.08171699941158295 -0.016086047515273094 0.0001279887364944443 0.06232425943017006 1 True False
3108.551 4.163746356964111 -1.419175313120224 1.7300389448748987 -1.8816329441466273 -1.5708168188678187 1.5040433406829834 1.0521471500396729 -0.07046873867511749 0.0778118148446083 -0.012126771733164787 8.567576478184322e-15 0.06750204414129257 1 True False
3108.6009999999997 4.216181755065918 -1.4225344073823472 1.7340667883502405 -1.8823396168150843 -1.5708254019366663 1.5074398517608643 1.0422282218933105 -0.06949419528245926 0.084830142557621 -0.014246834442019463 1.3014170709377134e-33 0.06726967543363571 1 True False
3108.651 4.268453121185303 -1.4259938311627884 1.7380645910846155 -1.8830138645567835 -1.5708168188678187 1.5108424425125122 1.0487552881240845 -0.06595481932163239 0.081537626683712 -0.01699783280491829 0.0 0.0713018923997879 1 True False
3108.701 4.320125102996826 -1.429325894718506 1.7422874609576624 -1.8835770092406214 -1.5707405249225062 1.5142520666122437 1.0021705627441406 -0.06479690968990326 0.08253753930330276 -0.009231111034750938 0.0 0.06676102429628372 1 True False
3108.7509999999997 4.368419170379639 -1.4325013619712372 1.745986286793844 -1.8843666515746058 -1.5707972685443323 1.517425537109375 0.9301083087921143 -0.05974764749407768 0.072962686419487 -0.012829083018004894 0.0 0.058803021907806396 1 True False
3108.801 4.413294792175293 -1.4353885066560288 1.7495382467852991 -1.8849779568114222 -1.5707772413836878 1.5203102827072144 0.8679787516593933 -0.0580190047621727 0.06766878068447113 -0.010418960824608803 0.00023526263248641044 0.0577041432261467 1 True False
3108.8509999999997 4.454627990722656 -1.438203052883484 1.7527974287616175 -1.8855210743346156 -1.5707805792437952 1.5230249166488647 0.7911676168441772 -0.05144382268190384 0.06287048757076263 -0.011388507671654224 -3.7016639753417735e-11 0.05220741778612137 1 True False
3108.901 4.492562294006348 -1.4405824852040787 1.7558472792254847 -1.8859788380064906 -1.5707967917071741 1.5255361795425415 0.7189502716064453 -0.04548735171556473 0.05765082687139511 -0.008202110417187214 -5.622834851282641e-30 0.04904099553823471 1 True False
3108.951 4.526895523071289 -1.4428627502969285 1.758521858845846 -1.8865109882750453 -1.570829216633932 1.5277758836746216 0.6505082249641418 -0.04099038243293762 0.04833650961518288 -0.009525677189230919 -5.8964356867363676e-05 0.04142601042985916 1 True False
3109.0009999999997 4.557806968688965 -1.444862113600113 1.7610190550433558 -1.886885782281393 -1.5708087126361292 1.5298010110855103 0.5790895223617554 -0.03819864243268967 0.045885030180215836 -0.008855732157826424 -1.3372668081368765e-21 0.03895528241991997 1 True False
3109.051 4.585043430328369 -1.4465885695866127 1.763139549885885 -1.8872481785216273 -1.5707843939410608 1.5316001176834106 0.5184951424598694 -0.03345614671707153 0.03882311284542084 -0.006797058042138815 -2.0313082409006116e-40 0.032193634659051895 1 True False
3109.1009999999997 4.608819484710693 -1.4481919941357155 1.76491624513735 -1.8876563511290492 -1.5708368460284632 1.533111572265625 0.44301673769950867 -0.03008393757045269 0.03520270064473152 -0.006889619864523411 -0.00048284645890817046 0.02907060831785202 1 True False
3109.151 4.6293206214904785 -1.4495535653880616 1.7665331999408167 -1.8878795109190882 -1.570813004170553 1.5344822406768799 0.3695434629917145 -0.023641221225261688 0.028195731341838837 -0.00859601330012083 1.1009991794708185e-05 0.025026589632034302 1 True False
3109.201 4.6464056968688965 -1.450668641631939 1.7679603735553187 -1.8880750141539515 -1.570801083241598 1.5355377197265625 0.3032694458961487 -0.020083991810679436 0.02401212602853775 -0.003759256098419428 1.6724208150245063e-24 0.020774707198143005 1 True False
3109.2509999999997 4.6598076820373535 -1.451528587644436 1.7690389792071741 -1.888242860833639 -1.5707524458514612 1.536428451538086 0.23303844034671783 -0.016225304454565048 0.018485238775610924 -0.002369011752307415 -3.3967618946917355e-05 0.015817953273653984 1 True False
3109.301 4.669764995574951 -1.4521715876511117 1.7697613875018519 -1.8883706531920375 -1.5708373228656214 1.5370917320251465 0.1654321700334549 -0.010650074109435081 0.014101821929216385 -0.0026529368478804827 -4.134772246811025e-10 0.011938723735511303 1 True False
3109.3509999999997 4.676135063171387 -1.4525304672173043 1.7702167669879358 -1.8885227642455042 -1.57074481645693 1.537474513053894 0.09387505054473877 -0.00446857837960124 0.005425356328487396 -0.002137782284989953 -6.28072717883899e-29 0.0043405890464782715 1 True False
3109.401 4.679088115692139 -1.4527154353312035 1.7704041639911097 -1.8884979687132777 -1.5707925001727503 1.5376825332641602 0.025296775624155998 -0.0018718710634857416 0.0017992438515648246 -0.0004317524435464293 -0.0 0.0016805713530629873 1 True False
3109.451 4.679215431213379 -1.4525469479015847 1.7710369269000452 -1.889559885064596 -1.5708335081683558 1.5376648902893066 -0.00027133963885717094 0.013261697255074978 0.027948232367634773 -0.031484298408031464 -0.0 0.0011646869825199246 1 True False
3109.5009999999997 4.679232120513916 -1.4512192171863099 1.7736042181598108 -1.8932973347105921 -1.5708616415606897 1.5377261638641357 0.00025898840976879 0.04625783488154411 0.06960797309875488 -0.10920880734920502 -0.0 0.0003739540698006749 1 True False
3109.551 4.679258823394775 -1.4482807901552697 1.7783220450030726 -1.9007259807982386 -1.570796314870016 1.5376975536346436 0.0012953287223353982 0.0712200179696083 0.11441980302333832 -0.1742253303527832 -0.0 0.00018388980242889374 1 True False
3109.6009999999997 4.679271221160889 -1.4441217941096802 1.7851861158954065 -1.9118315182127894 -1.570796314870016 1.5377181768417358 0.0016314354725182056 0.09800998121500015 0.1597585827112198 -0.2540082335472107 -0.0 0.00011222539615118876 1 True False
3109.651 4.679327964782715 -1.4385850143483658 1.7942608038531702 -1.926328798333639 -1.5708449522601526 1.5377094745635986 0.00027886280440725386 0.11861628293991089 0.20032595098018646 -0.3293074667453766 -0.0 5.5818716646172106e-05 1 True False
3109.701 4.6792778968811035 -1.4318189483932038 1.8053258101092737 -1.944380899468893 -1.5708449522601526 1.5377631187438965 9.146633237833157e-05 0.14754043519496918 0.24463705718517303 -0.39062580466270447 -0.0 1.092315474182648e-10 1 True False
3109.7509999999997 4.679306507110596 -1.423769311313965 1.8188985029803675 -1.9658242664732875 -1.5707805792437952 1.5377050638198853 6.0648522776318714e-05 0.1707712560892105 0.28894633054733276 -0.4649007022380829 -0.0 1.6592291217110912e-29 1 True False
3109.801 4.679344177246094 -1.414336161022522 1.8345182577716272 -1.9908110104002894 -1.5708254019366663 1.537696361541748 4.0239847786776643e-22 0.20214669406414032 0.3287593722343445 -0.5367627143859863 3.434520739513665e-17 0.0 1 True False
3109.8509999999997 4.679240703582764 -1.403784142141678 1.8519561926471155 -2.018808504144186 -1.5707486311541956 1.5377094745635986 0.0 0.21065029501914978 0.3576820194721222 -0.5351325869560242 5.794745811726898e-05 0.0 1 True False
3109.901 4.679315090179443 -1.3941760522178193 1.8680208365069788 -2.0449940166869105 -1.570784870778219 1.537733554840088 0.0 0.18173813819885254 0.30151689052581787 -0.4844423830509186 -1.6880128711292732e-19 0.0 1 True False
3109.951 4.6793107986450195 -1.3856128615191956 1.8822696844684046 -2.0675274334349574 -1.570801083241598 1.5377041101455688 0.0 0.15569590032100677 0.25580817461013794 -0.4101771414279938 -2.564096490540936e-38 0.0 1 True False
3110.0009999999997 4.679271221160889 -1.378322259788849 1.8940919081317347 -2.086519857446188 -1.5708654562579554 1.5377541780471802 0.0 0.12757109105587006 0.21717800199985504 -0.35535359382629395 -0.0 0.0 1 True False
3110.051 4.6793036460876465 -1.3725182575038453 1.9037674109088343 -2.1020428142943324 -1.570813004170553 1.5377050638198853 0.0 0.10623655468225479 0.17577765882015228 -0.26258763670921326 -0.0 0.0 1 True False
3110.1009999999997 4.679323196411133 -1.3680289846709748 1.911309067402975 -2.1142126522459925 -1.570801083241598 1.5376975536346436 0.0 0.07921513170003891 0.12991884350776672 -0.2014106959104538 -0.0 0.0 1 True False
3110.151 4.679286003112793 -1.364844710831978 1.9168713728534144 -2.12265743831777 -1.5708211104022425 1.537729263305664 0.0 0.05129043757915497 0.08283112943172455 -0.14084769785404205 -0.0 0.0 1 True False
3110.201 4.679347038269043 -1.362926946287491 1.9199712912188929 -2.1278721294798792 -1.5707724730121058 1.5377260446548462 0.0 0.02716524340212345 0.04460938274860382 -0.06466580927371979 -0.0 -1.2747697155646165e-06 1 True False
3110.2509999999997 4.679339408874512 -1.3623432231000443 1.9209921995746058 -2.1294037304320277 -1.5707767645465296 1.537742257118225 0.0 -0.001574553782120347 -0.003365443553775549 0.002343562664464116 -0.0 -1.9363781605578553e-25 1 True False
3110.301 4.679295063018799 -1.3623150450042267 1.921044651662008 -2.1295048199095667 -1.5707686583148401 1.5376267433166504 0.0 0.0001438521867385134 -1.7838574401977006e-30 0.00010877943714149296 -0.0 -2.942726775082116e-44 1 True False
3110.3509999999997 4.679290771484375 -1.3622573477080842 1.920971695576803 -2.1294566593565882 -1.5707767645465296 1.5377509593963623 0.0 0.00014121983258519322 -0.0 -5.531002170755528e-05 -0.0 -1.3265593224787153e-05 1 True False
3110.401 4.679372310638428 -1.3623161923936387 1.920950714741842 -2.129484315911764 -1.5707925001727503 1.5377050638198853 0.0 0.0005440640379674733 5.9391317336121574e-05 -0.00022725317103322595 -0.0 -1.2446784596921445e-13 1 True False
3110.451 4.6793646812438965 -1.3622180831483384 1.9209635893451136 -2.129540582696432 -1.570801083241598 1.5377042293548584 3.991943968851934e-14 0.0002426098071737215 6.386652239598334e-05 -0.0012884041061624885 -0.0 -1.8906698158399705e-32 1 True False
3110.5009999999997 4.679335117340088 -1.3622584801963349 1.920938793812887 -2.1295319996275843 -1.5707891623126429 1.537717342376709 0.0 0.0002613369724713266 9.998273162636906e-05 -0.00042742217192426324 -0.0 -0.0 1 True False
3110.551 4.679327487945557 -1.3622866433909913 1.920983616505758 -2.129483839074606 -1.570801083241598 1.5376639366149902 0.0 0.0001357268338324502 0.00010309792560292408 -0.000177308582351543 -0.0 -0.0 1 True False
3110.7509999999997 4.679315090179443 -1.3622213316014786 1.921016041432516 -2.129523893395895 -1.57074481645693 1.5377007722854614 0.0 0.0 1.5278122849082455e-21 -6.058050080716655e-39 -0.0 -0.0 1 True False
3110.801 4.679291248321533 -1.3622595977834244 1.9209955374347132 -2.1295486889281214 -1.5707524458514612 1.537717342376709 0.0 0.0 0.0 -0.0 -0.0 -0.0 1 True False
3110.8509999999997 4.679352283477783 -1.3623313021710892 1.921027962361471 -2.1296283207335414 -1.5708373228656214 1.5377988815307617 0.0 0.0 -8.301067850879917e-07 -0.006339671555906534 -0.0 -0.0 1 True False
3110.901 4.679344654083252 -1.3623082798770447 1.9209354559527796 -2.129582544366354 -1.5707805792437952 1.5377094745635986 0.0 6.334060890367255e-05 2.552540138530915e-32 -9.15230339160189e-05 -0.0 -0.00012118153244955465 1 True False
3110.951 4.679315090179443 -1.3622660052827378 1.920926872883932 -2.129604002038473 -1.57074481645693 1.5377007722854614 0.0 4.588353476719931e-05 5.640391100314446e-05 -2.014547135331668e-05 -0.0 -5.709630568162538e-05 1 True True
3111.0009999999997 4.679327487945557 -1.362282083635666 1.9209936300860804 -2.129531522790426 -1.57074481645693 1.5377216339111328 0.0 -0.007653501816093922 -0.007028126623481512 0.013057257980108261 -0.0 -3.734927668119781e-05 1 True True
3111.051 4.6793317794799805 -1.3628952515176316 1.9198883215533655 -2.1271468601622523 -1.570784870778219 1.5377670526504517 0.0 -0.027920562773942947 -0.051075417548418045 0.06877381354570389 -0.0 -2.1453172571739287e-10 1 True True
3111.1009999999997 4.679323196411133 -1.365201250915863 1.9160531202899378 -2.121383329431051 -1.5707767645465296 1.537746548652649 0.0 -0.057539474219083786 -0.09173968434333801 0.1579308956861496 -0.0 -3.258741776230918e-29 1 True True
3111.151 4.6793317794799805 -1.3687047523311158 1.9100115934955042 -2.1121651134886683 -1.5708006064044397 1.5377205610275269 0.0 -0.08589519560337067 -0.13837625086307526 0.20814502239227295 -0.0 -0.0 1 True True
3111.201 4.6793107986450195 -1.3735048037818451 1.9021151701556605 -2.0993648968138636 -1.570824925099508 1.537758469581604 0.0 -0.10690508037805557 -0.1832502782344818 0.2924836277961731 -0.0 -5.9317167221111305e-18 1 True True
3111.2509999999997 4.679266929626465 -1.3797186327031632 1.8920868078814905 -2.08317293743276 -1.5708125273333948 1.5376737117767334 0.0 -0.13676439225673676 -0.22443076968193054 0.3514448404312134 -0.0 -9.010291728423475e-37 1 True True
3111.301 4.6792755126953125 -1.3870839339545746 1.8796175161944788 -2.063378473321432 -1.5707810560809534 1.5377540588378906 0.0 -0.16445152461528778 -0.2680554687976837 0.4278956353664398 -0.0 -0.0 1 True True
3111.3509999999997 4.6792826652526855 -1.3958313030055542 1.8651717344867151 -2.0401421986021937 -1.57074481645693 1.537684440612793 0.0 -0.18801037967205048 -0.30592235922813416 0.48784470558166504 -0.0 -0.0 1 True True
3111.401 4.679286956787109 -1.405885712509491 1.8484118620501917 -2.013353487054342 -1.5707319418536585 1.5377304553985596 0.0 -0.21112026274204254 -0.35422131419181824 0.5584031343460083 -0.0 -0.0 1 True True
3111.451 4.679299354553223 -1.4162548047355195 1.8312643210040491 -1.985713621179098 -1.5707810560809534 1.537717342376709 0.0 -0.19152767956256866 -0.3201303780078888 0.5172013640403748 -0.0 -0.0 1 True True
3111.5009999999997 4.679254055023193 -1.4253783237985154 1.8160041014300745 -1.9615417919554652 -1.5707405249225062 1.5377137660980225 0.0 -0.17480021715164185 -0.2852649390697479 0.4570314884185791 -0.0 -0.0 1 True True
3111.551 4.679299354553223 -1.433203638797142 1.8031566778766077 -1.9405580959715785 -1.5707529226886194 1.5377216339111328 -1.401298464324817e-45 -0.14223706722259521 -0.23218750953674316 0.38989734649658203 -0.0 -0.0 1 True True
3111.6009999999997 4.6793107986450195 -1.4397598069957276 1.7923501173602503 -1.923267503777975 -1.5707767645465296 1.5377260446548462 0.0 -0.11468148976564407 -0.19457240402698517 0.30917888879776 -0.0 -0.0 1 True True
3111.651 4.679274082183838 -1.4449889075807114 1.7836125532733362 -1.9096228084959925 -1.5707886854754847 1.5377050638198853 0.0 -0.09009914845228195 -0.14732763171195984 0.24177496135234833 -0.0 -0.0 1 True True
3111.701 4.679323196411133 -1.4487434116056939 1.7772262732135218 -1.8990093670287074 -1.5707929770099085 1.5377497673034668 0.0 -0.06427144259214401 -0.10681484639644623 0.1710536628961563 -0.0 0.0002723748912103474 1 True True
3111.7509999999997 4.6792826652526855 -1.451352746491768 1.7729008833514612 -1.8921448192992152 -1.570829216633932 1.5377137660980225 0.0 -0.039069704711437225 -0.06448287516832352 0.09523342549800873 -0.0 8.880561250847193e-23 1 True True
3111.801 4.6793107986450195 -1.452647053902485 1.7707832495318812 -1.8889605007567347 -1.5707929770099085 1.5377018451690674 0.0 -0.01285119354724884 -0.02025437355041504 0.03134471923112869 -0.0 1.348889901759069e-41 1 True True
3111.8509999999997 4.6788554191589355 -1.4527183708599587 1.770663086568014 -1.888505598107809 -1.5707886854754847 1.5372494459152222 -0.037231575697660446 -1.2880700594517326e-20 2.985385918509442e-13 -7.869513501645997e-05 -0.0 -0.031300317496061325 1 True True
3111.901 4.675347805023193 -1.4528465133956452 1.7707784811602991 -1.8885542354979457 -1.5708048979388636 1.5336365699768066 -0.10672041773796082 -0.005137497093528509 0.002230224432423711 0.0009900169679895043 -0.0 -0.1048460304737091 1 True True
3111.951 4.668023109436035 -1.4532104295543213 1.7709181944476526 -1.8885776005186976 -1.5707405249225062 1.5265215635299683 -0.17379245162010193 -0.007581205107271671 0.007783530745655298 0.00020088464953005314 -0.0 -0.17437854409217834 1 True True
3112.0009999999997 4.657538890838623 -1.4536077466658135 1.7712462584124964 -1.8885861835875453 -1.5707491079913538 1.5159872770309448 -0.2468736469745636 -0.008563002571463585 0.010742517188191414 1.7146836398751475e-05 -0.0 -0.24339331686496735 1 True True
3112.051 4.643277168273926 -1.4541172918728371 1.7718303839312952 -1.8886100254454554 -1.570784870778219 1.501798391342163 -0.31125274300575256 -0.009813693352043629 0.010938775725662708 -0.0007736437837593257 -5.706099182134494e-05 -0.31739792227745056 1 True True
3112.1009999999997 4.625827312469482 -1.454568275516369 1.7724488417254847 -1.888625284234518 -1.57082444826235 1.4841718673706055 -0.38992932438850403 -0.012445406056940556 0.014393409714102745 -0.0026762732304632664 -5.091962975711795e-07 -0.3862212598323822 1 True True
3112.151 4.604574680328369 -1.45529659212146 1.7732580343829554 -1.8887859783568324 -1.5708006064044397 1.4631383419036865 -0.45218348503112793 -0.01550972368568182 0.017110398039221764 -0.0019642210099846125 -7.734704138494245e-26 -0.45244908332824707 1 True True
3112.201 4.580053806304932 -1.4561253947070618 1.7741807142840784 -1.8888856373228968 -1.5708048979388636 1.4385608434677124 -0.5223513841629028 -0.016760408878326416 0.019826281815767288 -0.0028351566288620234 -2.381599733780604e-05 -0.5282495617866516 1 True True
3112.2509999999997 4.552231788635254 -1.4570996177247544 1.7753194014178675 -1.8890091381468714 -1.5707810560809534 1.410588264465332 -0.5984201431274414 -0.01995890960097313 0.022518618032336235 -0.0021095299161970615 -1.1693427259470979e-12 -0.5978763103485107 1 True True
3112.301 4.520710468292236 -1.458163970415928 1.7765072027789515 -1.8890649280943812 -1.5707772413836878 1.379046082496643 -0.6629583239555359 -0.023999013006687164 0.02669716812670231 -0.0010807663202285767 0.0008918909588828683 -0.6668152809143066 1 True True
3112.3509999999997 4.485642433166504 -1.459386796956398 1.7777202765094202 -1.8892690143980921 -1.5707371870623987 1.3438899517059326 -0.7272875308990479 -0.027082400396466255 0.02720172330737114 -0.0010275234235450625 0.001368658966384828 -0.7332416772842407 1 True True
3112.401 4.447123050689697 -1.460569405262806 1.779191795979635 -1.8893286190428675 -1.5707686583148401 1.305385708808899 -0.7985731363296509 -0.02826990932226181 0.03130554407835007 -0.0013931624125689268 0.0008770202402956784 -0.8012296557426453 1 True True
3112.451 4.405009746551514 -1.4619421747377892 1.7806718985186976 -1.8895441494383753 -1.5708168188678187 1.2634762525558472 -0.8754968047142029 -0.028017682954669 0.03451339900493622 -0.0013863519998267293 5.079229231341742e-05 -0.869883120059967 1 True True
3112.5009999999997 4.359550476074219 -1.4635275614312668 1.7824261824237269 -1.8896752796568812 -1.570756737385885 1.2178943157196045 -0.9401816129684448 -0.03266958147287369 0.03589216247200966 -0.0013554553734138608 -1.527271365375782e-06 -0.9420589208602905 1 True True
3112.551 4.310515403747559 -1.4651705485633393 1.7842281500445765 -1.8898669681944789 -1.570784870778219 1.1689534187316895 -1.01703941822052 -0.03437414392828941 0.03517549857497215 -0.0034136439207941294 7.576333180574882e-17 -1.0169349908828735 1 True True
3112.6009999999997 4.258459568023682 -1.4668715682676812 1.7861407438861292 -1.8900066814818324 -1.570857350026266 1.1169041395187378 -1.0443289279937744 -0.03411315754055977 0.03687054663896561 -0.0011709630489349365 2.2824285864087024e-12 -1.0491540431976318 1 True True
3112.651 4.206157684326172 -1.4686400455287476 1.7880948225604456 -1.8902346096434535 -1.5708048979388636 1.0646027326583862 -1.0489592552185059 -0.03570465371012688 0.038992028683423996 -0.003686892567202449 3.4670138528632823e-31 -1.0557719469070435 1 True True
3112.701 4.153796195983887 -1.4703949850848694 1.7901113669024866 -1.89044251064443 -1.570853058491842 1.0122077465057373 -1.051570177078247 -0.032738495618104935 0.03800852969288826 -0.0035776773001998663 0.0001328744547208771 -1.0435214042663574 1 True True
3112.7509999999997 4.101330757141113 -1.472148360019066 1.7919490973102015 -1.8905979595580042 -1.5708254019366663 0.9597920179367065 -1.044013500213623 -0.03439116105437279 0.03722883388400078 -0.00524902855977416 3.696351344097801e-23 -1.0476346015930176 1 True True
3112.801 4.049112796783447 -1.4739305090955277 1.7938903013812464 -1.890789648095602 -1.5708087126361292 0.9075199365615845 -1.0490071773529053 -0.03516659140586853 0.04035874083638191 -0.003842680947855115 -3.11941422609547e-17 -1.045986294746399 1 True True
3112.8509999999997 3.9967873096466064 -1.4756657865694542 1.795863453541891 -1.8910366497435511 -1.5708006064044397 0.8550693392753601 -1.04917573928833 -0.03522124141454697 0.03836752101778984 -0.004544881172478199 0.00025308900512754917 -1.0509532690048218 1 True True
3112.901 3.9443886280059814 -1.4774269622615357 1.7977545897113245 -1.891188760797018 -1.570772949849264 0.8026675581932068 -1.0464732646942139 -0.03349118307232857 0.03725824132561684 -0.004838789813220501 -2.34373018718651e-19 -1.046806812286377 1 True True
3112.951 3.8920555114746094 -1.4791009438088913 1.799680534993307 -1.8913279972472132 -1.5707972685443323 0.7504314184188843 -1.046733021736145 -0.036391936242580414 0.039356332272291183 -0.0022685774601995945 6.644723907811567e-05 -1.0501916408538818 1 True True
3113.0009999999997 3.839601516723633 -1.480877087717392 1.8016284147845667 -1.8915277920165003 -1.570836369191305 0.6980440020561218 -1.049813151359558 -0.03420863673090935 0.04067486524581909 -0.004031309392303228 8.683755731908605e-05 -1.044296383857727 1 True True
3113.051 3.7872250080108643 -1.4826561969569703 1.8036158720599573 -1.8917552433409632 -1.5707891623126429 0.645616888999939 -1.044663667678833 -0.03415440022945404 0.03806855529546738 -0.005217005033046007 2.0276508336941612e-12 -1.047653079032898 1 True True
3113.1009999999997 3.734853744506836 -1.4843782645514985 1.8055360952960413 -1.8919712505736292 -1.5707605520831507 0.593300998210907 -1.043860912322998 -0.037287283688783646 0.03654201328754425 -0.0037148455157876015 3.0016156227219426e-09 -1.0387831926345825 1 True True
3113.151 3.682591199874878 -1.4860658210567017 1.8074615637408655 -1.8921143017210902 -1.570813004170553 0.5409787893295288 -1.0525635480880737 -0.03443931043148041 0.040952324867248535 -0.0048525151796638966 4.559460031851953e-28 -1.0473484992980957 1 True True
3113.201 3.6302435398101807 -1.4879225206426163 1.8093884626971644 -1.8923422298827113 -1.570813004170553 0.4886314272880554 -1.0474343299865723 -0.03564661368727684 0.039516326040029526 -0.00446639908477664 1.218942481673313e-13 -1.050016164779663 1 True True
3113.2509999999997 3.5777957439422607 -1.4896042060903092 1.811380688344137 -1.8924738369383753 -1.5708211104022425 0.4362542927265167 -1.0482079982757568 -0.03833835944533348 0.04078171029686928 -0.003518755780532956 1.8515759594042921e-32 -1.0488816499710083 1 True True
3113.301 3.525524854660034 -1.4914389711669465 1.8133099714862269 -1.8926969967284144 -1.5707925001727503 0.3838525712490082 -1.0538774728775024 -0.034505028277635574 0.03882412984967232 -0.003206313820555806 0.0 -1.0440104007720947 1 True True
3113.3509999999997 3.4731032848358154 -1.4931232941201706 1.815244499837057 -1.8928729496397914 -1.5708254019366663 0.3315398693084717 -1.0460467338562012 -0.03567374870181084 0.03710869699716568 -0.004597035702317953 0.0 -1.0511486530303955 1 True True
3113.401 3.4207582473754883 -1.4949668285301705 1.817232910786764 -1.893047948876852 -1.5707605520831507 0.2791476845741272 -1.0440915822982788 -0.034237124025821686 0.03989817202091217 -0.0032390381675213575 0.0 -1.0446407794952393 1 True True
3113.451 3.3683249950408936 -1.49661090344701 1.8191617170916956 -1.8932157955565394 -1.5707925001727503 0.22667591273784637 -1.0466736555099487 -0.03495689481496811 0.0368296317756176 -0.004457400180399418 0.0 -1.047342300415039 1 True True
3113.5009999999997 3.3181235790252686 -1.4983044278672715 1.8210538069354456 -1.8934360943236292 -1.570829216633932 0.1765168011188507 -0.9703354835510254 -0.03417796641588211 0.03510979935526848 -0.002373942406848073 0.0 -0.9787635207176208 1 True True
3113.551 3.271267890930176 -1.4999198478511353 1.822822395955221 -1.8936034641661585 -1.5708325544940394 0.12962470948696136 -0.9054201245307922 -0.030546924099326134 0.03217706084251404 -0.004602924454957247 7.864146027714014e-05 -0.9046682715415955 1 True True
3113.6009999999997 3.228001832962036 -1.5013633009842415 1.824435059224264 -1.893743177453512 -1.570772949849264 0.08637791872024536 -0.8294199109077454 -0.027548378333449364 0.029475372284650803 -0.0024097429122775793 0.0017024676781147718 -0.8363122344017029 1 True True
3113.651 3.188035488128662 -1.502680854206421 1.825822655354635 -1.8938666782774867 -1.570756737385885 0.04645635187625885 -0.7610556483268738 -0.02488691546022892 0.026251837611198425 -0.003291867207735777 -4.1016106067104374e-09 -0.7678598165512085 1 True True
3113.701 3.151684522628784 -1.5039246094277878 1.8270776907550257 -1.8940497837462367 -1.5707886854754847 0.010058161802589893 -0.6935923099517822 -0.022092875093221664 0.026433950290083885 -0.005358245223760605 -6.230355444108514e-28 -0.6918900012969971 1 True True
3113.7509999999997 3.1188220977783203 -1.5049974632314225 1.8283761183368128 -1.8941503963866175 -1.5708091894732874 -0.022767368947164357 -0.6273151636123657 -0.02051507867872715 0.024028204381465912 -0.0032164843287318945 5.642365914770853e-12 -0.624982476234436 1 True True
3113.801 3.08943772315979 -1.5060032916120072 1.8294723669635218 -1.8942176304259242 -1.5708335081683558 -0.05216581026186162 -0.5544793605804443 -0.018618838861584663 0.02129649557173252 -0.0033919515553861856 1.1259768291360661e-11 -0.5538985729217529 1 True True
3113.8509999999997 3.0634753704071045 -1.5068097052029152 1.8304432074176233 -1.8943702183165492 -1.5708325544940394 -0.07810479799379522 -0.4828649163246155 -0.015759382396936417 0.018775006756186485 -0.0017625016625970602 -0.00078498077346012 -0.4850800335407257 1 True True
3113.901 3.041067361831665 -1.5075891700438042 1.8312104384051722 -1.8944174251952113 -1.5707886854754847 -0.10044223466982061 -0.41532137989997864 -0.012991436757147312 0.014192727394402027 -0.002334747463464737 -0.001067956443876028 -0.4195001423358917 1 True True
3113.951 3.022257089614868 -1.508251154129841 1.8320005575763147 -1.8944975338377894 -1.570784870778219 -0.11931020418276006 -0.3476180136203766 -0.011017844080924988 0.013570030219852924 -0.0021480408031493425 6.668818969046697e-05 -0.34203195571899414 1 True True
3114.0009999999997 3.0068211555480957 -1.5087870259634037 1.8325274626361292 -1.894585748712057 -1.5708335081683558 -0.13473016420473272 -0.2727549374103546 -0.008948911912739277 0.008122202008962631 -0.0018167432863265276 8.311047222399591e-22 -0.27544137835502625 1 True True
3114.051 2.994915246963501 -1.5091214937022706 1.8329017798053187 -1.8945447407164515 -1.5707767645465296 -0.14671737352480108 -0.20464381575584412 -0.006326457019895315 0.007056871894747019 -0.0006249455618672073 1.262443799494871e-40 -0.20094342529773712 1 True True
3114.1009999999997 2.9864249229431152 -1.509366826420166 1.833170239125387 -1.89459290126943 -1.5707767645465296 -0.15511829057802373 -0.13515789806842804 -0.004368786234408617 0.004411769565194845 -0.000506484997458756 0.0 -0.1346488744020462 1 True True
3114.151 2.981473445892334 -1.509471659814455 1.8334501425372522 -1.894637247125143 -1.5708168188678187 -0.16003591219057256 -0.0639803409576416 -0.002713683294132352 0.0028374893590807915 -0.00043014451512135565 0.0 -0.0672970563173294 1 True True
3114.201 2.9801018238067627 -1.509629563694336 1.8334711233722132 -1.894632478753561 -1.5707805792437952 -0.16157132783998662 0.007885942235589027 -5.853526454302482e-05 0.002119076671078801 -0.00030950293876230717 0.0 0.009228426963090897 1 True True
3114.2509999999997 2.980112075805664 -1.5090575863472004 1.8349011580096644 -1.8967896900572718 -1.5707967917071741 -0.1615083853351038 -0.0008317905594594777 0.026081325486302376 0.04457247257232666 -0.06351074576377869 4.70748027225909e-08 -0.00021639990154653788 1 True True
3114.301 2.980071783065796 -1.5069341597012063 1.8382781187640589 -1.9022118053831996 -1.5707772413836878 -0.16152745882143194 -0.0006531190010719001 0.05922942981123924 0.08934781700372696 -0.14659512042999268 7.150675897694527e-27 -0.0006626956746913493 1 True True
3114.3509999999997 2.9800329208374023 -1.5034792882255097 1.8437679449664515 -1.9113341770567835 -1.5707805792437952 -0.16150218645204717 -0.0007052109576761723 0.0826965942978859 0.1359778642654419 -0.21937625110149384 -0.0001201114064315334 -0.0002198680303990841 1 True True
3114.401 2.9800612926483154 -1.4985968184522171 1.8516438643084925 -1.923669000665182 -1.570784870778219 -0.16157371202577764 -0.00043977220775559545 0.10710947215557098 0.17832811176776886 -0.2944057881832123 -0.0001451494317734614 -0.00013832192053087056 1 True True
3114.451 2.9800612926483154 -1.4924924832633515 1.8616011778460901 -1.9398027859129847 -1.5708087126361292 -0.16151839891542608 -0.00018074303807225078 0.13349297642707825 0.21634314954280853 -0.3581584393978119 -9.64165446930565e-05 -8.565808821003884e-05 1 True True
3114.5009999999997 2.9799954891204834 -1.485064410870411 1.8735488096820276 -1.9592038593687953 -1.570768181477682 -0.16151839891542608 -8.111100032692775e-05 0.1634124368429184 0.2635403573513031 -0.4276379942893982 -0.00020049051090609282 -5.803755993838422e-05 1 True True
