Andreas691667/Digital_Twin_UR/src/controller_monitor/robot_output/case1_2miss_shift_robot_output.csv
timestamp actual_q_0 actual_q_1 actual_q_2 actual_q_3 actual_q_4 actual_q_5 actual_qd_0 actual_qd_1 actual_qd_2 actual_qd_3 actual_qd_4 actual_qd_5 safety_status output_bit_register_65 output_bit_register_66
3232.205 3.7121198177337646 -0.825425998573639 0.8429802099810999 -1.588320871392721 -1.5708449522601526 2.141284227371216 0.0 0.0 0.0 -0.0 0.0 -0.0 1 False False
3232.2549999999997 3.7120537757873535 -0.8254869741252442 0.8430054823504847 -1.5882731876769007 -1.5708487669574183 2.141263246536255 0.0 0.0 0.0 -0.0 0.0 -0.0 1 False False
3232.305 3.7120699882507324 -0.8254706424525757 0.8429258505450647 -1.5883251629271449 -1.5708091894732874 2.141235113143921 0.0 0.0 0.0 -0.0 0.0 -0.0 1 False False
3232.355 3.712118625640869 -0.8254556220820923 0.842971150075094 -1.5882374248900355 -1.5708487669574183 2.141254186630249 0.0 0.0 0.0 -0.0 0.0 -0.0 1 False False
3232.4049999999997 3.7120211124420166 -0.8254869741252442 0.8429563681231897 -1.5882607899107875 -1.570829216633932 2.1412765979766846 0.0 0.0 0.0 -0.0 0.0 -0.0 1 False False
3232.455 3.7121198177337646 -0.8254468005946656 0.8429563681231897 -1.5882731876769007 -1.5707686583148401 2.1413004398345947 0.0 0.0 0.0 -0.0 0.0 -0.0 1 False False
3232.5049999999997 3.712040662765503 -0.8254497212222596 0.8429630438434046 -1.5882774792113246 -1.570801083241598 2.14127516746521 0.0 0.0 0.0 -0.0 0.0 -0.0 1 False False
3232.555 3.7120656967163086 -0.8255039614490052 0.842992130910055 -1.588269372979635 -1.570784870778219 2.141267776489258 0.0 0.0 0.0 -0.0 0.0 -0.0 1 False False
3232.605 3.7120862007141113 -0.825495795612671 0.8430293242083948 -1.5882889233031214 -1.5707767645465296 2.1412765979766846 0.0 0.0 0.0 -0.0 0.0 -0.0 1 False False
3232.6549999999997 3.712082862854004 -0.825463132267334 0.8429802099810999 -1.5883094273009242 -1.5707648436175745 2.141291618347168 7.442963909406602e-30 0.0 0.0 -0.0 0.0 -0.0 1 False False
3232.705 3.712082862854004 -0.8254794043353577 0.8429845015155237 -1.5882774792113246 -1.5708416144000452 2.141230583190918 0.0 0.0 0.0 -0.0 0.0 -0.0 1 False False
3232.7549999999997 3.7120699882507324 -0.8255039614490052 0.8429587523089808 -1.5883013210692347 -1.5707967917071741 2.141279697418213 0.0 0.0 0.0 -0.0 0.0 -0.0 1 False False
3232.805 3.712151527404785 -0.8255127233317872 0.8429892698871058 -1.5882607899107875 -1.5707891623126429 2.1413087844848633 0.0 0.0 0.0 -0.0 0.0 -0.0 1 False False
3232.855 3.7120819091796875 -0.8255216044238587 0.8429978529559534 -1.5882650814452113 -1.570801083241598 2.141284227371216 0.0 0.0 0.0 -0.0 0.0 -0.0 1 False False
3232.9049999999997 3.7121024131774902 -0.8254706424525757 0.8429964224444788 -1.5883165798582972 -1.5707925001727503 2.1412408351898193 0.0 0.0 0.0 -0.0 0.0 -0.0 1 False False
3232.955 3.7121353149414062 -0.8254468005946656 0.8430007139789026 -1.588297506371969 -1.5707529226886194 2.141279697418213 0.0 0.0 0.0 -0.0 0.0 -0.0 1 False False
3233.0049999999997 3.7121036052703857 -0.8255171340755005 0.8430054823504847 -1.5882650814452113 -1.5707925001727503 2.14127516746521 0.0 0.0 0.0 -0.0 0.0 -0.0 1 False False
3233.055 3.7120742797851562 -0.8254838746837159 0.8430216948138636 -1.5882932148375453 -1.5707925001727503 2.141338348388672 0.0 0.0 0.0 -0.0 0.0 -0.0 1 False False
3233.105 3.712110996246338 -0.8255127829364319 0.842992130910055 -1.5883013210692347 -1.5707805792437952 2.141263246536255 0.0 0.0 0.0 -0.0 0.0 -0.0 1 False False
3233.1549999999997 3.7121024131774902 -0.8255127233317872 0.8430383841144007 -1.5882498226561488 -1.5708087126361292 2.141291618347168 0.0 0.0 0.0 -0.0 0.0 -0.0 1 False False
3233.205 3.712118625640869 -0.8254661721042176 0.8429630438434046 -1.5882774792113246 -1.5707529226886194 2.141267776489258 0.0 0.0 0.0 -0.0 0.0 -0.0 1 False False
3233.2549999999997 3.712090492248535 -0.8254674238017579 0.8430188337909144 -1.588297029534811 -1.5707967917071741 2.141334056854248 0.0 0.0 0.0 -0.0 0.0 -0.0 1 False False
3233.305 3.7120871543884277 -0.8254735630801697 0.8430083433734339 -1.588280817071432 -1.570829216633932 2.141284227371216 0.0 0.0 0.0 -0.0 0.0 -0.0 1 False False
3233.355 3.712094783782959 -0.8254630726626893 0.842966381703512 -1.5882536373534144 -1.5707686583148401 2.141287088394165 0.0 0.0 0.0 -0.0 0.0 -0.0 1 False False
3233.4049999999997 3.712127923965454 -0.8255454462817688 0.8430097738849085 -1.588297506371969 -1.570801083241598 2.1413049697875977 0.0 0.0 0.0 -0.0 0.0 -0.0 1 False False
3233.455 3.712083339691162 -0.8254993718913575 0.8429802099810999 -1.5883094273009242 -1.5707724730121058 2.1413004398345947 0.0 0.0 0.0 -0.0 0.0 -0.0 1 False False
3233.5049999999997 3.7120862007141113 -0.8255127829364319 0.8429515997516077 -1.5883132419981898 -1.5708368460284632 2.141313076019287 0.0 0.0 0.0 -0.0 0.0 -0.0 1 False False
3233.555 3.7120368480682373 -0.8254869741252442 0.8429964224444788 -1.5882379017271937 -1.5708168188678187 2.141313076019287 0.0 0.0 0.0 -0.0 0.0 -0.0 1 False False
3233.605 3.712066888809204 -0.8254333895495911 0.8429887930499476 -1.5883375606932582 -1.5707886854754847 2.141279697418213 0.0 0.0 0.0 -0.0 0.0 -0.0 1 False False
3233.6549999999997 3.712095260620117 -0.8254497212222596 0.8429887930499476 -1.5882774792113246 -1.5707648436175745 2.141308546066284 0.0 0.0 0.0 -0.0 0.0 -0.0 1 False False
3233.705 3.7120907306671143 -0.8255246442607422 0.8430169264422815 -1.588313718835348 -1.5707967917071741 2.141279697418213 0.0 0.0 0.0 -0.0 0.0 -0.0 1 False False
3233.7549999999997 3.71205472946167 -0.8255170744708558 0.8429678122149866 -1.588313718835348 -1.570829216633932 2.141216993331909 0.0 0.0 0.0 -0.0 0.0 -0.0 1 False False
3233.805 3.7120490074157715 -0.8254617017558594 0.8429678122149866 -1.5883251629271449 -1.5708211104022425 2.141235113143921 0.0 0.0 0.0 -0.0 0.0 -0.0 1 False False
3233.855 3.712078809738159 -0.8254957360080262 0.8430140654193323 -1.5882650814452113 -1.57074481645693 2.141279697418213 0.0 0.0 0.0 -0.0 0.0 -0.0 1 False False
3233.9049999999997 3.712099552154541 -0.8254587215236207 0.8429721037494105 -1.5882936916747035 -1.570853058491842 2.1412603855133057 0.0 0.0 0.0 -0.0 0.0 -0.0 1 False False
3233.955 3.712045669555664 -0.8254913252643128 0.8430169264422815 -1.5882817707457484 -1.5708335081683558 2.1412930488586426 0.0 0.0 0.0 -0.0 0.0 -0.0 1 False False
3234.0049999999997 3.7120535373687744 -0.8254957360080262 0.8429515997516077 -1.588269372979635 -1.5707891623126429 2.141263246536255 0.0 0.0 0.0 -0.0 0.0 -0.0 1 False False
3234.055 3.7120261192321777 -0.8254794639400025 0.8429759184466761 -1.5882536373534144 -1.5707967917071741 2.141329526901245 -1.5130543488045338e-19 0.0 0.0 -0.0 0.0 -0.0 1 False False
3234.105 3.7120816707611084 -0.8255409163287659 0.8429845015155237 -1.5882932148375453 -1.5707891623126429 2.1412885189056396 0.0 0.0 0.0 -0.0 0.0 -0.0 1 False False
3234.1549999999997 3.71209979057312 -0.8254780334285279 0.8430126349078577 -1.5883170566954554 -1.5707967917071741 2.141284227371216 0.0 0.0 0.0 -0.0 0.0 -0.0 1 False False
3234.205 3.712062358856201 -0.8254203957370301 0.8429678122149866 -1.5882851086058558 -1.570784870778219 2.141308546066284 0.0 0.0 0.0 -0.0 0.0 -0.0 1 False False
3234.2549999999997 3.7120323181152344 -0.8255452674678345 0.8429430166827601 -1.5882579288878382 -1.5707925001727503 2.1412723064422607 0.0 0.0 0.0 -0.0 0.0 -0.0 1 False False
3234.305 3.712071418762207 -0.8254098457149048 0.8429802099810999 -1.588292738000387 -1.5707805792437952 2.14121413230896 0.0 0.0 0.0 -0.0 0.0 -0.0 1 False False
3234.355 3.712071418762207 -0.825537697677948 0.8429964224444788 -1.588313718835348 -1.5707886854754847 2.141254186630249 0.0 0.0 0.0 -0.0 0.0 -0.0 1 False False
3234.4049999999997 3.712062358856201 -0.825463132267334 0.8429520765887659 -1.5883013210692347 -1.570801083241598 2.141279697418213 0.0 0.0 0.0 -0.0 0.0 -0.0 1 False False
3234.455 3.712066888809204 -0.8255214256099244 0.8429759184466761 -1.5883294544615687 -1.570763889943258 2.1413040161132812 0.0 0.0 0.0 -0.0 0.0 -0.0 1 False False
3234.5049999999997 3.712045669555664 -0.825454370384552 0.8429635206805628 -1.5883013210692347 -1.570829216633932 2.1412885189056396 0.0 0.0 0.0 -0.0 0.0 -0.0 1 False False
3234.555 3.7120697498321533 -0.8254661721042176 0.8430050055133265 -1.5882774792113246 -1.5708006064044397 2.14131760597229 0.0 0.0 0.0 -0.0 0.0 -0.0 1 False False
3234.605 3.712071418762207 -0.825463132267334 0.842959229146139 -1.588245531121725 -1.570784870778219 2.141226053237915 0.0 0.0 0.0 -0.0 0.0 -0.0 1 False False
3234.6549999999997 3.7120935916900635 -0.8254499000361939 0.8429997603045862 -1.588297029534811 -1.5707691351519983 2.141279697418213 0.0 0.0 0.0 -0.0 0.0 -0.0 1 False False
3234.705 3.7121071815490723 -0.8255201739123841 0.8429678122149866 -1.5882412395873011 -1.570841137562887 2.141249656677246 0.0 0.0 0.0 -0.0 0.0 -0.0 1 False False
3234.7549999999997 3.712127923965454 -0.8255126637271424 0.8429845015155237 -1.5883175335326136 -1.5708168188678187 2.14127516746521 0.0 0.0 0.0 -0.0 0.0 -0.0 1 False False
3234.805 3.7120862007141113 -0.825463132267334 0.8429635206805628 -1.5882774792113246 -1.5707767645465296 2.1412723064422607 0.0 0.0 0.0 -0.0 0.0 -0.0 1 False False
3234.855 3.7120907306671143 -0.8254588407329102 0.8430007139789026 -1.5882774792113246 -1.5708048979388636 2.141287088394165 0.0 0.0 0.0 -0.0 0.0 -0.0 1 False False
3234.9049999999997 3.712127923965454 -0.8254707020572205 0.8430169264422815 -1.588280817071432 -1.5708048979388636 2.1413004398345947 0.0 0.0 0.0 -0.0 0.0 -0.0 1 False False
3234.955 3.7120399475097656 -0.8254749935916443 0.8430331389056605 -1.5882412395873011 -1.5708487669574183 2.141247034072876 0.0 0.0 0.0 -0.0 0.0 -0.0 1 False False
3235.0049999999997 3.7120907306671143 -0.8254956764033814 0.8430050055133265 -1.5882774792113246 -1.5707810560809534 2.141326427459717 0.0 0.0 0.0 -0.0 0.0 -0.0 1 False False
3235.055 3.712003707885742 -0.8255407971194764 0.8429930845843714 -1.5882569752135218 -1.5708048979388636 2.1413204669952393 0.0 0.0 0.0 -0.0 0.0 -0.0 1 False False
3235.105 3.71209979057312 -0.8254587811282654 0.8429520765887659 -1.5883218250670375 -1.570772949849264 2.141226291656494 0.0 0.0 0.0 -0.0 0.0 -0.0 1 False False
3235.1549999999997 3.7120816707611084 -0.8255169552615662 0.8429678122149866 -1.588313718835348 -1.5708048979388636 2.141296148300171 0.0 0.0 0.0 -0.0 0.0 -0.0 1 False False
3235.205 3.712127923965454 -0.825461820965149 0.8430007139789026 -1.5883170566954554 -1.5708206335650843 2.141284227371216 0.0 0.0 0.0 -0.0 0.0 -0.0 1 False False
3235.2549999999997 3.7120697498321533 -0.8255039614490052 0.8429721037494105 -1.5882898769774378 -1.5708444754229944 2.141258955001831 0.0 0.0 0.0 -0.0 0.0 -0.0 1 False False
3235.305 3.712062358856201 -0.8254544299891968 0.8429477850543421 -1.5882774792113246 -1.5707767645465296 2.141242504119873 0.0 0.0 0.0 -0.0 0.0 -0.0 1 False False
3235.355 3.712104082107544 -0.8255039018443604 0.842992130910055 -1.5882731876769007 -1.5707967917071741 2.141279697418213 0.0 0.0 0.0 -0.0 0.0 -0.0 1 False False
3235.4049999999997 3.7120816707611084 -0.8255450886539002 0.8430007139789026 -1.588320871392721 -1.5708492437945765 2.141291618347168 0.0 0.0 0.0 -0.0 0.0 -0.0 1 False False
3235.455 3.7120399475097656 -0.8255039018443604 0.8429964224444788 -1.5882817707457484 -1.570784870778219 2.1413004398345947 0.0 0.0 0.0 -0.0 0.0 -0.0 1 False False
3235.5049999999997 3.7120578289031982 -0.8254412573627015 0.8429635206805628 -1.5882612667479457 -1.5707767645465296 2.1412765979766846 0.0 0.0 0.0 -0.0 0.0 -0.0 1 False False
3235.555 3.712095022201538 -0.825508252983429 0.8430050055133265 -1.5883251629271449 -1.5707529226886194 2.141291618347168 0.0 0.0 0.0 -0.0 0.0 -0.0 1 False False
3235.605 3.7120742797851562 -0.82552124679599 0.8429353872882288 -1.5882889233031214 -1.5708048979388636 2.141313076019287 0.0 0.0 0.0 -0.0 0.0 -0.0 1 False False
3235.6549999999997 3.712095022201538 -0.8255039018443604 0.8430083433734339 -1.588252683679098 -1.570784870778219 2.141345739364624 0.0 0.0 0.0 -0.0 0.0 -0.0 1 False False
3235.705 3.712071418762207 -0.8255537909320374 0.8429802099810999 -1.5882607899107875 -1.5708048979388636 2.1412885189056396 0.0 0.0 0.0 -0.0 0.0 -0.0 1 False False
3235.7549999999997 3.7120654582977295 -0.8254218262485047 0.8429964224444788 -1.588268896142477 -1.5708087126361292 2.1413092613220215 0.0 0.0 0.0 -0.0 0.0 -0.0 1 False False
3235.805 3.7120323181152344 -0.8254381579211731 0.8429759184466761 -1.588269372979635 -1.570801083241598 2.141249895095825 0.0 0.0 0.0 -0.0 0.0 -0.0 1 False False
3235.855 3.712045669555664 -0.8254694503596802 0.8430007139789026 -1.5882607899107875 -1.5707843939410608 2.1412839889526367 0.0 0.0 0.0 -0.0 0.0 -0.0 1 False False
3235.9049999999997 3.7120280265808105 -0.8255039018443604 0.8429587523089808 -1.5882889233031214 -1.5707648436175745 2.141263484954834 0.0 0.0 0.0 -0.0 0.0 -0.0 1 False False
3235.955 3.7120447158813477 -0.8254630726626893 0.8429802099810999 -1.5882250271239222 -1.5708091894732874 2.141238212585449 0.0 0.0 0.0 -0.0 0.0 -0.0 1 False False
3236.0049999999997 3.7120535373687744 -0.8254230183414002 0.8429935614215296 -1.588269372979635 -1.570784870778219 2.141324758529663 0.0 0.0 0.0 -0.0 0.0 -0.0 1 False False
3236.055 3.7120413780212402 -0.8254707020572205 0.842987362538473 -1.588297029534811 -1.570829216633932 2.141295909881592 0.0 0.0 0.0 -0.0 0.0 -0.0 1 False False
3236.105 3.7120580673217773 -0.8254499596408387 0.8429721037494105 -1.5882288418211878 -1.570801083241598 2.1413259506225586 0.0 0.0 0.0 -0.0 0.0 -0.0 1 False False
3236.1549999999997 3.7120370864868164 -0.8254869741252442 0.8430007139789026 -1.5882417164244593 -1.5707767645465296 2.141251564025879 0.0 0.0 0.0 -0.0 0.0 -0.0 1 False False
3236.205 3.7120862007141113 -0.8254913252643128 0.8430174032794397 -1.5883246860899867 -1.5707929770099085 2.141270875930786 0.0 0.0 0.0 -0.0 0.0 -0.0 1 False False
3236.2549999999997 3.712062358856201 -0.8255569499782105 0.8429630438434046 -1.588269372979635 -1.570801083241598 2.141230821609497 0.0 0.0 0.0 -0.0 0.0 -0.0 1 False False
3236.305 3.7120819091796875 -0.8254793447307129 0.8429673353778284 -1.5882817707457484 -1.5707929770099085 2.141267776489258 0.0 0.0 0.0 -0.0 0.0 -0.0 1 False False
3236.355 3.712083101272583 -0.8254382771304627 0.8429678122149866 -1.5883175335326136 -1.5707767645465296 2.141275405883789 0.0 0.0 0.0 -0.0 0.0 -0.0 1 False False
3236.4049999999997 3.7120697498321533 -0.8254707616618653 0.8430259863482874 -1.5882889233031214 -1.5707529226886194 2.1412839889526367 0.0 0.0 0.0 -0.0 0.0 -0.0 1 False False
3236.455 3.71207857131958 -0.8255199950984498 0.8430054823504847 -1.5882889233031214 -1.5707967917071741 2.141247034072876 0.0 0.0 0.0 -0.0 0.0 -0.0 1 False False
3236.5049999999997 3.712033987045288 -0.8254956167987366 0.8430126349078577 -1.5882851086058558 -1.5707929770099085 2.1412720680236816 0.0 0.0 0.0 -0.0 0.0 -0.0 1 False False
3236.555 3.7120862007141113 -0.8254869741252442 0.8429544607745569 -1.588268896142477 -1.5707967917071741 2.141308546066284 0.0 0.0 0.0 -0.0 0.0 -0.0 1 False False
3236.605 3.712023973464966 -0.825463132267334 0.8429887930499476 -1.5882612667479457 -1.5707886854754847 2.14125919342041 0.0 0.0 0.0 -0.0 0.0 -0.0 1 False False
3236.6549999999997 3.712090492248535 -0.825491265659668 0.8429802099810999 -1.5882774792113246 -1.5708368460284632 2.1413040161132812 0.0 0.0 0.0 -0.0 0.0 -0.0 1 False False
3236.705 3.712099313735962 -0.8254869741252442 0.842971150075094 -1.5882774792113246 -1.5707724730121058 2.141279697418213 0.0 0.0 0.0 -0.0 0.0 -0.0 1 False False
3236.7549999999997 3.712029457092285 -0.8254836362651368 0.8429630438434046 -1.5882216892638148 -1.570784870778219 2.14133358001709 0.0 0.0 0.0 -0.0 0.0 -0.0 1 False False
3236.805 3.712090492248535 -0.8254802984050293 0.8430174032794397 -1.5883051357665003 -1.5708211104022425 2.1413302421569824 -1.3070325527410288e-23 0.0 0.0 -0.0 0.0 -0.0 1 False False
3236.855 3.71207857131958 -0.8254588407329102 0.8429845015155237 -1.5883008442320765 -1.5708168188678187 2.141275405883789 0.0 0.0 0.0 -0.0 0.0 -0.0 1 False False
3236.9049999999997 3.712090492248535 -0.8254500788501282 0.8429673353778284 -1.5882607899107875 -1.5708487669574183 2.141275405883789 0.0 0.0 0.0 -0.0 0.0 -0.0 1 False False
3236.955 3.7120776176452637 -0.825451211338379 0.8429892698871058 -1.5882650814452113 -1.5707648436175745 2.141263484954834 0.0 0.0 0.0 -0.0 0.0 -0.0 1 False False
3237.0049999999997 3.7120819091796875 -0.8254662913135071 0.8430097738849085 -1.5883127651610316 -1.5708087126361292 2.1412265300750732 0.0 0.0 0.0 -0.0 0.0 -0.0 1 False False
3237.055 3.71207857131958 -0.8254869145205994 0.8430007139789026 -1.5882774792113246 -1.5708048979388636 2.141295909881592 0.0 0.0 0.0 -0.0 0.0 -0.0 1 False False
3237.105 3.7120742797851562 -0.8254793447307129 0.8429754416095179 -1.5882374248900355 -1.5707891623126429 2.1412546634674072 0.0 0.0 0.0 -0.0 0.0 -0.0 1 False False
3237.1549999999997 3.7120699882507324 -0.8254707616618653 0.8429539839373987 -1.588280817071432 -1.570829216633932 2.141279697418213 0.0 0.0 0.0 -0.0 0.0 -0.0 1 False False
3237.205 3.7120862007141113 -0.8255081337741395 0.8429673353778284 -1.588285585443014 -1.5708087126361292 2.1412839889526367 0.0 0.0 0.0 -0.0 0.0 -0.0 1 False False
3237.2549999999997 3.712062358856201 -0.8254869145205994 0.8430097738849085 -1.5883013210692347 -1.5707724730121058 2.1412665843963623 0.0 0.0 0.0 -0.0 0.0 -0.0 1 False False
3237.305 3.712115526199341 -0.825482503776886 0.8429892698871058 -1.5882607899107875 -1.570784870778219 2.141317129135132 0.0 0.0 0.0 -0.0 0.0 -0.0 1 False False
3237.355 3.712094783782959 -0.8255167168429871 0.8429515997516077 -1.588297029534811 -1.5708168188678187 2.1412720680236816 0.0 0.0 0.0 -0.0 0.0 -0.0 1 False False
3237.4049999999997 3.7120656967163086 -0.8254338663867493 0.8429563681231897 -1.5882488689818324 -1.5707805792437952 2.141329050064087 0.0 0.0 0.0 -0.0 0.0 -0.0 1 False False
3237.455 3.7120285034179688 -0.8254339259913941 0.8430054823504847 -1.5883094273009242 -1.570784870778219 2.141275405883789 0.0 0.0 0.0 -0.0 0.0 -0.0 1 False False
3237.5049999999997 3.712090492248535 -0.8255285781672974 0.8429964224444788 -1.5882288418211878 -1.5707524458514612 2.1413002014160156 0.0 0.0 0.0 -0.0 0.0 -0.0 1 False False
3237.555 3.712110996246338 -0.8254955571940918 0.842992130910055 -1.5882817707457484 -1.570784870778219 2.141267776489258 0.0 0.0 0.0 -0.0 0.0 -0.0 1 False False
3237.605 3.7120742797851562 -0.825491265659668 0.8429763952838343 -1.5882498226561488 -1.5707967917071741 2.141275405883789 0.0 0.0 0.0 -0.0 0.0 -0.0 1 False False
3237.6549999999997 3.7120285034179688 -0.8254674238017579 0.8429802099810999 -1.5882607899107875 -1.5708377997027796 2.1412222385406494 0.0 0.0 0.0 -0.0 0.0 -0.0 1 False False
3237.705 3.7120656967163086 -0.8254750531962891 0.8429673353778284 -1.588341852227682 -1.5707767645465296 2.14125919342041 0.0 0.0 0.0 -0.0 0.0 -0.0 1 False False
3237.7549999999997 3.7120699882507324 -0.825450138454773 0.8430336157428187 -1.5882731876769007 -1.570801083241598 2.141295909881592 0.0 0.0 0.0 -0.0 0.0 -0.0 1 False False
3237.805 3.7120001316070557 -0.8254545491984864 0.8429144064532679 -1.5882569752135218 -1.5708048979388636 2.1412622928619385 0.0 0.0 0.0 -0.0 0.0 -0.0 1 False False
3237.855 3.712095022201538 -0.8254869741252442 0.8429473082171839 -1.5882569752135218 -1.5708087126361292 2.141312837600708 0.0 0.0 0.0 -0.0 0.0 -0.0 1 False False
3237.9049999999997 3.7120535373687744 -0.8254588407329102 0.8429845015155237 -1.5882607899107875 -1.5707967917071741 2.1413581371307373 0.0 0.0 0.0 -0.0 0.0 -0.0 1 False False
3237.955 3.712106943130493 -0.8254825633815308 0.8430336157428187 -1.588245531121725 -1.5707805792437952 2.141291618347168 0.0 0.0 0.0 -0.0 0.0 -0.0 1 False False
3238.0049999999997 3.7120203971862793 -0.8254415553859253 0.8429978529559534 -1.588297029534811 -1.5707767645465296 2.1413002014160156 0.0 0.0 0.0 -0.0 0.0 -0.0 1 False False
3238.055 3.7120535373687744 -0.8254459065249939 0.8429892698871058 -1.5882889233031214 -1.5708087126361292 2.141287088394165 0.0 0.0 0.0 -0.0 0.0 -0.0 1 False False
3238.105 3.7120862007141113 -0.8254459065249939 0.8430054823504847 -1.5882774792113246 -1.5707605520831507 2.1412546634674072 0.0 0.0 0.0 -0.0 0.0 -0.0 1 False False
3238.1549999999997 3.7121026515960693 -0.8254663509181519 0.8429630438434046 -1.5883218250670375 -1.5707925001727503 2.141291618347168 0.0 0.0 0.0 -0.0 0.0 -0.0 1 False False
3238.205 3.71209979057312 -0.8254993122867127 0.8429349104510706 -1.5882774792113246 -1.5708168188678187 2.141270875930786 0.0 0.0 0.0 -0.0 0.0 -0.0 1 False False
3238.2549999999997 3.712029218673706 -0.8254588407329102 0.8430083433734339 -1.5882498226561488 -1.5707767645465296 2.141263484954834 0.0 0.0 0.0 -0.0 0.0 -0.0 1 False False
3238.305 3.712059259414673 -0.8254993718913575 0.8430126349078577 -1.588245531121725 -1.5708487669574183 2.1412839889526367 0.0 0.0 0.0 -0.0 0.0 -0.0 1 False False
3238.355 3.712083101272583 -0.8254825633815308 0.8429845015155237 -1.5882731876769007 -1.5707886854754847 2.141317129135132 0.0 0.0 0.0 -0.0 0.0 -0.0 1 False False
3238.4049999999997 3.712062358856201 -0.8254750531962891 0.8429430166827601 -1.5882898769774378 -1.5707686583148401 2.141287088394165 0.0 0.0 0.0 -0.0 0.0 -0.0 1 False False
3238.455 3.712066888809204 -0.8254954975894471 0.8429802099810999 -1.5882250271239222 -1.5708172957049769 2.141317129135132 0.0 0.0 0.0 -0.0 0.0 -0.0 1 False False
3238.5049999999997 3.712029457092285 -0.8254588407329102 0.8430259863482874 -1.5883094273009242 -1.5707805792437952 2.1412546634674072 0.0 0.0 0.0 -0.0 0.0 -0.0 1 False False
3238.555 3.712078809738159 -0.8254546088031312 0.8429964224444788 -1.5882650814452113 -1.5708048979388636 2.141317129135132 0.0 0.0 0.0 -0.0 0.0 -0.0 1 False False
3238.605 3.712033987045288 -0.8254997891238709 0.8429964224444788 -1.5883332691588343 -1.5708044211017054 2.141263484954834 -1.516816767998801e-32 0.0 0.0 -0.0 0.0 -0.0 1 False False
3238.6549999999997 3.712078809738159 -0.825478271847107 0.8429887930499476 -1.5883127651610316 -1.570784870778219 2.1412429809570312 2.3754268113407306e-05 0.0 0.0 -0.0 0.0 -0.0 1 False False
3238.705 3.712095260620117 -0.8255037826350708 0.8429678122149866 -1.5883013210692347 -1.5707967917071741 2.141231060028076 1.431118835171219e-05 0.0 0.0 -0.0 0.0 -0.0 1 False False
3238.7549999999997 3.712029457092285 -0.8255242866328736 0.8429759184466761 -1.5882488689818324 -1.5708087126361292 2.1412720680236816 1.0240366464131512e-05 0.0 0.0 -0.0 0.0 -0.0 1 False False
3238.805 3.712050199508667 -0.8254546088031312 0.8430007139789026 -1.5883332691588343 -1.5708044211017054 2.141247272491455 0.0 0.0 0.0 -0.0 0.0 -0.0 1 True False
3238.855 3.7121026515960693 -0.8254458469203492 0.8429964224444788 -1.5882846317686976 -1.570784870778219 2.1412882804870605 0.0 0.0 0.0 -0.0 0.0 -0.0 1 True False
3238.9049999999997 3.7120652198791504 -0.8254470390132447 0.8429635206805628 -1.5882650814452113 -1.5707843939410608 2.1412558555603027 0.0 0.0 0.0 -0.0 0.0 -0.0 1 True False
3238.955 3.71209979057312 -0.8254750531962891 0.8429678122149866 -1.5882607899107875 -1.5708125273333948 2.141287088394165 0.0 0.0 0.0 -0.0 0.0 -0.0 1 True False
3239.0049999999997 3.7120907306671143 -0.8254912060550232 0.842992130910055 -1.5882412395873011 -1.5708168188678187 2.1412546634674072 6.58987138105515e-34 0.0 0.0 -0.0 0.0 -0.0 1 True False
3239.055 3.7120487689971924 -0.8254265350154419 0.8429887930499476 -1.5882889233031214 -1.5707410017596644 2.141279697418213 0.0 0.0 0.0 -0.0 0.0 -0.0 1 True False
3239.105 3.712083339691162 -0.8254597348025818 0.8429759184466761 -1.588320871392721 -1.5708087126361292 2.1413168907165527 0.0 0.0 0.0 -0.0 0.0 -0.0 1 True False
3239.1549999999997 3.712017059326172 -0.825451211338379 0.8429802099810999 -1.588245531121725 -1.5707810560809534 2.141312837600708 0.0 0.0 0.0 -0.0 0.0 -0.0 1 True False
3239.205 3.7120742797851562 -0.8254264754107972 0.8430331389056605 -1.5882331333556117 -1.5707810560809534 2.141275405883789 0.0 0.0 0.0 -0.0 0.0 -0.0 1 True False
3239.2549999999997 3.7120862007141113 -0.8254750531962891 0.8429635206805628 -1.588268896142477 -1.5707772413836878 2.1412384510040283 0.0 0.0 0.0 -0.0 0.0 0.00041184353176504374 1 True False
3239.305 3.7120697498321533 -0.8254340452006836 0.8429802099810999 -1.588297029534811 -1.5707886854754847 2.1412148475646973 0.0 0.0 0.0 -0.0 0.0 5.429583955358684e-22 1 True False
3239.355 3.7120368480682373 -0.8254555028728028 0.8429930845843714 -1.588313718835348 -1.5707934538470667 2.141313076019287 0.0 0.0 0.0 -0.0 0.0 -1.2282672101626702e-10 1 True False
3239.4049999999997 3.7120532989501953 -0.8254993122867127 0.8430169264422815 -1.5882889233031214 -1.570772949849264 2.1412839889526367 0.0 0.0 0.0 -0.0 -3.8421806181077045e-08 -1.8657402701901045e-29 1 True False
3239.455 3.712183713912964 -0.8255523604205628 0.8429878393756312 -1.5882650814452113 -1.5708048979388636 2.1412384510040283 0.03788156807422638 -0.008469035848975182 0.008080420084297657 -0.0 -5.8362814811307145e-27 -0.003662907285615802 1 True False
3239.5049999999997 3.7146379947662354 -0.8265465658954163 0.8446839491473597 -1.5888844929137171 -1.570813004170553 2.1402342319488525 0.08141649514436722 -0.040249504148960114 0.06390445679426193 -0.01903536729514599 0.0005857569631189108 -0.03426523879170418 1 True False
3239.555 3.7205214500427246 -0.8294739288142701 0.8494418303119105 -1.590470930139059 -1.5708168188678187 2.1376585960388184 0.1523391455411911 -0.08068916946649551 0.12466904520988464 -0.040566567331552505 0.00016292170039378107 -0.06810043752193451 1 True False
3239.605 3.729860782623291 -0.8345246475986023 0.8567722479449671 -1.593095441857809 -1.5708087126361292 2.133467435836792 0.22111888229846954 -0.12043539434671402 0.17337031662464142 -0.05556175485253334 8.330760465469211e-05 -0.09674818068742752 1 True False
3239.6549999999997 3.742849826812744 -0.8411798638156434 0.8669064680682581 -1.5962521038451136 -1.5707967917071741 2.1277174949645996 0.2902873158454895 -0.1452658325433731 0.22690865397453308 -0.06621915102005005 0.00012437099940143526 -0.12857739627361298 1 True False
3239.705 3.7590246200561523 -0.849672870045044 0.8795822302447718 -1.6006933651366175 -1.5707925001727503 2.1205646991729736 0.3564670979976654 -0.18689970672130585 0.27701979875564575 -0.08871090412139893 0.00015347603766713291 -0.1594264954328537 1 True False
3239.7549999999997 3.779097318649292 -0.8598737877658387 0.8949230352984827 -1.605910440484518 -1.5708048979388636 2.1118650436401367 0.43244561553001404 -0.21937842667102814 0.33399105072021484 -0.12495800107717514 8.270623948192224e-05 -0.19208435714244843 1 True False
3239.805 3.802194595336914 -0.8717120450786133 0.913330380116598 -1.6119944057860316 -1.5707886854754847 2.1014862060546875 0.5004870891571045 -0.2529245615005493 0.38826826214790344 -0.14411719143390656 -6.177362956805155e-05 -0.2215559035539627 1 True False
3239.855 3.829098701477051 -0.8856196564487 0.9338582197772425 -1.6191603145995082 -1.5707967917071741 2.0896215438842773 0.565753698348999 -0.2938842177391052 0.44796210527420044 -0.1571170538663864 -1.737108932514512e-16 -0.249169260263443 1 True False
3239.9049999999997 3.859607219696045 -0.9010343712619324 0.9576004187213343 -1.6272427044310511 -1.5707281271563929 2.0763142108917236 0.6443270444869995 -0.32136213779449463 0.4944867789745331 -0.18692831695079803 0.0004338551370892674 -0.2836155891418457 1 True False
3239.955 3.8932785987854004 -0.9184273642352601 0.9837582747088831 -1.6362062893309535 -1.570756737385885 2.0613977909088135 0.7125391960144043 -0.3618690073490143 0.5530955195426941 -0.1795397400856018 0.00011479931708890945 -0.3093295097351074 1 True False
3240.0049999999997 3.9306626319885254 -0.9374725383571167 1.0128563086139124 -1.6459485493102015 -1.5707967917071741 2.045006036758423 0.7737671732902527 -0.4009060263633728 0.6007559895515442 -0.19191549718379974 5.866087303729728e-05 -0.3473462164402008 1 True False
3240.055 3.971430778503418 -0.9584386509707947 1.0445006529437464 -1.6567355595030726 -1.5707767645465296 2.0268542766571045 0.8489750027656555 -0.4332892894744873 0.6652624011039734 -0.21698139607906342 5.370352365844601e-23 -0.36579468846321106 1 True False
3240.105 4.015782833099365 -0.9811724585345765 1.07880145708193 -1.6683842144408167 -1.5707929770099085 2.007474184036255 0.9201628565788269 -0.4780137836933136 0.7113260626792908 -0.24671311676502228 8.15695836083476e-42 -0.41397860646247864 1 True False
3240.1549999999997 4.0635576248168945 -1.0056608480266114 1.1159699598895472 -1.68089022258901 -1.570756737385885 1.9863847494125366 0.9864556193351746 -0.49923697113990784 0.7714563012123108 -0.2665015161037445 0.0 -0.43327006697654724 1 True False
3240.205 4.114744663238525 -1.0319085878184815 1.155689541493551 -1.6944900951781214 -1.5708048979388636 1.9637786149978638 1.035380482673645 -0.5285477638244629 0.8155627250671387 -0.27170878648757935 0.0 -0.45305413007736206 1 True False
3240.2549999999997 4.167011260986328 -1.0587070149234314 1.1964076201068323 -1.708292146722311 -1.570784870778219 1.940712571144104 1.0513620376586914 -0.5353667736053467 0.8140488266944885 -0.27193695306777954 -0.0001872419088613242 -0.4650110602378845 1 True False
3240.305 4.219421863555908 -1.0855628711036225 1.2369373480426233 -1.7221609554686488 -1.570784870778219 1.9176872968673706 1.0417776107788086 -0.5397841334342957 0.8177790641784668 -0.2595808506011963 -0.0001192302952404134 -0.46210813522338867 1 True False
3240.355 4.271856307983398 -1.112363026743271 1.27757436433901 -1.736000200311178 -1.5708211104022425 1.8946270942687988 1.0456210374832153 -0.5373414754867554 0.8075425624847412 -0.28484776616096497 -5.213415715843439e-05 -0.4590286314487457 1 True False
3240.4049999999997 4.324187278747559 -1.1392725271037598 1.3182438055621546 -1.7499581776061 -1.5707934538470667 1.871437907218933 1.0518752336502075 -0.5416378378868103 0.80935138463974 -0.27211010456085205 7.871912202972453e-06 -0.4569908082485199 1 True False
3240.455 4.376468658447266 -1.1661952894977112 1.3589351812945765 -1.7636944256224574 -1.570813004170553 1.8484504222869873 1.0448393821716309 -0.5381715893745422 0.809317409992218 -0.2684381604194641 1.3028968074504447e-22 -0.4627743065357208 1 True False
3240.5049999999997 4.428720474243164 -1.192819522028305 1.3995726744281214 -1.7771812878050746 -1.570801083241598 1.8255014419555664 1.0283435583114624 -0.5186851620674133 0.791700541973114 -0.26816168427467346 -4.333553806645796e-05 -0.4529891908168793 1 True False
3240.555 4.477910041809082 -1.2180872124484559 1.4377134482013147 -1.7903419933714808 -1.5707925001727503 1.80366849899292 0.9592801332473755 -0.4822094142436981 0.7432892918586731 -0.2447408139705658 0.0001481280633015558 -0.4169166386127472 1 True False
3240.605 4.523717880249023 -1.2414730948260804 1.473215405141012 -1.802709241906637 -1.5708168188678187 1.7834535837173462 0.8786349892616272 -0.4543383717536926 0.6899972558021545 -0.2276187241077423 -0.0012583854841068387 -0.38983434438705444 1 True False
3240.6549999999997 4.566197872161865 -1.263405666952469 1.5060556570636194 -1.8138486347594203 -1.5707324186908167 1.7649531364440918 0.8072174191474915 -0.42193350195884705 0.6331058740615845 -0.22926528751850128 -5.522543973895956e-17 -0.36277422308921814 1 True False
3240.705 4.605063438415527 -1.2831387680820008 1.5363605658160608 -1.8239881000914515 -1.5707972685443323 1.7476915121078491 0.7457493543624878 -0.3808050751686096 0.5754769444465637 -0.19967462122440338 -8.388755009510904e-36 -0.31883111596107483 1 True False
3240.7549999999997 4.640346050262451 -1.3012778919986268 1.5638354460345667 -1.833198686639303 -1.5707805792437952 1.7321480512619019 0.6758766770362854 -0.34557002782821655 0.5308677554130554 -0.1668034940958023 4.347096910350956e-05 -0.2970898449420929 1 True False
3240.805 4.672232151031494 -1.3178236049464722 1.588569466267721 -1.8418775997557582 -1.5708449522601526 1.718036413192749 0.6018434762954712 -0.30750131607055664 0.4664846360683441 -0.17502517998218536 -1.2708406308087165e-14 -0.26183781027793884 1 True False
3240.855 4.700634956359863 -1.3321252179196854 1.610772434865133 -1.8491889439024867 -1.5708335081683558 1.7056293487548828 0.5337801575660706 -0.27000173926353455 0.4186086356639862 -0.14102259278297424 0.00014476245269179344 -0.23899076879024506 1 True False
3240.9049999999997 4.725644588470459 -1.3451748502305527 1.6297896544085901 -1.8559662304320277 -1.5707891623126429 1.6946126222610474 0.46625077724456787 -0.23320743441581726 0.36455100774765015 -0.12594300508499146 0.00034978266921825707 -0.20743174850940704 1 True False
3240.955 4.747050762176514 -1.3558869373849411 1.6466496626483362 -1.8614808521666468 -1.5707891623126429 1.6851216554641724 0.39579471945762634 -0.2046227902173996 0.3049907088279724 -0.12184781581163406 -2.968300605310503e-10 -0.17258715629577637 1 True False
3241.0049999999997 4.76490592956543 -1.365167574291565 1.6605189482318323 -1.866160055200094 -1.5707843939410608 1.6773161888122559 0.32801875472068787 -0.16659194231033325 0.25508439540863037 -0.0821375772356987 3.588160313577199e-15 -0.14444801211357117 1 True False
3241.055 4.779279708862305 -1.3725775492242356 1.6716631094561976 -1.8700276813902796 -1.5708006064044397 1.670880913734436 0.25161653757095337 -0.13137619197368622 0.1967461109161377 -0.06101395934820175 5.450422003297393e-34 -0.114935003221035 1 True False
3241.105 4.790131568908691 -1.3781006944230576 1.680150334035055 -1.8728615246214808 -1.5707724730121058 1.6661057472229004 0.18730662763118744 -0.09559589624404907 0.1477317065000534 -0.04871023818850517 0.0 -0.0795881375670433 1 True False
3241.1549999999997 4.797701358795166 -1.3819911938956757 1.6860011259662073 -1.8749286137022914 -1.5708087126361292 1.6628422737121582 0.11296829581260681 -0.06086407229304314 0.09052010625600815 -0.03247985243797302 0.0 -0.05137413367629051 1 True False
3241.205 4.801615238189697 -1.3839822870543976 1.6891024748431605 -1.8759027920165003 -1.570772949849264 1.6610503196716309 0.04348374530673027 -0.023853762075304985 0.03617740049958229 -0.014553440734744072 0.0 -0.02064403146505356 1 True False
3241.2549999999997 4.802149772644043 -1.3842398834279557 1.6896932760821741 -1.8763638935484828 -1.5708368460284632 1.6608211994171143 -0.005687282420694828 0.008930501528084278 0.020469490438699722 -0.039266347885131836 5.800113171972043e-07 -1.729740309319716e-11 1 True False
3241.305 4.802279949188232 -1.383234516983368 1.6917770544635218 -1.8792664013304652 -1.570813004170553 1.6608710289001465 0.0002604765468277037 0.03388671204447746 0.06055660918354988 -0.09178667515516281 8.810389938472959e-26 -2.6274787027319946e-30 1 True False
3241.355 4.802295207977295 -1.3809291583350678 1.695925537739889 -1.8858610592284144 -1.5708254019366663 1.660780906677246 0.0004818777379114181 0.06427943706512451 0.10181272029876709 -0.1631467044353485 1.401298464324817e-44 -0.0006176508613862097 1 True False
3241.4049999999997 4.802310466766357 -1.3771381837180634 1.702277962361471 -1.8958169422545375 -1.5708487669574183 1.660764455795288 0.00011140825517941266 0.08690671622753143 0.14390593767166138 -0.23846101760864258 0.0 -0.0003263445687480271 1 True False
3241.455 4.802347183227539 -1.3721679908088227 1.7106521765338343 -1.9094048939146937 -1.5707724730121058 1.6607824563980103 0.00023864160175435245 0.1125800609588623 0.19232907891273499 -0.2969287633895874 6.254204345168546e-05 -0.00019294639059808105 1 True False
3241.5049999999997 4.802326679229736 -1.3659535658410569 1.7214043776141565 -1.926401277581686 -1.5707724730121058 1.6607451438903809 0.0001947594719240442 0.13667017221450806 0.24049592018127441 -0.38369882106781006 9.207206312566996e-05 -0.00012189285189379007 1 True False
3241.555 4.802342891693115 -1.3583234709552308 1.7346885840045374 -1.9468585453429164 -1.5707805792437952 1.660757064819336 0.00014966996968723834 0.16339965164661407 0.2798926532268524 -0.4456929564476013 6.486025813501328e-05 -9.388903708895668e-05 1 True False
3241.605 4.802285671234131 -1.349602849488594 1.7495668570147913 -1.9708448849120082 -1.5708087126361292 1.6608034372329712 9.848760237218812e-05 0.19024784862995148 0.3329124450683594 -0.5056635737419128 4.854970470091757e-08 -1.760788509354988e-13 1 True False
3241.6549999999997 4.802387714385986 -1.3394509118846436 1.7670281569110315 -1.9981571636595667 -1.5707686583148401 1.6607779264450073 9.24188643693924e-05 0.19746746122837067 0.3417174220085144 -0.554807186126709 7.374707772545428e-27 -2.6746416754867033e-32 1 True False
3241.705 4.80239200592041 -1.329983950858452 1.7832663694964808 -2.0243975124754847 -1.5707686583148401 1.6607378721237183 0.0001121632449212484 0.18158578872680664 0.31145334243774414 -0.48517003655433655 1.401298464324817e-45 -0.0 1 True False
3241.7549999999997 4.802310466766357 -1.321633757357933 1.7977054754840296 -2.046783586541647 -1.5708087126361292 1.6607317924499512 7.382705371128395e-05 0.15397243201732635 0.265494704246521 -0.41435372829437256 0.0 -0.0 1 True False
3241.805 4.802293300628662 -1.3145351272872468 1.809793774281637 -2.066014429131979 -1.5707891623126429 1.660757064819336 4.952188155687194e-20 0.12996546924114227 0.22329866886138916 -0.33882591128349304 0.0 -0.0 1 True False
3241.855 4.802379608154297 -1.3088183265975495 1.8196466604815882 -2.081541200677389 -1.5707805792437952 1.6607823371887207 0.0 0.09999705851078033 0.1742698699235916 -0.27213361859321594 0.0 -0.0 1 True False
3241.9049999999997 4.802346706390381 -1.3043735188296814 1.8274033705340784 -2.0937982998290003 -1.5707686583148401 1.6607496738433838 0.0 0.07790880650281906 0.125295028090477 -0.20282089710235596 0.0 -0.0 1 True False
3241.955 4.80232572555542 -1.301172063951828 1.8328879515277308 -2.102347513238424 -1.570772949849264 1.6607823371887207 0.0 0.05160457268357277 0.0892908051609993 -0.1407649666070938 0.0 5.552070797421038e-05 1 True False
3242.0049999999997 4.802350997924805 -1.2993696492961426 1.8359792868243616 -2.1075908146300257 -1.5708611647235315 1.6607362031936646 0.0 0.025278815999627113 0.045742977410554886 -0.06439237296581268 0.0 2.1832325728610158e-05 1 True False
3242.055 4.802359580993652 -1.2987573605826874 1.837151352559225 -2.1092807255186976 -1.5707648436175745 1.660757064819336 0.0 -0.0011405081022530794 -0.0011856731725856662 0.0015999107854440808 0.0 1.3589856280304957e-05 1 True False
3242.105 4.802350997924805 -1.2987035971931 1.837142292653219 -2.1092006168761195 -1.5708335081683558 1.660711646080017 0.0 -2.208041616117296e-22 2.941337403483815e-25 0.00011561757128220052 0.0 3.525339025145513e-06 1 True False
3242.1549999999997 4.802313804626465 -1.2987335187247773 1.837191406880514 -2.1092244587340296 -1.570784870778219 1.6607614755630493 0.0 0.0004540060763247311 0.00011373953020665795 -3.921213647117838e-05 1.4008991449515618e-12 5.354997858856243e-25 1 True False
3242.205 4.802363872528076 -1.2987660330585022 1.837175194417135 -2.1092688045897425 -1.5707767645465296 1.6607915163040161 5.583487134183066e-16 0.0006677597411908209 8.817376510705799e-05 -3.807836401392706e-05 2.127970151824648e-31 8.127531093083939e-44 1 True False
3242.2549999999997 4.802306175231934 -1.2986678940108796 1.837191406880514 -2.1092363796629847 -1.5708611647235315 1.6607451438903809 0.0 0.00024832249619066715 8.578397682867944e-05 -7.763802568661049e-05 0.0 0.0 1 True False
3242.305 4.80233097076416 -1.298742727642395 1.8371828238116663 -2.1092363796629847 -1.570784870778219 1.660775065422058 0.0 0.00033605200587771833 8.133557275868952e-05 -0.00018107076175510883 0.0 0.0 1 True False
3242.355 4.802326679229736 -1.298681066637375 1.8371871153460901 -2.1092683277525843 -1.5707805792437952 1.6607242822647095 -3.3755728509277105e-05 7.049628038657829e-05 0.00010105878754984587 -0.00018095930863637477 0.0 0.0 1 True False
3242.4049999999997 4.802285671234131 -1.2986973089030762 1.8372066656695765 -2.1092807255186976 -1.570784870778219 1.6607197523117065 -6.62331786875589e-34 9.499468433205038e-05 9.17979414225556e-05 -0.00012038997374475002 0.0 0.0 1 True False
3242.455 4.802297592163086 -1.2987211507609864 1.8372038046466272 -2.109248777429098 -1.5707767645465296 1.6607197523117065 0.0 6.217993359314278e-05 6.948311056476086e-05 -8.672027615830302e-05 0.0 0.0 1 True False
3242.5049999999997 4.802334308624268 -1.2986691457084198 1.8371289412127894 -2.1092807255186976 -1.5707929770099085 1.66071617603302 0.0 1.5955834251392623e-18 6.015789767843671e-05 -7.218644896056503e-05 0.0 0.0 1 True False
3242.555 4.802335262298584 -1.2986777883819123 1.8372152487384241 -2.1092683277525843 -1.5708168188678187 1.6607614755630493 0.0 0.0 1.0868520667012058e-33 -1.9210956706536876e-21 0.0 0.0 1 True False
3242.605 4.802335262298584 -1.2986572545817872 1.8372066656695765 -2.109305044213766 -1.5707524458514612 1.660775065422058 0.0 -4.373822954402234e-19 0.0 -5.827809559377783e-07 0.0 0.0 1 True False
3242.6549999999997 4.8023176193237305 -1.2988456052592774 1.836975399647848 -2.1095196209349574 -1.5707524458514612 1.660780906677246 -6.711298048901081e-24 -3.593814579261334e-09 -0.0008625866030342877 -0.004127993248403072 0.0 0.00036955028190277517 1 True False
3242.705 4.8023881912231445 -1.2988424760154267 1.8370521704303187 -2.1095153294005335 -1.570784870778219 1.660764455795288 0.0 0.0005644022603519261 0.0008279958856292069 -0.00018934483523480594 0.0 0.00013626996951643378 1 True False
3242.7549999999997 4.802371501922607 -1.2988017958453675 1.8370268980609339 -2.109528204003805 -1.5707686583148401 1.660740613937378 0.0 0.001561720040626824 0.0018950451631098986 0.0005821850500069559 0.0 8.355252793990076e-05 1 True True
3242.805 4.802350997924805 -1.2990703147700806 1.836548153554098 -2.1075359783568324 -1.5708211104022425 1.6607898473739624 0.0 -0.01877395249903202 -0.03416811674833298 0.06550132483243942 0.0 5.024315760238096e-05 1 True True
3242.855 4.802346706390381 -1.3007963758758088 1.8334549109088343 -2.1028858623900355 -1.5708335081683558 1.6608017683029175 0.0 -0.06161662936210632 -0.09949546307325363 0.1265982687473297 0.0 2.775416821769791e-23 1 True True
3242.9049999999997 4.802334308624268 -1.3040452760509034 1.8278849760638636 -2.094102998773092 -1.5707648436175745 1.6607779264450073 0.0 -0.07591445744037628 -0.13347220420837402 0.21009016036987305 0.0 4.2165070791533746e-42 1 True True
3242.955 4.802371501922607 -1.3086228531650086 1.8199556509601038 -2.0821663341917933 -1.5707891623126429 1.660768985748291 0.0 -0.09613751620054245 -0.17175912857055664 0.26193657517433167 0.0 0.0 1 True True
3243.0049999999997 4.802334308624268 -1.3143696647933503 1.810136620198385 -2.0668775043883265 -1.570784870778219 1.6607072353363037 0.0 -0.12525658309459686 -0.21853089332580566 0.34615662693977356 0.0 1.3514906981809894e-18 1 True True
3243.055 4.80237340927124 -1.321252168422081 1.7983396689044397 -2.047649999658102 -1.5708406607257288 1.6607898473739624 0.0 -0.15013012290000916 -0.2630736529827118 0.40444454550743103 0.0 2.0529179447786574e-37 1 True True
3243.105 4.802351951599121 -1.329545335178711 1.7839496771441858 -2.025217195550436 -1.5707805792437952 1.660740613937378 0.0 -0.17835509777069092 -0.30612948536872864 0.48060300946235657 0.0 0.0 1 True True
3243.1549999999997 4.802321910858154 -1.339167596106865 1.7676194349872034 -1.999242445031637 -1.570772949849264 1.6607542037963867 0.0 -0.2012246549129486 -0.3505214750766754 0.5441526174545288 0.0 0.0 1 True True
3243.205 4.802366733551025 -1.3492025148919602 1.75004750887026 -1.9719916782774867 -1.5708487669574183 1.6607823371887207 0.0 -0.18657606840133667 -0.3301226794719696 0.523026704788208 0.0 0.0 1 True True
3243.2549999999997 4.802326679229736 -1.357938991194107 1.73517352739443 -1.9477888546385707 -1.5707967917071741 1.6607824563980103 0.0 -0.16677162051200867 -0.2789013087749481 0.45647045969963074 0.0 0.0 1 True True
3243.305 4.802334308624268 -1.365619884138443 1.7218425909625452 -1.9270578823485316 -1.5707524458514612 1.6607153415679932 0.0 -0.14004656672477722 -0.23746968805789948 0.3845450282096863 0.0 0.0 1 True True
3243.355 4.802343368530273 -1.3719076973250885 1.711287800465719 -1.9100643597044886 -1.5707843939410608 1.6607072353363037 0.0 -0.11418580263853073 -0.1984013468027115 0.3114573359489441 0.0 -1.5370419890537675e-23 1 True True
3243.4049999999997 4.802375793457031 -1.3769196730903168 1.7025993506061 -1.8962580166258753 -1.570756737385885 1.6607526540756226 0.0 -0.0855175033211708 -0.15169310569763184 0.22956928610801697 0.0 -2.3345632415651452e-42 1 True True
3243.455 4.802346706390381 -1.3806212556413193 1.6960890928851526 -1.886205335656637 -1.57074481645693 1.6607871055603027 0.0 -0.06107630208134651 -0.11404209583997726 0.17409564554691315 0.0 -0.0 1 True True
3243.5049999999997 4.802334308624268 -1.3830610525659104 1.6919525305377405 -1.8794366321959437 -1.5707891623126429 1.6607153415679932 0.0 -0.0352027527987957 -0.060967255383729935 0.10619848966598511 0.0 -0.0 1 True True
3243.555 4.8023176193237305 -1.3843261164477845 1.689793888722555 -1.8764153919615687 -1.5707967917071741 1.6607989072799683 0.0 -0.012182818725705147 -0.01893703080713749 0.028484024107456207 0.0 -0.0 1 True True
3243.605 4.801722526550293 -1.3843576920083542 1.689695183430807 -1.876124998132223 -1.5707929770099085 1.660688042640686 -0.04059380292892456 -9.099049058094817e-24 -1.1389434766468265e-15 -1.2988977948769076e-10 0.0 -0.006924485322088003 1 True True
3243.6549999999997 4.798048496246338 -1.3843132716468354 1.6897004286395472 -1.876077791253561 -1.5707486311541956 1.6601507663726807 -0.1126934215426445 0.0012813026551157236 -0.00301388930529356 0.00377448508515954 0.0 -0.011457722634077072 1 True True
3243.705 4.790615081787109 -1.384168268447258 1.6893394629107874 -1.8760420284666957 -1.5707810560809534 1.6592100858688354 -0.1767430603504181 0.0043327780440449715 -0.00499460706487298 0.0017515072831884027 5.1032490992430316e-17 -0.022405793890357018 1 True True
3243.7549999999997 4.779810905456543 -1.383886845116951 1.689017120991842 -1.8760019741454066 -1.5708254019366663 1.6577495336532593 -0.2512512505054474 0.006825085263699293 -0.008003942668437958 0.0016988792922347784 7.751844992668244e-36 -0.03179730102419853 1 True True
3243.805 4.765417575836182 -1.3835199487260361 1.6886218229876917 -1.8758593998351039 -1.5708048979388636 1.655973196029663 -0.3151489794254303 0.007805839646607637 -0.009979953058063984 0.0010092401644214988 0.0 -0.039612140506505966 1 True True
3243.855 4.7478437423706055 -1.3831330102733155 1.6880744139300745 -1.875798841516012 -1.5708134810077112 1.6536725759506226 -0.3921375572681427 0.009326299652457237 -0.010408327914774418 0.002821737201884389 -6.500095332739875e-05 -0.04752245172858238 1 True True
3243.9049999999997 4.726395606994629 -1.38265015304599 1.687507454548971 -1.8756081066527308 -1.5708087126361292 1.6509166955947876 -0.45546257495880127 0.010549911297857761 -0.012565788812935352 0.0020463087130337954 -6.831476639490575e-05 -0.0597248375415802 1 True True
3243.955 4.7016282081604 -1.3821267646602173 1.686800781880514 -1.8755370579161585 -1.5708044211017054 1.647768259048462 -0.5305070281028748 0.013469679281115532 -0.016394278034567833 0.0021614611614495516 3.0068543073707814e-15 -0.06672386080026627 1 True True
3244.0049999999997 4.673477649688721 -1.381456897859909 1.6860483328448694 -1.8753820858397425 -1.5707772413836878 1.644087553024292 -0.5989025235176086 0.014807559549808502 -0.018682822585105896 0.002219247864559293 0.0004135981434956193 -0.0768570825457573 1 True True
3244.055 4.641817569732666 -1.3807128828815003 1.6851256529437464 -1.875131746331686 -1.5707929770099085 1.6399651765823364 -0.665022611618042 0.015150400809943676 -0.018959371373057365 0.003992089536041021 0.0006609627744182944 -0.08744219690561295 1 True True
3244.105 4.606631278991699 -1.379826859836914 1.684058968220846 -1.8749729595580042 -1.5707486311541956 1.635475516319275 -0.7366703152656555 0.016920626163482666 -0.020249634981155396 0.0065883151255548 0.0007446014205925167 -0.0942247062921524 1 True True
3244.1549999999997 4.567902088165283 -1.3790549498847504 1.6829455534564417 -1.874761243859762 -1.570784870778219 1.6304731369018555 -0.8079975247383118 0.01700635999441147 -0.023709136992692947 0.007210086565464735 0.0005261992337182164 -0.1038699671626091 1 True True
3244.205 4.5255961418151855 -1.3779903662255784 1.681744400654928 -1.8745070896544398 -1.570772949849264 1.6250356435775757 -0.8771845698356628 0.020564468577504158 -0.02341335453093052 0.006094284355640411 -3.4144003982939253e-15 -0.10904495418071747 1 True True
3244.2549999999997 4.47990083694458 -1.3769467634013672 1.6804993788348597 -1.8742248020567835 -1.570784870778219 1.6191614866256714 -0.9450095891952515 0.02091526798903942 -0.025914376601576805 0.005629364401102066 -2.801145683406503e-06 -0.12029708176851273 1 True True
3244.305 4.430711269378662 -1.3758344960263749 1.6790712515460413 -1.874026437798971 -1.5708325544940394 1.6127805709838867 -1.0209227800369263 0.021555360406637192 -0.030951617285609245 0.0034142094664275646 -0.0001353050029138103 -0.133216992020607 1 True True
3244.355 4.378635406494141 -1.3746603590301056 1.6774819532977503 -1.8736568890013636 -1.5708492437945765 1.60606050491333 -1.044667363166809 0.025430835783481598 -0.03165224939584732 0.006282289046794176 -6.234219472389668e-05 -0.13477249443531036 1 True True
3244.4049999999997 4.3262739181518555 -1.3734476876309891 1.6759808699237269 -1.8734141788878382 -1.5707648436175745 1.5993249416351318 -1.044590711593628 0.023580869659781456 -0.03071741946041584 0.007825227454304695 -2.0268540966236377e-18 -0.13705994188785553 1 True True
3244.455 4.273918628692627 -1.3721881222775956 1.6745684782611292 -1.8731433353819789 -1.5707929770099085 1.5925674438476562 -1.0482001304626465 0.02394336834549904 -0.029041366651654243 0.0043591083958745 2.454463299272902e-07 -0.1324162781238556 1 True True
3244.5049999999997 4.221556663513184 -1.3710454863360901 1.6731236616717737 -1.8727771244444789 -1.5708125273333948 1.5857338905334473 -1.0462955236434937 0.023850983008742332 -0.029018590226769447 0.004352892283350229 3.728334748075759e-26 -0.13345429301261902 1 True True
3244.555 4.169283866882324 -1.3698627215674897 1.6715415159808558 -1.8725196323790492 -1.5708006064044397 1.579062581062317 -1.0457309484481812 0.024070994928479195 -0.03215726464986801 0.007506452966481447 -2.9626239239632923e-08 -0.13453561067581177 1 True True
3244.605 4.116876602172852 -1.3685749185136338 1.6700661818133753 -1.8722530804076136 -1.5708168188678187 1.572283148765564 -1.0499236583709717 0.02368350140750408 -0.030276978388428688 0.005139021202921867 -4.5002311379002345e-27 -0.13653568923473358 1 True True
3244.6549999999997 4.064540386199951 -1.3674441140941163 1.6685736815081995 -1.8719431362547816 -1.570801083241598 1.5654919147491455 -1.046812891960144 0.024728940799832344 -0.030000632628798485 0.004631142597645521 -0.0 -0.13581882417201996 1 True True
3244.705 4.012122631072998 -1.3662269425443192 1.6670401732074183 -1.8716007671751917 -1.5707767645465296 1.558756947517395 -1.044429063796997 0.022671964019536972 -0.027975894510746002 0.0068534673191607 -0.0 -0.1361210197210312 1 True True
3244.7549999999997 3.9597809314727783 -1.3649795365384598 1.665652100239889 -1.871349950829977 -1.5707886854754847 1.5520219802856445 -1.0485904216766357 0.023592136800289154 -0.031368911266326904 0.006938616279512644 -0.0 -0.13764022290706635 1 True True
3244.805 3.9073567390441895 -1.3638130289367218 1.6640237013446253 -1.8710805378355921 -1.5707572142230433 1.5452567338943481 -1.049215316772461 0.02527352049946785 -0.031955406069755554 0.006217519752681255 -0.0 -0.13312897086143494 1 True True
3244.855 3.8550665378570557 -1.3626089853099366 1.6625149885760706 -1.8707782230772914 -1.5707648436175745 1.5384916067123413 -1.0463767051696777 0.023653842508792877 -0.029163794592022896 0.006273113656789064 -0.0 -0.1345607489347458 1 True True
3244.9049999999997 3.802676200866699 -1.3614005607417603 1.6610668341266077 -1.8704515896239222 -1.5707724730121058 1.5317009687423706 -1.051735281944275 0.0234440378844738 -0.027880050241947174 0.006035773083567619 -0.0 -0.1353669911623001 1 True True
3244.955 3.7503626346588135 -1.3602521431497117 1.6595185438739222 -1.87011780361318 -1.5707724730121058 1.5249590873718262 -1.0486522912979126 0.025837954133749008 -0.02727542445063591 0.005426357965916395 -0.0 -0.13504107296466827 1 True True
3245.0049999999997 3.6980035305023193 -1.359109790330269 1.658048454915182 -1.8698917828001917 -1.5707562605487269 1.5182487964630127 -1.0442241430282593 0.0227157361805439 -0.03349025547504425 0.004994076211005449 -0.0 -0.1394149363040924 1 True True
3245.055 3.645634412765503 -1.3578399580768128 1.6565197149859827 -1.8695413074889125 -1.570784870778219 1.5114715099334717 -1.048817753791809 0.024149959906935692 -0.03006090596318245 0.005522232037037611 -0.0 -0.13888610899448395 1 True True
3245.105 3.5932648181915283 -1.356575922375061 1.6550706068622034 -1.869275232354635 -1.570829216633932 1.5047193765640259 -1.0488554239273071 0.02546965330839157 -0.03098953515291214 0.007543457671999931 -0.0 -0.13907699286937714 1 True True
3245.1549999999997 3.5408051013946533 -1.3553931576064606 1.6535299460040491 -1.868909021417135 -1.5707891623126429 1.4978195428848267 -1.0411986112594604 0.023260848596692085 -0.03078210912644863 0.0064066993072628975 -0.0 -0.13229946792125702 1 True True
3245.205 3.48850154876709 -1.354234130387642 1.6521928946124476 -1.8686305485167445 -1.5707648436175745 1.4912387132644653 -1.049410343170166 0.024190295487642288 -0.028281399980187416 0.007209915202111006 -0.0 -0.13577593863010406 1 True True
3245.2549999999997 3.4361236095428467 -1.3530303996852417 1.6505969206439417 -1.8683845005431117 -1.570756737385885 1.484453558921814 -1.0487442016601562 0.023850060999393463 -0.033182431012392044 0.005202439147979021 -0.0 -0.135476216673851 1 True True
3245.305 3.3838632106781006 -1.3517721456340333 1.6490657965289515 -1.868086954156393 -1.570772949849264 1.4776883125305176 -1.0265355110168457 0.022883430123329163 -0.028358619660139084 0.00574792455881834 -0.0 -0.13316848874092102 1 True True
3245.355 3.3338818550109863 -1.3506552141955872 1.6476877371417444 -1.8678084812560023 -1.5708730856524866 1.4712070226669312 -0.9715055823326111 0.020247166976332664 -0.02723804861307144 0.003576328046619892 -0.0 -0.12356261163949966 1 True True
3245.4049999999997 3.2872376441955566 -1.349556342964508 1.6463196913348597 -1.867462774316305 -1.5707362333880823 1.4651968479156494 -0.8959253430366516 0.019977007061243057 -0.02421124093234539 0.0069405739195644855 0.0008949206676334143 -0.11714423447847366 1 True True
3245.455 3.244039535522461 -1.3485639107278367 1.6451166311847132 -1.867262979547018 -1.5708449522601526 1.4596881866455078 -0.8313761949539185 0.018732452765107155 -0.02440279722213745 0.005943831987679005 9.17592115001753e-05 -0.11052966117858887 1 True True
3245.5049999999997 3.20428466796875 -1.347638950949051 1.6439407507525843 -1.8670808277525843 -1.5707886854754847 1.4544742107391357 -0.757377564907074 0.016765164211392403 -0.02214694209396839 0.004498962312936783 4.876382075913455e-10 -0.0974775180220604 1 True True
3245.555 3.1681904792785645 -1.3469161552241822 1.6428888479815882 -1.866826673547262 -1.5708134810077112 1.4498326778411865 -0.6862980127334595 0.013805571012198925 -0.02014688216149807 0.004526195116341114 7.407235501525788e-29 -0.0869085043668747 1 True True
3245.605 3.13558030128479 -1.3460780692151566 1.6420043150531214 -1.8666397533812464 -1.5708172957049769 1.445622444152832 -0.6175360083580017 0.014178292825818062 -0.015260417014360428 0.005349735263735056 -7.8366504396854e-09 -0.0832304060459137 1 True True
3245.6549999999997 3.1064915657043457 -1.34544991076503 1.6411107222186487 -1.8665124378600062 -1.5707281271563929 1.4419009685516357 -0.5470060110092163 0.01135603990405798 -0.016049958765506744 0.0031143282540142536 0.0002975543902721256 -0.07187287509441376 1 True True
3245.705 3.080902338027954 -1.3448380392840882 1.6404755751239222 -1.8663045368590296 -1.5707443396197718 1.4385871887207031 -0.4784562587738037 0.010097451508045197 -0.012590937316417694 0.003380831331014633 0.00024613196728751063 -0.05998235568404198 1 True True
3245.7549999999997 3.058690309524536 -1.3443506223014374 1.6398065725909632 -1.866253515283102 -1.5707805792437952 1.4356735944747925 -0.4057113230228424 0.008201461285352707 -0.009762462228536606 0.003921390976756811 -2.7357526022342427e-08 -0.05196453630924225 1 True True
3245.805 3.0398337841033936 -1.3439189356616517 1.639289681111471 -1.866129060784811 -1.570853058491842 1.43330717086792 -0.3378450870513916 0.008143613114953041 -0.008606446906924248 0.0017635630210861564 -0.0005439093220047653 -0.044756364077329636 1 True True
3245.855 3.0247066020965576 -1.343573973780014 1.6388724485980433 -1.8660508594908656 -1.5707805792437952 1.4313169717788696 -0.27283990383148193 0.006557880435138941 -0.008111314848065376 0.0007102024974301457 5.066220910521224e-05 -0.03477337583899498 1 True True
3245.9049999999997 3.012909412384033 -1.343368486767151 1.6385591665851038 -1.8659631214537562 -1.5707967917071741 1.429809808731079 -0.19780564308166504 0.0047822510823607445 -0.006106776650995016 0.0012594257714226842 2.102892722177785e-05 -0.02820637822151184 1 True True
3245.955 3.004873275756836 -1.3431559366038819 1.638331715260641 -1.8659349880614222 -1.5708048979388636 1.4288008213043213 -0.13191507756710052 0.002805375261232257 -0.0047562262043356895 0.0011148464400321245 8.292545720490644e-22 -0.01671765372157097 1 True True
3246.0049999999997 3.000153064727783 -1.3430313181928177 1.6381405035602015 -1.8658915958800257 -1.5708048979388636 1.4281799793243408 -0.05958930402994156 0.0010508184786885977 -0.002076278207823634 0.0003659473732113838 1.2596412025662213e-40 -0.005451378878206015 1 True True
3246.055 2.9988505840301514 -1.3429907870343705 1.638097111378805 -1.8659645519652308 -1.570801083241598 1.4281365871429443 -0.0017291903495788574 0.014547700993716717 0.005315018352121115 -0.00020431452139746398 0.0 -0.0003146827220916748 1 True True
3246.105 2.9988462924957275 -1.3418934655240555 1.6393430868731897 -1.8681799374022425 -1.5707529226886194 1.428020715713501 -0.0006790774059481919 0.028691289946436882 0.05028790235519409 -0.09009315818548203 4.5441303497817387e-10 -0.0015498026041314006 1 True True
3246.1549999999997 2.9988460540771484 -1.3400285255960007 1.6429112593280237 -1.8739577732481898 -1.5707767645465296 1.427984595298767 -0.0007454174337908626 0.05309484153985977 0.09985974431037903 -0.14164410531520844 6.902544355892898e-29 -0.00025713714421726763 1 True True
3246.205 2.998784065246582 -1.336773396735527 1.6490400473224085 -1.8831974468626917 -1.5708377997027796 1.428005576133728 -0.0008332223515026271 0.07709670066833496 0.14395780861377716 -0.23035076260566711 -0.00011493459169287235 -0.00010585275595076382 1 True True
3246.2549999999997 2.9988460540771484 -1.332056851392128 1.6571815649615687 -1.895902772943014 -1.570853058491842 1.4279890060424805 -0.000647425651550293 0.10627878457307816 0.18560104072093964 -0.29237449169158936 -0.00014299080066848546 -6.665269029326737e-05 1 True True
3246.305 2.9987852573394775 -1.3262647551349183 1.6678078810321253 -1.9121529064574183 -1.5707967917071741 1.4279932975769043 -0.0002177030110033229 0.13143298029899597 0.22652103006839752 -0.3606254756450653 -9.562075138092041e-05 -3.1362082375530065e-10 1 True True
3246.355 2.9987776279449463 -1.3191150289824982 1.680159870778219 -1.9318129024901332 -1.5707925001727503 1.4279975891113281 -9.049947402672842e-05 0.15416735410690308 0.27748727798461914 -0.43124568462371826 -8.837120549287647e-05 -4.763906583430583e-29 1 True True
3246.4049999999997 2.998748540878296 -1.310709611778595 1.6952627340899866 -1.9550844631590785 -1.570784870778219 1.4279488325119019 -8.431038440903649e-05 0.17541103065013885 0.3170734941959381 -0.49050262570381165 -5.265065556159243e-05 -0.0 1 True True
3246.455 2.998765707015991 -1.3012194496444245 1.7120807806598108 -1.9817258320250453 -1.5707805792437952 1.4280260801315308 -4.8230889660771936e-05 0.19985263049602509 0.35909271240234375 -0.57322758436203 -3.5069022325233955e-22 -0.0 1 True True
3246.5049999999997 2.9987494945526123 -1.2917041939548035 1.729028050099508 -2.008000989953512 -1.5707724730121058 1.4280173778533936 -3.3341344533255324e-05 0.17896617949008942 0.3130515217781067 -0.5106165409088135 -5.327036112130792e-41 -0.0 1 True True
3246.555 2.9988014698028564 -1.2834045451930542 1.7434871832477015 -2.0309611759581507 -1.5707925001727503 1.427984595298767 1.401298464324817e-45 0.1509409248828888 0.2714063823223114 -0.4328667223453522 -0.0 2.1889450252388087e-08 1 True True
3246.605 2.998760461807251 -1.276407317524292 1.7558415571795862 -2.050281663934225 -1.5707767645465296 1.4279717206954956 0.0 0.12284769117832184 0.231634721159935 -0.3604002892971039 -0.0 3.32501250802361e-27 1 True True
3246.6549999999997 2.998792886734009 -1.2706934374621888 1.7660463492022913 -2.06615748027944 -1.5707767645465296 1.4279773235321045 0.0 0.10474402457475662 0.17653340101242065 -0.2767792046070099 -0.0 0.0 1 True True
3246.705 2.99878191947937 -1.2662672859481354 1.773886505757467 -2.078454156915182 -1.5707805792437952 1.4279611110687256 0.0 0.07902107387781143 0.13924221694469452 -0.2132292091846466 -0.0 0.0 1 True True
3246.7549999999997 2.9988179206848145 -1.2630437177470704 1.7795255819903772 -2.0873524151244105 -1.570801083241598 1.428005576133728 0.0 0.05229102075099945 0.09223154187202454 -0.13633134961128235 -0.0 0.0 1 True True
3246.805 2.998703956604004 -1.2612502139857789 1.7828286329852503 -2.09285893062734 -1.57082444826235 1.4280335903167725 0.0 0.018876727670431137 0.03663938492536545 -0.06604590266942978 0.0008500099647790194 0.0 1 True True
3246.855 2.9988014698028564 -1.2608984571746369 1.7836526075946253 -2.09491028408193 -1.5708406607257288 1.4279524087905884 0.0 0.0015454867389053106 0.0035298343282192945 -0.005672269035130739 5.984058734642694e-12 0.0 1 True True
3246.9049999999997 2.9987645149230957 -1.2607461971095582 1.7836874167071741 -2.0949541531004847 -1.5708969275103968 1.4279611110687256 0.0 0.007198113016784191 0.007306948769837618 0.0005625715712085366 9.089796888354939e-31 0.0 1 True True
3246.955 2.9987525939941406 -1.2601681512645264 1.7841294447528284 -2.094905515710348 -1.5706890265094202 1.4279890060424805 0.0 0.010242566466331482 0.013812324963510036 0.00789452064782381 0.00522610591724515 -8.992065425594831e-11 1 True True
3247.0049999999997 2.998804807662964 -1.2599099439433594 1.78510028520693 -2.0940829716124476 -1.5706647078143519 1.4279816150665283 0.0002443419652990997 -0.021590936928987503 -0.0346473753452301 -0.0351548008620739 -0.0007753344834782183 0.0007898854091763496 1 True True
3247.055 2.9987943172454834 -1.260067419414856 1.7847393194781702 -2.094508787194723 -1.5707648436175745 1.4279968738555908 6.795043736929074e-05 -0.005132406018674374 -0.003811993170529604 0.0002968051703646779 -0.0006853613303974271 -6.342373458020911e-13 1 True False
3247.105 2.9988436698913574 -1.2602684658816834 1.7845233122455042 -2.094555994073385 -1.5707610289203089 1.4279532432556152 4.170864121988416e-05 -0.0015724084805697203 -0.0012871084036305547 -0.0003448756178840995 -0.002178291790187359 2.1362398612209677e-13 1 True False
3247.1549999999997 2.9988059997558594 -1.2604322594455262 1.7843268553363245 -2.09459986309194 -1.5708091894732874 1.4280097484588623 -1.0431101145513821e-05 -0.00017362246580887586 -0.0006376658566296101 -0.0010988520225510001 -0.0009603166254237294 3.2449524493185124e-32 1 True False
3247.205 2.9987971782684326 -1.2611790758422394 1.783022705708639 -2.0929757557311 -1.5707886854754847 1.4280011653900146 -0.0 -0.026060283184051514 -0.04683651775121689 0.07372009754180908 -0.0002721399359870702 0.0 1 True False
3247.2549999999997 2.9988017082214355 -1.2629619401744385 1.7796896139727991 -2.0874811611571253 -1.570813004170553 1.4280259609222412 0.0 -0.05143580585718155 -0.0958380177617073 0.1483435332775116 -0.00013082129589747638 0.0 1 True False
3247.305 2.9988272190093994 -1.2660944622806092 1.7740901152240198 -2.078585287133688 -1.5708087126361292 1.4279731512069702 0.0 -0.0753122866153717 -0.13605308532714844 0.208708718419075 -2.5404049665667117e-05 0.0 1 True False
3247.355 2.9987688064575195 -1.2706707280925293 1.7661650816546839 -2.066397806207174 -1.5708487669574183 1.4279687404632568 0.0 -0.09970247745513916 -0.18038150668144226 0.30009421706199646 -1.4429805128557405e-09 0.0 1 True False
3247.4049999999997 2.9987807273864746 -1.2763397556594391 1.7559707800494593 -2.0504924259581507 -1.5707967917071741 1.4279890060424805 0.0 -0.12910157442092896 -0.22325198352336884 0.3445492088794708 -2.191890758574905e-28 0.0 1 True False
3247.455 2.9988346099853516 -1.2832665306380768 1.743751351033346 -2.031151910821432 -1.5708168188678187 1.4280097484588623 0.0 -0.1490757316350937 -0.26922503113746643 0.42796266078948975 -0.0 0.0 1 True False
3247.5049999999997 2.9987807273864746 -1.291562245493271 1.7290967146502894 -2.0083724460997523 -1.570784870778219 1.427948236465454 0.0 -0.1761206090450287 -0.3122384548187256 0.48817795515060425 -0.0 0.0 1 True False
3247.555 2.99883770942688 -1.3010070782950898 1.7123053709613245 -1.9820672474303187 -1.5707967917071741 1.428021788597107 0.0 -0.20600424706935883 -0.35439103841781616 0.5655447244644165 -0.0 0.0 1 True False
3247.605 2.9988303184509277 -1.3107134860805054 1.6953542868243616 -1.955306192437643 -1.5708335081683558 1.4279816150665283 0.0 -0.17639802396297455 -0.3156872093677521 0.5079466104507446 -0.0 0.0 1 True False
3247.6549999999997 2.9987807273864746 -1.3190921706012269 1.6803644339190882 -1.932040353814596 -1.570756737385885 1.4280508756637573 0.0 -0.15403537452220917 -0.2696292996406555 0.43340206146240234 -0.0 0.0 1 True False
3247.705 2.998821258544922 -1.3261477959207078 1.6678202787982386 -1.9123760662474574 -1.570862118397848 1.4279968738555908 0.0 -0.13453182578086853 -0.23375290632247925 0.37400129437446594 -5.751084609073587e-05 0.0 1 True False
3247.7549999999997 2.9987807273864746 -1.332045079474785 1.657384220753805 -1.896050592462057 -1.570801083241598 1.4279481172561646 0.0 -0.1062643751502037 -0.18525171279907227 0.2811741828918457 -2.021421410236111e-21 0.0 1 True False
3247.805 2.9987852573394775 -1.3367029291442414 1.6493938604937952 -1.8833753071227015 -1.5708335081683558 1.427984595298767 0.0 -0.0817101001739502 -0.14294354617595673 0.2226157933473587 -3.0705392080131824e-40 0.0 1 True False
3247.855 2.9988346099853516 -1.340004341011383 1.643397633229391 -1.874131818810934 -1.5707767645465296 1.4280173778533936 -5.4245704336850636e-14 -0.05308336019515991 -0.10027530044317245 0.15638478100299835 -0.0 0.0 1 True False
3247.9049999999997 2.9987971782684326 -1.3421095174602051 1.6396053473102015 -1.8682648144164027 -1.5707886854754847 1.4279890060424805 3.133846746550262e-07 -0.030542874708771706 -0.04994885250926018 0.08191664516925812 -0.0 0.0 1 True False
3247.955 2.9988300800323486 -1.3428636950305481 1.6382115522967737 -1.8658601246275843 -1.5707686583148401 1.4279890060424805 0.0 -0.001610429841093719 -0.009099912829697132 0.011141135357320309 -0.0 0.0 1 True False
3248.0049999999997 2.9987688064575195 -1.3428919923356553 1.6382415930377405 -1.865903993646139 -1.5707891623126429 1.4279568195343018 0.0 5.776646139565855e-05 -0.0010857736924663186 -0.00019103247905150056 -0.0 0.0 1 False False
3248.055 2.99875545501709 -1.3428964775851746 1.6381328741656702 -1.865847726861471 -1.5707405249225062 1.4280097484588623 0.0 0.0 -0.002290214877575636 -2.0989076801924966e-05 -0.0 0.0 1 False False
3248.105 2.9988346099853516 -1.3429128986648102 1.638080898915426 -1.8658596477904261 -1.5708444754229944 1.4279273748397827 0.0 -0.0009635885362513363 -0.0006619604537263513 -1.3258298167784233e-05 -0.0 0.0 1 False False
3248.1549999999997 2.9988062381744385 -1.3429640096477051 1.6381056944476526 -1.8658319912352503 -1.5707810560809534 1.428005576133728 0.0 -0.0006331579643301666 -0.00024268348352052271 -1.30710944290513e-07 -0.0 0.0 1 False False
3248.205 2.9987761974334717 -1.342923493390419 1.6380732695208948 -1.865892072717184 -1.5708406607257288 1.4279803037643433 0.0 -0.00015277863712981343 -0.00014127609028946608 -1.985502039055044e-26 -0.0 0.0 1 False False
3248.2549999999997 2.9988017082214355 -1.342951850300171 1.6380327383624476 -1.8658482036986292 -1.5707929770099085 1.4279773235321045 0.0 -9.916556882672012e-05 -9.47811349760741e-05 -2.802596928649634e-45 -0.0 0.0 1 False False
3248.305 2.9987599849700928 -1.3429697912982483 1.6380212942706507 -1.86586393932485 -1.5707691351519983 1.4279890060424805 0.0 0.0 -2.5058318309105802e-17 -0.0 -0.0 0.0 1 False False
3248.355 2.9988017082214355 -1.342881367807724 1.6380580107318323 -1.865920206109518 -1.5707691351519983 1.4280498027801514 0.0 0.0 -0.0 -0.0 -0.0 0.0 1 False False
3248.4049999999997 2.9987478256225586 -1.3429894310287018 1.6380327383624476 -1.86586393932485 -1.570784870778219 1.4279359579086304 0.0 0.0 -2.3953964693409525e-16 -0.0 -0.0 0.0 1 False False
3248.455 2.9988229274749756 -1.342966989879944 1.6380861441241663 -1.8659001789488734 -1.5707929770099085 1.427984595298767 0.0 0.0 -0.0 -0.0 -0.0 0.0 1 False False
3248.5049999999997 2.998739004135132 -1.3429472756436844 1.6380537191974085 -1.865915914575094 -1.5708206335650843 1.4279760122299194 0.0 0.0 -0.0 -0.0 -0.0 0.0 1 False False
3248.555 2.9987642765045166 -1.3429730397513886 1.6380904356585901 -1.8658720455565394 -1.570772949849264 1.4280097484588623 0.0 0.0 -0.0 -0.0 -0.0 0.0 1 False False
3248.605 2.9988303184509277 -1.3429145526937027 1.6380284468280237 -1.8659078083434046 -1.5708006064044397 1.4279611110687256 0.0 0.0 -0.0 -0.0 -0.0 0.0 1 False False
3248.6549999999997 2.9987926483154297 -1.3429833364537735 1.6380613485919397 -1.8658887348570765 -1.5707691351519983 1.4280421733856201 0.0 0.0 -0.0 -0.0 -0.0 0.0 1 False False
3248.705 2.9987823963165283 -1.342944399719574 1.6380370298968714 -1.8659120998778285 -1.570784870778219 1.4280335903167725 0.0 0.0 -0.0 -0.0 -0.0 0.0 1 False False
3248.7549999999997 2.9987807273864746 -1.3428859573653718 1.638057057057516 -1.865892072717184 -1.5708206335650843 1.4279844760894775 0.0 0.0 -0.0 -0.0 -0.0 0.0 1 False False
3248.805 2.9987926483154297 -1.343005822306015 1.6381028334247034 -1.8658558330931605 -1.5708087126361292 1.4280130863189697 0.0 0.0 -0.0 -0.0 -0.0 0.0 1 False False
3248.855 2.9987480640411377 -1.3429652613452454 1.6380823294269007 -1.8658844433226527 -1.5707610289203089 1.4279565811157227 0.0 0.0 -0.0 -0.0 -0.0 0.0 1 False False
3248.9049999999997 2.9987523555755615 -1.3429894310287018 1.6379998365985315 -1.86586393932485 -1.5708048979388636 1.4279683828353882 0.0 0.0 2.3042458963118406e-07 -0.0 -0.0 8.911977822378958e-09 1 False False
3248.955 2.9987807273864746 -1.3429550689509888 1.6380403677569788 -1.86588778118276 -1.5707886854754847 1.4280697107315063 0.0 0.0 5.422131364828434e-37 -0.0 -0.0 1.3537320171604076e-27 1 True False
3249.0049999999997 2.9987852573394775 -1.3429488700679322 1.6380894819842737 -1.8659240208067835 -1.5707805792437952 1.4279729127883911 0.0 0.0 0.0 -0.0 -0.0 0.0 1 True False
3249.055 2.9987807273864746 -1.342944399719574 1.6380522886859339 -1.8658997021117152 -1.5708449522601526 1.4279932975769043 0.0 0.0 0.0 -0.0 -0.0 0.0 1 True False
3249.105 2.998788356781006 -1.3429550689509888 1.6380437056170862 -1.8658844433226527 -1.5708211104022425 1.4280011653900146 0.0 0.0 0.0 -0.0 -0.0 0.0 1 True False
3249.1549999999997 2.9988059997558594 -1.3429759305766602 1.6380451361285608 -1.8659001789488734 -1.5707767645465296 1.4279800653457642 0.0 0.0 0.0 -1.5037205182527163e-16 -0.0 0.0 1 True False
3249.205 2.9988017082214355 -1.3429354441216965 1.6380823294269007 -1.865892072717184 -1.570801083241598 1.4279800653457642 0.0 0.0 0.0 -2.284154271371895e-35 -0.0 0.0 1 True False
3249.2549999999997 2.9988059997558594 -1.3430221092752 1.6380942503558558 -1.8658596477904261 -1.5707767645465296 1.4279844760894775 0.0 0.0 2.9256415366602458e-24 -0.0 -0.0 0.0 1 True False
3249.305 2.998788356781006 -1.3429640096477051 1.638007942830221 -1.8658930263915003 -1.57074481645693 1.4279639720916748 0.0 0.0 0.0 -0.0 -0.0 0.0 1 True False
3249.355 2.998771905899048 -1.34299390137706 1.6381104628192347 -1.86586393932485 -1.5707891623126429 1.427992343902588 0.0 0.0 0.0 -0.0 -0.0 0.0 1 True False
3249.4049999999997 2.9988269805908203 -1.34298791111026 1.6380732695208948 -1.8658439121642054 -1.570801083241598 1.4279699325561523 0.0 0.0 0.0 -0.0 -0.0 0.0007810798706486821 1 True False
3249.455 2.9988059997558594 -1.3429398995688935 1.6380732695208948 -1.865840574304098 -1.5708654562579554 1.4280264377593994 0.0 0.0 0.0 -0.0 -0.0 0.00036067934706807137 1 True False
3249.5049999999997 2.9987940788269043 -1.342944399719574 1.638057057057516 -1.8658677540221156 -1.5708044211017054 1.4279729127883911 -0.00024343252880498767 0.0 0.0 -0.0 -0.0 -0.0010328232310712337 1 True False
3249.555 2.9988300800323486 -1.3428367686322709 1.638068977986471 -1.8658634624876917 -1.5707891623126429 1.4280190467834473 0.0 0.0 -8.708501801624191e-12 -0.0 2.48605735997387e-09 2.0590292304233272e-16 1 True False
3249.605 2.9989466667175293 -1.3429354590228577 1.6380327383624476 -1.8658677540221156 -1.5708168188678187 1.4280308485031128 0.02688346989452839 0.0 -2.0492588742286125e-41 -0.0 3.7763268422855487e-28 3.127669617273405e-35 1 True False
3249.6549999999997 3.0014889240264893 -1.343112589125969 1.6382315794574183 -1.8659197292723597 -1.5707767645465296 1.4281400442123413 0.08883151412010193 -0.006714601535350084 0.008184683509171009 -1.6743544051234238e-11 2.8699808155008277e-11 0.005056160502135754 1 True False
3249.705 3.0078625679016113 -1.3435427856496354 1.6387303511248987 -1.8659593067564906 -1.5708487669574183 1.4286187887191772 0.1576758623123169 -0.012029306963086128 0.01078293938189745 -0.0035566368605941534 4.359506810250527e-30 0.011317472904920578 1 True False
3249.7549999999997 3.017545700073242 -1.344226361518242 1.639465634022848 -1.866110464135641 -1.5707805792437952 1.429182767868042 0.22759217023849487 -0.01475541852414608 0.01876395009458065 -0.0021383140701800585 0.0 0.013657670468091965 1 True False
3249.805 3.0305798053741455 -1.3449939650348206 1.6404369513141077 -1.866288801232809 -1.5708211104022425 1.4300627708435059 0.29610779881477356 -0.019536273553967476 0.02537596970796585 -0.0031001532915979624 0.0 0.02085520513355732 1 True False
3249.855 3.0472183227539062 -1.346164957886078 1.641808811818258 -1.8665720425047816 -1.570784870778219 1.4312026500701904 0.3650858700275421 -0.02406289614737034 0.029609089717268944 -0.0057420856319367886 0.000111611261672806 0.024548733606934547 1 True False
3249.9049999999997 3.0673835277557373 -1.3474798661521454 1.6434252897845667 -1.866826673547262 -1.5708449522601526 1.4324456453323364 0.4358491897583008 -0.026937387883663177 0.03545912727713585 -0.008120900020003319 8.756846364121884e-05 0.029410962015390396 1 True False
3249.955 3.0911478996276855 -1.3489744079164048 1.6454198996173304 -1.8671642742552699 -1.570784870778219 1.4340062141418457 0.504198431968689 -0.032656725496053696 0.0405082143843174 -0.009052487090229988 -6.152876693766983e-18 0.034301869571208954 1 True False
3250.0049999999997 3.118269443511963 -1.3508323293975373 1.6474459807025355 -1.8675342998900355 -1.5707805792437952 1.4357879161834717 0.5792573690414429 -0.03925028815865517 0.048887964338064194 -0.005678232293576002 1.4364192242610502e-15 0.037501636892557144 1 True False
3250.055 3.1487696170806885 -1.3527465623668213 1.6499174276935022 -1.8679472408690394 -1.570796314870016 1.4377856254577637 0.6497712731361389 -0.042728424072265625 0.0496843159198761 -0.005086718127131462 -0.00028096046298742294 0.0420524999499321 1 True False
3250.105 3.182860851287842 -1.3549388659051438 1.6525257269488733 -1.8684607944884242 -1.5708087126361292 1.440009593963623 0.713823676109314 -0.047011081129312515 0.05562366917729378 -0.0085075618699193 -0.0006766881560906768 0.044793806970119476 1 True False
3250.1549999999997 3.2204740047454834 -1.3574725550464173 1.6555083433734339 -1.8689176044859828 -1.5707925001727503 1.4424328804016113 0.7832534909248352 -0.05256577581167221 0.06534774601459503 -0.009404373355209827 -0.0002526146708987653 0.05306456238031387 1 True False
3250.205 3.261549234390259 -1.3600976181081315 1.6588476339923304 -1.869378229180807 -1.570813004170553 1.4451377391815186 0.8574773073196411 -0.05710748955607414 0.06924515962600708 -0.009107447229325771 6.801277777412906e-05 0.05364849045872688 1 True False
3250.2549999999997 3.3061163425445557 -1.363032118683197 1.66229755083193 -1.8700949154295863 -1.5707843939410608 1.4481143951416016 0.9208385348320007 -0.059208814054727554 0.07232946157455444 -0.016163531690835953 4.782409334960685e-20 0.05924048274755478 1 True False
3250.305 3.354112148284912 -1.3662090015462418 1.6662262121783655 -1.8706027470030726 -1.5707805792437952 1.4512323141098022 1.0002951622009277 -0.06643955409526825 0.08078762143850327 -0.013736266642808914 7.264490987084785e-39 0.06390363723039627 1 True False
3250.355 3.4056525230407715 -1.3695822966149827 1.6701534430133265 -1.871333738366598 -1.5707805792437952 1.454491138458252 1.0408626794815063 -0.06702346354722977 0.08032520860433578 -0.013052626512944698 0.0 0.06922514736652374 1 True False
3250.4049999999997 3.457963466644287 -1.372950018649437 1.674229923878805 -1.8721143207945765 -1.5708168188678187 1.457942008972168 1.046797513961792 -0.06810054183006287 0.07958665490150452 -0.014220002107322216 8.724294514085313e-15 0.0690198540687561 1 True False
3250.455 3.5102760791778564 -1.3763456505588074 1.6783440748797815 -1.8728062115111292 -1.570813004170553 1.4614076614379883 1.0523072481155396 -0.06772986799478531 0.08587843179702759 -0.013060720637440681 -0.00013067417603451759 0.06870274245738983 1 True False
3250.5049999999997 3.5627036094665527 -1.3797924530557175 1.6825512091266077 -1.8734575710692347 -1.570801083241598 1.46477210521698 1.042178750038147 -0.06743115931749344 0.07942043244838715 -0.01626712642610073 1.8906389698258863e-07 0.06848708540201187 1 True False
3250.555 3.6150734424591064 -1.383264647131302 1.686624828969137 -1.874232908288473 -1.5707724730121058 1.4682313203811646 1.046270728111267 -0.06601206958293915 0.08623144030570984 -0.014076443389058113 2.8718841788656524e-26 0.06717552244663239 1 True False
3250.605 3.6673879623413086 -1.3867218506387253 1.690763298665182 -1.8749686680235804 -1.570801083241598 1.4716038703918457 1.052186131477356 -0.07053864002227783 0.0810912474989891 -0.012176810763776302 4.203895392974451e-45 0.06760786473751068 1 True False
3250.6549999999997 3.7197394371032715 -1.3900639575770875 1.6950557867633265 -1.8755847416319789 -1.5708335081683558 1.4750853776931763 1.044624924659729 -0.07045896351337433 0.07970653474330902 -0.011858293786644936 0.0 0.07009473443031311 1 True False
3250.705 3.7721595764160156 -1.3935706180385132 1.6990793387042444 -1.876348157922262 -1.5708211104022425 1.4784737825393677 1.0441303253173828 -0.06762415170669556 0.08313728868961334 -0.013084234669804573 0.0 0.06970556080341339 1 True False
3250.7549999999997 3.824477195739746 -1.3969817173532029 1.7031367460833948 -1.87701477626943 -1.5707529226886194 1.4819133281707764 1.0520579814910889 -0.06967176496982574 0.07985903322696686 -0.017173433676362038 0.0 0.0692509189248085 1 True False
3250.805 3.87687349319458 -1.4003729683211823 1.7073033491717737 -1.8776895008482875 -1.570784870778219 1.4853546619415283 1.0441967248916626 -0.06788574904203415 0.08608230948448181 -0.010837157256901264 -7.023180660326034e-05 0.06856273114681244 1 True False
3250.855 3.929264545440674 -1.403821961288788 1.7113354841815394 -1.8784557781615199 -1.5707805792437952 1.488783597946167 1.0460646152496338 -0.06683631241321564 0.08369199931621552 -0.01431130338460207 -2.95986259883005e-23 0.06837856769561768 1 True False
3250.9049999999997 3.9815101623535156 -1.4071882677129288 1.7155097166644495 -1.8791028461852015 -1.570801083241598 1.4921411275863647 1.0530433654785156 -0.06767715513706207 0.07781843096017838 -0.01624501310288906 0.00010341434244764969 0.0693434625864029 1 True False
3250.955 4.0339202880859375 -1.410591871743538 1.719649616871969 -1.8798328838744105 -1.5707686583148401 1.4955534934997559 1.0451760292053223 -0.06753624975681305 0.08902015537023544 -0.013792636804282665 -0.00018733090837486088 0.06736841797828674 1 True False
3251.0049999999997 4.08625602722168 -1.414067493086197 1.723779026662008 -1.8805633984007777 -1.5708406607257288 1.4990097284317017 1.0457329750061035 -0.06789817661046982 0.08171498775482178 -0.016910307109355927 3.852072040899657e-05 0.06523974239826202 1 True False
3251.055 4.138627052307129 -1.4174487602761765 1.7280257383929651 -1.8812371693053187 -1.5707767645465296 1.502393126487732 1.0491031408309937 -0.0660603865981102 0.08386258780956268 -0.015293492004275322 7.908744009910151e-05 0.06789804995059967 1 True False
3251.105 4.190989017486572 -1.4208555531552811 1.7320998350726526 -1.8819762669005335 -1.5707891623126429 1.5058749914169312 1.0403788089752197 -0.07124724239110947 0.08307229727506638 -0.013025638647377491 9.505944089822909e-19 0.0681472048163414 1 True False
3251.1549999999997 4.243415832519531 -1.4243358832648774 1.7361906210528772 -1.8826266727843226 -1.5708087126361292 1.509283423423767 1.0454455614089966 -0.0692153051495552 0.07737957686185837 -0.016021257266402245 1.4439553348253903e-37 0.06717821955680847 1 True False
3251.205 4.2956132888793945 -1.4278087180903931 1.740265194569723 -1.883312841454977 -1.5707805792437952 1.5125839710235596 1.0307673215866089 -0.0673133060336113 0.08356832712888718 -0.013285270892083645 8.697278826730326e-05 0.0661899745464325 1 True False
3251.2549999999997 4.345639705657959 -1.4309827250293274 1.7442334334002894 -1.8840638599791468 -1.570801083241598 1.5158814191818237 0.9667858481407166 -0.06501419097185135 0.07540618628263474 -0.013523813337087631 -0.0005250832764431834 0.06423032283782959 1 True False
3251.305 4.392139434814453 -1.4340145003846665 1.7478368918048304 -1.8846904240050257 -1.5708211104022425 1.518954873085022 0.8980283141136169 -0.05809657275676727 0.07150548696517944 -0.015020566061139107 -2.9243394237710163e-05 0.0617944560945034 1 True False
3251.355 4.435272216796875 -1.436825470333435 1.751228157673971 -1.885317941705221 -1.5708449522601526 1.52178156375885 0.8242080211639404 -0.052569031715393066 0.06607938557863235 -0.014056012034416199 -0.00030270012211985886 0.0542631670832634 1 True False
3251.4049999999997 4.474740028381348 -1.4394177955440064 1.7544515768634241 -1.8857561550536097 -1.5707972685443323 1.5243645906448364 0.7608808279037476 -0.048549067229032516 0.06192036345601082 -0.009028073400259018 1.18795001613492e-10 0.04832290858030319 1 True False
3251.455 4.510760307312012 -1.4418508422425766 1.7572415510760706 -1.8862067661681117 -1.5708048979388636 1.5266995429992676 0.6896935105323792 -0.046176888048648834 0.05233953520655632 -0.009198816493153572 1.8044991586139592e-29 0.04456363990902901 1 True False
3251.5049999999997 4.543323993682861 -1.4439718586257477 1.7598980108844202 -1.8866707287230433 -1.570772949849264 1.528850793838501 0.6165400147438049 -0.039120227098464966 0.04832954332232475 -0.007939619943499565 0.0 0.04188154265284538 1 True False
3251.555 4.572368621826172 -1.4458455380848427 1.7621434370623987 -1.8869935474791468 -1.570829216633932 1.530808687210083 0.5468569993972778 -0.033319681882858276 0.04145333170890808 -0.007276314776390791 0.0 0.03575633838772774 1 True False
3251.605 4.598085403442383 -1.4475494113615532 1.7641132513629358 -1.8873726330199183 -1.5708048979388636 1.5323485136032104 0.4744599461555481 -0.03078646957874298 0.0351981520652771 -0.007071617990732193 0.0006432179943658412 0.03157983720302582 1 True False
3251.6549999999997 4.620238780975342 -1.448952392940857 1.765932861958639 -1.8876234493651332 -1.5707853476153772 1.5338693857192993 0.40704500675201416 -0.02881551906466484 0.03424263000488281 -0.0038188130129128695 -5.711900952221072e-10 0.025006229057908058 1 True False
3251.705 4.638613224029541 -1.4501049903086205 1.7672966162311 -1.8879715404906214 -1.570784870778219 1.5350770950317383 0.3452945053577423 -0.02190895564854145 0.028246624395251274 -0.0022993304301053286 -1.031742247192824e-08 0.023563724011182785 1 True False
3251.7549999999997 4.653801918029785 -1.4510718819550057 1.7685516516314905 -1.8881827793517054 -1.570801083241598 1.536102294921875 0.26723286509513855 -0.017085880041122437 0.021331962198019028 -0.004080032464116812 -1.5672181737113245e-27 0.017025312408804893 1 True False
3251.805 4.665318012237549 -1.4519376468709488 1.7694299856769007 -1.888294359246725 -1.5707529226886194 1.536783218383789 0.19954514503479004 -0.012814298272132874 0.01711101643741131 -0.0032358169555664062 -0.0 0.011613224633038044 1 True False
3251.855 4.6735005378723145 -1.4524282825044175 1.7700727621661585 -1.8884426556029261 -1.5708087126361292 1.5373146533966064 0.12747956812381744 -0.006746393162757158 0.009173328056931496 -0.0025641629472374916 -0.0 0.007160369772464037 1 True False
3251.9049999999997 4.678084373474121 -1.452651509349682 1.770344082509176 -1.8884898624815882 -1.570784870778219 1.5375975370407104 0.0581277497112751 -0.0034796549007296562 0.0034830716904252768 -0.0009672293090261519 -0.0 0.004524683579802513 1 True False
3251.955 4.679254055023193 -1.4526994314840813 1.770496670399801 -1.8885704479613246 -1.5707967917071741 1.5376291275024414 0.0014897410292178392 0.002078777411952615 0.02096100151538849 -0.02248072437942028 -0.0 0.0003299256495665759 1 True False
3252.0049999999997 4.679255485534668 -1.452094317679741 1.7721155325519007 -1.890951772729391 -1.5707925001727503 1.5377305746078491 0.0006121176993474364 0.027731580659747124 0.0483846440911293 -0.07435357570648193 -0.0 0.001105103874579072 1 True False
3252.055 4.679197311401367 -1.4498442721417923 1.7757404486285608 -1.8968717060484828 -1.5707805792437952 1.5376975536346436 0.0006435301038436592 0.06082244962453842 0.09672361612319946 -0.15386855602264404 -0.0 0.0002455542853567749 1 True False
3252.105 4.679263114929199 -1.4462491658381005 1.7815106550799769 -1.906248231927389 -1.5707767645465296 1.5377426147460938 0.0009818209800869226 0.08423053473234177 0.13777662813663483 -0.21885117888450623 -0.0 0.00014215958071872592 1 True False
3252.1549999999997 4.6793036460876465 -1.4413153690150757 1.7897785345660608 -1.9189311466612757 -1.570813004170553 1.5377216339111328 0.00036033973447047174 0.10622642189264297 0.18369413912296295 -0.29385823011398315 -0.0 7.363222539424896e-05 1 True False
3252.205 4.679319858551025 -1.4351830643466492 1.7997730414019983 -1.9353028736510218 -1.5708211104022425 1.5377379655838013 0.00014403826207853854 0.13383091986179352 0.2227613925933838 -0.3544198274612427 -0.0 5.2255440095905215e-05 1 True False
3252.2549999999997 4.679299354553223 -1.4278039795211335 1.8120964209186 -1.9549790821471156 -1.5707925001727503 1.5377049446105957 0.00010081603977596387 0.1618501991033554 0.27306610345840454 -0.4256647825241089 5.19180393894203e-05 1.1964720042943457e-20 1 True False
3252.305 4.679291248321533 -1.4190991532853623 1.8268993536578577 -1.9782921276488246 -1.5708168188678187 1.5377379655838013 8.229539525927976e-05 0.1905907690525055 0.30760130286216736 -0.4870796501636505 5.026282212821778e-21 1.8174434705738223e-39 1 True False
3252.355 4.679360389709473 -1.4089810264161606 1.843229118977682 -2.0051681003966273 -1.5707724730121058 1.5376886129379272 2.802596928649634e-45 0.21480625867843628 0.35922127962112427 -0.5558497309684753 7.634932643919836e-40 0.0 1 True False
3252.4049999999997 4.679323196411133 -1.3986033660224457 1.8608282248126429 -2.0327116451659144 -1.570801083241598 1.5377424955368042 0.0 0.19481736421585083 0.3229447305202484 -0.522599458694458 0.0 0.0 1 True False
3252.455 4.679299354553223 -1.389466555123665 1.8757050673114222 -2.056969305078024 -1.5708172957049769 1.5377216339111328 3.809981717495248e-05 0.17352394759655 0.2871516942977905 -0.44717761874198914 0.0 1.3773823794077334e-23 1 True False
3252.5049999999997 4.679344177246094 -1.3817028415254136 1.8887956778155726 -2.077813287774557 -1.5707805792437952 1.5377216339111328 1.8509923393139616e-05 0.1432720273733139 0.23672160506248474 -0.382144957780838 0.0 2.092138607236952e-42 1 True False
3252.555 4.679327964782715 -1.3752482545426865 1.8992560545550745 -2.095194002191061 -1.5707648436175745 1.5377005338668823 1.2224543752381578e-05 0.11347068846225739 0.19580134749412537 -0.3024386763572693 0.0 0.0 1 True False
3252.605 4.6792778968811035 -1.3699876081994553 1.907973591481344 -2.1087781391539515 -1.5708487669574183 1.5377542972564697 8.154514499609672e-22 0.08547645062208176 0.15221290290355682 -0.23714692890644073 0.0 0.0 1 True False
3252.6549999999997 4.679323196411133 -1.3661627036384125 1.9145491758929651 -2.119134088555807 -1.5708168188678187 1.5377216339111328 0.0 0.06505368649959564 0.11146758496761322 -0.16872519254684448 0.0 0.0 1 True False
3252.705 4.679319858551025 -1.3637111198953171 1.9187186400042933 -2.1260205707945765 -1.5707891623126429 1.5377005338668823 0.0 0.037266165018081665 0.060417044907808304 -0.10102374106645584 0.0 0.0 1 True False
3252.7549999999997 4.679286003112793 -1.3623738151839753 1.9208028952227991 -2.1291338406004847 -1.570813004170553 1.5377261638641357 0.0 0.012336540967226028 0.020032325759530067 -0.0337047278881073 0.0 0.0 1 True False
3252.805 4.679319858551025 -1.3622777175954361 1.9209516684161585 -2.1294809780516566 -1.570813004170553 1.5377094745635986 0.0 -2.6298149501130666e-24 -8.571994112571701e-05 7.89580080891028e-05 0.0 0.0 1 True False
3252.855 4.6793532371521 -1.3623019021800538 1.9209473768817347 -2.1294805012144984 -1.5707810560809534 1.5376886129379272 0.0 0.0001051716972142458 -3.9688154053359475e-32 8.316406591157843e-12 6.353412154019855e-12 0.0 1 True False
3252.9049999999997 4.679360389709473 -1.3623556804708024 1.920983616505758 -2.1295048199095667 -1.570829216633932 1.5377424955368042 0.0 1.157948045693326e-28 0.00010315871622879058 -0.00024141708854585886 1.8787645050810653e-10 0.0 1 True False
3252.955 4.6793060302734375 -1.3623360854438324 1.9209635893451136 -2.129516740838522 -1.5707767645465296 1.537667989730835 0.0 0.0002134656097041443 1.1792549392769611e-15 -0.0007637070957571268 2.853846301785098e-29 0.0 1 True False
3253.0049999999997 4.6792778968811035 -1.3622955244830628 1.9209793249713343 -2.1295367679991664 -1.570813004170553 1.537733554840088 0.0 0.0002515013620723039 2.802596928649634e-45 -0.0007755485130473971 0.0 0.0 1 True False
3253.055 4.679290294647217 -1.3622421038201828 1.921016041432516 -2.1295443973936976 -1.5708006064044397 1.5377084016799927 0.0 0.00012967622024007142 0.0 -0.0002253020938951522 0.0 0.0 1 True False
3253.105 4.679348468780518 -1.3622464400580903 1.9210479895221155 -2.129540582696432 -1.5708211104022425 1.5376560688018799 0.0 0.00013313539966475219 0.0 -8.395794429816306e-05 0.0 0.0 1 True False
3253.1549999999997 4.679295063018799 -1.362262801533081 1.921016041432516 -2.1295043430724085 -1.5707767645465296 1.537779450416565 0.0 -3.865606619524176e-12 2.540770651648927e-07 -5.7251974794780836e-05 0.0 0.0 1 True False
3253.205 4.679339408874512 -1.3622642320445557 1.9209912459002894 -2.129524370233053 -1.570784870778219 1.5377541780471802 0.0 0.0 5.978701555174262e-37 -5.2906410569002974e-15 0.0 0.0 1 True False
3253.2549999999997 4.679286003112793 -1.3622223746827622 1.9210041205035608 -2.1295443973936976 -1.570784870778219 1.537713885307312 0.0 0.0 0.0 -8.036493044717117e-34 0.0 0.0 1 True False
3253.305 4.679269313812256 -1.3622178447297593 1.9210074583636683 -2.129507680932516 -1.5708125273333948 1.5376724004745483 0.0 0.0 0.0 -0.0 0.0 0.0 1 True False
3253.355 4.6793036460876465 -1.362249494796135 1.920955006276266 -2.129613061944479 -1.5708125273333948 1.5377933979034424 0.0 0.0 1.8270930806193786e-18 -2.508963925507146e-09 0.0 0.0 1 True False
3253.4049999999997 4.679295063018799 -1.3622866433909913 1.9210131804095667 -2.129580637017721 -1.570772949849264 1.5377660989761353 0.0 -3.147126699332148e-05 0.0 -0.0001514443865744397 0.0 0.0 1 True False
3253.455 4.679315090179443 -1.3622747224620362 1.9209674040423792 -2.129536291162008 -1.570829216633932 1.5377006530761719 0.0 -1.679182969382964e-05 0.0 -8.223854820244014e-05 0.0 0.0 1 True False
3253.5049999999997 4.679295063018799 -1.3622732919505616 1.9208996931659144 -2.1293522320189417 -1.570784870778219 1.5377216339111328 0.0 -0.005904276855289936 -0.014342686161398888 0.017932351678609848 0.0 0.0 1 True True
3253.555 4.679335117340088 -1.3632700008204957 1.9192927519427698 -2.1265884838499964 -1.5707886854754847 1.537762999534607 0.0 -0.034783199429512024 -0.059453435242176056 0.091217041015625 0.0 0.0 1 True True
3253.605 4.679351329803467 -1.365655319099762 1.9152658621417444 -2.1201635799803675 -1.5708087126361292 1.5377510786056519 0.0 -0.05999809503555298 -0.0950562134385109 0.15435688197612762 0.0 0.0 1 True True
3253.6549999999997 4.679323196411133 -1.3693824273398896 1.9088628927813929 -2.1104122600951136 -1.570784870778219 1.5377216339111328 0.0 -0.08957657963037491 -0.14311224222183228 0.22135905921459198 0.0 0.0 1 True True
3253.705 4.679278373718262 -1.3744289737990876 1.9007375876056116 -2.097067972222799 -1.570801083241598 1.5377260446548462 0.0 -0.11419440060853958 -0.1768008917570114 0.29852843284606934 0.0 0.0 1 True True
3253.7549999999997 4.679245471954346 -1.3807740372470398 1.890315357838766 -2.080227037469381 -1.5707805792437952 1.5377006530761719 0.0 -0.1387563794851303 -0.2314736396074295 0.3742305338382721 0.0 0.0 1 True True
3253.805 4.679319381713867 -1.3883931052735825 1.877394978200094 -2.0599409542479457 -1.5707929770099085 1.5377050638198853 0.0 -0.1662517935037613 -0.28041893243789673 0.434268057346344 0.0 0.0 1 True True
3253.855 4.679286003112793 -1.397274689083435 1.8627522627459925 -2.0361324749388636 -1.570772949849264 1.5377248525619507 0.0 -0.1915118545293808 -0.32052838802337646 0.5121640563011169 0.0 0.0 1 True True
3253.9049999999997 4.679355621337891 -1.407662720685341 1.84558612505068 -2.008822103539938 -1.570829216633932 1.5377423763275146 0.0 -0.21719896793365479 -0.35811659693717957 0.5810137987136841 0.0 0.0 1 True True
3253.955 4.6793036460876465 -1.4177734416774292 1.828867260609762 -1.9816161594786585 -1.570784870778219 1.5376769304275513 0.0 -0.1915808618068695 -0.3218139111995697 0.519950807094574 0.0 0.0 1 True True
3254.0049999999997 4.6792826652526855 -1.4267932784608384 1.813732926045553 -1.957914491693014 -1.570784870778219 1.537668228149414 0.0 -0.16897667944431305 -0.28007644414901733 0.4358934164047241 0.0 0.0 1 True True
3254.055 4.679262638092041 -1.4343581956676026 1.8013132254229944 -1.937596937219137 -1.570784870778219 1.5376975536346436 4.14994254238632e-11 -0.13598160445690155 -0.23703448474407196 0.36595574021339417 0.0 0.0 1 True True
3254.105 4.67930793762207 -1.4405831110528489 1.790809456502096 -1.9207741222777308 -1.5707281271563929 1.53773033618927 0.0 -0.11070381850004196 -0.18265540897846222 0.3141014575958252 0.0 0.0 1 True True
3254.1549999999997 4.6793365478515625 -1.4456599366715928 1.7824395338641565 -1.9077192745604457 -1.5708048979388636 1.5377628803253174 0.0 -0.08800844848155975 -0.14483220875263214 0.24512502551078796 0.0 0.0 1 True True
3254.205 4.679286003112793 -1.4492745485952874 1.7764442602740687 -1.8977443180479945 -1.5707405249225062 1.5377671718597412 0.0 -0.06692405790090561 -0.0940895676612854 0.15417344868183136 0.0 0.0 1 True True
3254.2549999999997 4.679318904876709 -1.451656275694706 1.7725041548358362 -1.8914433918394984 -1.5708168188678187 1.5376975536346436 0.0 -0.035349663347005844 -0.060923982411623 0.08543667942285538 0.0 0.0 1 True True
3254.305 4.679347991943359 -1.4527796444347878 1.770667854939596 -1.888801713983053 -1.5707967917071741 1.5376888513565063 0.0 -0.006971538532525301 -0.013596173375844955 0.023304283618927002 0.0 0.0 1 True True
3254.355 4.678443908691406 -1.4527471897057076 1.770655934010641 -1.8886181316771449 -1.570756737385885 1.5369466543197632 -0.04796729236841202 -0.000538726570084691 1.4443334436715927e-20 -3.813835965787993e-12 0.0 -0.04700801521539688 1 True True
3254.4049999999997 4.674332141876221 -1.4529107374003907 1.7707083860980433 -1.888589998284811 -1.5707805792437952 1.5326405763626099 -0.11982909590005875 -0.0063394708558917046 0.0019007050432264805 0.0008322240901179612 0.0 -0.12056785076856613 1 True True
3254.455 4.666656017303467 -1.4533089262298127 1.7710021177874964 -1.888562341729635 -1.570813004170553 1.5249990224838257 -0.1849195957183838 -0.00822414830327034 0.00687786377966404 8.739349141251296e-05 0.0 -0.1861143261194229 1 True True
3254.5049999999997 4.655460834503174 -1.4536836829832573 1.771395508443014 -1.8885776005186976 -1.5708091894732874 1.5139156579971313 -0.25951042771339417 -0.008744130842387676 0.011736728250980377 -5.7104392908513546e-05 0.0 -0.2597713768482208 1 True True
3254.555 4.640722274780273 -1.4541053560427208 1.7719348112689417 -1.8886181316771449 -1.5707925001727503 1.4991406202316284 -0.3233298063278198 -0.01061684638261795 0.011585540138185024 -0.0014537516981363297 -4.78063702757936e-05 -0.32188981771469116 1 True True
3254.605 4.622764587402344 -1.4547922027162095 1.7726033369647425 -1.8887134991087855 -1.5708211104022425 1.4810826778411865 -0.40093758702278137 -0.012750278227031231 0.015362515114247799 -0.001491693314164877 -3.069845072589672e-11 -0.3945017158985138 1 True True
3254.6549999999997 4.60103702545166 -1.4554671210101624 1.7734673658954065 -1.8888417683043421 -1.5707767645465296 1.4593991041183472 -0.46269622445106506 -0.015787819400429726 0.018077438697218895 -0.002703690202906728 -4.663103711067909e-30 -0.46572068333625793 1 True True
3254.705 4.575786113739014 -1.4561958622983475 1.774327580128805 -1.888921400109762 -1.5707967917071741 1.434183120727539 -0.534943163394928 -0.015538313426077366 0.02131117507815361 -0.0024649840779602528 -0.0 -0.5276089906692505 1 True True
3254.7549999999997 4.5472540855407715 -1.457191066151001 1.7754629294024866 -1.8890210590758265 -1.570784870778219 1.4056380987167358 -0.6082972288131714 -0.01962442509829998 0.021596776321530342 -0.003353729611262679 0.00011017431825166568 -0.6048650741577148 1 True True
3254.805 4.515296459197998 -1.4583435145071526 1.776694122944967 -1.8891211948790492 -1.570784870778219 1.3735939264297485 -0.6773025393486023 -0.023176439106464386 0.025334622710943222 -0.0018405471928417683 0.0004554701445158571 -0.6800053715705872 1 True True
